NicholasDascanio/dvrk_moveit_final/test/execution/third_experiment_notsharpbends/thirdexp_200vel4.0/thirdexp_200vel4.0_25.csv
Current Position (x),Current Position (y),Current Position (z), ,Planned Position (x),Planned Position (y),Planned Position (z), ,Position Error,,Cartesian linear Velocity(x),Cartesian linear Velocity(y),Cartesian linear Velocity(z),Cartesian Angular Velocity(x),Cartesian Angular Velocity(y),Cartesian Angular Velocity(z), ,Total Linear Velocity, ,Total Angular Velocity, ,MSE, ,Joint 1 Position,Joint 2 Position,Joint 3 Position,Joint 4 Position,Joint 5 Position,Joint 6 Position, ,Joint 1 Velocity,Joint 2 Velocity,Joint 3 Velocity,Joint 4 Velocity,Joint 5 Velocity,Joint 6 Velocity, ,Time Stamp
0.009563572537443802,0.020415640469848183,-0.07572900765074196, ,0.009777643421943647,0.0203531437971284,-0.0760885215167615, ,0.000423063112965318, ,0.0006957105309030585,0.0008630507580454748,-0.004501974353549714,0.34913300602372993,-0.0009029374199571413,-0.003958618120745481, ,0.0046364472210725805, ,0.3491341736199722, ,3.52552594137765e-05, ,0.1434574858715945,-0.26074263003244214,0.08560439902000001,1.6079024866393328,0.1503001497419845,-1.2929343615401798, ,0.00042777341232769727,0.004283796854259821,0.004621065134899913,-0.001045017858550119,-0.0013706809558022145,-0.35354126081569204, ,0.0523228645324707
0.009711168215247989,0.020496216307260826,-0.07627476126472457, ,0.009871867518254378,0.020352305466925354,-0.0765708411001774, ,0.00036633026753814864, ,0.001418963953067303,0.00012953062502239516,-0.007244424781885229,-0.02127662600388748,-0.0178427621863521,-0.008179869570379314, ,0.007383219304836876, ,0.027767948368478654, ,3.588151729561212e-05, ,0.14351154500171406,-0.2599394658135228,0.08615791485,1.6074831067523636,0.1431950517541816,-1.3033130210957973, ,0.0029538475193050923,0.02218254828388751,0.0071333683475145555,0.0009797071240184039,-0.01567849961103407,-0.0005356531280528709, ,0.10716795921325684
0.009759360386391164,0.020481707518702257,-0.0766571890239342, ,0.009966729742746774,0.02035158036019219,-0.07704982702065002, ,0.00046270911359325774, ,0.0017506951296375538,0.0002824616098242495,-0.011168656246042975,-0.028426095008516238,-0.004430400882869953,-0.006541101990317347, ,0.01130856314216072, ,0.028769274506566803, ,3.912820294052264e-05, ,0.14361194052907897,-0.25851848296466545,0.08652865379,1.6074831067523636,0.14483468975136687,-1.3013828863345318, ,0.0013314966081804495,0.032734371010165846,0.01099296861283644,0.0009797071240184039,-0.003474009529134982,-0.0038348694166717157, ,0.1645979881286621
0.00986687334516323,0.02048194264699185,-0.07723262418892646, ,0.010062221152930192,0.0203509659813442,-0.07752548250977559, ,0.0003756083718903342, ,0.0016734270212051855,3.0678965450257304e-05,-0.0095091930971247,0.006934897029215156,-0.002994798477476577,-0.005312767393121136, ,0.009655363926472415, ,0.007553908721536316, ,3.8755020618739494e-05, ,0.14392084984404796,-0.25666502707485156,0.08709383623000001,1.6074831067523636,0.14483468975136687,-1.3027714249169213, ,0.0038149348416565403,0.030068739403824703,0.009336935240328255,0.0009797071240184039,0.0005332070210866686,-0.03655746375397089, ,0.21784591674804688
0.009934652010607075,0.020482446277079767,-0.07759516080294243, ,0.010158332859873463,0.020350459864437998,-0.0779978108724944, ,0.00047914571266033357, ,0.0018848431845371243,0.00025149778601409295,-0.009281262804264593,-0.003100334029788882,-0.0028631763979617745,-0.00377878690107908, ,0.00947405532010931, ,0.004220163659300072, ,4.131091330681161e-05, ,0.14412936363165202,-0.2555143398765921,0.08745031598000001,1.6074831067523636,0.1449713262511323,-1.3041080239227263, ,0.007297712883920358,0.026552026177524,0.009207405502890174,0.0009797071240184039,0.004297056343742473,-0.02304048845422883, ,0.26622796058654785
0.010023583515254179,0.020495102596681164,-0.07807692422196136, ,0.010255056028080528,0.020350059573076115,-0.0784668154868022, ,0.00047605903130791956, ,0.0016552436986752529,-2.4932644298192677e-05,-0.007951914047849066,0.007131351414224372,-0.0009026030005937522,-0.0016023267332948019, ,0.008122400529593154, ,0.007188242718138647, ,4.304859349925519e-05, ,0.14441510474799832,-0.25413969342498016,0.0879273507,1.607692796695848,0.14538123575042863,-1.3051773862950804, ,0.007007378045378585,0.025346405330788135,0.007838982047244095,-0.0006159682656895748,0.006435214630517229,-0.0322979844714878, ,0.3151118755340576
0.010110709960577087,0.02049735453815701,-0.0785614669224863, ,0.010352381875364393,0.020349762700309804,-0.07893249980346113, ,0.00046674839449167897, ,0.002060118256764805,0.0004439867701981606,-0.011848521504406673,-0.0029178913357715713,0.004097140871143184,-0.0021342671567679584, ,0.012034478523158119, ,0.00502995225097858, ,4.419802904995638e-05, ,0.14466995493284773,-0.25265692871312906,0.08840438542000001,1.6074831067523636,0.14579114524972495,-1.306246748667435, ,0.005271688719725078,0.03149583191452731,0.011755580457564578,-0.00012636861696126657,0.009680793732281994,-0.028264299861387395, ,0.36249589920043945
0.010206188941463652,0.020497373481217735,-0.07905880930141566, ,0.01045030167272109,0.02034956686854224,-0.07939486734571075, ,0.0004408773405926014, ,0.0015836895215185982,-0.0006565626653135578,-0.008246469070655576,-0.040703345817652725,0.002179740647100019,-0.00257693115488072, ,0.008422790462033975, ,0.04076166816880297, ,4.475053006461015e-05, ,0.1450020324464394,-0.2511201048711584,0.08889438304000001,1.6074831067523636,0.14620105474902126,-1.3074794685200704, ,0.005625742959794056,0.033065136431522923,0.007964405760000001,-0.00012636861696126657,0.00810475789306393,0.007971002993644307, ,0.4102969169616699
0.010283926708617832,0.020493806318453316,-0.0794497235432091, ,0.01054880674420335,0.02034946972943212,-0.07985392170897851, ,0.0005043517040651414, ,0.0023221752479495408,0.00012021576891071648,-0.01103187928108864,-0.009085287773990824,0.00015186800079595528,0.0008955693362109555, ,0.011274276481699264, ,0.009086547992918106, ,4.645224475703178e-05, ,0.1453186644942826,-0.24988446761128247,0.08927938117,1.6072734168088794,0.14674760074808305,-1.3083335338355586, ,0.010003828216152394,0.03220120175041425,0.010932609142072754,-0.003013667577903062,0.011229080546782873,-0.023196425013186278, ,0.4520690441131592
0.010387215452697546,0.020512831410585797,-0.07992747256488815, ,0.010647888466793364,0.02034946896379617,-0.08030966656059062, ,0.0004906220130099238, ,0.0025085587324337488,0.00024506040592033116,-0.011001254685877046,-0.0077335589253292505,-0.011622621955595158,-0.0019042500667212608, ,0.011286298161051351, ,0.013960412373255744, ,4.771824534164529e-05, ,0.14575886026811338,-0.24865655308428075,0.08975641589000001,1.6072734168088794,0.1470208737476139,-1.3092097995640761, ,0.010971673419014364,0.030347598835455954,0.010947636783505157,-0.002745031676954858,0.0,-0.022679040057238743, ,0.49484705924987793
0.010478035676614742,0.02050884822464718,-0.08032610839398754, ,0.010747538270275334,0.020349562281512308,-0.08076210563948197, ,0.0005367469215085231, ,0.002448466851821732,0.00016336499204424036,-0.010848433777162585,0.0038791203512138495,0.0005144283289309744,-0.001515941168621803, ,0.011122508415936466, ,0.003913062860169257, ,4.923786258454098e-05, ,0.1461990560419442,-0.24741319309153062,0.09015048805,1.6070637268653947,0.14743078324691022,-1.3105241981568523, ,0.01180163431892436,0.030611916631764772,0.010791877723577238,0.0,0.012668923437542643,-0.03416224107785315, ,0.5371348857879639
0.010572655654209513,0.02051647220554648,-0.08077337635548791, ,0.010847747637107675,0.020349747421422298,-0.08121124275590813, ,0.0005433228665471923, ,0.0022060519420408612,4.401446190268208e-05,-0.01094330575558011,0.02065290181251887,0.020648022890435287,0.002988645953811844, ,0.01116353632609092, ,0.029204161443503653, ,5.059622591063975e-05, ,0.14662380635002653,-0.24616983309878046,0.09059511552,1.6070637268653947,0.14811396574573746,-1.31189807507674, ,0.010732518596404934,0.03191959016430231,0.010850689046321525,0.0,0.03231369129140611,-0.05222154833026229, ,0.5789549350738525
0.01066914151214451,0.020518581581051534,-0.08121406572309407, ,0.010948508102295028,0.020350022151234385,-0.08165708179115341, ,0.0005502010629137027, ,0.002362718835295885,-7.645806768112017e-05,-0.011466173095314253,-0.0011829208768823721,0.006326602105596696,-0.001156773274955568, ,0.01170732298958579, ,0.006436225431773479, ,5.2271674470804065e-05, ,0.14703311119236043,-0.24489558217453342,0.09103196525000001,1.6070637268653947,0.14838723874526832,-1.3126926620651167, ,0.009855031399732803,0.03447037470340384,0.01132916893314367,0.0,0.0166545124097661,-0.032909897594743096, ,0.6161558628082275
0.010772829613268198,0.020522309868191844,-0.08169618106651573, ,0.011049811253259878,0.020350384267426472,-0.08209962669724324, ,0.0005186960748300842, ,0.002688220941805464,0.00013045562447966622,-0.01252361364520476,0.008081224632645032,0.005169898989442447,0.0021066026379286625, ,0.012809545239245565, ,0.00959342165523278, ,5.3503886999307736e-05, ,0.14746558423331702,-0.2435363811886699,0.09151029626000001,1.6068540369219102,0.14879714824456466,-1.3137620244374708, ,0.01194573785982764,0.034786268899732686,0.012444384000000001,-0.0031066285270429797,0.018369127739474713,-0.04292904349454979, ,0.6529829502105713
0.010853461135084846,0.02052856470774162,-0.08207664441245938, ,0.011151648729713323,0.020350831595147546,-0.08253888149665325, ,0.0005780726796059071, ,0.0027523882909938954,0.00014336871949421497,-0.01271491801993258,0.01706852604333434,-0.003201747908633333,-0.0003011627016737231, ,0.01301020123394469, ,0.017366215437847735, ,5.5057669217710434e-05, ,0.1478131072126571,-0.24250925771639806,0.09188881294000001,1.6068540369219102,0.1493436942436264,-1.315106162193803, ,0.011243414853608342,0.03486294693551461,0.012631888596352102,-0.0030746201415431692,0.008990315095517424,-0.051988966350360946, ,0.6895790100097656
0.01096484369315233,0.020528742288544045,-0.08254921810915272, ,0.011254012223526203,0.020351361988120393,-0.08297485028201963, ,0.0005442838933097121, ,0.00257270809347303,-0.00014587211684009903,-0.0108685682717093,0.006963426097850986,-0.002021467597219294,0.0003913796505251682, ,0.011169864900055825, ,0.00725089529714154, ,5.6208975078476656e-05, ,0.14831508484948172,-0.24115777946340877,0.09235806992000001,1.6068540369219102,0.14948033074339184,-1.3159526887587643, ,0.01250783105121873,0.032599430284600064,0.010769987505070995,-0.0027692091217148664,0.011448632289211334,-0.03959852834583682, ,0.727294921875
0.011072129895945183,0.020526570975124232,-0.08300740239676636, ,0.011356893478599993,0.02035197332854409,-0.08340753721584943, ,0.0005212317235552357, ,0.002810879583750188,0.00018204544780208953,-0.011586922790855408,0.0063240309863884046,0.004007532802458022,0.0010532212285608788, ,0.011924385281458057, ,0.007486887085207786, ,5.709013989231044e-05, ,0.14883250795205474,-0.23983719214191637,0.09281306771,1.6066443469784255,0.15002687674245363,-1.3170517902946746, ,0.014783757837431187,0.030671280400281442,0.01158459019636364,-0.0011395857298165662,0.019595336364466087,-0.03681619220209849, ,0.7639689445495605
0.011158390660682485,0.020534293931731583,-0.08338754016229452, ,0.011460284290736387,0.02035266352699473,-0.08383694653023083, ,0.0005710476786869009, ,0.0029505469339316504,0.000675085034423597,-0.013590775481851362,0.04565997550411189,0.012150951905899715,0.002516550790748743, ,0.013923743936568509, ,0.04724911143685739, ,5.860343021901931e-05, ,0.14924181279438864,-0.23887957326551254,0.09318251036000001,1.6066443469784255,0.15057342274151536,-1.3182325705707254, ,0.013626786553485176,0.030464507723425613,0.013591136109215017,-0.0011395857298165662,0.012349748641250777,-0.05681999534416099, ,0.7954299449920654
0.011255768311058532,0.020553876255252183,-0.08379365104418793, ,0.011564176507508668,0.020353430522329,-0.08426308252654237, ,0.0005963723871124683, ,0.002968319043651861,0.0005494591915426237,-0.013236567336252189,0.011017430978741175,0.004075612227665654,0.0006475680943632634, ,0.013576433191203621, ,0.011747084492482166, ,6.0162358918371875e-05, ,0.14967428583534523,-0.23794512258773137,0.09360121203,1.6066443469784255,0.1507100592412808,-1.3191607758758273, ,0.013300202040430382,0.030523300597771235,0.013285080500417015,-0.0011395857298165662,0.018127087908661136,-0.041359501350512556, ,0.8274610042572021
0.011351502204533114,0.020564184023559952,-0.08420128232229708, ,0.011668562028130816,0.020354272281584745,-0.08468594957516384, ,0.000616029396344271, ,0.002736256983288439,-6.119333481070243e-05,-0.011404817644333095,0.018540183895786343,0.01748305865807065,0.004078042923151031, ,0.011728627899431012, ,0.025483240884598482, ,6.172711500937824e-05, ,0.15014537254067292,-0.23693344458120796,0.09400954338,1.6066443469784255,0.15139324174010801,-1.3204529740555744, ,0.015367925758456807,0.03211402421606456,0.011369601370449681,-0.0011203174416564584,0.03403779907014426,-0.05044469982015336, ,0.8588988780975342
0.011447742626918193,0.020564197132425226,-0.08457695321970794, ,0.011773432803326725,0.020355186799881898,-0.08510555211518565, ,0.0006551154115262054, ,0.0032957383226333986,0.00015694961188646503,-0.013246166880244216,-0.011664339666937409,-0.01490072612794171,-0.0036157978173418097, ,0.01365091430239105, ,0.018923214610682883, ,6.34120423553542e-05, ,0.15061645924600062,-0.23590632110893608,0.09438417119,1.606434657034941,0.15152987823987346,-1.3213811793606764, ,0.014934992376215105,0.03437049676148887,0.013229909900332229,-0.0016223676940706787,0.00040151623353751705,-0.022553940342107018, ,0.8905549049377441
0.011554867532188203,0.020574950756498893,-0.0850247477569911, ,0.011878780835201497,0.0203561721003259,-0.08552189465411944, ,0.0006324072782552181, ,0.003581503268432545,0.00038882879037078415,-0.014998746908218225,-0.01058993982041376,-0.006029785843002722,-0.0014972589179022742, ,0.015425328596396252, ,0.012186237469153345, ,6.522438181787401e-05, ,0.15111071414995098,-0.2348096930407962,0.09483268753000001,1.606434657034941,0.15193978773916977,-1.3224505417330308, ,0.016073330209768085,0.03619257877897437,0.015027180679245284,-0.0016223676940706787,0.010696745432278536,-0.025425656918317788, ,0.917456865310669
0.011667408366539336,0.020590661094385947,-0.08549988534634678, ,0.011984598177109384,0.02035722623390725,-0.08593498176760696, ,0.0005868646401084182, ,0.0038307048870906604,0.0005578349332594288,-0.015838883622662957,0.015634084798861247,-0.00753430209195763,-0.0017498312236390965, ,0.016305082463974406, ,0.017354806788808377, ,6.66810451196564e-05, ,0.15162813725252403,-0.23370534223978212,0.09530972225,1.606434657034941,0.15248633373823153,-1.3237130007492222, ,0.01723518735170192,0.036220206701706406,0.015912898621378624,-0.0016223676940706787,0.010316073193714671,-0.051675036104000815, ,0.9435219764709473
0.011722425595634684,0.020597097613653245,-0.08572581095248569, ,0.012090876933523448,0.020358347279403177,-0.08634481809913114, ,0.0007588991751838198, ,0.0037789261002287217,0.00019597670729672238,-0.015715877804459103,0.0019092925128251707,0.005851495843070365,0.001235472053454336, ,0.01616500864538844, ,0.006155033937992882, ,6.899351223696912e-05, ,0.15189071017024766,-0.23317247367146063,0.09553657300000001,1.606434657034941,0.15275960673776243,-1.3244259089974584, ,0.018309269063953457,0.03970583328806308,0.0157243943928924,-0.0016223676940706787,0.0251959428361389,-0.041390277536477435, ,0.9699969291687012
0.011862764559850901,0.020598026469766523,-0.08625458604045991, ,0.012197609259905182,0.020359533343279036,-0.08675140835972515, ,0.000644850650504686, ,0.004290726002179213,0.00046086588853008076,-0.01634999438028374,0.027807137985169546,-0.009420485518318193,-0.0012312705914602215, ,0.016909909616207218, ,0.029359518080795264, ,7.05801952492434e-05, ,0.15259347886180208,-0.2317823817541002,0.09606545932,1.6062249670914566,0.1530328797372933,-1.3257105684266786, ,0.021489343650016028,0.038095921942380886,0.016455383801652894,-0.001951552610307044,0.012805284852057584,-0.06574831229286539, ,0.996290922164917
0.011953022555054612,0.020610811505181008,-0.08661616133214015, ,0.012304787362572643,0.020360782559588484,-0.08715475732768249, ,0.0006901728767899802, ,0.004693291408467839,0.0008914224885058472,-0.018882489821765946,0.01125255585160655,0.006481642637335272,0.0027791626949924576, ,0.019477423858583212, ,0.012985734634650902, ,7.269341854350768e-05, ,0.1530413973685071,-0.23097149480230664,0.09642971681000001,1.6062249670914566,0.15357942573635508,-1.326727991222448, ,0.023321932061555854,0.039722453561519794,0.019076420982035932,-0.001951552610307044,0.031045771095225928,-0.0507968421904628, ,1.018225908279419
0.01204940033415117,0.020621394763678302,-0.0869857497620163, ,0.012412403498570278,0.020362093089874935,-0.08755486984826735, ,0.0007231226230660474, ,0.004749704526018304,0.00035488443843818157,-0.017885458397091613,-0.014242386031459121,-0.013395828909957339,-0.002289508781320277, ,0.01850878867249878, ,0.019552287892884945, ,7.488808325869558e-05, ,0.1535124840738348,-0.23012199418614193,0.09680175204000001,1.6062249670914566,0.15385269873588595,-1.3271141845101222, ,0.023408224360747604,0.04263115074504527,0.01797834257336343,-0.001951552610307044,0.010722112096779554,-0.028176653530160176, ,1.0393409729003906
0.012143209704358667,0.020628600680446776,-0.08734628048454507, ,0.01252044997553728,0.020363463123072034,-0.08795175083342373, ,0.0007610535394443702, ,0.004795070504718652,0.00045223304741420854,-0.018152727864580033,-0.0110333279561094,0.014461944014747768,0.00505772864505637, ,0.018780807884643747, ,0.01819011213184268, ,7.718410916123085e-05, ,0.15402218444353363,-0.22926477083710303,0.09716471324,1.6062249670914566,0.1546725177344786,-1.3280277281527222, ,0.026485331163402397,0.042026989175584936,0.018308978758620694,-0.001951552610307044,0.042500303002953856,-0.0307813460690652, ,1.0601420402526855
0.012245677118126928,0.02063627059081091,-0.0877235847285983, ,0.01262891915157659,0.02036489087540415,-0.08834540526148583, ,0.0007792189559151034, ,0.005118390368375346,0.0003509613202889888,-0.018226021439557417,-0.037970018259302546,-0.025852370002417427,-0.004805818234362585, ,0.018934332608429142, ,0.04593544720729912, ,7.947914584059758e-05, ,0.15453960754610666,-0.2283766565565672,0.09754452621000001,1.6062249670914566,0.15494579073400946,-1.3284139214403963, ,0.025427905026385523,0.042920371577779635,0.01835116534562212,-0.0018925859021964029,0.0,-0.004722631412239289, ,1.0811290740966797
0.012348306656547509,0.020644987852092903,-0.08812667031560428, ,0.012737803435123195,0.020366374590286677,-0.08873583817688763, ,0.0007748668101007202, ,0.005199425614480744,0.0005386894971211638,-0.020275623207027277,0.018125507660151002,0.018787868743045957,0.0052810209462799225, ,0.020938603332795867, ,0.026105834849392676, ,8.166551056183361e-05, ,0.15506475338155393,-0.22744220587878602,0.09795026498,1.6062249670914566,0.15576560973260212,-1.3294908225632776, ,0.027363593298290304,0.045733465811311214,0.02044776831835687,-0.001811716477054495,0.04776272937580929,-0.06357437945278839, ,1.1022319793701172
0.012461474366149939,0.02064521401387346,-0.08851895589540915, ,0.01284709528481319,0.020367912538226767,-0.0891230546898734, ,0.0007684627217892161, ,0.005671667880071745,7.648392073000533e-05,-0.019699004782435036,-0.02512280017513675,-0.018058972920719365,-0.0035990195855936883, ,0.020499376960053352, ,0.030939919606355004, ,8.413469070383227e-05, ,0.155651681079995,-0.2264536960708853,0.09834433714000002,1.6060152771479719,0.15590224623236756,-1.3297655979472551, ,0.029757585938686354,0.04889074784053105,0.01981195462686567,-0.0013338480517106517,0.012296927943038752,-0.023378583725760536, ,1.1180050373077393
0.01251709132125315,0.02064808043232713,-0.08872752630316527, ,0.012956787209352292,0.02036950301672338,-0.0895070599762065, ,0.0009373423056178109, ,0.005763168560774801,0.0003064412071434427,-0.021460010385514622,-0.016073271523391483,-0.012299265667465017,-0.002996574149354894, ,0.02222251254515866, ,0.020239007929614247, ,8.732044992944302e-05, ,0.15594514492921552,-0.22595944116693492,0.09855433612000002,1.6060152771479719,0.15631215573166388,-1.3303448878787663, ,0.027984942954429604,0.05053085280003769,0.021583755447154476,-0.0013338480517106517,0.016377401009194794,-0.03404646771498105, ,1.1339540481567383
0.012643444584177162,0.0206639899067987,-0.08921913002028718, ,0.013066871767384039,0.020371144350167392,-0.08988785927688017, ,0.000843947817190508, ,0.006741287740104593,0.0012971092271829025,-0.02607860051156429,0.013598699841265468,-0.006180502884334855,-0.0010666408965443062, ,0.02696703278790399, ,0.014936907016455184, ,8.999011262394843e-05, ,0.15657840902490194,-0.22490142676316618,0.09905081519000002,1.6060152771479719,0.15726861123002195,-1.3317782431257656, ,0.0313708897713953,0.05096505991324961,0.02641593950248757,-0.0013338480517106517,0.026094974338109967,-0.06414306491653153, ,1.1496009826660156
0.012785853665471754,0.020693820229319083,-0.08977546733097717, ,0.013177341567358372,0.020372834889741526,-0.09026545789782713, ,0.0007045460390558184, ,0.006825860020426593,0.0010275516975270234,-0.025595461492314692,0.004919068607836024,-0.012862278257444345,-0.0026185768989745017, ,0.026509920341527115, ,0.013770419476804673, ,9.195651851165871e-05, ,0.15722711858633678,-0.22384341235939742,0.09961470134000001,1.6060152771479719,0.1578151572290837,-1.3326323084412541, ,0.03213577431712522,0.05205537112368117,0.025900506536585367,-0.0013338480517106517,0.020025945920701626,-0.05653574772483068, ,1.1678340435028076
0.012849508709779097,0.020701445501309895,-0.09001885583771448, ,0.013288189267401032,0.020374573013321205,-0.09063986120962952, ,0.0008276073507326742, ,0.00626280082857793,0.0004884533441298505,-0.023296757775955145,0.04767438677494059,0.040556218153133324,0.010200933190936031, ,0.024128824748821782, ,0.06259111057354051, ,9.484304009779932e-05, ,0.15756691883280266,-0.22332598925682437,0.09986099644000002,1.6060152771479719,0.15849833972791091,-1.3333527554400173, ,0.03555524224746001,0.051998324141627826,0.023563330650887577,-0.0013338480517106517,0.0782944990684077,-0.09923045591752713, ,1.1783180236816406
0.01291766684756497,0.02070433091458624,-0.09026820343672934, ,0.01339940757518045,0.020376357125373112,-0.09101107464722863, ,0.0009441920199000786, ,0.007478319054915597,0.0003763893127990165,-0.026015607180755927,-0.004548950768580171,-0.0016602850259582011,0.0005068980495546051, ,0.027071733261564587, ,0.004841237691232888, ,9.819639982981923e-05, ,0.15792988727789123,-0.22274678429125752,0.10011247670000001,1.6060152771479719,0.15904488572697267,-1.3340434632752247, ,0.040024015840772156,0.05953384037545218,0.02628516752475248,-0.0013338480517106517,0.03960207844228279,-0.05444725759010927, ,1.1888060569763184
0.012992967277273563,0.020713330243008008,-0.09053540443898545, ,0.013510989247777268,0.020378185656856104,-0.09137910370963542, ,0.001045225867861477, ,0.0082326847869727,0.0013919335287521694,-0.0299244489940601,0.015946787762527795,0.00101027881952545,0.0015801664360442671, ,0.03106746248647, ,0.01597800699964143, ,0.00010193575255317535, ,0.15832374665447668,-0.22219074752431336,0.10038340131000001,1.6060152771479719,0.159454795226269,-1.3345410744665953, ,0.04162146559582052,0.058005465500287755,0.030398495267175574,-0.0013338480517106517,0.043953563489808146,-0.07343071602674439, ,1.1993529796600342
0.013076225864883544,0.02072988144292413,-0.09085301857326537, ,0.013622927091552842,0.020380057065120777,-0.09174395395963952, ,0.0011022818102649045, ,0.008705467177361035,0.001772799113262118,-0.0336424809400345,0.015702414816339456,0.02850321266811357,0.007340007376276641, ,0.034795754040869376, ,0.032541602098840064, ,0.00010585894165867122, ,0.1587407742296848,-0.22159609709299807,0.10070617752000001,1.6060152771479719,0.1601379777250962,-1.3351798427252177, ,0.04290096815482405,0.06251445425459208,0.034181998969957085,-0.0013338480517106517,0.07344975735233152,-0.07763423331101652, ,1.2098300457000732
0.013174844286377782,0.020750721782592792,-0.09123316137326519, ,0.013735213962017134,0.020381969833808758,-0.09210563102352012, ,0.0011005432584519984, ,0.009194887964995237,0.002207569338075892,-0.03532598221387964,0.004954016296894871,0.012487805145028164,0.003925414663525093, ,0.03656971898232974, ,0.013432518046241617, ,0.00010970667055535804, ,0.15918097000351558,-0.22094738753156323,0.10106784243000001,1.6060152771479719,0.1608211602239234,-1.3359819684641216, ,0.043751471442356284,0.061862413010737145,0.035875701621621625,-0.0013338480517106517,0.0574659584520405,-0.06609865694240798, ,1.2205028533935547
0.013270579796161367,0.020773186623760008,-0.09160657054888116, ,0.013847842763696858,0.020383922472752457,-0.09246414059075556, ,0.00110462006575472, ,0.009877892076899186,0.0020371888644204056,-0.03883462654825428,0.01059248277542746,0.0237950646503544,0.005315454622953615, ,0.04012294991017687, ,0.026044528515942668, ,0.00011350584104739238, ,0.15965977944171753,-0.2202446188400088,0.10147228491000002,1.6060152771479719,0.16150434272275063,-1.3367840942030254, ,0.04557970295795907,0.0710306448790949,0.03942775128712872,-0.0013338480517106517,0.0713341207678819,-0.08092427983890899, ,1.231895923614502
0.013371708800592847,0.02079198083876764,-0.09198551745856204, ,0.013960806450005398,0.020385913517875318,-0.09281948841373315, ,0.0010988331373366384, ,0.010292797561117329,0.0017471820088898323,-0.037111870892597036,-0.001975480657750873,0.003698375849290183,0.002214899066709932, ,0.03855237071510807, ,0.0041845082286898535, ,0.00011771664145888489, ,0.16013858887991944,-0.21954185014845437,0.10185728304000001,1.6060152771479719,0.16205088872181236,-1.3373931232980922, ,0.051102284091799025,0.069623581480903,0.03774599886255925,-0.0013098117999496377,0.05639188372477598,-0.06695911682476464, ,1.2371950149536133
0.013371708800592847,0.02079198083876764,-0.09198551745856204, ,0.0140740980231094,0.020387941531090168,-0.09317168030745923, ,0.0014365168589890634, ,0.010292797561117329,0.0017471820088898323,-0.037111870892597036,-0.001975480657750873,0.003698375849290183,0.002214899066709932, ,0.03855237071510807, ,0.0041845082286898535, ,0.00012332855727816225, ,0.16013858887991944,-0.21954185014845437,0.10185728304000001,1.6060152771479719,0.16205088872181236,-1.3373931232980922, ,0.051102284091799025,0.069623581480903,0.03774599886255925,-0.0013098117999496377,0.05639188372477598,-0.06695911682476464, ,1.242553949356079
0.013475300309127091,0.020805417264839712,-0.09234894547535602, ,0.01418771053379871,0.020390005100199848,-0.09352072214926978, ,0.0014328838641968972, ,0.011864303880820895,0.001430158128974319,-0.041247139448412934,0.011180891694645503,0.0060994075545549335,0.0028175019698106767, ,0.04294337634056218, ,0.01273168179259391, ,0.0006912521551037505, ,0.16067918018111516,-0.21882363599115148,0.10222672569,1.6060152771479719,0.1627340712206396,-1.338195249036996, ,0.06146174971403549,0.08216185416317816,0.04191792505263159,-0.0012857044657498217,0.06942195467005353,-0.09248346148009833, ,1.2477800846099854
0.013475300309127091,0.020805417264839712,-0.09234894547535602, ,0.01430163708135392,0.020392102838795844,-0.09386661987853974, ,0.0017767939863668173, ,0.011864303880820895,0.001430158128974319,-0.041247139448412934,0.011180891694645503,0.0060994075545549335,0.0028175019698106767, ,0.04294337634056218, ,0.01273168179259391, ,0.0007153753069095966, ,0.16067918018111516,-0.21882363599115148,0.10222672569,1.6060152771479719,0.1627340712206396,-1.338195249036996, ,0.06146174971403549,0.08216185416317816,0.04191792505263159,-0.0012857044657498217,0.06942195467005353,-0.09248346148009833, ,1.2530219554901123
0.013607915900570476,0.020831901811596002,-0.09283317126351218, ,0.014415870813415659,0.02039423338615811,-0.09420937949639317, ,0.001654779106728564, ,0.014080971507587494,0.003829837691130567,-0.05409383671422981,0.0795750441758748,0.09442246494946441,0.020741671074295247, ,0.05602753417565021, ,0.12348006468380936, ,0.0007357971286447915, ,0.16136650340692113,-0.21796641264211256,0.10272061218,1.6058055872044876,0.16396379971852854,-1.3394430463906855, ,0.07172860284086982,0.0866638735693797,0.055308373333333334,0.0015072779204719042,0.16968068515310078,-0.16490984452599455, ,1.2582650184631348
0.013607915900570476,0.020831901811596002,-0.09283317126351218, ,0.014530404925851812,0.020396395407153878,-0.0945490070654138, ,0.0019961824388472155, ,0.014080971507587494,0.003829837691130567,-0.05409383671422981,0.0795750441758748,0.09442246494946441,0.020741671074295247, ,0.05602753417565021, ,0.12348006468380936, ,0.0007626138373725027, ,0.16136650340692113,-0.21796641264211256,0.10272061218,1.6058055872044876,0.16396379971852854,-1.3394430463906855, ,0.07172860284086982,0.0866638735693797,0.055308373333333334,0.0015072779204719042,0.16968068515310078,-0.16490984452599455, ,1.2635600566864014
0.01376331928068748,0.020881103500122875,-0.0934407093242115, ,0.014645232662627647,0.020398587592137595,-0.09488550870935436, ,0.001760124449581104, ,0.016517013563637554,0.00544874305759602,-0.06422706844635813,0.10155205003365547,0.09553368267810564,0.02124406482963807, ,0.06654034008916891, ,0.139421700128535, ,0.0007833953084601819, ,0.1621387766943436,-0.2170628528958283,0.10334283138000001,1.6058055872044876,0.1658767107152447,-1.3413296120029976, ,0.07981239828298636,0.0924020852565441,0.06582153520661158,0.0015072779204719042,0.17897256360135028,-0.1925463662221804, ,1.2690749168395996
0.01376331928068748,0.020881103500122875,-0.0934407093242115, ,0.01476034731567355,0.020400808656849904,-0.09521889061284765, ,0.002094439479736404, ,0.016517013563637554,0.00544874305759602,-0.06422706844635813,0.10155205003365547,0.09553368267810564,0.02124406482963807, ,0.06654034008916891, ,0.139421700128535, ,0.000810151311955615, ,0.1621387766943436,-0.2170628528958283,0.10334283138000001,1.6058055872044876,0.1658767107152447,-1.3413296120029976, ,0.07981239828298636,0.0924020852565441,0.06582153520661158,0.0015072779204719042,0.17897256360135028,-0.1925463662221804, ,1.2744388580322266
0.013928092560054508,0.020937339875073013,-0.09407811393361816, ,0.014875742224753349,0.020403057342316726,-0.09554915902111605, ,0.001829609619909113, ,0.018228509292219006,0.006260097130772607,-0.0690392390528865,0.00569998825833434,0.015944125779856003,0.0039357548068355425, ,0.07167903386698812, ,0.016885986184919096, ,0.0008305404781146849, ,0.1628956045160176,-0.2161747386152925,0.10399616154,1.6058055872044876,0.1672430757128991,-1.3425254697801023, ,0.08069467819597856,0.09386443279769613,0.07079471786666668,0.0015072779204719042,0.09847065676303991,-0.09810866449764388, ,1.2798068523406982
0.013928092560054508,0.020937339875073013,-0.09407811393361816, ,0.014991410777333687,0.020405332414748536,-0.09587632023968139, ,0.0021557419808975816, ,0.018228509292219006,0.006260097130772607,-0.0690392390528865,0.00569998825833434,0.015944125779856003,0.0039357548068355425, ,0.07167903386698812, ,0.016885986184919096, ,0.0008565248213065064, ,0.1628956045160176,-0.2161747386152925,0.10399616154,1.6058055872044876,0.1672430757128991,-1.3425254697801023, ,0.08069467819597856,0.09386443279769613,0.07079471786666668,0.0015072779204719042,0.09847065676303991,-0.09810866449764388, ,1.2851769924163818
0.01413519659753076,0.020997629127770055,-0.09485229936096626, ,0.0151073464084518,0.020407632665439573,-0.09620038063407589, ,0.0017636593206583828, ,0.020005580930266973,0.005182900893817404,-0.07423222428584128,0.0056508766373897824,0.004506785331973289,-0.0006599338395576753, ,0.07705523247941076, ,0.007070323677383187, ,0.0008739697155248118, ,0.16380688699517607,-0.21503177414990723,0.10478819473,1.6058055872044876,0.1681995312112572,-1.3436321100665394, ,0.08844076566493084,0.11474841784579294,0.07585148342857144,0.0015072779204719042,0.09462366458029678,-0.11865001795907706, ,1.2904400825500488
0.01413519659753076,0.020997629127770055,-0.09485229936096626, ,0.015223542600585602,0.020409956910667337,-0.09652134662955157, ,0.0020773960724647504, ,0.020005580930266973,0.005182900893817404,-0.07423222428584128,0.0056508766373897824,0.004506785331973289,-0.0006599338395576753, ,0.07705523247941076, ,0.007070323677383187, ,0.0008966758732029238, ,0.16380688699517607,-0.21503177414990723,0.10478819473,1.6058055872044876,0.1681995312112572,-1.3436321100665394, ,0.08844076566493084,0.11474841784579294,0.07585148342857144,0.0015072779204719042,0.09462366458029678,-0.11865001795907706, ,1.295691967010498
0.014337236981275139,0.02104814162816193,-0.09559007495498614, ,0.015339992883520377,0.020412303991590837,-0.09683922471079125, ,0.001723422180429371, ,0.02091460060300188,0.0047909672688213585,-0.07336450017546171,0.026514957515848096,0.02869962962324183,0.006961595792600488, ,0.07643771171188556, ,0.039045951976225894, ,0.0009119859900034136, ,0.1647258922072088,-0.213888809684522,0.10554263551000001,1.6058055872044876,0.1692926232093807,-1.3448501682566731, ,0.10127741895247683,0.11544640092271385,0.07513590339622642,0.0015072779204719042,0.13246808287134626,-0.14019616634263585, ,1.3009328842163086
0.014337236981275139,0.02104814162816193,-0.09559007495498614, ,0.015456690834218766,0.02041467277415012,-0.09715402142161776, ,0.0020249415469002783, ,0.02091460060300188,0.0047909672688213585,-0.07336450017546171,0.026514957515848096,0.02869962962324183,0.006961595792600488, ,0.07643771171188556, ,0.039045951976225894, ,0.0009322215455833565, ,0.1647258922072088,-0.213888809684522,0.10554263551000001,1.6058055872044876,0.1692926232093807,-1.3448501682566731, ,0.10127741895247683,0.11544640092271385,0.07513590339622642,0.0015072779204719042,0.13246808287134626,-0.14019616634263585, ,1.30629301071167
0.014547769092186151,0.02108318637615847,-0.09628755349784456, ,0.015573630076690069,0.020417062148965995,-0.09746574336470541, ,0.0016983060996044622, ,0.020794088155832505,0.0023137839450283826,-0.06481559574403802,0.05358669877017317,0.02524999095553518,0.0075487169420708185, ,0.06810880376303319, ,0.059227969771464536, ,0.000945901626905162, ,0.16582252027534866,-0.21269178608901723,0.10625689130000002,1.6058055872044876,0.17079562470680054,-1.346402480157896, ,0.11378530162886184,0.12012271083350731,0.066370048,0.0015072779204719042,0.14162159836059104,-0.17186769052007475, ,1.311980962753296
0.014761417941542848,0.021086513227520056,-0.09690173181845932, ,0.015690804281857602,0.020419471031237993,-0.09777439720128867, ,0.0014388360335956076, ,0.020794088155832505,0.0023137839450283826,-0.06481559574403802,0.05358669877017317,0.02524999095553518,0.0075487169420708185, ,0.06810880376303319, ,0.059227969771464536, ,0.0009545495989523627, ,0.16582252027534866,-0.21269178608901723,0.10625689130000002,1.6058055872044876,0.17079562470680054,-1.346402480157896, ,0.11378530162886184,0.12012271083350731,0.066370048,0.0015072779204719042,0.14162159836059104,-0.17186769052007475, ,1.3174769878387451
0.014761417941542848,0.021086513227520056,-0.09690173181845932, ,0.01580820716742896,0.020421898360644276,-0.09807998965087407, ,0.0017104888553715468, ,0.020320159979187905,-0.001249341032484723,-0.05386805848061152,-0.026925293524665685,-0.031917056626386296,-0.00572426887021525, ,0.057586782155854326, ,0.04175184250117194, ,0.0009675830344078658, ,0.16705043480235038,-0.21137119876752483,0.10688429566000002,1.6060152771479719,0.17202535320468954,-1.3474869200313044, ,0.12135158767067875,0.1303529417011961,0.05492693627586208,0.0025806459303125257,0.09076654552134657,-0.10121024235724049, ,1.323042869567871
0.014976430027101527,0.021058787858537282,-0.0974272734846246, ,0.015925832497763553,0.020424343101240094,-0.09838252749094925, ,0.0014887563326348428, ,0.020933866727010503,-0.0032000734825585087,-0.05079940970445125,-0.03340457124848934,-0.018337641381110176,-0.0023581813522942537, ,0.05503678109009199, ,0.038102443208676076, ,0.0009764164801405265, ,0.16830924026084895,-0.21005061144603243,0.10738336731,1.6060152771479719,0.1729818087030476,-1.3483485240973199, ,0.13422481125667718,0.14058806156810486,0.0515495518446602,0.0025806459303125257,0.11722089975510995,-0.10630674121501293, ,1.328294038772583
0.014976430027101527,0.021058787858537282,-0.0974272734846246, ,0.016043674083742493,0.02042680424135706,-0.09868201755669367, ,0.0017643117228007496, ,0.020933866727010503,-0.0032000734825585087,-0.05079940970445125,-0.03340457124848934,-0.018337641381110176,-0.0023581813522942537, ,0.05503678109009199, ,0.038102443208676076, ,0.0009895480675181968, ,0.16830924026084895,-0.21005061144603243,0.10738336731,1.6060152771479719,0.1729818087030476,-1.3483485240973199, ,0.13422481125667718,0.14058806156810486,0.0515495518446602,0.0025806459303125257,0.11722089975510995,-0.10630674121501293, ,1.3335139751434326
0.015177421953130675,0.02102637549091711,-0.09792012716225985, ,0.016161725782637085,0.020429280793502046,-0.09897846674068916, ,0.001563796268614329, ,0.02067764697821007,-0.0033513963015302534,-0.05095076869557743,-0.0035311328628100437,0.019891983589106876,0.005008563793594172, ,0.055088817126487874, ,0.020194468233639514, ,0.000998961972454199, ,0.16969160944533515,-0.20856784673418133,0.10792132766000001,1.6060152771479719,0.17434817370070202,-1.3495443818744246, ,0.13290888173455292,0.1422742752001061,0.05188537954397395,0.0025806459303125257,0.15545852469849444,-0.13631549644490792, ,1.3387529850006104
0.015177421953130675,0.02102637549091711,-0.09792012716225985, ,0.016279981497977956,0.020431771794256506,-0.09927188199262973, ,0.0018429411893613435, ,0.02067764697821007,-0.0033513963015302534,-0.05095076869557743,-0.0035311328628100437,0.019891983589106876,0.005008563793594172, ,0.055088817126487874, ,0.020194468233639514, ,0.0010125745404688305, ,0.16969160944533515,-0.20856784673418133,0.10792132766000001,1.6060152771479719,0.17434817370070202,-1.3495443818744246, ,0.13290888173455292,0.1422742752001061,0.05188537954397395,0.0025806459303125257,0.15545852469849444,-0.13631549644490792, ,1.344048023223877
0.015177421953130675,0.02102637549091711,-0.09792012716225985, ,0.016398435179423732,0.020434276304174888,-0.09956227031903227, ,0.002130279064596431, ,0.02067764697821007,-0.0033513963015302534,-0.05095076869557743,-0.0035311328628100437,0.019891983589106876,0.005008563793594172, ,0.055088817126487874, ,0.020194468233639514, ,0.0010303158821216493, ,0.16969160944533515,-0.20856784673418133,0.10792132766000001,1.6060152771479719,0.17434817370070202,-1.3495443818744246, ,0.13290888173455292,0.1422742752001061,0.05188537954397395,0.0025806459303125257,0.15545852469849444,-0.13631549644490792, ,1.3494770526885986
0.015478926517601618,0.020975123742658735,-0.09865685025195736, ,0.016517080822630672,0.020436793407684114,-0.09984963878294667, ,0.001670421620508989, ,0.02191804656347654,-0.003664038615436104,-0.05296281751424494,-0.019239269652964002,0.0044084144252206124,0.0014987078943880367, ,0.05743592937509885, ,0.019727313144790024, ,0.0010403175342839515, ,0.1716300153967655,-0.20649815432388915,0.10867187957,1.6060152771479719,0.1766709941967145,-1.3514384862372637, ,0.13873821865273506,0.14758466805360929,0.0539959712542373,0.0025806459303125257,0.14553260860343675,-0.1257944005827192, ,1.354820966720581
0.015478926517601618,0.020975123742658735,-0.09865685025195736, ,0.01663591246912072,0.020439322212982298,-0.10013399450366653, ,0.001951321324532074, ,0.02191804656347654,-0.003664038615436104,-0.05296281751424494,-0.019239269652964002,0.0044084144252206124,0.0014987078943880367, ,0.05743592937509885, ,0.019727313144790024, ,0.0010543329772108457, ,0.1716300153967655,-0.20649815432388915,0.10867187957,1.6060152771479719,0.1766709941967145,-1.3514384862372637, ,0.13873821865273506,0.14758466805360929,0.0539959712542373,0.0025806459303125257,0.14553260860343675,-0.1257944005827192, ,1.3600950241088867
0.01570157977956221,0.020944100378384102,-0.0991975489999527, ,0.01675492420615232,0.020441861851938015,-0.10041534465643857, ,0.001686654760000113, ,0.02385799663234175,-0.002759391993610482,-0.057626635467899416,-0.03807885281582712,-0.025015801895232417,-0.003273663418930395, ,0.062431140970139215, ,0.04555385686318045, ,0.0010639136102834103, ,0.17300466184837746,-0.2050617260092834,0.10922409911000001,1.6060152771479719,0.17790072269460347,-1.3524412473705314, ,0.1462202489344696,0.14712704117592368,0.05899559822222222,0.0025806459303125257,0.12310902923403141,-0.10646341312077036, ,1.365480899810791
0.01570157977956221,0.020944100378384102,-0.0991975489999527, ,0.01687411016658722,0.020444411479988663,-0.10069369647217455, ,0.001965444927316076, ,0.02385799663234175,-0.002759391993610482,-0.057626635467899416,-0.03807885281582712,-0.025015801895232417,-0.003273663418930395, ,0.062431140970139215, ,0.04555385686318045, ,0.0010773693015824054, ,0.17300466184837746,-0.2050617260092834,0.10922409911000001,1.6060152771479719,0.17790072269460347,-1.3524412473705314, ,0.1462202489344696,0.14712704117592368,0.05899559822222222,0.0025806459303125257,0.12310902923403141,-0.10646341312077036, ,1.3708140850067139
0.01596170170846923,0.020918640445349856,-0.0998229576720603, ,0.01699346452876112,0.020446970276039943,-0.10096905723716004, ,0.0016126225469945967, ,0.025675339288708514,-0.002178970569065814,-0.0605011192387729,-0.037375202675714404,-0.0354206592617715,-0.0033654272539650545, ,0.0657598387275651, ,0.05148512657159422, ,0.0010852406728384671, ,0.1745955448204677,-0.2035171794344385,0.10986576266,1.6060152771479719,0.17926708769225788,-1.3535554264074956, ,0.1571141416530973,0.14599529470533967,0.06222192000000001,0.0025806459303125257,0.12357406260723809,-0.10601603148676783, ,1.3761169910430908
0.01596170170846923,0.020918640445349856,-0.0998229576720603, ,0.017112981516353112,0.020449537442365027,-0.10124143429276614, ,0.0018861544864988082, ,0.025675339288708514,-0.002178970569065814,-0.0605011192387729,-0.037375202675714404,-0.0354206592617715,-0.0033654272539650545, ,0.0657598387275651, ,0.05148512657159422, ,0.0010968481194132548, ,0.1745955448204677,-0.2035171794344385,0.10986576266,1.6060152771479719,0.17926708769225788,-1.3535554264074956, ,0.1571141416530973,0.14599529470533967,0.06222192000000001,0.0025806459303125257,0.12357406260723809,-0.10601603148676783, ,1.381471872329712
0.016214583316067413,0.020891780706083857,-0.10040415848478777, ,0.017232655398253957,0.020452112204502857,-0.10151083503515868, ,0.0015666882724240223, ,0.025441318036109932,-0.0027560953621161813,-0.05661570685122234,-0.0403810865459636,-0.04458606220672177,-0.004534193788558962, ,0.062130467464224945, ,0.06014954208482375, ,0.0011035601215991229, ,0.17614781412818684,-0.2020653056540843,0.11046335235000002,1.6060152771479719,0.1803601796903814,-1.3544467696370672, ,0.15895635101921404,0.1422742752001061,0.05834729494505495,0.0025806459303125257,0.11607960077743465,-0.09930750332548294, ,1.3873419761657715
0.016466068486585807,0.0208613750702025,-0.10094429058802415, ,0.01735248048843545,0.020454693811157446,-0.10177726691501005, ,0.0012825620627480272, ,0.02540787651100977,-0.003174886545481837,-0.05334819830510532,-0.05172249394758769,-0.06410848172360388,-0.009909553608909737, ,0.05917491322998493, ,0.08236917927610453, ,0.0011060812756998118, ,0.1777386971002771,-0.20066749100384965,0.11102075705000002,1.606434657034941,0.18145327168850492,-1.3553381128666384, ,0.16084227382791658,0.13853568110725661,0.055116994878892746,0.004751364921507068,0.09767106364059644,-0.08382435689469432, ,1.3926799297332764
0.016466068486585807,0.0208613750702025,-0.10094429058802415, ,0.01747245114581959,0.020457281534096802,-0.10204073743720772, ,0.0015421716298173328, ,0.02540787651100977,-0.003174886545481837,-0.05334819830510532,-0.05172249394758769,-0.06410848172360388,-0.009909553608909737, ,0.05917491322998493, ,0.08236917927610453, ,0.0011121380861736662, ,0.1777386971002771,-0.20066749100384965,0.11102075705000002,1.606434657034941,0.18145327168850492,-1.3553381128666384, ,0.16084227382791658,0.13853568110725661,0.055116994878892746,0.004751364921507068,0.09767106364059644,-0.08382435689469432, ,1.3979389667510986
0.016711639612710986,0.02083064709631349,-0.10144365254767224, ,0.017592561774148793,0.02045987466805207,-0.10230125416056668, ,0.0012841248282430629, ,0.024983560021422713,-0.0030175837286507724,-0.04983921651555679,-0.05020047713130257,-0.0725514442269072,-0.013887325658405345, ,0.05583217339301774, ,0.08822410359926548, ,0.0011144940689417403, ,0.17931413460661888,-0.19936234914810572,0.11153797676,1.6066443469784255,0.182409727186863,-1.3561180381925135, ,0.1602988877676871,0.12911148511356568,0.05171692051948052,0.008320227348251863,0.08778998615262601,-0.07539096104805426, ,1.4031648635864258
0.016711639612710986,0.02083064709631349,-0.10144365254767224, ,0.01771280682185395,0.02046247253061629,-0.10255882469753864, ,0.0015432100360375774, ,0.024983560021422713,-0.0030175837286507724,-0.04983921651555679,-0.05020047713130257,-0.0725514442269072,-0.013887325658405345, ,0.05583217339301774, ,0.08822410359926548, ,0.001120287527956549, ,0.17931413460661888,-0.19936234914810572,0.11153797676,1.6066443469784255,0.182409727186863,-1.3561180381925135, ,0.1602988877676871,0.12911148511356568,0.05171692051948052,0.008320227348251863,0.08778998615262601,-0.07539096104805426, ,1.4084479808807373
0.016967843534542722,0.020801927776159954,-0.1019430695682481, ,0.017833180781924883,0.020465074462143403,-0.10281345671392277, ,0.001272734257504905, ,0.024960895738122574,-0.002561009410412934,-0.04934444582487453,-0.03695160612986365,-0.06350021963625482,-0.01126138951232456, ,0.055357740371276234, ,0.07346704394015821, ,0.0011223201510171935, ,0.18097452217457716,-0.19808809822385867,0.11205778905000001,1.6066443469784255,0.18336618268522106,-1.3568979635183882, ,0.16002856923856792,0.12276447808340334,0.05138326296774194,0.008320227348251863,0.09673380645636723,-0.08235504249321578, ,1.4137489795684814
0.016967843534542722,0.020801927776159954,-0.1019430695682481, ,0.017953678191778556,0.02046767982564729,-0.10306515792857647, ,0.001530579613157585, ,0.024960895738122574,-0.002561009410412934,-0.04934444582487453,-0.03695160612986365,-0.06350021963625482,-0.01126138951232456, ,0.055357740371276234, ,0.07346704394015821, ,0.0011276919860453566, ,0.18097452217457716,-0.19808809822385867,0.11205778905000001,1.6066443469784255,0.18336618268522106,-1.3568979635183882, ,0.16002856923856792,0.12276447808340334,0.05138326296774194,0.008320227348251863,0.09673380645636723,-0.08235504249321578, ,1.4190540313720703
0.01721519777622735,0.02077782795134729,-0.10243565009107707, ,0.018074293633129103,0.020470288006700584,-0.10331393611312496, ,0.001266496287173308, ,0.024178933423626356,-0.0021041258718750007,-0.04930347652062887,-0.012872957440332363,-0.033893796278038596,-0.006019372067823887, ,0.05495344360646612, ,0.036252049979477285, ,0.0011294946393067586, ,0.1825576824137932,-0.19688335189547965,0.11257111989000002,1.6066443469784255,0.1844592746833446,-1.3577893067479598, ,0.15305958315882384,0.1171567179734207,0.05138326296774194,0.008320227348251863,0.11979421773658727,-0.10088653969746461, ,1.424422025680542
0.01721519777622735,0.02077782795134729,-0.10243565009107707, ,0.01819502173185674,0.020472898413333628,-0.10355979909167265, ,0.0015220867198417112, ,0.024178933423626356,-0.0021041258718750007,-0.04930347652062887,-0.012872957440332363,-0.033893796278038596,-0.006019372067823887, ,0.05495344360646612, ,0.036252049979477285, ,0.0011345278711084887, ,0.1825576824137932,-0.19688335189547965,0.11257111989000002,1.6066443469784255,0.1844592746833446,-1.3577893067479598, ,0.15305958315882384,0.1171567179734207,0.05138326296774194,0.008320227348251863,0.11979421773658727,-0.10088653969746461, ,1.4296648502349854
0.017488284488962738,0.02075687107620292,-0.10298022276249477, ,0.018315857157879194,0.020475510475934187,-0.10380275474051368, ,0.0012002496259465262, ,0.023815671358400514,-0.0016433488104383876,-0.04693601171585915,-0.005617622845631335,-0.03525645276531197,-0.00502751465353858, ,0.05265810472619932, ,0.03569800218483179, ,0.0011353597920558056, ,0.18428757457761946,-0.19561682370410682,0.11314019120000002,1.6066443469784255,0.18568900318123358,-1.3587920678812275, ,0.15183510649355325,0.10734948140098505,0.049162998518518526,0.008320227348251863,0.1171381104858544,-0.09846216471155216, ,1.4349150657653809
0.017488284488962738,0.02075687107620292,-0.10298022276249477, ,0.018436794625017412,0.02047812364714515,-0.10404281098784147, ,0.0014513667159096032, ,0.023815671358400514,-0.0016433488104383876,-0.04693601171585915,-0.005617622845631335,-0.03525645276531197,-0.00502751465353858, ,0.05265810472619932, ,0.03569800218483179, ,0.001139309878603978, ,0.18428757457761946,-0.19561682370410682,0.11314019120000002,1.6066443469784255,0.18568900318123358,-1.3587920678812275, ,0.15183510649355325,0.10734948140098505,0.049162998518518526,0.008320227348251863,0.1171381104858544,-0.09846216471155216, ,1.440161943435669
0.017725626907288426,0.020744610970300132,-0.10345093833539146, ,0.01855782889086725,0.020480737401764326,-0.10427997581345978, ,0.00120394872884448, ,0.02380579935457229,-0.0009628754368117096,-0.04709091634923877,-0.004643573895354354,-0.039688755275241766,-0.004054237477641054, ,0.052774971479177264, ,0.039956582711742725, ,0.0011401078891007744, ,0.18579350748809326,-0.19458197749896075,0.11363407769000002,1.6068540369219102,0.1869187316791225,-1.3597948290144952, ,0.14944400245428469,0.10042004397721775,0.04946835875776398,0.0070446912131864785,0.1104383736002026,-0.0928018347040303, ,1.4454190731048584
0.017725626907288426,0.020744610970300132,-0.10345093833539146, ,0.018678954756670748,0.02048335123664374,-0.10451425724849375, ,0.001451804996478239, ,0.02380579935457229,-0.0009628754368117096,-0.04709091634923877,-0.004643573895354354,-0.039688755275241766,-0.004054237477641054, ,0.052774971479177264, ,0.039956582711742725, ,0.001143909073337085, ,0.18579350748809326,-0.19458197749896075,0.11363407769000002,1.6068540369219102,0.1869187316791225,-1.3597948290144952, ,0.14944400245428469,0.10042004397721775,0.04946835875776398,0.0070446912131864785,0.1104383736002026,-0.0928018347040303, ,1.4507019519805908
0.017963667677562887,0.020737664789174666,-0.10391497022063209, ,0.018800167067181014,0.020485964670587567,-0.1047456633750993, ,0.0012054606154524264, ,0.023084298267189787,-0.0007894709754273346,-0.043475072159712136,-0.0016779608532297055,-0.04423342339736237,-0.013769361067792175, ,0.049229970446891404, ,0.04426348367797952, ,0.001144650658181848, ,0.1872917176656928,-0.19361663588968267,0.11412277902000001,1.6070637268653947,0.18801182367724606,-1.3606861722440668, ,0.14689929033819007,0.09151103332542987,0.04590435596541788,0.016802786031230872,0.1013053288198776,-0.08518130851491361, ,1.4561479091644287
0.017963667677562887,0.020737664789174666,-0.10391497022063209, ,0.01892146071053624,0.020488577244252227,-0.10497420232617422, ,0.0014496153808714162, ,0.023084298267189787,-0.0007894709754273346,-0.043475072159712136,-0.0016779608532297055,-0.04423342339736237,-0.013769361067792175, ,0.049229970446891404, ,0.04426348367797952, ,0.0011482811905948191, ,0.1872917176656928,-0.19361663588968267,0.11412277902000001,1.6070637268653947,0.18801182367724606,-1.3606861722440668, ,0.14689929033819007,0.09151103332542987,0.04590435596541788,0.016802786031230872,0.1013053288198776,-0.08518130851491361, ,1.4615979194641113
0.01804693303750199,0.0207348357777129,-0.10406958740799986, ,0.019042830618126488,0.020491188520044824,-0.10519988228506888, ,0.0015260217843764134, ,0.02312027677527195,-0.0004856721171471642,-0.043260528853464125,0.001422151318881542,-0.04469706523014054,-0.013237188733352691, ,0.049053607739410525, ,0.044717990097310395, ,0.001152725197580485, ,0.18781686350114007,-0.19329228110896526,0.11428611156000001,1.6070637268653947,0.18828509667677693,-1.3609090080514594, ,0.14712704117592368,0.08811229485466182,0.04577244689655173,0.016802786031230872,0.10106479972624485,-0.08492903976293711, ,1.4669339656829834
0.01804693303750199,0.0207348357777129,-0.10406958740799986, ,0.01916427176446362,0.020493798082021994,-0.10542271148529635, ,0.0017712960706984277, ,0.02312027677527195,-0.0004856721171471642,-0.043260528853464125,0.001422151318881542,-0.04469706523014054,-0.013237188733352691, ,0.049053607739410525, ,0.044717990097310395, ,0.0011599178821516238, ,0.18781686350114007,-0.19329228110896526,0.11428611156000001,1.6070637268653947,0.18828509667677693,-1.3609090080514594, ,0.14712704117592368,0.08811229485466182,0.04577244689655173,0.016802786031230872,0.10106479972624485,-0.08492903976293711, ,1.472269058227539
0.018417627797827026,0.020730733772464437,-0.10473501863476203, ,0.01928577916705244,0.020496405535789516,-0.10564269821024312, ,0.0012776849119155588, ,0.022368329817895702,5.583033600164609e-05,-0.039737541248022125,-0.0018102375968185962,-0.05874641169232838,-0.009747595086348286, ,0.045600630262166764, ,0.058773452872497446, ,0.001161271526171899, ,0.19021091069214968,-0.19197169378747286,0.11499388590000001,1.6072734168088794,0.18992473467396223,-1.3622460228958166, ,0.14291708066034756,0.07567539199240093,0.04236386042553192,0.01184404509231312,0.08343738929820699,-0.07032234673576312, ,1.4775390625
0.018417627797827026,0.020730733772464437,-0.10473501863476203, ,0.01940734788625721,0.02049901050840062,-0.1058598507928795, ,0.0015160768148368485, ,0.022368329817895702,5.583033600164609e-05,-0.039737541248022125,-0.0018102375968185962,-0.05874641169232838,-0.009747595086348286, ,0.045600630262166764, ,0.058773452872497446, ,0.0011653034044521824, ,0.19021091069214968,-0.19197169378747286,0.11499388590000001,1.6072734168088794,0.18992473467396223,-1.3622460228958166, ,0.14291708066034756,0.07567539199240093,0.04236386042553192,0.01184404509231312,0.08343738929820699,-0.07032234673576312, ,1.4827990531921387
0.018636717539556997,0.0207342788319806,-0.10512448645149985, ,0.01952897302517516,0.020501612648255882,-0.10607417761547022, ,0.0013236943422059784, ,0.023157975247942147,0.001122174820074144,-0.04205687122620266,0.016440276144689698,-0.04687627723524504,-0.004455392127471559, ,0.048024280434468804, ,0.049674303907431536, ,0.0011670830779100902, ,0.19161644807525854,-0.1912612023630442,0.11540999499000001,1.6072734168088794,0.1908811901723203,-1.3630259482216915, ,0.1462202489344696,0.06977716291064028,0.04499664271186441,0.010503903134743645,0.09914411964056444,-0.08301423053680006, ,1.4880130290985107
0.018867624130916274,0.020751487755712075,-0.10555291463342072, ,0.019650649729502978,0.020504211625001413,-0.10628568710928495, ,0.0196658621925869, ,0.023163195382979403,0.0024226557197479857,-0.04310396567186579,0.03389081450743684,-0.034094893230579314,0.009102430099981794, ,0.04899341524866266, ,0.04807182395265209, ,0.0013726250680731657, ,0.1930605991227385,-0.19060477006873514,0.11586888165,1.6074831067523636,0.19197428217044385,-1.3639989701914037, ,0.14422027592472764,0.059236542795549796,0.046304684651162796,0.0009459874147399686,0.11197511426002192,-0.09188568694313347, ,1.493952989578247
0.018867624130916274,0.020751487755712075,-0.10555291463342072, ,0.019772373187406305,0.020506807129428106,-0.106494387754309, ,0.001328461930750536, ,0.023163195382979403,0.0024226557197479857,-0.04310396567186579,0.03389081450743684,-0.034094893230579314,0.009102430099981794, ,0.04899341524866266, ,0.04807182395265209, ,0.0013721397588718181, ,0.1930605991227385,-0.19060477006873514,0.11586888165,1.6074831067523636,0.19197428217044385,-1.3639989701914037, ,0.14422027592472764,0.059236542795549796,0.046304684651162796,0.0009459874147399686,0.11197511426002192,-0.09188568694313347, ,1.499295949935913
0.019101460597180566,0.020777983019579605,-0.10598296771183735, ,0.01989413862939334,0.020509398873371307,-0.10670028807895332, ,0.0011022814592591805, ,0.023146585348795264,0.0024971324616303056,-0.04188542724893296,0.02000879469435538,-0.053761230591236144,-0.01372326134459665, ,0.04792065420740463, ,0.057362817760739496, ,0.0013692065164847241, ,0.1945047501702185,-0.1900332878360425,0.11633165718,1.607692796695848,0.1929307376688019,-1.3647788955172784, ,0.14291708066034756,0.056285255965878286,0.04512411195467422,0.02016534796432519,0.08692211447272201,-0.07143081232769063, ,1.5045020580291748
0.019101460597180566,0.020777983019579605,-0.10598296771183735, ,0.020015941328178848,0.02051198658960904,-0.10690339665976618, ,0.0013244691601957425, ,0.023146585348795264,0.0024971324616303056,-0.04188542724893296,0.02000879469435538,-0.053761230591236144,-0.01372326134459665, ,0.04792065420740463, ,0.057362817760739496, ,0.0013687254696429071, ,0.1945047501702185,-0.1900332878360425,0.11633165718,1.607692796695848,0.1929307376688019,-1.3647788955172784, ,0.14291708066034756,0.056285255965878286,0.04512411195467422,0.02016534796432519,0.08692211447272201,-0.07143081232769063, ,1.509742021560669
0.019336155518538487,0.020806011885411417,-0.10641900432981821, ,0.02013777659855774,0.020514570031761374,-0.1071037221211419, ,0.001093788445607924, ,0.022928343277388272,0.003212665494773952,-0.04395662494797789,0.03241138512515043,-0.036808725842002864,-0.009185924519139702, ,0.049681133459737604, ,0.04904300234372666, ,0.0013658006076850881, ,0.19593345575195004,-0.18946952833622413,0.11680091416,1.6079024866393328,0.19388719316716,-1.3655588208431535, ,0.13693642360529693,0.052896845907731756,0.04726650302670624,0.01833334430252928,0.0984600217824338,-0.08081585870159086, ,1.5149669647216797
0.019336155518538487,0.020806011885411417,-0.10641900432981821, ,0.02025963979727247,0.02051714897418945,-0.10730127313503313, ,0.001309451503188952, ,0.022928343277388272,0.003212665494773952,-0.04395662494797789,0.03241138512515043,-0.036808725842002864,-0.009185924519139702, ,0.049681133459737604, ,0.04904300234372666, ,0.0013652074592167079, ,0.19593345575195004,-0.18946952833622413,0.11680091416,1.6079024866393328,0.19388719316716,-1.3655588208431535, ,0.13693642360529693,0.052896845907731756,0.04726650302670624,0.01833334430252928,0.0984600217824338,-0.08081585870159086, ,1.5202460289001465
0.019558222851458452,0.020838632133463913,-0.1068425478199522, ,0.020381526322885486,0.02051972321189479,-0.10749605842066069, ,0.001098456922941706, ,0.02172753575121788,0.0031401097844789816,-0.04075856784716717,0.05182351567237017,-0.014997872952937821,-0.0025017902041113843, ,0.046294783207518765, ,0.05394905453078713, ,0.0013624288077971763, ,0.19726948853919088,-0.18897527343227374,0.11725720824000001,1.6081121765828172,0.1949802851652835,-1.3663684853325841, ,0.13216844228199273,0.04744847077923539,0.04400224176795581,0.015931618387137712,0.11628487440921381,-0.09530924254975393, ,1.5254850387573242
0.019558222851458452,0.020838632133463913,-0.1068425478199522, ,0.02050343161564575,0.020522292560418025,-0.10768808674422395, ,0.0013070678658087945, ,0.02172753575121788,0.0031401097844789816,-0.04075856784716717,0.05182351567237017,-0.014997872952937821,-0.0025017902041113843, ,0.046294783207518765, ,0.05394905453078713, ,0.0013618580764364714, ,0.19726948853919088,-0.18897527343227374,0.11725720824000001,1.6081121765828172,0.1949802851652835,-1.3663684853325841, ,0.13216844228199273,0.04744847077923539,0.04400224176795581,0.015931618387137712,0.11628487440921381,-0.09530924254975393, ,1.5307669639587402
0.019785283509185948,0.020867398491507413,-0.1072439915914985, ,0.020625351157359494,0.020524856855738034,-0.10787736691861147, ,0.001106441471899374, ,0.02101989450878572,0.002581490474983711,-0.03604802689818008,0.04969025204039049,-0.021582960728205754,-0.003087432104439104, ,0.041808615158658705, ,0.05417457402735599, ,0.0013592517845534397, ,0.19859007586068328,-0.18851963219269452,0.11766424330000001,1.6081121765828172,0.19607337716340703,-1.3672598285621556, ,0.13365766416686023,0.04405614742733091,0.03942775128712872,0.015931618387137712,0.11194370961201675,-0.09174242115833646, ,1.5360379219055176
0.019785283509185948,0.020867398491507413,-0.1072439915914985, ,0.02074728047126221,0.02052741595417134,-0.10806390780311201, ,0.0013089266116952775, ,0.02101989450878572,0.002581490474983711,-0.03604802689818008,0.04969025204039049,-0.021582960728205754,-0.003087432104439104, ,0.041808615158658705, ,0.05417457402735599, ,0.001358743449474064, ,0.19859007586068328,-0.18851963219269452,0.11766424330000001,1.6081121765828172,0.19607337716340703,-1.3672598285621556, ,0.13365766416686023,0.04405614742733091,0.03942775128712872,0.015931618387137712,0.11194370961201675,-0.09174242115833646, ,1.5412509441375732
0.019994600918115057,0.020890514219869823,-0.1075880730556656, ,0.020869215121884294,0.020529969732270687,-0.10824771830312453, ,0.0011532884224981063, ,0.020792925401697266,0.0018706302710095172,-0.03299653174433154,0.04176899834009985,-0.03167897242383766,-0.0049281612163961305, ,0.039046332881924314, ,0.05242296635381857, ,0.0013566888992043043, ,0.20003422690816325,-0.18805626822024105,0.11806868578000002,1.6081121765828172,0.197303105661296,-1.3682625896954237, ,0.1346055908630791,0.04486853028769304,0.03611975401360545,0.015931618387137712,0.10175317755232494,-0.0826899041315383, ,1.546449899673462
0.019994600918115057,0.020890514219869823,-0.1075880730556656, ,0.02099115071492353,0.020532518086724384,-0.10842880736986871, ,0.0013520750407964262, ,0.020792925401697266,0.0018706302710095172,-0.03299653174433154,0.04176899834009985,-0.03167897242383766,-0.0049281612163961305, ,0.039046332881924314, ,0.05242296635381857, ,0.0013566432174378898, ,0.20003422690816325,-0.18805626822024105,0.11806868578000002,1.6081121765828172,0.197303105661296,-1.3682625896954237, ,0.1346055908630791,0.04486853028769304,0.03611975401360545,0.015931618387137712,0.10175317755232494,-0.0826899041315383, ,1.5517840385437012
0.020201354454621952,0.02090738673200248,-0.1079083509598294, ,0.021113082897113434,0.020535060934255445,-0.10860718400009624, ,0.0012075772731732347, ,0.020924177098291915,0.0017308375715862326,-0.03181153463818676,0.04880299610841012,-0.02703675752668867,-0.0012681718224456353, ,0.03811549188947264, ,0.05579145193318725, ,0.0013551817866117655, ,0.2013779824282783,-0.18760834971353602,0.11841998037000001,1.608321866526302,0.1982595611596541,-1.3689608362811578, ,0.13773141009937706,0.04393376924003276,0.03500837696703297,0.013893088590711809,0.11005733134858947,-0.0891762285018291, ,1.5572328567504883
0.020201354454621952,0.02090738673200248,-0.1079083509598294, ,0.02123500735609463,0.0205375982115207,-0.10878285723580046, ,0.0014035466138734983, ,0.020924177098291915,0.0017308375715862326,-0.03181153463818676,0.04880299610841012,-0.02703675752668867,-0.0012681718224456353, ,0.03811549188947264, ,0.05579145193318725, ,0.001355651348041491, ,0.2013779824282783,-0.18760834971353602,0.11841998037000001,1.608321866526302,0.1982595611596541,-1.3689608362811578, ,0.13773141009937706,0.04393376924003276,0.03500837696703297,0.013893088590711809,0.11005733134858947,-0.0891762285018291, ,1.5627028942108154
0.020395793812864146,0.02092472351656795,-0.10819952326513979, ,0.02135691982028335,0.02054012987500973,-0.10895583616392732, ,0.0012820626631085486, ,0.02114760328137254,0.0016567291656948962,-0.030840954047699765,0.044198624823374735,-0.034836209231342695,-0.006049948822460556, ,0.03743167539193392, ,0.05627656712745061, ,0.0013549437645325204, ,0.2026676788182738,-0.18721449033695056,0.11874146029000002,1.6087412464132707,0.19935265315777762,-1.3696071432903074, ,0.14017273494604252,0.04290096815482405,0.03410880411134904,0.01778590282333323,0.10388812210317626,-0.08273293764252625, ,1.5682060718536377
0.020395793812864146,0.02092472351656795,-0.10819952326513979, ,0.021478816058739334,0.02054265590094395,-0.10912612991608656, ,0.0014756397709291805, ,0.02114760328137254,0.0016567291656948962,-0.030840954047699765,0.044198624823374735,-0.034836209231342695,-0.006049948822460556, ,0.03743167539193392, ,0.05627656712745061, ,0.0013560932503077266, ,0.2026676788182738,-0.18721449033695056,0.11874146029000002,1.6087412464132707,0.19935265315777762,-1.3696071432903074, ,0.14017273494604252,0.04290096815482405,0.03410880411134904,0.01778590282333323,0.10388812210317626,-0.08273293764252625, ,1.5738520622253418
0.02054574565557283,0.020935888582590663,-0.10841757930115953, ,0.021600691881040746,0.020545176285176044,-0.10929374766826092, ,0.0014259167736895182, ,0.021157815136432834,0.001449657123920308,-0.030803012501518554,0.029994989946868222,-0.042778878089018424,-0.00945729805836108, ,0.037397596530968504, ,0.05224657023614457, ,0.0013567519627924606, ,0.20365618862617454,-0.18690558102198157,0.11898257023000001,1.6089509363567556,0.20003583565660482,-1.3700825540686492, ,0.13894134928033788,0.044489892901299004,0.03403592205128206,0.019062181035140336,0.09431719937471572,-0.06979592828462891, ,1.580085039138794
0.02083736688121149,0.02095586042772791,-0.1088446271492374, ,0.021722543137147915,0.02054769104308868,-0.10945869864051805, ,0.0011520516685609363, ,0.02150039381159573,0.0014427299569183757,-0.03137047884970977,0.00776174686961306,-0.038449981467717866,0.03890616176154718, ,0.038058577837885396, ,0.03922518843904641, ,0.0013548388759304839, ,0.205563703646108,-0.18628776239204362,0.11945441979000002,1.6093703162437245,0.20140220065425923,-1.3707883394049105, ,0.14100585669906504,0.04453164784536405,0.03470329307189543,-0.02828485821233228,0.10977893652275707,-0.05703235884742518, ,1.585326910018921
0.02083736688121149,0.02095586042772791,-0.1088446271492374, ,0.021844365717276513,0.020550200209493864,-0.10962099209672004, ,0.0013346720197013656, ,0.02150039381159573,0.0014427299569183757,-0.03137047884970977,0.00776174686961306,-0.038449981467717866,0.03890616176154718, ,0.038058577837885396, ,0.03922518843904641, ,0.001354652145780214, ,0.205563703646108,-0.18628776239204362,0.11945441979000002,1.6093703162437245,0.20140220065425923,-1.3707883394049105, ,0.14100585669906504,0.04453164784536405,0.03470329307189543,-0.02828485821233228,0.10977893652275707,-0.05703235884742518, ,1.5905990600585938
0.021059782491499476,0.020971955559179866,-0.10917004724933815, ,0.02196615555176803,0.020552703838531968,-0.10978063734423453, ,0.001170514584972087, ,0.022285303137932096,0.001495839681922284,-0.03236509296345895,0.028273712720498397,-0.02420541205775797,0.035717639398122523, ,0.03932393056189678, ,0.03721920594448452, ,0.001352962810359956, ,0.20702330015933643,-0.18583212115246436,0.11981478841000001,1.6093703162437245,0.2026319291521482,-1.3716277430578971, ,0.14667224352159317,0.04582179698622442,0.035875701621621625,-0.021611967876990643,0.12876671789991626,-0.0775100075492329, ,1.5958449840545654
0.021059782491499476,0.020971955559179866,-0.10917004724933815, ,0.022087908610955963,0.020555202003570996,-0.10993764373364566, ,0.0013490482594564711, ,0.022285303137932096,0.001495839681922284,-0.03236509296345895,0.028273712720498397,-0.02420541205775797,0.035717639398122523, ,0.03932393056189678, ,0.03721920594448452, ,0.0013529272235335609, ,0.20702330015933643,-0.18583212115246436,0.11981478841000001,1.6093703162437245,0.2026319291521482,-1.3716277430578971, ,0.14667224352159317,0.04582179698622442,0.035875701621621625,-0.021611967876990643,0.12876671789991626,-0.0775100075492329, ,1.601146936416626
0.02128562396022241,0.020984519794210215,-0.10949339056183958, ,0.022209620905039827,0.02055769479710541,-0.1100920206584633, ,0.0011808081659478624, ,0.022459813723197917,0.0010581412059780398,-0.031712350772088706,0.043026263040871156,-0.011710524734667348,0.008695206678206665, ,0.038874620085404474, ,0.04459107116488206, ,0.0013513766013931493, ,0.20852923306981022,-0.18535331171426245,0.12017386074000001,1.6091606263002398,0.20413493064956803,-1.372608303778136, ,0.14920902760765847,0.048865572378203284,0.03524073345132744,0.007618366787175598,0.1385277884008691,-0.08936647382514029, ,1.6065709590911865
0.02128562396022241,0.020984519794210215,-0.10949339056183958, ,0.022331288483952053,0.020560182330655565,-0.11024377755483487, ,0.001355196376330475, ,0.022459813723197917,0.0010581412059780398,-0.031712350772088706,0.043026263040871156,-0.011710524734667348,0.008695206678206665, ,0.038874620085404474, ,0.04459107116488206, ,0.0013514107065265182, ,0.20852923306981022,-0.18535331171426245,0.12017386074000001,1.6091606263002398,0.20413493064956803,-1.372608303778136, ,0.14920902760765847,0.048865572378203284,0.03524073345132744,0.007618366787175598,0.1385277884008691,-0.08936647382514029, ,1.6118619441986084
0.02151852560605303,0.020994193856406804,-0.10981207550475643, ,0.02245290743722709,0.020562664734666627,-0.11039292390125581, ,0.0011818086347010416, ,0.022050318716786935,0.0006087062466921351,-0.029127650156009415,0.0027183976599044674,-0.03369256127419732,0.005514659606853696, ,0.0365377487322019, ,0.033801736708187834, ,0.0013499098032360272, ,0.21007377964465512,-0.18485133407743787,0.12052904420000002,1.6093703162437245,0.205364659147457,-1.373202671210701, ,0.14758466805360929,0.04817103632409685,0.03257425668711657,0.006276762252097718,0.1147594805823772,-0.04861087947397027, ,1.6171410083770752
0.02151852560605303,0.020994193856406804,-0.10981207550475643, ,0.02257447389387389,0.020565142158408004,-0.1105394692182795, ,0.0013521145515748118, ,0.022050318716786935,0.0006087062466921351,-0.029127650156009415,0.0027183976599044674,-0.03369256127419732,0.005514659606853696, ,0.0365377487322019, ,0.033801736708187834, ,0.001349929143133736, ,0.21007377964465512,-0.18485133407743787,0.12052904420000002,1.6093703162437245,0.205364659147457,-1.373202671210701, ,0.14758466805360929,0.04817103632409685,0.03257425668711657,0.006276762252097718,0.1147594805823772,-0.04861087947397027, ,1.6224219799041748
0.021737387115147486,0.02099763216490699,-0.11009630265015673, ,0.02269598402224484,0.020567614769872004,-0.11068342306822808, ,0.0012035503211937453, ,0.021789517890779184,6.236496291220955e-05,-0.028251003897088088,0.07331987271026083,0.04040897791950486,-0.017660944996791175, ,0.035677811038437764, ,0.08371780715606256, ,0.0013486562838125184, ,0.21157198982225467,-0.18434935644061326,0.12084793154000001,1.6099993860741781,0.20686766064487683,-1.3740198744506589, ,0.15183510649355325,0.051998324141627826,0.03173070023904383,0.04369721709183207,0.18756035286152695,-0.11516533089720818, ,1.6277549266815186
0.021737387115147486,0.02099763216490699,-0.11009630265015673, ,0.022817434029904674,0.0205700827556734,-0.11082479505490302, ,0.0013711312917388853, ,0.021789517890779184,6.236496291220955e-05,-0.028251003897088088,0.07331987271026083,0.04040897791950486,-0.017660944996791175, ,0.035677811038437764, ,0.08371780715606256, ,0.001348850033880849, ,0.21157198982225467,-0.18434935644061326,0.12084793154000001,1.6099993860741781,0.20686766064487683,-1.3740198744506589, ,0.15183510649355325,0.051998324141627826,0.03173070023904383,0.04369721709183207,0.18756035286152695,-0.11516533089720818, ,1.6329748630523682
0.02194769572401781,0.02099706777755104,-0.11036120334600623, ,0.022938820163499615,0.020572546320948543,-0.1109635948232963, ,0.0012350795980687831, ,0.022825591950670618,-7.471550597791128e-05,-0.02730348375202895,-0.0034052369099160256,-0.0438163952075722,-0.046861306242722174, ,0.035587827347320064, ,0.043948344152423297, ,0.0013478776369935665, ,0.2130238636026089,-0.1838551015366629,0.12114607824000001,1.6102090760176624,0.2083706621422967,-1.374837077690617, ,0.15506036202364507,0.051771381101184274,0.030869789767441865,0.057361390378344326,0.10256676361042585,-0.0352843184513219, ,1.6382250785827637
0.02194769572401781,0.02099706777755104,-0.11036120334600623, ,0.02306013870862719,0.02057500568925437,-0.11109983205930057, ,0.001400442136072329, ,0.022825591950670618,-7.471550597791128e-05,-0.02730348375202895,-0.0034052369099160256,-0.0438163952075722,-0.046861306242722174, ,0.035587827347320064, ,0.043948344152423297, ,0.0013483230988501661, ,0.2130238636026089,-0.1838551015366629,0.12114607824000001,1.6102090760176624,0.2083706621422967,-1.374837077690617, ,0.15506036202364507,0.051771381101184274,0.030869789767441865,0.057361390378344326,0.10256676361042585,-0.0352843184513219, ,1.6441490650177002
0.022182374969493157,0.020993746868860706,-0.11063322495124554, ,0.02318138598971125,0.020577461102467363,-0.1112335164894181, ,0.0012376052636525322, ,0.022933074045694547,-0.0006571555474565379,-0.025181991412457437,-0.041373082331150376,-0.07239342301941296,0.034737525665624325, ,0.034065971732741486, ,0.08338182962587168, ,0.0013473926968737154, ,0.21462246930757334,-0.1833222329683414,0.12145459526,1.6104187659611469,0.2093271176406548,-1.3751269305756484, ,0.15842561195070248,0.05179964058868492,0.02875236736462094,-0.029559877194040764,0.09305547637730699,-0.015436985994386254, ,1.6503798961639404
0.022407446962610864,0.02098944373047214,-0.11088209671746077, ,0.023302558369863672,0.020579912820683187,-0.11136465788047456, ,0.001096268796197307, ,0.02214284471650864,-0.0003812395368882291,-0.02458617743174054,0.04394731661484725,-0.014354532758170394,0.011787452886915954, ,0.033089742163228304, ,0.04623213454573354, ,0.001345299997701412, ,0.21620562954678937,-0.18282797806439105,0.12173977906000001,1.6102090760176624,0.21069348263830917,-1.3758327159119097, ,0.1558242061715448,0.04876512926951222,0.02819258676106195,0.004712270985334496,0.14309496610764877,-0.09065315822686656, ,1.6556549072265625
0.022407446962610864,0.02098944373047214,-0.11088209671746077, ,0.023423652250758827,0.020582361122115464,-0.11149326603932679, ,0.0012537612921431753, ,0.02214284471650864,-0.0003812395368882291,-0.02458617743174054,0.04394731661484725,-0.014354532758170394,0.011787452886915954, ,0.033089742163228304, ,0.04623213454573354, ,0.001344543479473658, ,0.21620562954678937,-0.18282797806439105,0.12173977906000001,1.6102090760176624,0.21069348263830917,-1.3758327159119097, ,0.1558242061715448,0.04876512926951222,0.02819258676106195,0.004712270985334496,0.14309496610764877,-0.09065315822686656, ,1.660930871963501
0.022632097876937575,0.02098166899063151,-0.11112870869746373, ,0.023544664072503524,0.020584806302995074,-0.11161935081257496, ,0.0011095074309118175, ,0.022581027171229902,-0.0009817516624518318,-0.024687830666976593,0.006608445399356056,-0.01947209347084579,0.011286220347738747, ,0.03347171354256994, ,0.020562704194166326, ,0.001342616954485446, ,0.21778106705313116,-0.18230283222894378,0.12202237028000001,1.6104187659611469,0.21205984763596358,-1.3766201799883118, ,0.15842561195070248,0.05394936984563433,0.028292738046181175,0.0034210004745970873,0.1407703867252375,-0.058622193633870834, ,1.6665279865264893
0.022632097876937575,0.02098166899063151,-0.11112870869746373, ,0.023665590313504205,0.020587248677469375,-0.11174292208627254, ,0.0012652794501086886, ,0.022581027171229902,-0.0009817516624518318,-0.024687830666976593,0.006608445399356056,-0.01947209347084579,0.011286220347738747, ,0.03347171354256994, ,0.020562704194166326, ,0.001341988194287261, ,0.21778106705313116,-0.18230283222894378,0.12202237028000001,1.6104187659611469,0.21205984763596358,-1.3766201799883118, ,0.15842561195070248,0.05394936984563433,0.028292738046181175,0.0034210004745970873,0.1407703867252375,-0.058622193633870834, ,1.6719269752502441
0.022861226005543737,0.02097376436583717,-0.11137251648763496, ,0.023786427490338727,0.02058968857750126,-0.11186398978563693, ,0.001115821670923104, ,0.022137464599048286,-0.0006636018816853757,-0.02353210944999968,0.03679325635399765,-0.011436722202441027,-0.012433979839544085, ,0.0323151339390425, ,0.03852966534681595, ,0.0013401642707117436, ,0.21934878182659875,-0.18179313185924495,0.12229459118000001,1.610838145848116,0.21342621263361797,-1.3772442865844325, ,0.15659561313279005,0.04965826350521757,0.027275362191780828,0.02923108915946127,0.14251444854356377,-0.07871683976544357, ,1.6794509887695312
0.022861226005543737,0.02097376436583717,-0.11137251648763496, ,0.02390717215762676,0.020592126352768275,-0.11198256387475962, ,0.001269570297625961, ,0.022137464599048286,-0.0006636018816853757,-0.02353210944999968,0.03679325635399765,-0.011436722202441027,-0.012433979839544085, ,0.0323151339390425, ,0.03852966534681595, ,0.0013395995189270573, ,0.21934878182659875,-0.18179313185924495,0.12229459118000001,1.610838145848116,0.21342621263361797,-1.3772442865844325, ,0.15659561313279005,0.04965826350521757,0.027275362191780828,0.02923108915946127,0.14251444854356377,-0.07871683976544357, ,1.6851520538330078
0.02309008690121126,0.020967045106604767,-0.11160935397064715, ,0.02402782090789592,0.02059456237056221,-0.11209865435631797, ,0.001121384556412393, ,0.021806484885515686,-0.0008786498907404632,-0.021661999125258236,0.02436531841968822,-0.015370266496698096,-0.0540777143941241, ,0.030749585603637178, ,0.028808142323910487, ,0.0013378676541451948, ,0.22101689212743125,-0.18127570875667193,0.12257847869,1.6112575257350852,0.21492921413103783,-1.377898132344109, ,0.15506036202364507,0.04889074784053105,0.02528382780952381,0.07019349007261234,0.12928151583964984,-0.056934140432423994, ,1.6905949115753174
0.023317853699290597,0.020958339773535103,-0.11182384036133489, ,0.02414837037145763,0.02059699701568734,-0.11221227127128394, ,0.0009854973887333664, ,0.021943654073464432,-0.0009497550218673188,-0.019497778722418688,-0.03108798670707458,-0.04859415149352518,0.030075456877082286, ,0.029369871702236584, ,0.05768753469315715, ,0.001335093085126204, ,0.22264638876389262,-0.18079689931846998,0.12283125524,1.6114672156785694,0.21615894262892676,-1.378329142296393, ,0.15869053772319527,0.04455255472228675,0.023219841865889216,-0.019365096120043668,0.11556454880384355,-0.01657330850658706, ,1.6958038806915283
0.023317853699290597,0.020958339773535103,-0.11182384036133489, ,0.024268817216270454,0.020599430690360788,-0.11232342469863699, ,0.0011325775252446545, ,0.021943654073464432,-0.0009497550218673188,-0.019497778722418688,-0.03108798670707458,-0.04859415149352518,0.030075456877082286, ,0.029369871702236584, ,0.05768753469315715, ,0.0013335109323146294, ,0.22264638876389262,-0.18079689931846998,0.12283125524,1.6114672156785694,0.21615894262892676,-1.378329142296393, ,0.15869053772319527,0.04455255472228675,0.023219841865889216,-0.019365096120043668,0.11556454880384355,-0.01657330850658706, ,1.7010400295257568
0.023538801318183363,0.020946634960812914,-0.11201819306154931, ,0.024389158147814814,0.02060186381411061,-0.11243212475507193, ,0.0010066346547788715, ,0.021723204316022565,-0.0011729434774258405,-0.01891066993141172,0.0412621847321109,-0.013261470170637507,0.009909550123327072, ,0.028825107795317894, ,0.04334088210359478, ,0.0013309770076825693, ,0.22414459894149216,-0.18036442627751342,0.12304773567000002,1.6112575257350852,0.21738867112681573,-1.3788418309888175, ,0.16002856923856792,0.046133661428522495,0.022498321355932206,0.007581592018019254,0.14681619296448056,-0.08230598551121955, ,1.7062950134277344
0.023538801318183363,0.020946634960812914,-0.11201819306154931, ,0.02450938990895876,0.020604296823675983,-0.11253838159471216, ,0.0011531841668683592, ,0.021723204316022565,-0.0011729434774258405,-0.01891066993141172,0.0412621847321109,-0.013261470170637507,0.009909550123327072, ,0.028825107795317894, ,0.04334088210359478, ,0.001329609370445537, ,0.22414459894149216,-0.18036442627751342,0.12304773567000002,1.6112575257350852,0.21738867112681573,-1.3788418309888175, ,0.16002856923856792,0.046133661428522495,0.022498321355932206,0.007581592018019254,0.14681619296448056,-0.08230598551121955, ,1.7115349769592285
0.023739413165514433,0.020938025201000167,-0.11219171174457486, ,0.024629509279831395,0.020606730172905555,-0.11264220540881822, ,0.0010511764979706205, ,0.02185483451522558,-0.000817556960385802,-0.018432938392565,0.039784952419455594,-0.0030540513933515244,0.01350254432621135, ,0.02860201756616948, ,0.03990197414822392, ,0.0013274839286709192, ,0.22573548191358242,-0.17993195323655686,0.12327199384000001,1.6112575257350852,0.21889167262423562,-1.3795773554886348, ,0.16221699411704404,0.042120258126263105,0.022340549116409536,0.007061903198021215,0.16062051105390723,-0.07937835231085352, ,1.7168989181518555
0.023739413165514433,0.020938025201000167,-0.11219171174457486, ,0.024749513077690997,0.020609164332656825,-0.11274360642549915, ,0.0011970960872624882, ,0.02185483451522558,-0.000817556960385802,-0.018432938392565,0.039784952419455594,-0.0030540513933515244,0.01350254432621135, ,0.02860201756616948, ,0.03990197414822392, ,0.0013264961419935826, ,0.22573548191358242,-0.17993195323655686,0.12327199384000001,1.6112575257350852,0.21889167262423562,-1.3795773554886348, ,0.16221699411704404,0.042120258126263105,0.022340549116409536,0.007061903198021215,0.16062051105390723,-0.07937835231085352, ,1.7223460674285889
0.02397288326900836,0.02093295994368288,-0.11238910733772173, ,0.02486939815679451,0.020611599790695653,-0.11284259490942332, ,0.0010548280758673372, ,0.022437243554804486,-0.00018107983900875234,-0.019593859292425225,0.0075374834570753994,-0.013187374904750247,0.002490114267929919, ,0.029788957857183742, ,0.015189391881373271, ,0.0013244535249550395, ,0.2274576513445345,-0.1795072029284745,0.12351180749000001,1.6116769056220543,0.22053131062142087,-1.380342619152008, ,0.16333380646896864,0.038701852185346976,0.023703588571428576,0.01700926173662327,0.14964465775055977,-0.04153049886496821, ,1.7277560234069824
0.02397288326900836,0.02093295994368288,-0.11238910733772173, ,0.024989161408267613,0.020614037051595188,-0.11293918116152865, ,0.0011987970132893207, ,0.022437243554804486,-0.00018107983900875234,-0.019593859292425225,0.0075374834570753994,-0.013187374904750247,0.002490114267929919, ,0.029788957857183742, ,0.015189391881373271, ,0.001323515789793355, ,0.2274576513445345,-0.1795072029284745,0.12351180749000001,1.6116769056220543,0.22053131062142087,-1.380342619152008, ,0.16333380646896864,0.038701852185346976,0.023703588571428576,0.01700926173662327,0.14964465775055977,-0.04153049886496821, ,1.733046054840088
0.02419914514679397,0.02093460363148857,-0.11259344900095175, ,0.025108799759974626,0.020616476636635083,-0.11303337551873281, ,0.001059344911340177, ,0.02247662450064508,0.00041558128681868137,-0.021084045551011864,0.056650445836640216,0.0009747074580889788,-0.052845198144238846, ,0.03082058295272975, ,0.056658793683195006, ,0.0013215589684714797, ,0.22908714798099586,-0.1791287890176375,0.12375810259000002,1.6123059754525078,0.22203431211884073,-1.380751428691263, ,0.16002856923856792,0.0368102954066993,0.02528382780952381,0.07532364041009154,0.1501574398076579,-0.07566982827102063, ,1.7383089065551758
0.02419914514679397,0.02093460363148857,-0.11259344900095175, ,0.025228310176388432,0.020618919083700782,-0.11312518835364459, ,0.0012006598731757233, ,0.02247662450064508,0.00041558128681868137,-0.021084045551011864,0.056650445836640216,0.0009747074580889788,-0.052845198144238846, ,0.03082058295272975, ,0.056658793683195006, ,0.0013206700045354813, ,0.22908714798099586,-0.1791287890176375,0.12375810259000002,1.6123059754525078,0.22203431211884073,-1.380751428691263, ,0.16002856923856792,0.0368102954066993,0.02528382780952381,0.07532364041009154,0.1501574398076579,-0.07566982827102063, ,1.7435400485992432
0.024418736484980438,0.02093968588512414,-0.11280097351779923, ,0.025347689658460015,0.02062136494718254,-0.11321463007427433, ,0.0010655486684167158, ,0.02240227320658374,0.0004492981290688145,-0.020605488483524025,0.024330815272712056,-0.01714155932281296,0.06567252017346571, ,0.030440924251340425, ,0.029762693312783594, ,0.0013188078050017677, ,0.2306471400215892,-0.1787812660382974,0.12400699027,1.612725355339477,0.22353731361626059,-1.3812419169706582, ,0.16002856923856792,0.033603732846483984,0.024849939968798754,-0.04701425435885557,0.15388785542218142,-0.06759283163516423, ,1.7488079071044922
0.024418736484980438,0.02093968588512414,-0.11280097351779923, ,0.025466935244497745,0.020623814797454152,-0.11330171112312881, ,0.001203841074590265, ,0.02240227320658374,0.0004492981290688145,-0.020605488483524025,0.024330815272712056,-0.01714155932281296,0.06567252017346571, ,0.030440924251340425, ,0.029762693312783594, ,0.001317974712752409, ,0.2306471400215892,-0.1787812660382974,0.12400699027,1.612725355339477,0.22353731361626059,-1.3812419169706582, ,0.16002856923856792,0.033603732846483984,0.024849939968798754,-0.04701425435885557,0.15388785542218142,-0.06759283163516423, ,1.7541959285736084
0.0246418137705293,0.02094460593418901,-0.11299669052326058, ,0.025586044005953032,0.02062626922245132,-0.11338644197938645, ,0.0010699603717337183, ,0.021629761285562425,0.00023460944248330265,-0.017682399333524525,-0.007772688458393704,-0.02146832044949126,0.04744832965474537, ,0.02793866247784861, ,0.02283203320222852, ,0.001316190436917742, ,0.2322534684594279,-0.17845691125757998,0.12424550763000002,1.612725355339477,0.22504031511368042,-1.3815690477697729, ,0.15789840525535903,0.03101207240472901,0.02185022156378601,-0.0294740191641184,0.14409270229906368,-0.029087937053150437, ,1.7595839500427246
0.0246418137705293,0.02094460593418901,-0.11299669052326058, ,0.02570501305348859,0.020628728825056907,-0.11346883315490518, ,0.0012054417148809344, ,0.021629761285562425,0.00023460944248330265,-0.017682399333524525,-0.007772688458393704,-0.02146832044949126,0.04744832965474537, ,0.02793866247784861, ,0.02283203320222852, ,0.001315399374617479, ,0.2322534684594279,-0.17845691125757998,0.12424550763000002,1.612725355339477,0.22504031511368042,-1.3815690477697729, ,0.15789840525535903,0.03101207240472901,0.02185022156378601,-0.0294740191641184,0.14409270229906368,-0.029087937053150437, ,1.7648818492889404
0.024669947653103784,0.02094430970015798,-0.1130199998828613, ,0.02582383953266634,0.02063119422467262,-0.11354889519640513, ,0.0013073783015628867, ,0.021327517764620222,0.0002571959134647087,-0.017466739648603128,-0.006024182862329239,-0.020643620433796844,0.045885588207666785, ,0.02756839055313492, ,0.021504609226930222, ,0.0013153424875745388, ,0.23245425951415774,-0.17841057486033463,0.12427402601000001,1.612725355339477,0.22517695161344586,-1.3815987869333286, ,0.15556875665323078,0.03041568639694576,0.021583755447154476,-0.02804838108408528,0.14230233149315696,-0.029940843830872824, ,1.7701780796051025
0.025060311924509596,0.02094890900547073,-0.11330127199814888, ,0.025942520624875325,0.020633666056701028,-0.11362663868456122, ,0.0009917327202310867, ,0.021023202217230415,9.805650461976337e-05,-0.014387260354410228,0.027454147605681205,0.004454630488717523,0.02253341832383473, ,0.02547504478995561, ,0.027813186388940873, ,0.0013130635455509934, ,0.23538889800636306,-0.1779008744906358,0.12463309834000001,1.612725355339477,0.2280463181085201,-1.3821416306278613, ,0.16002856923856792,0.027602368108921114,0.018630188912280705,0.0016361952788207438,0.16698335138684692,-0.05399960088761939, ,1.7759089469909668
0.025060311924509596,0.02094890900547073,-0.11330127199814888, ,0.026061053547201667,0.020636144972444672,-0.11370207423371255, ,0.0011224738606203358, ,0.021023202217230415,9.805650461976337e-05,-0.014387260354410228,0.027454147605681205,0.004454630488717523,0.02253341832383473, ,0.02547504478995561, ,0.027813186388940873, ,0.0013117307505514783, ,0.23538889800636306,-0.1779008744906358,0.12463309834000001,1.612725355339477,0.2280463181085201,-1.3821416306278613, ,0.16002856923856792,0.027602368108921114,0.018630188912280705,0.0016361952788207438,0.16698335138684692,-0.05399960088761939, ,1.7812440395355225
0.025270406130327692,0.02095360073026676,-0.11344665846792353, ,0.026179435552298264,0.020638631639005367,-0.11377521249157387, ,0.0010166060027931214, ,0.02097997482879312,0.0007151291859319762,-0.014324766822563208,0.03765071176698629,0.050293680132246846,-0.055563093451712744, ,0.02541396659496845, ,0.06282539100266799, ,0.0013096812731364898, ,0.2370106719099502,-0.17763830157291216,0.12482235668000001,1.6135641151134148,0.2300958656050017,-1.3826693968213397, ,0.161664295670308,0.02396992714283172,0.018761851024734984,0.09017278494529579,0.19936738707983245,-0.04009010255095195, ,1.7865629196166992
0.025270406130327692,0.02095360073026676,-0.11344665846792353, ,0.026297663928254583,0.020641126739183436,-0.1138460641389453, ,0.0011456105221887142, ,0.02097997482879312,0.0007151291859319762,-0.014324766822563208,0.03765071176698629,0.050293680132246846,-0.055563093451712744, ,0.02541396659496845, ,0.06282539100266799, ,0.0013085497507161602, ,0.2370106719099502,-0.17763830157291216,0.12482235668000001,1.6135641151134148,0.2300958656050017,-1.3826693968213397, ,0.161664295670308,0.02396992714283172,0.018761851024734984,0.09017278494529579,0.19936738707983245,-0.04009010255095195, ,1.7920138835906982
0.025490219852032415,0.020959829704527224,-0.11358632294587227, ,0.026415735998466517,0.02064363097137676,-0.11391463988942344, ,0.0010316752355169559, ,0.0215162847593641,0.0006516278566471342,-0.013038103372294187,-0.02821279575263433,-0.01812214022819819,-0.031009606876637796, ,0.025166788993755865, ,0.03353167806513711, ,0.0013066533499271247, ,0.2386787822107827,-0.17740661958668544,0.12500772615000003,1.6137738050568995,0.23159886710242156,-1.3825881339197514, ,0.16361541648012204,0.02194656372767594,0.017542743964757714,0.053193269441543775,0.13839104683819578,0.01927560227072394, ,1.7973010540008545
0.025490219852032415,0.020959829704527224,-0.11358632294587227, ,0.02653364912150608,0.02064614504948007,-0.11398095048911172, ,0.0011588242321808767, ,0.0215162847593641,0.0006516278566471342,-0.013038103372294187,-0.02821279575263433,-0.01812214022819819,-0.031009606876637796, ,0.025166788993755865, ,0.03353167806513711, ,0.0013056477096703475, ,0.2386787822107827,-0.17740661958668544,0.12500772615000003,1.6137738050568995,0.23159886710242156,-1.3825881339197514, ,0.16361541648012204,0.02194656372767594,0.017542743964757714,0.053193269441543775,0.13839104683819578,0.01927560227072394, ,1.8025450706481934
0.025702761302262612,0.020968449407893403,-0.1137252394523032, ,0.026651400690991284,0.02064866970278412,-0.11404500671633096, ,0.0010509171483951934, ,0.021285356108217746,0.001073379253994075,-0.015159645268401604,0.019898784342209472,0.01410486653566088,0.04089582101309998, ,0.026154031665124186, ,0.024390737537679785, ,0.0013039265572292991, ,0.24029283338149562,-0.17719810579908138,0.12519179933000002,1.613983495000384,0.23323850509960684,-1.382699967662, ,0.16002856923856792,0.020368521476383513,0.01971387564356436,-0.0136516182741606,0.1795421023062553,-0.042876713872818, ,1.8077759742736816
0.025702761302262612,0.020968449407893403,-0.1137252394523032, ,0.02676898813545596,0.02065120567587495,-0.11410681938133031, ,0.0011760469750664076, ,0.021285356108217746,0.001073379253994075,-0.015159645268401604,0.019898784342209472,0.01410486653566088,0.04089582101309998, ,0.026154031665124186, ,0.024390737537679785, ,0.001303068305000018, ,0.24029283338149562,-0.17719810579908138,0.12519179933000002,1.613983495000384,0.23323850509960684,-1.382699967662, ,0.16002856923856792,0.020368521476383513,0.01971387564356436,-0.0136516182741606,0.1795421023062553,-0.042876713872818, ,1.8130409717559814
0.025916714978441398,0.020979306565382314,-0.11387634496493447, ,0.0268864089182194,0.02065375372853297,-0.1141663993259967, ,0.001063213298822988, ,0.021314383272970607,0.0010659356663923441,-0.014875953152893058,0.02387004688887286,0.026084797955765134,0.029747611147170044, ,0.026014094936381037, ,0.035358098002853326, ,0.0013014692716255046, ,0.24189916181933432,-0.17699731474435154,0.12538883541,1.6137738050568995,0.2350147795965576,-1.383086576788226, ,0.16111535069349878,0.020272792471367394,0.01949670932680539,0.0,0.19035288162670067,-0.04363413258489792, ,1.8183550834655762
0.025916714978441398,0.020979306565382314,-0.11387634496493447, ,0.02700366053725635,0.020656314635632233,-0.11422375742356677, ,0.0011859468162291977, ,0.021314383272970607,0.0010659356663923441,-0.014875953152893058,0.02387004688887286,0.026084797955765134,0.029747611147170044, ,0.026014094936381037, ,0.035358098002853326, ,0.001300704222252019, ,0.24189916181933432,-0.17699731474435154,0.12538883541,1.6137738050568995,0.2350147795965576,-1.383086576788226, ,0.16111535069349878,0.020272792471367394,0.01949670932680539,0.0,0.19035288162670067,-0.04363413258489792, ,1.8236689567565918
0.026128358366041823,0.020990475071977554,-0.1140165317152378, ,0.027120740525066595,0.02065888918703963,-0.1142789045783366, ,0.001078708055004409, ,0.021429537104366007,0.0011333217609876876,-0.01335893524624089,0.002441087377852483,0.013510530070289588,0.009073534100789376, ,0.025277868376004032, ,0.013729271827232204, ,0.0012992437211517057, ,0.24351321299004725,-0.17680424642249593,0.12557550117000002,1.6141931849438687,0.23692769059327373,-1.3834212463378677, ,0.16361541648012204,0.01785455156321181,0.018080376299659483,0.019500539169300283,0.17661665089534637,-0.015187365672395897, ,1.8289530277252197
0.026128358366041823,0.020990475071977554,-0.1140165317152378, ,0.02723764644854503,0.020661478187514203,-0.11433185172537273, ,0.001199243807055814, ,0.021429537104366007,0.0011333217609876876,-0.01335893524624089,0.002441087377852483,0.013510530070289588,0.009073534100789376, ,0.025277868376004032, ,0.013729271827232204, ,0.0012985901269419288, ,0.24351321299004725,-0.17680424642249593,0.12557550117000002,1.6141931849438687,0.23692769059327373,-1.3834212463378677, ,0.16361541648012204,0.01785455156321181,0.018080376299659483,0.019500539169300283,0.17661665089534637,-0.015187365672395897, ,1.8342030048370361
0.026341511126423214,0.021001776638412725,-0.1141390406571403, ,0.027354375908851137,0.02066408245660604,-0.11438260983022192, ,0.0010951065564521623, ,0.02193694622909104,0.0008631238418594655,-0.011383817285286637,0.0029847816502436425,0.004008518859101059,-0.04944241697238644, ,0.024729858240782714, ,0.004997694845092628, ,0.0012972688050556316, ,0.24515043235938283,-0.17663434629926297,0.12574531516,1.614822254774322,0.23856732859045904,-1.3834514013399757, ,0.17037152883028864,0.018433749331482282,0.01625388930612245,0.0780523389542017,0.1633636569581238,-0.0022039029323181747, ,1.8394339084625244
0.026341511126423214,0.021001776638412725,-0.1141390406571403, ,0.027470926541278987,0.020666702828555806,-0.11443118988862264, ,0.0012137564874477869, ,0.02193694622909104,0.0008631238418594655,-0.011383817285286637,0.0029847816502436425,0.004008518859101059,-0.04944241697238644, ,0.024729858240782714, ,0.004997694845092628, ,0.0012967300159097746, ,0.24515043235938283,-0.17663434629926297,0.12574531516,1.614822254774322,0.23856732859045904,-1.3834514013399757, ,0.17037152883028864,0.018433749331482282,0.01625388930612245,0.0780523389542017,0.1633636569581238,-0.0022039029323181747, ,1.8446669578552246
0.026565645426469706,0.021008283150856708,-0.11424740112082465, ,0.027587296015126918,0.020669340152193755,-0.11447760292621527, ,0.0011007475427414594, ,0.021607549558536845,0.0005889040611814238,-0.009612252597797773,0.013002991389284315,0.010782229422192766,-0.01902738983573612, ,0.02365646647159655, ,0.016891837505838926, ,0.0012954737180048495, ,0.2469034927218318,-0.1764490007102816,0.12590346254,1.6150319447178065,0.24020696658764432,-1.3834815563420837, ,0.17191474920012823,0.0175702539452825,0.014493914030937218,0.04902321144189967,0.17702022642462523,-0.01824149991563681, ,1.8499400615692139
0.026565645426469706,0.021008283150856708,-0.11424740112082465, ,0.027703482033567546,0.020671995290839087,-0.11452185999825226, ,0.0012178215569803234, ,0.021607549558536845,0.0005889040611814238,-0.009612252597797773,0.013002991389284315,0.010782229422192766,-0.01902738983573612, ,0.02365646647159655, ,0.016891837505838926, ,0.001294979118253101, ,0.2469034927218318,-0.1764490007102816,0.12590346254,1.6150319447178065,0.24020696658764432,-1.3834815563420837, ,0.17191474920012823,0.0175702539452825,0.014493914030937218,0.04902321144189967,0.17702022642462523,-0.01824149991563681, ,1.8553309440612793
0.026853006094962727,0.02101338810979994,-0.11436045422441503, ,0.027819482333517116,0.02067466912219894,-0.11456397218930937, ,0.0010441390876154487, ,0.020628834851513934,6.476240493667592e-05,-0.006675536616291156,0.0013643881380752331,0.0017879020964309232,0.020865287498100304, ,0.021682154196840615, ,0.0022490299333669055, ,0.001293391523122483, ,0.2492357580498476,-0.17622504145692908,0.12608235056,1.6150319447178065,0.24280306008318767,-1.383883242969364, ,0.16915675857124915,0.01659037439833405,0.011402155705082321,0.006569266988979155,0.17263473938454177,-0.01590694120910631, ,1.8606359958648682
0.026853006094962727,0.02101338810979994,-0.11436045422441503, ,0.027935294685505884,0.020677362538267775,-0.11460395061299587, ,0.0011591170213551885, ,0.020628834851513934,6.476240493667592e-05,-0.006675536616291156,0.0013643881380752331,0.0017879020964309232,0.020865287498100304, ,0.021682154196840615, ,0.0022490299333669055, ,0.001292547029400676, ,0.2492357580498476,-0.17622504145692908,0.12608235056,1.6150319447178065,0.24280306008318767,-1.383883242969364, ,0.16915675857124915,0.01659037439833405,0.011402155705082321,0.006569266988979155,0.17263473938454177,-0.01590694120910631, ,1.8658990859985352
0.027062859662617598,0.02101227825048696,-0.11442270414688746, ,0.028050916893547356,0.02068007644522659,-0.11464180641166456, ,0.0010651858680255225, ,0.021552058750069273,-0.0002295098284117899,-0.006097997137391532,-0.009164907310458832,-0.009447015356870356,0.01660902972635949, ,0.022399318744448688, ,0.013162128123147094, ,0.0012911260221420812, ,0.25095792748079965,-0.17604741860082193,0.12619253521,1.615241634661291,0.24444269808037297,-1.383913397971472, ,0.17737746085695474,0.01856719654832142,0.011031032908587259,0.009756749444462231,0.16899851081789524,-0.006504884830405136, ,1.8712348937988281
0.027062859662617598,0.02101227825048696,-0.11442270414688746, ,0.028166346795008484,0.020682811763341913,-0.11467755075612383, ,0.0011794824338425883, ,0.021552058750069273,-0.0002295098284117899,-0.006097997137391532,-0.009164907310458832,-0.009447015356870356,0.01660902972635949, ,0.022399318744448688, ,0.013162128123147094, ,0.0012904325837054384, ,0.25095792748079965,-0.17604741860082193,0.12619253521,1.615241634661291,0.24444269808037297,-1.383913397971472, ,0.17737746085695474,0.01856719654832142,0.011031032908587259,0.009756749444462231,0.16899851081789524,-0.006504884830405136, ,1.8764839172363281
0.027283676216773002,0.021016359966685064,-0.11449534828166992, ,0.028281582260479124,0.02068556942686532,-0.11471119484534635, ,0.0010732327764051777, ,0.02123277508093529,0.0007350578463595669,-0.007400262804540738,0.02734932813603508,0.02417775710508435,-0.024777224976701664, ,0.02249744290472476, ,0.036504104781941576, ,0.001289091844154202, ,0.2527650469733682,-0.1758852412104632,0.12631697905,1.6158707044917449,0.24635560907708912,-1.3841663887809728, ,0.17316960138407075,0.013363884179477648,0.012454113776387804,0.058574407153978596,0.19023216531833478,-0.02588297082384225, ,1.881856918334961
