NicholasDascanio/dvrk_moveit_final/test/execution/third_experiment_notsharpbends/thirdexp_400vel5.0/thirdexp_400vel5.0_6.csv
Current Position (x),Current Position (y),Current Position (z), ,Planned Position (x),Planned Position (y),Planned Position (z), ,Position Error,,Cartesian linear Velocity(x),Cartesian linear Velocity(y),Cartesian linear Velocity(z),Cartesian Angular Velocity(x),Cartesian Angular Velocity(y),Cartesian Angular Velocity(z), ,Total Linear Velocity, ,Total Angular Velocity, ,MSE, ,Joint 1 Position,Joint 2 Position,Joint 3 Position,Joint 4 Position,Joint 5 Position,Joint 6 Position, ,Joint 1 Velocity,Joint 2 Velocity,Joint 3 Velocity,Joint 4 Velocity,Joint 5 Velocity,Joint 6 Velocity, ,Time Stamp
0.010136960805417195,0.020399789358019966,-0.07911234963250942, ,0.010191578090372097,0.020282470680270306,-0.07915203515776888, ,0.0001353575298234001, ,1.1814330457311482e-05,-1.0066490889155755e-05,-3.0739380907617824e-05,0.058017815690291026,-0.0073590047889016425,-0.12008459464916356, ,3.443576892650479e-05, ,0.058482663148626, ,1.1279794151950008e-05, ,0.20634369966640467,-0.17945314379835492,0.09452417051,2.3227355039780764,1.2405227813704338,-1.2266232704499105, ,0.00024770841929331786,0.0,2.8656632346123483e-05,-0.0024541233192262465,0.0,-0.13587414747314197, ,0.029258012771606445
0.010142799789068322,0.02040253467635656,-0.07913738827452296, ,0.010226774868225007,0.020303631516729342,-0.07926775805175135, ,0.00018392913776288145, ,0.0002840694556325632,0.0002554293550798287,-0.0011038194764980327,0.1428107779567404,-0.016552230115389182,-0.2982783982922508, ,0.0011680569539865206, ,0.14376680639981043, ,1.4513030344830977e-05, ,0.20635914513215312,-0.17945314379835492,0.09454750373000001,2.322525814034592,1.240249508370903,-1.2335064850347464, ,0.0005528369973431586,-0.0004916205822534695,0.0011653828005070764,0.0013435705701706968,0.0,-0.32970289303033673, ,0.05771207809448242
0.0101640563563462,0.020412756175804153,-0.07919925654288461, ,0.010262407780513913,0.020324281064114002,-0.079384363700765, ,0.00022752034617360914, ,0.0005703566786819603,0.00034902881443058946,-0.0020924330985708076,0.101737664269983,-0.023812436449330857,-0.24159306383460352, ,0.0021966802512460868, ,0.10448724544519818, ,1.7087719179996583e-05, ,0.20637459059790159,-0.17945314379835492,0.09459546646000001,2.322945193921561,1.2381999608744214,-1.2368176196278746, ,0.0007464515752577021,0.0006062843703646806,0.002051052781264925,0.006204331504206762,-0.015487285582382614,-0.25694155561300525, ,0.08522510528564453
0.010193597918666579,0.02042727592386132,-0.07930084292001043, ,0.010298473732383141,0.020344424237445397,-0.07950183931473077, ,0.0002413770679564476, ,0.0014630878765168472,0.0010189407778633847,-0.006258752094631558,-0.15910886706816638,-0.02399879626534978,0.24050733154127518, ,0.006507752624774418, ,0.16090858831118215, ,1.8766287659912817e-05, ,0.2063823133307758,-0.17945314379835492,0.09467713273000002,2.3231548838650453,1.2353305943793471,-1.239215210578402, ,0.0002468561513868963,0.0005335860324938612,0.006031356122680804,0.00179872640377731,-0.054513584772684996,0.28566706386454044, ,0.11305594444274902
0.010221706395222206,0.020463678394467392,-0.0794594625851213, ,0.010334969641466912,0.020364065933293943,-0.0796201721653327, ,0.00022040593127827958, ,0.0008135567231358238,0.0008308836676963415,-0.003788899267654426,0.061637257744441974,0.028036350041080783,-0.07029549039926383, ,0.003963331915375783, ,0.06771401970862413, ,1.939596178835804e-05, ,0.20639003606365003,-0.1794454210654807,0.09486898365000002,2.32336457380853,1.2384732338739524,-1.2336916270895042, ,0.00037809860434185943,0.0005238985908215323,0.004313244386677499,0.01354804509525106,0.0415453697826569,-0.07579812017787435, ,0.14424991607666016
0.010236462065419213,0.02047402703070741,-0.07951644426731555, ,0.010371892437866962,0.020383211029806506,-0.07973934958590329, ,0.0002761805801566589, ,0.0008307049599141899,0.0006722869839578994,-0.0033339015973040003,0.04871096662388691,0.0006787258086633531,-0.09865702214631851, ,0.003500991342424515, ,0.04871569498370003, ,2.1061813002479948e-05, ,0.20642092699514691,-0.1794454210654807,0.09492731670000001,2.32336457380853,1.2383365973741867,-1.2335802091858077, ,0.0009384213192130445,0.00044130005537215873,0.0035444618424566093,0.01165166769142246,0.006348303480720943,-0.0988874401041571, ,0.1708509922027588
0.010266021181611507,0.020495956871628557,-0.07963193177780967, ,0.010409239064130152,0.02040186438673478,-0.07985935897130907, ,0.0002847593473963995, ,0.0009328569928351323,0.0007092850039176479,-0.004037293212688507,0.0065254504350383755,-0.006189850791417857,-0.0303142745251024, ,0.00420393195366963, ,0.00899420675365677, ,2.2421856293538234e-05, ,0.20645954065951805,-0.1794145301339838,0.09504916796000001,2.3237839536954987,1.2384732338739524,-1.2340183420500663, ,0.000461946024346757,0.0007261576196094284,0.004130915850622407,0.005457418122670737,-0.007535392430928974,-0.0254217501713288, ,0.19510602951049805
0.01029270250397701,0.02051537068435282,-0.07973216763436405, ,0.010447006475226141,0.020420030845463868,-0.0799801877778368, ,0.00030726762275070074, ,0.0017207437935168543,0.0010691637054074576,-0.005931112984640173,-0.02068916883239003,-0.0040464780911066735,0.024445720030622908, ,0.006267549079860056, ,0.021081168956611492, ,2.3756931180992114e-05, ,0.20651359978963763,-0.1794068074011096,0.09515416745000001,2.323993643638983,1.2384732338739524,-1.2338549845697853, ,0.004737895323632074,0.0013643111726302996,0.006166787270615564,0.013039984333500489,-0.0053252042647246,0.042984994331046154, ,0.21993303298950195
0.010339780263679064,0.020546977729473125,-0.07990847128761047, ,0.010485191638524953,0.02043771522904001,-0.08010182352307893, ,0.0002654578100115304, ,0.0012595819413733045,0.0008895093943672248,-0.004672453550287612,-0.0046267304735105284,-0.0029523220717609187,-0.002857727871887704, ,0.004920324766648702, ,0.00548842766763791, ,2.4343811060339855e-05, ,0.2066371635156252,-0.17939136193536115,0.09533824063000002,2.323993643638983,1.2384732338739524,-1.2335282696092231, ,0.0025706995936991615,0.00048523243672072457,0.00486227457875458,0.010137677650132909,-0.003680824992596365,0.00887326756261427, ,0.24907708168029785
0.010364047615917428,0.020562316566468238,-0.07999396283011287, ,0.010523791533774638,0.020454922342198915,-0.08022425378581918, ,0.00030014257108732195, ,0.00128113190062696,0.0008535534507405813,-0.004358077337193244,-0.00030777216192800095,-0.004366666365108443,-0.009382964141305794, ,0.004621979069298406, ,0.004377498974956721, ,2.517936025151783e-05, ,0.20671439084436746,-0.1793836392024869,0.09542768464000001,2.323993643638983,1.2384732338739524,-1.2334465908690826, ,0.0037428273616811557,0.0001561473180035457,0.004557599862660945,0.008798335115307773,-0.0030513387709246607,-6.774357643513432e-05, ,0.2732551097869873
0.01040185034303719,0.020586059229738125,-0.0801198137798464, ,0.01056280315307893,0.020471656971393786,-0.08034746620591865, ,0.0003013624244513595, ,0.001125018644326105,0.0006328347987864176,-0.00411234210001112,-0.0026374400797806565,-0.0022022367482553745,-0.009153048877514969, ,0.0043101629180531285, ,0.0034359766724607684, ,2.588453178159046e-05, ,0.20680706363885815,-0.17933730280524157,0.09555990622,2.324622713469437,1.2384732338739524,-1.2335282696092231, ,0.0023759073082261573,0.002324231943705354,0.004251083939151322,0.010187270689885387,-0.0024322821955249426,0.0019833630390762, ,0.3004899024963379
0.010432529670795176,0.02060267024896154,-0.0802296338240011, ,0.010602223500874808,0.020487923884823508,-0.0804714484842006, ,0.0003169180555559937, ,0.00166095334389002,0.0008952723396865869,-0.005578438042420312,-0.0026735419101011275,-0.005142158031276905,-0.007800784771536139, ,0.005888909030194769, ,0.0057956544204763585, ,2.6848056354426162e-05, ,0.20689973643334883,-0.17929096640799622,0.09567397974000001,2.324622713469437,1.2384732338739524,-1.2335282696092231, ,0.005260513388836475,0.002377005165360546,0.005802845726775957,0.008609158725606197,-0.0020970577395327656,0.00171000997295888, ,0.324739933013916
0.010475186720216738,0.02062937076337739,-0.08039031281612298, ,0.010642049593910151,0.020503727832460746,-0.08059618838233713, ,0.00029328162825268615, ,0.001475556391753111,0.000835244132178666,-0.005199851466792392,-0.002449415521224648,-0.0040602073405554846,-0.006335675917700951, ,0.005469310258367626, ,0.0047418262560346425, ,2.7491475841453024e-05, ,0.20700785469358798,-0.17925235274362508,0.09584120115000001,2.324622713469437,1.2384732338739524,-1.2335282696092231, ,0.004084129930869679,0.002105988082142796,0.005401428118006105,0.007008156635664348,-0.0018139361363109304,0.001479143289632691, ,0.3467099666595459
0.010516403673814657,0.020652795809104174,-0.08054396433943452, ,0.010682278461221344,0.020519073546080263,-0.08072167372273434, ,0.0002774467762260936, ,0.0013033440995796621,0.0008117323589054351,-0.0048726922486326965,-0.00190753742215157,-0.0029436647572619492,-0.005167203423355042, ,0.005108888823833268, ,0.0035076856291779692, ,2.7933898683718173e-05, ,0.20711597295382714,-0.1791905708806313,0.09600064482000001,2.324622713469437,1.2384732338739524,-1.233364912128942, ,0.0029130072447799476,0.0015458459873222716,0.005059978246505719,0.005798426415173577,-0.001575060608886581,0.0012843563142953018, ,0.3757660388946533
0.010540447078167871,0.02066472525152973,-0.08062497967293354, ,0.010722907144110987,0.02053396573928692,-0.08084789238841807, ,0.00031635392273627336, ,0.0010469233743020192,0.0003929406251575889,-0.0036136563081687833,-0.0049236490833793655,-0.004376904765823118,0.0005313195636076172, ,0.003782718969224016, ,0.00658783841704772, ,2.860696196825823e-05, ,0.20718547754969516,-0.17913651175051173,0.09608490367000001,2.3248324034129215,1.2384732338739524,-1.2332832333888013, ,0.003429609838730884,0.0032960876803798758,0.0037086871990686847,0.0,-0.0014476717806829016,0.0017741336921300278, ,0.39847588539123535
0.010560925795387796,0.020672950901688032,-0.0806859398230265, ,0.010763932696125314,0.020548409107543686,-0.08097483232291972, ,0.0003744079816594366, ,0.001450751738865405,0.0006760580582094611,-0.004667692836395163,-0.0029399900795358605,-0.004376594540410037,-0.00724986720689242, ,0.004934479863250601, ,0.005272392172744194, ,2.9603895433418305e-05, ,0.2072627048784374,-0.17908245262039216,0.09614842188000002,2.325042093356406,1.2384732338739524,-1.2332015546486608, ,0.005010056895432987,0.0029475022323624265,0.004848953278538814,0.008443568334395734,-0.0013615549842855004,0.002057396980416556, ,0.42151904106140137
0.010598571796125472,0.020692471161437694,-0.08082226211318425, ,0.010805352183032172,0.020562408328199874,-0.08110248153016199, ,0.00037174909636807313, ,0.0015214691762498354,0.0008227603131163643,-0.0056091997148433916,-0.003014725413763909,-0.0030419494729299044,-0.006787884270408863, ,0.00586983172059616, ,0.00428275849932594, ,3.0479985906799648e-05, ,0.20737082313867652,-0.17901294802452414,0.09628971749000001,2.325042093356406,1.2384732338739524,-1.2331198759085202, ,0.0035405477249789825,0.0031486747205104245,0.005804960466472304,0.007392290314808215,-0.0012448938434754097,0.0014577536804513326, ,0.44393301010131836
0.01062223038492521,0.020703076166788542,-0.0809088577872216, ,0.010847162682798119,0.020575968060519683,-0.08123082807434372, ,0.000412814577134995, ,0.0017061066396095864,0.0008828955727067866,-0.006121531645850552,-0.003068204657612945,-0.0032105673475782215,-0.005250856366800531, ,0.006415875166271155, ,0.004440902376573067, ,3.1718834824733794e-05, ,0.20743260500167032,-0.17895116616153034,0.09637786521000001,2.325042093356406,1.2383365973741867,-1.2328451005245427, ,0.004533340973847231,0.0035522122002481626,0.006348669398166602,0.0067826135351007595,0.0,0.002235130130124019, ,0.46489596366882324
0.010679675271520975,0.020733301212522946,-0.08110557657434533, ,0.010889361285566586,0.020589092945709573,-0.0813598600798271, ,0.00035975595876058293, ,0.0019438137034396173,0.000964400099148132,-0.007220215172156828,-0.0031028754398696456,-0.0045403574870796545,-0.005347991994599063, ,0.007539229827851133, ,0.005499332912589564, ,3.2538621223468594e-05, ,0.20758705965915483,-0.17884304790129119,0.09657749387,2.325461473243375,1.2383365973741867,-1.2326817430442614, ,0.005024944360658648,0.004697713512134936,0.007499440451977402,0.002576026919232283,0.0,-0.0021357229202744344, ,0.4838900566101074
0.010706252956652743,0.02074693439548505,-0.08120727587540201, ,0.01093194509363523,0.020601787606947027,-0.08148956573102197, ,0.00038947669186301516, ,0.0019352603391099709,0.0009544101530471212,-0.007285687102807523,-0.0035473539031669883,-0.004235915408841438,-0.004963574529539794, ,0.00759851089887929, ,0.005525095341882676, ,3.346265747088994e-05, ,0.20765656425502285,-0.1787812660382974,0.09668767852000001,2.325461473243375,1.2383365973741867,-1.2326817430442614, ,0.00460887627979193,0.004884397832427555,0.007520685325779038,0.002576026919232283,0.0,-0.0016399138780213499, ,0.5059709548950195
0.010755674049579148,0.02076611079199986,-0.08137582292628054, ,0.010974911221433488,0.020614056649408293,-0.08161993327227195, ,0.0003616286227913806, ,0.0019313643736103845,0.000695156901484466,-0.006488382331175526,-0.006889672951544248,-0.005860545826901281,-0.0008578969052681839, ,0.00680533002409462, ,0.009045085918268855, ,3.416260263844571e-05, ,0.20782646437825578,-0.17863453411368713,0.09686267767000001,2.325461473243375,1.2384732338739524,-1.2328748396880984, ,0.006549332524481005,0.006219278161566238,0.006687158488664989,0.002576026919232283,9.020551323510647e-05,0.003201711758774548, ,0.5256779193878174
0.010791382067152449,0.020777404392505573,-0.08149300314731223, ,0.011018256795500338,0.02062590466029689,-0.08175095100774067, ,0.0003754482786241581, ,0.0018243851380865582,0.0006305854835238522,-0.0061265738056832456,-0.008129319295528088,-0.005314362339594034,0.001844748097807924, ,0.006423466803882947, ,0.009712274226647406, ,3.488381988794327e-05, ,0.2079577508371176,-0.17851097038769953,0.09698323264000001,2.325461473243375,1.2384732338739524,-1.2327931609479579, ,0.006163317848662182,0.006167543107288828,0.006308440205940595,0.002576026919232283,9.625012344113781e-05,0.006192147416965366, ,0.5458889007568359
0.010838424084802314,0.02079423810392411,-0.08163946296471335, ,0.011061978954461895,0.020637336208871218,-0.0818826073012961, ,0.0003656694584347529, ,0.0022175828226083756,0.0007167744585049343,-0.006972524270051208,-0.011517703070568548,-0.006049333999671808,0.0030283877447621265, ,0.007351702788874554, ,0.01300968521454829, ,3.5503629679877706e-05, ,0.20811992822747633,-0.17835651573021505,0.09713489857,2.3258808531303443,1.2384732338739524,-1.2323847672472552, ,0.008293745341936075,0.007436701212015168,0.0071978362042476275,0.008174802047993299,0.00010104159511379388,0.013789186209069375, ,0.5655910968780518
0.010880330162285127,0.020807661380058767,-0.081774548058417, ,0.011106074849008996,0.02064835584647367,-0.08201489057639788, ,0.0003662013688727589, ,0.002291306670464034,0.0007249478360179375,-0.007240640290107497,-0.013254698544200395,-0.0019478854831817731,0.01398802632793412, ,0.007629056785329891, ,0.013397062045529304, ,3.626194448578609e-05, ,0.20828982835070925,-0.1782097838056048,0.09727749047,2.3258808531303443,1.2388831433732486,-1.2323923059977824, ,0.008608804055149867,0.008023751180311784,0.007513590339622642,0.008174802047993299,0.005488046166042467,0.024497560096439774, ,0.5841999053955078
0.01092634800318907,0.020821195397749237,-0.08191676133803982, ,0.011150541641874843,0.020658968106557266,-0.0821477893159816, ,0.00036049189758789073, ,0.0022203320998343827,0.0005919064163323483,-0.006468990108122369,0.0028926258514962713,-0.0020684190837298153,-0.013510941106810627, ,0.006864988045017662, ,0.0035560695288366735, ,3.694906097940711e-05, ,0.20848289667256487,-0.1780553291481203,0.09742526753000001,2.3258808531303443,1.2390197798730138,-1.2320953302007756, ,0.009769659831516226,0.00800792936623124,0.006758087195587612,0.008174802047993299,0.009248535324581648,-0.0071793968747429346, ,0.6031980514526367
0.010971089710746233,0.020831228920932667,-0.08204509487471007, ,0.011195376507812596,0.020669177504715162,-0.08228129206234507, ,0.00041981697916770936, ,0.00224260929722702,0.0006564361990156213,-0.006472811116640604,0.009177804246742872,-0.003080568929686633,-0.02455198538335006, ,0.0068816777529243055, ,0.00968101153598236, ,3.787486758357191e-05, ,0.20869141046016892,-0.17789315175776158,0.09755748911,2.3258808531303443,1.2390197798730138,-1.2320953302007758, ,0.010023048622735798,0.007216265052413973,0.00678110324393359,0.0077284634492934415,0.009248535324581648,-0.02010837686387694, ,0.6209158897399902
0.011021139747230511,0.02084506604757833,-0.08219488273580121, ,0.01124057663357298,0.020678988538708077,-0.08241538741703397, ,0.0003526423123871942, ,0.0023511628609806934,0.0006320205520242527,-0.006784252905467326,-0.004863526941740311,-0.0064091690331333755,-0.005370907988926942, ,0.007207877930596343, ,0.00804557814184558, ,3.844483625123447e-05, ,0.20891536971352143,-0.17772325163452865,0.09771434020000001,2.3258808531303443,1.2392930528725448,-1.2322364872680278, ,0.010408924520140833,0.007950013607105873,0.00704502942061035,0.0068327713691967995,0.003744593222220451,0.0020592221828420612, ,0.6428380012512207
0.011044618383597946,0.020850229688640906,-0.08226556007052611, ,0.011286139217881989,0.020688405688492804,-0.08255006404072772, ,0.0004067699957932846, ,0.002354820379860797,0.0005601476274759159,-0.006846305670730633,-0.005945787583741861,-0.006579709696003894,-0.005437589533670446, ,0.00726160076863587, ,0.00886819906370528, ,3.922404411975605e-05, ,0.20901576524088636,-0.17763057884003794,0.09778693244000002,2.3258808531303443,1.2392930528725448,-1.2322364872680278, ,0.01029698085669388,0.008861857527655344,0.007085770249110321,0.006469592692800924,0.003452603811092082,0.0018947096595585645, ,0.6589341163635254
0.011096701621375802,0.02086608472843201,-0.08241705669897978, ,0.011332061471418383,0.020697433416249834,-0.0826853106531244, ,0.0003947121837833988, ,0.002797329327371422,0.0008747221910520382,-0.008481202861616566,-0.008230407608528138,-0.010193794245527878,-0.0011975402299514344, ,0.00897334899896266, ,0.013101641372003356, ,3.9910974805380455e-05, ,0.20923972449423886,-0.17746840144967924,0.09794507982,2.3260905430738283,1.2394296893723105,-1.2323479051717245, ,0.011598804074701465,0.008343486274152675,0.008781042734288865,0.0025702154579244816,0.0011061109603761902,0.0030159960814340747, ,0.6777598857879639
0.01112354709765595,0.020874843612851225,-0.08249860164798271, ,0.011378340616791383,0.020706076166412023,-0.08282111603282712, ,0.0004443171353915916, ,0.0028160626836559047,0.0008686696460593819,-0.008406030762013628,-0.004739334269195893,-0.008441111682586612,-0.0029527575034238506, ,0.008907645545495377, ,0.009680579206924429, ,4.094372696303737e-05, ,0.20935556548735224,-0.177391174120937,0.09803063496000002,2.3260905430738283,1.2395663258720757,-1.2324593230754208, ,0.012077252327781696,0.008320272366642937,0.008737691453647835,0.0024787732706507107,0.004466288722707204,-3.8390670830128985e-05, ,0.6911249160766602
0.01118712025922134,0.02089719203303951,-0.08268696480224393, ,0.011424973888518248,0.020714338365692433,-0.08295746901722945, ,0.0004039583430960658, ,0.0028808652024813774,0.000969388924614063,-0.009423126723876673,-0.006407392833329407,-0.00924976102950203,0.005802315153131577, ,0.009901233077565198, ,0.011252230344506446, ,4.176703154271043e-05, ,0.2094714064804656,-0.17731394679219475,0.09812137526,2.3263002330173133,1.2395663258720757,-1.2324593230754208, ,0.011732131776927899,0.008003882753572493,0.009277117949912638,0.002562955006826675,0.004466288722707204,-0.0003311460810224592, ,0.7050340175628662
0.011218719902918322,0.020908047743875377,-0.0827874489410241, ,0.011471958533001946,0.02072222442311262,-0.08309435850240092, ,0.0004391509867579005, ,0.0028260935277576314,0.0008061926230210788,-0.008858790865411446,-0.002702998801339936,-0.007821990274916292,0.001880394386843711, ,0.009333537741400335, ,0.008275849190336661, ,4.269948429187783e-05, ,0.209726256665315,-0.17712087847033914,0.09833137424,2.3265099229607977,1.2397029623718412,-1.232407383498836, ,0.011797956988894489,0.009232359731211774,0.009191466543566071,-0.007789282857290549,0.00794337606888183,-0.006477290558426514, ,0.7202339172363281
0.011255658086490358,0.02091975643064807,-0.08290191332914973, ,0.011519291808508705,0.02072973873003047,-0.08323177344297304, ,0.0004630520063932083, ,0.0029862117237046417,0.000973048201930832,-0.009337974690684267,0.0033775777755764656,-0.004938581164006941,-0.0009115281221678912, ,0.009852007642401208, ,0.0059831049249295465, ,4.3689780263837436e-05, ,0.2098807113227995,-0.17700503747722576,0.09845192921000001,2.3265099229607977,1.2399762353713721,-1.232630219306229, ,0.012542551091524027,0.008476135514768508,0.00976030117647059,-0.0072641852957692505,0.013191428594741289,-0.01075672549655617, ,0.733773946762085
0.011317657856280361,0.020937916339371268,-0.08308898595995307, ,0.011566970985145612,0.020736885660168656,-0.0833697028520245, ,0.0004258783202975801, ,0.0032171098756245088,0.000908390092863939,-0.009810156794374221,-0.004821034049372291,-0.008599283336373834,0.0053200662681912, ,0.010364079546339887, ,0.009858496454479095, ,4.449689862562106e-05, ,0.21014328424052314,-0.17681196915537015,0.09864637271000001,2.3265099229607977,1.2401128718711374,-1.2324149222493632, ,0.013849524453950785,0.010155169235235151,0.010197702637644048,-0.006567645118642829,0.00904829028554766,-0.0014582382540229513, ,0.7485589981079102
0.011333781387730528,0.020942579202466848,-0.08313810740962889, ,0.011614993344838325,0.020743669569642752,-0.08350813580096719, ,0.0005055355746602083, ,0.0032418381057805327,0.0008672646121024413,-0.009968996248751796,0.0009932772962919826,-0.003751313435510599,0.0024910459000706364, ,0.010518676172367096, ,0.0038805739033519818, ,4.5751871729673645e-05, ,0.21021278883639116,-0.17675791002525057,0.09869822431000001,2.3265099229607977,1.240249508370903,-1.2324446614129192, ,0.013898204680502459,0.011120465267105206,0.010404187798824299,-0.006411510649112809,0.016204108391560813,-0.006345054839241996, ,0.7601470947265625
0.011385344358459585,0.020956120655288533,-0.08329570611642644, ,0.011663356181308579,0.020750094796989024,-0.0836470614194318, ,0.0004931407272593334, ,0.003444719692418735,0.0008248338231315669,-0.010400746351111274,-0.0054077695433901165,-0.005199957186373029,0.010481201289425712, ,0.010987354970841424, ,0.007502226633845281, ,4.6922185844166623e-05, ,0.21042902535686944,-0.1765725644362692,0.09886285314000001,2.3265099229607977,1.2405227813704338,-1.2324224609998902, ,0.01507257648641531,0.012496305182837867,0.010828559836845685,-0.00597624834585244,0.014972846273983398,0.0036916950134451443, ,0.7711329460144043
0.01142129204123323,0.02096481357530182,-0.08340163662831873, ,0.011712056800051864,0.020756165663192928,-0.08378646889515302, ,0.0005255225683023306, ,0.0037376947376743684,0.0009425564617094051,-0.011419173053610497,0.005720107898465545,0.003089817859657354,0.006779476308295134, ,0.012052231654919886, ,0.006501262539684552, ,4.817807366916909e-05, ,0.21059120274722815,-0.17644127797740738,0.09897433408,2.3265099229607977,1.2407960543699645,-1.2324819393270017, ,0.01624113324635817,0.01359555036654309,0.011994586987951809,-0.005726586799581163,0.028676560541427136,-0.003985216165448632, ,0.7826189994812012
0.0114627940929589,0.020976271510037815,-0.08353025257509814, ,0.011761092518315025,0.020761886471717273,-0.08392634747385594, ,0.0005402166824965696, ,0.004062601258971122,0.0010817518479947605,-0.013004071202353924,0.002715567914116637,0.0023849343593957554,0.006792362867972988, ,0.013666776645790494, ,0.0036141180279639336, ,4.945098351466321e-05, ,0.2107611028704611,-0.1762945460527971,0.09910914824000001,2.3265099229607977,1.2410693273694955,-1.232623096394254, ,0.015970538801492896,0.015237145401167433,0.013591136109215017,-0.005484820232450376,0.027172469976154096,-0.002879447238430555, ,0.7939450740814209
0.011545285767272253,0.020996530768055164,-0.08378785910233945, ,0.011810460665073842,0.02076726150852977,-0.0840666864591412, ,0.0005745824784788547, ,0.003978069967053203,0.0007864222100472233,-0.012098275759781249,-0.014585576698786558,-0.00982761418833349,0.012703841496230786, ,0.012759771820645414, ,0.017587517990933898, ,5.081119486636068e-05, ,0.21108545765117853,-0.1759779140049539,0.09937618398,2.3265099229607977,1.2413426003690264,-1.2326008959812254, ,0.016674915051567523,0.016294117712649513,0.012493185505882354,-0.00507434760100384,0.010097741683616197,0.009475311593430492, ,0.807589054107666
0.011585301325225051,0.02100269930384048,-0.08390439153947354, ,0.011860158581010697,0.020772295042132044,-0.08420747521237076, ,0.00046956612702397357, ,0.003911236484849498,0.0004895179788524905,-0.011458382716083316,-0.01596268972215549,-0.012671587379584263,0.006737582239234553, ,0.012117422711132699, ,0.02038078488090503, ,5.175895766906008e-05, ,0.21126308050728568,-0.17580029114884674,0.09949673895000001,2.3265099229607977,1.241479236868792,-1.232630635144781, ,0.017358138203488343,0.018266976238396685,0.011772957516629714,-0.004887440429165912,0.007415502099275296,0.004306289449501668, ,0.8185720443725586
0.011585301325225051,0.02100269930384048,-0.08390439153947354, ,0.011910183618492087,0.020776991323587023,-0.08434870315255363, ,0.0005948994926425592, ,0.003911236484849498,0.0004895179788524905,-0.011458382716083316,-0.01596268972215549,-0.012671587379584263,0.006737582239234553, ,0.012117422711132699, ,0.02038078488090503, ,5.33069246396072e-05, ,0.21126308050728568,-0.17580029114884674,0.09949673895000001,2.3265099229607977,1.241479236868792,-1.232630635144781, ,0.017358138203488343,0.018266976238396685,0.011772957516629714,-0.004887440429165912,0.007415502099275296,0.004306289449501668, ,0.8266758918762207
0.011627638943295503,0.02100826401232083,-0.08402359029588663, ,0.011960533141546341,0.02078135458654722,-0.08449035975623101, ,0.0006165875151543061, ,0.004328118851503121,0.0005815969152914431,-0.012137055072875798,-0.00728705604209582,-0.00722149099045984,0.0071792197173539294, ,0.012898797370554875, ,0.010259183910806468, ,5.489809795401655e-05, ,0.21144842609626707,-0.17562266829273956,0.09961210876000001,2.3265099229607977,1.2416158733685574,-1.232497016828056, ,0.020589486126810757,0.01886244117640047,0.012493185505882354,-0.004725707367511818,0.013425757325521676,0.006842733777544815, ,0.8350028991699219
0.011660292912340203,0.021012954495337945,-0.08411616280277615, ,0.012011204525841175,0.0207853890472835,-0.08463243455736308, ,0.0006644257055701159, ,0.004551079355455927,0.000745743010783632,-0.013431634312298935,0.008304618773668369,0.008838732843718871,0.008174380545767638, ,0.0142013117787448, ,0.012128044116620586, ,5.662130971852712e-05, ,0.21161832621950002,-0.17546049090238086,0.09971840454000001,2.3265099229607977,1.2420257828678536,-1.2327495917990048, ,0.02062080433691238,0.0202080369587885,0.014121286808510639,-0.004598215057428084,0.042509356380379296,-0.003792197957394043, ,0.8435308933258057
0.011723106515075622,0.02102503296675992,-0.08430347645054209, ,0.012062195158661328,0.020789098904712075,-0.08477491714721345, ,0.000626819208640874, ,0.005107514415499337,0.0011190628740384255,-0.015918579411435936,0.006323277462727273,0.004602777974868064,0.0017111192427329098, ,0.01675530291277292, ,0.007821021722914809, ,5.818088405124143e-05, ,0.21188862187009788,-0.17519791798465723,0.09991414433000001,2.3265099229607977,1.24243569236715,-1.2329204880298128, ,0.02062080433691238,0.020884010026071917,0.016644526144200627,-0.00440970980665931,0.03692855694218346,-0.008946606423492896, ,0.8516249656677246
0.011754784962889191,0.021031791436967446,-0.08440219014876851, ,0.012113502438886132,0.02079248834042355,-0.08491779717423552, ,0.0006721568301460951, ,0.005586344292945994,0.0011235268534588358,-0.01764635764236634,-0.019857284072064312,-0.011929991322736123,0.011487982635023038, ,0.018543556648929954, ,0.023165377453847905, ,5.986201303094538e-05, ,0.21201218559608548,-0.1750666315257954,0.10001655124000002,2.3265099229607977,1.2425723288669153,-1.232868548453228, ,0.02120128274317935,0.023807561856114094,0.01818357479452055,-0.004326949799469262,0.013269635725620881,0.009752642489825995, ,0.860414981842041
0.011833440573355126,0.021049205355057783,-0.08465149370282186, ,0.012165123776967084,0.020795561518710787,-0.08506106434395769, ,0.0005848906336705373, ,0.005840669133448645,0.0011273830959591508,-0.018458788261241577,-0.001457077157910624,-0.010755659058517691,-0.021394059025215684, ,0.019393588441668653, ,0.010853807288593382, ,6.121754679207481e-05, ,0.212305649445306,-0.17474227674507797,0.10027451295,2.3265099229607977,1.2428456018664462,-1.2327646693000587, ,0.02211019141623271,0.02544153929181522,0.019053602296650717,-0.004146466723083168,0.018909879715825247,-0.027900382613780757, ,0.8685359954833984
0.011833440573355126,0.021049205355057783,-0.08465149370282186, ,0.012217056594905617,0.02079832258659698,-0.08520470841886947, ,0.0007184357574288858, ,0.005840669133448645,0.0011273830959591508,-0.018458788261241577,-0.001457077157910624,-0.010755659058517691,-0.021394059025215684, ,0.019393588441668653, ,0.010853807288593382, ,6.319761544272178e-05, ,0.212305649445306,-0.17474227674507797,0.10027451295,2.3265099229607977,1.2428456018664462,-1.2327646693000587, ,0.02211019141623271,0.02544153929181522,0.019053602296650717,-0.004146466723083168,0.018909879715825247,-0.027900382613780757, ,0.8744618892669678
0.011833440573355126,0.021049205355057783,-0.08465149370282186, ,0.012269298326230506,0.020800775673863764,-0.08534871921830678, ,0.0008589602474404402, ,0.005840669133448645,0.0011273830959591508,-0.018458788261241577,-0.001457077157910624,-0.010755659058517691,-0.021394059025215684, ,0.019393588441668653, ,0.010853807288593382, ,6.561532176798579e-05, ,0.212305649445306,-0.17474227674507797,0.10027451295,2.3265099229607977,1.2428456018664462,-1.2327646693000587, ,0.02211019141623271,0.02544153929181522,0.019053602296650717,-0.004146466723083168,0.018909879715825247,-0.027900382613780757, ,0.8804259300231934
0.011935029835369065,0.021069321177540675,-0.0849676069741978, ,0.012321846415975593,0.020802924893079167,-0.08549308661833777, ,0.0007047857148186826, ,0.006759529147849978,0.0013836544045119719,-0.02072032901930624,0.03764471675941579,0.01566912353367477,-0.03338847131435033, ,0.021838904928591616, ,0.040775511191337835, ,6.749583019842092e-05, ,0.2127149542876399,-0.17429435823837297,0.10060765948000001,2.3265099229607977,1.2439386938645698,-1.2334109763092083, ,0.02800145811698754,0.028134284482203013,0.021820289753424663,-0.003947500324882375,0.06587478167501565,-0.054367721427390214, ,0.8863129615783691
0.011935029835369065,0.021069321177540675,-0.0849676069741978, ,0.012374698320657362,0.02080477433962645,-0.08563780055164816, ,0.0008440692137862982, ,0.006759529147849978,0.0013836544045119719,-0.02072032901930624,0.03764471675941579,0.01566912353367477,-0.03338847131435033, ,0.021838904928591616, ,0.040775511191337835, ,6.980552906939634e-05, ,0.2127149542876399,-0.17429435823837297,0.10060765948000001,2.3265099229607977,1.2439386938645698,-1.2334109763092083, ,0.02800145811698754,0.028134284482203013,0.021820289753424663,-0.003947500324882375,0.06587478167501565,-0.054367721427390214, ,0.891740083694458
0.012010969812018546,0.021083899369834375,-0.08519912301475935, ,0.012427851508252543,0.020806328091731198,-0.08578285100742755, ,0.0007691388252501728, ,0.00771113759235296,0.001656266043382817,-0.023374846868722973,-0.007284941378690621,-0.010052520030182466,-0.004187621563346876, ,0.024669583018586072, ,0.012414368757242208, ,7.184283575907717e-05, ,0.2130315863354831,-0.1739931716562782,0.10084747313,2.3263002330173133,1.2442119668641007,-1.233633812116601, ,0.030971586670519188,0.029851192689043973,0.024281724878048784,0.0,0.029654448618698283,-0.0064781035411686505, ,0.8976500034332275
0.012010969812018546,0.021083899369834375,-0.08519912301475935, ,0.012481303458175694,0.020807590210490032,-0.08592822803125419, ,0.0009105792745955714, ,0.00771113759235296,0.001656266043382817,-0.023374846868722973,-0.007284941378690621,-0.010052520030182466,-0.004187621563346876, ,0.024669583018586072, ,0.012414368757242208, ,7.43087315889081e-05, ,0.2130315863354831,-0.1739931716562782,0.10084747313,2.3263002330173133,1.2442119668641007,-1.233633812116601, ,0.030971586670519188,0.029851192689043973,0.024281724878048784,0.0,0.029654448618698283,-0.0064781035411686505, ,0.903170108795166
0.012091927147599688,0.021100764748594014,-0.08544408215960271, ,0.012535051661256858,0.020808564739899286,-0.08607392172498134, ,0.000823673514082758, ,0.00846453766982806,0.0017827885571615799,-0.025705961328130925,-0.019094629393299513,-0.02706346601885737,-0.017972411276405875, ,0.027122374173490917, ,0.03312136531097838, ,7.64654601860485e-05, ,0.21335594111620054,-0.173676539608435,0.10110154597000001,2.3263002330173133,1.2444852398636317,-1.233693290443713, ,0.03311128456331849,0.03255469693258002,0.026503846123128123,0.0,0.00955175029272895,-0.015163570634788544, ,0.908715009689331
0.012091927147599688,0.021100764748594014,-0.08544408215960271, ,0.01258909361971913,0.02080925570688184,-0.08621992224662282, ,0.0009664780716741679, ,0.00846453766982806,0.0017827885571615799,-0.025705961328130925,-0.019094629393299513,-0.02706346601885737,-0.017972411276405875, ,0.027122374173490917, ,0.03312136531097838, ,7.904814955526141e-05, ,0.21335594111620054,-0.173676539608435,0.10110154597000001,2.3263002330173133,1.2444852398636317,-1.233693290443713, ,0.03311128456331849,0.03255469693258002,0.026503846123128123,0.0,0.00955175029272895,-0.015163570634788544, ,0.9142940044403076
0.012170915636008514,0.02111731271922865,-0.08568683805988632, ,0.01264342684715625,0.020809667121316273,-0.08636621981023848, ,0.0008828772402133453, ,0.008698490632329891,0.0017084422475496562,-0.02658954078058097,0.0035918082403398107,-0.009195509832506672,-0.027574849573063602, ,0.02802831056478649, ,0.009871433362050881, ,8.133452476378767e-05, ,0.2136648504311695,-0.1733599075605918,0.10135432252000001,2.3263002330173133,1.2448951493629279,-1.2339458654146616, ,0.03407430576605773,0.03558190534625826,0.027606259133448878,0.0,0.03715367707908351,-0.033340560738709, ,0.9209780693054199
0.012170915636008514,0.02111731271922865,-0.08568683805988632, ,0.012698048868510167,0.020809802976064516,-0.08651280468581918, ,0.0010269627812649416, ,0.008698490632329891,0.0017084422475496562,-0.02658954078058097,0.0035918082403398107,-0.009195509832506672,-0.027574849573063602, ,0.02802831056478649, ,0.009871433362050881, ,8.430819852636991e-05, ,0.2136648504311695,-0.1733599075605918,0.10135432252000001,2.3263002330173133,1.2448951493629279,-1.2339458654146616, ,0.03407430576605773,0.03558190534625826,0.027606259133448878,0.0,0.03715367707908351,-0.033340560738709, ,0.9237871170043945
0.01221283010971462,0.021124896303328738,-0.0858134734542381, ,0.012752957220048803,0.02080966724700047,-0.0866596671991741, ,0.0010522121968692302, ,0.008981171642968357,0.0017429647305490712,-0.02724391646511152,0.026695979801515616,0.005493472512063963,-0.03883042773123963, ,0.02873900406225608, ,0.027255065014487906, ,8.734238033935694e-05, ,0.21383475055440246,-0.17318228470448463,0.1014865441,2.3263002330173133,1.2451684223624588,-1.2341687012220546, ,0.03616499297197819,0.03698244020205409,0.028495190554561723,0.0,0.06199473047575606,-0.05291840922958216, ,0.9296369552612305
0.01221283010971462,0.021124896303328738,-0.0858134734542381, ,0.01280814944934343,0.020809263893036816,-0.08680679773181493, ,0.0012003008185393755, ,0.008981171642968357,0.0017429647305490712,-0.02724391646511152,0.026695979801515616,0.005493472512063963,-0.03883042773123963, ,0.02873900406225608, ,0.027255065014487906, ,0.0004925850872338006, ,0.21383475055440246,-0.17318228470448463,0.1014865441,2.3263002330173133,1.2451684223624588,-1.2341687012220546, ,0.03616499297197819,0.03698244020205409,0.028495190554561723,0.0,0.06199473047575606,-0.05291840922958216, ,0.9324779510498047
0.012361343683612578,0.02115289323330448,-0.08627460536406852, ,0.012863623115246511,0.020808596856155426,-0.08695418672084193, ,0.000912499557936586, ,0.010014071911405804,0.0017634295518521217,-0.030745990920929833,-0.0037864871207385267,-0.010628732306879125,-0.02305510777080317, ,0.03238375021119468, ,0.011281842042189969, ,0.0004995836617455137, ,0.21439851005422084,-0.17254902060879823,0.10196617140000001,2.3263002330173133,1.2459882413610515,-1.234837208644233, ,0.03829577948283728,0.0428622138927149,0.031857623040000005,0.0,0.04061425050115155,-0.027592174610352998, ,0.935276985168457
0.012361343683612578,0.02115289323330448,-0.08627460536406852, ,0.012919375787868979,0.020807670061433057,-0.08710182465882986, ,0.0010558743435670967, ,0.010014071911405804,0.0017634295518521217,-0.030745990920929833,-0.0037864871207385267,-0.010628732306879125,-0.02305510777080317, ,0.03238375021119468, ,0.011281842042189969, ,0.0005087031811196381, ,0.21439851005422084,-0.17254902060879823,0.10196617140000001,2.3263002330173133,1.2459882413610515,-1.234837208644233, ,0.03829577948283728,0.0428622138927149,0.031857623040000005,0.0,0.04061425050115155,-0.027592174610352998, ,0.9380419254302979
0.012361343683612578,0.02115289323330448,-0.08627460536406852, ,0.01297540504855823,0.020806487417071164,-0.0872497020937133, ,0.001203279677216871, ,0.010014071911405804,0.0017634295518521217,-0.030745990920929833,-0.0037864871207385267,-0.010628732306879125,-0.02305510777080317, ,0.03238375021119468, ,0.011281842042189969, ,0.0005199060278308837, ,0.21439851005422084,-0.17254902060879823,0.10196617140000001,2.3263002330173133,1.2459882413610515,-1.234837208644233, ,0.03829577948283728,0.0428622138927149,0.031857623040000005,0.0,0.04061425050115155,-0.027592174610352998, ,0.940809965133667
0.012361343683612578,0.02115289323330448,-0.08627460536406852, ,0.013031708489875386,0.020805052814423373,-0.08739780962867257, ,0.0013535027707795352, ,0.010014071911405804,0.0017634295518521217,-0.030745990920929833,-0.0037864871207385267,-0.010628732306879125,-0.02305510777080317, ,0.03238375021119468, ,0.011281842042189969, ,0.000533137722163402, ,0.21439851005422084,-0.17254902060879823,0.10196617140000001,2.3263002330173133,1.2459882413610515,-1.234837208644233, ,0.03829577948283728,0.0428622138927149,0.031857623040000005,0.0,0.04061425050115155,-0.027592174610352998, ,0.9435360431671143
0.012471904985933901,0.02116945551389776,-0.08660404640689955, ,0.013088283715573055,0.020803370128023486,-0.08754613792201903, ,0.0011838402218890915, ,0.012044721653670779,0.002134998169375502,-0.03615969715283166,0.02101624271324044,0.0020546529608145743,-0.03701268047529254, ,0.03817272894465556, ,0.0211149766112607, ,0.0005433049487216159, ,0.21484642856092587,-0.17206248843772207,0.10230839196000001,2.3263002330173133,1.2465347873601134,-1.2350378440385972, ,0.04829360893560853,0.049998388597719066,0.03774599886255925,0.0,0.07399284163230291,-0.05133825548658407, ,0.9462521076202393
0.012471904985933901,0.02116945551389776,-0.08660404640689955, ,0.013145128340572956,0.020801443215613884,-0.08769467768708121, ,0.0013334689071104508, ,0.012044721653670779,0.002134998169375502,-0.03615969715283166,0.02101624271324044,0.0020546529608145743,-0.03701268047529254, ,0.03817272894465556, ,0.0211149766112607, ,0.0005554613173122134, ,0.21484642856092587,-0.17206248843772207,0.10230839196000001,2.3263002330173133,1.2465347873601134,-1.2350378440385972, ,0.04829360893560853,0.049998388597719066,0.03774599886255925,0.0,0.07399284163230291,-0.05133825548658407, ,0.9490621089935303
0.012471904985933901,0.02116945551389776,-0.08660404640689955, ,0.013202239990943396,0.020799275918173658,-0.08784341969208975, ,0.0014854185580757517, ,0.012044721653670779,0.002134998169375502,-0.03615969715283166,0.02101624271324044,0.0020546529608145743,-0.03701268047529254, ,0.03817272894465556, ,0.0211149766112607, ,0.0005695515785359034, ,0.21484642856092587,-0.17206248843772207,0.10230839196000001,2.3263002330173133,1.2465347873601134,-1.2350378440385972, ,0.04829360893560853,0.049998388597719066,0.03774599886255925,0.0,0.07399284163230291,-0.05133825548658407, ,0.9518311023712158
0.012593039125286556,0.02119400401612738,-0.08698153605514578, ,0.013259616303876948,0.02079687205994654,-0.0879923547600639, ,0.0012742815151487899, ,0.014082062790365831,0.00311454544524654,-0.03615969715283166,0.02101624271324044,0.0020546529608145743,-0.03701268047529254, ,0.03892979044314025, ,0.0211149766112607, ,0.0005800699357987823, ,0.21484642856092587,-0.17206248843772207,0.10230839196000001,2.3263002330173133,1.2465347873601134,-1.2350378440385972, ,0.04829360893560853,0.049998388597719066,0.03774599886255925,0.0,0.07399284163230291,-0.05133825548658407, ,0.9560999870300293
0.012593039125286556,0.02119400401612738,-0.08698153605514578, ,0.013317254927668012,0.02079423544846889,-0.08814147376869644, ,0.0014246960852841127, ,0.014082062790365831,0.00311454544524654,-0.04331446586743032,0.06517230030546901,0.032253778120470686,-0.04726505398840728, ,0.04565246805095096, ,0.07271576491398604, ,0.0005924909085853312, ,0.215332960732002,-0.17159140173239437,0.1027050567,2.3258808531303443,1.2476278793582367,-1.235684151047747, ,0.05475876604643438,0.053735527496302816,0.04564129375358167,-0.004795562811610278,0.12850035374876315,-0.08317567613302373, ,0.9591588973999023
0.012593039125286556,0.02119400401612738,-0.08698153605514578, ,0.013375153521690511,0.02079136987459844,-0.08829076765023983, ,0.001577309275500396, ,0.014082062790365831,0.00311454544524654,-0.04331446586743032,0.06517230030546901,0.032253778120470686,-0.04726505398840728, ,0.04565246805095096, ,0.07271576491398604, ,0.000606763638540622, ,0.215332960732002,-0.17159140173239437,0.1027050567,2.3258808531303443,1.2476278793582367,-1.235684151047747, ,0.05475876604643438,0.053735527496302816,0.04564129375358167,-0.004795562811610278,0.12850035374876315,-0.08317567613302373, ,0.963062047958374
0.012593039125286556,0.02119400401612738,-0.08698153605514578, ,0.013433309756375304,0.020788279112542,-0.08844022739139147, ,0.0017316026811303746, ,0.014082062790365831,0.00311454544524654,-0.04331446586743032,0.06517230030546901,0.032253778120470686,-0.04726505398840728, ,0.04565246805095096, ,0.07271576491398604, ,0.0006228327677204757, ,0.215332960732002,-0.17159140173239437,0.1027050567,2.3258808531303443,1.2476278793582367,-1.235684151047747, ,0.05475876604643438,0.053735527496302816,0.04564129375358167,-0.004795562811610278,0.12850035374876315,-0.08317567613302373, ,0.9659409523010254
0.012795201674507014,0.02123475403569636,-0.08761639476975101, ,0.013491721313187958,0.02078496691988324,-0.08858984403317974, ,0.0012786913330001281, ,0.015394830265668987,0.0034225157952725983,-0.05002737958026574,0.07175691366642359,0.05086276956140098,0.01879672957597428, ,0.05245429554331693, ,0.08795318430754681, ,0.0006320702123018792, ,0.2161206794851729,-0.17079596024634924,0.10337264605000002,2.3252517832998905,1.249540790354953,-1.236590571778372, ,0.05668873450326809,0.059571212528857984,0.05274440900662252,-0.05819908657361056,0.16915749917745554,-0.07751731924563637, ,0.968756914138794
0.012795201674507014,0.02123475403569636,-0.08761639476975101, ,0.013550385884606164,0.020781437037611435,-0.08873960867084937, ,0.0014273783519293, ,0.015394830265668987,0.0034225157952725983,-0.05002737958026574,0.07175691366642359,0.05086276956140098,0.01879672957597428, ,0.05245429554331693, ,0.08795318430754681, ,0.0006431161586855933, ,0.2161206794851729,-0.17079596024634924,0.10337264605000002,2.3252517832998905,1.249540790354953,-1.236590571778372, ,0.05668873450326809,0.059571212528857984,0.05274440900662252,-0.05819908657361056,0.16915749917745554,-0.07751731924563637, ,0.9715359210968018
0.012795201674507014,0.02123475403569636,-0.08761639476975101, ,0.013609301174097565,0.02077769319014956,-0.08888951245374731, ,0.001578762568934807, ,0.015394830265668987,0.0034225157952725983,-0.05002737958026574,0.07175691366642359,0.05086276956140098,0.01879672957597428, ,0.05245429554331693, ,0.08795318430754681, ,0.0006559332327985962, ,0.2161206794851729,-0.17079596024634924,0.10337264605000002,2.3252517832998905,1.249540790354953,-1.236590571778372, ,0.05668873450326809,0.059571212528857984,0.05274440900662252,-0.05819908657361056,0.16915749917745554,-0.07751731924563637, ,0.9742898941040039
0.012795201674507014,0.02123475403569636,-0.08761639476975101, ,0.013668464896097132,0.020773739085381486,-0.08903954658520774, ,0.0017321906732324702, ,0.015394830265668987,0.0034225157952725983,-0.05002737958026574,0.07175691366642359,0.05086276956140098,0.01879672957597428, ,0.05245429554331693, ,0.08795318430754681, ,0.0006704772522639189, ,0.2161206794851729,-0.17079596024634924,0.10337264605000002,2.3252517832998905,1.249540790354953,-1.236590571778372, ,0.05668873450326809,0.059571212528857984,0.05274440900662252,-0.05819908657361056,0.16915749917745554,-0.07751731924563637, ,0.9770228862762451
0.012957528959993723,0.021265027966423367,-0.08812464665017708, ,0.013727874775984868,0.02076957841468161,-0.08918970232243871, ,0.0014047229333761324, ,0.01683089056698473,0.002657450945564373,-0.05003732280063341,-0.030754557063119886,0.00042457149098761894,0.019323012748066193, ,0.05285900676195765, ,0.03075238808644944, ,0.0006802671946787484, ,0.21673849811511087,-0.17013952795204018,0.10390542124,2.3248324034129215,1.2509071553526072,-1.2366429271935089, ,0.06407626033657716,0.071512390021455,0.052054939607843145,0.025680702124161566,0.08072284399207778,0.04200691780887753, ,0.9797720909118652
0.012957528959993723,0.021265027966423367,-0.08812464665017708, ,0.01378752855006341,0.02076521485294176,-0.08933997097640756, ,0.001554260494850072, ,0.01683089056698473,0.002657450945564373,-0.05003732280063341,-0.030754557063119886,0.00042457149098761894,0.019323012748066193, ,0.05285900676195765, ,0.03075238808644944, ,0.0006917671065231079, ,0.21673849811511087,-0.17013952795204018,0.10390542124,2.3248324034129215,1.2509071553526072,-1.2366429271935089, ,0.06407626033657716,0.071512390021455,0.052054939607843145,0.025680702124161566,0.08072284399207778,0.04200691780887753, ,0.9825329780578613
0.012957528959993723,0.021265027966423367,-0.08812464665017708, ,0.01384742396553552,0.020760652058599602,-0.08949034391172539, ,0.0017062934060359713, ,0.01683089056698473,0.002657450945564373,-0.05003732280063341,-0.030754557063119886,0.00042457149098761894,0.019323012748066193, ,0.05285900676195765, ,0.03075238808644944, ,0.0007049427727505476, ,0.21673849811511087,-0.17013952795204018,0.10390542124,2.3248324034129215,1.2509071553526072,-1.2366429271935089, ,0.06407626033657716,0.071512390021455,0.052054939607843145,0.025680702124161566,0.08072284399207778,0.04200691780887753, ,0.9853041172027588
0.012957528959993723,0.021265027966423367,-0.08812464665017708, ,0.01390755878048173,0.020755893673666984,-0.08964081254653443, ,0.001860250900592203, ,0.01863887850871516,0.0027847509272597567,-0.05514757134111143,0.016969314456991597,0.023346500018297994,-0.016133254793807967, ,0.058278789062681226, ,0.02885319087536605, ,0.0007197544154151843, ,0.21673849811511087,-0.17013952795204018,0.10390542124,2.3248324034129215,1.2509071553526072,-1.2366429271935089, ,0.06407626033657716,0.071512390021455,0.052054939607843145,0.025680702124161566,0.08072284399207778,0.04200691780887753, ,0.9880249500274658
0.013132837681638025,0.02128728352560257,-0.08864433160477331, ,0.013967930763838085,0.02075094332375843,-0.0897913683523928, ,0.0015168172495202325, ,0.01863887850871516,0.0027847509272597567,-0.05514757134111143,0.016969314456991597,0.023346500018297994,-0.016133254793807967, ,0.058278789062681226, ,0.02885319087536605, ,0.0007298438183785394, ,0.21742582134091684,-0.1693595319317435,0.10444597417000001,2.3248324034129215,1.2518636108509653,-1.2364427076376971, ,0.07227489836898002,0.07967837242524835,0.05771308521739131,0.019090813142252312,0.12982652743798806,-0.017021271686808573, ,0.9909920692443848
0.013132837681638025,0.02128728352560257,-0.08864433160477331, ,0.014028537695373475,0.020745804618117848,-0.08994200285415971, ,0.0016671618377771828, ,0.01863887850871516,0.0027847509272597567,-0.05514757134111143,0.016969314456991597,0.023346500018297994,-0.016133254793807967, ,0.058278789062681226, ,0.02885319087536605, ,0.0007415602936210224, ,0.21742582134091684,-0.1693595319317435,0.10444597417000001,2.3248324034129215,1.2518636108509653,-1.2364427076376971, ,0.07227489836898002,0.07967837242524835,0.05771308521739131,0.019090813142252312,0.12982652743798806,-0.017021271686808573, ,0.9937069416046143
0.013132837681638025,0.02128728352560257,-0.08864433160477331, ,0.014089377365667377,0.02074048114964841,-0.09009270762988222, ,0.0018198225505752998, ,0.01863887850871516,0.0027847509272597567,-0.05514757134111143,0.016969314456991597,0.023346500018297994,-0.016133254793807967, ,0.058278789062681226, ,0.02885319087536605, ,0.0007548721733365073, ,0.21742582134091684,-0.1693595319317435,0.10444597417000001,2.3248324034129215,1.2518636108509653,-1.2364427076376971, ,0.07227489836898002,0.07967837242524835,0.05771308521739131,0.019090813142252312,0.12982652743798806,-0.017021271686808573, ,0.9964830875396729
0.013318421102647422,0.02131517306909764,-0.08918332558735864, ,0.014150447576087412,0.020734976494939446,-0.0902434743106802, ,0.0014672462072638692, ,0.019633624320410985,0.0022783365257115617,-0.05609484377621425,0.08511532594987574,0.05091367024053918,-0.05802350489447664, ,0.059475217692391065, ,0.09917794673016894, ,0.0007635596615551337, ,0.21817492642971661,-0.1685795359114468,0.10501504548000001,2.325042093356406,1.253639885347916,-1.2372377104646262, ,0.08273490981558046,0.08595737460006411,0.05921491271375466,-0.0024594609533395498,0.19399962381501784,-0.10408196416583963, ,1.00018310546875
0.013318421102647422,0.02131517306909764,-0.08918332558735864, ,0.014211746138766997,0.020729294214295313,-0.09039429458063192, ,0.0016148466042729315, ,0.019633624320410985,0.0022783365257115617,-0.05609484377621425,0.08511532594987574,0.05091367024053918,-0.05802350489447664, ,0.059475217692391065, ,0.09917794673016894, ,0.0007738161307445047, ,0.21817492642971661,-0.1685795359114468,0.10501504548000001,2.325042093356406,1.253639885347916,-1.2372377104646262, ,0.08273490981558046,0.08595737460006411,0.05921491271375466,-0.0024594609533395498,0.19399962381501784,-0.10408196416583963, ,1.0043349266052246
0.013318421102647422,0.02131517306909764,-0.08918332558735864, ,0.014273270876582811,0.020723437851762616,-0.09054516017666021, ,0.0017653560849973506, ,0.019633624320410985,0.0022783365257115617,-0.05609484377621425,0.08511532594987574,0.05091367024053918,-0.05802350489447664, ,0.059475217692391065, ,0.09917794673016894, ,0.0007856201778189434, ,0.21817492642971661,-0.1685795359114468,0.10501504548000001,2.325042093356406,1.253639885347916,-1.2372377104646262, ,0.08273490981558046,0.08595737460006411,0.05921491271375466,-0.0024594609533395498,0.19399962381501784,-0.10408196416583963, ,1.0075700283050537
0.013318421102647422,0.02131517306909764,-0.08918332558735864, ,0.014335019623132477,0.020717410935159365,-0.09069606288841758, ,0.0019181152891935183, ,0.019633624320410985,0.0022783365257115617,-0.05609484377621425,0.08511532594987574,0.05091367024053918,-0.05802350489447664, ,0.059475217692391065, ,0.09917794673016894, ,0.0007989436497174677, ,0.21817492642971661,-0.1685795359114468,0.10501504548000001,2.325042093356406,1.253639885347916,-1.2372377104646262, ,0.08273490981558046,0.08595737460006411,0.05921491271375466,-0.0024594609533395498,0.19399962381501784,-0.10408196416583963, ,1.0109069347381592
0.01358315302398514,0.021328846297014203,-0.08990857700306654, ,0.014396990222712158,0.020711216976102422,-0.09084699455817194, ,0.0013872362710842694, ,0.019845698426808042,0.00014305803057802302,-0.0519272258197237,0.012695079993061497,0.002701235311350812,0.008739244541635665, ,0.05559054769455419, ,0.012964728198212398, ,0.0008057842615938258, ,0.21938739549096986,-0.16735162138444512,0.10577726400000001,2.3244130235259526,1.2559627058439287,-1.2382333486859192, ,0.09451886609409439,0.09663639669905374,0.05436454443686007,-0.0344389714025667,0.14651140086072847,-0.04727063327523937, ,1.0139129161834717
0.01358315302398514,0.021328846297014203,-0.08990857700306654, ,0.014459180530294042,0.020704859470035974,-0.09099794708069289, ,0.001530853003419924, ,0.019845698426808042,0.00014305803057802302,-0.0519272258197237,0.012695079993061497,0.002701235311350812,0.008739244541635665, ,0.05559054769455419, ,0.012964728198212398, ,0.0008141183850630914, ,0.21938739549096986,-0.16735162138444512,0.10577726400000001,2.3244130235259526,1.2559627058439287,-1.2382333486859192, ,0.09451886609409439,0.09663639669905374,0.05436454443686007,-0.0344389714025667,0.14651140086072847,-0.04727063327523937, ,1.0167009830474854
0.01358315302398514,0.021328846297014203,-0.08990857700306654, ,0.014521588411504074,0.020698341896259183,-0.09114891240313633, ,0.0016782814664368872, ,0.019845698426808042,0.00014305803057802302,-0.0519272258197237,0.012695079993061497,0.002701235311350812,0.008739244541635665, ,0.05559054769455419, ,0.012964728198212398, ,0.0008239384200787028, ,0.21938739549096986,-0.16735162138444512,0.10577726400000001,2.3244130235259526,1.2559627058439287,-1.2382333486859192, ,0.09451886609409439,0.09663639669905374,0.05436454443686007,-0.0344389714025667,0.14651140086072847,-0.04727063327523937, ,1.0194690227508545
0.013776838399298254,0.021321371657928332,-0.09040523621245969, ,0.01458421174259941,0.020691667717955095,-0.09129988252493113, ,0.0013596951099087782, ,0.018849620330091108,-0.001934049146325656,-0.04677287431362487,-0.0555473748428733,-0.03367239547088863,0.07741051541843952, ,0.05046533963273343, ,0.06495473202069313, ,0.0008299581581666812, ,0.22032956890162525,-0.16634766611079593,0.10629448371000001,2.323993643638983,1.2571924343418175,-1.2383376436776408, ,0.0962443626353659,0.10497449287441457,0.0484158404863222,-0.06760382730653547,0.10190489915001237,0.008940088123621466, ,1.0222249031066895
0.013776838399298254,0.021321371657928332,-0.09040523621245969, ,0.014647048410446171,0.02068484038221775,-0.09145084949766409, ,0.001501913669508252, ,0.018849620330091108,-0.001934049146325656,-0.04677287431362487,-0.0555473748428733,-0.03367239547088863,0.07741051541843952, ,0.05046533963273343, ,0.06495473202069313, ,0.0008374243305149209, ,0.22032956890162525,-0.16634766611079593,0.10629448371000001,2.323993643638983,1.2571924343418175,-1.2383376436776408, ,0.0962443626353659,0.10497449287441457,0.0484158404863222,-0.06760382730653547,0.10190489915001237,0.008940088123621466, ,1.0249509811401367
0.013776838399298254,0.021321371657928332,-0.09040523621245969, ,0.014710096312496796,0.0206778633200811,-0.09160180542496582, ,0.0016482873516908845, ,0.018849620330091108,-0.001934049146325656,-0.04677287431362487,-0.0555473748428733,-0.03367239547088863,0.07741051541843952, ,0.05046533963273343, ,0.06495473202069313, ,0.0008463349131652061, ,0.22032956890162525,-0.16634766611079593,0.10629448371000001,2.323993643638983,1.2571924343418175,-1.2383376436776408, ,0.0962443626353659,0.10497449287441457,0.0484158404863222,-0.06760382730653547,0.10190489915001237,0.008940088123621466, ,1.0276679992675781
0.013776838399298254,0.021321371657928332,-0.09040523621245969, ,0.014773353356767894,0.020670739946546966,-0.09175274246239638, ,0.0017978144448007468, ,0.01980217389949688,-0.002724225865166492,-0.04628946054416845,0.016588357223161723,0.011163934407672275,-0.05664709965467078, ,0.05042084544293644, ,0.019989859968035192, ,0.0008566770819873317, ,0.22032956890162525,-0.16634766611079593,0.10629448371000001,2.323993643638983,1.2571924343418175,-1.2383376436776408, ,0.0962443626353659,0.10497449287441457,0.0484158404863222,-0.06760382730653547,0.10190489915001237,0.008940088123621466, ,1.0304999351501465
0.013970749403250087,0.021295938085348014,-0.09086688443389479, ,0.014836817461817538,0.02066347366061278,-0.09190365281733115, ,0.001491634610593259, ,0.01980217389949688,-0.002724225865166492,-0.04628946054416845,0.016588357223161723,0.011163934407672275,-0.05664709965467078, ,0.05042084544293644, ,0.019989859968035192, ,0.0008635045822949223, ,0.22133352417527444,-0.16521242437828493,0.10677411101,2.3237839536954987,1.2584221628397065,-1.2386052961496437, ,0.10225963530007626,0.11847308559109959,0.0484158404863222,0.017004131175930914,0.15814073322833297,-0.06279375454978633, ,1.033931016921997
0.013970749403250087,0.021295938085348014,-0.09086688443389479, ,0.0149004865567232,0.020656067845300285,-0.09205452874884602, ,0.0016383968131936197, ,0.01980217389949688,-0.002724225865166492,-0.04628946054416845,0.016588357223161723,0.011163934407672275,-0.05664709965467078, ,0.05042084544293644, ,0.019989859968035192, ,0.0008717481166661851, ,0.22133352417527444,-0.16521242437828493,0.10677411101,2.3237839536954987,1.2584221628397065,-1.2386052961496437, ,0.10225963530007626,0.11847308559109959,0.0484158404863222,0.017004131175930914,0.15814073322833297,-0.06279375454978633, ,1.0367169380187988
0.013970749403250087,0.021295938085348014,-0.09086688443389479, ,0.014964358581059059,0.02064852586768306,-0.09220536256760373, ,0.0017882744454431573, ,0.01980217389949688,-0.002724225865166492,-0.04628946054416845,0.016588357223161723,0.011163934407672275,-0.05664709965467078, ,0.05042084544293644, ,0.019989859968035192, ,0.0008813957622322585, ,0.22133352417527444,-0.16521242437828493,0.10677411101,2.3237839536954987,1.2584221628397065,-1.2386052961496437, ,0.10225963530007626,0.11847308559109959,0.0484158404863222,0.017004131175930914,0.15814073322833297,-0.06279375454978633, ,1.0395359992980957
0.014167961038369743,0.021271432735327805,-0.09132791225744738, ,0.015028431484873614,0.02064085107891505,-0.09235614663573859, ,0.0014816573664011292, ,0.020466200074433814,-0.0029321305489269397,-0.04748484391974273,0.031125004402669305,0.008373368625121301,-0.049761182427125614, ,0.05179066650589692, ,0.03222790375097089, ,0.0008876484872756842, ,0.22234520218179785,-0.16406173718002548,0.10725762718000001,2.323993643638983,1.2600618008368918,-1.2393705598130167, ,0.10783743358917133,0.11966827434863908,0.049777536000000004,-0.017324681445547264,0.17214627645144057,-0.09553682694861611, ,1.0424120426177979
0.014167961038369743,0.021271432735327805,-0.09132791225744738, ,0.015092703228667367,0.020633046814258434,-0.09250687336674303, ,0.0016286908853332675, ,0.020466200074433814,-0.0029321305489269397,-0.04748484391974273,0.031125004402669305,0.008373368625121301,-0.049761182427125614, ,0.05179066650589692, ,0.03222790375097089, ,0.0008952880996267933, ,0.22234520218179785,-0.16406173718002548,0.10725762718000001,2.323993643638983,1.2600618008368918,-1.2393705598130167, ,0.10783743358917133,0.11966827434863908,0.049777536000000004,-0.017324681445547264,0.17214627645144057,-0.09553682694861611, ,1.0452520847320557
0.014167961038369743,0.021271432735327805,-0.09132791225744738, ,0.015157171783370518,0.020625116393112184,-0.0926575352253527, ,0.0017788085757105246, ,0.020466200074433814,-0.0029321305489269397,-0.04748484391974273,0.031125004402669305,0.008373368625121301,-0.049761182427125614, ,0.05179066650589692, ,0.03222790375097089, ,0.0009043036146888722, ,0.22234520218179785,-0.16406173718002548,0.10725762718000001,2.323993643638983,1.2600618008368918,-1.2393705598130167, ,0.10783743358917133,0.11966827434863908,0.049777536000000004,-0.017324681445547264,0.17214627645144057,-0.09553682694861611, ,1.0481979846954346
0.014167961038369743,0.021271432735327805,-0.09132791225744738, ,0.01522183513032024,0.020617063119039443,-0.09280812472743248, ,0.0019312895051507056, ,0.020466200074433814,-0.0029321305489269397,-0.04748484391974273,0.031125004402669305,0.008373368625121301,-0.049761182427125614, ,0.05179066650589692, ,0.03222790375097089, ,0.000914677209542022, ,0.22234520218179785,-0.16406173718002548,0.10725762718000001,2.323993643638983,1.2600618008368918,-1.2393705598130167, ,0.10783743358917133,0.11966827434863908,0.049777536000000004,-0.017324681445547264,0.17214627645144057,-0.09553682694861611, ,1.0512609481811523
0.014222196545139992,0.02126404476919752,-0.09145318019722937, ,0.015286691261238506,0.02060889027979645,-0.09295863443986167, ,0.001956724017904325, ,0.020827035505719786,-0.003182568748970983,-0.04793369717008303,0.015324090360275253,-0.004032305430653229,-0.04879243704751562, ,0.05235965504271075, ,0.015837745529209222, ,0.000925097677625645, ,0.22263094329814417,-0.16374510513218227,0.10738984876000002,2.323993643638983,1.2606083468359537,-1.2397345526876618, ,0.10983442310008192,0.12260586764660306,0.05009060226415095,-0.015981087901405074,0.1568022901595978,-0.08770432730533066, ,1.0542259216308594
0.014222196545139992,0.02126404476919752,-0.09145318019722937, ,0.015351738178209593,0.020600601147360068,-0.09310905698042056, ,0.0021113857206360833, ,0.020827035505719786,-0.003182568748970983,-0.04793369717008303,0.015324090360275253,-0.004032305430653229,-0.04879243704751562, ,0.05235965504271075, ,0.015837745529209222, ,0.0009368431037940653, ,0.22263094329814417,-0.16374510513218227,0.10738984876000002,2.323993643638983,1.2606083468359537,-1.2397345526876618, ,0.10983442310008192,0.12260586764660306,0.05009060226415095,-0.015981087901405074,0.1568022901595978,-0.08770432730533066, ,1.0573649406433105
0.014222196545139992,0.02126404476919752,-0.09145318019722937, ,0.015416973893657624,0.020592198977955816,-0.09325938501767442, ,0.0022674314836702244, ,0.020827035505719786,-0.003182568748970983,-0.04793369717008303,0.015324090360275253,-0.004032305430653229,-0.04879243704751562, ,0.05235965504271075, ,0.015837745529209222, ,0.0009498880879104982, ,0.22263094329814417,-0.16374510513218227,0.10738984876000002,2.323993643638983,1.2606083468359537,-1.2397345526876618, ,0.10983442310008192,0.12260586764660306,0.05009060226415095,-0.015981087901405074,0.1568022901595978,-0.08770432730533066, ,1.0602960586547852
0.014610874379753384,0.021189294010725786,-0.09232315391348085, ,0.015482396430324315,0.020583687012087012,-0.09340961127086138, ,0.001518782443550722, ,0.021315654999862113,-0.004655626387401731,-0.04661097011353804,-0.10486445009594911,-0.0836742571542497,0.06518775274735583, ,0.05146469216907213, ,0.13415555968765558, ,0.0009554113340817626, ,0.22474697210568167,-0.16142828526991493,0.10829077031,2.322945193921561,1.2626578943324351,-1.240343997621281, ,0.11730153468290579,0.12789345223513582,0.04783426882882884,-0.07136703000518207,0.061898913095552205,0.009462278294993715, ,1.0630619525909424
0.014610874379753384,0.021189294010725786,-0.09232315391348085, ,0.015548003821246345,0.02057506847456145,-0.09355972850977601, ,0.0016687124772086415, ,0.021315654999862113,-0.004655626387401731,-0.04661097011353804,-0.10486445009594911,-0.0836742571542497,0.06518775274735583, ,0.05146469216907213, ,0.13415555968765558, ,0.000962269998919521, ,0.22474697210568167,-0.16142828526991493,0.10829077031,2.322945193921561,1.2626578943324351,-1.240343997621281, ,0.11730153468290579,0.12789345223513582,0.04783426882882884,-0.07136703000518207,0.061898913095552205,0.009462278294993715, ,1.0657920837402344
0.014610874379753384,0.021189294010725786,-0.09232315391348085, ,0.01561379410973306,0.02056634657452054,-0.09370972955465635, ,0.0018211269867196103, ,0.021315654999862113,-0.004655626387401731,-0.04661097011353804,-0.10486445009594911,-0.0836742571542497,0.06518775274735583, ,0.05146469216907213, ,0.13415555968765558, ,0.0009704495892795218, ,0.22474697210568167,-0.16142828526991493,0.10829077031,2.322945193921561,1.2626578943324351,-1.240343997621281, ,0.11730153468290579,0.12789345223513582,0.04783426882882884,-0.07136703000518207,0.061898913095552205,0.009462278294993715, ,1.0685460567474365
0.014610874379753384,0.021189294010725786,-0.09232315391348085, ,0.015679765349344107,0.02055752450546712,-0.09385960727606894, ,0.0019754365461982395, ,0.021315654999862113,-0.004655626387401731,-0.04661097011353804,-0.10486445009594911,-0.0836742571542497,0.06518775274735583, ,0.05146469216907213, ,0.13415555968765558, ,0.0009799305983070568, ,0.22474697210568167,-0.16142828526991493,0.10829077031,2.322945193921561,1.2626578943324351,-1.240343997621281, ,0.11730153468290579,0.12789345223513582,0.04783426882882884,-0.07136703000518207,0.061898913095552205,0.009462278294993715, ,1.0712459087371826
0.014847432683652243,0.02114030139356644,-0.09284454797510759, ,0.015745915603866928,0.020548605445293532,-0.0940093545947949, ,0.0015856071753077594, ,0.02435550544998274,-0.004105067053357097,-0.0547866079528382,-0.005157475277185753,-0.016095407210242635,-0.09672343718984361, ,0.0600967106605236, ,0.016886920619488207, ,0.0009855911270640727, ,0.2260135002970545,-0.16000730242105762,0.10882873066000001,2.322525814034592,1.2636143498307932,-1.2407972079865934, ,0.12308293327946923,0.1437832447855618,0.057092514408602156,0.03478755155217574,0.1462753105820449,-0.07781980090937254, ,1.0739719867706299
0.014847432683652243,0.02114030139356644,-0.09284454797510759, ,0.015812242947294265,0.020539592556309463,-0.09415896448171465, ,0.0017376422833335766, ,0.02435550544998274,-0.004105067053357097,-0.0547866079528382,-0.005157475277185753,-0.016095407210242635,-0.09672343718984361, ,0.0600967106605236, ,0.016886920619488207, ,0.0009925545636961979, ,0.2260135002970545,-0.16000730242105762,0.10882873066000001,2.322525814034592,1.2636143498307932,-1.2407972079865934, ,0.12308293327946923,0.1437832447855618,0.057092514408602156,0.03478755155217574,0.1462753105820449,-0.07781980090937254, ,1.0767390727996826
0.014847432683652243,0.02114030139356644,-0.09284454797510759, ,0.015878745463801996,0.020530488985270545,-0.09430842995769508, ,0.0018916732494688702, ,0.02435550544998274,-0.004105067053357097,-0.0547866079528382,-0.005157475277185753,-0.016095407210242635,-0.09672343718984361, ,0.0600967106605236, ,0.016886920619488207, ,0.001000803358978516, ,0.2260135002970545,-0.16000730242105762,0.10882873066000001,2.322525814034592,1.2636143498307932,-1.2407972079865934, ,0.12308293327946923,0.1437832447855618,0.057092514408602156,0.03478755155217574,0.1462753105820449,-0.07781980090937254, ,1.0794620513916016
0.014847432683652243,0.02114030139356644,-0.09284454797510759, ,0.015945421247726466,0.020521297863406767,-0.09445774409347378, ,0.002047228852253614, ,0.02435550544998274,-0.004105067053357097,-0.0547866079528382,-0.005157475277185753,-0.016095407210242635,-0.09672343718984361, ,0.0600967106605236, ,0.016886920619488207, ,0.0010103163180082894, ,0.22711012836519437,-0.15875621969543324,0.10935372811,2.322525814034592,1.2653906243277442,-1.2420006045142253, ,0.12388634668207675,0.13673910887387722,0.061264659692307696,0.02658181226190831,0.18485605231884572,-0.13789965381877065, ,1.0822761058807373
0.015064889458385808,0.021106769147812933,-0.09334445235176045, ,0.01601226840354225,0.020512022306449395,-0.0946069000095455, ,0.0016867201189541183, ,0.02525371679620981,-0.002960490132566078,-0.0583114729553685,0.05063349031220515,0.006489126530574374,-0.1312079371026608, ,0.06361401254497992, ,0.05104101226795726, ,0.0010164100459447384, ,0.22711012836519437,-0.15875621969543324,0.10935372811,2.322525814034592,1.2653906243277442,-1.2420006045142253, ,0.12388634668207675,0.13673910887387722,0.061264659692307696,0.02658181226190831,0.18485605231884572,-0.13789965381877065, ,1.0859649181365967
0.015064889458385808,0.021106769147812933,-0.09334445235176045, ,0.016079285045839564,0.020502665414660264,-0.09475589087604759, ,0.0018401354396066901, ,0.02525371679620981,-0.002960490132566078,-0.0583114729553685,0.05063349031220515,0.006489126530574374,-0.1312079371026608, ,0.06361401254497992, ,0.05104101226795726, ,0.0010237647369595773, ,0.22711012836519437,-0.15875621969543324,0.10935372811,2.322525814034592,1.2653906243277442,-1.2420006045142253, ,0.12388634668207675,0.13673910887387722,0.061264659692307696,0.02658181226190831,0.18485605231884572,-0.13789965381877065, ,1.0888879299163818
0.015064889458385808,0.021106769147812933,-0.09334445235176045, ,0.016146469299302035,0.020493230272859014,-0.0949047099126457, ,0.0019951562744947274, ,0.02525371679620981,-0.002960490132566078,-0.0583114729553685,0.05063349031220515,0.006489126530574374,-0.1312079371026608, ,0.06361401254497992, ,0.05104101226795726, ,0.0010323611222474989, ,0.22711012836519437,-0.15875621969543324,0.10935372811,2.322525814034592,1.2653906243277442,-1.2420006045142253, ,0.12388634668207675,0.13673910887387722,0.061264659692307696,0.02658181226190831,0.18485605231884572,-0.13789965381877065, ,1.091710090637207
0.01535340682976148,0.02106869166592395,-0.09399682926625393, ,0.016213819298684113,0.02048371995045213,-0.09505335038841907, ,0.0014828143532353186, ,0.024973963627218206,-0.0037918358817578416,-0.05553937872617492,-0.037904889766114405,-0.036733004191733754,-0.025724897736992568, ,0.0610139284745483, ,0.05277845975101908, ,0.001036312466378971, ,0.22854655667980014,-0.1571962276548399,0.11003687294000002,2.3227355039780764,1.267166898824695,-1.2427956073411544, ,0.12619274143413667,0.1359555036654309,0.05792295098181819,0.0,0.1263159595101483,-0.03172118859953811, ,1.094527006149292
0.01535340682976148,0.02106869166592395,-0.09399682926625393, ,0.0162813331887888,0.020474137501460096,-0.09520180562174717, ,0.0016329451918410441, ,0.024973963627218206,-0.0037918358817578416,-0.05553937872617492,-0.037904889766114405,-0.036733004191733754,-0.025724897736992568, ,0.0610139284745483, ,0.05277845975101908, ,0.0010415005770351628, ,0.22854655667980014,-0.1571962276548399,0.11003687294000002,2.3227355039780764,1.267166898824695,-1.2427956073411544, ,0.12619274143413667,0.1359555036654309,0.05792295098181819,0.0,0.1263159595101483,-0.03172118859953811, ,1.0973560810089111
0.01535340682976148,0.02106869166592395,-0.09399682926625393, ,0.016349009124445157,0.020464485964546312,-0.09535006898019417, ,0.0017853700406755247, ,0.024973963627218206,-0.0037918358817578416,-0.05553937872617492,-0.037904889766114405,-0.036733004191733754,-0.025724897736992568, ,0.0610139284745483, ,0.05277845975101908, ,0.0010479132448251661, ,0.22854655667980014,-0.1571962276548399,0.11003687294000002,2.3227355039780764,1.267166898824695,-1.2427956073411544, ,0.12619274143413667,0.1359555036654309,0.05792295098181819,0.0,0.1263159595101483,-0.03172118859953811, ,1.100229024887085
0.01535340682976148,0.02106869166592395,-0.09399682926625393, ,0.016416845270485755,0.020454768363044478,-0.09549813388039513, ,0.0019395150639967165, ,0.024973963627218206,-0.0037918358817578416,-0.05553937872617492,-0.037904889766114405,-0.036733004191733754,-0.025724897736992568, ,0.0610139284745483, ,0.05277845975101908, ,0.0010555337731941537, ,0.2298594212684183,-0.15576752207310837,0.11063575892000001,2.3227355039780764,1.2682599908228183,-1.24287016316932, ,0.1284126408098387,0.14121568684296246,0.05921491271375466,0.0,0.11158141205839998,-0.005815602460794413, ,1.103036880493164
0.015614115529847365,0.021026341636816517,-0.09457293506426297, ,0.016484839801724646,0.020444987704987604,-0.09564599378794214, ,0.0014991958431616378, ,0.025708685197517848,-0.0042658065909610896,-0.05693218830382548,-0.06364673123704201,-0.048212095213255805,-0.007729384399147847, ,0.06261315888468497, ,0.07984180860020099, ,0.0010592936212447256, ,0.2298594212684183,-0.15576752207310837,0.11063575892000001,2.3227355039780764,1.2682599908228183,-1.24287016316932, ,0.1284126408098387,0.14121568684296246,0.05921491271375466,0.0,0.11158141205839998,-0.005815602460794413, ,1.105916976928711
0.015614115529847365,0.021026341636816517,-0.09457293506426297, ,0.01655299090293447,0.02043514698313509,-0.09579364221726921, ,0.0016495829891616772, ,0.025708685197517848,-0.0042658065909610896,-0.05693218830382548,-0.06364673123704201,-0.048212095213255805,-0.007729384399147847, ,0.06261315888468497, ,0.07984180860020099, ,0.0010642540361011704, ,0.2298594212684183,-0.15576752207310837,0.11063575892000001,2.3227355039780764,1.2682599908228183,-1.24287016316932, ,0.1284126408098387,0.14121568684296246,0.05921491271375466,0.0,0.11158141205839998,-0.005815602460794413, ,1.108652114868164
0.015614115529847365,0.021026341636816517,-0.09457293506426297, ,0.016621296768824376,0.02042524917500159,-0.09594107273153782, ,0.0018020895850135396, ,0.025708685197517848,-0.0042658065909610896,-0.05693218830382548,-0.06364673123704201,-0.048212095213255805,-0.007729384399147847, ,0.06261315888468497, ,0.07984180860020099, ,0.0010704026656754401, ,0.2298594212684183,-0.15576752207310837,0.11063575892000001,2.3227355039780764,1.2682599908228183,-1.24287016316932, ,0.1284126408098387,0.14121568684296246,0.05921491271375466,0.0,0.11158141205839998,-0.005815602460794413, ,1.111414909362793
0.015871606872881222,0.020981640176437402,-0.09514579490106302, ,0.016689755604017514,0.020415297242885235,-0.09608827894252386, ,0.0013705428971953998, ,0.026362435773242834,-0.004237176800512236,-0.05842511298135269,0.0025362656627039622,-0.017390453415034923,-0.06573186687617709, ,0.06423725954631766, ,0.01755504906216886, ,0.001072883163456597, ,0.2311491176584138,-0.15434653922425104,0.11123334861,2.322525814034592,1.2696263558204728,-1.2433309122851597, ,0.13089233318409763,0.1427021677570989,0.061264659692307696,0.0,0.16353113025714064,-0.08507599821479966, ,1.1141769886016846
0.015871606872881222,0.020981640176437402,-0.09514579490106302, ,0.01675836562302847,0.020405294133894743,-0.09623525451050191, ,0.0015183669129416745, ,0.026362435773242834,-0.004237176800512236,-0.05842511298135269,0.0025362656627039622,-0.017390453415034923,-0.06573186687617709, ,0.06423725954631766, ,0.01755504906216886, ,0.0010765346695999173, ,0.2311491176584138,-0.15434653922425104,0.11123334861,2.322525814034592,1.2696263558204728,-1.2433309122851597, ,0.13089233318409763,0.1427021677570989,0.061264659692307696,0.0,0.16353113025714064,-0.08507599821479966, ,1.1170079708099365
0.015871606872881222,0.020981640176437402,-0.09514579490106302, ,0.01682712505024107,0.020395242779978687,-0.09638199314413133, ,0.0016688507992039974, ,0.026362435773242834,-0.004237176800512236,-0.05842511298135269,0.0025362656627039622,-0.017390453415034923,-0.06573186687617709, ,0.06423725954631766, ,0.01755504906216886, ,0.0010813502478893814, ,0.2311491176584138,-0.15434653922425104,0.11123334861,2.322525814034592,1.2696263558204728,-1.2433309122851597, ,0.13089233318409763,0.1427021677570989,0.061264659692307696,0.0,0.16353113025714064,-0.08507599821479966, ,1.119826078414917
0.015871606872881222,0.020981640176437402,-0.09514579490106302, ,0.01689603211988579,0.02038514609795286,-0.09652848860034191, ,0.001821289141897308, ,0.026362435773242834,-0.004237176800512236,-0.05842511298135269,0.0025362656627039622,-0.017390453415034923,-0.06573186687617709, ,0.06423725954631766, ,0.01755504906216886, ,0.0010873174970346066, ,0.2311491176584138,-0.15434653922425104,0.11123334861,2.322525814034592,1.2696263558204728,-1.2433309122851597, ,0.13089233318409763,0.1427021677570989,0.061264659692307696,0.0,0.16353113025714064,-0.08507599821479966, ,1.122770071029663
0.015871606872881222,0.020981640176437402,-0.09514579490106302, ,0.016965085076017548,0.02037500698952891,-0.0966747346842203, ,0.0019751848684905512, ,0.026362435773242834,-0.004237176800512236,-0.05842511298135269,0.0025362656627039622,-0.017390453415034923,-0.06573186687617709, ,0.06423725954631766, ,0.01755504906216886, ,0.0010944204360062541, ,0.2311491176584138,-0.15434653922425104,0.11123334861,2.322525814034592,1.2696263558204728,-1.2433309122851597, ,0.13089233318409763,0.1427021677570989,0.061264659692307696,0.0,0.16353113025714064,-0.08507599821479966, ,1.1256349086761475
0.015871606872881222,0.020981640176437402,-0.09514579490106302, ,0.017034282172492955,0.020364828341341963,-0.09682072524889422, ,0.002130178950775493, ,0.026362435773242834,-0.004237176800512236,-0.05842511298135269,0.0025362656627039622,-0.017390453415034923,-0.06573186687617709, ,0.06423725954631766, ,0.01755504906216886, ,0.001102640741679026, ,0.2311491176584138,-0.15434653922425104,0.11123334861,2.322525814034592,1.2696263558204728,-1.2433309122851597, ,0.13089233318409763,0.1427021677570989,0.061264659692307696,0.0,0.16353113025714064,-0.08507599821479966, ,1.129417896270752
0.016389830656251915,0.020877630419438,-0.09625551796845831, ,0.01710362167294823,0.020354613024979148,-0.09696645419541922, ,0.001135110183739135, ,0.023671374265934984,-0.006292586832581061,-0.04782687821954319,-0.13587737781396386,-0.08988517845263498,0.07348385615608985, ,0.05373398262655167, ,0.16291641066841148, ,0.0011028964065771369, ,0.233666728575411,-0.15163585998539825,0.11233649140000002,2.3218967442041385,1.2729056318148433,-1.2446164033914842, ,0.12686756892843687,0.13934940023270306,0.05089077162939297,-0.03853871544210589,0.05610138654866665,0.05839087712981312, ,1.1336169242858887
0.016389830656251915,0.020877630419438,-0.09625551796845831, ,0.017173101850776563,0.020344363897007472,-0.09711191547266415, ,0.0012772249736546833, ,0.023671374265934984,-0.006292586832581061,-0.04782687821954319,-0.13587737781396386,-0.08988517845263498,0.07348385615608985, ,0.05373398262655167, ,0.16291641066841148, ,0.0011042583485074303, ,0.233666728575411,-0.15163585998539825,0.11233649140000002,2.3218967442041385,1.2729056318148433,-1.2446164033914842, ,0.12686756892843687,0.13934940023270306,0.05089077162939297,-0.03853871544210589,0.05610138654866665,0.05839087712981312, ,1.1363561153411865
0.016389830656251915,0.020877630419438,-0.09625551796845831, ,0.017242720989105786,0.020334083799001684,-0.09725710307719629, ,0.0014233894683146253, ,0.023671374265934984,-0.006292586832581061,-0.04782687821954319,-0.13587737781396386,-0.08988517845263498,0.07348385615608985, ,0.05373398262655167, ,0.16291641066841148, ,0.0011067322331570985, ,0.233666728575411,-0.15163585998539825,0.11233649140000002,2.3218967442041385,1.2729056318148433,-1.2446164033914842, ,0.12686756892843687,0.13934940023270306,0.05089077162939297,-0.03853871544210589,0.05610138654866665,0.05839087712981312, ,1.1392009258270264
0.016389830656251915,0.020877630419438,-0.09625551796845831, ,0.017312477380776015,0.020323775557573212,-0.09740201105316777, ,0.0015724117080373465, ,0.023671374265934984,-0.006292586832581061,-0.04782687821954319,-0.13587737781396386,-0.08988517845263498,0.07348385615608985, ,0.05373398262655167, ,0.16291641066841148, ,0.0011103143829638696, ,0.233666728575411,-0.15163585998539825,0.11233649140000002,2.3218967442041385,1.2729056318148433,-1.2446164033914842, ,0.12686756892843687,0.13934940023270306,0.05089077162939297,-0.03853871544210589,0.05610138654866665,0.05839087712981312, ,1.141901969909668
0.016618526127750145,0.020815521537797886,-0.0966990829629503, ,0.01738236932831707,0.020313441984397686,-0.09754663349220093, ,0.0012465481188577892, ,0.023214340338844307,-0.0061025914028936075,-0.043816819480644496,-0.12188631459149418,-0.09578121709599294,-0.014860412259648185, ,0.04996059335714251, ,0.155016624015905, ,0.0011113543351462662, ,0.23506454322564563,-0.1501376498077987,0.11285500740000001,2.3216870542606536,1.2733155413141395,-1.2440521909610271, ,0.12502890850918416,0.13365766416686023,0.04525230545454546,0.03178172787591778,0.030622983686840903,0.04307902938438426, ,1.1446630954742432
0.016618526127750145,0.020815521537797886,-0.0966990829629503, ,0.01745239514392614,0.020303085876242747,-0.09769096453327342, ,0.0013934693727952682, ,0.023214340338844307,-0.0061025914028936075,-0.043816819480644496,-0.12188631459149418,-0.09578121709599294,-0.014860412259648185, ,0.04996059335714251, ,0.155016624015905, ,0.0011134915702799707, ,0.23506454322564563,-0.1501376498077987,0.11285500740000001,2.3216870542606536,1.2733155413141395,-1.2440521909610271, ,0.12502890850918416,0.13365766416686023,0.04525230545454546,0.03178172787591778,0.030622983686840903,0.04307902938438426, ,1.147475004196167
0.016618526127750145,0.020815521537797886,-0.0966990829629503, ,0.017522553149445376,0.02029271001499683,-0.09783499836260477, ,0.001543016700979254, ,0.023214340338844307,-0.0061025914028936075,-0.043816819480644496,-0.12188631459149418,-0.09578121709599294,-0.014860412259648185, ,0.04996059335714251, ,0.155016624015905, ,0.0011167210825408676, ,0.23506454322564563,-0.1501376498077987,0.11285500740000001,2.3216870542606536,1.2733155413141395,-1.2440521909610271, ,0.12502890850918416,0.13365766416686023,0.04525230545454546,0.03178172787591778,0.030622983686840903,0.04307902938438426, ,1.1503040790557861
0.016618526127750145,0.020815521537797886,-0.0966990829629503, ,0.01759284167633941,0.02028231716769661,-0.09797872921354128, ,0.0016944297610610685, ,0.023214340338844307,-0.0061025914028936075,-0.043816819480644496,-0.12188631459149418,-0.09578121709599294,-0.014860412259648185, ,0.04996059335714251, ,0.155016624015905, ,0.0011210323413357944, ,0.23626928955402465,-0.14880933975343208,0.11331778293000001,2.3216870542606536,1.2748185428115593,-1.2448693942009852, ,0.12569131332247785,0.13773141009937706,0.05072869910828026,0.024112296382468073,0.19173799547520484,-0.12246054930135994, ,1.153109073638916
0.016842628434310704,0.020754820305506363,-0.09713845012401515, ,0.017663259065673252,0.020271910086556485,-0.09812215136644267, ,0.0013690526093069516, ,0.023995737902259996,-0.005781364718555259,-0.04781318125803176,0.0473484867198746,0.009776062197501871,-0.11461795583540292, ,0.05380817705048473, ,0.048344603658459266, ,0.001122869528505951, ,0.23626928955402465,-0.14880933975343208,0.11331778293000001,2.3216870542606536,1.2748185428115593,-1.2448693942009852, ,0.12569131332247785,0.13773141009937706,0.05072869910828026,0.024112296382468073,0.19173799547520484,-0.12246054930135994, ,1.1558680534362793
0.016842628434310704,0.020754820305506363,-0.09713845012401515, ,0.01773380366808923,0.02026149150899444,-0.09826525914856668, ,0.0015189684580592486, ,0.023995737902259996,-0.005781364718555259,-0.04781318125803176,0.0473484867198746,0.009776062197501871,-0.11461795583540292, ,0.05380817705048473, ,0.048344603658459266, ,0.0011257820206350194, ,0.23626928955402465,-0.14880933975343208,0.11331778293000001,2.3216870542606536,1.2748185428115593,-1.2448693942009852, ,0.12569131332247785,0.13773141009937706,0.05072869910828026,0.024112296382468073,0.19173799547520484,-0.12246054930135994, ,1.1586120128631592
0.016842628434310704,0.020754820305506363,-0.09713845012401515, ,0.017804473843785175,0.020251064157662254,-0.09840804693395498, ,0.001670566642797364, ,0.023995737902259996,-0.005781364718555259,-0.04781318125803176,0.0473484867198746,0.009776062197501871,-0.11461795583540292, ,0.05380817705048473, ,0.048344603658459266, ,0.0011297585507237956, ,0.23626928955402465,-0.14880933975343208,0.11331778293000001,2.3216870542606536,1.2748185428115593,-1.2448693942009852, ,0.12569131332247785,0.13773141009937706,0.05072869910828026,0.024112296382468073,0.19173799547520484,-0.12246054930135994, ,1.1613810062408447
0.016842628434310704,0.020754820305506363,-0.09713845012401515, ,0.01787526796249165,0.020240630740472235,-0.09855050914331921, ,0.001823361175946694, ,0.023995737902259996,-0.005781364718555259,-0.04781318125803176,0.0473484867198746,0.009776062197501871,-0.11461795583540292, ,0.05380817705048473, ,0.048344603658459266, ,0.0011347846567036717, ,0.23626928955402465,-0.14880933975343208,0.11331778293000001,2.3216870542606536,1.2748185428115593,-1.2448693942009852, ,0.12569131332247785,0.13773141009937706,0.05072869910828026,0.024112296382468073,0.19173799547520484,-0.12246054930135994, ,1.1655309200286865
0.01703879696791829,0.020709807190852407,-0.0975439382971385, ,0.01794618440344977,0.020230193950626304,-0.09869264024392654, ,0.00154042104014299, ,0.0236032130193812,-0.005004147073244416,-0.049155650021592535,0.026155888595667406,-0.004971626638550345,-0.10309102161001166, ,0.05475793167947669, ,0.02661880142611014, ,0.0011377029040665445, ,0.23726552209479962,-0.14770498895241796,0.11374555863000001,2.3216870542606536,1.2761849078092138,-1.2457385370175278, ,0.1171567179734207,0.12999581035406957,0.05188537954397395,0.019943627452456515,0.15918847521533605,-0.10634134330612062, ,1.1696820259094238
0.01703879696791829,0.020709807190852407,-0.0975439382971385, ,0.018017221555388655,0.02021975646664366,-0.09883443474948554, ,0.0016919945269368818, ,0.0236032130193812,-0.005004147073244416,-0.049155650021592535,0.026155888595667406,-0.004971626638550345,-0.10309102161001166, ,0.05475793167947669, ,0.02661880142611014, ,0.0011416621299441898, ,0.23726552209479962,-0.14770498895241796,0.11374555863000001,2.3216870542606536,1.2761849078092138,-1.2457385370175278, ,0.1171567179734207,0.12999581035406957,0.05188537954397395,0.019943627452456515,0.15918847521533605,-0.10634134330612062, ,1.1725170612335205
0.017321830631139283,0.02064365616791907,-0.09812335153396214, ,0.018088377816502892,0.02020932095238857,-0.09897588722003091, ,0.001225992970150951, ,0.022716153537216975,-0.005001115333487068,-0.04541428975721994,-0.0663491238422381,-0.03598585549537228,0.019372097358988646, ,0.0510244304256107, ,0.07547843963779934, ,0.0011422602210094859, ,0.23869422767653115,-0.14612955144607617,0.11435481493,2.3216870542606536,1.277824545806399,-1.2457686920196358, ,0.11502659582844943,0.12166274558778303,0.047691052455089825,0.015887315417627692,0.10299169059417353,0.040234793973562784, ,1.1754119396209717
0.017321830631139283,0.02064365616791907,-0.09812335153396214, ,0.018159651594430393,0.020198890057099052,-0.09911699226180978, ,0.0013737113073355736, ,0.022716153537216975,-0.005001115333487068,-0.04541428975721994,-0.0663491238422381,-0.03598585549537228,0.019372097358988646, ,0.0510244304256107, ,0.07547843963779934, ,0.0011438901582371344, ,0.23869422767653115,-0.14612955144607617,0.11435481493,2.3216870542606536,1.277824545806399,-1.2457686920196358, ,0.11502659582844943,0.12166274558778303,0.047691052455089825,0.015887315417627692,0.10299169059417353,0.040234793973562784, ,1.1781890392303467
0.017321830631139283,0.02064365616791907,-0.09812335153396214, ,0.018231041306229677,0.0201884664154145,-0.09925774452716792, ,0.001523387418064712, ,0.022716153537216975,-0.005001115333487068,-0.04541428975721994,-0.0663491238422381,-0.03598585549537228,0.019372097358988646, ,0.0510244304256107, ,0.07547843963779934, ,0.0011465439852289356, ,0.23869422767653115,-0.14612955144607617,0.11435481493,2.3216870542606536,1.277824545806399,-1.2457686920196358, ,0.11502659582844943,0.12166274558778303,0.047691052455089825,0.015887315417627692,0.10299169059417353,0.040234793973562784, ,1.1809120178222656
0.017321830631139283,0.02064365616791907,-0.09812335153396214, ,0.018302545378357803,0.02017805264740468,-0.09939813871443456, ,0.0016744164384119393, ,0.022716153537216975,-0.005001115333487068,-0.04541428975721994,-0.0663491238422381,-0.03598585549537228,0.019372097358988646, ,0.0510244304256107, ,0.07547843963779934, ,0.0011502097661538176, ,0.23869422767653115,-0.14612955144607617,0.11435481493,2.3216870542606536,1.277824545806399,-1.2457686920196358, ,0.11502659582844943,0.12166274558778303,0.047691052455089825,0.015887315417627692,0.10299169059417353,0.040234793973562784, ,1.1837780475616455
0.01756897903447815,0.0205937799811188,-0.09861908795338398, ,0.018374162246647556,0.020167651358596356,-0.09953816956780842, ,0.001294069790260695, ,0.02425277603586193,-0.004910662491393254,-0.04959008417490374,-0.018041089460495333,-0.0029313548381619987,0.012904584691121535, ,0.05542100865217173, ,0.01826947869137303, ,0.0011512019042511064, ,0.2399375876692813,-0.1448475777889549,0.11487851609000001,2.3218967442041385,1.2791909108040536,-1.2454943324742105, ,0.12088782364136405,0.12585801267701696,0.05257033504950496,0.0,0.16311538085122387,-0.0003971148806961103, ,1.1867730617523193
0.01756897903447815,0.0205937799811188,-0.09861908795338398, ,0.018445890356285237,0.020157265140002767,-0.09967783187724298, ,0.0014423790656884778, ,0.02425277603586193,-0.004910662491393254,-0.04959008417490374,-0.018041089460495333,-0.0029313548381619987,0.012904584691121535, ,0.05542100865217173, ,0.01826947869137303, ,0.0011531962683705404, ,0.2399375876692813,-0.1448475777889549,0.11487851609000001,2.3218967442041385,1.2791909108040536,-1.2454943324742105, ,0.12088782364136405,0.12585801267701696,0.05257033504950496,0.0,0.16311538085122387,-0.0003971148806961103, ,1.1895360946655273
0.01756897903447815,0.0205937799811188,-0.09861908795338398, ,0.018517728161788392,0.020146896568151176,-0.0998171204783327, ,0.0015922033859380382, ,0.02425277603586193,-0.004910662491393254,-0.04959008417490374,-0.018041089460495333,-0.0029313548381619987,0.012904584691121535, ,0.05542100865217173, ,0.01826947869137303, ,0.00115618271134719, ,0.2399375876692813,-0.1448475777889549,0.11487851609000001,2.3218967442041385,1.2791909108040536,-1.2454943324742105, ,0.12088782364136405,0.12585801267701696,0.05257033504950496,0.0,0.16311538085122387,-0.0003971148806961103, ,1.1922879219055176
0.017836989413850313,0.020552058321946808,-0.09916838857403026, ,0.018589674126982977,0.020136548205111026,-0.09995603025219862, ,0.0011660027220227046, ,0.02425277603586193,-0.004910662491393254,-0.04959008417490374,-0.018041089460495333,-0.0029313548381619987,0.012904584691121535, ,0.05542100865217173, ,0.01826947869137303, ,0.0011562490627706732, ,0.2399375876692813,-0.1448475777889549,0.11487851609000001,2.3218967442041385,1.2791909108040536,-1.2454943324742105, ,0.12088782364136405,0.12585801267701696,0.05257033504950496,0.0,0.16311538085122387,-0.0003971148806961103, ,1.1952450275421143
0.017836989413850313,0.020552058321946808,-0.09916838857403026, ,0.018661726724981453,0.020126222598521946,-0.10009455612537352, ,0.0013112261547413393, ,0.02451574870619925,-0.003805570421166909,-0.051384823325417814,0.020994023193424,0.029172714219113702,-0.004216798901409379, ,0.05706053249874534, ,0.03593658337321432, ,0.0011572891774818857, ,0.2412272840592768,-0.14354243593321095,0.11546443917000002,2.322525814034592,1.2811038218007695,-1.2455022870632895, ,0.1171567179734207,0.11832536353924038,0.05492693627586208,0.021283983856969155,0.19888207970783292,-0.009042190665287983, ,1.1982700824737549
0.017836989413850313,0.020552058321946808,-0.09916838857403026, ,0.018733884438159862,0.02011592228162201,-0.10023269306968799, ,0.001458553869344107, ,0.02451574870619925,-0.003805570421166909,-0.051384823325417814,0.020994023193424,0.029172714219113702,-0.004216798901409379, ,0.05706053249874534, ,0.03593658337321432, ,0.001159297608760967, ,0.2412272840592768,-0.14354243593321095,0.11546443917000002,2.322525814034592,1.2811038218007695,-1.2455022870632895, ,0.1171567179734207,0.11832536353924038,0.05492693627586208,0.021283983856969155,0.19888207970783292,-0.009042190665287983, ,1.2010419368743896
0.017836989413850313,0.020552058321946808,-0.09916838857403026, ,0.018806145758135766,0.02010564977327578,-0.10037043610215611, ,0.0016073154238881596, ,0.02451574870619925,-0.003805570421166909,-0.051384823325417814,0.020994023193424,0.029172714219113702,-0.004216798901409379, ,0.05706053249874534, ,0.03593658337321432, ,0.0011622646141591605, ,0.2412272840592768,-0.14354243593321095,0.11546443917000002,2.322525814034592,1.2811038218007695,-1.2455022870632895, ,0.1171567179734207,0.11832536353924038,0.05492693627586208,0.021283983856969155,0.19888207970783292,-0.009042190665287983, ,1.2037889957427979
0.018081903436645962,0.020515788970031645,-0.09967483148010915, ,0.018878509185745688,0.02009540757800254,-0.10050778028486088, ,0.001226827186526443, ,0.024038515333548456,-0.0033172137509558703,-0.04831619038340169,0.012734064189454114,0.025284874599330875,-0.006502724136402138, ,0.05406762783473945, ,0.028305793871043206, ,0.0011626893679247347, ,0.24240886218903313,-0.1423917487349515,0.11600758468000001,2.3227355039780764,1.2831533692972512,-1.2456216595560652, ,0.11643796510241813,0.10983442310008192,0.05188537954397395,0.052401545328780386,0.18389138794823773,0.02400055434774051, ,1.2077488899230957
0.018081903436645962,0.020515788970031645,-0.09967483148010915, ,0.018950973231022707,0.020085198186004252,-0.10064472072484001, ,0.0013716325593364884, ,0.024038515333548456,-0.0033172137509558703,-0.04831619038340169,0.012734064189454114,0.025284874599330875,-0.006502724136402138, ,0.05406762783473945, ,0.028305793871043206, ,0.0011640550096986676, ,0.24240886218903313,-0.1423917487349515,0.11600758468000001,2.3227355039780764,1.2831533692972512,-1.2456216595560652, ,0.11643796510241813,0.10983442310008192,0.05188537954397395,0.052401545328780386,0.18389138794823773,0.02400055434774051, ,1.2106640338897705
0.018081903436645962,0.020515788970031645,-0.09967483148010915, ,0.01902353641317399,0.020075024073193823,-0.10078125257397164, ,0.0015182601864349016, ,0.024038515333548456,-0.0033172137509558703,-0.04831619038340169,0.012734064189454114,0.025284874599330875,-0.006502724136402138, ,0.05406762783473945, ,0.028305793871043206, ,0.001166355043313838, ,0.24240886218903313,-0.1423917487349515,0.11600758468000001,2.3227355039780764,1.2831533692972512,-1.2456216595560652, ,0.11643796510241813,0.10983442310008192,0.05188537954397395,0.052401545328780386,0.18389138794823773,0.02400055434774051, ,1.2136199474334717
0.018312872909485634,0.02048165041878512,-0.10014771990170207, ,0.019096197260558532,0.020064887701223083,-0.10091737102886039, ,0.0011745854840195958, ,0.023819663606156203,-0.003047825011559603,-0.0477104579428696,-0.023767726196933604,0.0018961329665648599,0.033076738391645065, ,0.053413045304774184, ,0.023838056081043137, ,0.0011664081429312945, ,0.2435286584557957,-0.14134145706405699,0.11651313778000001,2.3227355039780764,1.2847930072944365,-1.24516174211733, ,0.11474841784579294,0.1039396950257073,0.05105388307692308,0.03892357703173774,0.14892509827489334,0.062484109021269135, ,1.2164061069488525
0.018312872909485634,0.02048165041878512,-0.10014771990170207, ,0.019168954310664503,0.020054791517510676,-0.10105307133072154, ,0.0013170972238484154, ,0.023819663606156203,-0.003047825011559603,-0.0477104579428696,-0.023767726196933604,0.0018961329665648599,0.033076738391645065, ,0.053413045304774184, ,0.023838056081043137, ,0.0011673740985781993, ,0.2435286584557957,-0.14134145706405699,0.11651313778000001,2.3227355039780764,1.2847930072944365,-1.24516174211733, ,0.11474841784579294,0.1039396950257073,0.05105388307692308,0.03892357703173774,0.14892509827489334,0.062484109021269135, ,1.2193210124969482
0.018312872909485634,0.02048165041878512,-0.10014771990170207, ,0.01924180611008706,0.020044737955270783,-0.1011883487652684, ,0.0014617516285748188, ,0.023819663606156203,-0.003047825011559603,-0.0477104579428696,-0.023767726196933604,0.0018961329665648599,0.033076738391645065, ,0.053413045304774184, ,0.023838056081043137, ,0.0011692491146928273, ,0.2435286584557957,-0.14134145706405699,0.11651313778000001,2.3227355039780764,1.2847930072944365,-1.24516174211733, ,0.11474841784579294,0.1039396950257073,0.05105388307692308,0.03892357703173774,0.14892509827489334,0.062484109021269135, ,1.2220790386199951
0.01855870890755111,0.020451038910606456,-0.10064088668116532, ,0.019314751214505738,0.02003472943354074,-0.10132319866259762, ,0.001291916462132068, ,0.02417763941136995,-0.0030767914028434237,-0.04821419851758098,-0.013720406132696284,-0.0017249202443184444,0.05024621552520512, ,0.05402438182464977, ,0.013818985276985583, ,0.0011700254903095314, ,0.24471795931842627,-0.14029116539316244,0.11704202410000002,2.322945193921561,1.286432645291622,-1.2447018246785948, ,0.1181780094127905,0.10171162010554209,0.05171692051948052,8.403930697561178e-06,0.1582315061352352,0.03676233360874412, ,1.2257080078125
0.01855870890755111,0.020451038910606456,-0.10064088668116532, ,0.019387788188662138,0.020024768357209205,-0.10145761639707364, ,0.0012394056914137768, ,0.02417763941136995,-0.0030767914028434237,-0.04821419851758098,-0.013720406132696284,-0.0017249202443184444,0.05024621552520512, ,0.05402438182464977, ,0.013818985276985583, ,0.0011704618437755959, ,0.24471795931842627,-0.14029116539316244,0.11704202410000002,2.322945193921561,1.286432645291622,-1.2447018246785948, ,0.1181780094127905,0.10171162010554209,0.05171692051948052,8.403930697561178e-06,0.1582315061352352,0.03676233360874412, ,1.2284328937530518
0.01855870890755111,0.020451038910606456,-0.10064088668116532, ,0.019460915606337476,0.020014857117044652,-0.1015915973872164, ,0.0013813335335717935, ,0.02417763941136995,-0.0030767914028434237,-0.04821419851758098,-0.013720406132696284,-0.0017249202443184444,0.05024621552520512, ,0.05402438182464977, ,0.013818985276985583, ,0.001171779791836822, ,0.24471795931842627,-0.14029116539316244,0.11704202410000002,2.322945193921561,1.286432645291622,-1.2447018246785948, ,0.1181780094127905,0.10171162010554209,0.05171692051948052,8.403930697561178e-06,0.1582315061352352,0.03676233360874412, ,1.231200933456421
0.01855870890755111,0.020451038910606456,-0.10064088668116532, ,0.019534132050330142,0.02000499808972248,-0.1017251370955844, ,0.0015251234974688823, ,0.02417763941136995,-0.0030767914028434237,-0.04821419851758098,-0.013720406132696284,-0.0017249202443184444,0.05024621552520512, ,0.05402438182464977, ,0.013818985276985583, ,0.0011739744732382634, ,0.24471795931842627,-0.14029116539316244,0.11704202410000002,2.322945193921561,1.286432645291622,-1.2447018246785948, ,0.1181780094127905,0.10171162010554209,0.05171692051948052,8.403930697561178e-06,0.1582315061352352,0.03676233360874412, ,1.2339439392089844
0.018798230543367177,0.020422020477296174,-0.10111695318713891, ,0.019607436112433426,0.019995193637854892,-0.10185823102866329, ,0.0011774920985765914, ,0.023371814709737027,-0.0030098627281144935,-0.046164050616941954,0.0011288213559700528,0.0045704348203485495,0.012765932089056235, ,0.05183069135012528, ,0.0046854509055597885, ,0.0011739961869749198, ,0.2458609237838115,-0.13927948738663903,0.11755276236000001,2.32336457380853,1.2879356467890417,-1.244457204296725, ,0.11283821826215314,0.09864546939549977,0.04962246579439253,0.023405907723413447,0.15639566488633816,0.019885979237475607, ,1.2367660999298096
0.018798230543367177,0.020422020477296174,-0.10111695318713891, ,0.019680826393412752,0.01998544611001679,-0.10199087473674903, ,0.001316552880653117, ,0.023371814709737027,-0.0030098627281144935,-0.046164050616941954,0.0011288213559700528,0.0045704348203485495,0.012765932089056235, ,0.05183069135012528, ,0.0046854509055597885, ,0.0011748707679177307, ,0.2458609237838115,-0.13927948738663903,0.11755276236000001,2.32336457380853,1.2879356467890417,-1.244457204296725, ,0.11283821826215314,0.09864546939549977,0.04962246579439253,0.023405907723413447,0.15639566488633816,0.019885979237475607, ,1.2395119667053223
