NicholasDascanio/dvrk_moveit_final/test/execution/third_experiment_notsharpbends/thirdexp_400vel5.0/thirdexp_400vel5.0_29.csv
Current Position (x),Current Position (y),Current Position (z), ,Planned Position (x),Planned Position (y),Planned Position (z), ,Position Error,,Cartesian linear Velocity(x),Cartesian linear Velocity(y),Cartesian linear Velocity(z),Cartesian Angular Velocity(x),Cartesian Angular Velocity(y),Cartesian Angular Velocity(z), ,Total Linear Velocity, ,Total Angular Velocity, ,MSE, ,Joint 1 Position,Joint 2 Position,Joint 3 Position,Joint 4 Position,Joint 5 Position,Joint 6 Position, ,Joint 1 Velocity,Joint 2 Velocity,Joint 3 Velocity,Joint 4 Velocity,Joint 5 Velocity,Joint 6 Velocity, ,Time Stamp
0.010102873959505633,0.020038904681776295,-0.07915620292299463, ,0.010229494198586667,0.020006842703848796,-0.07930592911831016, ,0.00019869219646786822, ,-4.5780588427752506e-05,9.968541573252735e-06,-5.922107760911124e-06,0.04332267187431428,0.001252959529813382,-0.016356196277272455, ,4.722610992047491e-05, ,0.04334078686310219, ,1.6557683038989017e-05, ,0.1830364918519951,-0.2394665009639536,0.08984845248000001,1.6974400925072246,0.5185355166098464,-1.2580777412053086, ,-0.0005835275575806328,-7.958462619962108e-05,2.5077187313853047e-06,0.0006978495639275541,0.0,-0.04589437956152098, ,0.028348207473754883
0.010114466994028029,0.02005124800106281,-0.07919484732802091, ,0.01024754921829646,0.020062105544588888,-0.07947263105171556, ,0.00030820863358660026, ,0.0008554923876130862,0.0004056995546856038,-0.001833842075539039,0.21205405530870505,-0.06557573722850213,-0.0963575447463168, ,0.002063840137208637, ,0.22196193296578617, ,2.304094682065766e-05, ,0.18302104638624667,-0.23948194642970205,0.08988734118000001,1.6978594723941938,0.5178523341110194,-1.2634831997170877, ,-0.0006088661984749818,-5.2232021986458665e-05,0.0016822779545520913,-0.0009804126795178371,-0.07095774229530225,-0.23195113728854388, ,0.055631160736083984
0.010168740522440286,0.020088805482561266,-0.07935558374455967, ,0.010266352342626194,0.020116227984327533,-0.0796384890650955, ,0.000300525342409937, ,0.0021543039458809554,0.0018255696249554177,-0.007058430793021274,0.3294497810481781,-0.10137994814480081,-0.16752197097908636, ,0.007602313806116467, ,0.3446955933878684, ,2.5232067889512674e-05, ,0.18299015545474975,-0.23950511462832472,0.09004419227,1.6974400925072246,0.5144364216168833,-1.269274019839436, ,-0.0009626568150123849,-0.0007681480132004462,0.007048146690265488,0.018977340343210084,-0.11452790974646247,-0.3556759704549961, ,0.08574318885803223
0.010237441125422391,0.020139000621618643,-0.07956494578342545, ,0.010285897541393606,0.02016922018887267,-0.07980350941830985, ,0.00024530359635165615, ,0.0010423018673013256,0.001713219354902435,-0.006142706842989469,-0.13875038261482173,0.0034080726059261906,0.03696872392596889, ,0.006461761454859024, ,0.1387922318643983, ,2.5064994495620517e-05, ,0.18292837359175596,-0.23952056009407316,0.09024900609000001,1.6974400925072246,0.5100640536243892,-1.2694658689676164, ,-0.001257822238032412,-0.0014585620820605559,0.006464615064935065,0.014649272352049936,0.0,0.15151301078705687, ,0.11644911766052246
0.010243651816720501,0.02016535299842795,-0.07966537319725688, ,0.010306178808238187,0.020221092284304847,-0.07996769834332772, ,0.00031371481731833333, ,5.206083540678535e-05,0.001223777706247645,-0.004492177480735767,-0.08677997275834015,0.08443811005600757,0.04414573268661347, ,0.004656178768402427, ,0.12108079162253362, ,2.627778050258452e-05, ,0.18289748266025907,-0.23952828282694738,0.09035789445,1.6974400925072246,0.5112937821222782,-1.266548050574137, ,-0.0013656721090229463,0.0,0.004971539176029963,0.011943415109738472,0.08422153360009357,0.10165041334383651, ,0.14520716667175293
0.01026260090046942,0.020214190406602505,-0.07984359985008534, ,0.010327190160582632,0.020271854357039213,-0.0801310620442785, ,0.00030021894809003567, ,0.0009495172742028321,0.0016360989397914498,-0.006214816503814577,0.051885340635926154,0.013359703712835841,-0.014584235437270453, ,0.006496333348195913, ,0.05357770288963059, ,2.6881669906845656e-05, ,0.18280480986576836,-0.23956689649131852,0.09054715279000002,1.6976497824507093,0.5121136011208708,-1.2659096981540667, ,-0.0012597538354867646,-0.0010241412546856136,0.006552370020567668,0.0,0.012053959186126274,-0.052989374962006314, ,0.17263507843017578
0.01029438988860971,0.02026896967861049,-0.08004228456236184, ,0.01034892563959403,0.020321516453889573,-0.08029360669750277, ,0.00026248452780963606, ,0.0009552457691243047,0.0016863141214753952,-0.006391772113686376,-0.02501140341532886,0.0018026386770668402,0.012270508781206564, ,0.006679139207189503, ,0.02507627955530498, ,2.7171099465268542e-05, ,0.18274302800277456,-0.2396209556214381,0.09075585548000001,1.6978594723941938,0.5121136011208708,-1.2669715217758941, ,-0.00273772985708176,-0.0013856405101903347,0.006687158488664989,-0.002899335042714308,0.0,0.027467370251125826, ,0.1984710693359375
0.010316810506529654,0.02030592101843748,-0.08018075384955649, ,0.010371379310145137,0.020370088582130755,-0.0804553384516037, ,0.0002872140912973833, ,0.0011068603320294715,0.001699672727177606,-0.006644638422143512,-0.01951006347209158,0.0006212683040104868,0.009797461222991034, ,0.0069473194064443, ,0.019519952306243368, ,2.7704526916643124e-05, ,0.18270441433840345,-0.23965184655293498,0.09090103996000001,1.6978594723941938,0.5121136011208708,-1.2664814493350507, ,-0.0014533876278132105,-0.0007550069966912553,0.00695277674378001,-0.0027086896248632174,0.0,0.02100209443082131, ,0.2259511947631836
0.010341380379090678,0.02034721875322084,-0.08033187503677487, ,0.01039454526077538,0.020417580709562812,-0.08061626342749774, ,0.00029774832715358826, ,0.0006491908119209145,0.0012466987210045396,-0.004755163048563926,-0.007661259008928986,0.0021383965585507238,0.0053322505331215055, ,0.004958556446150902, ,0.007954094983860918, ,2.824843236500043e-05, ,0.18265035520828388,-0.23969818295018033,0.09105918734000001,1.6978594723941938,0.5119769646211053,-1.2657982802503704, ,-0.002769989759340305,-0.0009629004218167066,0.00496534024937656,-0.0023305315192531776,0.0,0.00870558137163814, ,0.2507290840148926
0.010367956360825298,0.02039466546144717,-0.08051021398577625, ,0.010418417603652388,0.020464002764573004,-0.08077638771846593, ,0.0002796470178749919, ,0.001051492094264276,0.0017836017536563872,-0.006540348221095957,0.007336437206064086,0.001454473994773877,0.0002443449891944008, ,0.0068602496815450865, ,0.007479224125032589, ,2.8507729575102345e-05, ,0.18257312787954164,-0.23973679661455147,0.09124585310000001,1.6978594723941938,0.5119769646211053,-1.2656349227700892, ,-0.0018794254288291479,-0.0019983784706345295,0.00686586703448276,-0.002020545774740262,0.0,-0.006083233014902377, ,0.27733302116394043
0.010390328367737123,0.020429470220690256,-0.08064519791342234, ,0.010442990474532947,0.020509364636199914,-0.08093571739020461, ,0.00030587249224415115, ,0.0011273239488230834,0.0017298849856430647,-0.006730200773490224,0.004756766280554612,0.0009826935361520028,0.0003755525136234731, ,0.00703981276744146, ,0.004857210951309391, ,2.8968504585085806e-05, ,0.18254223694804472,-0.2397522420802999,0.09138714871,1.6978594723941938,0.5119769646211053,-1.2656349227700892, ,-0.0013809360236281024,-0.0007991252342049523,0.00704502942061035,-0.0018504320557687427,0.0,-0.004564064330977666, ,0.3017251491546631
0.010423212952868953,0.020482801406923507,-0.0808441122152127, ,0.010468258032724324,0.020553676174195987,-0.0810942584808761, ,0.00026386634131781496, ,0.0009928730789677245,0.001537243639073474,-0.005837867650845255,0.003862130203817263,0.0006471916369535576,0.0006826803528293365, ,0.006117974637541104, ,0.003915980074710774, ,2.8995658033810312e-05, ,0.1824959005507994,-0.23979857847754524,0.09159585140000001,1.6978594723941938,0.5119769646211053,-1.2656349227700892, ,-0.0010097548782133372,-0.0011100553236186828,0.006121756925441969,-0.001650330563563655,0.0,-0.003251610887867368, ,0.33081817626953125
0.010439197995366738,0.020511450560232267,-0.08095399232524439, ,0.01049421446104545,0.020596947189091174,-0.08125201700116126, ,0.00031488917494472743, ,0.0008442063722088346,0.0014758200284871019,-0.005440120265398453,0.0023483490929739207,0.0015617794687849413,0.001357147885365125, ,0.0056996173255193724, ,0.0028202648469272244, ,2.942708405493379e-05, ,0.18245728688642826,-0.2398140239432937,0.09171122121000001,1.6978594723941938,0.5121136011208708,-1.2658280194139264, ,-0.0019146708974158975,-0.001561522310288462,0.005705161719197709,-0.0015296879387400573,0.0,-0.0011496662728284807, ,0.35602402687072754
0.010459883236875422,0.020545378266454133,-0.08107999690951884, ,0.010520853965788186,0.020639187452255535,-0.08140899893430817, ,0.0003475052883631501, ,0.0011006283625895545,0.0016174842826646068,-0.006222850138994756,0.0015521710998105576,0.00023202152952054417,0.0011923154071802867, ,0.006523151236142747, ,0.0015694138338405868, ,3.0269855603232135e-05, ,0.18242639595493138,-0.2398449148747906,0.09184344279000001,1.6978594723941938,0.5121136011208708,-1.2658280194139264, ,-0.0005608214070422778,-0.0008993587888237667,0.006525527046292504,-0.0014214748401782894,0.0,-0.0009753433506214255, ,0.377697229385376
0.01048270243521658,0.02058019120697776,-0.08121761434542366, ,0.01054817077667831,0.02068040669596298,-0.08156521023618515, ,0.00036763045472400154, ,0.0012390506091949657,0.0020125411195122916,-0.007750296048252695,0.0016772385506134953,0.001970962019701764,0.0011929295845715174, ,0.008102632720630717, ,0.002588009365376265, ,3.115972517697784e-05, ,0.18239550502343446,-0.23985263760766481,0.09198733098,1.6978594723941938,0.5121136011208708,-1.2658280194139264, ,-0.002281571882839157,-0.0011198394210089268,0.008110392830957231,-0.0013405580100748534,0.0,-0.0008626965600177224, ,0.40004420280456543
0.01051755981193939,0.020629508848229755,-0.08141113724775728, ,0.010576159146836938,0.020720614613453994,-0.08172065683533056, ,0.0003279276103030363, ,0.001329009501349627,0.0018782361296011529,-0.007440252394486305,-0.000122542074827087,-0.0008193857492728205,0.0010355869726048936, ,0.0077879004171134535, ,0.0008284846202741794, ,3.1687576243334974e-05, ,0.1823723368248118,-0.23986808307341326,0.09218955222000001,1.6978594723941938,0.5119769646211053,-1.2656349227700892, ,-0.0006233782671550726,-0.0004129775583578441,0.007785342873900294,-0.0012431232222105163,-0.00118872124820605,0.00022553277160842025, ,0.42244720458984375
0.010552260186954699,0.02068190114583964,-0.0816167871855579, ,0.010604813352741655,0.020759820858998992,-0.08187534463300424, ,0.0002751095610171186, ,0.0010499116424045809,0.0015994778903435586,-0.006291829725792312,-0.0005622843958492851,6.640384149986473e-05,0.001179744138669729, ,0.006576303313938487, ,0.000566183143340043, ,3.182521287435688e-05, ,0.18233372316044066,-0.23988352853916173,0.09240473636,1.6978594723941938,0.5119769646211053,-1.2655532440299486, ,-0.001417453111828633,-0.0005078113878622427,0.006576718216350124,-0.0011470493816104004,-0.0011116369054102219,0.0008164018665555012, ,0.4470691680908203
0.010573198777268068,0.02071270009657366,-0.08174086183021305, ,0.010634127694187513,0.020798035047961544,-0.08202927950323817, ,0.00030688620196837586, ,0.0010774813473276574,0.001664133222535915,-0.006599580152353904,-0.001142891384750609,0.00047953444602521735,0.001286902546060675, ,0.006890918924463584, ,0.0012394117487416598, ,3.214208862571155e-05, ,0.182310554961818,-0.23988352853916173,0.09253436536000001,1.6978594723941938,0.5119769646211053,-1.265471565289808, ,-0.0017558772916790668,-0.00037780543397491974,0.006892605590653397,-0.0010901808446020453,-0.0010434342591358167,0.0013139112862115363, ,0.4684932231903076
0.010602701342519366,0.020752462883892975,-0.08189846940866816, ,0.010664096494248487,0.020835266756861162,-0.08218246729288785, ,0.0003021268678479866, ,0.0008877438226370881,0.0012805169067825139,-0.005136804965787139,0.002352154273675199,0.001213720126789329,0.00036973369084637795, ,0.005367921189783022, ,0.0026468363562530814, ,3.240214734734332e-05, ,0.18230283222894378,-0.23989125127203595,0.09269899419000001,1.6978594723941938,0.5118403281213398,-1.2652784686459713, ,-0.000618561831934309,-9.844446316748868e-05,0.005374092955465587,-0.0010289596037674367,0.000847793222063655,-0.0025142041337134933, ,0.49529600143432617
0.010623906870447307,0.020781130294009187,-0.08201766645820172, ,0.010694714099238497,0.020871525523436824,-0.08233491382168284, ,0.00033738827897259436, ,0.0012503031071231664,0.001705109885885733,-0.006818880492782821,0.002212519828516956,0.0008299659389920042,-0.000501239310876164, ,0.007139172834263167, ,0.002363064262596864, ,3.2834031878801036e-05, ,0.18229510949606956,-0.23989125127203595,0.09282343803000001,1.6976497824507093,0.5118403281213398,-1.2653601473861116, ,0.0,-9.696766647365261e-05,0.007142964807174889,0.0,0.000840513377219358,-0.002175756323539391, ,0.5177421569824219
0.010651777565436914,0.020820269191761536,-0.08217237848436611, ,0.010725974878672542,0.02090682084671022,-0.08248662488227838, ,0.000334286148182336, ,0.0013516615486015779,0.0018177739263992014,-0.00729317753633629,-0.0002910221918727298,0.000598132362580096,0.00034577174974596803, ,0.007636866475589649, ,0.0006651583310041349, ,3.3389605948113424e-05, ,0.18228738676319534,-0.23989897400491017,0.09298547428000001,1.6976497824507093,0.5118403281213398,-1.2652784686459713, ,0.00016161036804323743,-3.1205202601244514e-05,0.007639717755395685,0.0,0.0007924113938318251,0.00041044952158798224, ,0.5422730445861816
0.010679196784848351,0.020857206754000712,-0.08231693932726539, ,0.010757873225227976,0.02094116218704835,-0.08263760624030539, ,0.00034068426163770603, ,0.0012448573360375203,0.001694519167281534,-0.006782944653579062,-0.0014410198437864,0.0009041859113263931,1.382640486786386e-05, ,0.0071013662888832685, ,0.0017011983995150843, ,3.3938103486579636e-05, ,0.18229510949606956,-0.23989897400491017,0.09313714021000001,1.6978594723941938,0.5118403281213398,-1.2651967899058305, ,0.0,-3.5053202691305896e-05,0.007104733059768065,0.0008228749832594078,0.0007522818112329408,0.0017865245422181292, ,0.5617530345916748
0.010704258953306636,0.020890163712268914,-0.08244935484326492, ,0.010790403554705586,0.02097455896622723,-0.08278786363442199, ,0.0003593489292199084, ,0.0012931538149519397,0.0017615295908330344,-0.0069696503903225225,0.004544790930932335,0.0007646809648455192,-0.0020163206128066538, ,0.0073041946751047125, ,0.004608670647603627, ,3.454098568862841e-05, ,0.18230283222894378,-0.23989897400491017,0.09327584324,1.6978594723941938,0.5118403281213398,-1.2651151111656902, ,0.00016032212483382122,-0.000263799553990681,0.0073067942752293585,0.0008228749832594078,0.0007163361600148258,-0.004335415618030428, ,0.5827140808105469
0.010728656115049542,0.020923762880107784,-0.08258169392593419, ,0.010823560305990892,0.021007020567494792,-0.08293740277636492, ,0.000377448584898686, ,0.0011859189901108956,0.0015595820116006257,-0.00638858104244157,0.0038757543112358235,0.0007366001214816952,-0.0021336688187301596, ,0.0066822651577034655, ,0.0039451287150180075, ,3.519008466029485e-05, ,0.18230283222894378,-0.2399066967377844,0.09341454627000001,1.6978594723941938,0.5118403281213398,-1.2651151111656902, ,0.000155522826409462,0.000387233282047778,0.006684352295425935,0.0008228749832594078,0.000682448822224645,-0.004307782766304015, ,0.6019141674041748
0.010755821936516592,0.020960417103024064,-0.0827290512263772, ,0.010857337941015,0.02103855633563418,-0.083086229350999, ,0.0003794567848261035, ,0.0015103770148851897,0.001999517103177787,-0.008158096491645655,0.003846242739738256,0.0007261583492135597,-0.002117315349181503, ,0.0085342747635634, ,0.0039141861254646205, ,3.580640962420244e-05, ,0.18230283222894378,-0.2399066967377844,0.09356880478000001,1.6978594723941938,0.5118403281213398,-1.2651151111656902, ,0.00013164089006310797,0.000387233282047778,0.008536340578778135,0.0008064096620228927,0.0006511266104655563,-0.00428224160285703, ,0.621225118637085
0.010787007755113492,0.02100165166902389,-0.08289703350484054, ,0.01089173094471626,0.02106917557702633,-0.08323434901636972, ,0.00035959446451620276, ,0.0015273603946814142,0.0020045010176786586,-0.008161421764083075,0.0034458195819456034,9.860784803184638e-05,-0.002058993229991775, ,0.008541642659135597, ,0.0034472249547954563, ,3.629497284010731e-05, ,0.18231827769469222,-0.23989897400491017,0.09374510022000002,1.6978594723941938,0.5119769646211053,-1.2652265290693865, ,0.0002768000578381923,0.0003378712401970262,0.008540917705093834,0.0007749140447370699,0.00016214600028453615,-0.0038539474583288796, ,0.6409912109375
0.010816901516489227,0.0210404308849936,-0.08305561158845792, ,0.010926733825000838,0.02109888755971433,-0.08338176740375369, ,0.0003490815587561784, ,0.0013998193266210979,0.0018173185967938824,-0.007440861850151619,0.0030419187726087875,2.7106983911444805e-05,-0.0019350106022285867, ,0.00778643474913112, ,0.003042035798310623, ,3.6868386472052874e-05, ,0.18232600042756644,-0.23989125127203595,0.09391102534000001,1.6978594723941938,0.5119769646211053,-1.2652265290693865, ,0.00033818049640322115,0.0004264725910460226,0.007785342873900294,0.0007450659746793039,0.00016214600028453615,-0.003523049888390563, ,0.6584811210632324
0.010847410957939032,0.02107985478663432,-0.08321394594711365, ,0.010962341112704305,0.021127701513465193,-0.08352849011770853, ,0.00033828432567593517, ,0.0018051361947817805,0.0023057116346269575,-0.009371313969228448,0.0027887477375503887,-0.000559637614757868,-0.0017795379526938456, ,0.009818164203842876, ,0.0028443340039730793, ,3.736657373521721e-05, ,0.18234144589331489,-0.23989125127203595,0.09407695046,1.6978594723941938,0.5119769646211053,-1.2652265290693865, ,0.000915493674102293,0.0003493301956935563,0.00981442484288355,0.0007185544580077979,0.00016214600028453615,-0.0031784870639300646, ,0.6754701137542725
0.010862510477283429,0.021099534917792963,-0.08329583349951812, ,0.010998547361552601,0.02115562662983403,-0.08367452273612526, ,0.00040627312483532455, ,0.001713277094793328,0.0022090288223344766,-0.008877966132336192,0.002948908192026155,-0.0005523688395156305,-0.0016695883197336485, ,0.00930770698874628, ,0.0030001859454182734, ,3.812206619340817e-05, ,0.18234144589331489,-0.23988352853916173,0.09416250560000002,1.6978594723941938,0.5119769646211053,-1.2652265290693865, ,0.0009042398457527714,5.496932587777622e-05,0.009304212336448599,0.0007070260198703751,0.00016214600028453615,-0.0030432830979634055, ,0.6926980018615723
0.01089674976490401,0.0211441601265245,-0.08347793927740395, ,0.01103534714812322,0.021182672062226425,-0.08381987081027881, ,0.0003709576485272573, ,0.0013995826087447741,0.0018430244959728283,-0.007486058071238387,0.002480932132528949,0.0001083683630619721,-0.0015845705777797721, ,0.007835600565203035, ,0.002483293063173532, ,3.869787692768674e-05, ,0.18234916862618913,-0.2398758058062875,0.09435306023000001,1.6978594723941938,0.5119769646211053,-1.2652265290693865, ,0.00023454115338037646,0.0002545123130368285,0.007835126178061978,0.000680221007953775,0.00016214600028453615,-0.0027596487017584443, ,0.7093820571899414
0.01091310087407248,0.021162912990122226,-0.0835558598025769, ,0.011072735071806302,0.021208846925962352,-0.08396453986487773, ,0.0004411489508885778, ,0.0016434636627381848,0.0020892882791325442,-0.008563963891964331,0.0021204287546380675,-0.0004200646159128221,-0.001583220386629118, ,0.008967027147663282, ,0.002161625851000385, ,3.9523812458605554e-05, ,0.1823723368248118,-0.23986808307341326,0.09443472650000001,1.6978594723941938,0.5119769646211053,-1.2652265290693865, ,0.0007592224766673846,0.0005132725068166413,0.008963878176702309,0.0006687182226771866,0.00016214600028453615,-0.0026491359385207094, ,0.7269802093505859
0.010955798215138377,0.02121456946408263,-0.08376815717088164, ,0.011110705754765873,0.02123416029833851,-0.08410853539811723, ,0.00037448295581552334, ,0.0017782202698733043,0.002189506650205163,-0.00898345485726343,0.0028564259961324427,-2.6035530306336313e-05,-0.0015195196086536414, ,0.009415862566540086, ,0.0028565344058825975, ,4.005408304186381e-05, ,0.18242639595493138,-0.23985263760766481,0.09465768838000001,1.6978594723941938,0.5121136011208708,-1.2653379469730828, ,0.0015335894220668339,0.0005879820671633175,0.00941419120567376,0.0006428412533234191,0.0013738855446189999,-0.0034084499925354263, ,0.7448961734771729
0.01097728576207949,0.021239711943909917,-0.08387744063620961, ,0.011149253841900929,0.02125862121869232,-0.08425186288172867, ,0.00041245920900109204, ,0.00155480755470834,0.001886197744375787,-0.0080514154532853,0.0019912778321008314,0.0005724258870119926,-0.0016119156084635393, ,0.008414300877937974, ,0.0020719133587404014, ,4.070364798808988e-05, ,0.18246500961930248,-0.2398140239432937,0.09485083559000002,1.6978594723941938,0.5121136011208708,-1.2653379469730828, ,0.002332491621610527,0.002340914398662672,0.008081588797564689,0.0006201531036442735,0.0013738855446189999,-0.003228126417018652, ,0.7610440254211426
0.011007047569820249,0.02127162290768056,-0.08401354210705235, ,0.01118837400080651,0.02128223868846432,-0.08439452776103047, ,0.00042206875969799223, ,0.0019228705943759685,0.001996214803550193,-0.00812555674597566,0.0027512455835934924,-0.0035447123471127476,-0.001388897350701805, ,0.008585276774612412, ,0.0044871263035068595, ,4.151309435756226e-05, ,0.1824959005507994,-0.2398063012104195,0.0949143538,1.6978594723941938,0.5121136011208708,-1.2653379469730828, ,0.005042893022224829,0.00046429558173710904,0.008559275400322409,0.0006127744264201879,0.0013738855446189999,-0.0031730421332115243, ,0.7764081954956055
0.011036553683036167,0.021300717927540735,-0.08414096547428165, ,0.011228060921734884,0.021305021671261783,-0.08453653545498009, ,0.0004395101299330725, ,0.0019258352299166286,0.0017235121917102306,-0.00784975673510777,0.00040373814826260706,-0.004159977742930729,-0.001754052731622918, ,0.008264261395196282, ,0.004179520248736675, ,4.235652947809048e-05, ,0.18256540514666741,-0.23977541027892257,0.09504787167,1.6978594723941938,0.5121136011208708,-1.2653379469730828, ,0.005653656434029336,0.002748466823619668,0.008227691900826447,0.0005980680315202753,0.0013738855446189999,-0.0030680931735558702, ,0.7905731201171875
0.011054042247207681,0.021319367438136894,-0.08422356999329567, ,0.011268309317556787,0.021326979092921562,-0.08467789135622344, ,0.0005023705958125972, ,0.0019106887519701435,0.002041210763729105,-0.008843740554504738,0.0008520146146753033,-0.001738845149625535,-0.0014116874247353571, ,0.00927518301082305, ,0.0019363515332065507, ,4.339434357959814e-05, ,0.18260401881103852,-0.2397522420802999,0.09513472310000001,1.6978594723941938,0.5122502376206363,-1.26553104361692, ,0.003353236524411913,0.0018902365880640744,0.009260936930232559,0.0005891245903103795,0.0015053516381819104,-0.0026381225792369697, ,0.8043110370635986
0.01109168439841694,0.021357177783300013,-0.08439291206997758, ,0.011309113923722332,0.021348119841573397,-0.08481860083114733, ,0.00047808845015235836, ,0.002608145649987472,0.0025407945264824872,-0.010946880728008482,-0.0009019913572105615,-0.00447625886762546,6.801859759251631e-05, ,0.011536561802833436, ,0.004566215572955255, ,4.431054264013978e-05, ,0.182688968872655,-0.2396904602173061,0.09531231483000001,1.698069162337678,0.5123868741204016,-1.2658058190008972, ,0.007024735575542302,0.0022183428783225964,0.011500946945848377,-0.00018819448313341813,0.00268049192790462,-0.0011607317970763642, ,0.8224930763244629
0.011153763854505233,0.02141766956599147,-0.0846623415922253, ,0.011350469498222429,0.02136845276770316,-0.08495866921992934, ,0.0003590619256404846, ,0.0026808470151317636,0.0022933826763672184,-0.01103769871724242,-0.002776265482997324,-0.004002007127494671,-0.0005122735517732839, ,0.011587809878981323, ,0.004870682421476984, ,4.478471233820801e-05, ,0.1828434235301395,-0.23961323288856387,0.09559490605000001,1.698069162337678,0.5125235106201671,-1.2659172369045937, ,0.007738909690694528,0.004920714356092483,0.011567764357298475,-0.00019010099491696542,0.0039047211615910096,-0.0021934424215417905, ,0.8361001014709473
0.011179985915329265,0.02144078600662188,-0.08477150879993171, ,0.011392370821549464,0.021387986684215692,-0.08509810183658913, ,0.00039313881572521656, ,0.0024023726984816196,0.002059337255716823,-0.009622677109758258,-0.001460761960619825,-0.0037912633033507026,-0.0002786227513543307, ,0.010129569550275011, ,0.004062932492186033, ,4.535832336883233e-05, ,0.1829129281260075,-0.23956689649131852,0.09570897957,1.698069162337678,0.5125235106201671,-1.2659172369045937, ,0.007527419970394378,0.0039023543206536115,0.010087911032298925,-0.00019437968308952578,0.0039047211615910096,-0.002220635562799755, ,0.8508942127227783
0.011200866071769304,0.021458082998267198,-0.08485400318734627, ,0.011434812696659052,0.021406730366498164,-0.08523690396903934, ,0.0004516426958427083, ,0.0021113655375136872,0.0014004295251567333,-0.00751626333514034,0.0026689530364871635,0.0009182937847071734,-0.0007196885979395285, ,0.00793178931963691, ,0.0028225077142725076, ,4.6107826965494154e-05, ,0.18309055098211469,-0.2394665009639536,0.09588527501,1.698069162337678,0.512796783619698,-1.2661400727119867, ,0.009237725510329352,0.00548291129914138,0.007889455928677564,-0.00020125143877039524,0.010518003349740478,-0.007683610132736092, ,0.8653402328491211
0.011246384438268687,0.02148905396104419,-0.08501863712219267, ,0.011477789948930516,0.021424692552483093,-0.08537508087913621, ,0.00042981746490883916, ,0.002259903668165072,0.0016550582518546038,-0.008627501902343463,0.002451323373104286,0.0015305732295627338,-0.0007679130262208607, ,0.009070841828703553, ,0.002889912263523793, ,4.6915018271569364e-05, ,0.18317550104373115,-0.23941244183383403,0.09596823757,1.698069162337678,0.512796783619698,-1.2661400727119867, ,0.008556594350542887,0.0056858889973728415,0.009040188149829742,-0.00020412758033212244,0.010447443751127201,-0.007670952200267076, ,0.8763642311096191
0.011268269904098628,0.021505590786336577,-0.08511061007974063, ,0.011521297426128453,0.021441881942711814,-0.08551263780273093, ,0.00047927865977249285, ,0.0024364113277564005,0.0018825507667148804,-0.010028205758851872,-0.0033047376092458516,-0.0022821759830922634,-0.0005914350632661529, ,0.01049023394825627, ,0.0040161569273997584, ,4.7861831864706426e-05, ,0.18324500563959917,-0.23935065997084023,0.09606416303000001,1.6978594723941938,0.5129334201194634,-1.266251490615683, ,0.007098160874015539,0.006893867276473452,0.010445122308196723,-0.0005199038411731204,0.005094004963530536,-0.0033451496664507656, ,0.887660026550293
0.011296810968692946,0.02152757823826605,-0.08522320935189284, ,0.011565329998363657,0.02145830720039719,-0.08564957994972108, ,0.0005086185532156099, ,0.002910481563511789,0.0022017586147243438,-0.0113210390986496,0.003324215394173522,0.002049486718542672,-0.0007990436169663329, ,0.011894728672912545, ,0.0039052039423366296, ,4.8878406306234577e-05, ,0.18334540116696407,-0.23928115537497222,0.09618212542000001,1.6978594723941938,0.5130700566192289,-1.2663629085193793, ,0.010488645796667143,0.007058300890447434,0.011860619151154134,-0.0005199038411731204,0.01304566779973486,-0.009867798189636925, ,0.9029362201690674
0.01132504754319298,0.021548278526959518,-0.08533694043337942, ,0.011609882558054351,0.021473976951486645,-0.08578591250409948, ,0.000536868354529756, ,0.003056514352730704,0.002289811403890117,-0.01188702919617954,0.007857609579299832,0.0064194437621840055,-0.004987533315512144, ,0.01248547073059958, ,0.010146479644630085, ,4.9958642791376406e-05, ,0.18345351942720323,-0.23920392804622997,0.09630138410000001,1.6976497824507093,0.5133433296187598,-1.2665857443267725, ,0.011306677178419012,0.00786189176992766,0.012463858779342725,0.0032698016727945372,0.017450498186075216,-0.014431085743297196, ,0.9137561321258545
0.011357796943420472,0.02157106383287164,-0.08545877540146368, ,0.011654950019887096,0.021488899784726113,-0.08592164062400749, ,0.0005561430534509719, ,0.0031188075479267473,0.0021641418929439745,-0.011930443723501053,0.006394683771798782,0.005832517708482908,-0.005260561715168541, ,0.012519822606308191, ,0.008655056421396072, ,5.107210679851849e-05, ,0.1835693604203166,-0.23911897798461348,0.09642842052000002,1.6976497824507093,0.5133433296187598,-1.2665857443267725, ,0.01189307724366565,0.009351972859990811,0.012483394608150471,0.0032698016727945372,0.017450498186075216,-0.014432430435801134, ,0.9245831966400146
0.011408687011253188,0.02160347219899521,-0.08564384739682625, ,0.011700527320778203,0.021503084251722253,-0.08605676944178475, ,0.0005155124842659473, ,0.0034375802622966683,0.0021808978838515638,-0.012345401570816886,0.0031585008932679295,-0.003466366296016519,-0.00665232004507302, ,0.012978368945074648, ,0.004689513453009672, ,5.203267487590081e-05, ,0.18377015147504644,-0.238964523327129,0.09662156773000001,1.6976497824507093,0.5134799661185252,-1.2669421984508906, ,0.013906351342097124,0.010256012401138045,0.012897823093117412,0.0031955614138213,0.009927223425255524,-0.012603242745169031, ,0.9371960163116455
0.011460378086787636,0.021634486549628476,-0.08582915411958132, ,0.011746609419834578,0.02151653886700589,-0.08619130406401974, ,0.00047643741888166223, ,0.0033429719785172908,0.0018948008236058722,-0.011851158083821789,0.008821680423443608,-0.00594107615256095,-0.010349561391185168, ,0.012458558493582789, ,0.01063570390551212, ,5.301230605098937e-05, ,0.18397094252977628,-0.2388023459367703,0.09680564091,1.6976497824507093,0.5136166026182906,-1.2672986525750085, ,0.013373300670584946,0.011734504953440186,0.012386323110419907,0.0030995934833753093,0.006931575100959262,-0.018989611555271103, ,0.946134090423584
0.011460378086787636,0.021634486549628476,-0.08582915411958132, ,0.011793191298314996,0.021529272108095708,-0.08632524957160173, ,0.0006065850393716789, ,0.0033429719785172908,0.0018948008236058722,-0.011851158083821789,0.008821680423443608,-0.00594107615256095,-0.010349561391185168, ,0.012458558493582789, ,0.01063570390551212, ,5.4368512478924855e-05, ,0.18397094252977628,-0.2388023459367703,0.09680564091,1.6976497824507093,0.5136166026182906,-1.2672986525750085, ,0.013373300670584946,0.011734504953440186,0.012386323110419907,0.0030995934833753093,0.006931575100959262,-0.018989611555271103, ,0.9542551040649414
0.011495832882256475,0.02165193964014059,-0.08594657026823198, ,0.011840267959591238,0.02154129241556033,-0.08645861101977112, ,0.0006269482132063917, ,0.003840839839748232,0.001970591705961325,-0.013079314020256947,0.03648673268441595,-0.009365827456705366,-0.021766774572860303, ,0.013773297992372441, ,0.03766961644580831, ,5.5761433427181966e-05, ,0.18413311992013498,-0.23866333674503426,0.0969365662,1.6976497824507093,0.5136166026182906,-1.2677070462757114, ,0.016486612501471647,0.01449250787392651,0.013591136109215017,0.003035373702727048,0.006145800653725384,-0.05277855508480924, ,0.9623980522155762
0.011535296987259337,0.021673159807308703,-0.08608749630650601, ,0.011887834429108984,0.021552608193082353,-0.08659139343816999, ,0.0006266798695487618, ,0.004233299817938421,0.002209099539864756,-0.01471688015785689,0.016169335659443236,-0.011539864542736757,-0.015738377717620836, ,0.015472152717263038, ,0.019864923834927068, ,5.712868214523915e-05, ,0.1842952973104937,-0.23850888208754975,0.09708304697,1.6976497824507093,0.513753239118056,-1.267981821659689, ,0.017313800685727198,0.016271766385197322,0.01527211075743049,0.0029754090369438022,0.0049496942104157735,-0.033171156042276634, ,0.9714000225067139
0.011577557660959307,0.021695500943457593,-0.08623583563927902, ,0.011935885754349252,0.02156322780752113,-0.08672360183089416, ,0.0006195248684965579, ,0.004540248427113862,0.002441644203482484,-0.015844453635337902,0.02828722332140635,-0.012294595075394828,-0.020224563566860847, ,0.016661998475533537, ,0.030843525620704332, ,5.845062557314724e-05, ,0.18447292016660086,-0.23834670469719105,0.09723730548000001,1.6976497824507093,0.5138898756178215,-1.2685833120042287, ,0.01836241129227376,0.016751445994434382,0.016455383801652894,0.002919633655911545,0.0051453192972455855,-0.046533798672853816, ,0.9798300266265869
0.011626469251904822,0.02172181881534837,-0.08640785177592274, ,0.01198441700478917,0.02157315958897589,-0.08685524117654257, ,0.0005919319514670529, ,0.004832692114958456,0.0022959148151689753,-0.01679329336654669,0.013391118025095352,-0.006794886125436622,-0.011335648763962904, ,0.01762500609961299, ,0.015016363867813331, ,5.96686959671461e-05, ,0.1846737112213307,-0.23815363637533543,0.09741619350000001,1.6978594723941938,0.514026512117587,-1.2687764086480657, ,0.02040794442117651,0.02075157261282982,0.017408537180327872,-0.0006834788365128651,0.01397316764744047,-0.0348047391592317, ,0.9887921810150146
0.011675128062288511,0.021742761693767564,-0.08656777889881932, ,0.012033423271863287,0.021582411830848813,-0.08698631642826946, ,0.0005738128608706115, ,0.004943743368232893,0.002100671067053447,-0.01579882970778162,0.004594019656766559,-0.009693139301255805,-0.007775910536234939, ,0.01668701403961731, ,0.010726648210269111, ,6.081306342502776e-05, ,0.18489767047468322,-0.23794512258773137,0.09758211862,1.6978594723941938,0.5141631486173524,-1.269051184032043, ,0.023718305813164406,0.020242521663496323,0.016421455175257733,-0.0006834788365128651,0.014491777216465794,-0.024884262859272987, ,0.9970531463623047
0.011675128062288511,0.021742761693767564,-0.08656777889881932, ,0.012082899668924741,0.021590992789908232,-0.08711683251383451, ,0.000700550751565223, ,0.004943743368232893,0.002100671067053447,-0.01579882970778162,0.004594019656766559,-0.009693139301255805,-0.007775910536234939, ,0.01668701403961731, ,0.010726648210269111, ,6.248143410144035e-05, ,0.18489767047468322,-0.23794512258773137,0.09758211862,1.6978594723941938,0.5141631486173524,-1.269051184032043, ,0.023718305813164406,0.020242521663496323,0.016421455175257733,-0.0006834788365128651,0.014491777216465794,-0.024884262859272987, ,1.002455234527588
0.011725747619382325,0.021759485280338407,-0.08672656167304522, ,0.012132841331206134,0.021598910686352113,-0.08724679433565431, ,0.0006798172649217515, ,0.005249344334549106,0.0018029849179846769,-0.015868504404029544,0.015722314347171085,-0.008329120841665446,-0.0024468528655228294, ,0.01681118087993369, ,0.017792257199027838, ,6.407127477971792e-05, ,0.18516024339240683,-0.23771344060150462,0.09774674745,1.6974400925072246,0.5144364216168833,-1.2693556985795766, ,0.02767481526931198,0.023259054303546762,0.01648945291925466,-0.010492987660498342,0.02224581366364359,-0.04105183382493037, ,1.0087130069732666
0.011725747619382325,0.021759485280338407,-0.08672656167304522, ,0.012183243415780802,0.02160617370387033,-0.08737620677085323, ,0.0008092253062697512, ,0.005249344334549106,0.0018029849179846769,-0.015868504404029544,0.015722314347171085,-0.008329120841665446,-0.0024468528655228294, ,0.01681118087993369, ,0.017792257199027838, ,6.601168149399232e-05, ,0.18516024339240683,-0.23771344060150462,0.09774674745,1.6974400925072246,0.5144364216168833,-1.2693556985795766, ,0.02767481526931198,0.023259054303546762,0.01648945291925466,-0.010492987660498342,0.02224581366364359,-0.04105183382493037, ,1.0185420513153076
0.011773349498969935,0.021775264855546737,-0.08687116538470957, ,0.012234101101523964,0.021612789989708857,-0.08750507467131362, ,0.0008003318717432133, ,0.005749098173474519,0.0018412721577375916,-0.017529444957669893,-0.0013165205254313664,-0.001991011071493449,0.004178102091701503, ,0.018539791085421812, ,0.002386565778996804, ,6.790490673125925e-05, ,0.18541509357725625,-0.23748948134815212,0.09789711709000001,1.6974400925072246,0.5147096946164142,-1.26966021312711, ,0.030562622080022795,0.02733994282871529,0.018204356022857145,-0.010492987660498342,0.03194930099853986,-0.026383054253565272, ,1.0243611335754395
0.011773349498969935,0.021775264855546737,-0.08687116538470957, ,0.01228540958907362,0.02161876765473192,-0.08763340286372742, ,0.0009315057080659022, ,0.005749098173474519,0.0018412721577375916,-0.017529444957669893,-0.0013165205254313664,-0.001991011071493449,0.004178102091701503, ,0.018539791085421812, ,0.002386565778996804, ,7.014630361746598e-05, ,0.18541509357725625,-0.23748948134815212,0.09789711709000001,1.6974400925072246,0.5147096946164142,-1.26966021312711, ,0.030562622080022795,0.02733994282871529,0.018204356022857145,-0.010492987660498342,0.03194930099853986,-0.026383054253565272, ,1.0297410488128662
0.011877243218226927,0.02181392025090051,-0.08718909975339953, ,0.012337164100791932,0.021624114773485786,-0.08776119614964681, ,0.0007581870640383728, ,0.006642634932874253,0.0025623961607469433,-0.020291383774356266,-0.0019035355500871638,-0.006694122109167641,0.0034976915158685972, ,0.021504202575642298, ,0.0069592584665200295, ,7.187710041523472e-05, ,0.18597113034420043,-0.2370415628414471,0.09822896733000001,1.6974400925072246,0.5153928771152414,-1.2702173026455923, ,0.0344078830886406,0.026867763748151408,0.02115380015936255,-0.009594016279908588,0.030844718316782368,-0.025196513155825197, ,1.0351412296295166
0.011877243218226927,0.02181392025090051,-0.08718909975339953, ,0.012389359880726042,0.02162883938426176,-0.08788845930553557, ,0.0008863533078682038, ,0.006642634932874253,0.0025623961607469433,-0.020291383774356266,-0.0019035355500871638,-0.006694122109167641,0.0034976915158685972, ,0.021504202575642298, ,0.0069592584665200295, ,7.394562160475486e-05, ,0.1863418215221632,-0.23673265352647813,0.09845192921000001,1.6974400925072246,0.5156661501147722,-1.2704401384529849, ,0.0392298228848577,0.03285905178617409,0.02275544502857143,-0.008998132791622584,0.02506919923281267,-0.020440140067334904, ,1.0407540798187256
0.011948624285700062,0.02183904135001086,-0.08740346310190163, ,0.012441992194569384,0.02163294948915901,-0.08801519708281914, ,0.0008124679759969982, ,0.007441974786968178,0.002400895719984369,-0.021907661415683326,-0.01263245439970386,-0.01698479960372355,0.0019480144698846467, ,0.023261404035275456, ,0.021167363448419647, ,7.578655438255955e-05, ,0.1863418215221632,-0.23673265352647813,0.09845192921000001,1.6974400925072246,0.5156661501147722,-1.2704401384529849, ,0.0392298228848577,0.03285905178617409,0.02275544502857143,-0.008998132791622584,0.02506919923281267,-0.020440140067334904, ,1.0464320182800293
0.012021281503801991,0.021861365286498364,-0.08761908457867922, ,0.012495056329622757,0.02163645305414784,-0.08814141420793645, ,0.0007401866922894456, ,0.007594696627382213,0.0022675029624618943,-0.022348132464619305,0.012590594334152168,0.009329684173056267,-0.0070049238171581455, ,0.023712022503424617, ,0.015670370064320868, ,7.740807940604253e-05, ,0.18673568089874865,-0.23640057601288647,0.09867618738000002,1.6972304025637401,0.5160760596140685,-1.2706927134239336, ,0.04228918964281229,0.03593220051437743,0.02328773614035088,-0.001965401054908435,0.053567290854273183,-0.04664777211892024, ,1.051908016204834
0.012021281503801991,0.021861365286498364,-0.08761908457867922, ,0.012548547594755356,0.02163935800913315,-0.08826711538239, ,0.000864430844215085, ,0.007594696627382213,0.0022675029624618943,-0.022348132464619305,0.012590594334152168,0.009329684173056267,-0.0070049238171581455, ,0.023712022503424617, ,0.015670370064320868, ,7.935222922906446e-05, ,0.18673568089874865,-0.23640057601288647,0.09867618738000002,1.6972304025637401,0.5160760596140685,-1.2706927134239336, ,0.04228918964281229,0.03593220051437743,0.02328773614035088,-0.001965401054908435,0.053567290854273183,-0.04664777211892024, ,1.057807207107544
0.012021281503801991,0.021861365286498364,-0.08761908457867922, ,0.012602461320365844,0.021641672248017357,-0.0883923052827974, ,0.0009919199905311076, ,0.007594696627382213,0.0022675029624618943,-0.022348132464619305,0.012590594334152168,0.009329684173056267,-0.0070049238171581455, ,0.023712022503424617, ,0.015670370064320868, ,8.184558376814109e-05, ,0.18673568089874865,-0.23640057601288647,0.09867618738000002,1.6972304025637401,0.5160760596140685,-1.2706927134239336, ,0.04228918964281229,0.03593220051437743,0.02328773614035088,-0.001965401054908435,0.053567290854273183,-0.04664777211892024, ,1.0608980655670166
0.012100489125160385,0.021883356199904253,-0.08784615033325756, ,0.01265679285834364,0.02164340362876301,-0.08851698856094223, ,0.0009039220141549978, ,0.00797436008215831,0.0019660460158822043,-0.021572705063003232,0.010089291528810525,0.00524833332078119,-0.006313848844177096, ,0.023083270119110322, ,0.011372516607246046, ,8.408557404167476e-05, ,0.18719904487120212,-0.23602216210204946,0.09891340845,1.6972304025637401,0.5167592421128957,-1.2713314816825563, ,0.04804908433340293,0.03714166010116273,0.02253014359264498,-0.001965401054908435,0.05531677127690261,-0.04510711783093983, ,1.063737154006958
0.012100489125160385,0.021883356199904253,-0.08784615033325756, ,0.0127115375820298,0.02164455997345663,-0.08864116984382447, ,0.001030756943508108, ,0.00797436008215831,0.0019660460158822043,-0.021572705063003232,0.010089291528810525,0.00524833332078119,-0.006313848844177096, ,0.023083270119110322, ,0.011372516607246046, ,8.665805058913788e-05, ,0.18719904487120212,-0.23602216210204946,0.09891340845,1.6972304025637401,0.5167592421128957,-1.2713314816825563, ,0.04804908433340293,0.03714166010116273,0.02253014359264498,-0.001965401054908435,0.05531677127690261,-0.04510711783093983, ,1.0682120323181152
0.012159935497339116,0.02189641297895376,-0.08799910868428808, ,0.012766690886178258,0.021645149068371776,-0.0887648537337119, ,0.0010087869623282134, ,0.007778824901095353,0.0015416507543554666,-0.019301362670217072,-0.0065869757842659925,-0.01740539310132365,0.005957059737262841, ,0.020866945267996345, ,0.018610031708645523, ,0.0004838080820460435, ,0.18756201331629066,-0.23575958918432582,0.09907285212000001,1.6970207126202554,0.5170325151124266,-1.2715543174899493, ,0.04881529915559196,0.034927103996492743,0.020137561972187107,-0.013921856406549993,0.03566094332609386,-0.029079108115701517, ,1.0717902183532715
0.012159935497339116,0.02189641297895376,-0.08799910868428808, ,0.012822248186916914,0.02164517866403154,-0.088888044808191, ,0.0011366548342173913, ,0.007778824901095353,0.0015416507543554666,-0.019301362670217072,-0.0065869757842659925,-0.01740539310132365,0.005957059737262841, ,0.020866945267996345, ,0.018610031708645523, ,0.0004932696291789615, ,0.18756201331629066,-0.23575958918432582,0.09907285212000001,1.6970207126202554,0.5170325151124266,-1.2715543174899493, ,0.04881529915559196,0.034927103996492743,0.020137561972187107,-0.013921856406549993,0.03566094332609386,-0.029079108115701517, ,1.0745511054992676
0.012159935497339116,0.02189641297895376,-0.08799910868428808, ,0.012878204921708648,0.021644656475272375,-0.08901074762021771, ,0.0012659801103567369, ,0.007778824901095353,0.0015416507543554666,-0.019301362670217072,-0.0065869757842659925,-0.01740539310132365,0.005957059737262841, ,0.020866945267996345, ,0.018610031708645523, ,0.000504308350338644, ,0.18756201331629066,-0.23575958918432582,0.09907285212000001,1.6970207126202554,0.5170325151124266,-1.2715543174899493, ,0.04881529915559196,0.034927103996492743,0.020137561972187107,-0.013921856406549993,0.03566094332609386,-0.029079108115701517, ,1.0773670673370361
0.012159935497339116,0.02189641297895376,-0.08799910868428808, ,0.012934556549312545,0.02164359018130675,-0.08913296669816796, ,0.0013962776001963642, ,0.007778824901095353,0.0015416507543554666,-0.019301362670217072,-0.0065869757842659925,-0.01740539310132365,0.005957059737262841, ,0.020866945267996345, ,0.018610031708645523, ,0.0005168712975197387, ,0.18756201331629066,-0.23575958918432582,0.09907285212000001,1.6970207126202554,0.5170325151124266,-1.2715543174899493, ,0.04881529915559196,0.034927103996492743,0.020137561972187107,-0.013921856406549993,0.03566094332609386,-0.029079108115701517, ,1.0800960063934326
0.01226879698109926,0.021908749117228614,-0.08825516106421136, ,0.012991298549744911,0.021641987425786675,-0.08925470654588963, ,0.0012618484404475201, ,0.01070480438537448,0.0009064748642642983,-0.025459425228245593,-0.0261171867217289,-0.03304271870206404,0.000939996508167181, ,0.02763325653196351, ,0.04211790598961321, ,0.0005272182022826245, ,0.1882647820078451,-0.2352112751502559,0.09933859157000001,1.696811022676771,0.517442424611723,-1.271970249941179, ,0.06817309020005086,0.05807646362207514,0.02632861408264463,-0.013329338177050044,0.039332567993888165,-0.03207307183950865, ,1.0828430652618408
0.01226879698109926,0.021908749117228614,-0.08825516106421136, ,0.013048426424240386,0.021639855816866466,-0.0893759716427526, ,0.0013915250729189706, ,0.01070480438537448,0.0009064748642642983,-0.025459425228245593,-0.0261171867217289,-0.03304271870206404,0.000939996508167181, ,0.02763325653196351, ,0.04211790598961321, ,0.000539058022428328, ,0.1882647820078451,-0.2352112751502559,0.09933859157000001,1.696811022676771,0.517442424611723,-1.271970249941179, ,0.06817309020005086,0.05807646362207514,0.02632861408264463,-0.013329338177050044,0.039332567993888165,-0.03207307183950865, ,1.0855650901794434
0.01226879698109926,0.021908749117228614,-0.08825516106421136, ,0.013105935695213072,0.021637202927265942,-0.08949676644369975, ,0.0015218812300327135, ,0.01070480438537448,0.0009064748642642983,-0.025459425228245593,-0.0261171867217289,-0.03304271870206404,0.000939996508167181, ,0.02763325653196351, ,0.04211790598961321, ,0.0005523394171256846, ,0.1882647820078451,-0.2352112751502559,0.09933859157000001,1.696811022676771,0.517442424611723,-1.271970249941179, ,0.06817309020005086,0.05807646362207514,0.02632861408264463,-0.013329338177050044,0.039332567993888165,-0.03207307183950865, ,1.0883781909942627
0.01238629001278057,0.021936747011681825,-0.08859096071819907, ,0.01316382190621758,0.021634036294333747,-0.08961709537929821, ,0.001322551309559742, ,0.01070480438537448,0.0009064748642642983,-0.025459425228245593,-0.0261171867217289,-0.03304271870206404,0.000939996508167181, ,0.02763325653196351, ,0.04211790598961321, ,0.0005626089090248053, ,0.18899844163089644,-0.2346166247189406,0.09969118245000001,1.6966013327332867,0.5190820626089083,-1.27387901596652, ,0.07442897377134963,0.056995160095177654,0.04225148944297083,-0.004972414692420857,0.19238699329599937,-0.20034046992339932, ,1.0914921760559082
0.01238629001278057,0.021936747011681825,-0.08859096071819907, ,0.013222080621910215,0.021630363420110085,-0.08973696285579039, ,0.00145111603493917, ,0.012899247118394498,0.004692330964329544,-0.040083986124112306,0.1471013942408774,0.11192853357311294,-0.025342480512306115, ,0.042369027481147625, ,0.18484240134744864, ,0.0005742997922605207, ,0.18899844163089644,-0.2346166247189406,0.09969118245000001,1.6966013327332867,0.5190820626089083,-1.27387901596652, ,0.07442897377134963,0.056995160095177654,0.04225148944297083,-0.004972414692420857,0.19238699329599937,-0.20034046992339932, ,1.0946710109710693
0.01238629001278057,0.021936747011681825,-0.08859096071819907, ,0.013280707428010033,0.02162619177139046,-0.08985637325514406, ,0.0015804100602678254, ,0.012899247118394498,0.004692330964329544,-0.040083986124112306,0.1471013942408774,0.11192853357311294,-0.025342480512306115, ,0.042369027481147625, ,0.18484240134744864, ,0.0005873661593774986, ,0.18899844163089644,-0.2346166247189406,0.09969118245000001,1.6966013327332867,0.5190820626089083,-1.27387901596652, ,0.07442897377134963,0.056995160095177654,0.04225148944297083,-0.004972414692420857,0.19238699329599937,-0.20034046992339932, ,1.0973880290985107
0.01238629001278057,0.021936747011681825,-0.08859096071819907, ,0.01333969793125988,0.02162152877978819,-0.08997533093510465, ,0.0017102134633408838, ,0.012899247118394498,0.004692330964329544,-0.040083986124112306,0.1471013942408774,0.11192853357311294,-0.025342480512306115, ,0.042369027481147625, ,0.18484240134744864, ,0.0006017616376334395, ,0.18899844163089644,-0.2346166247189406,0.09969118245000001,1.6966013327332867,0.5190820626089083,-1.27387901596652, ,0.07442897377134963,0.056995160095177654,0.04225148944297083,-0.004972414692420857,0.19238699329599937,-0.20034046992339932, ,1.1001980304718018
0.01238629001278057,0.021936747011681825,-0.08859096071819907, ,0.013399047759387559,0.02161638184179761,-0.09009384022924449, ,0.0018403692347209973, ,0.015983262151967687,0.005561800011533145,-0.04583354186794908,0.054848907927672705,-0.011201603302984774,0.0007251328445551321, ,0.04885807864159062, ,0.055979249317151675, ,0.0006174402148117629, ,0.18975526945257043,-0.23406831068487066,0.1001254396,1.6961819528463176,0.5204484276065626,-1.275401588704187, ,0.08533897622164638,0.059422004732918456,0.047978347951807235,-0.033203846363100295,0.09322153784138915,-0.12958404456394224, ,1.1030371189117432
0.012536273619287705,0.021991286159376212,-0.08904398082325085, ,0.013458752561067032,0.02161075831885764,-0.09021190544701538, ,0.0015361695096022274, ,0.015983262151967687,0.005561800011533145,-0.04583354186794908,0.054848907927672705,-0.011201603302984774,0.0007251328445551321, ,0.04885807864159062, ,0.055979249317151675, ,0.0006289243309966437, ,0.18975526945257043,-0.23406831068487066,0.1001254396,1.6961819528463176,0.5204484276065626,-1.275401588704187, ,0.08533897622164638,0.059422004732918456,0.047978347951807235,-0.033203846363100295,0.09322153784138915,-0.12958404456394224, ,1.1058602333068848
0.012536273619287705,0.021991286159376212,-0.08904398082325085, ,0.013518808005879266,0.02160466553741457,-0.09032953087379847, ,0.0016635769470102204, ,0.015983262151967687,0.005561800011533145,-0.04583354186794908,0.054848907927672705,-0.011201603302984774,0.0007251328445551321, ,0.04885807864159062, ,0.055979249317151675, ,0.000641697820083231, ,0.18975526945257043,-0.23406831068487066,0.1001254396,1.6961819528463176,0.5204484276065626,-1.275401588704187, ,0.08533897622164638,0.059422004732918456,0.047978347951807235,-0.033203846363100295,0.09322153784138915,-0.12958404456394224, ,1.1088030338287354
0.01265601053905573,0.02203019482064649,-0.08937914321996752, ,0.013579209784273584,0.021598110788984878,-0.09044672077095563, ,0.0014760471822274262, ,0.017223428077153807,0.005345455012906632,-0.047626083677765524,-0.014187485934523746,-0.0729093139328041,0.03717097951899454, ,0.05092606612045959, ,0.07427521647508534, ,0.0006518728123045017, ,0.1904657608769991,-0.23356633304804608,0.10051691918000001,1.6957625729593484,0.5209949736056244,-1.275928939059113, ,0.0908974536000678,0.06490898875408398,0.04962246579439253,-0.06509098595436309,0.03359299011712541,-0.0625500162177533, ,1.1122710704803467
0.01265601053905573,0.02203019482064649,-0.08937914321996752, ,0.013639953607528624,0.021591101330218933,-0.09056347937587979, ,0.0016011243504277703, ,0.017223428077153807,0.005345455012906632,-0.047626083677765524,-0.014187485934523746,-0.0729093139328041,0.03717097951899454, ,0.05092606612045959, ,0.07427521647508534, ,0.0006633095778240593, ,0.1904657608769991,-0.23356633304804608,0.10051691918000001,1.6957625729593484,0.5209949736056244,-1.275928939059113, ,0.0908974536000678,0.06490898875408398,0.04962246579439253,-0.06509098595436309,0.03359299011712541,-0.0625500162177533, ,1.115126132965088
0.01265601053905573,0.02203019482064649,-0.08937914321996752, ,0.013701035207713402,0.02158364438296402,-0.09067981090204717, ,0.0017272001246826988, ,0.017223428077153807,0.005345455012906632,-0.047626083677765524,-0.014187485934523746,-0.0729093139328041,0.03717097951899454, ,0.05092606612045959, ,0.07427521647508534, ,0.0006759749414771383, ,0.1904657608769991,-0.23356633304804608,0.10051691918000001,1.6957625729593484,0.5209949736056244,-1.275928939059113, ,0.0908974536000678,0.06490898875408398,0.04962246579439253,-0.06509098595436309,0.03359299011712541,-0.0625500162177533, ,1.1178882122039795
0.01265601053905573,0.02203019482064649,-0.08937914321996752, ,0.013762450337648661,0.021575747134326948,-0.0907957195390665, ,0.001854028099933641, ,0.017223428077153807,0.005345455012906632,-0.047626083677765524,-0.014187485934523746,-0.0729093139328041,0.03717097951899454, ,0.05092606612045959, ,0.07427521647508534, ,0.000689834390400156, ,0.1904657608769991,-0.23356633304804608,0.10051691918000001,1.6957625729593484,0.5209949736056244,-1.275928939059113, ,0.0908974536000678,0.06490898875408398,0.04962246579439253,-0.06509098595436309,0.03359299011712541,-0.0625500162177533, ,1.1206650733947754
0.012860797406274972,0.02209165855597597,-0.08995902441922454, ,0.013824194770867682,0.02156741673673765,-0.0909112094527313, ,0.001452453202405074, ,0.017426161325303297,0.003843403235055491,-0.04600122644083969,-0.03880435596254424,-0.06985996445328892,-0.04098759513567342, ,0.049341216857959024, ,0.07991236878386533, ,0.0006987020510048642, ,0.1915083298150194,-0.23271683243188138,0.10111969403000001,1.695552883015864,0.5214048831049207,-1.2762631927702026, ,0.09358672737521774,0.07974532904073174,0.047691052455089825,0.01925475340799744,0.019601972106811416,-0.036506487631414265, ,1.123434066772461
0.012860797406274972,0.02209165855597597,-0.08995902441922454, ,0.013886264301577465,0.02155866030801238,-0.09102628478507044, ,0.001573122428229636, ,0.017426161325303297,0.003843403235055491,-0.04600122644083969,-0.03880435596254424,-0.06985996445328892,-0.04098759513567342, ,0.049341216857959024, ,0.07991236878386533, ,0.0007087528599384823, ,0.1915083298150194,-0.23271683243188138,0.10111969403000001,1.695552883015864,0.5214048831049207,-1.2762631927702026, ,0.09358672737521774,0.07974532904073174,0.047691052455089825,0.01925475340799744,0.019601972106811416,-0.036506487631414265, ,1.1261770725250244
0.012860797406274972,0.02209165855597597,-0.08995902441922454, ,0.01394865474462006,0.021549484931416125,-0.09114094965439833, ,0.0016953858231388574, ,0.017426161325303297,0.003843403235055491,-0.04600122644083969,-0.03880435596254424,-0.06985996445328892,-0.04098759513567342, ,0.049341216857959024, ,0.07991236878386533, ,0.0007199645981566684, ,0.1915083298150194,-0.23271683243188138,0.10111969403000001,1.695552883015864,0.5214048831049207,-1.2762631927702026, ,0.09358672737521774,0.07974532904073174,0.047691052455089825,0.01925475340799744,0.019601972106811416,-0.036506487631414265, ,1.1289401054382324
0.012860797406274972,0.02209165855597597,-0.08995902441922454, ,0.014011361935433213,0.021539897655726777,-0.09125520815536717, ,0.0018188818281135199, ,0.017426161325303297,0.003843403235055491,-0.04600122644083969,-0.03880435596254424,-0.06985996445328892,-0.04098759513567342, ,0.049341216857959024, ,0.07991236878386533, ,0.0007323119827629252, ,0.19261268061603348,-0.23179782721984865,0.10160321020000002,1.6957625729593484,0.5233177941016369,-1.2780680796423742, ,0.12135158767067875,0.10042004397721775,0.05239740631578948,-0.015337117011293356,0.29502535742711866,-0.245251185934568, ,1.1316502094268799
0.0130377799696379,0.022120069619617478,-0.09042044714801463, ,0.014074381730011971,0.021529905495297142,-0.09136906435901693, ,0.001524044460065122, ,0.01862708918617915,0.002781092477231587,-0.04976289760957188,0.15267225424390368,0.16240835375003884,-0.01423231041203503, ,0.05320760195138963, ,0.22290129076168028, ,0.0007411090102885052, ,0.19261268061603348,-0.23179782721984865,0.10160321020000002,1.6957625729593484,0.5233177941016369,-1.2780680796423742, ,0.12135158767067875,0.10042004397721775,0.05239740631578948,-0.015337117011293356,0.29502535742711866,-0.245251185934568, ,1.134742021560669
0.0130377799696379,0.022120069619617478,-0.09042044714801463, ,0.014137710004869443,0.02151951543011911,-0.09148252231282658, ,0.0016427157613655618, ,0.01862708918617915,0.002781092477231587,-0.04976289760957188,0.15267225424390368,0.16240835375003884,-0.01423231041203503, ,0.05320760195138963, ,0.22290129076168028, ,0.0007510167767838575, ,0.19261268061603348,-0.23179782721984865,0.10160321020000002,1.6957625729593484,0.5233177941016369,-1.2780680796423742, ,0.12135158767067875,0.10042004397721775,0.05239740631578948,-0.015337117011293356,0.29502535742711866,-0.245251185934568, ,1.1375210285186768
0.0130377799696379,0.022120069619617478,-0.09042044714801463, ,0.014201342656997937,0.02150873440588587,-0.0915955860407647, ,0.001763110968776115, ,0.01862708918617915,0.002781092477231587,-0.04976289760957188,0.15267225424390368,0.16240835375003884,-0.01423231041203503, ,0.05320760195138963, ,0.22290129076168028, ,0.0007620178006098602, ,0.19261268061603348,-0.23179782721984865,0.10160321020000002,1.6957625729593484,0.5233177941016369,-1.2780680796423742, ,0.12135158767067875,0.10042004397721775,0.05239740631578948,-0.015337117011293356,0.29502535742711866,-0.245251185934568, ,1.1403310298919678
0.013184554726961274,0.022140471894687812,-0.09080080163905258, ,0.014265275603830362,0.021497569334055385,-0.09170825954334125, ,0.001550729236270604, ,0.0185360057000115,0.0020699586529099845,-0.045462592693155675,0.16722462132196772,0.16028096800586333,-0.015095933868657867, ,0.049139755499181995, ,0.23163304701928042, ,0.0007704985687352445, ,0.19360119042393423,-0.23102555393242621,0.10200506010000002,1.695552883015864,0.5257772510974149,-1.2803186381293314, ,0.1287611147333389,0.09653808907270679,0.04812329764350454,-0.016926637356005324,0.30057094685244046,-0.2567344789859453, ,1.143125057220459
0.013184554726961274,0.022140471894687812,-0.09080080163905258, ,0.01432950478320081,0.021486027091914005,-0.09182054679765744, ,0.001667059932833439, ,0.0185360057000115,0.0020699586529099845,-0.045462592693155675,0.16722462132196772,0.16028096800586333,-0.015095933868657867, ,0.049139755499181995, ,0.23163304701928042, ,0.0007800364555873529, ,0.19360119042393423,-0.23102555393242621,0.10200506010000002,1.695552883015864,0.5257772510974149,-1.2803186381293314, ,0.1287611147333389,0.09653808907270679,0.04812329764350454,-0.016926637356005324,0.30057094685244046,-0.2567344789859453, ,1.1459860801696777
0.013184554726961274,0.022140471894687812,-0.09080080163905258, ,0.014394026153306249,0.021474114522638418,-0.09193245175745754, ,0.0017853529816020956, ,0.0185360057000115,0.0020699586529099845,-0.045462592693155675,0.16722462132196772,0.16028096800586333,-0.015095933868657867, ,0.049139755499181995, ,0.23163304701928042, ,0.0007906187348085608, ,0.19360119042393423,-0.23102555393242621,0.10200506010000002,1.695552883015864,0.5257772510974149,-1.2803186381293314, ,0.1287611147333389,0.09653808907270679,0.04812329764350454,-0.016926637356005324,0.30057094685244046,-0.2567344789859453, ,1.1488261222839355
0.013432337143408779,0.022136977911417784,-0.09130533265015019, ,0.014458835692667113,0.021461838435360026,-0.09204397835317944, ,0.00143356550543203, ,0.020873709294933835,-0.0020715084604867027,-0.03643081730340094,-0.0347941801111257,-0.05083372349666955,0.06319195731012475, ,0.042038165236188085, ,0.061600635080244305, ,0.0007973160970025551, ,0.1954237553822512,-0.22972041207668226,0.10253653900000001,1.6945044332984414,0.5285099810927236,-1.282710353683541, ,0.1568544488569765,0.11230407285026127,0.038107204593301434,-0.08663901311572321,0.12914094535136017,-0.08694451357939045, ,1.1521260738372803
0.013432337143408779,0.022136977911417784,-0.09130533265015019, ,0.01452392940008869,0.021449205605227235,-0.09215513049200556, ,0.0015449144869630357, ,0.020873709294933835,-0.0020715084604867027,-0.03643081730340094,-0.0347941801111257,-0.05083372349666955,0.06319195731012475, ,0.042038165236188085, ,0.061600635080244305, ,0.0008050232968990549, ,0.1954237553822512,-0.22972041207668226,0.10253653900000001,1.6945044332984414,0.5285099810927236,-1.282710353683541, ,0.1568544488569765,0.11230407285026127,0.038107204593301434,-0.08663901311572321,0.12914094535136017,-0.08694451357939045, ,1.1548991203308105
0.013432337143408779,0.022136977911417784,-0.09130533265015019, ,0.014589303294622174,0.021436222773468766,-0.09226591205791373, ,0.0016590181545223825, ,0.020873709294933835,-0.0020715084604867027,-0.03643081730340094,-0.0347941801111257,-0.05083372349666955,0.06319195731012475, ,0.042038165236188085, ,0.061600635080244305, ,0.0008137375301401093, ,0.1954237553822512,-0.22972041207668226,0.10253653900000001,1.6945044332984414,0.5285099810927236,-1.282710353683541, ,0.1568544488569765,0.11230407285026127,0.038107204593301434,-0.08663901311572321,0.12914094535136017,-0.08694451357939045, ,1.1576991081237793
0.013432337143408779,0.022136977911417784,-0.09130533265015019, ,0.014654953415525801,0.021422896647456963,-0.09237632691172844, ,0.0017753116089066592, ,0.020873709294933835,-0.0020715084604867027,-0.03643081730340094,-0.0347941801111257,-0.05083372349666955,0.06319195731012475, ,0.042038165236188085, ,0.061600635080244305, ,0.0008234503996225998, ,0.1954237553822512,-0.22972041207668226,0.10253653900000001,1.6945044332984414,0.5285099810927236,-1.282710353683541, ,0.1568544488569765,0.11230407285026127,0.038107204593301434,-0.08663901311572321,0.12914094535136017,-0.08694451357939045, ,1.1604301929473877
0.013653005209253617,0.022115884290254916,-0.09169617476927602, ,0.014720875822225789,0.021409233900770774,-0.09248637889117148, ,0.001504700958087094, ,0.022100189651504024,-0.0027079084206457008,-0.03974238326214557,-0.0800117993878432,-0.09061284464295158,0.0264301663627307, ,0.045554452888848504, ,0.12088207688015862, ,0.0008302629052072447, ,0.19702236108721569,-0.22849249754968057,0.10294357406000001,1.6945044332984414,0.5294664365910817,-1.2834902790094158, ,0.1571141416530973,0.12737844504492724,0.041159719689922485,-0.051490374918963154,0.08029868668920183,-0.05158323185551513, ,1.1632111072540283
0.013653005209253617,0.022115884290254916,-0.09169617476927602, ,0.0147870665942777,0.021395241173258635,-0.09259607181091284, ,0.0016171692591140695, ,0.022100189651504024,-0.0027079084206457008,-0.03974238326214557,-0.0800117993878432,-0.09061284464295158,0.0264301663627307, ,0.045554452888848504, ,0.12088207688015862, ,0.0008380540572261241, ,0.19702236108721569,-0.22849249754968057,0.10294357406000001,1.6945044332984414,0.5294664365910817,-1.2834902790094158, ,0.1571141416530973,0.12737844504492724,0.041159719689922485,-0.051490374918963154,0.08029868668920183,-0.05158323185551513, ,1.1659770011901855
0.013653005209253617,0.022115884290254916,-0.09169617476927602, ,0.014853521831327276,0.021380925071101974,-0.09270540946262236, ,0.0017320392258684343, ,0.022100189651504024,-0.0027079084206457008,-0.03974238326214557,-0.0800117993878432,-0.09061284464295158,0.0264301663627307, ,0.045554452888848504, ,0.12088207688015862, ,0.0008468186177030096, ,0.19702236108721569,-0.22849249754968057,0.10294357406000001,1.6945044332984414,0.5294664365910817,-1.2834902790094158, ,0.1571141416530973,0.12737844504492724,0.041159719689922485,-0.051490374918963154,0.08029868668920183,-0.05158323185551513, ,1.1687400341033936
0.013871510281200629,0.022084931628249597,-0.09208806963758112, ,0.01492023765307182,0.0213662921668781,-0.09281439561501943, ,0.0018488332206959943, ,0.022100189651504024,-0.0027079084206457008,-0.03974238326214557,-0.0800117993878432,-0.09061284464295158,0.0264301663627307, ,0.045554452888848504, ,0.12088207688015862, ,0.0008565469148194463, ,0.19860552132643172,-0.2271796329610624,0.10335060912,1.6942947433549567,0.5306961650889708,-1.2843296826624027, ,0.16561420865352666,0.13773141009937706,0.040022139497487445,0.0,0.1762481190774927,-0.14579712924797777, ,1.1719260215759277
0.013871510281200629,0.022084931628249597,-0.09208806963758112, ,0.014987210199221102,0.021351348999623456,-0.09292303401392496, ,0.0015748318290713407, ,0.022035600456163276,-0.003813517766843726,-0.038369756222987876,0.015694492486951084,0.006326174279448809,-0.033553324803671014, ,0.044411133714792876, ,0.016919054629455737, ,0.0008634535005334067, ,0.19860552132643172,-0.2271796329610624,0.10335060912,1.6942947433549567,0.5306961650889708,-1.2843296826624027, ,0.16561420865352666,0.13773141009937706,0.040022139497487445,0.0,0.1762481190774927,-0.14579712924797777, ,1.1750211715698242
0.013871510281200629,0.022084931628249597,-0.09208806963758112, ,0.01505443562945839,0.021336102074896463,-0.09303132838231193, ,0.0016881336259422523, ,0.022035600456163276,-0.003813517766843726,-0.038369756222987876,0.015694492486951084,0.006326174279448809,-0.033553324803671014, ,0.044411133714792876, ,0.016919054629455737, ,0.000871307596965872, ,0.19860552132643172,-0.2271796329610624,0.10335060912,1.6942947433549567,0.5306961650889708,-1.2843296826624027, ,0.16561420865352666,0.13773141009937706,0.040022139497487445,0.0,0.1762481190774927,-0.14579712924797777, ,1.177887201309204
0.013871510281200629,0.022084931628249597,-0.09208806963758112, ,0.015121910123401961,0.02132055786484094,-0.09313928242035638, ,0.0018035563008219986, ,0.022035600456163276,-0.003813517766843726,-0.038369756222987876,0.015694492486951084,0.006326174279448809,-0.033553324803671014, ,0.044411133714792876, ,0.016919054629455737, ,0.0008801023960588543, ,0.19860552132643172,-0.2271796329610624,0.10335060912,1.6942947433549567,0.5306961650889708,-1.2843296826624027, ,0.16561420865352666,0.13773141009937706,0.040022139497487445,0.0,0.1762481190774927,-0.14579712924797777, ,1.1807191371917725
0.014084111788364122,0.022037833966743862,-0.09245118447219548, ,0.015189629880565693,0.021304722808249053,-0.09324689980548828, ,0.001546862991519246, ,0.020955468795829428,-0.005601131111699697,-0.03440545730645033,0.05568175273355517,0.06356346739886484,-0.016246928475275146, ,0.04067234729701997, ,0.08450280329845962, ,0.0008863338034930636, ,0.20026590889439,-0.22578181831082778,0.10373042209000001,1.693875363467988,0.5330189855849832,-1.2863054657653823, ,0.1667784561660295,0.14488082680682562,0.03595668514672686,-0.021184222938127863,0.2408879926998181,-0.1949593541464082, ,1.183584213256836
0.014084111788364122,0.022037833966743862,-0.09245118447219548, ,0.015257591120320511,0.02128860331062433,-0.09335418419244251, ,0.0016594603982512902, ,0.020955468795829428,-0.005601131111699697,-0.03440545730645033,0.05568175273355517,0.06356346739886484,-0.016246928475275146, ,0.04067234729701997, ,0.08450280329845962, ,0.0008934923830741584, ,0.20026590889439,-0.22578181831082778,0.10373042209000001,1.693875363467988,0.5330189855849832,-1.2863054657653823, ,0.1667784561660295,0.14488082680682562,0.03595668514672686,-0.021184222938127863,0.2408879926998181,-0.1949593541464082, ,1.186570167541504
0.014084111788364122,0.022037833966743862,-0.09245118447219548, ,0.01532579008185544,0.021272205744245265,-0.09346113921331027, ,0.0017742491760500017, ,0.020955468795829428,-0.005601131111699697,-0.03440545730645033,0.05568175273355517,0.06356346739886484,-0.016246928475275146, ,0.04067234729701997, ,0.08450280329845962, ,0.0009015727206243954, ,0.20026590889439,-0.22578181831082778,0.10373042209000001,1.693875363467988,0.5330189855849832,-1.2863054657653823, ,0.1667784561660295,0.14488082680682562,0.03595668514672686,-0.021184222938127863,0.2408879926998181,-0.1949593541464082, ,1.1894161701202393
0.014084111788364122,0.022037833966743862,-0.09245118447219548, ,0.015394223024138618,0.021255536448227613,-0.09356776847758903, ,0.0018908042465257905, ,0.023007814305398347,-0.006917299709838138,-0.03449737076477303,-0.012999906440304547,-0.02157011589933775,0.060605548333974565, ,0.04203899551689641, ,0.025183697306177324, ,0.0009105657344962264, ,0.20193401919522247,-0.22435311272909622,0.10406875378000001,1.6930366036940496,0.5350685330814648,-1.2879767343208286, ,0.1828457448140092,0.15380379507045505,0.035875701621621625,-0.10233070470425025,0.18843052165114893,-0.15254696500843715, ,1.192322015762329
0.014292917408769562,0.02197567838838009,-0.09277609973573342, ,0.015462886225878492,0.021238601728588123,-0.09367407557223414, ,0.0016487782259468763, ,0.023007814305398347,-0.006917299709838138,-0.03449737076477303,-0.012999906440304547,-0.02157011589933775,0.060605548333974565, ,0.04203899551689641, ,0.025183697306177324, ,0.0009172162974822683, ,0.20193401919522247,-0.22435311272909622,0.10406875378000001,1.6930366036940496,0.5350685330814648,-1.2879767343208286, ,0.1828457448140092,0.15380379507045505,0.035875701621621625,-0.10233070470425025,0.18843052165114893,-0.15254696500843715, ,1.1951181888580322
0.014292917408769562,0.02197567838838009,-0.09277609973573342, ,0.015531775985484844,0.021221407858307683,-0.09378006406170993, ,0.0017639838359435678, ,0.023007814305398347,-0.006917299709838138,-0.03449737076477303,-0.012999906440304547,-0.02157011589933775,0.060605548333974565, ,0.04203899551689641, ,0.025183697306177324, ,0.0009247767219328155, ,0.20193401919522247,-0.22435311272909622,0.10406875378000001,1.6930366036940496,0.5350685330814648,-1.2879767343208286, ,0.1828457448140092,0.15380379507045505,0.035875701621621625,-0.10233070470425025,0.18843052165114893,-0.15254696500843715, ,1.1978800296783447
0.014292917408769562,0.02197567838838009,-0.09277609973573342, ,0.015600888621030033,0.021203961077393942,-0.09388573748804034, ,0.0018808594422557406, ,0.023007814305398347,-0.006917299709838138,-0.03449737076477303,-0.012999906440304547,-0.02157011589933775,0.060605548333974565, ,0.04203899551689641, ,0.025183697306177324, ,0.000933237630962222, ,0.20193401919522247,-0.22435311272909622,0.10406875378000001,1.6930366036940496,0.5350685330814648,-1.2879767343208286, ,0.1828457448140092,0.15380379507045505,0.035875701621621625,-0.10233070470425025,0.18843052165114893,-0.15254696500843715, ,1.2005760669708252
0.014552020934353819,0.021904930651146782,-0.09314688141829253, ,0.01567022047020996,0.021186267592944754,-0.09399109937085963, ,0.0015746589296256417, ,0.02628447422919823,-0.007468793851040423,-0.03635842575633823,-0.06559224932313107,-0.09307279745110401,0.008231459435545305, ,0.04548177206941132, ,0.11386318658741111, ,0.0009388641335820766, ,0.20396509794114354,-0.2227004478940122,0.10445504820000001,1.6928269137505652,0.5365715345788846,-1.2891206525213486, ,0.20585019860839648,0.16561420865352666,0.03783565681710214,-0.04844113654067698,0.12639801698938696,-0.10276077815739815, ,1.203301191329956
0.014552020934353819,0.021904930651146782,-0.09314688141829253, ,0.015739767890305192,0.021168333579211406,-0.094096153207464, ,0.0016895073268477843, ,0.02628447422919823,-0.007468793851040423,-0.03635842575633823,-0.06559224932313107,-0.09307279745110401,0.008231459435545305, ,0.04548177206941132, ,0.11386318658741111, ,0.0009453914656974306, ,0.20396509794114354,-0.2227004478940122,0.10445504820000001,1.6928269137505652,0.5365715345788846,-1.2891206525213486, ,0.20585019860839648,0.16561420865352666,0.03783565681710214,-0.04844113654067698,0.12639801698938696,-0.10276077815739815, ,1.206045150756836
0.014552020934353819,0.021904930651146782,-0.09314688141829253, ,0.01580952725814227,0.021150165177661353,-0.09420090247286222, ,0.0018060878876206006, ,0.02628447422919823,-0.007468793851040423,-0.03635842575633823,-0.06559224932313107,-0.09307279745110401,0.008231459435545305, ,0.04548177206941132, ,0.11386318658741111, ,0.0009528112624381475, ,0.20396509794114354,-0.2227004478940122,0.10445504820000001,1.6928269137505652,0.5365715345788846,-1.2891206525213486, ,0.20585019860839648,0.16561420865352666,0.03783565681710214,-0.04844113654067698,0.12639801698938696,-0.10276077815739815, ,1.2088160514831543
0.014552020934353819,0.021904930651146782,-0.09314688141829253, ,0.015879494970054538,0.021131768497041584,-0.09430535061982587, ,0.0019240628687497297, ,0.02628447422919823,-0.007468793851040423,-0.03635842575633823,-0.06559224932313107,-0.09307279745110401,0.008231459435545305, ,0.04548177206941132, ,0.11386318658741111, ,0.0009611125582185884, ,0.20396509794114354,-0.2227004478940122,0.10445504820000001,1.6928269137505652,0.5365715345788846,-1.2891206525213486, ,0.20585019860839648,0.16561420865352666,0.03783565681710214,-0.04844113654067698,0.12639801698938696,-0.10276077815739815, ,1.2114992141723633
0.014826903309197743,0.021831500839337502,-0.09353403238165693, ,0.015949667441843417,0.021113149613441948,-0.09440950107894176, ,0.0015947016088368503, ,0.026834513929788303,-0.007116749519209434,-0.03840684591329179,0.014522849797222327,-0.003980776608818102,-0.03341782743582479, ,0.04739013689128265, ,0.015055768994805296, ,0.0009664819569526414, ,0.2061274631459264,-0.22097827846306012,0.10486078697000001,1.6928269137505652,0.5383478090758353,-1.2905690852694023, ,0.21229740840821204,0.16825698857884888,0.040428455634517774,-0.009422412387396282,0.21535577443618953,-0.175337159404626, ,1.215318202972412
0.014826903309197743,0.021831500839337502,-0.09353403238165693, ,0.01602004110873953,0.02109431457035734,-0.09451335725866136, ,0.001710584291576435, ,0.026834513929788303,-0.007116749519209434,-0.03840684591329179,0.014522849797222327,-0.003980776608818102,-0.03341782743582479, ,0.04739013689128265, ,0.015055768994805296, ,0.0009727349177477993, ,0.2061274631459264,-0.22097827846306012,0.10486078697000001,1.6928269137505652,0.5383478090758353,-1.2905690852694023, ,0.21229740840821204,0.16825698857884888,0.040428455634517774,-0.009422412387396282,0.21535577443618953,-0.175337159404626, ,1.2181830406188965
0.014922205357469746,0.02180589711845464,-0.09367053504046036, ,0.01609061242536367,0.021075269378752346,-0.09461692254535299, ,0.0016717180622772081, ,0.026626478550219136,-0.007774485636873403,-0.03725482718799424,0.024292488322800555,0.010542711875119803,-0.035077053524546056, ,0.04644711116647133, ,0.026480218986679495, ,0.0009785597772855445, ,0.2068842909676004,-0.2203759052988706,0.10500467516,1.6928269137505652,0.539167628074428,-1.291237592691581, ,0.21325155406397928,0.17191474920012823,0.03923352591133005,-0.009361973536394966,0.23117022017316982,-0.18825090002340636, ,1.2281920909881592
0.014922205357469746,0.02180589711845464,-0.09367053504046036, ,0.01616137786568809,0.02105602001712287,-0.09472020030335201, ,0.0017887597201265732, ,0.026626478550219136,-0.007774485636873403,-0.03725482718799424,0.024292488322800555,0.010542711875119803,-0.035077053524546056, ,0.04644711116647133, ,0.026480218986679495, ,0.0009852556445817512, ,0.2068842909676004,-0.2203759052988706,0.10500467516,1.6928269137505652,0.539167628074428,-1.291237592691581, ,0.21325155406397928,0.17191474920012823,0.03923352591133005,-0.009361973536394966,0.23117022017316982,-0.18825090002340636, ,1.2310230731964111
0.015339647751591308,0.02166485652014719,-0.09422944274540028, ,0.016232333922997517,0.02103657243155986,-0.09482319387501187, ,0.0012426463296155196, ,0.02531810366147706,-0.00879088373668269,-0.03168173839957723,-0.05902964428518869,-0.0825356889126333,0.060051775033553974, ,0.04149721144733001, ,0.10147219781808159, ,0.0009873654042951428, ,0.2102591252336365,-0.21760344419702402,0.10559189453000001,1.6917784640331426,0.5427201770683294,-1.2942161369278282, ,0.20277124264630508,0.16221699411704404,0.033185024,-0.10381685244995091,0.1458919288399993,-0.11695073463647178, ,1.2337560653686523
0.015339647751591308,0.02166485652014719,-0.09422944274540028, ,0.016303477109850275,0.021016932535812775,-0.0949259065807552, ,0.001354191417516356, ,0.02531810366147706,-0.00879088373668269,-0.03168173839957723,-0.05902964428518869,-0.0825356889126333,0.060051775033553974, ,0.04149721144733001, ,0.10147219781808159, ,0.0009903477296058843, ,0.2102591252336365,-0.21760344419702402,0.10559189453000001,1.6917784640331426,0.5427201770683294,-1.2942161369278282, ,0.20277124264630508,0.16221699411704404,0.033185024,-0.10381685244995091,0.1458919288399993,-0.11695073463647178, ,1.236532211303711
0.015339647751591308,0.02166485652014719,-0.09422944274540028, ,0.016374803958039343,0.020997106211352055,-0.0950283417191251, ,0.0014682228771077113, ,0.02531810366147706,-0.00879088373668269,-0.03168173839957723,-0.05902964428518869,-0.0825356889126333,0.060051775033553974, ,0.04149721144733001, ,0.10147219781808159, ,0.0009942015614405764, ,0.2102591252336365,-0.21760344419702402,0.10559189453000001,1.6917784640331426,0.5427201770683294,-1.2942161369278282, ,0.20277124264630508,0.16221699411704404,0.033185024,-0.10381685244995091,0.1458919288399993,-0.11695073463647178, ,1.2393290996551514
0.015339647751591308,0.02166485652014719,-0.09422944274540028, ,0.01644631101855362,0.020977099307432384,-0.09513050256683515, ,0.0015841787689175673, ,0.026267244668597523,-0.010038899507619043,-0.030228359680339965,-0.1543616847123665,-0.186014686813669,0.013776055522111702, ,0.04128560735617246, ,0.24172084762920867, ,0.0009989213791003924, ,0.21232109491105444,-0.21591988843044307,0.10591985590000001,1.6913590841461734,0.5434033595671567,-1.2946915477061696, ,0.20451927060015251,0.17222675418960212,0.031232963764705888,-0.053466888645786435,0.03064144414037992,-0.02418293103579889, ,1.2429120540618896
0.015603079250496862,0.02157258046547387,-0.09454465900427447, ,0.016517994861538873,0.02095691764115639,-0.09523239237882149, ,0.001299649369268794, ,0.026267244668597523,-0.010038899507619043,-0.030228359680339965,-0.1543616847123665,-0.186014686813669,0.013776055522111702, ,0.04128560735617246, ,0.24172084762920867, ,0.0010013081091810939, ,0.21232109491105444,-0.21591988843044307,0.10591985590000001,1.6913590841461734,0.5434033595671567,-1.2946915477061696, ,0.20451927060015251,0.17222675418960212,0.031232963764705888,-0.053466888645786435,0.03064144414037992,-0.02418293103579889, ,1.2459871768951416
0.015603079250496862,0.02157258046547387,-0.09454465900427447, ,0.01658985207625893,0.020936566997536713,-0.09533401438829256, ,0.0014146786431335713, ,0.026267244668597523,-0.010038899507619043,-0.030228359680339965,-0.1543616847123665,-0.186014686813669,0.013776055522111702, ,0.04128560735617246, ,0.24172084762920867, ,0.001004562995275208, ,0.21232109491105444,-0.21591988843044307,0.10591985590000001,1.6913590841461734,0.5434033595671567,-1.2946915477061696, ,0.20451927060015251,0.17222675418960212,0.031232963764705888,-0.053466888645786435,0.03064144414037992,-0.02418293103579889, ,1.2487192153930664
0.015603079250496862,0.02157258046547387,-0.09454465900427447, ,0.01666187927105684,0.020916053129560186,-0.09543537180678156, ,0.0015314878134969816, ,0.026267244668597523,-0.010038899507619043,-0.030228359680339965,-0.1543616847123665,-0.186014686813669,0.013776055522111702, ,0.04128560735617246, ,0.24172084762920867, ,0.0010086795954175657, ,0.21232109491105444,-0.21591988843044307,0.10591985590000001,1.6913590841461734,0.5434033595671567,-1.2946915477061696, ,0.20451927060015251,0.17222675418960212,0.031232963764705888,-0.053466888645786435,0.03064144414037992,-0.02418293103579889, ,1.2514450550079346
0.015854130940476482,0.021475429764056655,-0.09483880630362804, ,0.01673407307331584,0.02089538175825002,-0.09553646782419578, ,0.0012639167074878915, ,0.02545007273593579,-0.009640328127625022,-0.030711243481987203,-0.035241429254649397,-0.0552216405094734,-0.052438159437421285, ,0.04103440757318913, ,0.06550847728402014, ,0.0010106581776816767, ,0.21429811452685593,-0.21423633266386213,0.10622578034,1.6911493942026892,0.5442231785657493,-1.295196697648067, ,0.20233889458096116,0.1728541740591453,0.03211453935483872,0.007842058377025835,0.12333757321139682,-0.10668013701845322, ,1.2614030838012695
0.01614281854636671,0.021363330875327522,-0.09518441221356715, ,0.016806430129420683,0.02087455857272965,-0.09563730560886893, ,0.0009404207167317237, ,0.023683266222293265,-0.009456746438755373,-0.026774431171003497,0.04444520869259051,0.028058992273653785,-0.03806383407228288, ,0.03697563139006193, ,0.05256110599754215, ,0.0010101178895205233, ,0.21642958880014188,-0.21246010410279048,0.10655892687000001,1.6913590841461734,0.5465459990617618,-1.297172480751047, ,0.20062778342171414,0.16361541648012204,0.029388951143911442,-0.0031261978327307136,0.24411010600723065,-0.20539026412930678, ,1.2641921043395996
0.01614281854636671,0.021363330875327522,-0.09518441221356715, ,0.01687894710471852,0.020853589230285234,-0.09573788830761087, ,0.0010526431426601498, ,0.023683266222293265,-0.009456746438755373,-0.026774431171003497,0.04444520869259051,0.028058992273653785,-0.03806383407228288, ,0.03697563139006193, ,0.05256110599754215, ,0.0010104425097734974, ,0.21642958880014188,-0.21246010410279048,0.10655892687000001,1.6913590841461734,0.5465459990617618,-1.297172480751047, ,0.20062778342171414,0.16361541648012204,0.029388951143911442,-0.0031261978327307136,0.24411010600723065,-0.20539026412930678, ,1.2669730186462402
0.01614281854636671,0.021363330875327522,-0.09518441221356715, ,0.016951620683480082,0.02083247935642943,-0.09583821904575968, ,0.0011676590281144595, ,0.023683266222293265,-0.009456746438755373,-0.026774431171003497,0.04444520869259051,0.028058992273653785,-0.03806383407228288, ,0.03697563139006193, ,0.05256110599754215, ,0.0010116335440033533, ,0.21642958880014188,-0.21246010410279048,0.10655892687000001,1.6913590841461734,0.5465459990617618,-1.297172480751047, ,0.20062778342171414,0.16361541648012204,0.029388951143911442,-0.0031261978327307136,0.24411010600723065,-0.20539026412930678, ,1.2697360515594482
0.016354211814108933,0.02127656511318761,-0.09540359567816326, ,0.017024447568860956,0.020811234544963853,-0.09593830092723195, ,0.0009755297063919019, ,0.023247715598495852,-0.009977935674958006,-0.022469247129493573,-0.11618407245415237,-0.1354266766981991,0.008780464786335778, ,0.03383611306649158, ,0.1784351919503182, ,0.0010113620865777031, ,0.21840660841594337,-0.2108846665964487,0.10682466632000001,1.69073001431572,0.5479123640594162,-1.298286659788011, ,0.18979388311694156,0.15232253861712805,0.02363325151335312,-0.04194016552015986,0.06467588347392937,-0.03901305310915417, ,1.2734441757202148
0.016354211814108933,0.02127656511318761,-0.09540359567816326, ,0.017097424482862607,0.02078986035804238,-0.09603813703457385, ,0.001091736837645564, ,0.023247715598495852,-0.009977935674958006,-0.022469247129493573,-0.11618407245415237,-0.1354266766981991,0.008780464786335778, ,0.03383611306649158, ,0.1784351919503182, ,0.0010119618981528366, ,0.21840660841594337,-0.2108846665964487,0.10682466632000001,1.69073001431572,0.5479123640594162,-1.298286659788011, ,0.18979388311694156,0.15232253861712805,0.02363325151335312,-0.04194016552015986,0.06467588347392937,-0.03901305310915417, ,1.276186227798462
0.016354211814108933,0.02127656511318761,-0.09540359567816326, ,0.01717054816629334,0.02076836232623473,-0.09613773042901222, ,0.0012098053335014233, ,0.023247715598495852,-0.009977935674958006,-0.022469247129493573,-0.11618407245415237,-0.1354266766981991,0.008780464786335778, ,0.03383611306649158, ,0.1784351919503182, ,0.0010134274050813447, ,0.21840660841594337,-0.2108846665964487,0.10682466632000001,1.69073001431572,0.5479123640594162,-1.298286659788011, ,0.18979388311694156,0.15232253861712805,0.02363325151335312,-0.04194016552015986,0.06467588347392937,-0.03901305310915417, ,1.2789242267608643
0.016354211814108933,0.02127656511318761,-0.09540359567816326, ,0.017243815378729557,0.020746745948588854,-0.09623708415050522, ,0.0013292125047895031, ,0.023247715598495852,-0.009977935674958006,-0.022469247129493573,-0.11618407245415237,-0.1354266766981991,0.008780464786335778, ,0.03383611306649158, ,0.1784351919503182, ,0.0010157493543439047, ,0.21840660841594337,-0.2108846665964487,0.10682466632000001,1.69073001431572,0.5479123640594162,-1.298286659788011, ,0.18979388311694156,0.15232253861712805,0.02363325151335312,-0.04194016552015986,0.06467588347392937,-0.03901305310915417, ,1.2816600799560547
0.016585174975007055,0.021170246871808747,-0.09562567940572582, ,0.017317222898476894,0.020725016692694404,-0.09633620121779363, ,0.0011130881906097165, ,0.022993529643236428,-0.01067345636519532,-0.023413857074994014,-0.14435819956551557,-0.1548156439368463,0.032231886391582205, ,0.034508459533313975, ,0.21167703312533928, ,0.0010164598567983995, ,0.22028323250437992,-0.2093169518229811,0.10705670223000001,1.6901009444852664,0.5484589100584779,-1.298732331402797, ,0.18249411838167456,0.15895635101921404,0.024318796213740463,-0.0681939050744913,0.04287019308542558,-0.02363732989724089, ,1.2844090461730957
0.016585174975007055,0.021170246871808747,-0.09562567940572582, ,0.017390767522531433,0.020703179994745993,-0.09643508462845192, ,0.0012338021052228183, ,0.022993529643236428,-0.01067345636519532,-0.023413857074994014,-0.14435819956551557,-0.1548156439368463,0.032231886391582205, ,0.034508459533313975, ,0.21167703312533928, ,0.001018034800627562, ,0.22028323250437992,-0.2093169518229811,0.10705670223000001,1.6901009444852664,0.5484589100584779,-1.298732331402797, ,0.18249411838167456,0.15895635101921404,0.024318796213740463,-0.0681939050744913,0.04287019308542558,-0.02363732989724089, ,1.2872040271759033
0.016585174975007055,0.021170246871808747,-0.09562567940572582, ,0.017464446066540365,0.020681241259606038,-0.09653373735893858, ,0.0013552908866973452, ,0.022993529643236428,-0.01067345636519532,-0.023413857074994014,-0.14435819956551557,-0.1548156439368463,0.032231886391582205, ,0.034508459533313975, ,0.21167703312533928, ,0.0010204611034050424, ,0.22028323250437992,-0.2093169518229811,0.10705670223000001,1.6901009444852664,0.5484589100584779,-1.298732331402797, ,0.18249411838167456,0.15895635101921404,0.024318796213740463,-0.0681939050744913,0.04287019308542558,-0.02363732989724089, ,1.2899842262268066
0.016585174975007055,0.021170246871808747,-0.09562567940572582, ,0.01753825536476368,0.020659205860867683,-0.09663216236464753, ,0.0014773398697666368, ,0.022993529643236428,-0.01067345636519532,-0.023413857074994014,-0.14435819956551557,-0.1548156439368463,0.032231886391582205, ,0.034508459533313975, ,0.21167703312533928, ,0.0010237245231647682, ,0.22028323250437992,-0.2093169518229811,0.10705670223000001,1.6901009444852664,0.5484589100584779,-1.298732331402797, ,0.18249411838167456,0.15895635101921404,0.024318796213740463,-0.0681939050744913,0.04287019308542558,-0.02363732989724089, ,1.295483112335205
0.016765047200557597,0.02109429448202004,-0.0958273550667694, ,0.01761219227003506,0.020637079140918762,-0.09673036257995923, ,0.001319895149531062, ,0.022214482899678617,-0.00912440758873007,-0.027049314204610007,-0.014375504295971326,-0.024351845066407907,0.0019658239628095606, ,0.03617186010264201, ,0.028278136456940193, ,0.001025825024060983, ,0.22171193808611145,-0.2080813145631052,0.10726929379000001,1.6901009444852664,0.5494153655568361,-1.2993488992483908, ,0.17508660804145898,0.15232253861712805,0.02859750721723519,-0.04734581481245062,0.16398861695591446,-0.14078562756356394, ,1.298584222793579
0.016765047200557597,0.02109429448202004,-0.0958273550667694, ,0.017686253653722728,0.02061486641100369,-0.09682834091829101, ,0.001442374874842872, ,0.022214482899678617,-0.00912440758873007,-0.027049314204610007,-0.014375504295971326,-0.024351845066407907,0.0019658239628095606, ,0.03617186010264201, ,0.028278136456940193, ,0.0010287584737143766, ,0.22171193808611145,-0.2080813145631052,0.10726929379000001,1.6901009444852664,0.5494153655568361,-1.2993488992483908, ,0.17508660804145898,0.15232253861712805,0.02859750721723519,-0.04734581481245062,0.16398861695591446,-0.14078562756356394, ,1.3015761375427246
0.016765047200557597,0.02109429448202004,-0.0958273550667694, ,0.017760436405691055,0.020592572951287597,-0.09692610027214879, ,0.0015651725752903183, ,0.022214482899678617,-0.00912440758873007,-0.027049314204610007,-0.014375504295971326,-0.024351845066407907,0.0019658239628095606, ,0.03617186010264201, ,0.028278136456940193, ,0.0010325096212778447, ,0.22171193808611145,-0.2080813145631052,0.10726929379000001,1.6901009444852664,0.5494153655568361,-1.2993488992483908, ,0.17508660804145898,0.15232253861712805,0.02859750721723519,-0.04734581481245062,0.16398861695591446,-0.14078562756356394, ,1.304382085800171
0.017091142927930698,0.02098740031948008,-0.09626586964195481, ,0.017834737434261252,0.02057020401091897,-0.09702364351317737, ,0.0011407045146003489, ,0.021726301666538186,-0.00583000302426312,-0.030646150112664104,0.043703637544710024,0.027471819944884124,-0.014113651505618033, ,0.03801588662778075, ,0.05162055592139285, ,0.0010332609747036954, ,0.22422954900310865,-0.20599617668706457,0.10773855077000001,1.6901009444852664,0.5525580050514411,-1.3019931897735488, ,0.1630531641898123,0.12720769645907612,0.03291076760330579,-0.026760033451489862,0.20024120953483288,-0.16902111661985855, ,1.307115077972412
0.017091142927930698,0.02098740031948008,-0.09626586964195481, ,0.01790915366617276,0.02054776480809283,-0.09712097349221176, ,0.001262388032847391, ,0.021726301666538186,-0.00583000302426312,-0.030646150112664104,0.043703637544710024,0.027471819944884124,-0.014113651505618033, ,0.03801588662778075, ,0.05162055592139285, ,0.001034841161311583, ,0.22422954900310865,-0.20599617668706457,0.10773855077000001,1.6901009444852664,0.5525580050514411,-1.3019931897735488, ,0.1630531641898123,0.12720769645907612,0.03291076760330579,-0.026760033451489862,0.20024120953483288,-0.16902111661985855, ,1.309892177581787
0.017091142927930698,0.02098740031948008,-0.09626586964195481, ,0.017983682046544183,0.02052526053011364,-0.09721809303932796, ,0.0013845319287310997, ,0.021726301666538186,-0.00583000302426312,-0.030646150112664104,0.043703637544710024,0.027471819944884124,-0.014113651505618033, ,0.03801588662778075, ,0.05162055592139285, ,0.0010372363035541824, ,0.22422954900310865,-0.20599617668706457,0.10773855077000001,1.6901009444852664,0.5525580050514411,-1.3019931897735488, ,0.1630531641898123,0.12720769645907612,0.03291076760330579,-0.026760033451489862,0.20024120953483288,-0.16902111661985855, ,1.3126251697540283
0.017091142927930698,0.02098740031948008,-0.09626586964195481, ,0.018058319538834588,0.02050269633345903,-0.09731500496389456, ,0.0015070014845665694, ,0.021726301666538186,-0.00583000302426312,-0.030646150112664104,0.043703637544710024,0.027471819944884124,-0.014113651505618033, ,0.03801588662778075, ,0.05162055592139285, ,0.001040431985057668, ,0.22589765930394112,-0.20466786663269795,0.10808725278,1.6894718746548125,0.554061006548861,-1.30330046545435, ,0.1659037439833405,0.1347967919864642,0.03563492510067114,-0.024130494689764782,0.09540335838476666,-0.07516508922769247, ,1.3153412342071533
0.017321287917842026,0.02092550332879187,-0.09659318782405009, ,0.01813306312480448,0.02048007734384224,-0.09741171205462228, ,0.0012358661783304359, ,0.02364531768207573,-0.006089546569385831,-0.033616803386665846,-0.05909248600498774,-0.07742526159711216,-0.010892013004457548, ,0.04154844275836039, ,0.09739892249679677, ,0.001041752486363565, ,0.22589765930394112,-0.20466786663269795,0.10808725278,1.6894718746548125,0.554061006548861,-1.30330046545435, ,0.1659037439833405,0.1347967919864642,0.03563492510067114,-0.024130494689764782,0.09540335838476666,-0.07516508922769247, ,1.3187620639801025
0.017321287917842026,0.02092550332879187,-0.09659318782405009, ,0.018207909804476983,0.020457408656275388,-0.09750821707961631, ,0.0013573833396798827, ,0.02364531768207573,-0.006089546569385831,-0.033616803386665846,-0.05909248600498774,-0.07742526159711216,-0.010892013004457548, ,0.04154844275836039, ,0.09739892249679677, ,0.0010438708142381712, ,0.22589765930394112,-0.20466786663269795,0.10808725278,1.6894718746548125,0.554061006548861,-1.30330046545435, ,0.1659037439833405,0.1347967919864642,0.03563492510067114,-0.024130494689764782,0.09540335838476666,-0.07516508922769247, ,1.3214530944824219
0.017321287917842026,0.02092550332879187,-0.09659318782405009, ,0.01828285659609887,0.020434695335132876,-0.09760452278642665, ,0.001479292133342623, ,0.02364531768207573,-0.006089546569385831,-0.033616803386665846,-0.05909248600498774,-0.07742526159711216,-0.010892013004457548, ,0.04154844275836039, ,0.09739892249679677, ,0.0010467736230322009, ,0.22589765930394112,-0.20466786663269795,0.10808725278,1.6894718746548125,0.554061006548861,-1.30330046545435, ,0.1659037439833405,0.1347967919864642,0.03563492510067114,-0.024130494689764782,0.09540335838476666,-0.07516508922769247, ,1.3242230415344238
0.01756898168884169,0.020866912610586274,-0.09696704456902645, ,0.01835790053610189,0.02041194241421425,-0.09770063190209914, ,0.001169419173091437, ,0.024225322566022896,-0.004682348356119584,-0.039072727416906775,-0.030695937029690985,-0.0580723846424211,0.06898426639385496, ,0.04621113142254593, ,0.06568524445865082, ,0.0010475858452180236, ,0.2274576513445345,-0.20340906117419935,0.10845151027000001,1.6882137349939055,0.5548808255474537,-1.3038872941363882, ,0.1619401733079706,0.12823911021414972,0.04105363793814434,-0.1129536508673758,0.11522209283876335,-0.10551687395269926, ,1.3270041942596436
0.01756898168884169,0.020866912610586274,-0.09696704456902645, ,0.018433038679063606,0.020389154896807173,-0.0977965471332263, ,0.0012895431049177518, ,0.024225322566022896,-0.004682348356119584,-0.039072727416906775,-0.030695937029690985,-0.0580723846424211,0.06898426639385496, ,0.04621113142254593, ,0.06568524445865082, ,0.0010491776692949956, ,0.2274576513445345,-0.20340906117419935,0.10845151027000001,1.6882137349939055,0.5548808255474537,-1.3038872941363882, ,0.1619401733079706,0.12823911021414972,0.04105363793814434,-0.1129536508673758,0.11522209283876335,-0.10551687395269926, ,1.3297910690307617
0.01756898168884169,0.020866912610586274,-0.09696704456902645, ,0.018508268097668742,0.020366337755751158,-0.09789227116599872, ,0.0014102760009463739, ,0.024225322566022896,-0.004682348356119584,-0.039072727416906775,-0.030695937029690985,-0.0580723846424211,0.06898426639385496, ,0.04621113142254593, ,0.06568524445865082, ,0.0010515377891097105, ,0.2274576513445345,-0.20340906117419935,0.10845151027000001,1.6882137349939055,0.5548808255474537,-1.3038872941363882, ,0.1619401733079706,0.12823911021414972,0.04105363793814434,-0.1129536508673758,0.11522209283876335,-0.10551687395269926, ,1.3326661586761475
0.01756898168884169,0.020866912610586274,-0.09696704456902645, ,0.01858358588267025,0.020343495933499635,-0.09798780666625552, ,0.001531450928736015, ,0.024225322566022896,-0.004682348356119584,-0.039072727416906775,-0.030695937029690985,-0.0580723846424211,0.06898426639385496, ,0.04621113142254593, ,0.06568524445865082, ,0.001054654108198193, ,0.2291025934467443,-0.20212708751707809,0.10888576742000002,1.6880040450504212,0.5567937365441699,-1.3056921810085595, ,0.15949065808146348,0.12073402233902134,0.04073864838874681,-0.0422342904894092,0.20987366363971652,-0.18345401135199715, ,1.3356361389160156
0.01779647885077768,0.020829650863894617,-0.09734378971449127, ,0.018658989142850343,0.02032063434218414,-0.09808315627953526, ,0.0012448633422229344, ,0.023344938840309408,-0.003969486259505758,-0.037887734183005464,0.06045634839142283,0.037842024927593074,-0.0017274120441836452, ,0.044679115838882406, ,0.07132258295820265, ,0.0010558812645467396, ,0.2291025934467443,-0.20212708751707809,0.10888576742000002,1.6880040450504212,0.5567937365441699,-1.3056921810085595, ,0.15949065808146348,0.12073402233902134,0.04073864838874681,-0.0422342904894092,0.20987366363971652,-0.18345401135199715, ,1.33943510055542
0.01779647885077768,0.020829650863894617,-0.09734378971449127, ,0.018734475004981623,0.020297757863676776,-0.0981783226311277, ,0.0013635219609275965, ,0.023344938840309408,-0.003969486259505758,-0.037887734183005464,0.06045634839142283,0.037842024927593074,-0.0017274120441836452, ,0.044679115838882406, ,0.07132258295820265, ,0.0010578533202927707, ,0.2291025934467443,-0.20212708751707809,0.10888576742000002,1.6880040450504212,0.5567937365441699,-1.3056921810085595, ,0.15949065808146348,0.12073402233902134,0.04073864838874681,-0.0422342904894092,0.20987366363971652,-0.18345401135199715, ,1.3422210216522217
0.01779647885077768,0.020829650863894617,-0.09734378971449127, ,0.018810040613788385,0.020274871349653438,-0.09827330832612374, ,0.0014829337834948015, ,0.023344938840309408,-0.003969486259505758,-0.037887734183005464,0.06045634839142283,0.037842024927593074,-0.0017274120441836452, ,0.044679115838882406, ,0.07132258295820265, ,0.001060560839166669, ,0.2291025934467443,-0.20212708751707809,0.10888576742000002,1.6880040450504212,0.5567937365441699,-1.3056921810085595, ,0.15949065808146348,0.12073402233902134,0.04073864838874681,-0.0422342904894092,0.20987366363971652,-0.18345401135199715, ,1.3450250625610352
0.018026986515751398,0.020787989304366726,-0.09770656661750048, ,0.01888568313190749,0.020251979621656948,-0.09836811594946693, ,0.001209261666134264, ,0.02176024956596514,-0.004217246944785607,-0.033798705512643974,0.07858118209481413,0.05373327811222717,-0.019023860085108396, ,0.04041838847971081, ,0.09519571024911717, ,0.0010615019836411476, ,0.23072436735033144,-0.20091461845582484,0.10927854329000002,1.6880040450504212,0.5592531935399478,-1.3078610607553762, ,0.15232253861712805,0.11460983280008549,0.036533971376146786,-0.024966802107488303,0.21513249752091937,-0.1919617226261513, ,1.347750186920166
0.018026986515751398,0.020787989304366726,-0.09770656661750048, ,0.01896139973984964,0.020229087471160447,-0.09846274806600466, ,0.001325635589290247, ,0.02176024956596514,-0.004217246944785607,-0.033798705512643974,0.07858118209481413,0.05373327811222717,-0.019023860085108396, ,0.04041838847971081, ,0.09519571024911717, ,0.0010631632012867392, ,0.23072436735033144,-0.20091461845582484,0.10927854329000002,1.6880040450504212,0.5592531935399478,-1.3078610607553762, ,0.15232253861712805,0.11460983280008549,0.036533971376146786,-0.024966802107488303,0.21513249752091937,-0.1919617226261513, ,1.3505501747131348
0.018026986515751398,0.020787989304366726,-0.09770656661750048, ,0.01903718763596042,0.02020619965963,-0.09855720722053811, ,0.0014431129302763094, ,0.02176024956596514,-0.004217246944785607,-0.033798705512643974,0.07858118209481413,0.05373327811222717,-0.019023860085108396, ,0.04041838847971081, ,0.09519571024911717, ,0.001065537887092924, ,0.23072436735033144,-0.20091461845582484,0.10927854329000002,1.6880040450504212,0.5592531935399478,-1.3078610607553762, ,0.15232253861712805,0.11460983280008549,0.036533971376146786,-0.024966802107488303,0.21513249752091937,-0.1919617226261513, ,1.353295087814331
0.018245435809557568,0.020743915864494453,-0.0980438640075947, ,0.01911304403638149,0.020183320918587978,-0.09865149593787467, ,0.0011984270070906301, ,0.021907644903092743,-0.004628784095719905,-0.03296499424820489,0.021623877226917946,-0.007040432692407622,-0.03959722263460707, ,0.03985048799185496, ,0.022740290907517374, ,0.0010663632853537793, ,0.23222257752793102,-0.19975620852469117,0.10964150449000001,1.6877943551069365,0.5610294680368985,-1.30930949350343, ,0.14897479051565274,0.1168681546286586,0.03539735893333334,0.0,0.144620649197595,-0.13308823600553232, ,1.3560791015625
0.018245435809557568,0.020743915864494453,-0.0980438640075947, ,0.01918896617501168,0.02016045594967601,-0.09874561672287746, ,0.0013126811860237238, ,0.021907644903092743,-0.004628784095719905,-0.03296499424820489,0.021623877226917946,-0.007040432692407622,-0.03959722263460707, ,0.03985048799185496, ,0.022740290907517374, ,0.0010678837662221124, ,0.23222257752793102,-0.19975620852469117,0.10964150449000001,1.6877943551069365,0.5610294680368985,-1.30930949350343, ,0.14897479051565274,0.1168681546286586,0.03539735893333334,0.0,0.144620649197595,-0.13308823600553232, ,1.3588221073150635
