NicholasDascanio/dvrk_moveit_final/test/execution/third_experiment_notsharpbends/thirdexp_400vel5.0/thirdexp_400vel5.0_3.csv
Current Position (x),Current Position (y),Current Position (z), ,Planned Position (x),Planned Position (y),Planned Position (z), ,Position Error,,Cartesian linear Velocity(x),Cartesian linear Velocity(y),Cartesian linear Velocity(z),Cartesian Angular Velocity(x),Cartesian Angular Velocity(y),Cartesian Angular Velocity(z), ,Total Linear Velocity, ,Total Angular Velocity, ,MSE, ,Joint 1 Position,Joint 2 Position,Joint 3 Position,Joint 4 Position,Joint 5 Position,Joint 6 Position, ,Joint 1 Velocity,Joint 2 Velocity,Joint 3 Velocity,Joint 4 Velocity,Joint 5 Velocity,Joint 6 Velocity, ,Time Stamp
0.009980438007750343,0.02035409351015565,-0.07945373486195337, ,0.010041585332657066,0.020260090421941365,-0.07951824066410508, ,0.00012936991322678876, ,7.144165068735374e-05,9.285038698828206e-05,-0.00047718237675896364,0.08172140845872536,-0.0046020466174223566,-0.17785743388898514, ,0.0004913533601250134, ,0.0818508853559125, ,1.0780826102232397e-05, ,0.20593439482407078,-0.1793836392024869,0.09505176054000002,2.2998793001382634,1.267850081323522,-1.2490702086694756, ,-0.0003454494115636373,-6.198084314303304e-05,0.0004931056252783853,-1.2534748438963163e-05,0.0,-0.1957943151819026, ,0.028898000717163086
0.009997286858962482,0.020366009733722854,-0.07949543804205901, ,0.010078239182277243,0.0202961754755282,-0.0796360934847762, ,0.0001766750005904139, ,0.0009085449692727563,0.00025996950602805657,-0.0016963014052317838,-0.06082179974247126,-0.11114526629064751,-0.13666102196912533, ,0.0019417715011418389, ,0.12669870379257311, ,1.3911132446236485e-05, ,0.205942117556945,-0.17939136193536115,0.09508676037000001,2.3007180599122012,1.266620352825633,-1.2558269278495615, ,0.0006117551508566776,-0.0001395126867230028,0.0005088513926261452,0.03066570605062861,-0.15561256031464213,-0.07231954792243261, ,0.05658602714538574
0.010012550280849578,0.020373662300642498,-0.07954750063827147, ,0.010115481518471284,0.020331328205841083,-0.07975453822401468, ,0.00023505654037139388, ,0.0007196072885759982,0.0005564258383504197,-0.0021795627187177796,0.03753728703689102,-0.014495699712250305,-0.12666518977388572, ,0.002361765866503305, ,0.040238951628844576, ,1.6909420443393642e-05, ,0.20595756302269344,-0.17939908466823537,0.09512824165000001,2.3007180599122012,1.2651173513282132,-1.2571333718532582, ,0.0009529645135883742,-0.00025989533646839807,0.002161890814332248,0.024349529321538766,-0.02038432645339579,-0.10778209248411175, ,0.08402800559997559
0.010045560538185424,0.020399014582758564,-0.07966234266258705, ,0.010153306638724522,0.02036555822674659,-0.0798735659213303, ,0.00023946568642103518, ,0.0017340442306450349,0.0012533526148077348,-0.00671239149534626,-0.11691729447073665,-0.05634051541820494,0.10440706407124464, ,0.007045140293682982, ,0.12978407995713254, ,1.8584931919276947e-05, ,0.20596528575556766,-0.1794145301339838,0.09523583372000001,2.3015568196861396,1.2634777133310278,-1.2584100766933992, ,0.0005680486127343323,-0.0005311497419697678,0.0062860345382794005,0.01755493917857802,-0.08659435633677698,0.15904704639150408, ,0.11324501037597656
0.010076037038220548,0.020428403613083623,-0.07979118014490835, ,0.01019170886866829,0.02039887511035314,-0.0799931676587473, ,0.00023462919805402157, ,0.0007474191643071148,0.0007773738164172886,-0.004412603757373526,0.026692032688911353,0.025800785971894915,0.024228252611198417, ,0.004542468203214161, ,0.03712337759634114, ,1.952300651276256e-05, ,0.20598073122131613,-0.1794145301339838,0.09540046255000001,2.3019761995731085,1.2642975323296204,-1.2549129683684088, ,0.0005843531085913496,-0.0004745851635166557,0.0048065212794206405,0.001721380371051553,0.03112168795648699,-0.0018968688311817028, ,0.1429741382598877
0.010104340527025947,0.020455567230226644,-0.07992039385936787, ,0.01023068256202277,0.020431288387085276,-0.08011333456072608, ,0.00023190059566982496, ,0.000854940471597959,0.000795289960753842,-0.00360724722881431,0.01340274924379177,-0.0028076009005840088,-0.04541401820802641, ,0.0037915223725359325, ,0.0136936594633483, ,2.0444212038253742e-05, ,0.20598845395419035,-0.17942997559973226,0.09551453607,2.3023955794600774,1.2644341688293859,-1.255269422492527, ,3.41085792561881e-05,-0.00046897182472404746,0.0037382801032621454,0.014482691251110246,-0.006052598435461577,-0.03299631326514689, ,0.16784310340881348
0.010139424731902253,0.0204879962840915,-0.08006302474274482, ,0.010270222100539893,0.020462807545758407,-0.08023405779408753, ,0.00021678267650562262, ,0.001322653897692529,0.001254884739022243,-0.005067930483106403,0.013774236087781624,0.0058136724356606636,-0.04792637854275539, ,0.005385913889295972, ,0.014950864979925958, ,2.0912565869130012e-05, ,0.2060038994199388,-0.17945314379835492,0.09566360942,2.3030246492905313,1.2642975323296204,-1.2548312896282683, ,0.0005045903788442056,-0.0007205773215730235,0.00537228044519393,0.03748783194924128,0.0,-0.013186433710560774, ,0.19617891311645508
0.01016724026275239,0.020511092463927648,-0.08016889619212643, ,0.01031032189394615,0.02049344203365254,-0.08035532856793527, ,0.00023567121509359857, ,0.0012876258098811503,0.001083883967572925,-0.0052681867582263925,0.004146207534540756,-0.0024646588804699936,-0.00613719629212602, ,0.0055305132131643646, ,0.004823440292842895, ,2.15133015940848e-05, ,0.20608884948155526,-0.1794763119969776,0.09580879390000001,2.3032343392340158,1.2642975323296204,-1.2547496108881278, ,0.0037832151081579504,-0.0012238256493794387,0.004215086403810532,0.0,0.0,0.004027215670622512, ,0.22575712203979492
0.010212494429947743,0.02054508098180814,-0.08029792139441481, ,0.010350976379885503,0.020523201256587447,-0.0804771381335789, ,0.0002275403534121048, ,0.0010742692531997755,0.0006221819195930189,-0.003900977991105228,-0.008758802935054906,-0.00806226976020742,0.03093797760828555, ,0.004093750609957357, ,0.01190448745801799, ,2.18987634016455e-05, ,0.2061892450089202,-0.17949175746272605,0.09591379339000002,2.3044924788949226,1.2642975323296204,-1.2544228959275654, ,0.00464624258617549,-0.0003844524944583794,0.004057262231278656,-0.021008261116561042,0.0,0.011707789399640884, ,0.249953031539917
0.010234336402072799,0.020561995285945416,-0.08037797197589766, ,0.010392180023862115,0.02055209457899651,-0.0805994777844566, ,0.0002721717401990992, ,0.001207890843551168,0.0009528583132257448,-0.004544502427707009,-0.004278363375201037,-0.0027368610884661846,0.012140349949156424, ,0.0047978580189969216, ,0.005078858124566402, ,2.2672813603545395e-05, ,0.206251026871914,-0.17951492566134872,0.09599805224,2.3044924788949226,1.2642975323296204,-1.2542595384472843, ,0.003637036474072221,0.0012009588325602345,0.00485338559414991,-0.013021231513257816,0.0,0.01507658442558192, ,0.27592992782592773
0.010278470468227701,0.02059263413838317,-0.08052392323512483, ,0.010433927319183297,0.020580131324001265,-0.08072233885605822, ,0.0002523725648854846, ,0.001570181712590415,0.0012479248151542036,-0.004830291146407305,0.0033527178021669117,0.003977443144445021,-0.027200599183764013, ,0.005230152914962604, ,0.005201996539675875, ,2.312863664556026e-05, ,0.20636686786502734,-0.1795072029284745,0.09615101446,2.305121548725376,1.264160895829855,-1.2537397268428851, ,0.0037930066604722943,-0.0007756663059625937,0.005171692051948053,0.04131172582898637,0.0,0.013691395743133696, ,0.30015110969543457
0.01030972500449546,0.020616841498993715,-0.08062772232895832, ,0.010476212786902191,0.020607320773485475,-0.08084571272584806, ,0.0002744606329531845, ,0.001171123142913876,0.0008212716209849446,-0.004971241549666016,-0.007816612593104861,-0.007501489256723937,0.03155450619909937, ,0.005172935243788529, ,0.010833825292262768, ,2.391312383668923e-05, ,0.20645181792664383,-0.1795303711270972,0.09626119911000001,2.3055409286123454,1.264160895829855,-1.253576369362604, ,0.003340190405397254,-0.0007068833819291936,0.005153287453898416,-0.024666879685257572,0.0,0.008434222779632084, ,0.3227660655975342
0.010337429698623196,0.020636741601586187,-0.08073843877407237, ,0.01051903097576077,0.020633672168170067,-0.08096959081318796, ,0.00029397229540687375, ,0.0015032011021936433,0.0011311946555803887,-0.0059476910693961335,-0.00030058408790979425,-0.0029497636092269274,0.0009540378115628712, ,0.006238128241662266, ,0.0029650377234239295, ,2.475465912122497e-05, ,0.20652132252251185,-0.1795380938599714,0.09637656892000002,2.305331238668861,1.264160895829855,-1.253413011882323, ,0.003069764562844973,-0.00022900330301122852,0.006214908903628561,0.0004360314257910381,0.0,0.0014622101038682972, ,0.34553098678588867
0.010378658963222908,0.020669934953634166,-0.0808748661725779, ,0.01056237646213257,0.02065919470768717,-0.08109396457926044, ,0.0002861321095218943, ,0.002020069984001047,0.0016873676005720174,-0.006511896656329953,0.0023956481355415235,0.007784090755310066,-0.03471181243395318, ,0.007023723387381039, ,0.008144396059054974, ,2.5432311710087236e-05, ,0.2065985498512541,-0.17954581659284563,0.09652175340000001,2.3063796883862833,1.264160895829855,-1.252841260701339, ,0.0036105921941636814,-0.0008112445422796782,0.006961893146853148,0.05974555462279169,0.0,0.024964112469137944, ,0.3675229549407959
0.010417278047498639,0.020697984540888316,-0.08101025725121533, ,0.010606243849965412,0.020683897550654168,-0.08121882552699075, ,0.0002817929088101777, ,0.0015037523662248622,0.0009216712300291903,-0.005701932593348017,-0.012645942585440969,-0.007998631817832159,0.037294632368333525, ,0.005968482582220948, ,0.014963220535846509, ,2.5999952399431292e-05, ,0.2067066681114932,-0.17956126205859407,0.09666434530000001,2.3065893783297677,1.264160895829855,-1.2525962244809175, ,0.005100281096167136,0.0001598542600921894,0.005925897142857144,-0.01954678428835663,0.0,0.020389509812818146, ,0.391787052154541
0.01046063631735502,0.02072587337716701,-0.08114373401946229, ,0.010650627770724392,0.02070778981474843,-0.08134416520097028, ,0.0002767605934807951, ,0.0017468143463763893,0.0011576611845200966,-0.005405111640091809,0.00012539347972594572,-0.00125072513487957,-0.012774583300549208, ,0.005797134776827844, ,0.0012569933469806418, ,2.647091797672817e-05, ,0.20686112276897772,-0.17956126205859407,0.09680564091,2.307008758216737,1.264160895829855,-1.2524328670006364, ,0.005694686918253385,0.0001450165778397742,0.005727727982740022,0.023162086966928775,0.0,0.010533176254386468, ,0.4135549068450928
0.010486300349879237,0.020741450323624594,-0.08122630357007318, ,0.010695522883334599,0.020730880576781647,-0.0814699751873802, ,0.0003213435002218324, ,0.001721256532658818,0.0012633530440475265,-0.005083759213259339,0.00432859023206675,0.0020897109204677192,-0.02827695221613723, ,0.005513927157981326, ,0.004806618534125683, ,2.7360114541334285e-05, ,0.20694607283059419,-0.17954581659284563,0.09689249234000001,2.3072184481602216,1.264160895829855,-1.2520244732999333, ,0.005083888317522608,-0.0005850838572380633,0.005440167868852459,0.03858895461649482,0.0,0.009654357165246054, ,0.43402099609375
0.010538781783936175,0.020776807294428982,-0.08141167384086484, ,0.010740923874123906,0.020753178872774305,-0.08159624711391253, ,0.00027474901284425547, ,0.0022747816664852732,0.001500850688101757,-0.007425248124547405,-0.0029947880366276666,-0.0022713523548873395,-0.006902110169315362, ,0.007909582424455023, ,0.0037586931682660413, ,2.7880290860427507e-05, ,0.2071082502209529,-0.17955353932571985,0.09708693584000001,2.3072184481602216,1.264160895829855,-1.2516977583393711, ,0.006898495577946611,0.0005373959341791769,0.007831274100294987,0.02311973359782718,0.0,0.017048529828348057, ,0.4528179168701172
0.010587169430404426,0.02081052130813844,-0.0815537254383197, ,0.010786825456765734,0.020774693698029124,-0.08172297264969464, ,0.0002641794183253631, ,0.00247433255986056,0.0016227310287190726,-0.006770125340503208,0.004455712864587082,0.00369014678612935,-0.04462527064013288, ,0.0073885164095694785, ,0.005785373472134586, ,2.8293568598765055e-05, ,0.20725498214556318,-0.17955353932571985,0.09723860177000002,2.308266897877644,1.264160895829855,-1.25153440085909, ,0.008066062150073003,0.0008551634355284574,0.007253557158469946,0.06289863503818634,0.0,0.017757066798857198, ,0.47251296043395996
0.010609686165245179,0.020824579054668738,-0.08162098580730573, ,0.010833222372222007,0.020795434007206834,-0.08185014350521119, ,0.0003214515828713174, ,0.002081648571662206,0.00117244406128718,-0.00638169025986367,-0.009390067909742584,-0.009278284150439974,0.0225892260450639, ,0.006814239240413395, ,0.013200754582264673, ,2.9002744476236102e-05, ,0.20733993220717964,-0.17955353932571985,0.09730989772000001,2.308476587821129,1.264160895829855,-1.2512893646386685, ,0.008762206227008261,0.0007361610532538248,0.007066908393966283,0.05621487983124489,0.0,0.01653725666921824, ,0.49135804176330566
0.010668718128845617,0.02085753538951911,-0.08180460089685945, ,0.010880109388685808,0.020815408714399342,-0.0819777514322277, ,0.00027648151726974475, ,0.0017445243126561728,0.0009713879002120749,-0.00516381140174283,-0.007888175635980708,-0.006436070466529296,0.014772445250940501, ,0.005536416505547263, ,0.010180683387800638, ,2.940861356980567e-05, ,0.20757933692628058,-0.1795380938599714,0.09750174864000001,2.308476587821129,1.2640242593300897,-1.2507695530342688, ,0.007731065823964255,0.00026625989469226323,0.005442026484455074,0.0031390077210032255,0.0,0.019724040276229753, ,0.5118439197540283
0.01068749075203948,0.02086881386873129,-0.08185695544793342, ,0.010927481301524163,0.02083462669320462,-0.08210578822371262, ,0.0003473931161010973, ,0.001870069840980832,0.0010373248706658368,-0.005518119175436562,-0.0060563189254298055,-0.007199670930818071,0.010887846367241823, ,0.005918010082094204, ,0.009408201492436975, ,3.0161447724659167e-05, ,0.20765656425502285,-0.1795380938599714,0.09755748911,2.3086862777646133,1.2640242593300897,-1.2506061955539878, ,0.008195312408455691,0.00026625989469226323,0.005824062712979892,0.003037752889974186,0.0,0.015284809037456644, ,0.5308189392089844
0.010736084031697742,0.020898241780264892,-0.08198663349666363, ,0.01097533293322092,0.020853096776800924,-0.08223424571376081, ,0.0003472605913051336, ,0.0027089230094487693,0.001621265583052557,-0.007085278649068546,-0.0037607652083537137,-0.0013960901083525613,-0.018359710499617553, ,0.007756799565339969, ,0.004011533956852814, ,3.1018622492479675e-05, ,0.20784963257687844,-0.1795303711270972,0.09769619214000001,2.309525037538551,1.2640242593300897,-1.2502794805934256, ,0.010983270254236666,0.00048126991720558426,0.007588762039066222,0.04845869840151587,0.0,0.03129563100494471, ,0.5481960773468018
0.010745400676702202,0.02090396305560801,-0.08200944291354145, ,0.011023659133319463,0.020870827758020825,-0.08236311577751573, ,0.00045123188200412145, ,0.0022728384116656704,0.0011023058589680963,-0.0075215714861821235,-0.020823762894816758,-0.017447505618099796,0.065295326462922, ,0.007934413039034853, ,0.02716697497550042, ,3.2344223227725896e-05, ,0.20788824624124957,-0.1795303711270972,0.09772082165000001,2.3097347274820357,1.2640242593300897,-1.250197801853285, ,0.011030680176504798,0.00046425321836295627,0.007827425808353808,-0.04075840442312817,0.0,0.028824613793093257, ,0.5651369094848633
0.010816701271990413,0.02094389916023641,-0.08223272140270521, ,0.011072454778365506,0.020887828389426214,-0.08249239033109305, ,0.000368757019909446, ,0.002888336223221947,0.0016192299925083576,-0.008950519995263896,-0.01192955246209124,-0.011006123359104145,0.024041683270913532, ,0.00954338514850121, ,0.016231109509150833, ,3.319224109443992e-05, ,0.20818943282334434,-0.17952264839422294,0.09795545014000001,2.309525037538551,1.2640242593300897,-1.2497077294124417, ,0.011802264634552808,0.0007473596699545145,0.00941419120567376,0.0,0.0,0.026673778675199336, ,0.5812540054321289
0.010863506487248915,0.020971801289543027,-0.08236047045599719, ,0.011121714771849941,0.02090410738338201,-0.08262206133150343, ,0.00037374291875039443, ,0.002928815792727994,0.0016488043346538262,-0.00818298832512589,0.006170452409788485,-0.008017098406116224,-0.0282766608455317, ,0.008846344759891102, ,0.010116734310231072, ,3.401577634058971e-05, ,0.20838250114519993,-0.17951492566134872,0.09809285688000001,2.310154107369005,1.264160895829855,-1.2495741110957166, ,0.012375709645079652,0.0007377395865724818,0.008685284362050164,0.025225648031684433,-2.6436091170262812e-05,-0.004226121629165257, ,0.5979249477386475
0.01092853580766947,0.02100232306277915,-0.08253193626681982, ,0.011171434044151435,0.02091967341213043,-0.08275212077657398, ,0.00033810018688857247, ,0.002882814466287562,0.0013219516215483519,-0.0068900539914474885,0.00995421528565435,-0.008130168644121201,-0.046614784642343844, ,0.007584920523104551, ,0.012852471692522493, ,3.463048060134674e-05, ,0.20870685592591737,-0.1794763119969776,0.09827433748000002,2.310363797312489,1.264160895829855,-1.2494107536154353, ,0.014221031254079244,0.0026394988161305122,0.00735062829718505,0.03628699803111531,-2.6196158979857346e-05,-0.012272837335621359, ,0.6140480041503906
0.0109570677026924,0.021014566725683484,-0.08261090748838515, ,0.011221607552479473,0.0209345351078662,-0.0828825607048733, ,0.00038753304633822006, ,0.003068600721962941,0.0015675440739323278,-0.008086740867704223,0.0009863192793430888,-0.008585043005349966,-0.02121377820940836, ,0.00879027204789189, ,0.008641513440429087, ,3.543293668496344e-05, ,0.2088458651176534,-0.1794454210654807,0.09835730004000001,2.310363797312489,1.264160895829855,-1.2494107536154353, ,0.013930848731425539,0.0017680550242461397,0.008591591974110033,0.028694786455088057,0.0,0.007468219230835796, ,0.634566068649292
0.011006974953959886,0.02103673815213772,-0.08273817776614584, ,0.011272230280816887,0.02094870106280953,-0.08301337319563226, ,0.00039222881323739013, ,0.002806263564235308,0.0010774362796153265,-0.007563606880096251,-0.011673162536952829,-0.013575648246600402,0.015749033327635338, ,0.008139049893275338, ,0.017904215262769276, ,3.6372081356634066e-05, ,0.20910071530250282,-0.1794068074011096,0.09849211420000001,2.310573487255974,1.264160895829855,-1.2491657173950137, ,0.014119467573050258,0.004063208458462644,0.007932675059760957,0.0,-9.542587828930168e-06,0.01829952697828448, ,0.6480269432067871
0.011072704205741253,0.021066994419596953,-0.08290018127855943, ,0.011323297239862746,0.020962179829281693,-0.0831445503686685, ,0.00036537544976900777, ,0.0035316775714135246,0.0016315401107202649,-0.008755880034634355,-0.0021752356560606183,-0.008421995563146507,-0.02595414757390948, ,0.009581237121699001, ,0.008698368120607057, ,3.715633367708636e-05, ,0.2094096246174718,-0.17933730280524157,0.09866452077000001,2.311412247029912,1.264160895829855,-1.248920681174592, ,0.016593275320592897,0.0035948863887263535,0.009315094456140352,0.04280488258764204,6.973183092225064e-07,0.017634878585789753, ,0.6624000072479248
0.011110265948184645,0.021082962684798673,-0.08300247342309265, ,0.01137480346697503,0.020974979919778414,-0.08327608438430775, ,0.0003956050233329271, ,0.003608073447354542,0.0016808015562051009,-0.00873247044058558,-0.005655899137572829,-0.009869132954535282,-0.014800252050714054, ,0.009596839472896652, ,0.011374925474459981, ,3.803425566431438e-05, ,0.20959497020645318,-0.17929868914087044,0.09877211284000001,2.311412247029912,1.264160895829855,-1.248757323694311, ,0.017731117630506495,0.0027525463488306946,0.009315094456140352,0.039576842040051144,5.6332295711347065e-06,0.026315938491862492, ,0.6767051219940186
0.0111463829923615,0.021097073661067327,-0.08309468931589523, ,0.011426744026113655,0.020987109807044872,-0.08340796744330795, ,0.000434554419553258, ,0.003737786806439977,0.0015563715739087595,-0.009244123214354366,-0.005658076076991675,-0.012635704275041855,-0.014140582792095036, ,0.010091935230104942, ,0.01384466611787635, ,3.9035825915263916e-05, ,0.2097880385283088,-0.17926007547649933,0.09886933459000001,2.311412247029912,1.264160895829855,-1.2486756449541705, ,0.018581739095059873,0.004561126131091989,0.00979631704797048,0.03030260512914476,9.673288851598619e-06,0.01761459344597165, ,0.6901280879974365
0.011218566021671858,0.0211280644829695,-0.08328929483144049, ,0.011479114007782811,0.02099857792414938,-0.08354019178678092, ,0.00038418915156553904, ,0.0036028938622772134,0.0013795748778948722,-0.009833956753780525,-0.015816552091318277,-0.016500629287078565,0.02208773467103591, ,0.010563653556501134, ,0.022856815065926794, ,3.979490230879492e-05, ,0.21013556150764892,-0.17917512541488284,0.09907544470000001,2.3116219369733964,1.2642975323296204,-1.2482969904170234, ,0.0175800188140924,0.0054654451721601275,0.01030991036893204,0.0,0.0004169497505347444,0.025498451913855764, ,0.7040989398956299
0.011222247283578795,0.02113014372462938,-0.08330034880583434, ,0.011531908528974087,0.02100939266455822,-0.08367274969611652, ,0.000499152610421933, ,0.00361528034198874,0.001379512135502429,-0.009832248779495728,-0.015056700253586498,-0.01670009977661945,0.020450663125818034, ,0.010566287036848088, ,0.02248549450615294, ,4.1138669111904614e-05, ,0.21015100697339736,-0.17917512541488284,0.09908711131,2.3116219369733964,1.2642975323296204,-1.2482969904170234, ,0.017724494127469327,0.0054654451721601275,0.01030991036893204,0.0,0.0004169497505347444,0.023692871316119246, ,0.7168679237365723
0.011297626694550285,0.02116484569216504,-0.08348699916771096, ,0.011585122733109032,0.021019562382209585,-0.08380563349290389, ,0.000453088341860322, ,0.004171786980559379,0.0018185085155807369,-0.009756670632148903,-0.003222969162105628,-0.002449853094067333,-0.03939104273730123, ,0.010765844214767426, ,0.004048360407745908, ,4.226136819911358e-05, ,0.21049852995273746,-0.17908245262039216,0.09928803626,2.312670386690819,1.2645708053291513,-1.2481114325237133, ,0.019244968882269477,0.00602942116591504,0.010445122308196723,0.07362608933009862,0.0035962508608954366,0.035020862846507655, ,0.7276101112365723
0.011337581252496494,0.021179061171405677,-0.08358549844824573, ,0.011638751789982107,0.02102909539158839,-0.08393883553885545, ,0.00048789397143859394, ,0.003964592014080834,0.0013139209093671164,-0.010475713838360698,-0.013410434276341135,-0.018385122722257126,0.028776485909855945, ,0.01127763088673359, ,0.022756369632117315, ,4.348300995636316e-05, ,0.21070704374034152,-0.17901294802452414,0.09939303575000001,2.3128800766343036,1.2647074418289168,-1.2479778142069882, ,0.02101814873941767,0.006805705702813314,0.011008162764340015,-0.011982317165219086,0.005775409915961296,0.018876617601786345, ,0.7403221130371094
0.011404176208867165,0.02120085052352392,-0.08376433898470363, ,0.011692790895703091,0.02103799996779966,-0.08407234823572943, ,0.000452425065258956, ,0.004003301185946498,0.0013273665137370832,-0.010995255322470964,-0.008203147636483471,-0.01306987806622331,0.02304336575942956, ,0.011776415492564671, ,0.015430916470123353, ,4.4533927033470715e-05, ,0.21103912125393318,-0.1788739388327881,0.09958099780000002,2.3128800766343036,1.2648440783286823,-1.2476808384099818, ,0.020071265135040352,0.007975978341535435,0.011567764357298475,-0.009803697003562152,0.011490134284572691,0.013438212347476351, ,0.7519750595092773
0.011445455818090151,0.021214936910553227,-0.08387742998882486, ,0.01174723527264026,0.02104628434664382,-0.08420616402525223, ,0.00047705407786498397, ,0.003947437565232297,0.0010917773526777212,-0.010685691078036023,0.0021155218012772615,-0.011053918606705942,0.00042050120079364993, ,0.011443698481454573, ,0.011254528410177175, ,4.56451477387908e-05, ,0.211239912308663,-0.17878898877117164,0.09970025648000001,2.3128800766343036,1.2649807148284475,-1.2475472200932565, ,0.020101025536638593,0.010177251068838945,0.011233294442877295,-0.008108039678040616,0.014893301531147672,-0.01022324774713591, ,0.763787031173706
0.011488038516481428,0.021223497892221426,-0.08399157700650707, ,0.011802080169362834,0.02105395672469069,-0.08434027538904186, ,0.0004989558389422344, ,0.004539589959634175,0.0012180619833555483,-0.012171446327372494,0.001341932813697596,-0.012555820736208999,-0.008388509334388419, ,0.01304743874088002, ,0.01262731764522872, ,4.680403143105113e-05, ,0.21146387156201552,-0.17865770231230982,0.09981821887000002,2.312670386690819,1.2649807148284475,-1.2474655413531157, ,0.022626833943364517,0.012492226932301976,0.0127737061106656,0.0,0.014332289379348342,-0.010631308270453515, ,0.7745389938354492
0.011538241848543525,0.021240132976631854,-0.08412157090333573, ,0.01185732086058375,0.021061025259353095,-0.08447467484853019, ,0.0005085011174277439, ,0.004556768454355137,0.0012691625437398287,-0.012287459532705217,-0.009342403455639272,-0.013310870808931948,-0.0037975771396671237, ,0.013166494373101238, ,0.0162622109173906, ,4.813768731197356e-05, ,0.21169555354824227,-0.17853413858632222,0.09995562561000002,2.313089766577788,1.2651173513282132,-1.2475769592568122, ,0.02143110694635745,0.012919167789999048,0.012845815741935485,0.012639936158841174,0.007679263295514193,0.009936554073796174, ,0.7828130722045898
0.011538241848543525,0.021240132976631854,-0.08412157090333573, ,0.011912952647102605,0.02106749806896225,-0.08460935496488621, ,0.0006388617100793856, ,0.004556768454355137,0.0012691625437398287,-0.012287459532705217,-0.009342403455639272,-0.013310870808931948,-0.0037975771396671237, ,0.013166494373101238, ,0.0162622109173906, ,4.990990468883186e-05, ,0.21169555354824227,-0.17853413858632222,0.09995562561000002,2.313089766577788,1.2651173513282132,-1.2475769592568122, ,0.02143110694635745,0.012919167789999048,0.012845815741935485,0.012639936158841174,0.007679263295514193,0.009936554073796174, ,0.7926280498504639
0.011665866440629561,0.021271271524252698,-0.08444555769861486, ,0.011968970855748304,0.021073383232841556,-0.08474430833893891, ,0.00046934423128032905, ,0.005346028376996688,0.00127032834587598,-0.013416749675120961,-0.0012888716163412424,-0.0063882193814878314,-0.031226587891163674, ,0.014498376645640307, ,0.006516908942315825, ,5.1043289501646863e-05, ,0.21232881764392866,-0.17814027920973677,0.10029654988000002,2.3137188364082415,1.2655272608275094,-1.2473394617869178, ,0.025836357625502526,0.017521591868255314,0.014121286808510639,0.04017383647041201,0.016697005697720348,0.007289705244790659, ,0.8041059970855713
0.011665866440629561,0.021271271524252698,-0.08444555769861486, ,0.01202537083932161,0.0210786887913805,-0.0848795276110991, ,0.000595534555354287, ,0.005346028376996688,0.00127032834587598,-0.013416749675120961,-0.0012888716163412424,-0.0063882193814878314,-0.031226587891163674, ,0.014498376645640307, ,0.006516908942315825, ,5.259558664848668e-05, ,0.21232881764392866,-0.17814027920973677,0.10029654988000002,2.3137188364082415,1.2655272608275094,-1.2473394617869178, ,0.025836357625502526,0.017521591868255314,0.014121286808510639,0.04017383647041201,0.016697005697720348,0.007289705244790659, ,0.8123369216918945
0.011717014089136264,0.02128172168401041,-0.08458244812721948, ,0.012082147976538173,0.02108342274610968,-0.08501500546128352, ,0.00059979252392338, ,0.005426791921905774,0.00127761570240597,-0.014187028405515112,-0.0019701454066630405,0.0038727049764874875,-0.0009482950513120061, ,0.0152431672373424, ,0.004344967437983954, ,5.4130328884521124e-05, ,0.21258366782877808,-0.1779626563536296,0.10044043807000001,2.3137188364082415,1.2658005338270404,-1.2472355826337482, ,0.02584339367060751,0.018534558898138823,0.015013017455230917,0.030023902354761652,0.0325729667322612,0.025433968470544938, ,0.8204400539398193
0.011717014089136264,0.02128172168401041,-0.08458244812721948, ,0.012139297671971177,0.021087593059774767,-0.08515073460883675, ,0.0007341381833609094, ,0.005426791921905774,0.00127761570240597,-0.014187028405515112,-0.0019701454066630405,0.0038727049764874875,-0.0009482950513120061, ,0.0152431672373424, ,0.004344967437983954, ,5.628852724863101e-05, ,0.21258366782877808,-0.1779626563536296,0.10044043807000001,2.3137188364082415,1.2658005338270404,-1.2472355826337482, ,0.02584339367060751,0.018534558898138823,0.015013017455230917,0.030023902354761652,0.0325729667322612,0.025433968470544938, ,0.826153039932251
0.011766641675085229,0.021291394831487225,-0.0847168911619356, ,0.012196815355993984,0.021091207656410448,-0.08528670781245452, ,0.0007414953243415671, ,0.005825971177393386,0.001260431461394539,-0.015327257723519795,-0.006438530620608494,-0.008684981298614836,-0.013667201946981478, ,0.016445529999117962, ,0.010811231696870788, ,5.844235693987863e-05, ,0.21282307254787905,-0.17778503349752245,0.10058043739000001,2.3137188364082415,1.2659371703268056,-1.247101964317023, ,0.02759434183148322,0.020381645523726538,0.01605726967741936,0.024383082236704462,0.019721458322939266,0.0096753081571976, ,0.8318619728088379
0.011826952737253267,0.021302555298100996,-0.08488166722437868, ,0.012254696484722995,0.021094274421415527,-0.08542291787010615, ,0.0007206232709208927, ,0.006326380458775287,0.0013789884148204608,-0.016916285440739205,-0.014606420642161735,-0.015465229006463584,-0.007109871053087888, ,0.018113128163570975, ,0.021272504482503504, ,6.049588944682127e-05, ,0.21310881366422535,-0.17756107424416992,0.10075154767000001,2.3137188364082415,1.2660738068265711,-1.2469683460002976, ,0.029425408235184736,0.021850550669691635,0.017639879867109635,0.02013511838191152,0.013724386122074989,0.014540126434080149, ,0.8375189304351807
0.011826952737253267,0.021302555298100996,-0.08488166722437868, ,0.012312936539960274,0.021096801201626377,-0.08555935761895754, ,0.0008589407870244066, ,0.006326380458775287,0.0013789884148204608,-0.016916285440739205,-0.014606420642161735,-0.015465229006463584,-0.007109871053087888, ,0.018113128163570975, ,0.021272504482503504, ,6.298896042023602e-05, ,0.21310881366422535,-0.17756107424416992,0.10075154767000001,2.3137188364082415,1.2660738068265711,-1.2469683460002976, ,0.029425408235184736,0.021850550669691635,0.017639879867109635,0.02013511838191152,0.013724386122074989,0.014540126434080149, ,0.8429551124572754
0.011907993503690761,0.02132331425868853,-0.08509510316161384, ,0.012371531029136509,0.02109879580539204,-0.08569601993529403, ,0.0007914395379668811, ,0.00780008488321214,0.001859196541001815,-0.021279166672478422,-0.0007536554231779712,-0.010072328623222323,-0.007075367813788022, ,0.022739852027629907, ,0.010100269180222105, ,6.522205309515685e-05, ,0.21348722757506233,-0.1773062240593205,0.10097710213000001,2.314138216295211,1.2664837163258675,-1.2469758847508248, ,0.03640082146469918,0.025191648940395744,0.022340549116409536,0.010757155903195873,0.03373779160915497,-0.0005616828868373613, ,0.8484201431274414
0.011993326886100709,0.021347988144031205,-0.08531899657029537, ,0.01243047548525338,0.021100266002647493,-0.08583289773444304, ,0.0007187207827697768, ,0.00780008488321214,0.001859196541001815,-0.021279166672478422,-0.0007536554231779712,-0.010072328623222323,-0.007075367813788022, ,0.022739852027629907, ,0.010100269180222105, ,6.718297535042172e-05, ,0.21385791875302512,-0.1770436511415969,0.10121432320000001,2.3149769760691488,1.266893625825164,-1.2470651022414925, ,0.03768742714792326,0.027522314837143496,0.025816550275526744,0.0990527392988864,0.058212027787674266,-0.02178639441841039, ,0.8541049957275391
0.011993326886100709,0.021347988144031205,-0.08531899657029537, ,0.01248976546682662,0.021101219524988907,-0.08596998397069684, ,0.000855061758739485, ,0.0090557735110171,0.002821666085415258,-0.02424371617026301,0.03992542871983309,0.02122612765769242,-0.10512430814976105, ,0.026033182808191047, ,0.04521703195244376, ,6.956938531081457e-05, ,0.21385791875302512,-0.1770436511415969,0.10121432320000001,2.3149769760691488,1.266893625825164,-1.2470651022414925, ,0.03768742714792326,0.027522314837143496,0.025816550275526744,0.0990527392988864,0.058212027787674266,-0.02178639441841039, ,0.8598260879516602
0.011993326886100709,0.021347988144031205,-0.08531899657029537, ,0.012549396557828663,0.021101664065747674,-0.08610727163723536, ,0.0009956237303907062, ,0.0090557735110171,0.002821666085415258,-0.02424371617026301,0.03992542871983309,0.02122612765769242,-0.10512430814976105, ,0.026033182808191047, ,0.04521703195244376, ,7.238677004689706e-05, ,0.21385791875302512,-0.1770436511415969,0.10121432320000001,2.3149769760691488,1.266893625825164,-1.2470651022414925, ,0.03768742714792326,0.027522314837143496,0.025816550275526744,0.0990527392988864,0.058212027787674266,-0.02178639441841039, ,0.8658590316772461
0.012049013165908107,0.02136288092151824,-0.08547818997500392, ,0.012609364367631192,0.02110160728006423,-0.08624475376604962, ,0.0009848235530964412, ,0.009377689053660215,0.0025774809718668375,-0.026186723300836295,-0.008851727752248333,-0.005942537603941644,-0.04350889555019522, ,0.02793436839060509, ,0.010660887542118837, ,7.513203152729787e-05, ,0.21408960073925185,-0.1768583055526155,0.10138154461000001,2.3151866660126332,1.267166898824695,-1.2469612230883227, ,0.037852788814707126,0.031083177713223314,0.027416198829604135,0.06712005428805866,0.026781791269841187,0.022535541158067558, ,0.8737099170684814
0.012049013165908107,0.02136288092151824,-0.08547818997500392, ,0.012669664530948244,0.02110105678496298,-0.0863824234278633, ,0.0011275629173926787, ,0.009377689053660215,0.0025774809718668375,-0.026186723300836295,-0.008851727752248333,-0.005942537603941644,-0.04350889555019522, ,0.02793436839060509, ,0.010660887542118837, ,7.856014516203852e-05, ,0.21408960073925185,-0.1768583055526155,0.10138154461000001,2.3151866660126332,1.267166898824695,-1.2469612230883227, ,0.037852788814707126,0.031083177713223314,0.027416198829604135,0.06712005428805866,0.026781791269841187,0.022535541158067558, ,0.876539945602417
0.012223311622704016,0.021403886864669146,-0.08596882053866145, ,0.012730292707778496,0.021100020159426056,-0.08652027373205659, ,0.0008083720799757291, ,0.00747304770783162,0.0011275830482742684,-0.01952753709403171,-0.01023191341785567,-0.009441399089567721,0.01726634254852188, ,0.020939020763470945, ,0.013922256623425305, ,8.092966443091415e-05, ,0.2146688057048187,-0.17641038704591047,0.10178080193000001,2.3153963559561177,1.2677134448237564,-1.246753464781984, ,0.04055424852926101,0.02891436366802888,0.026070067954173493,0.0,0.041932131067268515,0.04122500937165788, ,0.8793430328369141
0.012223311622704016,0.021403886864669146,-0.08596882053866145, ,0.012791244583348255,0.02109850494446784,-0.08665829782658854, ,0.0009440258977058131, ,0.00747304770783162,0.0011275830482742684,-0.01952753709403171,-0.01023191341785567,-0.009441399089567721,0.01726634254852188, ,0.020939020763470945, ,0.013922256623425305, ,0.0004538660095162697, ,0.2146688057048187,-0.17641038704591047,0.10178080193000001,2.3153963559561177,1.2677134448237564,-1.246753464781984, ,0.04055424852926101,0.02891436366802888,0.026070067954173493,0.0,0.041932131067268515,0.04122500937165788, ,0.8820610046386719
0.012223311622704016,0.021403886864669146,-0.08596882053866145, ,0.012852515868054358,0.021096518643209553,-0.08679648889792009, ,0.0010841624042771526, ,0.00747304770783162,0.0011275830482742684,-0.01952753709403171,-0.01023191341785567,-0.009441399089567721,0.01726634254852188, ,0.020939020763470945, ,0.013922256623425305, ,0.0004647331887362849, ,0.2146688057048187,-0.17641038704591047,0.10178080193000001,2.3153963559561177,1.2677134448237564,-1.246753464781984, ,0.04055424852926101,0.02891436366802888,0.026070067954173493,0.0,0.041932131067268515,0.04122500937165788, ,0.8847699165344238
0.012223311622704016,0.021403886864669146,-0.08596882053866145, ,0.012914102297406381,0.021094068720952843,-0.08693484017093624, ,0.001227343867207507, ,0.00747304770783162,0.0011275830482742684,-0.01952753709403171,-0.01023191341785567,-0.009441399089567721,0.01726634254852188, ,0.020939020763470945, ,0.013922256623425305, ,0.0004776587934561361, ,0.2146688057048187,-0.17641038704591047,0.10178080193000001,2.3153963559561177,1.2677134448237564,-1.246753464781984, ,0.04055424852926101,0.02891436366802888,0.026070067954173493,0.0,0.041932131067268515,0.04122500937165788, ,0.8874731063842773
0.01229934522539129,0.02140992310739496,-0.08615945031902791, ,0.012975999631969859,0.021091162605254614,-0.0870733449088701, ,0.001180962643359128, ,0.010146154684174723,0.00046157201413957866,-0.025347119719490115,-0.03787192903540061,-0.026935210525217093,0.029335422541921743, ,0.027306299303889607, ,0.04647341296071191, ,0.0004893805242878526, ,0.21524801067038554,-0.17593930034058278,0.10209320782,2.3153963559561177,1.2681233543230528,-1.2463526098318083, ,0.05277916660649098,0.04763902688678252,0.02628516752475248,-0.0022919216582656388,0.03489860508423722,0.030763187463941265, ,0.8901751041412354
0.01229934522539129,0.02140992310739496,-0.08615945031902791, ,0.013038203657308749,0.021087807686001093,-0.08721199641322407, ,0.0013257161866413372, ,0.010146154684174723,0.00046157201413957866,-0.025347119719490115,-0.03787192903540061,-0.026935210525217093,0.029335422541921743, ,0.027306299303889607, ,0.04647341296071191, ,0.000503090944982172, ,0.21524801067038554,-0.17593930034058278,0.10209320782,2.3153963559561177,1.2681233543230528,-1.2463526098318083, ,0.05277916660649098,0.04763902688678252,0.02628516752475248,-0.0022919216582656388,0.03489860508423722,0.030763187463941265, ,0.8928711414337158
0.01229934522539129,0.02140992310739496,-0.08615945031902791, ,0.013100710183928261,0.021084011315482255,-0.08735078802369417, ,0.0014723076510832155, ,0.010146154684174723,0.00046157201413957866,-0.025347119719490115,-0.03787192903540061,-0.026935210525217093,0.029335422541921743, ,0.027306299303889607, ,0.04647341296071191, ,0.0005187234724999308, ,0.21524801067038554,-0.17593930034058278,0.10209320782,2.3153963559561177,1.2681233543230528,-1.2463526098318083, ,0.05277916660649098,0.04763902688678252,0.02628516752475248,-0.0022919216582656388,0.03489860508423722,0.030763187463941265, ,0.8956351280212402
0.012409515851584561,0.02142215304040281,-0.08645068120515817, ,0.01316351504721752,0.021079780808465835,-0.08748971311809181, ,0.0013286537729262642, ,0.013613816709165089,0.0026841896170285403,-0.038100186120278795,0.10082024591234877,0.06415246259961137,-0.04267926157164145, ,0.040548305287530714, ,0.11949970777463181, ,0.0005315795090146345, ,0.21581177017020392,-0.17546821363525508,0.10240302113000001,2.3151866660126332,1.2693530828209418,-1.2468652985242328, ,0.06309637071706833,0.051630544917557544,0.040843106461538464,0.0,0.17954169045256801,-0.08851296732011632, ,0.8985550403594971
0.012409515851584561,0.02142215304040281,-0.08645068120515817, ,0.0132266141073923,0.021075123442271925,-0.08762876511226722, ,0.001475113824019102, ,0.013613816709165089,0.0026841896170285403,-0.038100186120278795,0.10082024591234877,0.06415246259961137,-0.04267926157164145, ,0.040548305287530714, ,0.11949970777463181, ,0.0005463222326865793, ,0.21581177017020392,-0.17546821363525508,0.10240302113000001,2.3151866660126332,1.2693530828209418,-1.2468652985242328, ,0.06309637071706833,0.051630544917557544,0.040843106461538464,0.0,0.17954169045256801,-0.08851296732011632, ,0.9013760089874268
0.012409515851584561,0.02142215304040281,-0.08645068120515817, ,0.01329000324943794,0.02107004645684704,-0.08776793746003157, ,0.001623083837934761, ,0.013613816709165089,0.0026841896170285403,-0.038100186120278795,0.10082024591234877,0.06415246259961137,-0.04267926157164145, ,0.040548305287530714, ,0.11949970777463181, ,0.0005628877958442437, ,0.21581177017020392,-0.17546821363525508,0.10240302113000001,2.3151866660126332,1.2693530828209418,-1.2468652985242328, ,0.06309637071706833,0.051630544917557544,0.040843106461538464,0.0,0.17954169045256801,-0.08851296732011632, ,0.9043679237365723
0.012409515851584561,0.02142215304040281,-0.08645068120515817, ,0.013353678383051513,0.021064557054838333,-0.08790722365308054, ,0.001772239734719207, ,0.013613816709165089,0.0026841896170285403,-0.038100186120278795,0.10082024591234877,0.06415246259961137,-0.04267926157164145, ,0.040548305287530714, ,0.11949970777463181, ,0.0005812113100696219, ,0.21581177017020392,-0.17546821363525508,0.10240302113000001,2.3151866660126332,1.2693530828209418,-1.2468652985242328, ,0.06309637071706833,0.051630544917557544,0.040843106461538464,0.0,0.17954169045256801,-0.08851296732011632, ,0.9072389602661133
0.012538719129996753,0.0214550470902525,-0.08681210250077223, ,0.013417635442585306,0.021058662401668204,-0.08804661722091658, ,0.001566410323041641, ,0.01628204958219048,0.004389243002615734,-0.0462015293504076,0.11266736551163681,0.057836237572858995,-0.06737068875000281, ,0.049182841591854924, ,0.12664420679028815, ,0.0005959157729498012, ,0.21637552967002233,-0.17503574059429852,0.10279061184,2.3156060458996026,1.2708560843183616,-1.2475191442839095, ,0.07172860284086982,0.049684262596058,0.04946835875776398,0.011139634452511945,0.18074292435942357,-0.10471249127041413, ,0.9100470542907715
0.012538719129996753,0.0214550470902525,-0.08681210250077223, ,0.013481870386988873,0.021052369625608025,-0.08818611173077177, ,0.0017145217403760897, ,0.01628204958219048,0.004389243002615734,-0.0462015293504076,0.11266736551163681,0.057836237572858995,-0.06737068875000281, ,0.049182841591854924, ,0.12664420679028815, ,0.0006123658607060701, ,0.21637552967002233,-0.17503574059429852,0.10279061184,2.3156060458996026,1.2708560843183616,-1.2475191442839095, ,0.07172860284086982,0.049684262596058,0.04946835875776398,0.011139634452511945,0.18074292435942357,-0.10471249127041413, ,0.9129331111907959
0.012538719129996753,0.0214550470902525,-0.08681210250077223, ,0.01354637919975231,0.021045685817853307,-0.08832570078753132, ,0.0018638495757973932, ,0.01628204958219048,0.004389243002615734,-0.0462015293504076,0.11266736551163681,0.057836237572858995,-0.06737068875000281, ,0.049182841591854924, ,0.12664420679028815, ,0.0006305033058523211, ,0.21637552967002233,-0.17503574059429852,0.10279061184,2.3156060458996026,1.2708560843183616,-1.2475191442839095, ,0.07172860284086982,0.049684262596058,0.04946835875776398,0.011139634452511945,0.18074292435942357,-0.10471249127041413, ,0.9169199466705322
0.012650859212142157,0.02148624735414419,-0.08712114432312683, ,0.013611157888848428,0.02103861803259684,-0.088465378033655, ,0.0017115810896691716, ,0.017957974356347526,0.0047471499783352245,-0.04916765045078704,0.06963348605715526,0.05176829565367612,-0.023553624505035765, ,0.05255932007504304, ,0.08676688005553429, ,0.0006459472741925619, ,0.21686978457397268,-0.17469594034783265,0.10312375837000001,2.3160254257865716,1.272222449316016,-1.247816535919468, ,0.07961152815307952,0.054195854687875945,0.05257033504950496,0.05107337457061663,0.16966389005628404,-0.009593774173103961, ,0.9198970794677734
0.012650859212142157,0.02148624735414419,-0.08712114432312683, ,0.013676202486675969,0.021031173287103865,-0.08860513714910138, ,0.0018602838344371783, ,0.017957974356347526,0.0047471499783352245,-0.04916765045078704,0.06963348605715526,0.05176829565367612,-0.023553624505035765, ,0.05255932007504304, ,0.08676688005553429, ,0.0006630506060269931, ,0.21686978457397268,-0.17469594034783265,0.10312375837000001,2.3160254257865716,1.272222449316016,-1.247816535919468, ,0.07961152815307952,0.054195854687875945,0.05257033504950496,0.05107337457061663,0.16966389005628404,-0.009593774173103961, ,0.922605037689209
0.012650859212142157,0.02148624735414419,-0.08712114432312683, ,0.013741509050001858,0.021023358561785763,-0.08874497185124947, ,0.0020101241115919456, ,0.017957974356347526,0.0047471499783352245,-0.04916765045078704,0.06963348605715526,0.05176829565367612,-0.023553624505035765, ,0.05255932007504304, ,0.08676688005553429, ,0.0006817599602709507, ,0.21686978457397268,-0.17469594034783265,0.10312375837000001,2.3160254257865716,1.272222449316016,-1.247816535919468, ,0.07961152815307952,0.054195854687875945,0.05257033504950496,0.05107337457061663,0.16966389005628404,-0.009593774173103961, ,0.9253420829772949
0.012966518068770236,0.02156007909436408,-0.08802596228862986, ,0.01380707365990441,0.02101518080027495,-0.08888487589482254, ,0.0013195379629215233, ,0.020136611212343072,0.0034275999721620548,-0.05949831098198398,-0.022269694054993905,0.002450567134602068,0.09768707190648206, ,0.06290691982918176, ,0.022387472454587946, ,0.0006904966452387668, ,0.21815175823109395,-0.17363792594406388,0.10407134636000001,2.3164448056735405,1.2735888143136704,-1.2462353165317939, ,0.08251907961606154,0.07941166657612617,0.06222192000000001,-0.04931300058559491,0.12767089444702687,0.03628236595797932, ,0.9286549091339111
0.012966518068770236,0.02156007909436408,-0.08802596228862986, ,0.013872892421715582,0.02100664690949839,-0.08902484307181042, ,0.0014579315724442393, ,0.020136611212343072,0.0034275999721620548,-0.05949831098198398,-0.022269694054993905,0.002450567134602068,0.09768707190648206, ,0.06290691982918176, ,0.022387472454587946, ,0.0007008673874983002, ,0.21815175823109395,-0.17363792594406388,0.10407134636000001,2.3164448056735405,1.2735888143136704,-1.2462353165317939, ,0.08251907961606154,0.07941166657612617,0.06222192000000001,-0.04931300058559491,0.12767089444702687,0.03628236595797932, ,0.9315569400787354
0.012966518068770236,0.02156007909436408,-0.08802596228862986, ,0.013938961464964204,0.02099776375975272,-0.08916486721139184, ,0.0015996715654883133, ,0.020136611212343072,0.0034275999721620548,-0.05949831098198398,-0.022269694054993905,0.002450567134602068,0.09768707190648206, ,0.06290691982918176, ,0.022387472454587946, ,0.0007128514432048338, ,0.21815175823109395,-0.17363792594406388,0.10407134636000001,2.3164448056735405,1.2735888143136704,-1.2462353165317939, ,0.08251907961606154,0.07941166657612617,0.06222192000000001,-0.04931300058559491,0.12767089444702687,0.03628236595797932, ,0.9342970848083496
0.012966518068770236,0.02156007909436408,-0.08802596228862986, ,0.014005276943318025,0.020988538184777594,-0.0893049421798581, ,0.0017439806687429037, ,0.020136611212343072,0.0034275999721620548,-0.05949831098198398,-0.022269694054993905,0.002450567134602068,0.09768707190648206, ,0.06290691982918176, ,0.022387472454587946, ,0.0007264189330145451, ,0.21815175823109395,-0.17363792594406388,0.10407134636000001,2.3164448056735405,1.2735888143136704,-1.2462353165317939, ,0.08251907961606154,0.07941166657612617,0.06222192000000001,-0.04931300058559491,0.12767089444702687,0.03628236595797932, ,0.9370429515838623
0.01317205154926451,0.021595274859665094,-0.08860932911166212, ,0.014071835034527101,0.020978976981830676,-0.08944506188053544, ,0.0013740024219568053, ,0.020649033334914146,0.0029759007411142356,-0.05675771948678132,0.11129683413066052,0.07405177710555118,-0.010139409672561207, ,0.0604704662147359, ,0.13367895110024156, ,0.0007348291081956134, ,0.21903214977875554,-0.1728270389922703,0.10469097298,2.3164448056735405,1.2757749983099174,-1.246956179369109, ,0.09508711579005087,0.08166690323448432,0.060565823269961974,-0.03317035407119491,0.24571773878497472,-0.10015770967440227, ,0.9397461414337158
0.01317205154926451,0.021595274859665094,-0.08860932911166212, ,0.014138631940365949,0.020969086911761366,-0.08958522025370787, ,0.0015095537485247212, ,0.020649033334914146,0.0029759007411142356,-0.05675771948678132,0.11129683413066052,0.07405177710555118,-0.010139409672561207, ,0.0604704662147359, ,0.13367895110024156, ,0.0007447614753793199, ,0.21903214977875554,-0.1728270389922703,0.10469097298,2.3164448056735405,1.2757749983099174,-1.246956179369109, ,0.09508711579005087,0.08166690323448432,0.060565823269961974,-0.03317035407119491,0.24571773878497472,-0.10015770967440227, ,0.9425349235534668
0.01317205154926451,0.021595274859665094,-0.08860932911166212, ,0.014205663886576788,0.020958874699085774,-0.08972541127653998, ,0.00164893875780393, ,0.020649033334914146,0.0029759007411142356,-0.05675771948678132,0.11129683413066052,0.07405177710555118,-0.010139409672561207, ,0.0604704662147359, ,0.13367895110024156, ,0.0007562067574353276, ,0.21903214977875554,-0.1728270389922703,0.10469097298,2.3164448056735405,1.2757749983099174,-1.246956179369109, ,0.09508711579005087,0.08166690323448432,0.060565823269961974,-0.03317035407119491,0.24571773878497472,-0.10015770967440227, ,0.945310115814209
0.01317205154926451,0.021595274859665094,-0.08860932911166212, ,0.014272927122811873,0.020948347032060458,-0.08986562896299996, ,0.0017912933760369793, ,0.020649033334914146,0.0029759007411142356,-0.05675771948678132,0.11129683413066052,0.07405177710555118,-0.010139409672561207, ,0.0604704662147359, ,0.13367895110024156, ,0.0007691453401678483, ,0.21903214977875554,-0.1728270389922703,0.10469097298,2.3164448056735405,1.2757749983099174,-1.246956179369109, ,0.09508711579005087,0.08166690323448432,0.060565823269961974,-0.03317035407119491,0.24571773878497472,-0.10015770967440227, ,0.947998046875
0.013386751900325625,0.021613982659614266,-0.0891629791858079, ,0.01434041792257619,0.020937510562756275,-0.09000586736378197, ,0.0014413722143815258, ,0.020540370771529738,0.0003631850097124831,-0.04955190033526437,0.05658777378250766,0.04094628293170318,0.020836194047406068, ,0.05364167746835632, ,0.06984608422771858, ,0.0007774444373803628, ,0.22007471871677586,-0.17190031104736336,0.10528078493000001,2.3164448056735405,1.27809781880593,-1.2475434238896994, ,0.10882676784228298,0.09518248902554742,0.05274440900662252,-0.024700327213669916,0.21453990660845032,-0.04434378269468317, ,0.9522209167480469
0.013447732470101038,0.021615061592571087,-0.0893045730496358, ,0.014408132583170594,0.0209263719071341,-0.09014612056622945, ,0.0015756249617572017, ,0.021060661063281434,-9.443937984506684e-05,-0.04808615979467848,0.04329876298991373,0.0255198757378131,0.02686967277000931, ,0.05249608677814221, ,0.050257236643864764, ,0.0007871783462142267, ,0.22040679623036752,-0.17162229266389128,0.10543245086000001,2.3164448056735405,1.2787810013047571,-1.2477737984476194, ,0.11730153468290579,0.09713095348871113,0.051218043472668826,-0.023045664763746646,0.20403315142986067,-0.032297614841270694, ,0.9598159790039062
0.013447732470101038,0.021615061592571087,-0.0893045730496358, ,0.014476067425633914,0.020914937645117204,-0.09028638269425741, ,0.0015848017228793137, ,0.021060661063281434,-9.443937984506684e-05,-0.04808615979467848,0.04329876298991373,0.0255198757378131,0.02686967277000931, ,0.05249608677814221, ,0.050257236643864764, ,0.0007967882664150108, ,0.22040679623036752,-0.17162229266389128,0.10543245086000001,2.3164448056735405,1.2787810013047571,-1.2477737984476194, ,0.11730153468290579,0.09713095348871113,0.051218043472668826,-0.023045664763746646,0.20403315142986067,-0.032297614841270694, ,0.9628491401672363
0.013447732470101038,0.021615061592571087,-0.0893045730496358, ,0.014544218794686262,0.020903214320667243,-0.09042664790827575, ,0.0017228060793110832, ,0.021060661063281434,-9.443937984506684e-05,-0.04808615979467848,0.04329876298991373,0.0255198757378131,0.02686967277000931, ,0.05249608677814221, ,0.050257236643864764, ,0.0008078122879971068, ,0.22040679623036752,-0.17162229266389128,0.10543245086000001,2.3164448056735405,1.2787810013047571,-1.2477737984476194, ,0.11730153468290579,0.09713095348871113,0.051218043472668826,-0.023045664763746646,0.20403315142986067,-0.032297614841270694, ,0.966188907623291
0.013813290240523298,0.021583462606564036,-0.09003766925251966, ,0.01461258305867124,0.020891208441857163,-0.09056691040511183, ,0.0011824470539072702, ,0.019931266627633414,-0.003794814001775933,-0.03521442248504756,-0.0666464274595481,-0.05149114639345809,0.08049813514029702, ,0.04064125433159404, ,0.08422013001347038, ,0.000812219755831344, ,0.22262322056526995,-0.16980745043844853,0.10620892857000001,2.3164448056735405,1.2813770948003005,-1.2471953401932125, ,0.13180130772009832,0.10983442310008192,0.037043747720930234,-0.016530506831648972,0.11220046898592333,0.06446415718526471, ,0.9691610336303711
0.013813290240523298,0.021583462606564036,-0.09003766925251966, ,0.01468115660949908,0.020878926480946504,-0.0907071644179333, ,0.0013029915437989684, ,0.019931266627633414,-0.003794814001775933,-0.03521442248504756,-0.0666464274595481,-0.05149114639345809,0.08049813514029702, ,0.04064125433159404, ,0.08422013001347038, ,0.000817926404528642, ,0.22262322056526995,-0.16980745043844853,0.10620892857000001,2.3164448056735405,1.2813770948003005,-1.2471953401932125, ,0.13180130772009832,0.10983442310008192,0.037043747720930234,-0.016530506831648972,0.11220046898592333,0.06446415718526471, ,0.9718921184539795
0.013813290240523298,0.021583462606564036,-0.09003766925251966, ,0.014749935862588994,0.02086637487445495,-0.09084740421617053, ,0.0014308006668417755, ,0.019931266627633414,-0.003794814001775933,-0.03521442248504756,-0.0666464274595481,-0.05149114639345809,0.08049813514029702, ,0.04064125433159404, ,0.08422013001347038, ,0.0008249709362793677, ,0.22262322056526995,-0.16980745043844853,0.10620892857000001,2.3164448056735405,1.2813770948003005,-1.2471953401932125, ,0.13180130772009832,0.10983442310008192,0.037043747720930234,-0.016530506831648972,0.11220046898592333,0.06446415718526471, ,0.974586009979248
0.013813290240523298,0.021583462606564036,-0.09003766925251966, ,0.014818917256812145,0.020853560023236968,-0.09098762410544044, ,0.0015641156285982425, ,0.019931266627633414,-0.003794814001775933,-0.03521442248504756,-0.0666464274595481,-0.05149114639345809,0.08049813514029702, ,0.04064125433159404, ,0.08422013001347038, ,0.0008333703077829913, ,0.22262322056526995,-0.16980745043844853,0.10620892857000001,2.3164448056735405,1.2813770948003005,-1.2471953401932125, ,0.13180130772009832,0.10983442310008192,0.037043747720930234,-0.016530506831648972,0.11220046898592333,0.06446415718526471, ,0.9773509502410889
0.013999352320637669,0.021540162229119433,-0.09034817366443854, ,0.014888097254434277,0.020840488292556088,-0.09112781842746824, ,0.0013737747746173062, ,0.019056725630355934,-0.005721526570185794,-0.030482812289656935,-0.0016949592465629252,-0.012677736064098697,0.008829278636029109, ,0.036401874994709635, ,0.012789509732921795, ,0.0008394422680845005, ,0.22388974875664275,-0.16871854510318288,0.10653818623000001,2.3164448056735405,1.282743459797955,-1.2470843381280683, ,0.1340352281899305,0.12197550328852286,0.032441571323828924,-0.01428343741265418,0.1719603484097517,-0.026913381793840147, ,0.9801509380340576
0.013999352320637669,0.021540162229119433,-0.09034817366443854, ,0.014957472341058264,0.020827166012158626,-0.09126798156001058, ,0.0015074495493010217, ,0.019056725630355934,-0.005721526570185794,-0.030482812289656935,-0.0016949592465629252,-0.012677736064098697,0.008829278636029109, ,0.036401874994709635, ,0.012789509732921795, ,0.0008468645712091284, ,0.22388974875664275,-0.16871854510318288,0.10653818623000001,2.3164448056735405,1.282743459797955,-1.2470843381280683, ,0.1340352281899305,0.12197550328852286,0.032441571323828924,-0.01428343741265418,0.1719603484097517,-0.026913381793840147, ,0.9828739166259766
0.013999352320637669,0.021540162229119433,-0.09034817366443854, ,0.015027039025567183,0.02081359947634885,-0.09140810791677877, ,0.0016454464489877789, ,0.019056725630355934,-0.005721526570185794,-0.030482812289656935,-0.0016949592465629252,-0.012677736064098697,0.008829278636029109, ,0.036401874994709635, ,0.012789509732921795, ,0.0008556401962396629, ,0.22388974875664275,-0.16871854510318288,0.10653818623000001,2.3164448056735405,1.282743459797955,-1.2470843381280683, ,0.1340352281899305,0.12197550328852286,0.032441571323828924,-0.01428343741265418,0.1719603484097517,-0.026913381793840147, ,0.9856030941009521
0.013999352320637669,0.021540162229119433,-0.09034817366443854, ,0.015096793840066658,0.020799794944062453,-0.09154819194736105, ,0.0017867751634432225, ,0.019056725630355934,-0.005721526570185794,-0.030482812289656935,-0.0016949592465629252,-0.012677736064098697,0.008829278636029109, ,0.036401874994709635, ,0.012789509732921795, ,0.0008657612284918755, ,0.22388974875664275,-0.16871854510318288,0.10653818623000001,2.3164448056735405,1.282743459797955,-1.2470843381280683, ,0.1340352281899305,0.12197550328852286,0.032441571323828924,-0.01428343741265418,0.1719603484097517,-0.026913381793840147, ,0.9882769584655762
0.014195760554607615,0.021471098917521775,-0.09067960754856878, ,0.01516673333982775,0.02078575863894122,-0.0916882281371459, ,0.0015587799520088367, ,0.01975343831665698,-0.006763979763999263,-0.03538972806210393,0.0265088332718674,0.019547077775030477,-0.04918406255308927, ,0.041089933072316266, ,0.03293555797423568, ,0.0008732130427232408, ,0.2252335042767578,-0.16732845318582246,0.10688948082000001,2.316235115730056,1.2847930072944365,-1.247775461801828, ,0.12823911021414972,0.1424879002379441,0.03739157633802818,0.0,0.20720793557637768,-0.08101495577611148, ,0.9916479587554932
0.014195760554607615,0.021471098917521775,-0.09067960754856878, ,0.01523685410322976,0.020771496749407183,-0.09182821100724421, ,0.0017007671433486846, ,0.01975343831665698,-0.006763979763999263,-0.03538972806210393,0.0265088332718674,0.019547077775030477,-0.04918406255308927, ,0.041089933072316266, ,0.03293555797423568, ,0.0008820168097511711, ,0.2252335042767578,-0.16732845318582246,0.10688948082000001,2.316235115730056,1.2847930072944365,-1.247775461801828, ,0.12823911021414972,0.1424879002379441,0.03739157633802818,0.0,0.20720793557637768,-0.08101495577611148, ,0.9945681095123291
0.014195760554607615,0.021471098917521775,-0.09067960754856878, ,0.015307152731702646,0.02075701542873693,-0.09196813511441283, ,0.0018453755954285181, ,0.01975343831665698,-0.006763979763999263,-0.03538972806210393,0.0265088332718674,0.019547077775030477,-0.04918406255308927, ,0.041089933072316266, ,0.03293555797423568, ,0.0008921574285477747, ,0.2252335042767578,-0.16732845318582246,0.10688948082000001,2.316235115730056,1.2847930072944365,-1.247775461801828, ,0.12823911021414972,0.1424879002379441,0.03739157633802818,0.0,0.20720793557637768,-0.08101495577611148, ,0.9975340366363525
0.014396221994926392,0.021415723120834118,-0.09104278821984504, ,0.015377625849670017,0.020742320795135646,-0.09210799505097667, ,0.0015972757468424878, ,0.022532933593247453,-0.0051421811144009575,-0.041675862916749455,0.010976382759466082,-0.007653293319987469,-0.034743591386298844, ,0.04765556287346414, ,0.013376402794861325, ,0.0008995024110300113, ,0.2265154779338791,-0.1660233113300785,0.10727447895000002,2.316235115730056,1.2867059182911527,-1.248518525052172, ,0.1407966491965442,0.13576100366018712,0.044124131634349036,0.0,0.18612473284080536,-0.060240390686614416, ,1.0009849071502686
0.014396221994926392,0.021415723120834118,-0.09104278821984504, ,0.015448270104491756,0.02072741893181178,-0.09224778544475218, ,0.0017414322247792607, ,0.022532933593247453,-0.0051421811144009575,-0.041675862916749455,0.010976382759466082,-0.007653293319987469,-0.034743591386298844, ,0.04765556287346414, ,0.013376402794861325, ,0.00090818209983155, ,0.2265154779338791,-0.1660233113300785,0.10727447895000002,2.316235115730056,1.2867059182911527,-1.248518525052172, ,0.1407966491965442,0.13576100366018712,0.044124131634349036,0.0,0.18612473284080536,-0.060240390686614416, ,1.0038719177246094
0.014396221994926392,0.021415723120834118,-0.09104278821984504, ,0.015519082166406618,0.020712315887050893,-0.09238750095896965, ,0.0018878159475963678, ,0.022532933593247453,-0.0051421811144009575,-0.041675862916749455,0.010976382759466082,-0.007653293319987469,-0.034743591386298844, ,0.04765556287346414, ,0.013376402794861325, ,0.0009181783635842522, ,0.2265154779338791,-0.1660233113300785,0.10727447895000002,2.316235115730056,1.2867059182911527,-1.248518525052172, ,0.1407966491965442,0.13576100366018712,0.044124131634349036,0.0,0.18612473284080536,-0.060240390686614416, ,1.0067260265350342
0.014661347745154343,0.02135936576911614,-0.09154431864160406, ,0.01559005872847517,0.02069701767429019,-0.09252713629219657, ,0.0015057023688553053, ,0.025341601383791455,-0.00480839562951457,-0.049166212140920235,-0.02859582833667413,-0.0338324111429446,-0.009768867293542068, ,0.0555214719321353, ,0.044295215805372094, ,0.000924112949496081, ,0.22812952910459203,-0.16446331928948515,0.10780336527,2.316235115730056,1.2886188292878689,-1.248934873341954, ,0.1499161793972682,0.14400142876854444,0.05171692051948052,0.0,0.16106240187480733,-0.022919868969843674, ,1.0095429420471191
0.014661347745154343,0.02135936576911614,-0.09154431864160406, ,0.01566119650652217,0.02068153027219268,-0.09266668617825963, ,0.0016488988428149665, ,0.025341601383791455,-0.00480839562951457,-0.049166212140920235,-0.02859582833667413,-0.0338324111429446,-0.009768867293542068, ,0.0555214719321353, ,0.044295215805372094, ,0.0009313608084292699, ,0.22812952910459203,-0.16446331928948515,0.10780336527,2.316235115730056,1.2886188292878689,-1.248934873341954, ,0.1499161793972682,0.14400142876854444,0.05171692051948052,0.0,0.16106240187480733,-0.022919868969843674, ,1.012336015701294
0.014661347745154343,0.02135936576911614,-0.09154431864160406, ,0.01573249223907959,0.020665859624721315,-0.09280614538616827, ,0.0017945773966249721, ,0.025341601383791455,-0.00480839562951457,-0.049166212140920235,-0.02859582833667413,-0.0338324111429446,-0.009768867293542068, ,0.0555214719321353, ,0.044295215805372094, ,0.0009399075073222966, ,0.22812952910459203,-0.16446331928948515,0.10780336527,2.316235115730056,1.2886188292878689,-1.248934873341954, ,0.1499161793972682,0.14400142876854444,0.05171692051948052,0.0,0.16106240187480733,-0.022919868969843674, ,1.015028953552246
0.014661347745154343,0.02135936576911614,-0.09154431864160406, ,0.015803942687329462,0.02065001164121388,-0.09294550872003733, ,0.0019421740695818117, ,0.025341601383791455,-0.00480839562951457,-0.049166212140920235,-0.02859582833667413,-0.0338324111429446,-0.009768867293542068, ,0.0555214719321353, ,0.044295215805372094, ,0.0009497336500895469, ,0.22812952910459203,-0.16446331928948515,0.10780336527,2.316235115730056,1.2886188292878689,-1.248934873341954, ,0.1499161793972682,0.14400142876854444,0.05171692051948052,0.0,0.16106240187480733,-0.022919868969843674, ,1.0177769660949707
0.01492001989159374,0.021307283040582856,-0.0920570099450317, ,0.015875544635045685,0.02063399219645579,-0.0930847710190097, ,0.0015564835114188138, ,0.0275942760773777,-0.005310928653309616,-0.054651454518577586,-0.019074270011480307,-0.02918354436846691,-0.02219346079709157, ,0.06145267704820709, ,0.03485712983314891, ,0.0009556244254422581, ,0.22965090748081424,-0.16298055457763405,0.10834132562000001,2.315815735843087,1.2902584672850541,-1.249210064564484, ,0.15922305630615904,0.157374695785192,0.05750473472924188,-0.0077355761239176245,0.18294223791826703,-0.047742550080452015, ,1.0205070972442627
0.01492001989159374,0.021307283040582856,-0.0920570099450317, ,0.01594729488853812,0.020617807130756387,-0.0932239271571793, ,0.001700695954479938, ,0.0275942760773777,-0.005310928653309616,-0.054651454518577586,-0.019074270011480307,-0.02918354436846691,-0.02219346079709157, ,0.06145267704820709, ,0.03485712983314891, ,0.0009627885747599281, ,0.22965090748081424,-0.16298055457763405,0.10834132562000001,2.315815735843087,1.2902584672850541,-1.249210064564484, ,0.15922305630615904,0.157374695785192,0.05750473472924188,-0.0077355761239176245,0.18294223791826703,-0.047742550080452015, ,1.023252010345459
0.01492001989159374,0.021307283040582856,-0.0920570099450317, ,0.016019190276593924,0.020601462250021123,-0.09336297204351342, ,0.0018471317024839928, ,0.0275942760773777,-0.005310928653309616,-0.054651454518577586,-0.019074270011480307,-0.02918354436846691,-0.02219346079709157, ,0.06145267704820709, ,0.03485712983314891, ,0.0009712108902620621, ,0.22965090748081424,-0.16298055457763405,0.10834132562000001,2.315815735843087,1.2902584672850541,-1.249210064564484, ,0.15922305630615904,0.157374695785192,0.05750473472924188,-0.0077355761239176245,0.18294223791826703,-0.047742550080452015, ,1.0260579586029053
0.01492001989159374,0.021307283040582856,-0.0920570099450317, ,0.016091227650421376,0.0205849633258276,-0.0935019006217764, ,0.0019952900672348135, ,0.0275942760773777,-0.005310928653309616,-0.054651454518577586,-0.019074270011480307,-0.02918354436846691,-0.02219346079709157, ,0.06145267704820709, ,0.03485712983314891, ,0.0009808720145731257, ,0.22965090748081424,-0.16298055457763405,0.10834132562000001,2.315815735843087,1.2902584672850541,-1.249210064564484, ,0.15922305630615904,0.157374695785192,0.05750473472924188,-0.0077355761239176245,0.18294223791826703,-0.047742550080452015, ,1.0288150310516357
0.015192943329584992,0.021254351738077472,-0.0926060914292159, ,0.016163403883591877,0.020568316095498734,-0.09364070787045221, ,0.0015757124643310614, ,0.02807408573365655,-0.005203502503613332,-0.05656184485954772,-0.007520039761707376,-0.02012628718803208,-0.011148398904350282, ,0.06335986917601198, ,0.021471830731341814, ,0.0009864312711129195, ,0.23121862225428183,-0.16143600800278915,0.10891947096000001,2.3153963559561177,1.2921713782817703,-1.2497897703345473, ,0.15895635101921404,0.1568544488569765,0.05965847011235956,-0.0253690299331869,0.199288334305479,-0.05896834445583023, ,1.0326499938964844
0.015192943329584992,0.021254351738077472,-0.0926060914292159, ,0.016235715871982928,0.020551526262177152,-0.09377938880266601, ,0.0017198735277044325, ,0.02807408573365655,-0.005203502503613332,-0.05656184485954772,-0.007520039761707376,-0.02012628718803208,-0.011148398904350282, ,0.06335986917601198, ,0.021471830731341814, ,0.0009932224031183965, ,0.23121862225428183,-0.16143600800278915,0.10891947096000001,2.3153963559561177,1.2921713782817703,-1.2497897703345473, ,0.15895635101921404,0.1568544488569765,0.05965847011235956,-0.0253690299331869,0.199288334305479,-0.05896834445583023, ,1.0355679988861084
0.015192943329584992,0.021254351738077472,-0.0926060914292159, ,0.016308160533720844,0.020534599494899962,-0.09391793846610945, ,0.0018661981009973267, ,0.02807408573365655,-0.005203502503613332,-0.05656184485954772,-0.007520039761707376,-0.02012628718803208,-0.011148398904350282, ,0.06335986917601198, ,0.021471830731341814, ,0.001001231354475084, ,0.23121862225428183,-0.16143600800278915,0.10891947096000001,2.3153963559561177,1.2921713782817703,-1.2497897703345473, ,0.15895635101921404,0.1568544488569765,0.05965847011235956,-0.0253690299331869,0.199288334305479,-0.05896834445583023, ,1.0409479141235352
0.01538043794998428,0.02121962745599066,-0.09297616880141206, ,0.016380734809123436,0.020517541428672487,-0.09405635194296072, ,0.0016310469691106402, ,0.02786196006824931,-0.005470069032468477,-0.054630740371197806,-0.014101914310350542,-0.023542179628022252,0.0006988267696590375, ,0.06156889042016196, ,0.027433767403014418, ,0.0010069569509717708, ,0.23228435939092482,-0.16039343906476883,0.10931095054000001,2.3153963559561177,1.2935377432794248,-1.2501688407102463, ,0.16002856923856792,0.15506036202364507,0.05771308521739131,-0.0253690299331869,0.19542940847660276,-0.045010333064874744, ,1.0442800521850586
0.01538043794998428,0.02121962745599066,-0.09297616880141206, ,0.016453435660642626,0.020500357664542546,-0.09419462434980953, ,0.0017757553444628714, ,0.02786196006824931,-0.005470069032468477,-0.054630740371197806,-0.014101914310350542,-0.023542179628022252,0.0006988267696590375, ,0.06156889042016196, ,0.027433767403014418, ,0.0010138830626248436, ,0.23228435939092482,-0.16039343906476883,0.10931095054000001,2.3153963559561177,1.2935377432794248,-1.2501688407102463, ,0.16002856923856792,0.15506036202364507,0.05771308521739131,-0.0253690299331869,0.19542940847660276,-0.045010333064874744, ,1.047227144241333
0.01538043794998428,0.02121962745599066,-0.09297616880141206, ,0.016526260072807265,0.020483053769675144,-0.09433275083757889, ,0.001922436982939502, ,0.02786196006824931,-0.005470069032468477,-0.054630740371197806,-0.014101914310350542,-0.023542179628022252,0.0006988267696590375, ,0.06156889042016196, ,0.027433767403014418, ,0.0010219951511990818, ,0.23228435939092482,-0.16039343906476883,0.10931095054000001,2.3153963559561177,1.2935377432794248,-1.2501688407102463, ,0.16002856923856792,0.15506036202364507,0.05771308521739131,-0.0253690299331869,0.19542940847660276,-0.045010333064874744, ,1.0499820709228516
0.01538043794998428,0.02121962745599066,-0.09297616880141206, ,0.0165992050521657,0.020465635277425988,-0.0944707265914478, ,0.0020706521780475126, ,0.02786196006824931,-0.005470069032468477,-0.054630740371197806,-0.014101914310350542,-0.023542179628022252,0.0006988267696590375, ,0.06156889042016196, ,0.027433767403014418, ,0.0010312753018791563, ,0.23228435939092482,-0.16039343906476883,0.10931095054000001,2.3153963559561177,1.2935377432794248,-1.2501688407102463, ,0.16002856923856792,0.15506036202364507,0.05771308521739131,-0.0253690299331869,0.19542940847660276,-0.045010333064874744, ,1.0527400970458984
0.01585302170049251,0.021103026967010583,-0.09383185724695835, ,0.0166722676272291,0.020448107687417116,-0.0946085468307752, ,0.0013051167997031208, ,0.025840444341562636,-0.007537512030089734,-0.04459511831594383,-0.06396494202025707,-0.052689528428776514,0.035872080851630614, ,0.052089031753202834, ,0.08287052454808047, ,0.0010336774202811209, ,0.23511087962289098,-0.15763642342867068,0.11021446467000001,2.3153963559561177,1.2965437462742644,-1.2503330298676316, ,0.15975916087284645,0.1558242061715448,0.04698764460176992,-0.0253690299331869,0.1526124074494248,0.007262492140469062, ,1.0554640293121338
0.01585302170049251,0.021103026967010583,-0.09383185724695835, ,0.016745444848412856,0.020430476465609002,-0.09474620680902081, ,0.0014438761628073897, ,0.025840444341562636,-0.007537512030089734,-0.04459511831594383,-0.06396494202025707,-0.052689528428776514,0.035872080851630614, ,0.052089031753202834, ,0.08287052454808047, ,0.0010372443658683058, ,0.23511087962289098,-0.15763642342867068,0.11021446467000001,2.3153963559561177,1.2965437462742644,-1.2503330298676316, ,0.15975916087284645,0.1558242061715448,0.04698764460176992,-0.0253690299331869,0.1526124074494248,0.007262492140469062, ,1.0582239627838135
0.01585302170049251,0.021103026967010583,-0.09383185724695835, ,0.01681873378798077,0.02041274704437712,-0.09488370181367033, ,0.0015860211852410124, ,0.025840444341562636,-0.007537512030089734,-0.04459511831594383,-0.06396494202025707,-0.052689528428776514,0.035872080851630614, ,0.052089031753202834, ,0.08287052454808047, ,0.0010419752005180706, ,0.23511087962289098,-0.15763642342867068,0.11021446467000001,2.3153963559561177,1.2965437462742644,-1.2503330298676316, ,0.15975916087284645,0.1558242061715448,0.04698764460176992,-0.0253690299331869,0.1526124074494248,0.007262492140469062, ,1.0610480308532715
0.01609840818353537,0.021031265040920986,-0.09425431276163551, ,0.016892131539987,0.02039492482258475,-0.0950210271661568, ,0.0012738824977797188, ,0.025958218814602328,-0.0077852907668389225,-0.04485052825858528,-0.024464576811021186,-0.028731256177021394,-0.0014555090149486853, ,0.05240238316551222, ,0.03773352774752619, ,0.0010439573141698797, ,0.23660908980049053,-0.15614593598394536,0.11066038843,2.3153963559561177,1.2980467477716844,-1.2504151244463246, ,0.15922305630615904,0.15816156926411795,0.047548691104477625,-0.022421907151804192,0.1861190437059834,-0.03992406906344921, ,1.063823938369751
0.01609840818353537,0.021031265040920986,-0.09425431276163551, ,0.016965635220218288,0.020377015165657056,-0.09515817822178296, ,0.0014131873203805181, ,0.025958218814602328,-0.0077852907668389225,-0.04485052825858528,-0.024464576811021186,-0.028731256177021394,-0.0014555090149486853, ,0.05240238316551222, ,0.03773352774752619, ,0.0010470863820191223, ,0.23660908980049053,-0.15614593598394536,0.11066038843,2.3153963559561177,1.2980467477716844,-1.2504151244463246, ,0.15922305630615904,0.15816156926411795,0.047548691104477625,-0.022421907151804192,0.1861190437059834,-0.03992406906344921, ,1.0665760040283203
0.01609840818353537,0.021031265040920986,-0.09425431276163551, ,0.017039241966137975,0.020359023405656783,-0.09529515036964578, ,0.0015557698894494514, ,0.025958218814602328,-0.0077852907668389225,-0.04485052825858528,-0.024464576811021186,-0.028731256177021394,-0.0014555090149486853, ,0.05240238316551222, ,0.03773352774752619, ,0.0010513610333420663, ,0.23660908980049053,-0.15614593598394536,0.11066038843,2.3153963559561177,1.2980467477716844,-1.2504151244463246, ,0.15922305630615904,0.15816156926411795,0.047548691104477625,-0.022421907151804192,0.1861190437059834,-0.03992406906344921, ,1.069338083267212
0.01609840818353537,0.021031265040920986,-0.09425431276163551, ,0.01711294893682773,0.020340954841357325,-0.09543193903255766, ,0.0017007718088205284, ,0.025958218814602328,-0.0077852907668389225,-0.04485052825858528,-0.024464576811021186,-0.028731256177021394,-0.0014555090149486853, ,0.05240238316551222, ,0.03773352774752619, ,0.0010567727898043867, ,0.23660908980049053,-0.15614593598394536,0.11066038843,2.3153963559561177,1.2980467477716844,-1.2504151244463246, ,0.15922305630615904,0.15816156926411795,0.047548691104477625,-0.022421907151804192,0.1861190437059834,-0.03992406906344921, ,1.0722520351409912
0.01609840818353537,0.021031265040920986,-0.09425431276163551, ,0.01718675331293032,0.020322814738317006,-0.09556853966697015, ,0.0018475901359995546, ,0.025958218814602328,-0.0077852907668389225,-0.04485052825858528,-0.024464576811021186,-0.028731256177021394,-0.0014555090149486853, ,0.05240238316551222, ,0.03773352774752619, ,0.0010633084703514542, ,0.23660908980049053,-0.15614593598394536,0.11066038843,2.3153963559561177,1.2980467477716844,-1.2504151244463246, ,0.15922305630615904,0.15816156926411795,0.047548691104477625,-0.022421907151804192,0.1861190437059834,-0.03992406906344921, ,1.0765321254730225
0.01609840818353537,0.021031265040920986,-0.09425431276163551, ,0.017260652296592544,0.02030460832895367,-0.09570494776289636, ,0.0019957913874616897, ,0.025958218814602328,-0.0077852907668389225,-0.04485052825858528,-0.024464576811021186,-0.028731256177021394,-0.0014555090149486853, ,0.05240238316551222, ,0.03773352774752619, ,0.0010709517729507185, ,0.23660908980049053,-0.15614593598394536,0.11066038843,2.3153963559561177,1.2980467477716844,-1.2504151244463246, ,0.15922305630615904,0.15816156926411795,0.047548691104477625,-0.022421907151804192,0.1861190437059834,-0.03992406906344921, ,1.0795180797576904
0.01609840818353537,0.021031265040920986,-0.09425431276163551, ,0.017334643111408272,0.020286340812619423,-0.09584115884383462, ,0.0021450569669345075, ,0.025958218814602328,-0.0077852907668389225,-0.04485052825858528,-0.024464576811021186,-0.028731256177021394,-0.0014555090149486853, ,0.05240238316551222, ,0.03773352774752619, ,0.0010796843355034324, ,0.23660908980049053,-0.15614593598394536,0.11066038843,2.3153963559561177,1.2980467477716844,-1.2504151244463246, ,0.15922305630615904,0.15816156926411795,0.047548691104477625,-0.022421907151804192,0.1861190437059834,-0.03992406906344921, ,1.0824711322784424
0.01609840818353537,0.021031265040920986,-0.09425431276163551, ,0.017408723002360158,0.020268017355673355,-0.09597716846668952, ,0.002295147867546851, ,0.025406049398001604,-0.007923274990265412,-0.04473900053681193,0.059669321819571894,0.038151509942756436,-0.045551799283577124, ,0.052055967973114486, ,0.07082221712699685, ,0.0010894864607618468, ,0.23806096358084475,-0.15466317127209425,0.11110890477000002,2.3151866660126332,1.302282479264413,-1.2512553597764156, ,0.14163722620667282,0.15633763024459765,0.040531327022900764,-0.006692906609453385,0.08697547224688444,0.07442008603133624, ,1.0861420631408691
0.016621600203317016,0.0208627592698784,-0.09516279059857695, ,0.01748288923576367,0.020249643091557818,-0.09611297222169692, ,0.0014214694377461031, ,0.02339499184594336,-0.008916399831424492,-0.03902574348984647,-0.12993806985872872,-0.07713489704515296,0.06017138920245735, ,0.046366329209469204, ,0.1511079210974911, ,0.001092142324577721, ,0.23976768754604835,-0.15284060631377727,0.11162612448,2.3151866660126332,1.302282479264413,-1.2512553597764156, ,0.14163722620667282,0.15633763024459765,0.040531327022900764,-0.006692906609453385,0.08697547224688444,0.07442008603133624, ,1.0888690948486328
0.016621600203317016,0.0208627592698784,-0.09516279059857695, ,0.01755713909920865,0.020231223120870966,-0.09624856573234489, ,0.0015661987659100177, ,0.02339499184594336,-0.008916399831424492,-0.03902574348984647,-0.12993806985872872,-0.07713489704515296,0.06017138920245735, ,0.046366329209469204, ,0.1511079210974911, ,0.0010959046772867074, ,0.23976768754604835,-0.15284060631377727,0.11162612448,2.3151866660126332,1.302282479264413,-1.2512553597764156, ,0.14163722620667282,0.15633763024459765,0.040531327022900764,-0.006692906609453385,0.08697547224688444,0.07442008603133624, ,1.0916330814361572
0.016828317600463657,0.020775343988862993,-0.09550160610552867, ,0.017631469901502453,0.020212762511441693,-0.09638394465529773, ,0.0013191182107036555, ,0.021766224878705595,-0.009305914105671467,-0.03473302195551822,-0.10939558748026053,-0.07570786822467288,0.021685854623455358, ,0.042032741963557746, ,0.13303768384274622, ,0.001097662264164006, ,0.24104966120316962,-0.15141190073204575,0.11197612278,2.3147672861256643,1.3029656617632401,-1.2506689469329302, ,0.13498853706752598,0.15183510649355325,0.03603803511312218,-0.011665955100209813,0.0827429902865578,0.026989193075063485, ,1.0944230556488037
0.016828317600463657,0.020775343988862993,-0.09550160610552867, ,0.017705878972613148,0.020194266298404564,-0.09651910468031856, ,0.0014639223319346051, ,0.021766224878705595,-0.009305914105671467,-0.03473302195551822,-0.10939558748026053,-0.07570786822467288,0.021685854623455358, ,0.042032741963557746, ,0.13303768384274622, ,0.001100523670943464, ,0.24104966120316962,-0.15141190073204575,0.11197612278,2.3147672861256643,1.3029656617632401,-1.2506689469329302, ,0.13498853706752598,0.15183510649355325,0.03603803511312218,-0.011665955100209813,0.0827429902865578,0.026989193075063485, ,1.0972111225128174
0.016828317600463657,0.020775343988862993,-0.09550160610552867, ,0.01778036366361117,0.020175739484272374,-0.09665404153019175, ,0.0016105976146444537, ,0.021766224878705595,-0.009305914105671467,-0.03473302195551822,-0.10939558748026053,-0.07570786822467288,0.021685854623455358, ,0.042032741963557746, ,0.13303768384274622, ,0.0011044777325225415, ,0.24104966120316962,-0.15141190073204575,0.11197612278,2.3147672861256643,1.3029656617632401,-1.2506689469329302, ,0.13498853706752598,0.15183510649355325,0.03603803511312218,-0.011665955100209813,0.0827429902865578,0.026989193075063485, ,1.0999400615692139
0.016828317600463657,0.020775343988862993,-0.09550160610552867, ,0.017854921346613085,0.020157187039012148,-0.09678875096064597, ,0.0017586287681918193, ,0.021766224878705595,-0.009305914105671467,-0.03473302195551822,-0.10939558748026053,-0.07570786822467288,0.021685854623455358, ,0.042032741963557746, ,0.13303768384274622, ,0.0011095096635661513, ,0.24104966120316962,-0.15141190073204575,0.11197612278,2.3147672861256643,1.3029656617632401,-1.2506689469329302, ,0.13498853706752598,0.15183510649355325,0.03603803511312218,-0.011665955100209813,0.0827429902865578,0.026989193075063485, ,1.1026561260223389
0.017065004238835633,0.02067697795728177,-0.095899939737596, ,0.01792954941472353,0.02013861390011839,-0.09692322876027705, ,0.0014437432746634644, ,0.02435293870794466,-0.00881997693308513,-0.04407913294666756,0.04914834464793616,0.025642267115158525,-0.09534402202699888, ,0.05112560589511929, ,0.055433917774952615, ,0.0011120610651775811, ,0.24248608951777537,-0.14975151316408747,0.11239871332000001,2.31455759618218,1.3050152092597218,-1.2517684643073923, ,0.13934940023270306,0.16277348466290012,0.04698764460176992,-0.012281617317737172,0.23561455362303288,-0.14518368750592966, ,1.1053950786590576
0.017065004238835633,0.02067697795728177,-0.095899939737596, ,0.018004245281978328,0.0201200249726875,-0.09705747075047068, ,0.00159130399670802, ,0.02435293870794466,-0.00881997693308513,-0.04407913294666756,0.04914834464793616,0.025642267115158525,-0.09534402202699888, ,0.05112560589511929, ,0.055433917774952615, ,0.001115691693446751, ,0.24248608951777537,-0.14975151316408747,0.11239871332000001,2.31455759618218,1.3050152092597218,-1.2517684643073923, ,0.13934940023270306,0.16277348466290012,0.04698764460176992,-0.012281617317737172,0.23561455362303288,-0.14518368750592966, ,1.1081900596618652
0.017065004238835633,0.02067697795728177,-0.095899939737596, ,0.01807900638328726,0.0201014251294924,-0.09719147278532589, ,0.001739976729702812, ,0.02435293870794466,-0.00881997693308513,-0.04407913294666756,0.04914834464793616,0.025642267115158525,-0.09534402202699888, ,0.05112560589511929, ,0.055433917774952615, ,0.001120385565899804, ,0.24248608951777537,-0.14975151316408747,0.11239871332000001,2.31455759618218,1.3050152092597218,-1.2517684643073923, ,0.13934940023270306,0.16277348466290012,0.04698764460176992,-0.012281617317737172,0.23561455362303288,-0.14518368750592966, ,1.1109530925750732
0.017322108923105504,0.020600782441053213,-0.09638626555185867, ,0.018153830174376415,0.020082819211056386,-0.09732523075157658, ,0.0013570931411386942, ,0.02530141153214991,-0.0066084839155790605,-0.04871895233541428,0.07364480235761854,0.034623040977107,-0.09750225423255263, ,0.055293487879153044, ,0.08137590192476242, ,0.0011221520403418854, ,0.24389162690088423,-0.14816835292487143,0.11291982190000001,2.31455759618218,1.3076113027552652,-1.253395332036781, ,0.1359555036654309,0.1464458974667759,0.05222561154098361,-0.012281617317737172,0.24354356093961885,-0.15393396996757855, ,1.113940954208374
0.017322108923105504,0.020600782441053213,-0.09638626555185867, ,0.01822871413173116,0.020064212025727425,-0.09745874056851574, ,0.0015033440977579404, ,0.02530141153214991,-0.0066084839155790605,-0.04871895233541428,0.07364480235761854,0.034623040977107,-0.09750225423255263, ,0.055293487879153044, ,0.08137590192476242, ,0.0011249756852116338, ,0.24389162690088423,-0.14816835292487143,0.11291982190000001,2.31455759618218,1.3076113027552652,-1.253395332036781, ,0.1359555036654309,0.1464458974667759,0.05222561154098361,-0.012281617317737172,0.24354356093961885,-0.15393396996757855, ,1.1167750358581543
0.017322108923105504,0.020600782441053213,-0.09638626555185867, ,0.01830365575253878,0.020045608349752594,-0.0975919981879169, ,0.0016508917710370728, ,0.02530141153214991,-0.0066084839155790605,-0.04871895233541428,0.07364480235761854,0.034623040977107,-0.09750225423255263, ,0.055293487879153044, ,0.08137590192476242, ,0.001128842715254468, ,0.24389162690088423,-0.14816835292487143,0.11291982190000001,2.31455759618218,1.3076113027552652,-1.253395332036781, ,0.1359555036654309,0.1464458974667759,0.05222561154098361,-0.012281617317737172,0.24354356093961885,-0.15393396996757855, ,1.1197869777679443
0.017322108923105504,0.020600782441053213,-0.09638626555185867, ,0.01837865255463116,0.020027012927352202,-0.09772499959395821, ,0.0017993623136117658, ,0.02530141153214991,-0.0066084839155790605,-0.04871895233541428,0.07364480235761854,0.034623040977107,-0.09750225423255263, ,0.055293487879153044, ,0.08137590192476242, ,0.0011337370188921126, ,0.24389162690088423,-0.14816835292487143,0.11291982190000001,2.31455759618218,1.3076113027552652,-1.253395332036781, ,0.1359555036654309,0.1464458974667759,0.05222561154098361,-0.012281617317737172,0.24354356093961885,-0.15393396996757855, ,1.1229989528656006
0.01735661435875216,0.020592315759724866,-0.0964518413022213, ,0.01845370207642766,0.020008430470794134,-0.09785774080314494, ,0.00187645327615731, ,0.02554906533924205,-0.0064969372048891035,-0.04891566627543212,0.06114553657177254,0.02574782577510846,-0.08555313162748229, ,0.0555671426287386, ,0.06634340300307932, ,0.001139119020756353, ,0.24407697248986562,-0.14797528460301582,0.11298982156000001,2.31455759618218,1.307884575754796,-1.2535364891040335, ,0.1375317993601026,0.14532456593946522,0.05239740631578948,-0.012281617317737172,0.2328049513474393,-0.1378165992432581, ,1.1258111000061035
0.01735661435875216,0.020592315759724866,-0.0964518413022213, ,0.01852880187687756,0.01998986566046794,-0.09799021786423151, ,0.0020257275597389754, ,0.02554906533924205,-0.0064969372048891035,-0.04891566627543212,0.06114553657177254,0.02574782577510846,-0.08555313162748229, ,0.0555671426287386, ,0.06634340300307932, ,0.00114549749945407, ,0.24407697248986562,-0.14797528460301582,0.11298982156000001,2.31455759618218,1.307884575754796,-1.2535364891040335, ,0.1375317993601026,0.14532456593946522,0.05239740631578948,-0.012281617317737172,0.2328049513474393,-0.1378165992432581, ,1.1285910606384277
0.01735661435875216,0.020592315759724866,-0.0964518413022213, ,0.018603949535403033,0.019971323144959426,-0.09812242685814522, ,0.002175392601386131, ,0.02554906533924205,-0.0064969372048891035,-0.04891566627543212,0.06114553657177254,0.02574782577510846,-0.08555313162748229, ,0.0555671426287386, ,0.06634340300307932, ,0.0011528538930392989, ,0.24407697248986562,-0.14797528460301582,0.11298982156000001,2.31455759618218,1.307884575754796,-1.2535364891040335, ,0.1375317993601026,0.14532456593946522,0.05239740631578948,-0.012281617317737172,0.2328049513474393,-0.1378165992432581, ,1.131403923034668
0.017836952378469023,0.020479546771735937,-0.09736280647511615, ,0.018679142651841465,0.01995280754112417,-0.09825436389790848, ,0.0013347708836218776, ,0.02659029027761578,-0.006011347575693618,-0.05288904105591343,-0.07258455479197123,-0.026323741574459776,0.06856134879921133, ,0.05950151679190844, ,0.07720779189071905, ,0.0011541440844618704, ,0.24661002887261127,-0.14538816909015062,0.11395296503,2.31455759618218,1.310344032750574,-1.2523565405050872, ,0.13365766416686023,0.1424879002379441,0.05589056673684212,-0.012281617317737172,0.14728259042700476,0.05742254642724362, ,1.134187936782837
0.017836952378469023,0.020479546771735937,-0.09736280647511615, ,0.018754378846388736,0.019934323434162887,-0.09838602512856227, ,0.0014784844350327238, ,0.02659029027761578,-0.006011347575693618,-0.05288904105591343,-0.07258455479197123,-0.026323741574459776,0.06856134879921133, ,0.05950151679190844, ,0.07720779189071905, ,0.0011564281714377216, ,0.24661002887261127,-0.14538816909015062,0.11395296503,2.31455759618218,1.310344032750574,-1.2523565405050872, ,0.13365766416686023,0.1424879002379441,0.05589056673684212,-0.012281617317737172,0.14728259042700476,0.05742254642724362, ,1.1369340419769287
0.017836952378469023,0.020479546771735937,-0.09736280647511615, ,0.018829655759541507,0.019915875377694778,-0.0985174067270885, ,0.001623664739134179, ,0.02659029027761578,-0.006011347575693618,-0.05288904105591343,-0.07258455479197123,-0.026323741574459776,0.06856134879921133, ,0.05950151679190844, ,0.07720779189071905, ,0.0011596955600230116, ,0.24661002887261127,-0.14538816909015062,0.11395296503,2.31455759618218,1.310344032750574,-1.2523565405050872, ,0.13365766416686023,0.1424879002379441,0.05589056673684212,-0.012281617317737172,0.14728259042700476,0.05742254642724362, ,1.1396949291229248
0.017836952378469023,0.020479546771735937,-0.09736280647511615, ,0.018904971052039837,0.019897467893831854,-0.09864850490233278, ,0.001769887045250442, ,0.02659029027761578,-0.006011347575693618,-0.05288904105591343,-0.07258455479197123,-0.026323741574459776,0.06856134879921133, ,0.05950151679190844, ,0.07720779189071905, ,0.0011639330008926464, ,0.24661002887261127,-0.14538816909015062,0.11395296503,2.31455759618218,1.310344032750574,-1.2523565405050872, ,0.13365766416686023,0.1424879002379441,0.05589056673684212,-0.012281617317737172,0.14728259042700476,0.05742254642724362, ,1.1424589157104492
0.018123525418553388,0.02041902149843601,-0.09794303894930388, ,0.018980322404810398,0.019879105473253778,-0.09877931589492754, ,0.0013133809499491433, ,0.0279070047576794,-0.005194211846384116,-0.05774347349765111,0.09260490811112385,0.06593921690123007,-0.06260467292244937, ,0.06434352712452275, ,0.11367940605987684, ,0.001164963676403381, ,0.24796922985847478,-0.14392084984404796,0.11455185101000001,2.31455759618218,1.3126668532465864,-1.2527804275453958, ,0.13576100366018712,0.14291708066034756,0.062465927529411776,-0.012281617317737172,0.28227796051071485,-0.12289783764091065, ,1.1452760696411133
0.018123525418553388,0.02041902149843601,-0.09794303894930388, ,0.019055707518908893,0.019860792575281946,-0.09890983597721496, ,0.0014544000453955742, ,0.0279070047576794,-0.005194211846384116,-0.05774347349765111,0.09260490811112385,0.06593921690123007,-0.06260467292244937, ,0.06434352712452275, ,0.11367940605987684, ,0.001166946117286889, ,0.24796922985847478,-0.14392084984404796,0.11455185101000001,2.31455759618218,1.3126668532465864,-1.2527804275453958, ,0.13576100366018712,0.14291708066034756,0.062465927529411776,-0.012281617317737172,0.28227796051071485,-0.12289783764091065, ,1.1479830741882324
0.018123525418553388,0.02041902149843601,-0.09794303894930388, ,0.01913112411546235,0.019842533627952692,-0.09904006145316888, ,0.0015972012311581945, ,0.0279070047576794,-0.005194211846384116,-0.05774347349765111,0.09260490811112385,0.06593921690123007,-0.06260467292244937, ,0.06434352712452275, ,0.11367940605987684, ,0.0011698730228234286, ,0.24796922985847478,-0.14392084984404796,0.11455185101000001,2.31455759618218,1.3126668532465864,-1.2527804275453958, ,0.13576100366018712,0.14291708066034756,0.062465927529411776,-0.012281617317737172,0.28227796051071485,-0.12289783764091065, ,1.150723934173584
0.018123525418553388,0.02041902149843601,-0.09794303894930388, ,0.019206569935612792,0.019824333028093416,-0.09916998865831912, ,0.0017412769426898855, ,0.0279070047576794,-0.005194211846384116,-0.05774347349765111,0.09260490811112385,0.06593921690123007,-0.06260467292244937, ,0.06434352712452275, ,0.11367940605987684, ,0.0011737338601198236, ,0.24931298537858984,-0.14256937159105867,0.11515851473000001,2.31455759618218,1.3153995832418952,-1.2535385682967943, ,0.133469678703897,0.1284126408098387,0.05750473472924188,-0.011403776741763042,0.25458518712929984,-0.03929003029961474, ,1.1536519527435303
0.018410318488187458,0.020370374223257014,-0.09852584975864066, ,0.019282042740458995,0.01980619514139511,-0.09929961395967296, ,0.0012949564653717373, ,0.026641518785252474,-0.0047210669296256745,-0.05284730239030057,0.04153009073913623,0.044811974724301526,0.017832761116836245, ,0.05937083767364945, ,0.061093774721113284, ,0.0011745474346517154, ,0.24931298537858984,-0.14256937159105867,0.11515851473000001,2.31455759618218,1.3153995832418952,-1.2535385682967943, ,0.133469678703897,0.1284126408098387,0.05750473472924188,-0.011403776741763042,0.25458518712929984,-0.03929003029961474, ,1.1564059257507324
0.018410318488187458,0.020370374223257014,-0.09852584975864066, ,0.019357540310999437,0.019788124302487275,-0.09942893375563823, ,0.0014324122512324156, ,0.026641518785252474,-0.0047210669296256745,-0.05284730239030057,0.04153009073913623,0.044811974724301526,0.017832761116836245, ,0.05937083767364945, ,0.061093774721113284, ,0.0011762665334289202, ,0.24931298537858984,-0.14256937159105867,0.11515851473000001,2.31455759618218,1.3153995832418952,-1.2535385682967943, ,0.133469678703897,0.1284126408098387,0.05750473472924188,-0.011403776741763042,0.25458518712929984,-0.03929003029961474, ,1.1592190265655518
0.018410318488187458,0.020370374223257014,-0.09852584975864066, ,0.019433060448075877,0.01977012481501299,-0.0995579444759472, ,0.0015721068583610187, ,0.026641518785252474,-0.0047210669296256745,-0.05284730239030057,0.04153009073913623,0.044811974724301526,0.017832761116836245, ,0.05937083767364945, ,0.061093774721113284, ,0.0011788879925344307, ,0.24931298537858984,-0.14256937159105867,0.11515851473000001,2.31455759618218,1.3153995832418952,-1.2535385682967943, ,0.133469678703897,0.1284126408098387,0.05750473472924188,-0.011403776741763042,0.25458518712929984,-0.03929003029961474, ,1.1622040271759033
0.018657784858836384,0.020320779132848254,-0.09900082976553794, ,0.019508600972314705,0.019752200951701587,-0.099686642581578, ,0.0012318719193468162, ,0.02556182475303278,-0.005610988360326419,-0.04798732817745332,-0.02376331326985974,0.0041472846365809245,0.06033608029739563, ,0.05465961709246675, ,0.02411722537128398, ,0.0011792365710003017, ,0.2506721863644534,-0.14124878426956627,0.11571462314000001,2.31455759618218,1.3175857672381421,-1.253442643732704, ,0.13161850424198443,0.12789345223513582,0.0515495518446602,-0.010018617223929455,0.18672396279382267,0.03571070119981003, ,1.165097951889038
0.018657784858836384,0.020320779132848254,-0.09900082976553794, ,0.01958415972407056,0.01973435695444402,-0.09981502456467842, ,0.0013656407042884357, ,0.02556182475303278,-0.005610988360326419,-0.04798732817745332,-0.02376331326985974,0.0041472846365809245,0.06033608029739563, ,0.05465961709246675, ,0.02411722537128398, ,0.0011804548986688516, ,0.2506721863644534,-0.14124878426956627,0.11571462314000001,2.31455759618218,1.3175857672381421,-1.253442643732704, ,0.13161850424198443,0.12789345223513582,0.0515495518446602,-0.010018617223929455,0.18672396279382267,0.03571070119981003, ,1.1677989959716797
0.018657784858836384,0.020320779132848254,-0.09900082976553794, ,0.019659734563368707,0.019716597034366803,-0.09994308694848794, ,0.0015022609018937878, ,0.02556182475303278,-0.005610988360326419,-0.04798732817745332,-0.02376331326985974,0.0041472846365809245,0.06033608029739563, ,0.05465961709246675, ,0.02411722537128398, ,0.001182544548040442, ,0.2506721863644534,-0.14124878426956627,0.11571462314000001,2.31455759618218,1.3175857672381421,-1.253442643732704, ,0.13161850424198443,0.12789345223513582,0.0515495518446602,-0.010018617223929455,0.18672396279382267,0.03571070119981003, ,1.1705241203308105
0.018657784858836384,0.020320779132848254,-0.09900082976553794, ,0.019735323369847853,0.019698925371906244,-0.10007082628726134, ,0.0016409399438159576, ,0.02556182475303278,-0.005610988360326419,-0.04798732817745332,-0.02376331326985974,0.0041472846365809245,0.06033608029739563, ,0.05465961709246675, ,0.02411722537128398, ,0.0011855019376906066, ,0.2506721863644534,-0.14124878426956627,0.11571462314000001,2.31455759618218,1.3175857672381421,-1.253442643732704, ,0.13161850424198443,0.12789345223513582,0.0515495518446602,-0.010018617223929455,0.18672396279382267,0.03571070119981003, ,1.1732370853424072
0.018908205567111817,0.020261625369681492,-0.09947136521066814, ,0.019810924042702845,0.019681346116882704,-0.10019823916619108, ,0.001296136722965474, ,0.025640257150946148,-0.005836178272334293,-0.048053891108248835,-0.00566683204429259,0.014577511901305875,0.024418368450078085, ,0.054778282322801505, ,0.015632037649818763, ,0.0011862111350321122, ,0.25196188275444886,-0.139966810612445,0.11622017624000001,2.3143479062386954,1.3194986782348583,-1.253123883361221, ,0.12999581035406957,0.13017413108157858,0.05171692051948052,0.007093004452309424,0.1964703987416374,0.012118712804487355, ,1.17598295211792
0.018908205567111817,0.020261625369681492,-0.09947136521066814, ,0.019886534500627252,0.019663863388574773,-0.10032532220132986, ,0.0014295766611518612, ,0.025640257150946148,-0.005836178272334293,-0.048053891108248835,-0.00566683204429259,0.014577511901305875,0.024418368450078085, ,0.054778282322801505, ,0.015632037649818763, ,0.0011877612339245946, ,0.25196188275444886,-0.139966810612445,0.11622017624000001,2.3143479062386954,1.3194986782348583,-1.253123883361221, ,0.12999581035406957,0.13017413108157858,0.05171692051948052,0.007093004452309424,0.1964703987416374,0.012118712804487355, ,1.1787281036376953
0.018908205567111817,0.020261625369681492,-0.09947136521066814, ,0.01996215268175639,0.01964648127579389,-0.10045207203951442, ,0.001565564646016941, ,0.025640257150946148,-0.005836178272334293,-0.048053891108248835,-0.00566683204429259,0.014577511901305875,0.024418368450078085, ,0.054778282322801505, ,0.015632037649818763, ,0.0011901523947606223, ,0.25196188275444886,-0.139966810612445,0.11622017624000001,2.3143479062386954,1.3194986782348583,-1.253123883361221, ,0.12999581035406957,0.13017413108157858,0.05171692051948052,0.007093004452309424,0.1964703987416374,0.012118712804487355, ,1.18149995803833
0.01916862835586491,0.020201641650742952,-0.0999491582895769, ,0.02003777654360955,0.01962920383695788,-0.10057848535828741, ,0.001216205649683714, ,0.02433097454239148,-0.005840686828850414,-0.044297471376536744,0.03895973448006275,0.03657179094122005,-0.013606452153026222, ,0.05087608392133087, ,0.05343394273806601, ,0.001190316251709824, ,0.2533056382745639,-0.13866166875670108,0.11673609966000001,2.3143479062386954,1.32154822573134,-1.2531615771138562, ,0.12585801267701696,0.12404828961891604,0.04812329764350454,0.006621130083741828,0.22326985493586868,-0.039775057340533035, ,1.1844091415405273
0.01916862835586491,0.020201641650742952,-0.0999491582895769, ,0.02011340406303324,0.019612035100166014,-0.10070455886582025, ,0.001345684603437014, ,0.02433097454239148,-0.005840686828850414,-0.044297471376536744,0.03895973448006275,0.03657179094122005,-0.013606452153026222, ,0.05087608392133087, ,0.05343394273806601, ,0.001191287303908119, ,0.2533056382745639,-0.13866166875670108,0.11673609966000001,2.3143479062386954,1.32154822573134,-1.2531615771138562, ,0.12585801267701696,0.12404828961891604,0.04812329764350454,0.006621130083741828,0.22326985493586868,-0.039775057340533035, ,1.1871590614318848
0.01916862835586491,0.020201641650742952,-0.0999491582895769, ,0.02018903323614352,0.019594979063272826,-0.10083028930083679, ,0.0014783969269909303, ,0.02433097454239148,-0.005840686828850414,-0.044297471376536744,0.03895973448006275,0.03657179094122005,-0.013606452153026222, ,0.05087608392133087, ,0.05343394273806601, ,0.0011930705934924844, ,0.2533056382745639,-0.13866166875670108,0.11673609966000001,2.3143479062386954,1.32154822573134,-1.2531615771138562, ,0.12585801267701696,0.12404828961891604,0.04812329764350454,0.006621130083741828,0.22326985493586868,-0.039775057340533035, ,1.1898729801177979
0.01916862835586491,0.020201641650742952,-0.0999491582895769, ,0.020264662078268665,0.01957803969396209,-0.10095567343253534, ,0.0016134565547766665, ,0.02433097454239148,-0.005840686828850414,-0.044297471376536744,0.03895973448006275,0.03657179094122005,-0.013606452153026222, ,0.05087608392133087, ,0.05343394273806601, ,0.0011956655685621397, ,0.2533056382745639,-0.13866166875670108,0.11673609966000001,2.3143479062386954,1.32154822573134,-1.2531615771138562, ,0.12585801267701696,0.12404828961891604,0.04812329764350454,0.006621130083741828,0.22326985493586868,-0.039775057340533035, ,1.192681074142456
0.019396391388406594,0.020143287020897883,-0.10034525597603956, ,0.020340288623892498,0.01956122092982202,-0.10108070806051161, ,0.0013306512293206495, ,0.023459197281314015,-0.006997401670627405,-0.040282165455867686,-0.04705471946699629,-0.022111919103351543,0.026598986454429967, ,0.04713756910403431, ,0.05199016760424256, ,0.0011964937014502287, ,0.2545026618700687,-0.1374723678940705,0.11716776423000001,2.3147672861256643,1.3235977732278217,-1.2535259858270535, ,0.12502890850918416,0.12737844504492724,0.04316751089430895,0.00613006370996048,0.13875867127692645,0.03017772565189368, ,1.1955130100250244
0.019396391388406594,0.020143287020897883,-0.10034525597603956, ,0.02041591092659613,0.019544526678418304,-0.10120539001468193, ,0.0014621096405221094, ,0.023459197281314015,-0.006997401670627405,-0.040282165455867686,-0.04705471946699629,-0.022111919103351543,0.026598986454429967, ,0.04713756910403431, ,0.05199016760424256, ,0.0011981133108348134, ,0.2545026618700687,-0.1374723678940705,0.11716776423000001,2.3147672861256643,1.3235977732278217,-1.2535259858270535, ,0.12502890850918416,0.12737844504492724,0.04316751089430895,0.00613006370996048,0.13875867127692645,0.03017772565189368, ,1.198301076889038
