NicholasDascanio/dvrk_moveit_final/test/execution/third_experiment_notsharpbends/thirdexp_400vel5.0/thirdexp_400vel5.0_25.csv
Current Position (x),Current Position (y),Current Position (z), ,Planned Position (x),Planned Position (y),Planned Position (z), ,Position Error,,Cartesian linear Velocity(x),Cartesian linear Velocity(y),Cartesian linear Velocity(z),Cartesian Angular Velocity(x),Cartesian Angular Velocity(y),Cartesian Angular Velocity(z), ,Total Linear Velocity, ,Total Angular Velocity, ,MSE, ,Joint 1 Position,Joint 2 Position,Joint 3 Position,Joint 4 Position,Joint 5 Position,Joint 6 Position, ,Joint 1 Velocity,Joint 2 Velocity,Joint 3 Velocity,Joint 4 Velocity,Joint 5 Velocity,Joint 6 Velocity, ,Time Stamp
0.009079763286128464,0.02017142376495913,-0.07428947618879801, ,0.009273535842425042,0.02011200212922759,-0.07463681798979097, ,0.00040215054529833854, ,0.00047101367914491045,0.00015559001322567527,-0.0023847467826860064,0.1260326241698503,0.0003383766981447068,-0.04648077225982499, ,0.0024357913202260263, ,0.1260330784113895, ,3.3512545441528214e-05, ,0.18104402677044518,-0.2558309719244353,0.08508717931000001,1.70603738019009,0.5153928771152414,-1.2410579924154115, ,0.0004782905440088236,0.005821016634548179,0.0023852667744833785,-0.0030208833612005146,0.0,-0.14083806113145814, ,0.029308080673217773
0.009116633399019514,0.02020163748480125,-0.07446481950628882, ,0.009355459581908334,0.020120972655051507,-0.07500447703145366, ,0.000595629922736291, ,0.0019787324310819613,0.0021832453645939612,-0.010615909249305678,0.3632866329451426,0.0037193619889011563,-0.13589705120531845, ,0.011017235204230253, ,0.36330567184588985, ,4.53536576379377e-05, ,0.1810517495033194,-0.25569968546557353,0.0852440304,1.7058276902466056,0.514982967615945,-1.245624463112756, ,0.0004724390482589125,0.007919155640564779,0.01099296861283644,-0.000954731187142019,0.0,-0.3951815095106226, ,0.0570528507232666
0.00922585473244406,0.02028137831477286,-0.074914734824026, ,0.009437429897241707,0.020129916129394167,-0.07537008206796848, ,0.0005244482400817631, ,0.0038426002945163773,0.002636472282961197,-0.016235269301145275,0.32302117172132616,-0.10851003501278195,-0.12018632227214465, ,0.01689084167242563, ,0.3407595984718902, ,4.756964712863727e-05, ,0.18106719496906784,-0.2552826578903654,0.08569643561000001,1.7049889304726675,0.5117036916215745,-1.252996918461331, ,0.0006753340212535425,0.017393134449866343,0.01630379889457523,-0.04221254819030948,-0.10560247313215904,-0.37915527617871503, ,0.0855400562286377
0.009334272325069623,0.020319927213608646,-0.0753099469788164, ,0.009519445447568265,0.02013883207964315,-0.07573363828692883, ,0.000496587210278214, ,0.0026580139617880284,0.0008752358111426329,-0.012685001674295936,-0.17349985097328133,-0.007378075088633695,0.05132366350959486, ,0.012990009369629312, ,0.1736566553614543, ,4.8067045676062066e-05, ,0.18115214503068433,-0.2544949391371945,0.08608402632,1.7049889304726675,0.5080145061279076,-1.2556244681312263, ,0.004392900866115141,0.030376741856104606,0.012722692907348242,-0.006244482951037686,0.0,0.15133778776494172, ,0.11304688453674316
0.009383724959301343,0.020324194427757323,-0.07567794824919852, ,0.00960150489807339,0.02014772003749352,-0.07609515087250818, ,0.0005026224637309791, ,0.0017523055687147205,0.00013000505827847003,-0.011767634499353372,0.02130238274734169,0.06984112764711227,-0.04975809938357986, ,0.01189809639529359, ,0.07301763072079925, ,4.848919965626126e-05, ,0.18119848142792966,-0.25339831106905464,0.08645476526000001,1.7037307908117605,0.5106105996234509,-1.2535757925542896, ,0.0007975890055538673,0.03952392401435684,0.011790386025166546,0.044301124579999004,0.0614911933201462,-0.05014194499480997, ,0.1432790756225586
0.009431563109387238,0.02031682174358805,-0.07591171684698715, ,0.009683606919975168,0.020156579538939637,-0.07645462500545502, ,0.0006196393427932456, ,0.0031805789110385062,8.051867625827693e-05,-0.013545167485485357,0.03861102415318967,-0.014130503904096977,-0.03872957463978387, ,0.013020710073370105, ,0.009589446336091252, ,5.066254395030373e-05, ,0.18135293608541417,-0.2521935647406756,0.08678791179,1.7039404807552447,0.5108838726229818,-1.2544520582828071, ,0.008239019249424826,0.04263115074504527,0.013385555899159665,0.0,-0.007025043028140292,-0.08623250982466268, ,0.17090892791748047
0.009525702670173303,0.020313060814798535,-0.0763292669606207, ,0.00976575019051453,0.020165410124266807,-0.07681206586308695, ,0.0005590333788416223, ,0.002921603534411241,-0.00033379605556005767,-0.013701189456126833,-0.011717893735679991,-0.015998511353604212,0.018961496924125368, ,0.014013200188810294, ,0.01983080725299155, ,5.139043199667296e-05, ,0.18150739074289865,-0.25119733219990065,0.08709513252000001,1.7031017209813069,0.5107472361232164,-1.2558925364417814, ,0.005547473596038338,0.04538352059228636,0.013430701112984824,-0.04378535715740548,0.0,-0.04311151138598515, ,0.19825291633605957
0.009623037873376556,0.020315525115494344,-0.07677368874611905, ,0.009847933392945478,0.0201742113380434,-0.0771674786192857, ,0.000474992676394322, ,0.0030455393186120928,-4.462243168920941e-05,-0.013411403767231997,-0.02126884538926103,-0.012639821537236785,0.009027329600432125, ,0.013752928848443398, ,0.024741229532986624, ,5.154449111302192e-05, ,0.1817081817976285,-0.24981496301541445,0.08753457483,1.7031017209813069,0.5107472361232164,-1.2563009301424841, ,0.00773643019065634,0.04154857336185235,0.013251923061564062,-0.026023053772860093,0.001344862087416014,-0.025537635602467308, ,0.22536396980285645
0.009678659857300442,0.02031487458037862,-0.0770300484553636, ,0.009930155216525346,0.02018298272911237,-0.07752086844449102, ,0.0005670534700265446, ,0.0026391171917897797,-2.5223298951336558e-05,-0.012652584516866381,-0.00885150669933891,0.0035279127108600785,-0.004702236137356637, ,0.01292491666213973, ,0.00952864180677167, ,5.2690636113125775e-05, ,0.18184719098936453,-0.24901952152936932,0.08778864767000001,1.7026823410943377,0.5110205091227473,-1.2570955171308609, ,0.0052276698220234345,0.03952392401435684,0.012522650566037737,-0.010997734265724287,0.011613930958693324,-0.03289185887448959, ,0.250262975692749
0.009767559175213561,0.02032695335722348,-0.0774548394465524, ,0.01001241435650494,0.020191723850582745,-0.07787224050569592, ,0.0005024586783464527, ,0.003543081631469469,0.0010233295029058126,-0.01493121126036545,-0.012822325605113764,-0.02412097114886015,-0.037420244725658254, ,0.01537991223708503, ,0.027317257200639284, ,5.2975918469977496e-05, ,0.18203253657834592,-0.24789200252973254,0.08821253450000001,1.7016338913769151,0.5114304186220436,-1.2581648795032152, ,0.007646510026272482,0.0350173216082918,0.01495663053521127,0.01889698994073328,-0.022182878699086566,-0.021428165804133228, ,0.2753760814666748
0.009832736351057015,0.02034386142979837,-0.07774816679395141, ,0.010094709514118607,0.020200434259822105,-0.07822159996644087, ,0.0005597680413040146, ,0.0030083582522701198,0.0006235574094243427,-0.013621042739198168,0.0021454294271249443,-0.002670124313424045,-0.018171220911720905, ,0.013963232022705663, ,0.003425195236279645, ,5.374429601696099e-05, ,0.18217154577008196,-0.24717378837242965,0.08850679233000001,1.7018435813203996,0.5114304186220436,-1.2588999881644802, ,0.006653248944921471,0.0346718821916225,0.013637681095890414,0.0,0.003775996538490631,-0.03816501928775417, ,0.30039405822753906
0.009921961870806243,0.020363378728538092,-0.07816055367627357, ,0.01017703939657438,0.020209113518447112,-0.07856895198680748, ,0.0005056198960121717, ,0.002894035673431961,0.0009624322198801443,-0.013681348964219383,0.004113117549837851,0.014005507987269706,-0.043639912099744355, ,0.014017169034355938, ,0.014596969227179754, ,5.393165697302529e-05, ,0.1823723368248118,-0.24619300129740315,0.08892030884,1.7007951316029768,0.5117036916215745,-1.259694575152857, ,0.00560013006097611,0.03225592846990849,0.013803129566724439,0.031926523947786,0.011982353566918869,-0.03103638458202547, ,0.3257720470428467
0.010002812280133656,0.020386004565469955,-0.07853769372982902, ,0.010259402717043967,0.02021776119231654,-0.07891430172341397, ,0.00048577573607164323, ,0.0028175668634801746,0.000585417443696146,-0.013137249317548816,0.010558706124362504,0.024465620504338845,-0.004725714484241705, ,0.01344874403968646, ,0.026646809759741166, ,5.3934758745361925e-05, ,0.18258085061241586,-0.24531260974974156,0.08929752923,1.7007951316029768,0.5123868741204016,-1.2605783796319014, ,0.00846956222675914,0.03290462606049611,0.013296169883138568,-0.007110789428237122,0.035605086507997034,-0.0439762819023618, ,0.3524630069732666
0.010065597144080266,0.020393628922804705,-0.07880467806372041, ,0.010341798194652918,0.020226376851521205,-0.07925765432940902, ,0.0005562803007147231, ,0.003083009320105753,0.0003239944095917817,-0.01325639665818788,-0.008120296951039562,-0.012692144286822239,0.015334411417260918, ,0.0136140358161906, ,0.015067492816981639, ,5.445970298244686e-05, ,0.18276619620139725,-0.24461756379106134,0.08956845384,1.7001660617725234,0.5125235106201671,-1.2610981912363006, ,0.008451902024316822,0.0344954349540061,0.013229909900332229,-0.033443680366365476,0.0036759229897018685,-0.03335141616216263, ,0.3770270347595215
0.01012432699540299,0.02040168579724554,-0.07906490921482578, ,0.010424224554470573,0.020234960070377003,-0.07959901495446535, ,0.000634826712615705, ,0.0027841590718257524,0.00023828498397748056,-0.012360581871907092,0.03103521264497608,0.013943742703801464,0.0001946908473400317, ,0.012672501950401784, ,0.03402369903429529, ,5.585235395276944e-05, ,0.18295154179037865,-0.24392251783238114,0.08983030442,1.7001660617725234,0.5130700566192289,-1.2620339352919296, ,0.009196689711176516,0.03339090132247389,0.012415285674201094,-0.02330559295231751,0.02921061799345095,-0.06965013731608191, ,0.4005110263824463
0.010190557811442964,0.02040640691778702,-0.0793326642794762, ,0.010506680527500098,0.020243510427415543,-0.07993838874477567, ,0.0007024037058878671, ,0.0034404416793709183,0.0005852252205340385,-0.014972089511101929,0.02855742737999634,0.007476652869363067,-0.009055296930890909, ,0.015373437866539484, ,0.029519929612997386, ,5.754496901413176e-05, ,0.1831600555779827,-0.24319658094220403,0.09009734016000001,1.6997466818855542,0.5130700566192289,-1.262524007732773, ,0.010509455635309823,0.03719989869011007,0.015069831144749293,-0.016511031634521306,0.022125811781355923,-0.07035226555451761, ,0.42244601249694824
0.010303842547777038,0.02043111288403751,-0.07982118423992304, ,0.01058916485066845,0.020252027505376063,-0.08027578084304493, ,0.0005658077950572368, ,0.003910920039237057,0.0007413533400855794,-0.016066841085732322,-0.002545758593839483,0.0034955506155373707,-0.028969289763054594, ,0.01655259142256397, ,0.004324198221825633, ,5.820816425277442e-05, ,0.18349985582444858,-0.24208450740831572,0.09058993036000001,1.6986982321681319,0.5136166026182906,-1.2637864667489644, ,0.012525811502791681,0.039789074028708925,0.016187816585365857,0.01377397769401573,0.01284682434815292,-0.03514596620359539, ,0.44434690475463867
0.010382608365542537,0.020444898893905977,-0.08013812959487816, ,0.010671676266816397,0.02026051089119663,-0.08061119638848631, ,0.0005842528376522514, ,0.0035484486032057888,0.0003681677883262954,-0.014301026275315216,0.01715214605388977,0.011071874400840339,-0.019456427498524435, ,0.01473928042806739, ,0.02041523741758237, ,5.891826918469092e-05, ,0.183754706009298,-0.2412967886551448,0.0909088177,1.6989079221116163,0.513753239118056,-1.264469635833645, ,0.013259318367817631,0.038065359630353304,0.014402180397830021,0.0,0.0247197155216351,-0.05581956575186343, ,0.470566987991333
0.010455699607311108,0.020446609599811857,-0.08041765668122995, ,0.010754213524688496,0.02026896017600604,-0.08094464051681445, ,0.0006311749675120868, ,0.0033343456969806206,-0.0002614705155630037,-0.012950349384470178,0.0006532099479388753,-0.008399730615165005,0.024441203482114527, ,0.013375267370685682, ,0.008425069340179291, ,5.9831576693459835e-05, ,0.1840172789270216,-0.24053996083347082,0.09118752005000001,1.698069162337678,0.513753239118056,-1.2649597082744881, ,0.013064006271815911,0.038686074830195996,0.01288738796116505,-0.045893444765010144,0.01570272349039722,-0.048395903245228, ,0.4918370246887207
0.010552211240660053,0.020445881504829278,-0.08080754945229271, ,0.010836775378922945,0.020277374955114422,-0.08127611836023965, ,0.0005735224734713519, ,0.003147214263701406,0.0001228411193145103,-0.012924244652176328,0.014365603946434644,0.015241434940216566,0.00894678040072406, ,0.01330248651160934, ,0.020944487465263145, ,6.034999122856187e-05, ,0.18437252463923595,-0.23938927363521134,0.09157770334000001,1.698069162337678,0.5144364216168833,-1.2661702277140947, ,0.012419440067853787,0.035004404853733226,0.013013734901960786,-0.02585532215926886,0.03454763933861534,-0.05371165034568603, ,0.5160379409790039
0.01062767958862898,0.020450811112246923,-0.0810965470072064, ,0.010919360590041682,0.02028575482800571,-0.08160563504746243, ,0.0006095014489600232, ,0.0037816098215398136,0.0006873700600705181,-0.015320685776331854,-0.0032050810730503607,0.0029704457808598568,-0.0020411927523076977, ,0.01579545703988792, ,0.004369811063128289, ,6.10133499674704e-05, ,0.1846350975569596,-0.23863244581353735,0.09186677601000001,1.6976497824507093,0.5144364216168833,-1.266496942674657, ,0.012999581035406957,0.0357427275173148,0.015479894577259477,-0.011824278890257889,0.019136198541374487,-0.03450346305946085, ,0.5376708507537842
0.010699907133042134,0.02046270743489468,-0.08140818135071692, ,0.011001967924440269,0.020294099398327915,-0.08193319570366756, ,0.0006287364014427163, ,0.003565793729555027,0.0006403692048783461,-0.015525134890265573,0.036311730309480844,0.01874700108340137,0.03768147329993693, ,0.015942232309222943, ,0.040865522213120585, ,6.203174871328061e-05, ,0.18487450227606053,-0.23791423165623446,0.09218177448,1.696811022676771,0.5151196041157104,-1.2677074621142634, ,0.012898863879090767,0.03413559048865855,0.015755501008902082,-0.062459660378850465,0.04725678664073188,-0.0820261720762508, ,0.5618569850921631
0.010776642210017343,0.020475147403477056,-0.08170441207205272, ,0.011084596154377676,0.02030240827388541,-0.08225880545051806, ,0.0006572871950870363, ,0.0033642666405452773,0.0003611764592186777,-0.013936784064054205,0.0030309082736268153,0.011892196217267823,-0.006866764805593155, ,0.014341641764855752, ,0.01227233515034903, ,6.311987044056877e-05, ,0.18512935246090995,-0.23721146296468004,0.09247992118000001,1.696811022676771,0.5151196041157104,-1.2681975345551069, ,0.011489059310990982,0.03534336743332245,0.014046571005291006,-0.00672026478066453,0.02550026102985273,-0.039212529696909484, ,0.5818748474121094
0.010847355359608617,0.020487314546645097,-0.08199145475510865, ,0.011167244057966472,0.020310681066629817,-0.0825824694061497, ,0.000694857167585232, ,0.003905246128374713,0.0008462299517691088,-0.01549397095108425,-0.0031590950250532527,-0.011601326783000068,-0.017152253943308153, ,0.01600094335617433, ,0.012023717045112733, ,6.431335192406524e-05, ,0.18534558898138823,-0.23654730793749673,0.09276899385000001,1.6966013327332867,0.5152562406154759,-1.2686356674193657, ,0.01190242641852891,0.034111050164798984,0.015631807183513247,0.0,0.0,-0.0322545554605386, ,0.6013278961181641
0.010926091286954914,0.020508610650870694,-0.08233467067202428, ,0.011249910419162535,0.02031891739265116,-0.08290419268516445, ,0.0006820540198905613, ,0.0037817879232682093,0.001201858030101134,-0.0174808010199643,0.04086969731840577,0.033427443896356206,0.01211705124046528, ,0.017925534494700034, ,0.052798906541869695, ,6.537207592599266e-05, ,0.1855849937004892,-0.23585226197881654,0.09311769586000002,1.6959722629028329,0.5159394231143032,-1.2699278655991129, ,0.011227749829445195,0.033952394117520844,0.01783741491601344,-0.03363358764528394,0.053624781837686535,-0.08071736143857253, ,0.622654914855957
0.011017556661661921,0.020532534481166074,-0.08270391895328108, ,0.011332594027755055,0.020327116872169485,-0.08322398039862523, ,0.00064180124887244, ,0.0038145012003867836,0.0005820761049775182,-0.014924783960085253,0.017638796952049035,0.003585872641672434,-0.007820808263167762, ,0.015415524910133812, ,0.01799958055044576, ,6.618710564895944e-05, ,0.18584756661821283,-0.23510315689001676,0.09349102738000001,1.6957625729593484,0.5159394231143032,-1.2704179380399563, ,0.013924716296180598,0.03453309372578995,0.015127076467236471,-0.012635966683049804,0.020866110048869412,-0.055645301197962585, ,0.6421308517456055
0.011095718931157477,0.020539667858000227,-0.08300256687289594, ,0.011415293679356476,0.02033527912952589,-0.08354183765405003, ,0.0006593297713742012, ,0.003920198785625144,0.0003084448587944424,-0.014474441593749401,0.0016604033479236042,-0.007543867102758925,-0.0183545523058413, ,0.014999085178789949, ,0.00772439219600178, ,6.702839333922332e-05, ,0.18613330773455913,-0.23436177453409118,0.09379176666000001,1.695552883015864,0.516212696113834,-1.2712125250283328, ,0.014696754151846179,0.03673904047946991,0.014560156782449728,0.0,0.007028170739954595,-0.039515568528106705, ,0.6616990566253662
0.01115310588187563,0.02054236142536245,-0.0832251166554204, ,0.011498008175392331,0.02034340379317416,-0.08385776955540539, ,0.000747523526946453, ,0.003606078547426178,0.00028975743932831903,-0.014960996421348814,0.030038084834727256,0.015970582827555455,0.012276197266134494, ,0.015392179045978688, ,0.034019778171479186, ,6.818807989577285e-05, ,0.18635726698791164,-0.23380573776714703,0.09401602483,1.6949238131854105,0.5166226056131303,-1.2718734936999845, ,0.012988905222894986,0.03640082146469918,0.01511272440227704,-0.035965788687779957,0.03789164740701722,-0.0735995974101343, ,0.6824209690093994
0.011249567890226082,0.020549583701606186,-0.08359568354629382, ,0.011580736323091223,0.020351490495671108,-0.0841717812031007, ,0.0006933988457896171, ,0.004509447818462254,0.0007672206723840933,-0.017338803332073077,-0.0030643356714802877,-0.014272531174646122,-0.01886103117154211, ,0.017932034133803, ,0.014597730376423214, ,6.906290696670082e-05, ,0.18667389903575485,-0.23289445528798855,0.09438157861,1.6945044332984414,0.5167592421128957,-1.2724749840445242, ,0.014332720368293427,0.03914890328319751,0.017427583719912477,0.016431520503794747,0.0,-0.037526653325640716, ,0.7018990516662598
0.01129341531166653,0.020561157737489167,-0.08377264658837415, ,0.011663476935474815,0.02035953887366914,-0.08448387769398305, ,0.0008267076008174627, ,0.004535876153972966,0.001112298037990503,-0.01731410433280186,0.004791865540410977,-0.003643578780006822,-0.01443417132507915, ,0.017932919122570265, ,0.006019641660208822, ,7.069267044107732e-05, ,0.18682835369323933,-0.23252376411002576,0.09456824437000001,1.6947141232419258,0.5170325151124266,-1.2730245348124796, ,0.015922305630615904,0.03472262771989418,0.017600896707182324,-0.0026441579236171813,0.012952218212431943,-0.04074662276864251, ,0.7188019752502441
0.011408441597657023,0.02058000507403095,-0.0842120105128204, ,0.011746228831347462,0.02036754856790616,-0.08479406412133023, ,0.0007057084280482284, ,0.005188732878833604,0.0009319286667192998,-0.019166101242440108,-0.035677299964922644,-0.05372705063371918,0.04334154442033789, ,0.01987789920397038, ,0.06449389983823978, ,7.177974536540846e-05, ,0.18726854946707014,-0.2315893134322446,0.09501416813,1.6936656735245033,0.5177156976112539,-1.2747251266929294, ,0.01625782791818927,0.03789813960002826,0.019284275447941892,-0.06443797946581374,-0.02364270750013758,-0.016015252759515472, ,0.7348239421844482
0.011509267560599232,0.020604065000175285,-0.0845997108370162, ,0.011828990835286527,0.02037551922319749,-0.08510234557484517, ,0.0006380421805990142, ,0.00515405875518808,0.0013443958589436146,-0.019665261721224573,-0.027376873199416434,-0.02186155798933513,-0.03194025924148362, ,0.020373861696834406, ,0.03503452529824562, ,7.256224992543323e-05, ,0.18758518151491335,-0.23082476287769638,0.09540694400000001,1.6934559835810188,0.5177156976112539,-1.2754602353541944, ,0.015168948458834843,0.038686074830195996,0.019911014400000003,0.019876440085559083,-0.011718480579960552,-0.008425898736303375, ,0.7525599002838135
0.011543950874843334,0.02061258807837269,-0.08472655021571159, ,0.011911761777631938,0.0203834504884269,-0.08540872714065043, ,0.0008081795915855247, ,0.005266576295842537,0.001155132592357144,-0.019879765624309164,-0.02410067010259873,-0.0185685481140053,-0.0069025177091491955, ,0.020597966852660982, ,0.03042417087603792, ,7.393791816171709e-05, ,0.18769329977515248,-0.23056991269284696,0.09553527671,1.6936656735245033,0.5175790611114884,-1.2755121749307792, ,0.01719458988194796,0.040024015840772156,0.020137561972187107,-0.006728991264322857,0.0,-0.017459912292706044, ,0.7690589427947998
0.011657096028985837,0.020629360742947227,-0.08514818433440481, ,0.011994540494476414,0.02039134201653743,-0.08571321390128167, ,0.0006998429058417429, ,0.004450811468384848,-0.0002880590587318093,-0.01636276887638516,-0.005761209538161687,0.0039009137118039185,0.008613508519791835, ,0.016959743690587496, ,0.0069575491494809965, ,7.486288349338295e-05, ,0.18812577281610907,-0.22965863021368846,0.09596305241000001,1.6930366036940496,0.5181256071105501,-1.2766929552068298, ,0.018054973660287438,0.04555782119945788,0.016421455175257733,-0.02613982393947205,0.02843666780279508,-0.04411820174432658, ,0.7854740619659424
0.011750043311208542,0.020632869799016088,-0.08548758046990898, ,0.012077325827655182,0.02039919346452309,-0.08601581093568184, ,0.0006638869631528674, ,0.004720642111058394,0.000136372009234417,-0.016654356584584213,-0.003203872849918737,-0.003875810525269448,0.027905214016016405, ,0.017310998021838143, ,0.0050284617131141586, ,7.562157487922242e-05, ,0.1884887412611976,-0.228816852330398,0.09630527297000001,1.6926172238070805,0.5185355166098464,-1.2774356026186218, ,0.020386023965299847,0.040381677258923734,0.01683806714587738,-0.04603123042429733,0.027427525951708897,-0.04538904661749826, ,0.8024330139160156
0.011800739968672239,0.020637187521336652,-0.08566497810981362, ,0.012160116624735956,0.020407004493419444,-0.08631652331919556, ,0.0007788754503341578, ,0.004917576145735604,0.000736973511822953,-0.01826354824045684,0.013744435582705349,0.004113419530652688,-0.03605441947395263, ,0.018928361773743935, ,0.014346696404140387, ,7.674664754724602e-05, ,0.18868180958305322,-0.2284075474880641,0.09648416099000001,1.6924075338635962,0.5185355166098464,-1.2776806388390436, ,0.01784112456448031,0.04081588884235302,0.018521873860465117,0.015927289061058215,0.018456091044751762,-0.05256125280002215, ,0.8195710182189941
0.01190381583241918,0.02065491955482168,-0.08606542257318446, ,0.012242911739008953,0.020414774768295254,-0.0866153561235628, ,0.0006892622593712, ,0.005183060399566272,0.0012125491605668543,-0.020484190074592377,0.053121215005679456,0.026683744199868725,-0.024288395986835177, ,0.02116450881982316, ,0.05944646399607644, ,7.778586190654864e-05, ,0.18904477802814176,-0.22755032413902518,0.09689119605,1.6924075338635962,0.5192186991086737,-1.2788094795385097, ,0.01856356446761948,0.040193537297107486,0.020931421182654404,-0.004110440026591873,0.04682955459009523,-0.0952927281306532, ,0.833050012588501
0.011961397618381135,0.02066512143617211,-0.0862944712511644, ,0.012325710029476819,0.02042250395824303,-0.08691231441691302, ,0.0007571769614411743, ,0.0055751892455239505,0.0008823475844241083,-0.021481629358494334,0.0023570173648557484,0.0038458878575439357,0.02350643094533155, ,0.022210845825381586, ,0.004510189558147207, ,7.901745940457016e-05, ,0.18925329181574582,-0.22709468289944593,0.09712452825000001,1.6917784640331426,0.5197652451077354,-1.279500187373717, ,0.01983217169456025,0.04409709180226338,0.021820289753424663,-0.04366240888652402,0.034097415684232954,-0.05422411576398604, ,0.8482038974761963
0.01201997208075974,0.02067276122397793,-0.08650480624547949, ,0.012408510360844423,0.02043019173637053,-0.08720740326375925, ,0.0008387159957368754, ,0.00589432016574086,0.0008350696675578506,-0.021623944963190263,-0.016424938190024257,-0.013843324612255474,0.03982717986997556, ,0.02242844950809164, ,0.02148049121638557, ,8.04767643345505e-05, ,0.1896780421238282,-0.22620656861891011,0.09756008169000001,1.6911493942026892,0.5197652451077354,-1.2797452235941387, ,0.021022804953139296,0.04389312745535188,0.021125744721485415,0.023712234824761154,0.014173987157663362,-0.037288987561934425, ,0.8619048595428467
0.012131441022281201,0.02068979567314069,-0.08691536970047566, ,0.012491311603509083,0.020437837779791627,-0.08750062772499234, ,0.0007317899770530914, ,0.005549599954969325,0.0007280569270741012,-0.020182422811951945,-0.02680475413425711,0.007832556928342466,-0.02304723345495404, ,0.02094417143526223, ,0.02792562342381651, ,8.154280367235094e-05, ,0.18987883317855803,-0.225789541043702,0.09775452519000001,1.6911493942026892,0.5203117911067973,-1.280435931429346, ,0.020902410034905457,0.044889754758027804,0.02050040092664093,0.017129907816791495,0.02560395541787792,-0.012935704517109113, ,0.8764190673828125
0.012178983376613368,0.02069704480076147,-0.08710838950497955, ,0.012574112633550244,0.020445441769617375,-0.08779199285787413, ,0.00082870064502032, ,0.00483553485098234,0.0006503613888444547,-0.019786807985559297,0.044238673721601514,0.08327858703493303,-0.011084124408156242, ,0.02037947834191439, ,0.09429941822798978, ,8.28835254133018e-05, ,0.19007962423328786,-0.2253570680027454,0.09795285756000001,1.6913590841461734,0.5212682466051554,-1.281379214235502, ,0.02103678598059649,0.04424099839555748,0.020343309731800766,0.0,0.10696458089131805,-0.08447473031709206, ,0.890300989151001
0.012292836031633982,0.020704117478159968,-0.08751124703218419, ,0.012656912332719653,0.020453003390947303,-0.08808150371603267, ,0.0007216664903421406, ,0.006056354975519636,0.0006735522885711244,-0.021799480433070773,-0.042536366724161064,-0.010369267455510584,0.01524701455831675, ,0.022635159717280025, ,0.0437819515171066, ,8.384668799410314e-05, ,0.19051209727424442,-0.2244380627907127,0.09835989262000001,1.69073001431572,0.5215415196046862,-1.2817654075231761, ,0.022312941819532278,0.04690901708278338,0.022092665076282943,-0.023218143725166524,0.017609084667935433,-0.006880217064186794, ,0.903648853302002
0.01235561978615459,0.020711934131198113,-0.08773899155357381, ,0.012739709588431201,0.020460522332860158,-0.0883691653494557, ,0.000779648562861881, ,0.006124876311605216,0.000708553700068066,-0.022310717840452098,-0.03211806420341709,-0.021703740063202193,0.04776147475672039, ,0.023147014682991206, ,0.03876360216633491, ,8.495908034870612e-05, ,0.19073605652759695,-0.22396697608538502,0.09859063224,1.6903106344287508,0.5216781561044516,-1.281958504167013, ,0.02184049287881951,0.04551412065154474,0.022594058893617024,-0.06395989986558451,0.014562699639978883,-0.02474101607004871, ,0.9180898666381836
0.012407087545461258,0.020718738733120776,-0.0879194474968986, ,0.012822503293750984,0.0204679982884052,-0.08865498280448444, ,0.0008811658205177251, ,0.006068304362264719,0.0009977880530450786,-0.02115731683024679,-0.01718035658966198,-0.009201132188142239,-0.02606477447439323, ,0.02203297424968596, ,0.01948900322504299, ,8.660947516310522e-05, ,0.19092140211657832,-0.22359628490742223,0.09877340913,1.6901009444852664,0.5216781561044516,-1.282121861647294, ,0.022784379725923357,0.043213543514786325,0.021525420972972976,0.013141791693670479,0.010781428126949504,-0.023368220561018817, ,0.9302210807800293
0.012481791312765604,0.020730050755138864,-0.08819597905545053, ,0.012905292347387265,0.02047543095459311,-0.08893896112380789, ,0.0008923041651007607, ,0.00562897878401536,0.00047111866808515303,-0.021058832867818764,0.03284067418863702,0.03587820437159322,-0.011161550168873642, ,0.02180325197545167, ,0.04863898938569957, ,8.825365065843154e-05, ,0.19121486596579887,-0.22300935720898116,0.09905600035,1.6903106344287508,0.5223613386032788,-1.282923987386198, ,0.022670076817599326,0.04747220688267672,0.021467400970350405,-0.010970455450041312,0.062165575250772265,-0.08156187422158954, ,0.9415280818939209
0.012539001811817366,0.020737366639854652,-0.08840531825989201, ,0.01298807565368044,0.02048282003238675,-0.08922110534645702, ,0.0009653858614177645, ,0.006090309704456024,0.0010835966806563512,-0.022215645885251,0.02911230357290369,0.026532202274992762,-0.011629590758901683, ,0.023060810396891743, ,0.03938881269685454, ,9.007618416671737e-05, ,0.1914465479520256,-0.22256143870227615,0.0992698882,1.6903106344287508,0.5229078846023405,-1.2836146952214054, ,0.024439078433806535,0.04367093490955857,0.02275544502857143,-0.009134979685545013,0.053993914141247046,-0.07393780177631099, ,0.9523489475250244
0.012607474053638795,0.02074848034457459,-0.08864821555917332, ,0.013070852122593046,0.020490165226692867,-0.08950142050779814, ,0.0010046913054624742, ,0.006818026188651926,0.0011427430445083674,-0.024219487383363804,-0.005594852341061531,-0.006641976014474189,0.015139320633574071, ,0.02518680035033895, ,0.008683886494366778, ,9.197143878082209e-05, ,0.19170912086974923,-0.2221057974626969,0.09951747959000001,1.6896815645982974,0.5231811576018714,-1.28408256724922, ,0.025836357625502526,0.046313783093445964,0.024695831813953493,-0.034818811108918914,0.027258469632317733,-0.04705507342378457, ,0.9637079238891602
0.012735563459156428,0.020774068233363432,-0.08910812987618236, ,0.013153620669699814,0.02049746624635266,-0.08977991163952806, ,0.000838195220738872, ,0.007013635754975624,0.001487232827048307,-0.02505073992776119,-0.015051059567188342,-0.019507169872151207,0.03310638423072598, ,0.02605652545742911, ,0.024638470029336335, ,9.333861745993716e-05, ,0.1921724848422027,-0.22127174231228064,0.09998673657000001,1.6890524947678438,0.5235910671011678,-1.2846618571807307, ,0.025178281124561098,0.04329240034601769,0.02556791576243981,-0.052333662458697,0.017313768119919953,-0.038139019380201915, ,0.975877046585083
0.012807380244004655,0.020787136392450275,-0.08936894795958261, ,0.01323638021617766,0.02050472280413247,-0.09005658376966688, ,0.0008582781707006347, ,0.006908194604733127,0.0012946043297806997,-0.02542745051848632,0.05021774792561425,0.03813224779739667,-0.037283442909126316, ,0.026380947536766397, ,0.06305457873360133, ,9.473207637045697e-05, ,0.19245050322567478,-0.22077748740833028,0.10025377231000002,1.6888428048243591,0.5241376131002295,-1.2854342437560786, ,0.02671648129461452,0.04939976135266568,0.026070067954173493,0.010340268600234485,0.06357039075975064,-0.0977890072760936, ,0.9866318702697754
0.012882904963434876,0.020802958771091975,-0.0896412230751899, ,0.013319129688795598,0.020511934616715435,-0.09033144192255291, ,0.0008668270454374006, ,0.007223956043893537,0.0012831495755323695,-0.026039114791154706,0.0045222391735839675,0.008565950830365978,-0.015947560909812048, ,0.027053049973417537, ,0.009685772542932708, ,9.611815233623983e-05, ,0.19272852160914686,-0.22026778703863145,0.10053247466000001,1.6890524947678438,0.5245475225995259,-1.2859318549474492, ,0.02641161746687191,0.04984083065045734,0.026592339766277135,-0.003586748580320893,0.036353601335830474,-0.05460767524335218, ,0.9980599880218506
0.012953643850365713,0.02081492864167333,-0.08988744818073148, ,0.013401868019905052,0.020519101404692253,-0.09060449111883616, ,0.0008958622859485032, ,0.007414999378903707,0.0014269960601353679,-0.025171981058533514,-0.011542588268268913,-0.013348014379237797,-0.012453736283855621, ,0.02628016674140319, ,0.01764626661988959, ,9.755464019186777e-05, ,0.19299881725974471,-0.219804423066178,0.10078395492000002,1.6888428048243591,0.5248207955990567,-1.286318048235123, ,0.02842928147347836,0.04588826961241333,0.02573313654281099,-0.004585862386064938,0.016237760671025017,-0.035209656679829116, ,1.0100479125976562
0.013024539592095138,0.020824655750590275,-0.09012951646452096, ,0.01348459414742947,0.02052622289255179,-0.0908757363754729, ,0.0009260434763778738, ,0.007358654020675493,0.0007959772382463903,-0.024589220638394235,-0.01100606852824006,-0.010556196890672562,0.0272524567234739, ,0.025679040877015693, ,0.015249847474171548, ,9.931892864814151e-05, ,0.19329228110896526,-0.21934878182659875,0.10103154631000001,1.6882137349939055,0.5252307050983531,-1.2868156594264937, ,0.030367021298710647,0.048941176667597105,0.025084742551181104,-0.04708159299046591,0.0305207283425961,-0.046318959327502185, ,1.019068956375122
0.013100563653703722,0.020831781984965894,-0.09038482167944437, ,0.013567307014854856,0.020533298808672763,-0.09114518270571892, ,0.0009407924648858459, ,0.007266831320268578,0.00035059923660559476,-0.02406355389892741,-0.0001428549524609237,0.0026584755676855934,0.03752993169274673, ,0.0251392995826958, ,0.002660795232498459, ,0.00010109471781648798, ,0.19360891315680845,-0.21881591325827726,0.1012921006,1.6880040450504212,0.5256406145976494,-1.2873949493580044, ,0.03190885728260618,0.051630544917557544,0.02454362329738059,-0.05946500211679823,0.04832297554251704,-0.06176500470955536, ,1.027230978012085
0.013177332171899866,0.02083912211111707,-0.09064067271613434, ,0.013650005571219335,0.02054032888531395,-0.09141283511912426, ,0.0009533794159731123, ,0.007890457041486538,0.0008445724458996206,-0.02658060977326032,0.02421133165268011,0.01692647517901396,0.013772289065721543, ,0.027739888803999545, ,0.029541172518946755, ,0.00010287580072751169, ,0.1939409906704001,-0.21827532195708155,0.10155395118,1.6880040450504212,0.5261871605967111,-1.2880039784530712, ,0.03404985344760344,0.05322318651624834,0.02722873764102564,-0.04002350123223883,0.06064061130701073,-0.0844712249721835, ,1.035865068435669
0.013255958702913894,0.020851948149236983,-0.09091238919763148, ,0.013732688771103648,0.020547312858605997,-0.0916786986215272, ,0.0009525252497259157, ,0.008433800874135622,0.0014728628854670353,-0.02977984094882396,-0.01350669593865856,0.01445974176502748,0.016777140983139142, ,0.030986081539962573, ,0.01978614529774809, ,0.00010462552313931435, ,0.19425762271824332,-0.2177578988545085,0.10183265353000001,1.6880040450504212,0.5267337065957729,-1.2886946862882787, ,0.032365941868509815,0.05425782822096671,0.030514964597701155,-0.030665591383459135,0.054671474779581966,-0.044087986284124234, ,1.0438878536224365
0.01334763705097884,0.02087258786624067,-0.0912334365737212, ,0.013815355574620925,0.020554250468541695,-0.09194277821504737, ,0.0009073394515014764, ,0.008433800874135622,0.0014728628854670353,-0.02977984094882396,-0.01350669593865856,0.01445974176502748,0.016777140983139142, ,0.030986081539962573, ,0.01978614529774809, ,0.000106225153549243, ,0.19425762271824332,-0.2177578988545085,0.10183265353000001,1.6880040450504212,0.5267337065957729,-1.2886946862882787, ,0.032365941868509815,0.05425782822096671,0.030514964597701155,-0.030665591383459135,0.054671474779581966,-0.044087986284124234, ,1.0527899265289307
0.01334763705097884,0.02087258786624067,-0.0912334365737212, ,0.013898004947406851,0.02056114145896716,-0.09220507889808159, ,0.001159306901778231, ,0.009242156644671928,0.0021944136820209823,-0.03217206456332458,0.022893982940246416,0.02053553690890569,-0.022622451194569584, ,0.03354511363998071, ,0.03075399591444655, ,0.00010847283119932457, ,0.19462059116333186,-0.21721730755331278,0.10216320748,1.6877943551069365,0.5274168890946002,-1.289415133287042, ,0.0357561950107275,0.05361409127597219,0.03311603226611227,0.0,0.057264331754712,-0.07575837395079044, ,1.0618999004364014
0.013440985237551724,0.020890100663159626,-0.09155608646840004, ,0.013980635860609793,0.020567985577573007,-0.09246560566529577, ,0.001105534301978594, ,0.009942384948675501,0.001996631171608558,-0.034740706417889754,-0.020742695681370896,-0.020711435814343267,0.054904881047464084, ,0.03619052689471507, ,0.029311642612541006, ,0.00011054210390059943, ,0.1949758368755462,-0.21667671625211707,0.10249376143000001,1.6869555953329984,0.5278267985938964,-1.2898310657382717, ,0.0359186001356816,0.057270332865703544,0.03555538285714287,-0.0789556096775924,0.03262381916492589,-0.05101746825911901, ,1.0703849792480469
0.013544869042673324,0.020911622729595097,-0.0919130308036276, ,0.014063247290880796,0.02057478257588501,-0.09272436350762046, ,0.0010200186537188678, ,0.010201220068036696,0.0018081373761168968,-0.034340648847778016,-0.010047018568314251,-0.022315251425202118,0.03739189773008221, ,0.035869407786215585, ,0.024471723900926633, ,0.00011265011035420804, ,0.1953542507863832,-0.21608206582080178,0.10285931521000001,1.6865362154460295,0.5281000715934273,-1.2902989377660863, ,0.03897204992134323,0.05861454080202025,0.03516293933774835,-0.06496680730505243,0.030856895103441962,-0.06113558870614185, ,1.0760700702667236
0.013544869042673324,0.020911622729595097,-0.0919130308036276, ,0.014145838220363775,0.02058153220925544,-0.09298135741224423, ,0.001269427212104081, ,0.010201220068036696,0.0018081373761168968,-0.034340648847778016,-0.010047018568314251,-0.022315251425202118,0.03739189773008221, ,0.035869407786215585, ,0.024471723900926633, ,0.0001153906011452728, ,0.1953542507863832,-0.21608206582080178,0.10285931521000001,1.6865362154460295,0.5281000715934273,-1.2902989377660863, ,0.03897204992134323,0.05861454080202025,0.03516293933774835,-0.06496680730505243,0.030856895103441962,-0.06113558870614185, ,1.0815510749816895
0.013647396936686285,0.02092945417850589,-0.09226647856055935, ,0.014228407636685498,0.020588234236853378,-0.09323659236260777, ,0.0011811542113626678, ,0.010059367376361554,0.001781288315300319,-0.03436425122256366,0.01571512316840249,0.026131855361501293,-0.022212172726182252, ,0.03585060141981304, ,0.030492475119093955, ,0.0001178719928138684, ,0.19575583289584286,-0.21544880172511538,0.10322227641000001,1.686326525502545,0.5287832540922546,-1.29110106350499, ,0.039789074028708925,0.061862413010737145,0.03531887254988914,0.0,0.06710139542153802,-0.07604560155813922, ,1.0869979858398438
0.013647396936686285,0.02092945417850589,-0.09226647856055935, ,0.014310954532945917,0.020594888421656535,-0.09349007333839851, ,0.0014315820303305409, ,0.010059367376361554,0.001781288315300319,-0.03436425122256366,0.01571512316840249,0.026131855361501293,-0.022212172726182252, ,0.03585060141981304, ,0.030492475119093955, ,0.0001209780656572523, ,0.19575583289584286,-0.21544880172511538,0.10322227641000001,1.686326525502545,0.5287832540922546,-1.29110106350499, ,0.039789074028708925,0.061862413010737145,0.03531887254988914,0.0,0.06710139542153802,-0.07604560155813922, ,1.0923819541931152
0.013756103845067195,0.020951079686851247,-0.09262612745403295, ,0.014393477907707918,0.020601494530441664,-0.09374180531554349, ,0.001331612769529408, ,0.011461146182919315,0.002059718406830103,-0.03780962159891837,0.015740906490449284,0.022905893380498255,-0.01459534876172407, ,0.03956220162219331, ,0.027791704132127736, ,0.0001237937158851978, ,0.1962037514025479,-0.21482326036230318,0.10359301535000001,1.6865362154460295,0.5294664365910817,-1.291903189243894, ,0.04759124451277371,0.06622256912663697,0.03894574943765281,-0.009397168893371236,0.07383654046787351,-0.08198876333154642, ,1.0985090732574463
0.013756103845067195,0.020951079686851247,-0.09262612745403295, ,0.014475976764987842,0.020608052333775235,-0.09399179326620444, ,0.0015814322294450097, ,0.012276242396642514,0.002728394265330051,-0.041732094213263043,0.03440714060302303,0.033189197103009146,-0.02240049345872663, ,0.04358575398077762, ,0.0478042629161455, ,0.00012722262282009397, ,0.196551274381888,-0.21432900545835282,0.10388986576,1.686326525502545,0.5300129825901435,-1.2925122183389606, ,0.04851581879267422,0.06812415043680602,0.04305084194594595,-0.006353328970237016,0.0844805085412205,-0.10239277230761036, ,1.1041300296783447
0.013842208114645631,0.020967001317268467,-0.09291450132093598, ,0.014558450114245388,0.020614561606005426,-0.09424004215877162, ,0.0015473444557808802, ,0.012276242396642514,0.002728394265330051,-0.041732094213263043,0.03440714060302303,0.033189197103009146,-0.02240049345872663, ,0.04358575398077762, ,0.0478042629161455, ,0.00013052927041636172, ,0.196551274381888,-0.21432900545835282,0.10388986576,1.686326525502545,0.5300129825901435,-1.2925122183389606, ,0.04851581879267422,0.06812415043680602,0.04305084194594595,-0.006353328970237016,0.0844805085412205,-0.10239277230761036, ,1.1097538471221924
0.014002924778824729,0.021003581082139833,-0.09346628276109994, ,0.014640896970373754,0.020621022125251628,-0.09448655695785706, ,0.0012626635772261861, ,0.012998960759383964,0.002817156166067147,-0.044844741659271,-0.023042227861181527,0.0036064921610744157,0.09374910604358867, ,0.04677563686551761, ,0.023318869693458644, ,0.00013307788374051813, ,0.19717681574470017,-0.21349495030793658,0.10445893707000001,1.6850683858416375,0.531106074588267,-1.2937302765290943, ,0.04911849977146521,0.06822210032959797,0.04617046817391306,-0.11560941654083681,0.07879033563594913,-0.06421515789490401, ,1.1152410507202148
0.014002924778824729,0.021003581082139833,-0.09346628276109994, ,0.014723316353689887,0.020627433673396835,-0.0947313426242899, ,0.0015036047857382429, ,0.012998960759383964,0.002817156166067147,-0.044844741659271,-0.023042227861181527,0.0036064921610744157,0.09374910604358867, ,0.04677563686551761, ,0.023318869693458644, ,0.0001362106660652199, ,0.19717681574470017,-0.21349495030793658,0.10445893707000001,1.6850683858416375,0.531106074588267,-1.2937302765290943, ,0.04911849977146521,0.06822210032959797,0.04617046817391306,-0.11560941654083681,0.07879033563594913,-0.06421515789490401, ,1.1208930015563965
0.01414049487239026,0.021034095653761315,-0.09394288729570296, ,0.014805707289924487,0.020633796036077276,-0.09497440411510905, ,0.0012910361315925107, ,0.01354913202704047,0.0027722981911915473,-0.04752198713229536,0.009584531589489733,0.02268862941430375,0.02287917233950679, ,0.049493473074225684, ,0.024625084442143563, ,0.00013877644641650976, ,0.19769423884727322,-0.21273039975338834,0.10495023098000002,1.6848586958981533,0.5320625300866252,-1.2946735593352503, ,0.048840422829887174,0.07690189753522753,0.04886138503067485,-0.05311188282116329,0.08410675308092379,-0.09486594516557514, ,1.1263129711151123
0.01414049487239026,0.021034095653761315,-0.09394288729570296, ,0.014888068810212313,0.020640109002674698,-0.09521574638355837, ,0.0015278293528013234, ,0.01354913202704047,0.0027722981911915473,-0.04752198713229536,0.009584531589489733,0.02268862941430375,0.02287917233950679, ,0.049493473074225684, ,0.024625084442143563, ,0.00014190997137883635, ,0.19769423884727322,-0.21273039975338834,0.10495023098000002,1.6848586958981533,0.5320625300866252,-1.2946735593352503, ,0.048840422829887174,0.07690189753522753,0.04886138503067485,-0.05311188282116329,0.08410675308092379,-0.09486594516557514, ,1.1317379474639893
0.014281986645397027,0.02106351057422122,-0.0944255978296324, ,0.01497039995108225,0.020646372366306186,-0.09545537437908005, ,0.0013070412792790173, ,0.014071963487022799,0.003130939218318642,-0.0478616964733974,0.012461890387231112,0.021752821001210277,-0.0272635178454071, ,0.04998564720077684, ,0.02506457219535773, ,0.00014482279964858678, ,0.19821166194984627,-0.21195040373309168,0.10544671005000002,1.6846490059546686,0.5327457125854522,-1.2953940063340135, ,0.0519414020571816,0.07585686775257457,0.04931520594427245,0.0,0.07487496603389654,-0.08669804391370094, ,1.1345300674438477
0.014281986645397027,0.02106351057422122,-0.0944255978296324, ,0.015052699754447533,0.020652585923815595,-0.09569329304730934, ,0.0015394508532896541, ,0.014071963487022799,0.003130939218318642,-0.0478616964733974,0.012461890387231112,0.021752821001210277,-0.0272635178454071, ,0.04998564720077684, ,0.02506457219535773, ,0.00014830067509407575, ,0.19821166194984627,-0.21195040373309168,0.10544671005000002,1.6846490059546686,0.5327457125854522,-1.2953940063340135, ,0.0519414020571816,0.07585686775257457,0.04931520594427245,0.0,0.07487496603389654,-0.08669804391370094, ,1.1372780799865723
0.014281986645397027,0.02106351057422122,-0.0944255978296324, ,0.01513496726759584,0.020658749475764498,-0.09592950733006729, ,0.00177571148393225, ,0.014071963487022799,0.003130939218318642,-0.0478616964733974,0.012461890387231112,0.021752821001210277,-0.0272635178454071, ,0.04998564720077684, ,0.02506457219535773, ,0.00015234896068820055, ,0.19821166194984627,-0.21195040373309168,0.10544671005000002,1.6846490059546686,0.5327457125854522,-1.2953940063340135, ,0.0519414020571816,0.07585686775257457,0.04931520594427245,0.0,0.07487496603389654,-0.08669804391370094, ,1.1400439739227295
0.014281986645397027,0.02106351057422122,-0.0944255978296324, ,0.01521720154317955,0.02066486282642305,-0.09616402216535617, ,0.002013868442300926, ,0.014071963487022799,0.003130939218318642,-0.0478616964733974,0.012461890387231112,0.021752821001210277,-0.0272635178454071, ,0.04998564720077684, ,0.02506457219535773, ,0.0008548398734994263, ,0.19821166194984627,-0.21195040373309168,0.10544671005000002,1.6846490059546686,0.5327457125854522,-1.2953940063340135, ,0.0519414020571816,0.07585686775257457,0.04931520594427245,0.0,0.07487496603389654,-0.08669804391370094, ,1.1436560153961182
0.014281986645397027,0.02106351057422122,-0.0944255978296324, ,0.015299401639205939,0.020670925783760955,-0.09639684248735263, ,0.0022527897345110647, ,0.014071963487022799,0.003130939218318642,-0.0478616964733974,0.012461890387231112,0.021752821001210277,-0.0272635178454071, ,0.04998564720077684, ,0.02506457219535773, ,0.0008734792049795814, ,0.19821166194984627,-0.21195040373309168,0.10544671005000002,1.6846490059546686,0.5327457125854522,-1.2953940063340135, ,0.0519414020571816,0.07585686775257457,0.04931520594427245,0.0,0.07487496603389654,-0.08669804391370094, ,1.1466219425201416
0.014281986645397027,0.02106351057422122,-0.0944255978296324, ,0.015381566619027266,0.02067693815943833,-0.09662797322640236, ,0.0024917808367866897, ,0.014071963487022799,0.003130939218318642,-0.0478616964733974,0.012461890387231112,0.021752821001210277,-0.0272635178454071, ,0.04998564720077684, ,0.02506457219535773, ,0.0008947726475033593, ,0.19821166194984627,-0.21195040373309168,0.10544671005000002,1.6846490059546686,0.5327457125854522,-1.2953940063340135, ,0.0519414020571816,0.07585686775257457,0.04931520594427245,0.0,0.07487496603389654,-0.08669804391370094, ,1.149435043334961
0.014433851033290396,0.02109352516138825,-0.09491855248006285, ,0.015463695551331104,0.020682899768796795,-0.09685741930901358, ,0.002233472078353527, ,0.016557295310742258,0.0029951609716468712,-0.05277569311545425,0.00898840927379351,-0.00325636800945207,-0.03446282662860039, ,0.055393039283558085, ,0.00953865888111383, ,0.0009121583543975173, ,0.19880631238116156,-0.2111395167812981,0.10595485573,1.6848586958981533,0.5334288950842795,-1.2961961320729174, ,0.06571810357234818,0.08746261894789933,0.05436454443686007,-0.0010255593754348185,0.06345647549980887,-0.09613973800193996, ,1.1531388759613037
0.014625492406204038,0.02113178834059158,-0.09554989543831091, ,0.01554578751013041,0.020688810430850302,-0.09708518565785142, ,0.0018439871379828927, ,0.017166875893656442,0.004194384621574964,-0.05734535106168378,0.051706964685057394,0.05238744145834047,0.008750309749924417, ,0.060006531133616314, ,0.07360322056532563, ,0.0009241048772639965, ,0.19956314020283555,-0.21015100697339736,0.1066068896,1.6842296260676997,0.5346586235821684,-1.2975256081667474, ,0.06735056178741716,0.08273490981558046,0.05943586388059702,-0.04507805939963444,0.13130174311210058,-0.14070205380019216, ,1.155869960784912
0.014625492406204038,0.02113178834059158,-0.09554989543831091, ,0.015627841574753856,0.02069466996827607,-0.09731127719173202, ,0.002073220202581746, ,0.017166875893656442,0.004194384621574964,-0.05734535106168378,0.051706964685057394,0.05238744145834047,0.008750309749924417, ,0.060006531133616314, ,0.07360322056532563, ,0.0009386506408756136, ,0.19956314020283555,-0.21015100697339736,0.1066068896,1.6842296260676997,0.5346586235821684,-1.2975256081667474, ,0.06735056178741716,0.08273490981558046,0.05943586388059702,-0.04507805939963444,0.13130174311210058,-0.14070205380019216, ,1.1586239337921143
0.014625492406204038,0.02113178834059158,-0.09554989543831091, ,0.015709856829835948,0.020700478207405885,-0.09753569882561608, ,0.0023033214554768313, ,0.017166875893656442,0.004194384621574964,-0.05734535106168378,0.051706964685057394,0.05238744145834047,0.008750309749924417, ,0.060006531133616314, ,0.07360322056532563, ,0.0009557090260581289, ,0.19956314020283555,-0.21015100697339736,0.1066068896,1.6842296260676997,0.5346586235821684,-1.2975256081667474, ,0.06735056178741716,0.08273490981558046,0.05943586388059702,-0.04507805939963444,0.13130174311210058,-0.14070205380019216, ,1.161391019821167
0.014625492406204038,0.02113178834059158,-0.09554989543831091, ,0.015791832365307273,0.02070623497821602,-0.09775845547060334, ,0.0025336104634828193, ,0.017166875893656442,0.004194384621574964,-0.05734535106168378,0.051706964685057394,0.05238744145834047,0.008750309749924417, ,0.060006531133616314, ,0.07360322056532563, ,0.0009751892907176929, ,0.19956314020283555,-0.21015100697339736,0.1066068896,1.6842296260676997,0.5346586235821684,-1.2975256081667474, ,0.06735056178741716,0.08273490981558046,0.05943586388059702,-0.04507805939963444,0.13130174311210058,-0.14070205380019216, ,1.1641268730163574
0.014812101971477067,0.021173595915654982,-0.09616164736583507, ,0.015873767276384818,0.02071194011431968,-0.09797955203392716, ,0.0021552347159468324, ,0.021038014026490328,0.004319402171910829,-0.06739355674207617,0.04265882519858007,0.04732383429012719,0.03705954837790814, ,0.07073292556970164, ,0.06370188704034495, ,0.0009895800885863408, ,0.20031224529163533,-0.20927061542573577,0.10724077541000002,1.683181176350277,0.5360249885798228,-1.2989665021642738, ,0.08682245339292843,0.10106170560007538,0.06986320842105265,-0.07891277145105466,0.15298630040109523,-0.15577749777749733, ,1.1678590774536133
0.014812101971477067,0.021173595915654982,-0.09616164736583507, ,0.01595566066356195,0.020717593452956744,-0.09819899341894708, ,0.0023804293033738324, ,0.021038014026490328,0.004319402171910829,-0.06739355674207617,0.04265882519858007,0.04732383429012719,0.03705954837790814, ,0.07073292556970164, ,0.06370188704034495, ,0.001006337308041612, ,0.20031224529163533,-0.20927061542573577,0.10724077541000002,1.683181176350277,0.5360249885798228,-1.2989665021642738, ,0.08682245339292843,0.10106170560007538,0.06986320842105265,-0.07891277145105466,0.15298630040109523,-0.15577749777749733, ,1.170619010925293
0.014812101971477067,0.021173595915654982,-0.09616164736583507, ,0.016037511632598925,0.020723194834984887,-0.09841678452514437, ,0.0026057884753634864, ,0.021038014026490328,0.004319402171910829,-0.06739355674207617,0.04265882519858007,0.04732383429012719,0.03705954837790814, ,0.07073292556970164, ,0.06370188704034495, ,0.0010253783933668722, ,0.20031224529163533,-0.20927061542573577,0.10724077541000002,1.683181176350277,0.5360249885798228,-1.2989665021642738, ,0.08682245339292843,0.10106170560007538,0.06986320842105265,-0.07891277145105466,0.15298630040109523,-0.15577749777749733, ,1.1733808517456055
0.01504889728695458,0.02123678544969511,-0.09695808165288503, ,0.016119319294512904,0.020728744104871195,-0.09863293024811483, ,0.002051591357765704, ,0.024091924049435783,0.00773021717957848,-0.08422287720918682,0.07875968703023806,0.10268643699342442,-0.019547043348603944, ,0.08794128784274764, ,0.12939611565571996, ,0.0010374514870656818, ,0.2011540231749258,-0.20825121468633812,0.10800040135000001,1.6829714864067924,0.5378012630767736,-1.3007416498728896, ,0.08457837928562457,0.10567588146823026,0.08656962782608697,-0.021301821277129526,0.19523348290048026,-0.1835729049528951, ,1.1761820316314697
0.01504889728695458,0.02123678544969511,-0.09695808165288503, ,0.016201082765568427,0.020734241110682523,-0.09884743547956416, ,0.0022693038739202203, ,0.024091924049435783,0.00773021717957848,-0.08422287720918682,0.07875968703023806,0.10268643699342442,-0.019547043348603944, ,0.08794128784274764, ,0.12939611565571996, ,0.0010517753520291066, ,0.2011540231749258,-0.20825121468633812,0.10800040135000001,1.6829714864067924,0.5378012630767736,-1.3007416498728896, ,0.08457837928562457,0.10567588146823026,0.08656962782608697,-0.021301821277129526,0.19523348290048026,-0.1835729049528951, ,1.178912878036499
0.01504889728695458,0.02123678544969511,-0.09695808165288503, ,0.016282801167267297,0.020739685704076357,-0.09906030510730075, ,0.0024877641357734463, ,0.024091924049435783,0.00773021717957848,-0.08422287720918682,0.07875968703023806,0.10268643699342442,-0.019547043348603944, ,0.08794128784274764, ,0.12939611565571996, ,0.0010682809702330647, ,0.2011540231749258,-0.20825121468633812,0.10800040135000001,1.6829714864067924,0.5378012630767736,-1.3007416498728896, ,0.08457837928562457,0.10567588146823026,0.08656962782608697,-0.021301821277129526,0.19523348290048026,-0.1835729049528951, ,1.1816918849945068
0.015289275269009276,0.021311441453933752,-0.09778054651447113, ,0.01636447362633935,0.02074507774029232,-0.09927154401523079, ,0.0019235105695073692, ,0.02640371555974186,0.008234670188397748,-0.08802791396071538,0.06437019219247075,0.06506345475280961,-0.04238125477363395, ,0.09227068670356015, ,0.09149584194295676, ,0.0010779994884066364, ,0.2020653056540843,-0.20715458661819824,0.10892206354000002,1.682761796463308,0.5395775375737243,-1.302353440101224, ,0.09575877049290694,0.10698640536467957,0.09154489379310346,0.0,0.1633208808155403,-0.1680746406655692, ,1.1852529048919678
0.015289275269009276,0.021311441453933752,-0.09778054651447113, ,0.016446099274732135,0.02075041707814236,-0.09948115708335105, ,0.0021319161422145307, ,0.02640371555974186,0.008234670188397748,-0.08802791396071538,0.06437019219247075,0.06506345475280961,-0.04238125477363395, ,0.09227068670356015, ,0.09149584194295676, ,0.0010898412485617812, ,0.2020653056540843,-0.20715458661819824,0.10892206354000002,1.682761796463308,0.5395775375737243,-1.302353440101224, ,0.09575877049290694,0.10698640536467957,0.09154489379310346,0.0,0.1633208808155403,-0.1680746406655692, ,1.1882240772247314
0.015289275269009276,0.021311441453933752,-0.09778054651447113, ,0.016527677249601663,0.020755703580002737,-0.09968914918774482, ,0.0023420606769432788, ,0.02640371555974186,0.008234670188397748,-0.08802791396071538,0.06437019219247075,0.06506345475280961,-0.04238125477363395, ,0.09227068670356015, ,0.09149584194295676, ,0.00110375479776602, ,0.2020653056540843,-0.20715458661819824,0.10892206354000002,1.682761796463308,0.5395775375737243,-1.302353440101224, ,0.09575877049290694,0.10698640536467957,0.09154489379310346,0.0,0.1633208808155403,-0.1680746406655692, ,1.1911349296569824
0.01549515463813578,0.021369323451801894,-0.09845339646158843, ,0.016609206693302188,0.02076093711180355,-0.0998955252005738, ,0.0019211926556502927, ,0.027213496192552974,0.007092609535201551,-0.08775513947437096,-0.01446435011136013,0.015660457773800655,0.0030604677033711242, ,0.09215120177842082, ,0.02119582638325013, ,0.001112737631369144, ,0.2028221334757583,-0.2063128087349078,0.10962076385000001,1.6823424165763388,0.5406706295718479,-1.3034081408110767, ,0.10010225902792276,0.11433366452827805,0.09102178011428572,-0.03454578039216393,0.12502548519226328,-0.10194989986323766, ,1.1959350109100342
0.01549515463813578,0.021369323451801894,-0.09845339646158843, ,0.016690686753376954,0.02076611754302087,-0.10010028999007334, ,0.0021225957460446494, ,0.027213496192552974,0.007092609535201551,-0.08775513947437096,-0.01446435011136013,0.015660457773800655,0.0030604677033711242, ,0.09215120177842082, ,0.02119582638325013, ,0.001123714350006921, ,0.2028221334757583,-0.2063128087349078,0.10962076385000001,1.6823424165763388,0.5406706295718479,-1.3034081408110767, ,0.10010225902792276,0.11433366452827805,0.09102178011428572,-0.03454578039216393,0.12502548519226328,-0.10194989986323766, ,1.1987290382385254
0.01549515463813578,0.021369323451801894,-0.09845339646158843, ,0.016772116582548166,0.020771244746667524,-0.100303448420547, ,0.002326160397706726, ,0.027213496192552974,0.007092609535201551,-0.08775513947437096,-0.01446435011136013,0.015660457773800655,0.0030604677033711242, ,0.09215120177842082, ,0.02119582638325013, ,0.0011366438774015426, ,0.2028221334757583,-0.2063128087349078,0.10962076385000001,1.6823424165763388,0.5406706295718479,-1.3034081408110767, ,0.10010225902792276,0.11433366452827805,0.09102178011428572,-0.03454578039216393,0.12502548519226328,-0.10194989986323766, ,1.20151686668396
0.01549515463813578,0.021369323451801894,-0.09845339646158843, ,0.016853495338707326,0.020776318599283486,-0.1005050053523595, ,0.002530976739251164, ,0.027213496192552974,0.007092609535201551,-0.08775513947437096,-0.01446435011136013,0.015660457773800655,0.0030604677033711242, ,0.09215120177842082, ,0.02119582638325013, ,0.0011514772057190919, ,0.2028221334757583,-0.2063128087349078,0.10962076385000001,1.6823424165763388,0.5406706295718479,-1.3034081408110767, ,0.10010225902792276,0.11433366452827805,0.09102178011428572,-0.03454578039216393,0.12502548519226328,-0.10194989986323766, ,1.2042670249938965
0.015828490275556047,0.021431060073405322,-0.099481092257185, ,0.01693482218490552,0.020781338980927284,-0.10070496564193104, ,0.001773125447774476, ,0.02657388814246722,0.0030971212814253734,-0.07513374265934343,-0.06479297394617929,-0.05609081474768875,0.03686865298629021, ,0.07975489312412537, ,0.08568497354187762, ,0.001158020871424938, ,0.2041118298657538,-0.20483004402305668,0.11068372165000001,1.680874586971947,0.5419003580697368,-1.3044925806844851, ,0.11324217369745916,0.12292349942807097,0.0777015196097561,-0.07227976751355683,0.07292704928131936,-0.06921220777434246, ,1.2072229385375977
0.015828490275556047,0.021431060073405322,-0.099481092257185, ,0.0170160962893436,0.020786305775166707,-0.10090333414173197, ,0.0019618583351611396, ,0.02657388814246722,0.0030971212814253734,-0.07513374265934343,-0.06479297394617929,-0.05609081474768875,0.03686865298629021, ,0.07975489312412537, ,0.08568497354187762, ,0.0011663941783388568, ,0.2041118298657538,-0.20483004402305668,0.11068372165000001,1.680874586971947,0.5419003580697368,-1.3044925806844851, ,0.11324217369745916,0.12292349942807097,0.0777015196097561,-0.07227976751355683,0.07292704928131936,-0.06921220777434246, ,1.2100269794464111
0.015828490275556047,0.021431060073405322,-0.099481092257185, ,0.01709731682536267,0.020791218869069962,-0.10110011570027598, ,0.002154194626661589, ,0.02657388814246722,0.0030971212814253734,-0.07513374265934343,-0.06479297394617929,-0.05609081474768875,0.03686865298629021, ,0.07975489312412537, ,0.08568497354187762, ,0.0011765776881153796, ,0.2041118298657538,-0.20483004402305668,0.11068372165000001,1.680874586971947,0.5419003580697368,-1.3044925806844851, ,0.11324217369745916,0.12292349942807097,0.0777015196097561,-0.07227976751355683,0.07292704928131936,-0.06921220777434246, ,1.2127609252929688
0.01609894988205385,0.0214492990200587,-0.10021190803533037, ,0.017178482971434265,0.020796078153196607,-0.10129531516211498, ,0.0016630875486092084, ,0.026620071725367546,0.0007969406753575254,-0.06877559321924216,0.014432930470445155,0.012807370041211305,-0.05030694859939187, ,0.07375191899715167, ,0.019256153467703582, ,0.0011815420744469493, ,0.2053474671256297,-0.20350173396869006,0.11144075501000002,1.6806648970284628,0.5429934500678604,-1.3057106388746187, ,0.12964063054435898,0.1346055908630791,0.07142964807174888,0.005371621947049143,0.14336620043256282,-0.14424980642676966, ,1.2155170440673828
0.01609894988205385,0.0214492990200587,-0.10021190803533037, ,0.01725959391115046,0.020800883521588216,-0.10148893736783214, ,0.0018434590141916, ,0.026620071725367546,0.0007969406753575254,-0.06877559321924216,0.014432930470445155,0.012807370041211305,-0.05030694859939187, ,0.07375191899715167, ,0.019256153467703582, ,0.0011882281041413398, ,0.2053474671256297,-0.20350173396869006,0.11144075501000002,1.6806648970284628,0.5429934500678604,-1.3057106388746187, ,0.12964063054435898,0.1346055908630791,0.07142964807174888,0.005371621947049143,0.14336620043256282,-0.14424980642676966, ,1.218247890472412
0.01609894988205385,0.0214492990200587,-0.10021190803533037, ,0.017340648833214487,0.020805634871759696,-0.10168098715403742, ,0.002028377005918773, ,0.026620071725367546,0.0007969406753575254,-0.06877559321924216,0.014432930470445155,0.012807370041211305,-0.05030694859939187, ,0.07375191899715167, ,0.019256153467703582, ,0.0011966295931591141, ,0.2053474671256297,-0.20350173396869006,0.11144075501000002,1.6806648970284628,0.5429934500678604,-1.3057106388746187, ,0.12964063054435898,0.1346055908630791,0.07142964807174888,0.005371621947049143,0.14336620043256282,-0.14424980642676966, ,1.2209789752960205
0.01609894988205385,0.0214492990200587,-0.10021190803533037, ,0.017421646931430782,0.02081033210469013,-0.10187146935336008, ,0.0022162919418854997, ,0.026620071725367546,0.0007969406753575254,-0.06877559321924216,0.014432930470445155,0.012807370041211305,-0.05030694859939187, ,0.07375191899715167, ,0.019256153467703582, ,0.001206725259978187, ,0.2053474671256297,-0.20350173396869006,0.11144075501000002,1.6806648970284628,0.5429934500678604,-1.3057106388746187, ,0.12964063054435898,0.1346055908630791,0.07142964807174888,0.005371621947049143,0.14336620043256282,-0.14424980642676966, ,1.223733901977539
0.016361791280964967,0.02145113444201872,-0.10086329425442991, ,0.017502587404695347,0.020814975124813534,-0.10206038879444368, ,0.0017717646035847984, ,0.026620071725367546,0.0007969406753575254,-0.06877559321924216,0.014432930470445155,0.012807370041211305,-0.05030694859939187, ,0.07375191899715167, ,0.019256153467703582, ,0.001212264861386095, ,0.20666033171424789,-0.20218114664719766,0.11211741839000001,1.6806648970284628,0.5442231785657493,-1.3070401149684487, ,0.13894134928033788,0.1365423619546342,0.06528201442622952,0.008125101569456393,0.11260373965229137,-0.09508590422312851, ,1.228299856185913
0.016361791280964967,0.02145113444201872,-0.10086329425442991, ,0.01758346945698611,0.020819563840010206,-0.10224775030193989, ,0.0019514347384872194, ,0.026776946504184766,-0.0008032843687478029,-0.0628276192708572,-0.03512984835410298,-0.026516833565371177,-0.04364021815864892, ,0.06830051151425467, ,0.04400306551376455, ,0.0012194412679598925, ,0.20666033171424789,-0.20218114664719766,0.11211741839000001,1.6806648970284628,0.5442231785657493,-1.3070401149684487, ,0.13894134928033788,0.1365423619546342,0.06528201442622952,0.008125101569456393,0.11260373965229137,-0.09508590422312851, ,1.2316510677337646
0.016361791280964967,0.02145113444201872,-0.10086329425442991, ,0.01766429229735305,0.02082409816159705,-0.10243355869650235, ,0.002134341540778816, ,0.026776946504184766,-0.0008032843687478029,-0.0628276192708572,-0.03512984835410298,-0.026516833565371177,-0.04364021815864892, ,0.06830051151425467, ,0.04400306551376455, ,0.0012282383859677668, ,0.20671439084436746,-0.2021348102499523,0.11213945532000001,1.6806648970284628,0.5443598150655148,-1.3071515328721452, ,0.13975985501983915,0.1371343086105069,0.0650155572244898,0.008099572442884747,0.10722702843047326,-0.09070155674537264, ,1.2352590560913086
0.016361791280964967,0.02145113444201872,-0.10086329425442991, ,0.017745055139908792,0.02082857800431939,-0.10261781879478105, ,0.002319342963917884, ,0.026776946504184766,-0.0008032843687478029,-0.0628276192708572,-0.03512984835410298,-0.026516833565371177,-0.04364021815864892, ,0.06830051151425467, ,0.04400306551376455, ,0.0012386298581387204, ,0.20671439084436746,-0.2021348102499523,0.11213945532000001,1.6806648970284628,0.5443598150655148,-1.3071515328721452, ,0.13975985501983915,0.1371343086105069,0.0650155572244898,0.008099572442884747,0.10722702843047326,-0.09070155674537264, ,1.2382190227508545
0.016741629324110312,0.021419924207117105,-0.10169647550483005, ,0.01782575720381861,0.02083300328634117,-0.10280053540941628, ,0.0016549192426581526, ,0.026708967250278343,-0.003674890745378424,-0.055459276067174615,-0.07376595671483367,-0.06549051367855205,-0.03530975801645053, ,0.061665266199555126, ,0.09864025091391415, ,0.0012425571164832434, ,0.20671439084436746,-0.2021348102499523,0.11213945532000001,1.6806648970284628,0.5443598150655148,-1.3071515328721452, ,0.13975985501983915,0.1371343086105069,0.0650155572244898,0.008099572442884747,0.10722702843047326,-0.09070155674537264, ,1.240959882736206
0.016741629324110312,0.021419924207117105,-0.10169647550483005, ,0.017906397713290924,0.02083737392923644,-0.10298171334903264, ,0.0018297230781907298, ,0.026708967250278343,-0.003674890745378424,-0.055459276067174615,-0.07376595671483367,-0.06549051367855205,-0.03530975801645053, ,0.061665266199555126, ,0.09864025091391415, ,0.00124804464883565, ,0.20671439084436746,-0.2021348102499523,0.11213945532000001,1.6806648970284628,0.5443598150655148,-1.3071515328721452, ,0.13975985501983915,0.1371343086105069,0.0650155572244898,0.008099572442884747,0.10722702843047326,-0.09070155674537264, ,1.2436940670013428
0.016889989896029488,0.021399546711679724,-0.10200416028453485, ,0.01798697589756744,0.020841689857979753,-0.10316135741823304, ,0.0016892861696674011, ,0.02618510047138039,-0.0030846973493576105,-0.05521730471205791,-0.0775643716537318,-0.06847830695130287,-0.032332955984853286, ,0.06118926036566933, ,0.10346495526184174, ,0.001252130218472981, ,0.20954091107633363,-0.19937007188097994,0.11330222745000001,1.680874586971947,0.5461360895624655,-1.3087633231004798, ,0.1437832447855618,0.1420612897581898,0.057092514408602156,0.0,0.07510871736724803,-0.05719038616304469, ,1.246474027633667
0.016889989896029488,0.021399546711679724,-0.10200416028453485, ,0.01806749099091375,0.020845951000937862,-0.1033394724175927, ,0.0018644129188827565, ,0.02618510047138039,-0.0030846973493576105,-0.05521730471205791,-0.0775643716537318,-0.06847830695130287,-0.032332955984853286, ,0.06118926036566933, ,0.10346495526184174, ,0.0012577474909538046, ,0.20954091107633363,-0.19937007188097994,0.11330222745000001,1.680874586971947,0.5461360895624655,-1.3087633231004798, ,0.1437832447855618,0.1420612897581898,0.057092514408602156,0.0,0.07510871736724803,-0.05719038616304469, ,1.249237060546875
0.016889989896029488,0.021399546711679724,-0.10200416028453485, ,0.018147942232609272,0.02085015728986005,-0.10351606314365366, ,0.0020420879200772767, ,0.02618510047138039,-0.0030846973493576105,-0.05521730471205791,-0.0775643716537318,-0.06847830695130287,-0.032332955984853286, ,0.06118926036566933, ,0.10346495526184174, ,0.0012648778584912908, ,0.20954091107633363,-0.19937007188097994,0.11330222745000001,1.680874586971947,0.5461360895624655,-1.3087633231004798, ,0.1437832447855618,0.1420612897581898,0.057092514408602156,0.0,0.07510871736724803,-0.05719038616304469, ,1.2519919872283936
0.016889989896029488,0.021399546711679724,-0.10200416028453485, ,0.018228328866937826,0.020854308659869137,-0.103691134388918, ,0.002221332339622669, ,0.02618510047138039,-0.0030846973493576105,-0.05521730471205791,-0.0775643716537318,-0.06847830695130287,-0.032332955984853286, ,0.06118926036566933, ,0.10346495526184174, ,0.0012734945655285103, ,0.20954091107633363,-0.19937007188097994,0.11330222745000001,1.680874586971947,0.5461360895624655,-1.3087633231004798, ,0.1437832447855618,0.1420612897581898,0.057092514408602156,0.0,0.07510871736724803,-0.05719038616304469, ,1.2547049522399902
0.017171500223216292,0.02136786596831477,-0.10261041470073325, ,0.01830865014317793,0.020858405049453268,-0.1038646909418431, ,0.0017680127989719496, ,0.02710589674549279,-0.0029265830699592332,-0.05959603105289788,-0.03611705977467022,-0.031924003388778856,0.009743442461553205, ,0.0655361079413529, ,0.048195769795642426, ,0.001277909906898541, ,0.21106228945255584,-0.19790275263487728,0.11393222439000002,1.6800358271980091,0.547229181560589,-1.309654666330051, ,0.1444397892822995,0.14291708066034756,0.061979811361867705,-0.05349274579549916,0.12495635765210476,-0.11311331423708668, ,1.2576689720153809
0.017171500223216292,0.02136786596831477,-0.10261041470073325, ,0.01838890531559295,0.02086244640045553,-0.10403673758683422, ,0.0019421434225965566, ,0.02710589674549279,-0.0029265830699592332,-0.05959603105289788,-0.03611705977467022,-0.031924003388778856,0.009743442461553205, ,0.0655361079413529, ,0.048195769795642426, ,0.0012837880796038332, ,0.21106228945255584,-0.19790275263487728,0.11393222439000002,1.6800358271980091,0.547229181560589,-1.309654666330051, ,0.1444397892822995,0.14291708066034756,0.061979811361867705,-0.05349274579549916,0.12495635765210476,-0.11311331423708668, ,1.2604670524597168
0.017171500223216292,0.02136786596831477,-0.10261041470073325, ,0.018469093643421603,0.020866432658066057,-0.10420727910423995, ,0.0021178196268742807, ,0.02710589674549279,-0.0029265830699592332,-0.05959603105289788,-0.03611705977467022,-0.031924003388778856,0.009743442461553205, ,0.0655361079413529, ,0.048195769795642426, ,0.0012911041458079598, ,0.21106228945255584,-0.19790275263487728,0.11393222439000002,1.6800358271980091,0.547229181560589,-1.309654666330051, ,0.1444397892822995,0.14291708066034756,0.061979811361867705,-0.05349274579549916,0.12495635765210476,-0.11311331423708668, ,1.2632150650024414
0.017441805392628146,0.021339098580392006,-0.10321079113952714, ,0.01854921439086823,0.020870363770812504,-0.1043763202703455, ,0.0016746716591263084, ,0.02842834010492367,-0.0024820046097969203,-0.06314097734560137,-0.033690036894398374,-0.027750825230405538,0.03123594573889138, ,0.0692900706318157, ,0.043636261257251396, ,0.0012944395154889888, ,0.2124909950342874,-0.19648176978601997,0.11455703617000002,1.6794067573675557,0.5485955465582434,-1.3108505241071557, ,0.14897479051565274,0.14313264186798005,0.06582153520661158,-0.07584203898853864,0.13815503432050744,-0.12002895941566209, ,1.266942024230957
0.017441805392628146,0.021339098580392006,-0.10321079113952714, ,0.01862926682709297,0.020874239690550918,-0.10454386585736657, ,0.001844789052750536, ,0.02842834010492367,-0.0024820046097969203,-0.06314097734560137,-0.033690036894398374,-0.027750825230405538,0.03123594573889138, ,0.0692900706318157, ,0.043636261257251396, ,0.0012991839080515883, ,0.2124909950342874,-0.19648176978601997,0.11455703617000002,1.6794067573675557,0.5485955465582434,-1.3108505241071557, ,0.14897479051565274,0.14313264186798005,0.06582153520661158,-0.07584203898853864,0.13815503432050744,-0.12002895941566209, ,1.273913860321045
0.017441805392628146,0.021339098580392006,-0.10321079113952714, ,0.01870925022620237,0.020878060372457072,-0.1047099206334444, ,0.002016522222754437, ,0.02842834010492367,-0.0024820046097969203,-0.06314097734560137,-0.033690036894398374,-0.027750825230405538,0.03123594573889138, ,0.0692900706318157, ,0.043636261257251396, ,0.0013053150047584504, ,0.2124909950342874,-0.19648176978601997,0.11455703617000002,1.6794067573675557,0.5485955465582434,-1.3108505241071557, ,0.14897479051565274,0.14313264186798005,0.06582153520661158,-0.07584203898853864,0.13815503432050744,-0.12002895941566209, ,1.2769248485565186
0.017842655976342603,0.021311549420758188,-0.10405820953008041, ,0.018789163867239413,0.02088182577501706,-0.10487448936263832, ,0.0013216854256137317, ,0.030024111847654262,-0.002274297144111081,-0.05951885288143463,-0.0703227239292914,-0.0784009354555616,-0.03833632666307425, ,0.06670167590144961, ,0.10531498119177592, ,0.0013054537371385798, ,0.21462246930757334,-0.19458970023183497,0.11544369853000001,1.6791970674240708,0.5500985480556632,-1.3122394785280975, ,0.16418155978974183,0.1363461804001017,0.062465927529411776,0.007681230714723155,0.08578058001872339,-0.059225022679218586, ,1.2797229290008545
0.017842655976342603,0.021311549420758188,-0.10405820953008041, ,0.018869007034174122,0.020885535860018574,-0.1050375768049213, ,0.001481230673080734, ,0.030024111847654262,-0.002274297144111081,-0.05951885288143463,-0.0703227239292914,-0.0784009354555616,-0.03833632666307425, ,0.06670167590144961, ,0.10531498119177592, ,0.0013069308542473376, ,0.21462246930757334,-0.19458970023183497,0.11544369853000001,1.6791970674240708,0.5500985480556632,-1.3122394785280975, ,0.16418155978974183,0.1363461804001017,0.062465927529411776,0.007681230714723155,0.08578058001872339,-0.059225022679218586, ,1.2824969291687012
0.017842655976342603,0.021311549420758188,-0.10405820953008041, ,0.01894877901589362,0.020889190592541785,-0.10519918771617333, ,0.0016443011827331998, ,0.030024111847654262,-0.002274297144111081,-0.05951885288143463,-0.0703227239292914,-0.0784009354555616,-0.03833632666307425, ,0.06670167590144961, ,0.10531498119177592, ,0.0013097422736513863, ,0.21462246930757334,-0.19458970023183497,0.11544369853000001,1.6791970674240708,0.5500985480556632,-1.3122394785280975, ,0.16418155978974183,0.1363461804001017,0.062465927529411776,0.007681230714723155,0.08578058001872339,-0.059225022679218586, ,1.285249948501587
0.017842655976342603,0.021311549420758188,-0.10405820953008041, ,0.01902847910619256,0.020892789940949893,-0.10535932684817524, ,0.0018095420063272225, ,0.030024111847654262,-0.002274297144111081,-0.05951885288143463,-0.0703227239292914,-0.0784009354555616,-0.03833632666307425, ,0.06670167590144961, ,0.10531498119177592, ,0.0013138728499544924, ,0.21462246930757334,-0.19458970023183497,0.11544369853000001,1.6791970674240708,0.5500985480556632,-1.3122394785280975, ,0.16418155978974183,0.1363461804001017,0.062465927529411776,0.007681230714723155,0.08578058001872339,-0.059225022679218586, ,1.287989854812622
0.01815386877436378,0.02128265161379387,-0.10463732886884101, ,0.01910810660376366,0.020896333876880998,-0.10551799894860346, ,0.0013547660382147424, ,0.029384255022098637,-0.0030447754800701004,-0.051500454816671946,-0.08518183038050242,-0.11698315891510849,-0.0359299892716143, ,0.059371726834006044, ,0.14470881592904017, ,0.0013142080400221994, ,0.21637552967002233,-0.19320733104734877,0.11605295483000001,1.6791970674240708,0.5507817305544904,-1.3128782467867202, ,0.17006620350980425,0.12737844504492724,0.05436454443686007,0.007664184854525413,0.05252743385074751,-0.036342256256512315, ,1.2906930446624756
0.01815386877436378,0.02128265161379387,-0.10463732886884101, ,0.01918766081218771,0.02089982237523819,-0.105675208761023, ,0.0015140934165225632, ,0.029384255022098637,-0.0030447754800701004,-0.051500454816671946,-0.08518183038050242,-0.11698315891510849,-0.0359299892716143, ,0.059371726834006044, ,0.14470881592904017, ,0.001315833124383991, ,0.21637552967002233,-0.19320733104734877,0.11605295483000001,1.6791970674240708,0.5507817305544904,-1.3128782467867202, ,0.17006620350980425,0.12737844504492724,0.05436454443686007,0.007664184854525413,0.05252743385074751,-0.036342256256512315, ,1.293449878692627
0.01815386877436378,0.02128265161379387,-0.10463732886884101, ,0.01926714103992408,0.020903255414180883,-0.10583096102488267, ,0.0016757309860127244, ,0.029384255022098637,-0.0030447754800701004,-0.051500454816671946,-0.08518183038050242,-0.11698315891510849,-0.0359299892716143, ,0.059371726834006044, ,0.14470881592904017, ,0.0013187355264939, ,0.21637552967002233,-0.19320733104734877,0.11605295483000001,1.6791970674240708,0.5507817305544904,-1.3128782467867202, ,0.17006620350980425,0.12737844504492724,0.05436454443686007,0.007664184854525413,0.05252743385074751,-0.036342256256512315, ,1.2962000370025635
0.018444160546346847,0.02125055711435682,-0.10513907295779733, ,0.019346546600301082,0.02090663297511599,-0.10598526047550869, ,0.001283985093003089, ,0.029384255022098637,-0.0030447754800701004,-0.051500454816671946,-0.08518183038050242,-0.11698315891510849,-0.0359299892716143, ,0.059371726834006044, ,0.14470881592904017, ,0.0013184575230259735, ,0.21808225363522593,-0.19194080285597595,0.11658443373,1.6794067573675557,0.551601549553083,-1.3135467542088988, ,0.17037152883028864,0.12619274143413667,0.05257033504950496,0.0,0.10932929508282363,-0.08413987270539743, ,1.2990529537200928
0.018444160546346847,0.02125055711435682,-0.10513907295779733, ,0.01942587681150616,0.020909955042688586,-0.10613811184409834, ,0.0014414767749931342, ,0.02872129219123597,-0.0034376639715978357,-0.0495237974533969,-0.036882552308647364,-0.0628959895986021,-0.03278844817803067, ,0.05735273901847283, ,0.0729104263664871, ,0.0013194338662955542, ,0.21808225363522593,-0.19194080285597595,0.11658443373,1.6794067573675557,0.551601549553083,-1.3135467542088988, ,0.17037152883028864,0.12619274143413667,0.05257033504950496,0.0,0.10932929508282363,-0.08413987270539743, ,1.3022799491882324
0.018444160546346847,0.02125055711435682,-0.10513907295779733, ,0.019505130996576435,0.020913221604772943,-0.10628951985771444, ,0.0016009314825486697, ,0.02872129219123597,-0.0034376639715978357,-0.0495237974533969,-0.036882552308647364,-0.0628959895986021,-0.03278844817803067, ,0.05735273901847283, ,0.0729104263664871, ,0.0013216503829589646, ,0.21808225363522593,-0.19194080285597595,0.11658443373,1.6794067573675557,0.551601549553083,-1.3135467542088988, ,0.17037152883028864,0.12619274143413667,0.05257033504950496,0.0,0.10932929508282363,-0.08413987270539743, ,1.3050689697265625
0.018444160546346847,0.02125055711435682,-0.10513907295779733, ,0.01958430848338882,0.02091643265246361,-0.10643948923927966, ,0.001761436623759379, ,0.02872129219123597,-0.0034376639715978357,-0.0495237974533969,-0.036882552308647364,-0.0628959895986021,-0.03278844817803067, ,0.05735273901847283, ,0.0729104263664871, ,0.0013250862129652178, ,0.21808225363522593,-0.19194080285597595,0.11658443373,1.6794067573675557,0.551601549553083,-1.3135467542088988, ,0.17037152883028864,0.12619274143413667,0.05257033504950496,0.0,0.10932929508282363,-0.08413987270539743, ,1.3079168796539307
0.018444160546346847,0.02125055711435682,-0.10513907295779733, ,0.01966340860465046,0.020919588180066312,-0.10658802470756956, ,0.0019223858708153625, ,0.02872129219123597,-0.0034376639715978357,-0.0495237974533969,-0.036882552308647364,-0.0628959895986021,-0.03278844817803067, ,0.05735273901847283, ,0.0729104263664871, ,0.001329716442871033, ,0.21808225363522593,-0.19194080285597595,0.11658443373,1.6794067573675557,0.551601549553083,-1.3135467542088988, ,0.17037152883028864,0.12619274143413667,0.05257033504950496,0.0,0.10932929508282363,-0.08413987270539743, ,1.3108799457550049
0.018444160546346847,0.02125055711435682,-0.10513907295779733, ,0.01974243069788921,0.02092268818508908,-0.10673513097720841, ,0.0020833637758421895, ,0.02872129219123597,-0.0034376639715978357,-0.0495237974533969,-0.036882552308647364,-0.0628959895986021,-0.03278844817803067, ,0.05735273901847283, ,0.0729104263664871, ,0.001335513730047734, ,0.21808225363522593,-0.19194080285597595,0.11658443373,1.6794067573675557,0.551601549553083,-1.3135467542088988, ,0.17037152883028864,0.12619274143413667,0.05257033504950496,0.0,0.10932929508282363,-0.08413987270539743, ,1.3147029876708984
0.018727091648932173,0.021217189769295243,-0.10563197654510274, ,0.019821374105443695,0.020925732668232826,-0.10688081275866095, ,0.0016858212315316787, ,0.02711134899414474,-0.0028472028183142125,-0.04711458362640233,0.025759183848151363,0.004969234596582892,-0.03518423918951497, ,0.05443267215983602, ,0.026229691013608933, ,0.0013381878331124972, ,0.2197735321346811,-0.19070516559610004,0.11710943118000001,1.6791970674240708,0.5531045510505029,-1.3147723511495595, ,0.16333380646896864,0.11558701773260752,0.05040763139240506,0.0,0.17114792712391458,-0.13540494928906188, ,1.3176610469818115
0.01892857272719352,0.02119439826211254,-0.10597107737091314, ,0.019900238174453792,0.020928721633382743,-0.10702507475822867, ,0.001457953464593674, ,0.025467764074542713,-0.0027448856956516486,-0.040448531139149875,-0.023987865473320623,-0.06251971013116196,-0.017569010400220526, ,0.04787718742526067, ,0.06696285219018723, ,0.001339095148502506, ,0.22099372392880856,-0.18986338771280958,0.11747239238000001,1.6789873774805866,0.5541976430486265,-1.3156636943791309, ,0.15556875665323078,0.10116944729048058,0.0434027561852861,-0.010289499942408225,0.09659419595413513,-0.07509708651322772, ,1.3205819129943848
0.01892857272719352,0.02119439826211254,-0.10597107737091314, ,0.01997902225685108,0.020931655087599203,-0.10716792167804222, ,0.001613974747515715, ,0.025467764074542713,-0.0027448856956516486,-0.040448531139149875,-0.023987865473320623,-0.06251971013116196,-0.017569010400220526, ,0.04787718742526067, ,0.06696285219018723, ,0.001341161912404861, ,0.22099372392880856,-0.18986338771280958,0.11747239238000001,1.6789873774805866,0.5541976430486265,-1.3156636943791309, ,0.15556875665323078,0.10116944729048058,0.0434027561852861,-0.010289499942408225,0.09659419595413513,-0.07509708651322772, ,1.3235139846801758
0.01892857272719352,0.02119439826211254,-0.10597107737091314, ,0.02005772570934904,0.02093453304110867,-0.10730935821605647, ,0.0017701728759292514, ,0.025467764074542713,-0.0027448856956516486,-0.040448531139149875,-0.023987865473320623,-0.06251971013116196,-0.017569010400220526, ,0.04787718742526067, ,0.06696285219018723, ,0.0013443634867595206, ,0.22099372392880856,-0.18986338771280958,0.11747239238000001,1.6789873774805866,0.5541976430486265,-1.3156636943791309, ,0.15556875665323078,0.10116944729048058,0.0434027561852861,-0.010289499942408225,0.09659419595413513,-0.07509708651322772, ,1.3262629508972168
0.01925218726092595,0.021162271489072987,-0.10647998467909463, ,0.020136347893433403,0.020937355507294496,-0.10744938906604419, ,0.0019261872437412349, ,0.028143405827681166,-0.0017594077455261846,-0.04710100998717147,-0.08816668281989795,-0.14049113252869866,0.031225568370220048, ,0.0548967389651535, ,0.16586407223553695, ,0.0013486732923667928, ,0.2229244071473647,-0.1886431959186821,0.11801683418000002,1.678358307650133,0.5547441890476882,-1.3161093659939165, ,0.16002856923856792,0.10095419314730934,0.0502486167823344,-0.05697077459865466,0.030740171424990664,-0.02197628528689672, ,1.3303308486938477
0.01925218726092595,0.021162271489072987,-0.10647998467909463, ,0.02021488817535248,0.020940122502688265,-0.10758801891758989, ,0.0014845481118735092, ,0.028143405827681166,-0.0017594077455261846,-0.04710100998717147,-0.08816668281989795,-0.14049113252869866,0.031225568370220048, ,0.0548967389651535, ,0.16586407223553695, ,0.0013496723719219892, ,0.2229244071473647,-0.1886431959186821,0.11801683418000002,1.678358307650133,0.5547441890476882,-1.3161093659939165, ,0.16002856923856792,0.10095419314730934,0.0502486167823344,-0.05697077459865466,0.030740171424990664,-0.02197628528689672, ,1.3330669403076172
0.01925218726092595,0.021162271489072987,-0.10647998467909463, ,0.02029334592610767,0.020942834046960478,-0.10772525245608441, ,0.0016379426099509544, ,0.028143405827681166,-0.0017594077455261846,-0.04710100998717147,-0.08816668281989795,-0.14049113252869866,0.031225568370220048, ,0.0548967389651535, ,0.16586407223553695, ,0.0013517765342433686, ,0.2229244071473647,-0.1886431959186821,0.11801683418000002,1.678358307650133,0.5547441890476882,-1.3161093659939165, ,0.16002856923856792,0.10095419314730934,0.0502486167823344,-0.05697077459865466,0.030740171424990664,-0.02197628528689672, ,1.335798978805542
0.01925218726092595,0.021162271489072987,-0.10647998467909463, ,0.02037172052144359,0.02094549016291177,-0.10786109436271839, ,0.0017910368011229672, ,0.028143405827681166,-0.0017594077455261846,-0.04710100998717147,-0.08816668281989795,-0.14049113252869866,0.031225568370220048, ,0.0548967389651535, ,0.16586407223553695, ,0.0013549595796555395, ,0.2229244071473647,-0.1886431959186821,0.11801683418000002,1.678358307650133,0.5547441890476882,-1.3161093659939165, ,0.16002856923856792,0.10095419314730934,0.0502486167823344,-0.05697077459865466,0.030740171424990664,-0.02197628528689672, ,1.3385310173034668
0.01952917890961238,0.021161756716498416,-0.10699546581447494, ,0.020450011341838575,0.020948090876463803,-0.10799554931447694, ,0.0013761367905893486, ,0.028063853899136643,0.0016080711841783093,-0.05498198417092712,0.07185179224489911,0.035363289918568845,-0.07231861025457609, ,0.06175098680974703, ,0.08007958455208512, ,0.0013551119336910346, ,0.2244689537222096,-0.18769329977515248,0.11857035001,1.6781486177066482,0.5562471905451081,-1.3173349629345772, ,0.15183510649355325,0.08860592115636862,0.05921491271375466,0.04296362558250778,0.18207900743936875,-0.14573057042337298, ,1.341264009475708
0.01952917890961238,0.021161756716498416,-0.10699546581447494, ,0.020528217772494903,0.02095063621664999,-0.10812862198413327, ,0.001525350261363134, ,0.028063853899136643,0.0016080711841783093,-0.05498198417092712,0.07185179224489911,0.035363289918568845,-0.07231861025457609, ,0.06175098680974703, ,0.08007958455208512, ,0.0013563279217458353, ,0.2244689537222096,-0.18769329977515248,0.11857035001,1.6781486177066482,0.5562471905451081,-1.3173349629345772, ,0.15183510649355325,0.08860592115636862,0.05921491271375466,0.04296362558250778,0.18207900743936875,-0.14573057042337298, ,1.3439960479736328
0.01952917890961238,0.021161756716498416,-0.10699546581447494, ,0.020606339203329237,0.020953126215606892,-0.10826031704024244, ,0.0016744102267926995, ,0.028063853899136643,0.0016080711841783093,-0.05498198417092712,0.07185179224489911,0.035363289918568845,-0.07231861025457609, ,0.06175098680974703, ,0.08007958455208512, ,0.001358583824618508, ,0.2244689537222096,-0.18769329977515248,0.11857035001,1.6781486177066482,0.5562471905451081,-1.3173349629345772, ,0.15183510649355325,0.08860592115636862,0.05921491271375466,0.04296362558250778,0.18207900743936875,-0.14573057042337298, ,1.3467040061950684
0.01952917890961238,0.021161756716498416,-0.10699546581447494, ,0.020684375028963083,0.020955560908565214,-0.10839063914713698, ,0.0018230478363288893, ,0.027143366351837065,0.002162467322544287,-0.05101074920161352,0.07545190544991456,0.02469391930018777,-0.057154913687551503, ,0.05782330962458848, ,0.07938787248327153, ,0.0013618546979404123, ,0.2259517184340607,-0.18689013555623313,0.11914849535000001,1.6781486177066482,0.5580234650420588,-1.3187833956826307, ,0.14944400245428469,0.0754347707142057,0.055308373333333334,0.029735772103478483,0.1712968285482297,-0.13968107774608246, ,1.3498640060424805
0.01980364055608453,0.0211817597486328,-0.10753116385831875, ,0.020762324648712648,0.020957940333840124,-0.1085195929649183, ,0.0013950492531339222, ,0.027143366351837065,0.002162467322544287,-0.05101074920161352,0.07545190544991456,0.02469391930018777,-0.057154913687551503, ,0.05782330962458848, ,0.07938787248327153, ,0.00136208682769701, ,0.2259517184340607,-0.18689013555623313,0.11914849535000001,1.6781486177066482,0.5580234650420588,-1.3187833956826307, ,0.14944400245428469,0.0754347707142057,0.055308373333333334,0.029735772103478483,0.1712968285482297,-0.13968107774608246, ,1.3529598712921143
0.01980364055608453,0.0211817597486328,-0.10753116385831875, ,0.020840187466579813,0.02096026453282303,-0.10864718314945314, ,0.0015391519374213965, ,0.027143366351837065,0.002162467322544287,-0.05101074920161352,0.07545190544991456,0.02469391930018777,-0.057154913687551503, ,0.05782330962458848, ,0.07938787248327153, ,0.0013633164465145407, ,0.2259517184340607,-0.18689013555623313,0.11914849535000001,1.6781486177066482,0.5580234650420588,-1.3187833956826307, ,0.14944400245428469,0.0754347707142057,0.055308373333333334,0.029735772103478483,0.1712968285482297,-0.13968107774608246, ,1.3587560653686523
0.01980364055608453,0.0211817597486328,-0.10753116385831875, ,0.020917962891242158,0.020962533549972302,-0.10877341435236673, ,0.0016831401257093065, ,0.027143366351837065,0.002162467322544287,-0.05101074920161352,0.07545190544991456,0.02469391930018777,-0.057154913687551503, ,0.05782330962458848, ,0.07938787248327153, ,0.0013655221270607114, ,0.2259517184340607,-0.18689013555623313,0.11914849535000001,1.6781486177066482,0.5580234650420588,-1.3187833956826307, ,0.14944400245428469,0.0754347707142057,0.055308373333333334,0.029735772103478483,0.1712968285482297,-0.13968107774608246, ,1.361717939376831
0.02018957734783638,0.021204223301100902,-0.10823102268773133, ,0.02099565033604336,0.020964747432804128,-0.10889829122103661, ,0.001386897005027188, ,0.025127987457596042,0.0012215651885918027,-0.043265945864422395,-0.011299796713448851,-0.0716565950874732,-0.038773055612836935, ,0.050048476967058775, ,0.07254103262423604, ,0.0013656685303344545, ,0.228060024508724,-0.18581667568671592,0.11990552871000001,1.6781486177066482,0.559663103039244,-1.3200387317868472, ,0.13793160110242844,0.06841884755477344,0.046849445647058834,0.0204882519128182,0.06350280830662747,-0.04965986583768505, ,1.3648929595947266
0.02018957734783638,0.021204223301100902,-0.10823102268773133, ,0.02107324921898341,0.020966906231883423,-0.10902181839858706, ,0.0012093606672561696, ,0.025127987457596042,0.0012215651885918027,-0.043265945864422395,-0.011299796713448851,-0.0716565950874732,-0.038773055612836935, ,0.050048476967058775, ,0.07254103262423604, ,0.0013646052115380035, ,0.228060024508724,-0.18581667568671592,0.11990552871000001,1.6781486177066482,0.559663103039244,-1.3200387317868472, ,0.13793160110242844,0.06841884755477344,0.046849445647058834,0.0204882519128182,0.06350280830662747,-0.04965986583768505, ,1.3676578998565674
0.02018957734783638,0.021204223301100902,-0.10823102268773133, ,0.021150758962709227,0.020969010000815184,-0.10914400052388287, ,0.0013463743620200253, ,0.025127987457596042,0.0012215651885918027,-0.043265945864422395,-0.011299796713448851,-0.0716565950874732,-0.038773055612836935, ,0.050048476967058775, ,0.07254103262423604, ,0.0013644820301223417, ,0.228060024508724,-0.18581667568671592,0.11990552871000001,1.6781486177066482,0.559663103039244,-1.3200387317868472, ,0.13793160110242844,0.06841884755477344,0.046849445647058834,0.0204882519128182,0.06350280830662747,-0.04965986583768505, ,1.3704290390014648
0.02018957734783638,0.021204223301100902,-0.10823102268773133, ,0.021228178994504812,0.020971058796235145,-0.1092648422315238, ,0.0014838604772413578, ,0.025127987457596042,0.0012215651885918027,-0.043265945864422395,-0.011299796713448851,-0.0716565950874732,-0.038773055612836935, ,0.050048476967058775, ,0.07254103262423604, ,0.0013652832277540128, ,0.228060024508724,-0.18581667568671592,0.11990552871000001,1.6781486177066482,0.559663103039244,-1.3200387317868472, ,0.13793160110242844,0.06841884755477344,0.046849445647058834,0.0204882519128182,0.06350280830662747,-0.04965986583768505, ,1.3731670379638672
0.020442573124225368,0.021217584594452728,-0.1086453941013541, ,0.021305508746281645,0.02097305267780098,-0.10938434815183805, ,0.0011621130903667106, ,0.025037681576559778,0.0015987104993535198,-0.03898356539999284,-0.018532441711890963,-0.09818060269161902,-0.031432248528932796, ,0.046359030892431985, ,0.09991392348635608, ,0.0013639287601714307, ,0.2294810073575813,-0.18518341159102952,0.12035663763000001,1.6781486177066482,0.5602096490383058,-1.3204844034016328, ,0.14334885431793168,0.05740891806320072,0.04270458852546917,0.016826804758175717,0.04276011008183643,-0.0328050456138258, ,1.375952959060669
0.020442573124225368,0.021217584594452728,-0.1086453941013541, ,0.021382747654569108,0.020974991708183136,-0.109502522910877, ,0.001295163793537264, ,0.025037681576559778,0.0015987104993535198,-0.03898356539999284,-0.018532441711890963,-0.09818060269161902,-0.031432248528932796, ,0.046359030892431985, ,0.09991392348635608, ,0.0013634733630414032, ,0.2294810073575813,-0.18518341159102952,0.12035663763000001,1.6781486177066482,0.5602096490383058,-1.3204844034016328, ,0.14334885431793168,0.05740891806320072,0.04270458852546917,0.016826804758175717,0.04276011008183643,-0.0328050456138258, ,1.3786818981170654
0.020442573124225368,0.021217584594452728,-0.1086453941013541, ,0.021459895160504727,0.020976875953055994,-0.10961937113040882, ,0.0014288163033325514, ,0.025037681576559778,0.0015987104993535198,-0.03898356539999284,-0.018532441711890963,-0.09818060269161902,-0.031432248528932796, ,0.046359030892431985, ,0.09991392348635608, ,0.0013639032508064766, ,0.2294810073575813,-0.18518341159102952,0.12035663763000001,1.6781486177066482,0.5602096490383058,-1.3204844034016328, ,0.14334885431793168,0.05740891806320072,0.04270458852546917,0.016826804758175717,0.04276011008183643,-0.0328050456138258, ,1.381471872329712
0.02069384232765047,0.02123297904225943,-0.10903675660353554, ,0.02153695070982458,0.02097870548108857,-0.10973489742791206, ,0.0011237826296325694, ,0.023912293531360342,0.001767929364430696,-0.03730950578396882,0.0840400470047884,0.017765679512517868,-0.036429176666291606, ,0.04435000087949894, ,0.08589689503063049, ,0.0013623338349818103, ,0.23097921753518086,-0.18460420662546267,0.12078959849000001,1.6781486177066482,0.5615760140359602,-1.321598582438597, ,0.14400142876854444,0.05322318651624834,0.04148128,0.01426058101186353,0.1616942534115574,-0.12995894746283881, ,1.3849189281463623
0.02069384232765047,0.02123297904225943,-0.10903675660353554, ,0.02161391375285361,0.02098048036393582,-0.1098491064165714, ,0.0012530759070263516, ,0.023912293531360342,0.001767929364430696,-0.03730950578396882,0.0840400470047884,0.017765679512517868,-0.036429176666291606, ,0.04435000087949894, ,0.08589689503063049, ,0.0013616243679171645, ,0.23097921753518086,-0.18460420662546267,0.12078959849000001,1.6781486177066482,0.5615760140359602,-1.321598582438597, ,0.14400142876854444,0.05322318651624834,0.04148128,0.01426058101186353,0.1616942534115574,-0.12995894746283881, ,1.38765287399292
0.02069384232765047,0.02123297904225943,-0.10903675660353554, ,0.02169078374449598,0.020982200676229256,-0.10996200270526946, ,0.0013830626617274105, ,0.023912293531360342,0.001767929364430696,-0.03730950578396882,0.0840400470047884,0.017765679512517868,-0.036429176666291606, ,0.04435000087949894, ,0.08589689503063049, ,0.001361762679490134, ,0.23097921753518086,-0.18460420662546267,0.12078959849000001,1.6781486177066482,0.5615760140359602,-1.321598582438597, ,0.14400142876854444,0.05322318651624834,0.04148128,0.01426058101186353,0.1616942534115574,-0.12995894746283881, ,1.3903779983520508
0.02069384232765047,0.02123297904225943,-0.10903675660353554, ,0.021767560144225585,0.020983866495568687,-0.11007359089858275, ,0.0015132588562224321, ,0.023912293531360342,0.001767929364430696,-0.03730950578396882,0.0840400470047884,0.017765679512517868,-0.036429176666291606, ,0.04435000087949894, ,0.08589689503063049, ,0.0013627338088281617, ,0.23097921753518086,-0.18460420662546267,0.12078959849000001,1.6781486177066482,0.5615760140359602,-1.321598582438597, ,0.14400142876854444,0.05322318651624834,0.04148128,0.01426058101186353,0.1616942534115574,-0.12995894746283881, ,1.3933448791503906
0.020932461961975277,0.02125038271039478,-0.109399644821488, ,0.021844242416076166,0.02098547790251221,-0.11018387559677448, ,0.0012314771872130416, ,0.024141432737367022,0.0018995400756454573,-0.035790204552974915,0.08966316252811475,0.01589017676637912,-0.03410592421846304, ,0.043212912064053095, ,0.09105998960848247, ,0.0013618977793911225, ,0.23242336858266086,-0.18409450625576387,0.12119404097000001,1.6781486177066482,0.56307901553338,-1.3226608218989764, ,0.1482764711851106,0.04934838354574663,0.04012295093198993,0.0124324020910376,0.16445836933758293,-0.13217191157358854, ,1.3963298797607422
0.020932461961975277,0.02125038271039478,-0.109399644821488, ,0.02192083002863176,0.020987034980567913,-0.11029286139578931, ,0.0013579614540176728, ,0.024141432737367022,0.0018995400756454573,-0.035790204552974915,0.08966316252811475,0.01589017676637912,-0.03410592421846304, ,0.043212912064053095, ,0.09105998960848247, ,0.0013618728659393919, ,0.23242336858266086,-0.18409450625576387,0.12119404097000001,1.6781486177066482,0.56307901553338,-1.3226608218989764, ,0.1482764711851106,0.04934838354574663,0.04012295093198993,0.0124324020910376,0.16445836933758293,-0.13217191157358854, ,1.399122953414917
0.020932461961975277,0.02125038271039478,-0.109399644821488, ,0.02199732245501711,0.020988537816184764,-0.11040055288724726, ,0.0014846910703466506, ,0.024141432737367022,0.0018995400756454573,-0.035790204552974915,0.08966316252811475,0.01589017676637912,-0.03410592421846304, ,0.043212912064053095, ,0.09105998960848247, ,0.0013626453074765444, ,0.23242336858266086,-0.18409450625576387,0.12119404097000001,1.6781486177066482,0.56307901553338,-1.3226608218989764, ,0.1482764711851106,0.04934838354574663,0.04012295093198993,0.0124324020910376,0.16445836933758293,-0.13217191157358854, ,1.402184009552002
0.02116786602565996,0.02127309489702816,-0.10975510975403811, ,0.022073719172887904,0.020989986498743066,-0.11050695465843709, ,0.0012107811733723906, ,0.024817990972009294,0.003060117051200812,-0.03873531742307631,0.05403116174886545,-0.017686737584582717,-0.02552185370720605, ,0.0461055507300397, ,0.056851560422565596, ,0.0013616961566383936, ,0.23384435143151816,-0.18364658774905884,0.12159200200000002,1.6781486177066482,0.5645820170307999,-1.323559703879075, ,0.1444397892822995,0.04357068023804903,0.04316751089430895,0.011051265742841163,0.12678943588071417,-0.09123416575991836, ,1.4050400257110596
0.02116786602565996,0.02127309489702816,-0.10975510975403811, ,0.022150019664421237,0.02099138112054625,-0.1106120712923118, ,0.001333555960607626, ,0.024817990972009294,0.003060117051200812,-0.03873531742307631,0.05403116174886545,-0.017686737584582717,-0.02552185370720605, ,0.0461055507300397, ,0.056851560422565596, ,0.0013615213728121155, ,0.23384435143151816,-0.18364658774905884,0.12159200200000002,1.6781486177066482,0.5645820170307999,-1.323559703879075, ,0.1444397892822995,0.04357068023804903,0.04316751089430895,0.011051265742841163,0.12678943588071417,-0.09123416575991836, ,1.4078350067138672
0.02116786602565996,0.02127309489702816,-0.10975510975403811, ,0.022226223416305826,0.020992721776811274,-0.11071590736748119, ,0.001456661081677129, ,0.024817990972009294,0.003060117051200812,-0.03873531742307631,0.05403116174886545,-0.017686737584582717,-0.02552185370720605, ,0.0461055507300397, ,0.056851560422565596, ,0.0013621086549656033, ,0.23384435143151816,-0.18364658774905884,0.12159200200000002,1.6781486177066482,0.5645820170307999,-1.323559703879075, ,0.1444397892822995,0.04357068023804903,0.04316751089430895,0.011051265742841163,0.12678943588071417,-0.09123416575991836, ,1.4106030464172363
0.02116786602565996,0.02127309489702816,-0.10975510975403811, ,0.02230232991973262,0.020994008565660072,-0.11081846745820674, ,0.0015797553969921327, ,0.024817990972009294,0.003060117051200812,-0.03873531742307631,0.05403116174886545,-0.017686737584582717,-0.02552185370720605, ,0.0461055507300397, ,0.056851560422565596, ,0.0013634439110516555, ,0.23384435143151816,-0.18364658774905884,0.12159200200000002,1.6781486177066482,0.5645820170307999,-1.323559703879075, ,0.1444397892822995,0.04357068023804903,0.04316751089430895,0.011051265742841163,0.12678943588071417,-0.09123416575991836, ,1.413496971130371
0.021423366406993993,0.021308475872208264,-0.11016495153703193, ,0.022378338670384832,0.020995241588110048,-0.1109197561343958, ,0.0012569080001264888, ,0.024971381405385618,0.0037134049771940436,-0.04210042193497003,0.006066704085387075,-0.015526666393973624,-0.008235332061069956, ,0.049089762608107955, ,0.01666583351157083, ,0.0013627943018386971, ,0.23528850247899813,-0.1832218374409765,0.12204699979000001,1.6781486177066482,0.5656751090289234,-1.323960974667803, ,0.13733276636537015,0.04290096815482405,0.04657547228070176,0.009896514507336902,0.12239385948552362,-0.0402285495958338, ,1.4162709712982178
