NicholasDascanio/dvrk_moveit_final/test/execution/third_experiment_notsharpbends/thirdexp_400vel5.0/thirdexp_400vel5.0_10.csv
Current Position (x),Current Position (y),Current Position (z), ,Planned Position (x),Planned Position (y),Planned Position (z), ,Position Error,,Cartesian linear Velocity(x),Cartesian linear Velocity(y),Cartesian linear Velocity(z),Cartesian Angular Velocity(x),Cartesian Angular Velocity(y),Cartesian Angular Velocity(z), ,Total Linear Velocity, ,Total Angular Velocity, ,MSE, ,Joint 1 Position,Joint 2 Position,Joint 3 Position,Joint 4 Position,Joint 5 Position,Joint 6 Position, ,Joint 1 Velocity,Joint 2 Velocity,Joint 3 Velocity,Joint 4 Velocity,Joint 5 Velocity,Joint 6 Velocity, ,Time Stamp
0.00764454020062332,0.019848881108084696,-0.07190605595388912, ,0.007801412285539203,0.019743722490963244,-0.07229000324270288, ,0.00042788164995497197, ,0.0010033148328315053,0.000724341174138782,-0.004876343396297495,0.09649937547760119,-0.01197405563758345,-0.2070167082915028, ,0.005030908040199766, ,0.09723943373560844, ,3.565680416291433e-05, ,0.1928289171365118,-0.1909368475823268,0.08700179964,2.3181223252214167,1.2238531283990501,-1.230182821628465, ,0.0008588370078406469,0.0029884818254590326,0.005007485545425967,-0.0017783654194174132,0.0005761658643797327,-0.2310820564091527, ,0.027814149856567383
0.007683133021409287,0.01987453139486131,-0.07207751478688285, ,0.007947794018833918,0.01976895856440858,-0.07276516190719323, ,0.000744345100177847, ,0.0033608873695242488,0.0024196728669185234,-0.015022642632158424,0.1288996904311727,-0.03499652591569644,-0.3122097165029013, ,0.015583009091541759, ,0.1335660370539473, ,5.328303409694631e-05, ,0.1928984217323798,-0.19082872932208764,0.08717809508,2.3181223252214167,1.2238531283990501,-1.2350835460368987, ,0.005380757177398411,0.006544765693264468,0.015345675838150292,-0.00172346551286382,-0.017646008931930735,-0.34157773042846307, ,0.056678056716918945
0.007840571493059034,0.019977585260872566,-0.07276467928492908, ,0.008093619819927607,0.019794003701921272,-0.0732371053298449, ,0.0005664997903201507, ,0.005458923211736149,0.003356431647118385,-0.023186500326346147,0.058577523504802234,-0.04035441996598621,-0.1959356672388442, ,0.024055753436902774, ,0.07113226250573806, ,5.43352043891553e-05, ,0.1931764401158519,-0.1904657608769991,0.08787161023000001,2.3179126352779322,1.2222134904018647,-1.2411792965453328, ,0.011704662951694412,0.015103762781867067,0.02363325151335312,-0.000822310460803879,-0.025142066678459772,-0.20774900254474815, ,0.08453702926635742
0.007892735087449698,0.020005466447220833,-0.07297645313107513, ,0.00823889080652639,0.01981885825614385,-0.07370584521440593, ,0.0008286490270628232, ,0.005010479841993583,0.0023955831846363246,-0.019453733745866005,0.03998664150982885,-0.03701376767792383,-0.15283157146853293, ,0.020230953603243278, ,0.05448805108218247, ,6.112798970275698e-05, ,0.1933077265747137,-0.19029586075376614,0.08808549808,2.3179126352779322,1.2218035809025685,-1.2432954050384604, ,0.015631187869950713,0.01823888940197401,0.019787343503105594,-0.0008182218446409536,-0.01817547648839189,-0.16131894505310784, ,0.11598706245422363
0.00803966322035858,0.020007843973309885,-0.07344391303249162, ,0.00838360809694583,0.01984352258146724,-0.07417139324074709, ,0.0008212959584407723, ,0.0036828425256860645,-0.0003952236286851275,-0.011939847050655776,0.003914177112589252,0.0027169101031373215,-0.036280068459383495, ,0.012501179079539905, ,0.004764676307965951, ,6.516676011454933e-05, ,0.19407999986213614,-0.18912972808975825,0.08855734764,2.3177029453344478,1.2223501269016304,-1.2392487459455153, ,0.018873695616243195,0.03640082146469918,0.012085592959028833,-0.000511666384495241,0.033130423288840305,-0.0428516628639109, ,0.14706897735595703
0.008163818393133994,0.020046944177014088,-0.07391332333552736, ,0.008527772810098026,0.01986799703401795,-0.07463376106491733, ,0.0008267499135425924, ,0.0061036464440577,0.0025289181698461925,-0.024267743231363038,0.13003296402703118,0.05123556621953095,-0.1570196190849553, ,0.025151009692797682, ,0.13976282253407782, ,6.799066837901867e-05, ,0.19458970023183497,-0.18843468213107803,0.08904864155000002,2.317283565447479,1.224126401398581,-1.2405338212132877, ,0.021111666642596394,0.03142282833061946,0.02569163148387097,-0.0013267074345966253,0.1148805786896566,-0.2029830466706608, ,0.17766213417053223
0.008396624910035472,0.020098793416567617,-0.07469231194261162, ,0.00867138606547959,0.019892281971645612,-0.0750929603191959, ,0.0005278823648166141, ,0.004876755317278323,-2.0487544523067094e-05,-0.012577116349193763,-0.0364518766377841,-0.030960683531976826,0.005863831110467746, ,0.01348951510712079, ,0.04782575582755784, ,6.587921950438571e-05, ,0.19563226916985527,-0.18714498574108254,0.08984067474000001,2.317283565447479,1.2242630378983463,-1.2398284517155784, ,0.031329462383120094,0.0316428614733147,0.012672085536992842,-0.0013267074345966253,0.0,0.011927411841749986, ,0.20547008514404297
0.008528518428053522,0.020102010524596224,-0.07507753240251572, ,0.00881444898316006,0.01991637775391129,-0.07554900261213986, ,0.0005818074994864947, ,0.0046085167333016035,0.0006406005556220466,-0.016245937427479352,-0.005518681719959052,-0.00015870030467120873,-0.008558839997955665, ,0.016899091053975614, ,0.0055208606242403094, ,6.574211486175637e-05, ,0.1963968197244035,-0.18622598052904982,0.09023474690000001,2.3170738755039944,1.2250828568969392,-1.2405786378778976, ,0.01935487284488492,0.03195183217456929,0.016609813889468198,-0.0069461246053662395,0.02973964723748815,-0.018803824677852868, ,0.2303791046142578
0.00861654931524252,0.02011941375346251,-0.07538408198216394, ,0.00895696268377143,0.019940284742075386,-0.076001899528632, ,0.0007277822372918556, ,0.006082255041056939,0.0015403440381885876,-0.020667165828590125,-0.009111110024379657,-0.011040325189639016,-0.007228966855917426, ,0.021598570080606935, ,0.014314235418633196, ,6.725437267882357e-05, ,0.19675978816949205,-0.1856853892278541,0.09054844908000001,2.3170738755039944,1.2254927663962354,-1.2409128915889867, ,0.026724004944655246,0.031072999855425925,0.021238415360000002,-0.0069461246053662395,0.02466781857216478,-0.016003400178858377, ,0.2599949836730957
0.008837252553118097,0.02017140756531002,-0.07608515117619914, ,0.009098928288497916,0.01996400329908763,-0.07645166262992338, ,0.0004958037573928535, ,0.004938637316910687,2.273083402440403e-05,-0.013206343804785073,-0.014393111741749681,-0.02003404783164544,-0.008610174306504634, ,0.014099580558618872, ,0.024668286045463787, ,6.61484575604745e-05, ,0.1978718617033804,-0.18466598848845647,0.09127048261000001,2.3164448056735405,1.226312585394828,-1.2414997202710247, ,0.030503677775143293,0.03160071313968391,0.013464760371935757,-0.007391258947541722,0.017520226514564703,-0.015756667898198667, ,0.28531908988952637
0.008982853130654566,0.020184682490416474,-0.07649533601485173, ,0.00924034691906658,0.01998753378957621,-0.07689830345367712, ,0.0005172556602563912, ,0.004177436903538546,0.0005255115576822962,-0.01121582308699911,0.03988897188384513,0.018788602899779145,-0.04859148625076471, ,0.011980059640885169, ,0.04409241997660357, ,6.542549035873488e-05, ,0.19872908505241932,-0.18383193333804024,0.09169566573000001,2.316235115730056,1.2274056773929516,-1.2424727422407367, ,0.025012372577351286,0.02329330916997319,0.01194063832083958,0.016510256118345043,0.060002596702589214,-0.04892809426778971, ,0.31682610511779785
0.009061769374292478,0.020179186747850353,-0.07671552292622684, ,0.009381219697738157,0.020010876579836995,-0.07734183351400695, ,0.0007229396753337703, ,0.004370706905797403,0.00043558245826886985,-0.013591366648192377,-0.006448849249437037,-0.00463772092363258,-0.028941446370890134, ,0.014283489010039974, ,0.007943276919734836, ,6.65717319151892e-05, ,0.1991692808262501,-0.18323728290672495,0.09191603503000001,2.316235115730056,1.2274056773929516,-1.242391063500596, ,0.020130874322967923,0.028566207573290422,0.013899486492146597,0.015050395390789284,0.01877048873790629,-0.015306074951605108, ,0.3431820869445801
0.009211394473166878,0.02020907983693474,-0.0771954540090536, ,0.009521547747298647,0.020034032037824685,-0.07778226430151745, ,0.0006864277855458956, ,0.005824666389432262,0.0018251854058717928,-0.01976562462459343,0.01629288540814705,0.002991621442050886,-0.020583472239441895, ,0.020686661333195442, ,0.01656517120142446, ,6.726444777478597e-05, ,0.19986432678493032,-0.18244956415355404,0.09241251410000001,2.316235115730056,1.2283621328913097,-1.2430893100863303, ,0.024514838945613737,0.02459107062930054,0.020579859844961242,-0.0037807330708078215,0.041494533049370126,-0.03375116489254492, ,0.3708381652832031
0.009379529190104478,0.02026342320618391,-0.07778273014490057, ,0.009661332191051045,0.020057000533143073,-0.07821960728334003, ,0.0005593611403904123, ,0.005703440309442487,0.0016823320078115627,-0.019063115882081514,-0.005602033073117539,-0.007438261761006508,-0.03390285257394855, ,0.019969022496896267, ,0.00931171278969582, ,6.69235671112107e-05, ,0.20054392727786208,-0.18178540912637073,0.09301788153000001,2.3156060458996026,1.2289086788903714,-1.2432899454806943, ,0.021745403656844818,0.025766207319704255,0.01964095131935882,0.021972818621492148,0.015244008511294899,-0.01294109254134958, ,0.3974640369415283
0.009488852842269482,0.020292286351618685,-0.07815176255322288, ,0.009800574152807667,0.02007978243703521,-0.07865387390316943, ,0.0006280476868057744, ,0.003998375901920296,0.0005289074621191732,-0.012220171361265207,0.011850102376817875,0.008782139250858101,-0.037586537071702286, ,0.012868540750808875, ,0.014749597406369929, ,6.710228643624458e-05, ,0.20099184578456708,-0.18126798602379768,0.09340028708,2.3156060458996026,1.2295918613891985,-1.2438470349991764, ,0.01818994471122691,0.02433878983289838,0.012692280095617531,0.021672704672033985,0.03359207170366207,-0.023073454343869322, ,0.42293310165405273
0.009564876207180195,0.020293633810851284,-0.07838941052092743, ,0.0099392747568826,0.020102378122375482,-0.07908507558129758, ,0.0008128363233846182, ,0.00435953841329269,0.000481244467440234,-0.012817827429284698,-0.007694816231541929,-0.0033112009780945847,-0.017089664562860367, ,0.013547467343431374, ,0.00837698649621214, ,6.891819454081472e-05, ,0.20134709149678143,-0.18072739472260196,0.09364269331000001,2.3156060458996026,1.230001770888495,-1.2438545737497038, ,0.021078840861499505,0.025434720331940705,0.013197026942833473,0.016320230772971452,0.02065417572328933,-0.001943069918734117, ,0.4452981948852539
0.00973705041485938,0.020337643717384706,-0.07896033074045002, ,0.010077435128084625,0.020124787963660143,-0.07951322371464818, ,0.0006832715169014279, ,0.006877077988619355,0.0023832572095533033,-0.024535692542974673,-0.02737415695497964,-0.017405765488328846,0.012650226526469879, ,0.02559246617955807, ,0.03243911603899339, ,6.97427317944079e-05, ,0.20204986018833584,-0.1799165077708084,0.09423509784,2.315815735843087,1.2310948628866185,-1.2442558445384315, ,0.023379389396026306,0.026566892933502458,0.02520381569620253,-0.003872693616655081,0.008224421810362058,0.013423049971654777, ,0.46808600425720215
0.00987238037706216,0.020380067469953203,-0.07943646527614469, ,0.010215056391710373,0.0201470123369995,-0.07993832967680806, ,0.0006508528425569428, ,0.006980229226140878,0.0018151352187368859,-0.022815357807770217,0.021532998017917106,0.012863421173582358,-0.0054249315820169754, ,0.02392820235221091, ,0.02508249241648387, ,7.029577339084647e-05, ,0.2025672832909089,-0.17936819373673846,0.09472898433000002,2.3153963559561177,1.2319146818852111,-1.2446793157401883, ,0.03060204500434401,0.030347598835455954,0.02388127664167916,-0.00887643613915764,0.06430467146939187,-0.027697903937393856, ,0.49062013626098633
0.010011979027608961,0.02040778689492939,-0.07985887842457148, ,0.010352139673537656,0.02016905162010915,-0.0803604048180598, ,0.0006513313441310182, ,0.005406646120664691,0.00036279023776495235,-0.014624716122561759,-0.015336099967167421,-0.018293471474150978,0.0022105496602359254, ,0.015596338054050828, ,0.023871455585309818, ,7.080125723746152e-05, ,0.20322371558521798,-0.17874265237392628,0.09516453777000002,2.3153963559561177,1.2323245913845073,-1.2448502119709965, ,0.03026050432349196,0.028352835840594795,0.015041370651558077,-0.007360389324433665,0.018685004804149596,-0.004570870656706769, ,0.5144510269165039
0.010116975543402504,0.02040888808491226,-0.08014786184501889, ,0.010488686099819174,0.02019090619230269,-0.0807794604654115, ,0.0007645924800435126, ,0.005347989172770645,0.00044183922886274995,-0.015495873238443316,0.017953827836853526,0.006110529177569161,-0.019143378821223956, ,0.01639872853358265, ,0.01896516826592062, ,7.187833561867794e-05, ,0.20379519781791058,-0.1780939428124914,0.09546268447,2.3153963559561177,1.2330077738833345,-1.2453256227493381, ,0.02795197100396783,0.02991706858715977,0.01617138225380711,-0.006240379915192879,0.05129992519534661,-0.03635623794392239, ,0.5374011993408203
0.010321323470852375,0.02043801343866835,-0.08077517648817524, ,0.010624696797276236,0.02021257643448292,-0.08119550792262742, ,0.000565274917920657, ,0.006345632129617806,0.0011227752953556279,-0.019346054152890618,-0.025497059984822726,-0.017590670544899236,0.009434764971683943, ,0.02039111283806931, ,0.030976265884292066, ,7.182754516540311e-05, ,0.20473737122856597,-0.17705137387447112,0.09610953318000001,2.3151866660126332,1.2339642293816928,-1.2454521181540885, ,0.028463389789583318,0.029398061201508913,0.01988615670411985,0.0,0.01404358894758609,0.013012348062685865, ,0.5602481365203857
0.010383182786594104,0.020445286250090424,-0.08096446049914859, ,0.010760172893092964,0.020234062729135385,-0.08160855847025729, ,0.0007756282051273114, ,0.00641796474644121,0.0007478735621866724,-0.01896185807325515,0.03584446115701032,0.014697167460306169,-0.03074894449376829, ,0.020032514768292358, ,0.03874054304791802, ,7.283258438442354e-05, ,0.20503855781066074,-0.17672701909375368,0.09630656926000002,2.3149769760691488,1.2345107753807543,-1.245734432288593, ,0.032365941868509815,0.033556202814169295,0.019911014400000003,-0.009166247142227565,0.07150528710102792,-0.057480721829428566, ,0.5819981098175049
0.010513447773286,0.02046451153961177,-0.08133771292552992, ,0.010895115514910264,0.0202553654603201,-0.08201862336566491, ,0.0008081159415359103, ,0.006586606797714052,0.0010902809290003115,-0.018855970731522766,-0.010732844502300165,-0.018184483775295093,0.0017881465365441802, ,0.02000299312202746, ,0.02111556339820469, ,7.391650393471452e-05, ,0.20568726737209558,-0.17612464592956417,0.09669415997000001,2.3149769760691488,1.2351939578795816,-1.2462098430669344, ,0.033030609661841556,0.02794374015267102,0.01952060235294118,-0.009099944397464525,0.023319454282455836,-0.008281725952200383, ,0.6096830368041992
0.010725733274860202,0.020487414361298688,-0.08195415065014042, ,0.011029525790820381,0.02027648501366434,-0.08242571384305593, ,0.000599293690405246, ,0.00510316028512314,0.0004126150867077977,-0.015642129368376216,0.03438139107244025,0.02269416815941406,-0.02308848402261606, ,0.016458697010470015, ,0.04119592678997655, ,7.429733259919008e-05, ,0.2067066681114932,-0.17504346332717274,0.09733063836000001,2.3149769760691488,1.2361504133779397,-1.2464996959519663, ,0.024006309526554716,0.029655294237022116,0.016455383801652894,-0.007045441578983496,0.0697016545200719,-0.04698532431381884, ,0.6291201114654541
0.010842903174387145,0.020507759573752945,-0.08230839016407623, ,0.011163404849361376,0.02029742177635562,-0.08282984111350603, ,0.0006472050720880333, ,0.006578531961948602,0.0012275269960610844,-0.020180648891847765,-0.028580829540280534,-0.023880697739951003,0.01047067980705594, ,0.021261291000230314, ,0.03724443843856355, ,7.486996207618874e-05, ,0.20723181394694049,-0.17451059475885125,0.09769878472000001,2.3149769760691488,1.236833595876767,-1.2467300705098863, ,0.02823473417389788,0.028184419827285645,0.02071366907672302,-0.006312352451275251,0.0068193392980122995,0.009329456904485056, ,0.6483500003814697
0.010972552378838613,0.020539816811125173,-0.08275192434371385, ,0.011296753819511614,0.020318176137134686,-0.08323101636498768, ,0.0006194839201703715, ,0.005824387493923932,0.0016689888605677982,-0.02025712563631208,0.02767171668799477,0.020225010826423948,-0.014716772012085667, ,0.021143797022801013, ,0.034274940646652936, ,7.52865305724204e-05, ,0.2077106233851424,-0.17396228072478132,0.09815896767000001,2.31455759618218,1.2376534148753595,-1.2471535417116428, ,0.020165095953776194,0.024122252556804977,0.021238415360000002,-0.004611606113543962,0.05932435732210028,-0.0332334698054892, ,0.6709120273590088
0.011094961651473768,0.02056504692865011,-0.08313687236748511, ,0.011429573830684756,0.020338748486288537,-0.08362925076239713, ,0.0006368773659565392, ,0.006728460855976047,0.0014723889651986634,-0.02118736081289924,-0.017255059049773223,-0.013750434661067632,0.007740371864651671, ,0.022278787511245287, ,0.02206370881351856, ,7.575208841966446e-05, ,0.20819715555621857,-0.17344485762220826,0.09855433612000002,2.31455759618218,1.237790051375125,-1.2468565659146364, ,0.027175527364968723,0.027316333206237994,0.021880235604395604,-0.004611606113543962,0.019294119353462025,0.004279265776769816, ,0.690467119216919
0.011220991122483242,0.020598574945630263,-0.08352688721086005, ,0.011561866012724494,0.02035913921564396,-0.08402455544758028, ,0.0006489983308385978, ,0.005444512751855503,0.0011710101152193073,-0.0167044878691969,0.03733035582812901,0.024352344373178972,-0.012749276496794745, ,0.017608347417268022, ,0.044571188474826516, ,7.624070451802226e-05, ,0.2087223013916658,-0.17300466184837746,0.09895748231000001,2.31455759618218,1.2387465068734833,-1.24739145502009, ,0.024533852522872487,0.022418365593780007,0.01771836654060067,-0.004611606113543962,0.0709029859456982,-0.034624846500163634, ,0.7102701663970947
0.01134146996170066,0.020621070545876273,-0.08391574803988118, ,0.011693631495899534,0.020379348718559565,-0.08441694153935911, ,0.0006585150809887088, ,0.006206253629396864,0.001489132446400629,-0.02121085407451296,-0.030140021401788907,-0.013667562953422965,0.0197749852458986, ,0.022150291874501515, ,0.03309409122321655, ,7.674002511547247e-05, ,0.20917021989837084,-0.17245634781430752,0.09935155447,2.31455759618218,1.2392930528725448,-1.2474287329341724, ,0.0201994341333484,0.02652234252612375,0.021790439835841315,-0.004611606113543962,0.008749403253677422,0.021055982739229016, ,0.7290730476379395
0.011468418192434493,0.020652947199037486,-0.08432979391383978, ,0.011824871410898758,0.020399377389921015,-0.08480642013355646, ,0.0006469382492713756, ,0.006987803308739469,0.0016583796096092775,-0.02256820008789279,0.008454050475437791,0.004680854631438696,-0.005330740665185813, ,0.023683396572670108, ,0.009663100697597373, ,7.716709933128207e-05, ,0.20965675206944698,-0.1719389247117345,0.09979747823000001,2.31455759618218,1.2401128718711374,-1.2476888466556482, ,0.02664895859547059,0.02784534670142922,0.023528525140324965,-0.0042836829562871385,0.04553877599975509,-0.01746084525604655, ,0.7508389949798584
0.011609303088126511,0.0206833194906358,-0.08475242094587158, ,0.01195558688882634,0.0204192256261336,-0.08519300230302249, ,0.0006194917046771139, ,0.0071552642627036025,0.0012350287395888086,-0.020170520811213673,-0.027567060380780085,-0.024999285957550816,0.01620018309922989, ,0.021437654079967276, ,0.03721429534012727, ,7.776211495367531e-05, ,0.21025140250076227,-0.17141377887628723,0.10023562425000002,2.31455759618218,1.2405227813704338,-1.2476147066660348, ,0.03322722043363823,0.02699002888466177,0.0208492297382199,-0.003912739533105669,0.010987142442736691,0.01687626269060543, ,0.7672271728515625
0.011684219264294537,0.020693443761225228,-0.0849667271540878, ,0.012085779061196945,0.020438893825115514,-0.08557669909765882, ,0.0007733768243266425, ,0.006751498843277599,0.0008563910356111774,-0.019981098559116683,0.024751345256220688,0.01529918872859422,-0.015572424699785316, ,0.021108302676098537, ,0.029097956678062146, ,7.890265077004924e-05, ,0.21059892548010237,-0.17108170136269557,0.10045988242000001,2.31455759618218,1.2410693273694955,-1.2479786995406799, ,0.03028948022932358,0.031876701900729186,0.020986576442687747,-0.0037272718715949203,0.06627007576184406,-0.03339243400792144, ,0.7836921215057373
0.0118384371240832,0.02072723070588893,-0.08543921988044956, ,0.012215449059931101,0.020458382386292048,-0.08595752154444314, ,0.0006950208871827984, ,0.007891717296263083,0.001911429248991823,-0.02407097110465987,-0.013032809287171269,-0.01432674595583085,0.007569711164280551, ,0.025403629929193382, ,0.01936754208834421, ,7.970848707027653e-05, ,0.21122446684291457,-0.1704947736642545,0.10095247262000001,2.31455759618218,1.2418891463680883,-1.2480754557818745, ,0.031887413158088296,0.026997707413505198,0.025005983547880698,-0.0034237622445803125,0.024727134978974056,0.003786639835883926, ,0.8005521297454834
0.01191698457207719,0.02074272812548022,-0.08567806415267157, ,0.012344598017350585,0.02047769171058942,-0.0863354806474543, ,0.0008278248651793265, ,0.007496809206879548,0.0010788562347476467,-0.022515941059964118,-0.029070256295009193,-0.0187247331261103,0.014137405938565282, ,0.023755708385046863, ,0.03457874556343976, ,8.095252245375576e-05, ,0.21154109889075776,-0.1701858643492855,0.10120006401000001,2.31455759618218,1.2425723288669153,-1.2480607941193727, ,0.032633061058621314,0.03412331591458856,0.02380988269058296,-0.003172669619847053,0.043301930901998284,-0.047307344181310454, ,0.8174810409545898
0.012067358775031962,0.020765776330553386,-0.0861201383791326, ,0.012473227066173848,0.020496822200428137,-0.08671058738789612, ,0.0007653074060896655, ,0.007996041694162669,0.0014362035973957531,-0.022572269293322293,-0.00029332081569256787,-0.011612925590578239,-0.006279907119165101, ,0.02398972081117704, ,0.011616377153112015, ,8.192671155259594e-05, ,0.21218980845219262,-0.1695448775207249,0.10166154325000001,2.31455759618218,1.2431188748659772,-1.248424786994018, ,0.03641478954661196,0.029271110906375932,0.023563330650887577,-0.0030620046125894606,0.03596469011902459,-0.013981062147800281, ,0.8337440490722656
0.012195456236390597,0.020780999822776917,-0.08647936572583932, ,0.012601337339511525,0.020515774259717574,-0.08708285272412186, ,0.0007741321762250154, ,0.008037730012370148,0.0007105178230641574,-0.022474091587178363,-0.0280087692125534,-0.024189588695123096,0.0049392305874086835, ,0.0238787506372827, ,0.03700839932584552, ,8.28911207911947e-05, ,0.21276901341775947,-0.16899656348665495,0.10203357848000001,2.31455759618218,1.2435287843652734,-1.2482689682642638, ,0.03620638746984769,0.03482456570953056,0.023989173975903617,-0.0028986650448064965,0.023477850938524895,0.010112534539107718, ,0.8530080318450928
0.012393178390301199,0.02080924612605331,-0.08705563795463327, ,0.01272892997086205,0.020534548293849264,-0.08745228759165742, ,0.0005878086061109567, ,0.007197878628899928,0.00048278731923574866,-0.020219969395253383,-0.040805344388005704,-0.012008581607758344,0.04763570815736446, ,0.021468341871159324, ,0.04253561781571643, ,8.319366888940135e-05, ,0.21361851403392415,-0.16815478560336447,0.10263635333000001,2.31455759618218,1.2448951493629279,-1.2485663598998222, ,0.03210316020245967,0.034283577152626726,0.020876555072083886,-0.0026713399013234863,0.024428870770434746,0.051079262457317386, ,0.869758129119873
0.012466154584133698,0.020811252676775534,-0.08725251490852434, ,0.01285600609410709,0.02055314470969115,-0.08781890290322547, ,0.000734438072979971, ,0.0071499052914151436,0.0001481248418531583,-0.01969617171739937,-0.03508460230552706,-0.02302560022887939,0.011680792532399986, ,0.020954289941829646, ,0.04196551704228365, ,8.396506580626549e-05, ,0.21395831428039003,-0.16779181715827593,0.10283857457000001,2.31455759618218,1.2450317858626934,-1.2481877053626753, ,0.03237698449623704,0.0365550622336174,0.020188607756653994,-0.0025927979188110554,0.012320315741949932,0.015246444920772454, ,0.8904609680175781
0.012617045908515092,0.020824663847607353,-0.08766307680785553, ,0.012982566843507381,0.020571563915582076,-0.08818270954876918, ,0.0006838737565795865, ,0.00685769375718249,0.0008052955541133569,-0.018385889224113945,0.03569549045830934,0.01750451794573652,-0.021389080900312094, ,0.019639689079976895, ,0.0397564345305975, ,8.48168349273889e-05, ,0.21468425117056714,-0.16713538486396684,0.10327023914000001,2.3143479062386954,1.2462615143605824,-1.248618715314959, ,0.03327382242583127,0.028100959892943672,0.01954455401226994,-5.9857953432207486e-05,0.0729102596180261,-0.038629494868152404, ,0.9042870998382568
0.012678378137623125,0.020829306136593225,-0.08783158193198766, ,0.013108613353698388,0.020589806321325472,-0.08854371839547535, ,0.0008657949210369491, ,0.006941249276667877,0.00028274017394964155,-0.019144185095516724,-0.012492103164252817,-0.00532769761407779,0.005415739505581014, ,0.020365674712569972, ,0.013580663895622081, ,8.621909126516668e-05, ,0.21496226955403921,-0.16685736648049476,0.10344523829,2.3143479062386954,1.2465347873601134,-1.2485965149019305, ,0.031339808969111885,0.03427119594022057,0.01986136099750624,-5.9857953432207486e-05,0.0355724312171515,0.0036556963584572777, ,0.9178969860076904
0.012753009133206183,0.02083375612437301,-0.08804741126355367, ,0.013234146759685938,0.02060787233818373,-0.08890194028779712, ,0.001006348226883833, ,0.007632543818815558,0.0010701646139758235,-0.02229349765041895,-0.026487278373974757,-0.015409791219906014,0.01339051541132818, ,0.023588154123126738, ,0.030643630241962705, ,8.801675617316043e-05, ,0.21527890160188243,-0.16650984350115466,0.10366560759000001,2.314138216295211,1.2465347873601134,-1.2481881212012276, ,0.030651466911650764,0.031277831759548715,0.023051825643994214,0.00246484035429552,0.01894424215260137,0.019431812837978, ,0.9328341484069824
0.012975680935184579,0.02088083701082791,-0.0887226143507313, ,0.013359168196842124,0.02062576237887253,-0.08925738604747771, ,0.000705766473673703, ,0.008907473930298164,0.0022524730218399522,-0.02780022019812696,0.03675071420234927,0.022724858806986523,-0.02026670862359563, ,0.029279155889427626, ,0.0432089990290485, ,8.883424138180014e-05, ,0.21614384768379558,-0.16570667928223531,0.1043772708,2.314138216295211,1.2484476983568293,-1.2490128631917123, ,0.032299843961358335,0.029526117473077408,0.02933482784530387,0.00246484035429552,0.0779264713362687,-0.03575093057765059, ,0.9469091892242432
0.013072315087246267,0.020905848406872922,-0.08902965748123165, ,0.013483678800900832,0.020643476857554747,-0.08961006647357346, ,0.0007582437162248895, ,0.009296356401676996,0.002506704303206264,-0.02908044364367403,-0.03971247572317628,-0.011959504508512854,0.0534758533264066, ,0.030632956294220366, ,0.041473963868191584, ,8.978597625851496e-05, ,0.216468202464513,-0.16539776996726632,0.10469615814000001,2.314138216295211,1.2487209713563603,-1.2486639478181214, ,0.03193033026866446,0.027812702684194248,0.03022544880455408,0.00246484035429552,0.022213949342166882,0.062308891391707456, ,0.9608340263366699
0.013153195568252347,0.020927941005287744,-0.08927655973698752, ,0.01360767970795395,0.020661016189835506,-0.08995999234247624, ,0.0008630670985442711, ,0.008953110515903006,0.002150372396743161,-0.027251318589436392,-0.039328748500024824,-0.029586337805429755,0.017359404647300673, ,0.02876485102025751, ,0.0492147011984727, ,9.102220675777375e-05, ,0.21695473463558915,-0.16497301965918398,0.10512523013000001,2.3143479062386954,1.2491308808556565,-1.2482630928679455, ,0.03341441604171506,0.030396201652296857,0.025985010636215337,0.0034249933138540967,0.024087668217073185,0.007403708477388934, ,0.9766621589660645
0.013315264009133698,0.020958660816411637,-0.08974131501190316, ,0.01373117205444694,0.020678380792755906,-0.09030717440793659, ,0.0007561304450265559, ,0.006845220255859125,0.0008503064187280669,-0.018187101799907058,0.013270161143325045,0.008297841291411687,-0.0008798960331187044, ,0.019451239889455293, ,0.015650858028566122, ,9.190755796729635e-05, ,0.21742582134091684,-0.16459460574834697,0.10544541376000001,2.3143479062386954,1.2503606093535455,-1.2486941028202294, ,0.03156917550181995,0.02596359550163359,0.019237695072463774,0.003272581186189293,0.054716976110054355,-0.007303141565303494, ,0.9909710884094238
0.01339319723967403,0.020964772338400047,-0.08994793271634706, ,0.013854156977174759,0.02069557108478774,-0.09065162340108569, ,0.0008832518181872635, ,0.007796793029999147,0.0009130083728066172,-0.021527456348330882,-0.03388048917362335,-0.012220857107714707,0.03825931293920946, ,0.022914077390782068, ,0.036017110817896617, ,9.313571457121167e-05, ,0.21777334432025694,-0.16427797370050376,0.10565800532000001,2.3143479062386954,1.2503606093535455,-1.2481223516392455, ,0.033007631846424614,0.030621794630032523,0.022371926292134834,0.0031729422095688655,0.024403924445653053,0.046199410215188405, ,1.0053300857543945
0.013475613918705658,0.020978283882215214,-0.09018323513012776, ,0.01397663561327785,0.020712587485827966,-0.09099335003045908, ,0.000988890016748067, ,0.008422781379621042,0.0015554890037982392,-0.024136945527414175,-0.0326367405165994,-0.028309615940480672,0.009803211168512268, ,0.025611617121985626, ,0.043203969653699215, ,9.490175227454468e-05, ,0.2181054218338486,-0.16398450985128324,0.10590300413,2.3143479062386954,1.2506338823530763,-1.2481001512262164, ,0.03288182313183326,0.02794374015267102,0.024966789216300942,0.0030815618016866108,0.004101606115667284,0.019748564152081663, ,1.0161750316619873
0.013611304589134073,0.021006112492154408,-0.0905875708940229, ,0.014098609100238108,0.02072943041719338,-0.0913323649820184, ,0.0009320605616912025, ,0.008950209377815372,0.002014022740470985,-0.027509883496913228,0.05130022933436176,0.034131922416990146,-0.027157201627992213, ,0.02899924525775813, ,0.06161725327956408, ,9.646677650285353e-05, ,0.21862284493642165,-0.16352114587882977,0.10632948354,2.3143479062386954,1.2517269743512,-1.2485831007550852, ,0.032299843961358335,0.030651466911650764,0.029173647472527476,0.002947369069482257,0.09439597006227433,-0.04739482132969337, ,1.0299201011657715
0.013747952880607043,0.02103389742336924,-0.09100325567103296, ,0.014220078575874437,0.020746100301614223,-0.09166867891917306, ,0.0008651693213397698, ,0.009730438220421791,0.002034107012488338,-0.028901432665071086,-0.017919866411461788,-0.011911151031030576,0.013518496049719149, ,0.03056324310987526, ,0.021516899547848318, ,9.780935973906743e-05, ,0.21910937710749778,-0.16305005917350207,0.10676374069000001,2.3143479062386954,1.2524101568500272,-1.2487317965728644, ,0.03554192567732988,0.031443651941176536,0.030111174896030254,0.002836562604447008,0.030638671774088674,0.016703773526306205, ,1.041194200515747
0.01384947054244005,0.021055775235589585,-0.09129769444298569, ,0.014341045178339307,0.020762597563230338,-0.09200230248280458, ,0.0009077837077227683, ,0.01002248425830798,0.0019800757293091066,-0.029668385923886702,-0.04688952240527195,-0.034144462217790314,0.024449726394453468, ,0.031378081743957974, ,0.05800386732976241, ,9.924023582983337e-05, ,0.21948006828546057,-0.16273342712565886,0.10706966513,2.31455759618218,1.2525467933497927,-1.2483531420357175, ,0.036068772922261794,0.03237698449623704,0.030632329846153848,-4.884361780758648e-05,0.0,0.035020020519102246, ,1.051910161972046
0.013956648851218462,0.021076458662113624,-0.09160921594043904, ,0.014461510046114233,0.020778922627584247,-0.09233324629128666, ,0.00093146790975512, ,0.010791710979323696,0.0019316787136305833,-0.030868654714708812,-0.03262921613335065,-0.019763880967819916,0.023410289456525197, ,0.03275768997365144, ,0.038147722194372506, ,0.00010070463847760263, ,0.21987392766204603,-0.16237045868057032,0.10739503392000001,2.3147672861256643,1.2529567028490889,-1.2482790020461039, ,0.04122369311836263,0.03587786070263546,0.03211453935483872,0.007021374257062181,0.025336121836881408,0.034867924412741, ,1.0632991790771484
0.01401429773627129,0.0210871418449544,-0.09177401872803594, ,0.014581474318005987,0.02079507592161676,-0.0926615209405094, ,0.0010930013520525136, ,0.010832576960878817,0.0021504118549330077,-0.0304193231183341,0.05867575674421587,0.03334498604833835,-0.029406655241034366, ,0.03236207987346942, ,0.06748856553275387, ,0.00010257505256470861, ,0.22010560964827275,-0.1621773903587147,0.10757003307000002,2.3147672861256643,1.2535032488481508,-1.2486429949207491, ,0.044448216186637364,0.0344078830886406,0.032441571323828924,0.007021374257062181,0.1092873170744199,-0.048946817489192745, ,1.0766870975494385
0.014189105859167085,0.021125915933739872,-0.09227256874501386, ,0.01470093913314264,0.02081105787366116,-0.09298713700389928, ,0.0009336576968844705, ,0.010948700059175373,0.0018583093415050086,-0.03160449923430297,-0.025386655311988467,-0.007847797881713293,0.029265543330792714, ,0.03349883159821501, ,0.026571388146398985, ,0.00010397815574601058, ,0.22079293287407872,-0.16167541272189012,0.10809632681,2.3147672861256643,1.2545963408462744,-1.2487992294890555, ,0.04086862254886769,0.03773238232941184,0.03297890583850932,0.006905545719699026,0.041138657003334286,0.03709929058310348, ,1.0878450870513916
0.014292875708730852,0.02113860574848877,-0.09257271100488951, ,0.014819905630969266,0.02082686891343773,-0.09331010503244265, ,0.0009584833567325581, ,0.00979600644626622,0.0009935952784019928,-0.02780652229005462,-0.06871633407663852,-0.026898502480477118,0.060208698272043296, ,0.029498333101039057, ,0.07379327463059733, ,0.000105697700664879, ,0.22117906951778996,-0.16127383061243045,0.10840743641000002,2.3147672861256643,1.254869613845805,-1.2482052778950425, ,0.03671061568993066,0.03906831682110777,0.028648941582733817,0.006574126622540474,0.005848346755585677,0.08191175245055866, ,1.096006155014038
0.014393015209633368,0.021149594556670495,-0.09285262344068725, ,0.014938374951244409,0.020842509472048975,-0.09363043555470829, ,0.000998353735749486, ,0.009927603773809364,0.0009742343155472714,-0.027745010545588974,0.02061067606819106,0.012225878503737376,-0.01892479224716076, ,0.029483759247527903, ,0.02396363145097849, ,0.00010749522212597358, ,0.2215652061615012,-0.16087224850297077,0.10870039795000001,2.3149769760691488,1.2554161598448668,-1.2480791983288444, ,0.03967263443079882,0.04007472194192178,0.029173647472527476,0.003402947212488021,0.07292453602753043,-0.029037178733840364, ,1.1049261093139648
0.014444107246733666,0.021154584064401342,-0.09299549911881194, ,0.01505634823403603,0.020857979981974462,-0.09394813907686796, ,0.0011706134707623313, ,0.010508725992092793,0.001226219807093874,-0.02944737347727633,0.049694777010761054,0.03132779004043465,-0.0311016524378179, ,0.031290329843298124, ,0.058745035093634004, ,0.00010971545198038303, ,0.22177371994910525,-0.1606637347153667,0.10885206388000002,2.3149769760691488,1.2559627058439287,-1.2483615124633491, ,0.04228918964281229,0.04093914648769231,0.031232963764705888,0.003402947212488021,0.10453547334978029,-0.051652387145691876, ,1.1161479949951172
0.014634582519561252,0.021181153451170106,-0.09350319986932623, ,0.015173826619717003,0.02087328087706427,-0.0942632260827183, ,0.0009814324054576659, ,0.010420539463512594,0.0009030263281695097,-0.027047674848113625,-0.04043448672959049,-0.02750024559413755,0.013165772104225246, ,0.02899965196255412, ,0.0488998645068297, ,0.0001114097014596467, ,0.22255371596940193,-0.16000730242105762,0.10938613536000001,2.3153963559561177,1.2569191613422865,-1.2479979354272557, ,0.043751471442356284,0.039004086131718366,0.028093142010582012,0.016232900364426477,0.016023825633536052,0.03693610682448583, ,1.1246440410614014
0.014634582519561252,0.021181153451170106,-0.09350319986932623, ,0.015290811248962099,0.020888412592535557,-0.09457570703370449, ,0.0012909705547563205, ,0.010420539463512594,0.0009030263281695097,-0.027047674848113625,-0.04043448672959049,-0.02750024559413755,0.013165772104225246, ,0.02899965196255412, ,0.0488998645068297, ,0.00011387552994000078, ,0.22255371596940193,-0.16000730242105762,0.10938613536000001,2.3153963559561177,1.2569191613422865,-1.2479979354272557, ,0.043751471442356284,0.039004086131718366,0.028093142010582012,0.016232900364426477,0.016023825633536052,0.03693610682448583, ,1.1327691078186035
0.014769683957938425,0.0211876175580834,-0.09385224495834822, ,0.015407303262743073,0.020903375564965753,-0.0948855923689402, ,0.0012470600464645667, ,0.011549483440819821,0.0010489235778706656,-0.030840542690504562,0.038742436489321824,0.020835984618780203,-0.03823006092821333, ,0.03294889803721543, ,0.04398962081885981, ,0.00011619121652988458, ,0.22313292093496875,-0.15944354292123922,0.10975168914000001,2.3156060458996026,1.257602343841114,-1.2476565588041917, ,0.04800047625618147,0.04506027614362336,0.03264100721311476,0.014349972128168267,0.09503363421394395,-0.04399339287242501, ,1.1408700942993164
0.014888626675768684,0.021203410459305735,-0.09418735502132305, ,0.015523303802325637,0.02091817023228857,-0.09519289250523064, ,0.0012228175144421932, ,0.013240890646639872,0.0021806733919792244,-0.03827730630043778,0.02539054556363061,0.020287910948527783,-0.017041405651849986, ,0.04056141885063065, ,0.03249918408044259, ,0.00011841010958788595, ,0.22359628490742223,-0.15901106988028266,0.11010687260000002,2.3156060458996026,1.2586954358392373,-1.2481395083330604, ,0.04759124451277371,0.04562352959541864,0.04032610511392406,0.014349972128168267,0.09183206442728141,-0.01929727209721912, ,1.1491491794586182
0.015017793224689576,0.02122624190791357,-0.09456410720781078, ,0.015638814009264892,0.020932797033788395,-0.09549761783709336, ,0.0011589731679415383, ,0.014549820640205408,0.0029821754227644585,-0.042361240030260774,-0.025482826416402662,-0.015277709637299915,0.015640776289289702, ,0.04488947880980192, ,0.029709366281302284, ,0.00012043465074450528, ,0.22405192614700148,-0.15859404230507454,0.11050094476000001,2.3156060458996026,1.2592419818382992,-1.2477683925464405, ,0.049998388597719066,0.043095795439814163,0.044246698666666674,0.014349972128168267,0.042360989559153676,0.03100854388639438, ,1.1581840515136719
0.015017793224689576,0.02122624190791357,-0.09456410720781078, ,0.015753835025401668,0.020947256410094664,-0.0957997787367807, ,0.00146508517428019, ,0.014549820640205408,0.0029821754227644585,-0.042361240030260774,-0.025482826416402662,-0.015277709637299915,0.015640776289289702, ,0.04488947880980192, ,0.029709366281302284, ,0.000123502860952002, ,0.22405192614700148,-0.15859404230507454,0.11050094476000001,2.3156060458996026,1.2592419818382992,-1.2477683925464405, ,0.049998388597719066,0.043095795439814163,0.044246698666666674,0.014349972128168267,0.042360989559153676,0.03100854388639438, ,1.1638309955596924
0.015017793224689576,0.02122624190791357,-0.09456410720781078, ,0.01586836799285858,0.020961548803177448,-0.09609938555430106, ,0.0017749984442648225, ,0.014549820640205408,0.0029821754227644585,-0.042361240030260774,-0.025482826416402662,-0.015277709637299915,0.015640776289289702, ,0.04488947880980192, ,0.029709366281302284, ,0.0001273133166187372, ,0.22405192614700148,-0.15859404230507454,0.11050094476000001,2.3156060458996026,1.2592419818382992,-1.2477683925464405, ,0.049998388597719066,0.043095795439814163,0.044246698666666674,0.014349972128168267,0.042360989559153676,0.03100854388639438, ,1.1694221496582031
0.015186228720304422,0.021263025424833815,-0.09505474118154018, ,0.015982414054036158,0.020975674656341797,-0.09639644861744112, ,0.0015863985606884355, ,0.014538113479595246,0.003087372842882684,-0.04366097831383667,0.004052182280511088,0.008139120133314024,-0.007956086354755915, ,0.04612124935361004, ,0.009083325262742666, ,0.00013061796160000508, ,0.22461568564681986,-0.15809978740112415,0.11101557189000001,2.3160254257865716,1.2599251643371263,-1.2474270159233765, ,0.046518108607093524,0.04463637890802953,0.04577244689655173,0.021117992427077098,0.0704133526979304,0.0041611197636355, ,1.1758999824523926
0.015186228720304422,0.021263025424833815,-0.09505474118154018, ,0.01609597435160881,0.020989634414223107,-0.0966909782317869, ,0.001891996681540499, ,0.013724443586074879,0.002389295914148102,-0.03869958299251527,-0.004127313493735018,-0.0007752780871349652,0.002614286969746909, ,0.04113060673643526, ,0.004189149131893846, ,0.0001346445313736853, ,0.2251639996808898,-0.15762097796292224,0.11149519919,2.316235115730056,1.2606083468359537,-1.2472489967805935, ,0.04937405908349156,0.04274637007138323,0.04063472326530613,0.016814106453660847,0.06232910027680158,0.013244287477108325, ,1.1816840171813965
0.015473308156612554,0.021309394688604287,-0.09586342642076447, ,0.01620905002852106,0.021003428522781496,-0.09698298468074557, ,0.0013741696016866464, ,0.013700552282434676,0.0012449039398394308,-0.036346315280805896,-0.023099269306669917,-0.022215314584724827,-0.00787082985342186, ,0.0388627013105741, ,0.03204735579643808, ,0.0001373592255725533, ,0.22565825458484018,-0.15718078218909146,0.11186334555,2.316235115730056,1.2611548928350151,-1.2471229172143952, ,0.05382696628387452,0.04958042923640061,0.03792574171428572,0.014664090859737402,0.039818419303656406,0.00760544506658126, ,1.1872401237487793
0.015473308156612554,0.021309394688604287,-0.09586342642076447, ,0.01632164222798361,0.021017057429296975,-0.09727247822556673, ,0.0016704965604408793, ,0.013700552282434676,0.0012449039398394308,-0.036346315280805896,-0.023099269306669917,-0.022215314584724827,-0.00787082985342186, ,0.0388627013105741, ,0.03204735579643808, ,0.0001407718859864794, ,0.22565825458484018,-0.15718078218909146,0.11186334555,2.316235115730056,1.2611548928350151,-1.2471229172143952, ,0.05382696628387452,0.04958042923640061,0.03792574171428572,0.014664090859737402,0.039818419303656406,0.00760544506658126, ,1.1928491592407227
0.015635047057809163,0.021329576576924678,-0.09628884243549164, ,0.016433752093469468,0.021030521582364747,-0.09755946910536548, ,0.0015303123073265267, ,0.01678845073051976,0.0026887985742767326,-0.045597056695777294,0.030485289472361468,0.006811347094484579,-0.05165076310947066, ,0.048663880805193196, ,0.03123379939463252, ,0.00014381025225254645, ,0.22627607321477813,-0.15662474542214727,0.11231056560000001,2.3168641855605094,1.2618380753338425,-1.2471899342920338, ,0.06288730388235307,0.05211254341486588,0.04812329764350454,0.033194827386307454,0.09167908426778844,-0.03584850315107519, ,1.1983890533447266
0.015635047057809163,0.021329576576924678,-0.09628884243549164, ,0.016545380768709914,0.021043821431889296,-0.09784396753714165, ,0.0018244937790791408, ,0.01678845073051976,0.0026887985742767326,-0.045597056695777294,0.030485289472361468,0.006811347094484579,-0.05165076310947066, ,0.048663880805193196, ,0.03123379939463252, ,0.00014753149504812528, ,0.22627607321477813,-0.15662474542214727,0.11231056560000001,2.3168641855605094,1.2618380753338425,-1.2471899342920338, ,0.06288730388235307,0.05211254341486588,0.04812329764350454,0.033194827386307454,0.09167908426778844,-0.03584850315107519, ,1.203895092010498
0.01581238940174298,0.021367908634404836,-0.09677631731375883, ,0.01665652939769099,0.021056957429080387,-0.09812598371580271, ,0.001621993335885792, ,0.020239646159220342,0.005044891630756613,-0.05633176508605244,0.055245302376483486,0.017385378621399983,-0.11269550762919109, ,0.06006964263192114, ,0.057911376987123675, ,0.00015072891756810004, ,0.22690933731046453,-0.15614593598394536,0.11282778531000001,2.317493255390963,1.262931167331966,-1.2477545625610433, ,0.06846821180264846,0.04981466748476156,0.05965847011235956,0.09394581949954724,0.10146907155154038,-0.04213489744063072, ,1.2095050811767578
0.01581238940174298,0.021367908634404836,-0.09677631731375883, ,0.016767199124649055,0.02106993002644703,-0.0984055278141856, ,0.0019117478161246359, ,0.020239646159220342,0.005044891630756613,-0.05633176508605244,0.055245302376483486,0.017385378621399983,-0.11269550762919109, ,0.06006964263192114, ,0.057911376987123675, ,0.00015459052423713707, ,0.22690933731046453,-0.15614593598394536,0.11282778531000001,2.317493255390963,1.262931167331966,-1.2477545625610433, ,0.06846821180264846,0.04981466748476156,0.05965847011235956,0.09394581949954724,0.10146907155154038,-0.04213489744063072, ,1.2207961082458496
0.015968012876931205,0.021407506805896176,-0.09721813811922429, ,0.016877391094067214,0.021082739677792884,-0.09868260998307711, ,0.0017541722461931932, ,0.021382483230563194,0.00576227451128199,-0.06207286027174751,-0.017900884944589877,-0.008297870474372913,0.014856878152876769, ,0.06590488888515462, ,0.019707227295356122, ,0.00015803919058014163, ,0.22742676041303758,-0.15578296753885681,0.11329315342000001,2.3179126352779322,1.2634777133310278,-1.2474651255145637, ,0.06817309020005086,0.047710880622660025,0.06528201442622952,0.04607917456448692,0.06834886163058794,0.057782724665511355, ,1.2304370403289795
0.01622963289023505,0.021473351617150506,-0.09801205483114477, ,0.0169871064506717,0.021095386838211695,-0.09895724035123621, ,0.0012688574530928885, ,0.01963640078655315,0.004224996300453967,-0.061052676585861936,-0.010685967274030862,0.016291341989055994,0.05683007119634503, ,0.06427183012710039, ,0.01946148686568204, ,0.00016030232376763003, ,0.22819903370046005,-0.15512653524454773,0.11412537160000001,2.3181223252214167,1.2644341688293859,-1.2467748335179085, ,0.05625189185445807,0.056926779579166635,0.06397113060240965,-0.010371358840287621,0.09947542605034586,0.037234253497188924, ,1.235964059829712
0.01622963289023505,0.021473351617150506,-0.09801205483114477, ,0.017096346339427353,0.021107871964081353,-0.09922942902541519, ,0.0015384302092373047, ,0.01963640078655315,0.004224996300453967,-0.061052676585861936,-0.010685967274030862,0.016291341989055994,0.05683007119634503, ,0.06427183012710039, ,0.01946148686568204, ,0.00016356802965736858, ,0.22893269332351138,-0.15441604382011906,0.11483055336000002,2.3179126352779322,1.2656638973272747,-1.246144019848365, ,0.05818328728293733,0.05205537112368117,0.0416984594764398,0.0002835198274159411,0.08229974795038983,0.05213057769747769, ,1.2387759685516357
0.016457086362008887,0.021510669547111123,-0.0986839950056243, ,0.017205111905534295,0.021120195513059818,-0.0994991860903806, ,0.0011732641176226783, ,0.015021681468750707,0.0012590754001745527,-0.03958674662822436,-0.020986881420126408,0.00438911966371538,0.056485251688971096, ,0.0423597296216485, ,0.02143866471199291, ,0.00016595501804499344, ,0.22893269332351138,-0.15441604382011906,0.11483055336000002,2.3179126352779322,1.2656638973272747,-1.246144019848365, ,0.05818328728293733,0.05205537112368117,0.0416984594764398,0.0002835198274159411,0.08229974795038983,0.05213057769747769, ,1.2415251731872559
0.016457086362008887,0.021510669547111123,-0.0986839950056243, ,0.017313404294423795,0.021132357944079555,-0.09976652160893598, ,0.0014311757115187424, ,0.015021681468750707,0.0012590754001745527,-0.03958674662822436,-0.020986881420126408,0.00438911966371538,0.056485251688971096, ,0.0423597296216485, ,0.02143866471199291, ,0.00016893902911450698, ,0.22893269332351138,-0.15441604382011906,0.11483055336000002,2.3179126352779322,1.2656638973272747,-1.246144019848365, ,0.05818328728293733,0.05205537112368117,0.0416984594764398,0.0002835198274159411,0.08229974795038983,0.05213057769747769, ,1.2442700862884521
0.016457086362008887,0.021510669547111123,-0.0986839950056243, ,0.017421224651754358,0.021144359717342492,-0.10003144562194205, ,0.001696870265092037, ,0.015021681468750707,0.0012590754001745527,-0.03958674662822436,-0.020986881420126408,0.00438911966371538,0.056485251688971096, ,0.0423597296216485, ,0.02143866471199291, ,0.0009400899821749102, ,0.22893269332351138,-0.15441604382011906,0.11483055336000002,2.3179126352779322,1.2656638973272747,-1.246144019848365, ,0.05818328728293733,0.05205537112368117,0.0416984594764398,0.0002835198274159411,0.08229974795038983,0.05213057769747769, ,1.2470571994781494
0.016618615092782445,0.02151516002744298,-0.09905884443059543, ,0.01752857412340806,0.02115620129431573,-0.10029396814833841, ,0.001575565742086528, ,0.01779762420780491,3.3410370664731974e-05,-0.04003040998087278,-0.006057255816879057,-0.0005981260417269774,-0.006022412595687595, ,0.043808563853793135, ,0.006078265620458768, ,0.0009481339791358168, ,0.2296354620150658,-0.15380594792305533,0.11522851439000001,2.3185417051083856,1.266620352825633,-1.2457804428122723, ,0.08124738147129348,0.06797775183271546,0.042476830720000004,0.046135607515270335,0.09921309895363332,0.030759324884206247, ,1.2497920989990234
0.016618615092782445,0.02151516002744298,-0.09905884443059543, ,0.01763545385548626,0.021167883137725566,-0.10055409918516506, ,0.001841290060944205, ,0.01779762420780491,3.3410370664731974e-05,-0.04003040998087278,-0.006057255816879057,-0.0005981260417269774,-0.006022412595687595, ,0.043808563853793135, ,0.006078265620458768, ,0.0009592984301584216, ,0.2296354620150658,-0.15380594792305533,0.11522851439000001,2.3185417051083856,1.266620352825633,-1.2457804428122723, ,0.08124738147129348,0.06797775183271546,0.042476830720000004,0.046135607515270335,0.09921309895363332,0.030759324884206247, ,1.25258207321167
0.016618615092782445,0.02151516002744298,-0.09905884443059543, ,0.017741864994306373,0.021179405711553797,-0.10081184870758417, ,0.0021088967013707764, ,0.01779762420780491,3.3410370664731974e-05,-0.04003040998087278,-0.006057255816879057,-0.0005981260417269774,-0.006022412595687595, ,0.043808563853793135, ,0.006078265620458768, ,0.0009734910014079569, ,0.2296354620150658,-0.15380594792305533,0.11522851439000001,2.3185417051083856,1.266620352825633,-1.2457804428122723, ,0.08124738147129348,0.06797775183271546,0.042476830720000004,0.046135607515270335,0.09921309895363332,0.030759324884206247, ,1.2554020881652832
0.016618615092782445,0.02151516002744298,-0.09905884443059543, ,0.01784780868639722,0.02119076948103145,-0.10106722666890038, ,0.0023769192944489244, ,0.01779762420780491,3.3410370664731974e-05,-0.04003040998087278,-0.006057255816879057,-0.0005981260417269774,-0.006022412595687595, ,0.043808563853793135, ,0.006078265620458768, ,0.0009906059805913834, ,0.2296354620150658,-0.15380594792305533,0.11522851439000001,2.3185417051083856,1.266620352825633,-1.2457804428122723, ,0.08124738147129348,0.06797775183271546,0.042476830720000004,0.046135607515270335,0.09921309895363332,0.030759324884206247, ,1.2582530975341797
0.016838782273483115,0.02153677642671311,-0.09955282880221683, ,0.01795328607849566,0.02120197491263466,-0.10132024300058297, ,0.0021161199715051325, ,0.025311961019747867,0.004022245735070602,-0.05846417234162038,0.04971080332688349,0.01501064951012734,-0.10426246836933667, ,0.06383520407274672, ,0.05192109900196187, ,0.0010041663901204647, ,0.2305853581585954,-0.15311862469724935,0.11575740071000001,2.3200095347127774,1.267850081323522,-1.245639701583572, ,0.10614870420410602,0.06468775839023229,0.06271185637795276,0.144336384942342,0.13586020569830537,0.014995748856585674, ,1.2614350318908691
0.016838782273483115,0.02153677642671311,-0.09955282880221683, ,0.0180582983175426,0.02121302247407966,-0.10157090761228721, ,0.0023800584209677195, ,0.025311961019747867,0.004022245735070602,-0.05846417234162038,0.04971080332688349,0.01501064951012734,-0.10426246836933667, ,0.06383520407274672, ,0.05192109900196187, ,0.0010205460571543607, ,0.2305853581585954,-0.15311862469724935,0.11575740071000001,2.3200095347127774,1.267850081323522,-1.245639701583572, ,0.10614870420410602,0.06468775839023229,0.06271185637795276,0.144336384942342,0.13586020569830537,0.014995748856585674, ,1.2645671367645264
0.016838782273483115,0.02153677642671311,-0.09955282880221683, ,0.018162846550679134,0.02122391263431778,-0.10181923039187522, ,0.0026434080518044686, ,0.025311961019747867,0.004022245735070602,-0.05846417234162038,0.04971080332688349,0.01501064951012734,-0.10426246836933667, ,0.06383520407274672, ,0.05192109900196187, ,0.0010396385512090676, ,0.2305853581585954,-0.15311862469724935,0.11575740071000001,2.3200095347127774,1.267850081323522,-1.245639701583572, ,0.10614870420410602,0.06468775839023229,0.06271185637795276,0.144336384942342,0.13586020569830537,0.014995748856585674, ,1.2675180435180664
0.017094333189081323,0.021585494131797806,-0.1001836774321183, ,0.018266931925242414,0.02123464586353018,-0.1020652212054376, ,0.002244613390833619, ,0.028079153341283507,0.006025299108794446,-0.07285612871449663,0.03143204007621096,0.016206587116528934,0.02260815682831178, ,0.07831193123003068, ,0.03533516500341389, ,0.0010536498865535392, ,0.2315970361651188,-0.15252397426593406,0.11643276780000002,2.3208482944867157,1.2693530828209418,-1.2453950812017027, ,0.10497449287441457,0.06052100864698392,0.0777015196097561,0.0446996114853162,0.15492496054436458,0.042837400161018335, ,1.2704951763153076
0.017094333189081323,0.021585494131797806,-0.1001836774321183, ,0.01837055558876197,0.02124522263312328,-0.1023088898973145, ,0.002502210288621273, ,0.028079153341283507,0.006025299108794446,-0.07285612871449663,0.03143204007621096,0.016206587116528934,0.02260815682831178, ,0.07831193123003068, ,0.03533516500341389, ,0.001070300006117536, ,0.2315970361651188,-0.15252397426593406,0.11643276780000002,2.3208482944867157,1.2693530828209418,-1.2453950812017027, ,0.10497449287441457,0.06052100864698392,0.0777015196097561,0.0446996114853162,0.15492496054436458,0.042837400161018335, ,1.2735810279846191
0.017094333189081323,0.021585494131797806,-0.1001836774321183, ,0.018473718688955962,0.021255643415723998,-0.10255024629011739, ,0.002759013231539479, ,0.028079153341283507,0.006025299108794446,-0.07285612871449663,0.03143204007621096,0.016206587116528934,0.02260815682831178, ,0.07831193123003068, ,0.03533516500341389, ,0.0010894899291336946, ,0.2315970361651188,-0.15252397426593406,0.11643276780000002,2.3208482944867157,1.2693530828209418,-1.2453950812017027, ,0.10497449287441457,0.06052100864698392,0.0777015196097561,0.0446996114853162,0.15492496054436458,0.042837400161018335, ,1.2764489650726318
0.017417482681059318,0.021655255387911167,-0.10107155470823571, ,0.01857642237372708,0.021265908685174615,-0.1027893001847497, ,0.003014629850905036, ,0.03066638292574105,0.006753266842493427,-0.08920448140534261,0.007533383473774679,0.038097785186389954,0.06872274328138171, ,0.09456993791681487, ,0.03876267018240594, ,0.0011111207147715748, ,0.23268594150038446,-0.1517748691771343,0.11737387434000002,2.3212676743736846,1.270992720818127,-1.244608448802405, ,0.09222248936683264,0.07573578735711954,0.09425332260355031,0.027227735924736627,0.16887599650393156,0.07526580969227312, ,1.2797560691833496
0.017417482681059318,0.021655255387911167,-0.10107155470823571, ,0.018678667791158815,0.02127601891652795,-0.10302606136042884, ,0.0023567996174115144, ,0.03066638292574105,0.006753266842493427,-0.08920448140534261,0.007533383473774679,0.038097785186389954,0.06872274328138171, ,0.09456993791681487, ,0.03876267018240594, ,0.001124961591467574, ,0.23268594150038446,-0.1517748691771343,0.11737387434000002,2.3212676743736846,1.270992720818127,-1.244608448802405, ,0.09222248936683264,0.07573578735711954,0.09425332260355031,0.027227735924736627,0.16887599650393156,0.07526580969227312, ,1.2825291156768799
0.017417482681059318,0.021655255387911167,-0.10107155470823571, ,0.01878045608951098,0.021285974586041777,-0.10326053957470627, ,0.0026049413752352937, ,0.03066638292574105,0.006753266842493427,-0.08920448140534261,0.007533383473774679,0.038097785186389954,0.06872274328138171, ,0.09456993791681487, ,0.03876267018240594, ,0.0011412251055749117, ,0.23268594150038446,-0.1517748691771343,0.11737387434000002,2.3212676743736846,1.270992720818127,-1.244608448802405, ,0.09222248936683264,0.07573578735711954,0.09425332260355031,0.027227735924736627,0.16887599650393156,0.07526580969227312, ,1.285339117050171
0.017417482681059318,0.021655255387911167,-0.10107155470823571, ,0.018881788417216907,0.021295776171175503,-0.10349274456349049, ,0.0028522932723332533, ,0.03066638292574105,0.006753266842493427,-0.08920448140534261,0.007533383473774679,0.038097785186389954,0.06872274328138171, ,0.09456993791681487, ,0.03876267018240594, ,0.0011598236726048938, ,0.23268594150038446,-0.1517748691771343,0.11737387434000002,2.3212676743736846,1.270992720818127,-1.244608448802405, ,0.09222248936683264,0.07573578735711954,0.09425332260355031,0.027227735924736627,0.16887599650393156,0.07526580969227312, ,1.2881500720977783
0.017756629457862674,0.021742461895060163,-0.10208279801213334, ,0.0189826659228785,0.021305424150583435,-0.10372268604106692, ,0.0020936571235724054, ,0.034902653278389754,0.009362181620735738,-0.10510715564164906,-0.01264432883190578,0.04310113134703304,-0.029647855485735553, ,0.11114566936074916, ,0.044774529613882307, ,0.0011698648925077702, ,0.2335740557809203,-0.1509562594924665,0.11844331359000002,2.3227355039780764,1.2729056318148433,-1.2437996159900784, ,0.0857244277854298,0.08138674233145006,0.11061674666666667,0.17164784741989633,0.1326752900690921,0.13248798418821367, ,1.2909131050109863
0.017756629457862674,0.021742461895060163,-0.10208279801213334, ,0.01908308975526325,0.02131491900411179,-0.10395037370011961, ,0.002330263674895595, ,0.034902653278389754,0.009362181620735738,-0.10510715564164906,-0.01264432883190578,0.04310113134703304,-0.029647855485735553, ,0.11114566936074916, ,0.044774529613882307, ,0.001182209560405513, ,0.2335740557809203,-0.1509562594924665,0.11844331359000002,2.3227355039780764,1.2729056318148433,-1.2437996159900784, ,0.0857244277854298,0.08138674233145006,0.11061674666666667,0.17164784741989633,0.1326752900690921,0.13248798418821367, ,1.2936670780181885
0.017756629457862674,0.021742461895060163,-0.10208279801213334, ,0.01918306106329929,0.021324261212791632,-0.1041758172117522, ,0.0025671634746567153, ,0.034902653278389754,0.009362181620735738,-0.10510715564164906,-0.01264432883190578,0.04310113134703304,-0.029647855485735553, ,0.11114566936074916, ,0.044774529613882307, ,0.0011967880226607889, ,0.2335740557809203,-0.1509562594924665,0.11844331359000002,2.3227355039780764,1.2729056318148433,-1.2437996159900784, ,0.0857244277854298,0.08138674233145006,0.11061674666666667,0.17164784741989633,0.1326752900690921,0.13248798418821367, ,1.296471118927002
0.0181145540727683,0.02183281241501945,-0.1031427423090313, ,0.019282580996072638,0.02133345125883621,-0.10439902622551021, ,0.0017865882952353821, ,0.03662272665401515,0.008814120198914508,-0.10558400030671024,-0.014823768265617788,0.017470173878004817,0.03978353203061189, ,0.11210215851277357, ,0.02262364619397116, ,0.0012029317755001075, ,0.2345239519244499,-0.15014537254067292,0.11955941928000001,2.3237839536954987,1.2742719968124976,-1.2426267903031072, ,0.10416788315968253,0.08055767534674939,0.11139029034965037,0.07978762594944135,0.14390354112163645,0.1079695870090635, ,1.2995011806488037
0.0181145540727683,0.02183281241501945,-0.1031427423090313, ,0.019381650702822526,0.021342489625634585,-0.10462001036940073, ,0.0020070553629316272, ,0.03662272665401515,0.008814120198914508,-0.10558400030671024,-0.014823768265617788,0.017470173878004817,0.03978353203061189, ,0.11210215851277357, ,0.02262364619397116, ,0.001211221709391154, ,0.2345239519244499,-0.15014537254067292,0.11955941928000001,2.3237839536954987,1.2742719968124976,-1.2426267903031072, ,0.10416788315968253,0.08055767534674939,0.11139029034965037,0.07978762594944135,0.14390354112163645,0.1079695870090635, ,1.3028969764709473
0.0181145540727683,0.02183281241501945,-0.1031427423090313, ,0.01948027133293772,0.02135137679774729,-0.10483877924991472, ,0.002230135689401902, ,0.03662272665401515,0.008814120198914508,-0.10558400030671024,-0.014823768265617788,0.017470173878004817,0.03978353203061189, ,0.11210215851277357, ,0.02262364619397116, ,0.0012216187908198352, ,0.2345239519244499,-0.15014537254067292,0.11955941928000001,2.3237839536954987,1.2742719968124976,-1.2426267903031072, ,0.10416788315968253,0.08055767534674939,0.11139029034965037,0.07978762594944135,0.14390354112163645,0.1079695870090635, ,1.3060181140899658
0.0181145540727683,0.02183281241501945,-0.1031427423090313, ,0.019578444035952533,0.02136011326090113,-0.10505534245204791, ,0.002454477056662555, ,0.03662272665401515,0.008814120198914508,-0.10558400030671024,-0.014823768265617788,0.017470173878004817,0.03978353203061189, ,0.11210215851277357, ,0.02262364619397116, ,0.0012340719046162263, ,0.2345239519244499,-0.15014537254067292,0.11955941928000001,2.3237839536954987,1.2742719968124976,-1.2426267903031072, ,0.10416788315968253,0.08055767534674939,0.11139029034965037,0.07978762594944135,0.14390354112163645,0.1079695870090635, ,1.3091561794281006
0.0181145540727683,0.02183281241501945,-0.1031427423090313, ,0.019676169961543147,0.021368699501984962,-0.10526970953932188, ,0.002679185431964242, ,0.03662272665401515,0.008814120198914508,-0.10558400030671024,-0.014823768265617788,0.017470173878004817,0.03978353203061189, ,0.11210215851277357, ,0.02262364619397116, ,0.0012485230398897066, ,0.2345239519244499,-0.15014537254067292,0.11955941928000001,2.3237839536954987,1.2742719968124976,-1.2426267903031072, ,0.10416788315968253,0.08055767534674939,0.11139029034965037,0.07978762594944135,0.14390354112163645,0.1079695870090635, ,1.3121421337127686
0.018323408250924197,0.02187958778579268,-0.10373342353022483, ,0.019773450259523744,0.02137713600904447,-0.10548189005380601, ,0.00232641672938124, ,0.03622589448705089,0.007184860480333111,-0.09972630535811414,-0.007231672812998427,0.01167299627277529,0.061159334511454534, ,0.10634506867687199, ,0.013367573973585026, ,0.0012591952546371476, ,0.23514177055438787,-0.14967428583534523,0.12018293477000001,2.324203333582468,1.2750918158110902,-1.241906759142896, ,0.11474841784579294,0.08442788394881742,0.10548881801324504,0.04017242725286267,0.1605245487565031,0.0855092384720702, ,1.3151721954345703
0.018323408250924197,0.02187958778579268,-0.10373342353022483, ,0.01987028607984213,0.02138542327127697,-0.10569189351613728, ,0.002544137235041445, ,0.03622589448705089,0.007184860480333111,-0.09972630535811414,-0.007231672812998427,0.01167299627277529,0.061159334511454534, ,0.10634506867687199, ,0.013367573973585026, ,0.001271792725033268, ,0.23514177055438787,-0.14967428583534523,0.12018293477000001,2.324203333582468,1.2750918158110902,-1.241906759142896, ,0.11474841784579294,0.08442788394881742,0.10548881801324504,0.04017242725286267,0.1605245487565031,0.0855092384720702, ,1.3179781436920166
0.01867950340503469,0.021937081506449806,-0.10464209185754492, ,0.019966678572576335,0.021393561779027133,-0.10589972942554314, ,0.0018798632552592667, ,0.035447067244373215,0.0042845571431925685,-0.08134619902020564,0.012716454613071684,-0.0041311698007837315,-0.024817631306307125, ,0.08883724501117368, ,0.013236798861689669, ,0.0012776963224141028, ,0.23639285328001225,-0.14880161702055786,0.12114867082000001,2.325042093356406,1.2767314538082757,-1.2412834842238798, ,0.14163722620667282,0.08885481419332471,0.08704268590163934,0.11598338575554908,0.16150437091669237,0.07187659995558393, ,1.3207721710205078
0.01867950340503469,0.021937081506449806,-0.10464209185754492, ,0.020062628887930294,0.021401552023781484,-0.10610540725986087, ,0.0020835354316395232, ,0.035447067244373215,0.0042845571431925685,-0.08134619902020564,0.012716454613071684,-0.0041311698007837315,-0.024817631306307125, ,0.08883724501117368, ,0.013236798861689669, ,0.0012854447753874244, ,0.23639285328001225,-0.14880161702055786,0.12114867082000001,2.325042093356406,1.2767314538082757,-1.2412834842238798, ,0.14163722620667282,0.08885481419332471,0.08704268590163934,0.11598338575554908,0.16150437091669237,0.07187659995558393, ,1.3266780376434326
0.01913227071697673,0.02196364369651785,-0.10553978923274525, ,0.02015813817623042,0.021409394498164404,-0.10630893647556106, ,0.001396847772293823, ,0.030136132924975332,-0.0005115377218220711,-0.05285483974194191,-0.004535319448150768,-0.03448052909908297,-0.008889873621240172, ,0.06084473898915987, ,0.03477159055310754, ,0.0012865057563103423, ,0.2384857138889271,-0.14759687069217883,0.12211959203000002,2.326719612904282,1.2789176378045226,-1.2402890935182433, ,0.1543039700137736,0.08977950951605561,0.05750473472924188,0.09148667529622462,0.1425520458548843,0.06931186167748903, ,1.3299190998077393
0.01913227071697673,0.02196364369651785,-0.10553978923274525, ,0.020253207587921554,0.02141708969593282,-0.10651032650776643, ,0.0015802415468543435, ,0.030136132924975332,-0.0005115377218220711,-0.05285483974194191,-0.004535319448150768,-0.03448052909908297,-0.008889873621240172, ,0.06084473898915987, ,0.03477159055310754, ,0.001289276848673965, ,0.2384857138889271,-0.14759687069217883,0.12211959203000002,2.326719612904282,1.2789176378045226,-1.2402890935182433, ,0.1543039700137736,0.08977950951605561,0.05750473472924188,0.09148667529622462,0.1425520458548843,0.06931186167748903, ,1.3327460289001465
0.01913227071697673,0.02196364369651785,-0.10553978923274525, ,0.020347838273562287,0.02142463811197066,-0.10670958677027469, ,0.001771032970784669, ,0.030136132924975332,-0.0005115377218220711,-0.05285483974194191,-0.004535319448150768,-0.03448052909908297,-0.008889873621240172, ,0.06084473898915987, ,0.03477159055310754, ,0.0012937792423385512, ,0.2384857138889271,-0.14759687069217883,0.12211959203000002,2.326719612904282,1.2789176378045226,-1.2402890935182433, ,0.1543039700137736,0.08977950951605561,0.05750473472924188,0.09148667529622462,0.1425520458548843,0.06931186167748903, ,1.3356351852416992
0.01913227071697673,0.02196364369651785,-0.10553978923274525, ,0.02044203138382234,0.021432040242285448,-0.10690672665557888, ,0.0019663654682969584, ,0.030136132924975332,-0.0005115377218220711,-0.05285483974194191,-0.004535319448150768,-0.03448052909908297,-0.008889873621240172, ,0.06084473898915987, ,0.03477159055310754, ,0.0013000068925789069, ,0.2384857138889271,-0.14759687069217883,0.12211959203000002,2.326719612904282,1.2789176378045226,-1.2402890935182433, ,0.1543039700137736,0.08977950951605561,0.05750473472924188,0.09148667529622462,0.1425520458548843,0.06931186167748903, ,1.3385820388793945
0.01943570738799337,0.02194848406797622,-0.10605861942650655, ,0.02053578806947768,0.02143929658400225,-0.10710175553488922, ,0.0015992443028575976, ,0.028538077020539798,-0.0023826588704837014,-0.04935557588318323,-0.040547483862591216,-0.03674497198677513,-0.025455257442439965, ,0.057061999387368244, ,0.05471744273715676, ,0.001302752189920913, ,0.2400379831966462,-0.1466083608842781,0.12268218189,2.3279777525651895,1.2801473663024117,-1.2394132436282783, ,0.14334885431793168,0.10248049844327299,0.05327361712374583,0.12900599888604666,0.11422614476820518,0.10282147538731444, ,1.3413841724395752
0.01943570738799337,0.02194848406797622,-0.10605861942650655, ,0.020629109481407212,0.02144640763535963,-0.10729468275815367, ,0.0017900116928657546, ,0.028538077020539798,-0.0023826588704837014,-0.04935557588318323,-0.040547483862591216,-0.03674497198677513,-0.025455257442439965, ,0.057061999387368244, ,0.05471744273715676, ,0.0013071818217658662, ,0.2400379831966462,-0.1466083608842781,0.12268218189,2.3279777525651895,1.2801473663024117,-1.2394132436282783, ,0.14334885431793168,0.10248049844327299,0.05327361712374583,0.12900599888604666,0.11422614476820518,0.10282147538731444, ,1.3441920280456543
0.01943570738799337,0.02194848406797622,-0.10605861942650655, ,0.020721996770588207,0.021453373895704193,-0.10748551765407904, ,0.0019838631531214498, ,0.028538077020539798,-0.0023826588704837014,-0.04935557588318323,-0.040547483862591216,-0.03674497198677513,-0.025455257442439965, ,0.057061999387368244, ,0.05471744273715676, ,0.001313278049976277, ,0.2400379831966462,-0.1466083608842781,0.12268218189,2.3279777525651895,1.2801473663024117,-1.2394132436282783, ,0.14334885431793168,0.10248049844327299,0.05327361712374583,0.12900599888604666,0.11422614476820518,0.10282147538731444, ,1.348034143447876
0.01943570738799337,0.02194848406797622,-0.10605861942650655, ,0.02081445108809303,0.02146019586548609,-0.1076742695301531, ,0.0021793771625555508, ,0.028538077020539798,-0.0023826588704837014,-0.04935557588318323,-0.040547483862591216,-0.03674497198677513,-0.025455257442439965, ,0.057061999387368244, ,0.05471744273715676, ,0.0013210110777671633, ,0.2400379831966462,-0.1466083608842781,0.12268218189,2.3279777525651895,1.2801473663024117,-1.2394132436282783, ,0.14334885431793168,0.10248049844327299,0.05327361712374583,0.12900599888604666,0.11422614476820518,0.10282147538731444, ,1.3511559963226318
0.01943570738799337,0.02194848406797622,-0.10605861942650655, ,0.020906473585084726,0.021466874046253994,-0.10786094767266464, ,0.002375602771178124, ,0.028538077020539798,-0.0023826588704837014,-0.04935557588318323,-0.040547483862591216,-0.03674497198677513,-0.025455257442439965, ,0.057061999387368244, ,0.05471744273715676, ,0.0013303437476203577, ,0.2400379831966462,-0.1466083608842781,0.12268218189,2.3279777525651895,1.2801473663024117,-1.2394132436282783, ,0.14334885431793168,0.10248049844327299,0.05327361712374583,0.12900599888604666,0.11422614476820518,0.10282147538731444, ,1.3541460037231445
0.01943570738799337,0.02194848406797622,-0.10605861942650655, ,0.020998065412813505,0.0214734089406506,-0.10804556134672522, ,0.002571885916724455, ,0.028538077020539798,-0.0023826588704837014,-0.04935557588318323,-0.040547483862591216,-0.03674497198677513,-0.025455257442439965, ,0.057061999387368244, ,0.05471744273715676, ,0.0013412344684019725, ,0.2400379831966462,-0.1466083608842781,0.12268218189,2.3279777525651895,1.2801473663024117,-1.2394132436282783, ,0.14334885431793168,0.10248049844327299,0.05327361712374583,0.12900599888604666,0.11422614476820518,0.10282147538731444, ,1.3570489883422852
0.01943570738799337,0.02194848406797622,-0.10605861942650655, ,0.021089227722612694,0.02147980105240762,-0.1082281197962902, ,0.0027677653658815596, ,0.028538077020539798,-0.0023826588704837014,-0.04935557588318323,-0.040547483862591216,-0.03674497198677513,-0.025455257442439965, ,0.057061999387368244, ,0.05471744273715676, ,0.001353639084901795, ,0.2400379831966462,-0.1466083608842781,0.12268218189,2.3279777525651895,1.2801473663024117,-1.2394132436282783, ,0.14334885431793168,0.10248049844327299,0.05327361712374583,0.12900599888604666,0.11422614476820518,0.10282147538731444, ,1.3598601818084717
0.01943570738799337,0.02194848406797622,-0.10605861942650655, ,0.02117996166589428,0.021486050886340164,-0.10840863224418, ,0.002962908651424003, ,0.028538077020539798,-0.0023826588704837014,-0.04935557588318323,-0.040547483862591216,-0.03674497198677513,-0.025455257442439965, ,0.057061999387368244, ,0.05471744273715676, ,0.0013675120984062968, ,0.2400379831966462,-0.1466083608842781,0.12268218189,2.3279777525651895,1.2801473663024117,-1.2394132436282783, ,0.14334885431793168,0.10248049844327299,0.05327361712374583,0.12900599888604666,0.11422614476820518,0.10282147538731444, ,1.3627490997314453
0.020075935966615624,0.02188944387921317,-0.10719930599436021, ,0.02127026839414621,0.021492158948343977,-0.10858710789210158, ,0.0018735686192721543, ,0.025603016717775904,-0.0022824359975321265,-0.047993653475693746,-0.01659953966337977,-0.011873034983798422,0.006053387191762056, ,0.05444368423498278, ,0.020402427335982267, ,0.0013718373678154067, ,0.24315796727783293,-0.1442452046247654,0.1239123611,2.330703721830488,1.283016732797486,-1.2371790101580313, ,0.12073402233902134,0.09367911308832258,0.05171692051948052,0.06636085773408226,0.1335594126941261,0.06307563242101186, ,1.3657951354980469
0.020075935966615624,0.02188944387921317,-0.10719930599436021, ,0.02136014905892706,0.02149812574538796,-0.1087635559206684, ,0.002061361438535152, ,0.025603016717775904,-0.0022824359975321265,-0.047993653475693746,-0.01659953966337977,-0.011873034983798422,0.006053387191762056, ,0.05444368423498278, ,0.020402427335982267, ,0.0013776807921435403, ,0.24315796727783293,-0.1442452046247654,0.1239123611,2.330703721830488,1.283016732797486,-1.2371790101580313, ,0.12073402233902134,0.09367911308832258,0.05171692051948052,0.06636085773408226,0.1335594126941261,0.06307563242101186, ,1.3686151504516602
0.020075935966615624,0.02188944387921317,-0.10719930599436021, ,0.021449604811863292,0.02150395178551163,-0.10893798548942321, ,0.0022491279726291656, ,0.025603016717775904,-0.0022824359975321265,-0.047993653475693746,-0.01659953966337977,-0.011873034983798422,0.006053387191762056, ,0.05444368423498278, ,0.020402427335982267, ,0.0013850038776938396, ,0.24315796727783293,-0.1442452046247654,0.1239123611,2.330703721830488,1.283016732797486,-1.2371790101580313, ,0.12073402233902134,0.09367911308832258,0.05171692051948052,0.06636085773408226,0.1335594126941261,0.06307563242101186, ,1.3714120388031006
0.020321707112164755,0.021852732707096232,-0.10763906017513772, ,0.021538636804644216,0.021509637577818565,-0.10911040573685782, ,0.0019399716250929164, ,0.025069707030217894,-0.0039837853242774696,-0.044011805307551964,-0.07302254344349518,-0.06801883755733723,0.052480302321052524, ,0.05080747742725222, ,0.09979323111328088, ,0.0013896286089221653, ,0.2443781590719604,-0.1432721402826131,0.12438421066000001,2.3309134117739725,1.2841098247956093,-1.2365184573249322, ,0.12636077437878931,0.09813541009148995,0.04698764460176992,0.0,0.07649517216999527,0.06209023772680114, ,1.374169111251831
0.020321707112164755,0.021852732707096232,-0.10763906017513772, ,0.02162724618901904,0.02151518363247264,-0.10928082578043508, ,0.0021245625341962, ,0.025069707030217894,-0.0039837853242774696,-0.044011805307551964,-0.07302254344349518,-0.06801883755733723,0.052480302321052524, ,0.05080747742725222, ,0.09979323111328088, ,0.001395702443015339, ,0.2443781590719604,-0.1432721402826131,0.12438421066000001,2.3309134117739725,1.2841098247956093,-1.2365184573249322, ,0.12636077437878931,0.09813541009148995,0.04698764460176992,0.0,0.07649517216999527,0.06209023772680114, ,1.376965045928955
0.020321707112164755,0.021852732707096232,-0.10763906017513772, ,0.021715434116792404,0.02152059046069306,-0.10944925471660953, ,0.0023085921496116316, ,0.025069707030217894,-0.0039837853242774696,-0.044011805307551964,-0.07302254344349518,-0.06801883755733723,0.052480302321052524, ,0.05080747742725222, ,0.09979323111328088, ,0.0014031851455284234, ,0.2443781590719604,-0.1432721402826131,0.12438421066000001,2.3309134117739725,1.2841098247956093,-1.2365184573249322, ,0.12636077437878931,0.09813541009148995,0.04698764460176992,0.0,0.07649517216999527,0.06209023772680114, ,1.380000114440918
0.020619851435013065,0.02182930196712104,-0.10816997974370203, ,0.021803201739820866,0.021525858574749392,-0.10961570162084934, ,0.0018927513260661233, ,0.03494146925374841,-0.00041065517709998247,-0.06378171619765735,-0.034708659914364774,-0.05308042890677918,-0.17643066973549384, ,0.05080747742725222, ,0.06341267578841449, ,0.0014071653583783235, ,0.24578369645506926,-0.14224501681034124,0.12495328197000001,2.33217155143488,1.2847930072944365,-1.2356870082610247, ,0.15330685227539706,0.10832984196172464,0.06865867034482759,0.27578615279223323,0.0770191899501713,0.10479428760744292, ,1.3836491107940674
0.020619851435013065,0.02182930196712104,-0.10816997974370203, ,0.021890550210008287,0.021530988487956343,-0.10978017554765623, ,0.0020727751531937626, ,0.03494146925374841,-0.00041065517709998247,-0.06378171619765735,-0.034708659914364774,-0.05308042890677918,-0.17643066973549384, ,0.07272676420963352, ,0.06341267578841449, ,0.0014125331793042543, ,0.24578369645506926,-0.14224501681034124,0.12495328197000001,2.33217155143488,1.2847930072944365,-1.2356870082610247, ,0.15330685227539706,0.10832984196172464,0.06865867034482759,0.27578615279223323,0.0770191899501713,0.10479428760744292, ,1.386444091796875
0.020619851435013065,0.02182930196712104,-0.10816997974370203, ,0.02197748067930246,0.021535980714669528,-0.10994268553058802, ,0.0022520391490710315, ,0.03494146925374841,-0.00041065517709998247,-0.06378171619765735,-0.034708659914364774,-0.05308042890677918,-0.17643066973549384, ,0.07272676420963352, ,0.06341267578841449, ,0.0014192492270623887, ,0.24578369645506926,-0.14224501681034124,0.12495328197000001,2.33217155143488,1.2847930072944365,-1.2356870082610247, ,0.15330685227539706,0.10832984196172464,0.06865867034482759,0.27578615279223323,0.0770191899501713,0.10479428760744292, ,1.3893799781799316
0.020619851435013065,0.02182930196712104,-0.10816997974370203, ,0.022063994299690987,0.021540835770280427,-0.11010324058227836, ,0.0024302795786272573, ,0.03494146925374841,-0.00041065517709998247,-0.06378171619765735,-0.034708659914364774,-0.05308042890677918,-0.17643066973549384, ,0.07272676420963352, ,0.06341267578841449, ,0.0014272732774716337, ,0.24578369645506926,-0.14224501681034124,0.12495328197000001,2.33217155143488,1.2847930072944365,-1.2356870082610247, ,0.15330685227539706,0.10832984196172464,0.06865867034482759,0.27578615279223323,0.0770191899501713,0.10479428760744292, ,1.3921780586242676
0.021005564075406963,0.021858138519269998,-0.10891504630818499, ,0.022150092223197408,0.021545554171211505,-0.11026184969445864, ,0.0017948629521537124, ,0.03979371951827236,0.0043327555004583265,-0.07794144624571679,0.04571208337220382,-0.003259228347487493,-0.2487942324904507, ,0.08761952936531697, ,0.045796733310082736, ,0.0014301676843588942, ,0.24732824302991416,-0.14124106153669205,0.12576087064000002,2.336155660361086,1.2860227357923255,-1.234729479630919, ,0.15816156926411795,0.09003504891695518,0.08472772085106384,0.36962702991505314,0.13585190520791582,0.10202919719146335, ,1.3949570655822754
0.021005564075406963,0.021858138519269998,-0.10891504630818499, ,0.022235775601877332,0.021550136434911788,-0.11041852183797986, ,0.001966907306540272, ,0.03979371951827236,0.0043327555004583265,-0.07794144624571679,0.04571208337220382,-0.003259228347487493,-0.2487942324904507, ,0.08761952936531697, ,0.045796733310082736, ,0.0014343609626571864, ,0.24732824302991416,-0.14124106153669205,0.12576087064000002,2.336155660361086,1.2860227357923255,-1.234729479630919, ,0.15816156926411795,0.09003504891695518,0.08472772085106384,0.36962702991505314,0.13585190520791582,0.10202919719146335, ,1.3977270126342773
0.021005564075406963,0.021858138519269998,-0.10891504630818499, ,0.022321045587814205,0.021554583079851173,-0.11057326596283219, ,0.0021383007125622623, ,0.03979371951827236,0.0043327555004583265,-0.07794144624571679,0.04571208337220382,-0.003259228347487493,-0.2487942324904507, ,0.08761952936531697, ,0.045796733310082736, ,0.0014398178599432723, ,0.24732824302991416,-0.14124106153669205,0.12576087064000002,2.336155660361086,1.2860227357923255,-1.234729479630919, ,0.15816156926411795,0.09003504891695518,0.08472772085106384,0.36962702991505314,0.13585190520791582,0.10202919719146335, ,1.4005579948425293
0.021005564075406963,0.021858138519269998,-0.10891504630818499, ,0.022405903333115627,0.02155889462551656,-0.11072609099816688, ,0.0023087615324542217, ,0.03979371951827236,0.0043327555004583265,-0.07794144624571679,0.04571208337220382,-0.003259228347487493,-0.2487942324904507, ,0.08761952936531697, ,0.045796733310082736, ,0.0014465020420395102, ,0.24732824302991416,-0.14124106153669205,0.12576087064000002,2.336155660361086,1.2860227357923255,-1.234729479630919, ,0.15816156926411795,0.09003504891695518,0.08472772085106384,0.36962702991505314,0.13585190520791582,0.10202919719146335, ,1.4034080505371094
0.021242373521029395,0.021876152601778012,-0.10935610852223664, ,0.02249034998990931,0.02156307159240638,-0.11087700585231777, ,0.001992132945853532, ,0.03724854873884866,0.002677132471970046,-0.067279526577401,0.004567480490860891,-0.03156260535966561,-0.0411770148870263, ,0.07694904884338771, ,0.03186975698313359, ,0.0014506671634426707, ,0.248355366502186,-0.14070819296837056,0.12624179423,2.3376234899654778,1.2868425547909181,-1.2339277697305673, ,0.16825698857884888,0.07994687578641177,0.07374449777777779,0.18467999581591768,0.1448387041871081,0.1300875920077647, ,1.407189130783081
0.021242373521029395,0.021876152601778012,-0.10935610852223664, ,0.02257438671033926,0.021567114502026207,-0.11102601941282192, ,0.002158324828678246, ,0.03724854873884866,0.002677132471970046,-0.067279526577401,0.004567480490860891,-0.03156260535966561,-0.0411770148870263, ,0.07694904884338771, ,0.03186975698313359, ,0.0014560282063611223, ,0.248355366502186,-0.14070819296837056,0.12624179423,2.3376234899654778,1.2868425547909181,-1.2339277697305673, ,0.16825698857884888,0.07994687578641177,0.07374449777777779,0.18467999581591768,0.1448387041871081,0.1300875920077647, ,1.4104571342468262
0.021242373521029395,0.021876152601778012,-0.10935610852223664, ,0.022658014646561603,0.021571023876883623,-0.11117314054644095, ,0.0023235207578237395, ,0.03724854873884866,0.002677132471970046,-0.067279526577401,0.004567480490860891,-0.03156260535966561,-0.0411770148870263, ,0.07694904884338771, ,0.03186975698313359, ,0.0014625507067480591, ,0.248355366502186,-0.14070819296837056,0.12624179423,2.3376234899654778,1.2868425547909181,-1.2339277697305673, ,0.16825698857884888,0.07994687578641177,0.07374449777777779,0.18467999581591768,0.1448387041871081,0.1300875920077647, ,1.4134299755096436
0.021471925550695794,0.021887146658793922,-0.1097757252111175, ,0.022741234950740947,0.021574800240483534,-0.11131837809918169, ,0.0020220001412282543, ,0.03516872554908642,0.0009108624856506769,-0.06617303618433987,-0.03763112543947233,-0.038810147109463414,0.13263185179261855, ,0.07494357640964756, ,0.05404683418145097, ,0.0014667257025277622, ,0.24940565817308055,-0.14019076986579754,0.12670068089,2.338252559795931,1.287799010289276,-1.2329924415134905, ,0.16057012108032281,0.08368336998101479,0.07207607022624436,0.016512328700422404,0.1561407265291392,0.14159493478381738, ,1.4164161682128906
0.021471925550695794,0.021887146658793922,-0.1097757252111175, ,0.02282404877504604,0.021578444117323365,-0.11146174089631815, ,0.00218315903307118, ,0.03516872554908642,0.0009108624856506769,-0.06617303618433987,-0.03763112543947233,-0.038810147109463414,0.13263185179261855, ,0.07494357640964756, ,0.05404683418145097, ,0.0014720326160873429, ,0.24940565817308055,-0.14019076986579754,0.12670068089,2.338252559795931,1.287799010289276,-1.2329924415134905, ,0.16057012108032281,0.08368336998101479,0.07207607022624436,0.016512328700422404,0.1561407265291392,0.14159493478381738, ,1.419255018234253
0.021471925550695794,0.021887146658793922,-0.1097757252111175, ,0.02290645727164632,0.0215819560328884,-0.11160323774241224, ,0.0023432508676181417, ,0.03516872554908642,0.0009108624856506769,-0.06617303618433987,-0.03763112543947233,-0.038810147109463414,0.13263185179261855, ,0.07494357640964756, ,0.05404683418145097, ,0.0014784386326427163, ,0.24940565817308055,-0.14019076986579754,0.12670068089,2.338252559795931,1.287799010289276,-1.2329924415134905, ,0.16057012108032281,0.08368336998101479,0.07207607022624436,0.016512328700422404,0.1561407265291392,0.14159493478381738, ,1.4221019744873047
0.021910760043796943,0.021903546051022182,-0.11067372213653273, ,0.02298846159270766,0.021585336513646764,-0.11174287742133501, ,0.0015510612370960345, ,0.03541609010632693,0.002608262222279555,-0.07997658420374266,-0.020339667190201326,0.006264835994713067,0.16099614101984727, ,0.08750632257807421, ,0.021205617750902857, ,0.0014789687246460253, ,0.251243668597146,-0.13910186453053186,0.12767678726,2.3384622497394156,1.2903951037848196,-1.231107123416835, ,0.13180130772009832,0.08287942494189587,0.0861016838918919,-0.014604985897357464,0.18611696160646052,0.13080270373334396, ,1.4249811172485352
0.021910760043796943,0.021903546051022182,-0.11067372213653273, ,0.02307006289038801,0.021588586087044042,-0.11188066869628707, ,0.0017029101171600624, ,0.03541609010632693,0.002608262222279555,-0.07997658420374266,-0.020339667190201326,0.006264835994713067,0.16099614101984727, ,0.08750632257807421, ,0.021205617750902857, ,0.0014805914883598951, ,0.251243668597146,-0.13910186453053186,0.12767678726,2.3384622497394156,1.2903951037848196,-1.231107123416835, ,0.13180130772009832,0.08287942494189587,0.0861016838918919,-0.014604985897357464,0.18611696160646052,0.13080270373334396, ,1.427760124206543
0.021910760043796943,0.021903546051022182,-0.11067372213653273, ,0.023151262316834727,0.021591705281500107,-0.11201662030982054, ,0.0018545797526037444, ,0.03541609010632693,0.002608262222279555,-0.07997658420374266,-0.020339667190201326,0.006264835994713067,0.16099614101984727, ,0.08750632257807421, ,0.021205617750902857, ,0.0014832820514120092, ,0.251243668597146,-0.13910186453053186,0.12767678726,2.3384622497394156,1.2903951037848196,-1.231107123416835, ,0.13180130772009832,0.08287942494189587,0.0861016838918919,-0.014604985897357464,0.18611696160646052,0.13080270373334396, ,1.4305269718170166
0.021910760043796943,0.021903546051022182,-0.11067372213653273, ,0.023232061024179202,0.02159469462640258,-0.1121507409838603, ,0.002005694433010554, ,0.03541609010632693,0.002608262222279555,-0.07997658420374266,-0.020339667190201326,0.006264835994713067,0.16099614101984727, ,0.08750632257807421, ,0.021205617750902857, ,0.0014870135684234274, ,0.251243668597146,-0.13910186453053186,0.12767678726,2.3384622497394156,1.2903951037848196,-1.231107123416835, ,0.13180130772009832,0.08287942494189587,0.0861016838918919,-0.014604985897357464,0.18611696160646052,0.13080270373334396, ,1.4332661628723145
0.022147299995379958,0.021928765283653978,-0.11119759181385873, ,0.02331246016453348,0.02159755465210271,-0.11228303941972452, ,0.0016264978350167684, ,0.03697564421752509,0.004716798091378593,-0.08185606703810254,-0.011658233295052623,0.0044422014072425875,0.1003738651014511, ,0.08994366103557362, ,0.012327716011471456, ,0.0014880028185411105, ,0.25211633741193334,-0.13859988689370728,0.12824456228,2.3388816296263846,1.291761468782474,-1.2300159764700043, ,0.1346055908630791,0.0711905037948018,0.08849339733333335,0.07431384645372535,0.16801058895424326,0.16045818496597214, ,1.43607497215271
0.022147299995379958,0.021928765283653978,-0.11119759181385873, ,0.023392460889986828,0.021600285889910992,-0.11241352429814601, ,0.0017711059177578782, ,0.03697564421752509,0.004716798091378593,-0.08185606703810254,-0.011658233295052623,0.0044422014072425875,0.1003738651014511, ,0.08994366103557362, ,0.012327716011471456, ,0.0014899965023384115, ,0.25211633741193334,-0.13859988689370728,0.12824456228,2.3388816296263846,1.291761468782474,-1.2300159764700043, ,0.1346055908630791,0.0711905037948018,0.08849339733333335,0.07431384645372535,0.16801058895424326,0.16045818496597214, ,1.4423911571502686
0.022147299995379958,0.021928765283653978,-0.11119759181385873, ,0.02347206435260066,0.021602888872091244,-0.11254220427929305, ,0.0019155100417321655, ,0.03697564421752509,0.004716798091378593,-0.08185606703810254,-0.011658233295052623,0.0044422014072425875,0.1003738651014511, ,0.08994366103557362, ,0.012327716011471456, ,0.001492972121495011, ,0.25211633741193334,-0.13859988689370728,0.12824456228,2.3388816296263846,1.291761468782474,-1.2300159764700043, ,0.1346055908630791,0.0711905037948018,0.08849339733333335,0.07431384645372535,0.16801058895424326,0.16045818496597214, ,1.445249080657959
0.022147299995379958,0.021928765283653978,-0.11119759181385873, ,0.02355127170440579,0.02160536413185716,-0.11266908800279153, ,0.002059375123374123, ,0.03697564421752509,0.004716798091378593,-0.08185606703810254,-0.011658233295052623,0.0044422014072425875,0.1003738651014511, ,0.08994366103557362, ,0.012327716011471456, ,0.0014969054756747272, ,0.25211633741193334,-0.13859988689370728,0.12824456228,2.3388816296263846,1.291761468782474,-1.2300159764700043, ,0.1346055908630791,0.0711905037948018,0.08849339733333335,0.07431384645372535,0.16801058895424326,0.16045818496597214, ,1.4480781555175781
0.022147299995379958,0.021928765283653978,-0.11119759181385873, ,0.0236300840973976,0.021607712203366408,-0.11279418408774476, ,0.0022024601387064815, ,0.03697564421752509,0.004716798091378593,-0.08185606703810254,-0.011658233295052623,0.0044422014072425875,0.1003738651014511, ,0.08994366103557362, ,0.012327716011471456, ,0.0015017713699025325, ,0.25211633741193334,-0.13859988689370728,0.12824456228,2.3388816296263846,1.291761468782474,-1.2300159764700043, ,0.1346055908630791,0.0711905037948018,0.08849339733333335,0.07431384645372535,0.16801058895424326,0.16045818496597214, ,1.4511229991912842
0.022147299995379958,0.021928765283653978,-0.11119759181385873, ,0.02370850268353264,0.021609933621716555,-0.11291750113275564, ,0.002344588562493937, ,0.03697564421752509,0.004716798091378593,-0.08185606703810254,-0.011658233295052623,0.0044422014072425875,0.1003738651014511, ,0.08994366103557362, ,0.012327716011471456, ,0.001507544090399734, ,0.25211633741193334,-0.13859988689370728,0.12824456228,2.3388816296263846,1.291761468782474,-1.2300159764700043, ,0.1346055908630791,0.0711905037948018,0.08849339733333335,0.07431384645372535,0.16801058895424326,0.16045818496597214, ,1.4541501998901367
0.022147299995379958,0.021928765283653978,-0.11119759181385873, ,0.023786528614723964,0.021612028922939352,-0.11303904771594679, ,0.0024856291412859973, ,0.03697564421752509,0.004716798091378593,-0.08185606703810254,-0.011658233295052623,0.0044422014072425875,0.1003738651014511, ,0.08994366103557362, ,0.012327716011471456, ,0.0015141977302016814, ,0.2555606762738375,-0.13684682653125832,0.12992714670000002,2.3512533362919714,1.2951773812766099,-1.2255320161899044, ,0.1381323749031598,0.0673983959932321,0.03756795169811321,-0.03665324374375367,0.13721494355380148,0.14161181466730058, ,1.4569849967956543
0.023018211285162845,0.022038322564332212,-0.11271313092389801, ,0.023864163042838164,0.02161399864399707,-0.11315883239498262, ,0.001046104663506253, ,0.02459948774799571,-0.0027699591312974185,-0.033230527551848695,-0.0458979282596914,-0.038267775865145626,0.18263368845659184, ,0.041437608913003465, ,0.0597578611283454, ,0.001511034939210496, ,0.2555606762738375,-0.13684682653125832,0.12992714670000002,2.3512533362919714,1.2951773812766099,-1.2255320161899044, ,0.1381323749031598,0.0673983959932321,0.03756795169811321,-0.03665324374375367,0.13721494355380148,0.14161181466730058, ,1.4597489833831787
0.023018211285162845,0.022038322564332212,-0.11271313092389801, ,0.02394140711969045,0.021615843322776662,-0.11327686370708984, ,0.0011612811499717363, ,0.02459948774799571,-0.0027699591312974185,-0.033230527551848695,-0.0458979282596914,-0.038267775865145626,0.18263368845659184, ,0.041437608913003465, ,0.0597578611283454, ,0.0015086875983431217, ,0.2555606762738375,-0.13684682653125832,0.12992714670000002,2.3512533362919714,1.2951773812766099,-1.2255320161899044, ,0.1381323749031598,0.0673983959932321,0.03756795169811321,-0.03665324374375367,0.13721494355380148,0.14161181466730058, ,1.4625420570373535
0.023018211285162845,0.022038322564332212,-0.11271313092389801, ,0.024018261997041532,0.02161756349808584,-0.11339315016907896, ,0.0012804553065117327, ,0.02459948774799571,-0.0027699591312974185,-0.033230527551848695,-0.0458979282596914,-0.038267775865145626,0.18263368845659184, ,0.041437608913003465, ,0.0597578611283454, ,0.0015071660497309124, ,0.2555606762738375,-0.13684682653125832,0.12992714670000002,2.3512533362919714,1.2951773812766099,-1.2255320161899044, ,0.1381323749031598,0.0673983959932321,0.03756795169811321,-0.03665324374375367,0.13721494355380148,0.14161181466730058, ,1.4652941226959229
0.023156255103999594,0.021999117962107136,-0.11290434689339543, ,0.024094728826593158,0.02161915970964767,-0.1135077002773653, ,0.0011786163529998073, ,0.015883541237341006,-0.007365944280246606,-0.020009732028493453,-0.1638482883747281,-0.11902658829399637,0.7248204905906639, ,0.026588219068416873, ,0.2025181155265952, ,0.0015049902239247463, ,0.25649512695161863,-0.13642979895605017,0.13013973826000003,2.3478982971962195,1.296133836774968,-1.2245966879728276, ,0.12703740503142005,0.05501271974404103,0.022215915648535565,-0.6670126910530251,0.13405812984088158,0.07030668238183915, ,1.4680390357971191
0.023156255103999594,0.021999117962107136,-0.11290434689339543, ,0.024170808759983838,0.02162063249809552,-0.11362052250798939, ,0.001298259557360591, ,0.015883541237341006,-0.007365944280246606,-0.020009732028493453,-0.1638482883747281,-0.11902658829399637,0.7248204905906639, ,0.026588219068416873, ,0.2025181155265952, ,0.001503630153749982, ,0.25649512695161863,-0.13642979895605017,0.13013973826000003,2.3478982971962195,1.296133836774968,-1.2245966879728276, ,0.12703740503142005,0.05501271974404103,0.022215915648535565,-0.6670126910530251,0.13405812984088158,0.07030668238183915, ,1.4708251953125
0.023156255103999594,0.021999117962107136,-0.11290434689339543, ,0.0242465029487862,0.02162198240496953,-0.11373162531664002, ,0.0014195989507904642, ,0.015883541237341006,-0.007365944280246606,-0.020009732028493453,-0.1638482883747281,-0.11902658829399637,0.7248204905906639, ,0.026588219068416873, ,0.2025181155265952, ,0.0015030809302012272, ,0.25649512695161863,-0.13642979895605017,0.13013973826000003,2.3478982971962195,1.296133836774968,-1.2245966879728276, ,0.12703740503142005,0.05501271974404103,0.022215915648535565,-0.6670126910530251,0.13405812984088158,0.07030668238183915, ,1.4735920429229736
0.023156255103999594,0.021999117962107136,-0.11290434689339543, ,0.024321812544501074,0.021623209972709834,-0.11384101713867269, ,0.0015418113088146814, ,0.015883541237341006,-0.007365944280246606,-0.020009732028493453,-0.1638482883747281,-0.11902658829399637,0.7248204905906639, ,0.026588219068416873, ,0.2025181155265952, ,0.0015033324261662497, ,0.25649512695161863,-0.13642979895605017,0.13013973826000003,2.3478982971962195,1.296133836774968,-1.2245966879728276, ,0.12703740503142005,0.05501271974404103,0.022215915648535565,-0.6670126910530251,0.13405812984088158,0.07030668238183915, ,1.4763751029968262
0.023469340603050386,0.02187475494791018,-0.11313415793441103, ,0.024396738698555274,0.0216243157446536,-0.11394870638913279, ,0.0012594745758305282, ,0.018565309711767036,-0.000705406589115898,-0.008577605140965405,0.10481886444228511,0.04432055689423906,-0.5880518207650737, ,0.02046322636106329, ,0.11380380512070873, ,0.0015017591497124708, ,0.2587733331495149,-0.13515554803180316,0.13041455174000002,2.345382017874405,1.2977734747721534,-1.2229115894319842, ,0.09833879954245676,0.06017561290962003,0.01230024055598456,0.7336759753809327,0.05140947728922194,0.1293795390721727, ,1.4792141914367676
0.023469340603050386,0.02187475494791018,-0.11313415793441103, ,0.02447128256229709,0.021625300265029568,-0.11405470146277623, ,0.0013832988527882311, ,0.018565309711767036,-0.000705406589115898,-0.008577605140965405,0.10481886444228511,0.04432055689423906,-0.5880518207650737, ,0.02046322636106329, ,0.11380380512070873, ,0.0015009997888347512, ,0.2587733331495149,-0.13515554803180316,0.13041455174000002,2.345382017874405,1.2977734747721534,-1.2229115894319842, ,0.09833879954245676,0.06017561290962003,0.01230024055598456,0.7336759753809327,0.05140947728922194,0.1293795390721727, ,1.4819960594177246
0.023469340603050386,0.02187475494791018,-0.11313415793441103, ,0.024545445286991614,0.021626164078952462,-0.11415901073408977, ,0.0015066923945977627, ,0.018565309711767036,-0.000705406589115898,-0.008577605140965405,0.10481886444228511,0.04432055689423906,-0.5880518207650737, ,0.02046322636106329, ,0.11380380512070873, ,0.0015010360474701845, ,0.2587733331495149,-0.13515554803180316,0.13041455174000002,2.345382017874405,1.2977734747721534,-1.2229115894319842, ,0.09833879954245676,0.06017561290962003,0.01230024055598456,0.7336759753809327,0.05140947728922194,0.1293795390721727, ,1.4848370552062988
0.023469340603050386,0.02187475494791018,-0.11313415793441103, ,0.02461922802381792,0.021626907732419494,-0.1142616425573133, ,0.001629383594353083, ,0.018565309711767036,-0.000705406589115898,-0.008577605140965405,0.10481886444228511,0.04432055689423906,-0.5880518207650737, ,0.02046322636106329, ,0.11380380512070873, ,0.001501848373716279, ,0.2587733331495149,-0.13515554803180316,0.13041455174000002,2.345382017874405,1.2977734747721534,-1.2229115894319842, ,0.09833879954245676,0.06017561290962003,0.01230024055598456,0.7336759753809327,0.05140947728922194,0.1293795390721727, ,1.487746000289917
0.023607887852244613,0.02188046340652422,-0.113201247210479, ,0.024692631923864224,0.021627531772304545,-0.11436260526646001, ,0.0016091602302738298, ,0.021759830579242887,0.0014135674807649462,-0.012406056465801785,0.10189841397730598,0.030777526551502773,-0.6670781252245988, ,0.025087818496088737, ,0.10644502157376709, ,0.0015025232910531186, ,0.2594761018410693,-0.13477713412096615,0.1305104772,2.3512533362919714,1.2980467477716844,-1.2215008504365656, ,0.10920246439409755,0.053104052355048,0.016784838271865124,0.8554681359687367,0.020740017592800773,0.1784481391206062, ,1.4906651973724365
0.023607887852244613,0.02188046340652422,-0.113201247210479, ,0.024765658138124178,0.02162803674635374,-0.11446190717533783, ,0.001730148779911236, ,0.021759830579242887,0.0014135674807649462,-0.012406056465801785,0.10189841397730598,0.030777526551502773,-0.6670781252245988, ,0.025087818496088737, ,0.10644502157376709, ,0.001503945950358482, ,0.2594761018410693,-0.13477713412096615,0.1305104772,2.3512533362919714,1.2980467477716844,-1.2215008504365656, ,0.10920246439409755,0.053104052355048,0.016784838271865124,0.8554681359687367,0.020740017592800773,0.1784481391206062, ,1.4934711456298828
0.023607887852244613,0.02188046340652422,-0.113201247210479, ,0.024838307817493386,0.021628423203180903,-0.11455955657757096, ,0.001849989700434541, ,0.021759830579242887,0.0014135674807649462,-0.012406056465801785,0.10189841397730598,0.030777526551502773,-0.6670781252245988, ,0.025087818496088737, ,0.10644502157376709, ,0.0015060952904210661, ,0.2594761018410693,-0.13477713412096615,0.1305104772,2.3512533362919714,1.2980467477716844,-1.2215008504365656, ,0.10920246439409755,0.053104052355048,0.016784838271865124,0.8554681359687367,0.020740017592800773,0.1784481391206062, ,1.4962341785430908
0.023884295868865636,0.02189303259958043,-0.11348187736170683, ,0.02491058211276469,0.02162869169226234,-0.11465556174662012, ,0.0015813521445546116, ,0.0262089777592268,0.0011492552584209548,-0.040891555587487,0.04342947905018998,0.014447396249343323,-0.01692376062056291, ,0.04858343978350228, ,0.045768248566681644, ,0.0015065598389033719, ,0.2608507482926813,-0.1341670382239024,0.13084751260000002,2.357334344653023,1.2990032032700423,-1.2198304135582236, ,0.12181892369508443,0.05231363922738191,0.046304684651162796,0.15133223182698702,0.15642462357338024,0.10983166003478974, ,1.4990291595458984
0.023884295868865636,0.02189303259958043,-0.11348187736170683, ,0.0249824821746246,0.021628842763932038,-0.11474993093580484, ,0.001698166451853052, ,0.0262089777592268,0.0011492552584209548,-0.040891555587487,0.04342947905018998,0.014447396249343323,-0.01692376062056291, ,0.04858343978350228, ,0.045768248566681644, ,0.0015077353395963147, ,0.2608507482926813,-0.1341670382239024,0.13084751260000002,2.357334344653023,1.2990032032700423,-1.2198304135582236, ,0.12181892369508443,0.05231363922738191,0.046304684651162796,0.15133223182698702,0.15642462357338024,0.10983166003478974, ,1.5018529891967773
