NicholasDascanio/dvrk_moveit_final/test/execution/third_experiment_notsharpbends/thirdexp_400vel5.0/thirdexp_400vel5.0_5.csv
Current Position (x),Current Position (y),Current Position (z), ,Planned Position (x),Planned Position (y),Planned Position (z), ,Position Error,,Cartesian linear Velocity(x),Cartesian linear Velocity(y),Cartesian linear Velocity(z),Cartesian Angular Velocity(x),Cartesian Angular Velocity(y),Cartesian Angular Velocity(z), ,Total Linear Velocity, ,Total Angular Velocity, ,MSE, ,Joint 1 Position,Joint 2 Position,Joint 3 Position,Joint 4 Position,Joint 5 Position,Joint 6 Position, ,Joint 1 Velocity,Joint 2 Velocity,Joint 3 Velocity,Joint 4 Velocity,Joint 5 Velocity,Joint 6 Velocity, ,Time Stamp
0.00813465311379699,0.019377268488222375,-0.07574891309888747, ,0.008305069241848612,0.01931740219017742,-0.07607968944867478, ,0.0003768801187650189, ,0.0003903599811784187,0.0003289628907733906,-0.0016462520605161376,0.06786896709396079,-0.006556578492805553,-0.14567871027717777, ,0.0017235844467751585, ,0.0681849354030739, ,3.140667656375157e-05, ,0.1926435715475304,-0.1779626563536296,0.09080770708000001,2.2835234845464703,1.2431188748659772,-1.2653322862031142, ,0.0007168954282327486,-0.00012364943541083486,0.0017181675938539435,0.002402399155343454,0.0,-0.15851232806583093, ,0.031136035919189453
0.008193461307609434,0.019424999275985524,-0.07595167565780571, ,0.008452478980071967,0.0193834903083435,-0.07643486765645742, ,0.000549806926660305, ,0.0032892241711746898,0.002418162682160991,-0.013682407635911732,0.028146504522847223,-0.04940699021569621,-0.13888668742511193, ,0.014278472786712574, ,0.05686190217977276, ,4.2122138428423815e-05, ,0.19275168980776955,-0.1779626563536296,0.09101770606000001,2.2852010040943465,1.2425723288669153,-1.270604126398168, ,0.006518433530587072,6.420766200910241e-05,0.013791178805194806,0.0,-0.050131886040329844,-0.13931293911942855, ,0.05899405479431152
0.00832561554201297,0.019519653221382396,-0.07642917964843239, ,0.008599264005199812,0.019448714828165556,-0.07678763048807742, ,0.00045651149106997754, ,0.005066657097960459,0.003629727984310189,-0.016373114016073418,0.08248724153152148,-0.01636796853790918,-0.2641471937784311, ,0.017519269447432373, ,0.08409550661517419, ,4.322495426547817e-05, ,0.19309149005423543,-0.1779317654221327,0.09150770368000001,2.2868785236422227,1.2413426003690264,-1.2728685148705228, ,0.01555687566532308,0.0010763610303821001,0.017164667586206897,0.10642804193144109,-0.0167567948920204,-0.17348277049165628, ,0.0863029956817627
0.008459117358317735,0.0195932040723834,-0.07683428567933204, ,0.00874542552541132,0.0195130807797781,-0.07713798831045184, ,0.00042500281965122423, ,0.0033960548152076006,0.0014856240684436427,-0.008833190437484718,-0.07835744778577006,0.012032667191710124,0.19670738026649748, ,0.009579432158823675, ,0.07927593991540058, ,4.3052413241583944e-05, ,0.1936861404855507,-0.1778699835591389,0.09192251648000001,2.2877172834161605,1.2401128718711374,-1.2691703553126161, ,0.021182353026444372,0.0037213549451046014,0.009532502405745064,0.011632366325290024,0.02920161799400179,0.22264635283835563, ,0.11913299560546875
0.008534790756013499,0.019632539404448562,-0.07699748171406882, ,0.008890964753599996,0.019576593181575532,-0.07748595146362433, ,0.0006071182690722822, ,0.0036873693167482472,0.0015574323019643805,-0.009631179970047189,0.012046798008592732,0.0038467724982452814,-0.007051727570821533, ,0.010429856924653218, ,0.012646063341730539, ,4.644845433113092e-05, ,0.1941263362593815,-0.1778004789632709,0.09210529337000001,2.2896044929075217,1.2409326908697302,-1.2682052879319834, ,0.021870694067405112,0.0056459223204691905,0.010350104951267057,0.023780772963835278,0.028424881226960415,0.010712174034580819, ,0.14761686325073242
0.008666921549395794,0.01968860928351249,-0.07732044848627498, ,0.009035882907373104,0.01963925704021529,-0.0778315302608316, ,0.0006322758163039881, ,0.005274451113881206,0.002108023536192463,-0.012982204616921008,0.01542435074261183,-0.026721879639966264,-0.06899422621258854, ,0.014170435226113177, ,0.03085399615228594, ,4.996058100857043e-05, ,0.19496811414267198,-0.17770780616878018,0.09244751393,2.29002387279449,1.2410693273694955,-1.2688067782765233, ,0.03163231385282359,0.006982829407664845,0.013672799587982834,0.036451915000200605,0.0,-0.03591300906002978, ,0.17242789268493652
0.008868183318819929,0.019792131266490553,-0.0778223997528092, ,0.00918018120904978,0.0197010773506214,-0.07817473498856814, ,0.00047934707411257825, ,0.005443122257069464,0.0022945465070192874,-0.013702474912639614,-0.004281821877602234,-0.03409019501999623,0.0015787632217103302, ,0.014921472524848121, ,0.03435803999123875, ,5.0384893080505345e-05, ,0.19606474221081185,-0.17762285610716372,0.09298028912,2.2925401521163047,1.2409326908697302,-1.2664083556488912, ,0.03419709605710659,0.003294342561875756,0.014441352239347238,0.0,0.0,0.00245886643746078, ,0.2009139060974121
0.008981370259734008,0.01984442955326891,-0.07809454160768492, ,0.009323860885657802,0.019762059095988493,-0.07851557590664707, ,0.0005489577415255243, ,0.006337370281729862,0.0031663778112670533,-0.013579902110627134,0.01579338009273288,-0.005718738995859108,-0.1321878155394774, ,0.015316721315792503, ,0.01679685591487787, ,5.15936741412772e-05, ,0.1970300838200899,-0.17753018331267303,0.09338213902,2.29463705155115,1.2409326908697302,-1.2661633194284696, ,0.0362894613990328,0.0023550645778525887,0.012454113776387804,0.08335129915437746,0.0,0.018907425905635808, ,0.22632098197937012
0.009148077809599208,0.019911687666571587,-0.07846498788493725, ,0.009466923168929357,0.019822207247785967,-0.07885406324826143, ,0.0005109292973183898, ,0.0048712532374975475,0.0018455337062105246,-0.011585136543884744,-0.021013974499819517,-0.02998059227002859,0.03530693597392048, ,0.012702381332059089, ,0.03661178537641631, ,5.2123063119082825e-05, ,0.19779463437463815,-0.17742206505243388,0.09366343395000001,2.2948467414946343,1.2409326908697302,-1.265509889507345, ,0.031748725847598115,0.0039638459189148476,0.012224721043745205,0.0,0.0,0.03998331058362333, ,0.25211191177368164
0.009323725688443755,0.019989035447221786,-0.07886527134658078, ,0.009609369295295636,0.0198815267657636,-0.07919020722004044, ,0.00044579559058522013, ,0.006323446229826484,0.0028074622892549366,-0.016020521470625607,-0.02069694569844719,-0.030939060472258147,0.02304633986233229, ,0.017450642535960428, ,0.03722348679036894, ,5.1882733454273284e-05, ,0.19843562120319877,-0.1773062240593205,0.09392009937000001,2.29694364092948,1.2410693273694955,-1.2648045200096356, ,0.03353248818320522,0.005882752106186109,0.015141455817490494,0.08526465934083051,0.0,0.03400500988977344, ,0.27692699432373047
0.009448428652341773,0.02004649766125416,-0.07917876253327298, ,0.009751200505880448,0.01994002259795585,-0.07952401800210623, ,0.00047139057389694735, ,0.006591975441731386,0.0030764250155467235,-0.01549473852077726,0.000295111039193819,-0.009740487890449831,-0.08643945728846808, ,0.017117402049608172, ,0.009744911581226333, ,5.1924676593976e-05, ,0.19950135833984176,-0.17715949213471024,0.09442435618000002,2.298201780590387,1.2412059638692612,-1.2633640418506615, ,0.03372314909682686,0.007827622439796721,0.01652366340248963,0.12420877235128247,0.0004783274747172076,0.03860367162812972, ,0.30116987228393555
0.009615562902715768,0.0201158049040681,-0.07957509563806318, ,0.009892418046492997,0.019997699680687604,-0.07985550574812803, ,0.0004113726343016062, ,0.005068220833774901,0.0016695922238074874,-0.011075538020798425,-0.019078741148449777,-0.02523232320460866,0.024478339289274828, ,0.012293979952149746, ,0.03163334208480274, ,5.188937151985143e-05, ,0.20048214541486828,-0.17699731474435154,0.09484565043000001,2.299459920251294,1.2413426003690264,-1.2619235636916875, ,0.033544341307342095,0.006316536205229684,0.011764262570162482,0.015949668075005106,0.004757158790938033,0.04421754391424695, ,0.3270888328552246
0.00972465390408768,0.020162554412109745,-0.07980729080434186, ,0.010033023167619736,0.020054562938579247,-0.0801846805853741, ,0.0004991761291109148, ,0.005867311330329782,0.0027071722377939476,-0.012508052478756183,5.479631054355807e-05,-0.0033959629310135794,-0.07752263436107608, ,0.014078547531028093, ,0.0033963599197450217, ,5.257839739650801e-05, ,0.20110768677768046,-0.17688147375123817,0.09509583440000001,2.3013471297426547,1.241479236868792,-1.261381551674259, ,0.03148538206983105,0.005982177779683621,0.013498992813559325,0.12820922373885815,0.004332278264008267,0.05123397641891956, ,0.34873104095458984
0.00985027209328048,0.020215903670360903,-0.08013615131187331, ,0.01017301712441539,0.020110617284553465,-0.08051155261476393, ,0.0005061380408254714, ,0.006042407160423556,0.002753723320122306,-0.0168434347896542,-0.009333113513354474,-0.02006258074753118,0.006210286705302475, ,0.018105109000761545, ,0.022127195900893463, ,5.3236173255380376e-05, ,0.201779564537738,-0.1767347418266279,0.09544324012000001,2.3019761995731085,1.2416158733685574,-1.2603494672159876, ,0.030367021298710647,0.006203649078653851,0.017757872374581943,0.020237367866819657,0.007459972691735437,0.027746323311819084, ,0.371412992477417
0.009988374376182867,0.020284433618521218,-0.08048767730798387, ,0.01031240117669332,0.020165867619840128,-0.0808361319109173, ,0.0004903793162418095, ,0.007167388001246595,0.003488633736352896,-0.0177151736522771,0.010327485050618021,-0.007680074971771675,-0.09063284015854636, ,0.019425997880087552, ,0.012870072040102586, ,5.3703491590154045e-05, ,0.20243599683204708,-0.1766034553677661,0.09581786793000001,2.3040730990079537,1.2417525098683229,-1.2594807402379973, ,0.034633920276814154,0.0071169183654398215,0.01891782840855107,0.11705470184622506,0.007192537598104792,0.024170708051110733, ,0.39301490783691406
0.01011788530908568,0.020337905968657997,-0.08081969551227286, ,0.010451176588915232,0.020220318833983304,-0.08115842852220326, ,0.0004895404615227752, ,0.006032409514695979,0.0022919025977145313,-0.014561653689042938,-0.0182596137937244,-0.02466741995034021,0.021199495756598196, ,0.0159274775225088, ,0.03069029892629922, ,5.411385137646599e-05, ,0.20314648825647572,-0.17647216890890427,0.09616786623000001,2.3044924788949226,1.2417525098683229,-1.2585005953563106, ,0.03523837413979605,0.006834806480453332,0.015434894883720933,0.021343073488448206,0.006382079009024049,0.04602421818465388, ,0.4156649112701416
0.010290169802310564,0.020409615581781088,-0.08119620779940488, ,0.010589344630179997,0.020273975804847563,-0.08147845247078792, ,0.00043308865286612866, ,0.005623674651113263,0.0021909278239392173,-0.013335194469336452,-0.0043692540270990725,0.0031584633709832452,0.030703801290584254, ,0.014637393649359383, ,0.0053912753524374725, ,5.411500619370236e-05, ,0.20412727533150224,-0.17627137785417443,0.09657749387,2.307008758216737,1.2425723288669153,-1.2567187405742724, ,0.032745666514310136,0.007154015418355201,0.014428271304347828,0.03642444627059264,0.036325705916888384,0.06401816093282979, ,0.44243288040161133
0.010405583523464542,0.02044874965312066,-0.08146825946022908, ,0.010726906574212238,0.020326843398624388,-0.0817962137526807, ,0.00047504068853579444, ,0.005456488530772753,0.001717702938371484,-0.012706974855195698,-0.017573532489599825,-0.017928679276882603,0.04867818704176902, ,0.013935242389048006, ,0.025105104132116512, ,5.471274312028545e-05, ,0.20483004402305668,-0.17610920046381573,0.09686786283000001,2.3072184481602216,1.242982238366212,-1.2552560620022692, ,0.034184777218469305,0.008104000781198087,0.013544907755102044,0.0,0.019044786592547887,0.05027156642830645, ,0.46221399307250977
0.010518943260725767,0.02049633665008832,-0.08169834420920231, ,0.010863863699350095,0.020378926469838594,-0.08211172233777954, ,0.0005510324278961088, ,0.006562055134199945,0.0027862697168133154,-0.014528986348658993,0.02290829219212505,0.011658066506072259,-0.048630719244380505, ,0.0161837977878689, ,0.025704079800957517, ,5.5713000418226584e-05, ,0.20544786265299464,-0.1759701912720797,0.09711545422000001,2.309525037538551,1.2435287843652734,-1.2546399099952275, ,0.036696419782857995,0.007284473999678311,0.015833808667992052,0.09302643969646061,0.042787100293640586,0.03337163521912667, ,0.48137903213500977
0.010668878329765836,0.020554737072890863,-0.08207734199357133, ,0.011000217288532507,0.020430229861355807,-0.08242498816991653, ,0.0004961304417673355, ,0.006389773816732699,0.00246260673943429,-0.01653532169609269,-0.03054526961627828,-0.02452041945805472,0.05769137027965128, ,0.01789722059358334, ,0.0391696723269758, ,5.631951149731087e-05, ,0.20629736326915932,-0.17580801388172096,0.09752248928000001,2.3097347274820357,1.2438020573648043,-1.252902456039247, ,0.03464656500856911,0.007564257268948048,0.017465802105263162,0.004513885182662879,0.008396926384740008,0.06810987801841878, ,0.5041158199310303
0.010778729578481487,0.020603156674777072,-0.08232776793702169, ,0.011135968629286147,0.020480758404388906,-0.08273602116690054, ,0.0005561220870639301, ,0.006869593824455952,0.003048180276583882,-0.01536666991282533,0.033766409767319365,0.022771370609139092,-0.08016339596586745, ,0.017106059351039607, ,0.04072720087552176, ,5.7208992302710614e-05, ,0.20687656823472617,-0.17568445015573336,0.09779600647000002,2.311412247029912,1.2444852398636317,-1.2523160431957612, ,0.0355952518974009,0.008474255232614773,0.016873741016949155,0.12445979094309308,0.04830447466767941,0.03186414596228514, ,0.5251028537750244
0.01092976117995149,0.020660557578492084,-0.08268253618179466, ,0.011271119013711701,0.020530516918505524,-0.08304483122056115, ,0.0005144836625530641, ,0.006185588071118205,0.0021506625266865557,-0.01491915458838667,-0.0389865529951105,-0.032258785746188734,0.06526361186735498, ,0.016293189458219427, ,0.050602172217491415, ,5.78122765166476e-05, ,0.20772606885089087,-0.17551455003250044,0.09817452315000001,2.31225100680385,1.2447585128631626,-1.2505785892397805, ,0.03578316046699501,0.0071888624370838655,0.015739932332015812,0.0,0.0,0.07408391706294645, ,0.5441348552703857
0.011041865912082699,0.020709263023014585,-0.08293109056213759, ,0.011405669738469817,0.02057951021163474,-0.0833514281967913, ,0.0005708526458388004, ,0.006780689369303031,0.003111907584370179,-0.015215442762498615,0.03202697475166805,0.026055970634210224,-0.08222362982149806, ,0.016946132762241398, ,0.04128728499110435, ,5.866006585451631e-05, ,0.20829755108358347,-0.17536781810789018,0.09844674405,2.3143479062386954,1.2454416953619898,-1.2499104976561541, ,0.03359183771981267,0.008029213149770073,0.016731944873949585,0.13472114529231324,0.04718536648323461,0.040716408033010736, ,0.5660078525543213
0.011208359398666629,0.020769741191634973,-0.08333406180378385, ,0.011539622104766804,0.02062774308007481,-0.0836558219355879, ,0.0004831438983967706, ,0.00627220421943563,0.002185830858730177,-0.015132619995952612,-0.042623664119831046,-0.02125557042476072,0.0596198177901411, ,0.016526178936922716, ,0.04762956249577389, ,5.930948913802954e-05, ,0.2092165562956162,-0.17514385885453765,0.09887711233000002,2.3149769760691488,1.2459882413610515,-1.2478241283265823, ,0.03692487998384077,0.009549215822771505,0.017427583719912477,0.0,0.01933081758673121,0.06668156078748282, ,0.5824320316314697
0.011283536299865487,0.02080293859967875,-0.08350383120992813, ,0.011672977418339659,0.02067522030850008,-0.08395802225109364, ,0.0006117727098645559, ,0.0077356700550442305,0.0038878355145526276,-0.016680133423213207,0.04701850547742183,0.03211242825485056,-0.12455883976605332, ,0.01879315586070948, ,0.05693809458123033, ,6.053985344108905e-05, ,0.20959497020645318,-0.1750589087929212,0.0990624818,2.316235115730056,1.2463981508603477,-1.247341594636266, ,0.037642578960123275,0.005566413504236928,0.018500361811846694,0.1780410562983639,0.051018906836923075,0.03828454604540368, ,0.5998318195343018
0.011427646726657891,0.02086321787096258,-0.08384800862696552, ,0.011805736989440985,0.020721946669969037,-0.08425803893163765, ,0.0005753561069381844, ,0.0072913128008541325,0.0026776933986358245,-0.018318157115172724,-0.026421469061293987,-0.018990286444432028,0.03604628784017535, ,0.019896938568361472, ,0.032538023050387326, ,6.153105431161078e-05, ,0.2103286298295045,-0.17489673140256248,0.09943322074000001,2.3177029453344478,1.2469446968594096,-1.2460720127081002, ,0.037375715462178334,0.010666756604993225,0.019425379902439026,0.030768942581520457,0.013296073876546868,0.07142921913376563, ,0.6185219287872314
0.011580254936994078,0.020923726656434032,-0.08421633279247065, ,0.011937902132823487,0.02076792692593113,-0.08455588173977563, ,0.0005171832947083041, ,0.007872911747168912,0.003546080110371987,-0.017259125972262725,0.032748215630189446,0.024770773013883304,-0.12014778577785977, ,0.0192985712645864, ,0.04106136007547542, ,6.220376780633187e-05, ,0.2111086258498012,-0.17470366308070687,0.09982858919000001,2.3189610849953546,1.2474912428584712,-1.2450474670003553, ,0.03698244020205409,0.010078513474957829,0.01891782840855107,0.17575455750500626,0.04024376992033671,0.0448969382978772, ,0.6349389553070068
0.0117035287448519,0.02097231445427154,-0.0844933367496964, ,0.012069474167724198,0.02081316582623473,-0.08485156041232898, ,0.0005362541662281816, ,0.007406966113542189,0.0026399211950368737,-0.0171616626770982,-0.03510290126978769,-0.025781166806271884,0.03693000452375872, ,0.018877367315536152, ,0.0435531944957527, ,6.292514638770439e-05, ,0.21173416721261337,-0.17454148569034814,0.10012673589000001,2.320638604543231,1.2477645158580022,-1.2438817642253588, ,0.039973437893205885,0.009254598577591895,0.01824606130584193,0.04129528955055141,0.003961449742345145,0.08610615931392906, ,0.6520078182220459
0.01177039748816838,0.02099496900710332,-0.08465192826493495, ,0.012200454417848328,0.0208576681091351,-0.08514508466042378, ,0.0006685833753243948, ,0.0071766908345089805,0.0024144663419552207,-0.016371614305120564,-0.005918346089771238,-0.012788167385727066,0.02759295292676628, ,0.018037857245421035, ,0.014091233778052877, ,6.417959680579995e-05, ,0.2121203038563246,-0.17445653562873167,0.10029784617000001,2.320638604543231,1.2481744253572984,-1.243480909275183, ,0.04102764442648974,0.009402148197454184,0.01762036672566372,0.023158271410728765,0.03036039095203463,0.04855376747068295, ,0.6680889129638672
0.01192906468986319,0.021053403952779385,-0.0849973253297257, ,0.012330844211353031,0.02090143850130116,-0.08543646416953049, ,0.0006142989524300687, ,0.008468596786266625,0.003621639507857619,-0.018154580770313837,0.010345884989684887,0.020750287889673577,-0.07187448068826141, ,0.020357362481399438, ,0.023186414375969782, ,6.541757557542471e-05, ,0.2129620817396151,-0.1742171309096307,0.10067506656000001,2.3227355039780764,1.2491308808556565,-1.2421371873574032, ,0.04115218627860832,0.01045823431063305,0.01988615670411985,0.16950712368844462,0.03903047291597879,0.09216318074872584, ,0.6841068267822266
0.012039553473266976,0.021095683880283992,-0.0852648528858562, ,0.012460644880830773,0.020944481717823888,-0.0857257085995012, ,0.0006423146084715138, ,0.008144155778960636,0.0031806663301004396,-0.020240625077824898,0.007577334371901461,0.019251306345590757,0.04614279833318201, ,0.022048283724509864, ,0.020688774613476277, ,6.67201653712693e-05, ,0.2135412867051819,-0.17407039898502044,0.10096673181000002,2.32336457380853,1.2500873363540146,-1.241120180400186, ,0.041349429872972014,0.0108826767842283,0.022001120883977904,0.044300098626955386,0.06824816018842411,0.08075345113316343, ,0.6980609893798828
0.012116890153336618,0.021123711068645287,-0.08545522861857786, ,0.012589857763292427,0.02098680246222428,-0.08601282758460824, ,0.0007438809941768874, ,0.008297408829802663,0.0028377739013635307,-0.020352654962164162,-0.0369470093704994,-0.01819155261081054,0.10079729902496458, ,0.022161464708205833, ,0.0411826492052838, ,6.838121868025936e-05, ,0.21394286881464158,-0.17397000345765554,0.10117024934,2.3235742637520147,1.2503606093535455,-1.2401178351054705, ,0.044720519113322706,0.010883035861596547,0.021730984338335608,0.0,0.02989030894023977,0.10551746050610408, ,0.7113909721374512
0.012310976004219477,0.021200917596039138,-0.08589077117560068, ,0.012718484200150287,0.021028405426460794,-0.08629783073358135, ,0.0006012660493881517, ,0.009300949227145047,0.003524132060074729,-0.02053013062767174,0.012850562184146427,-0.005112724722240155,-0.07459304177141686, ,0.0228125716851924, ,0.013830157459065698, ,6.941042485481036e-05, ,0.2148927649581712,-0.17372287600568034,0.10164080261000001,2.3263002330173133,1.2509071553526072,-1.2384398594766013, ,0.04683955654416129,0.012313084411375474,0.022184974261838443,0.12001203244609061,0.026546680149180487,0.04036789623377654, ,0.7267239093780518
0.012329058458851445,0.021207948527652676,-0.08592969736472572, ,0.012846525537200861,0.02106929529093756,-0.08658072762964554, ,0.0008431116788828324, ,0.00882588473843049,0.003298792721030986,-0.019897142837126992,0.07418191477173881,0.035228775390345454,-0.07313301884999653, ,0.022015325750790543, ,0.08212198229553787, ,7.134061767429979e-05, ,0.21499316048553613,-0.17369970780705768,0.10168487647,2.3265099229607977,1.2511804283521382,-1.2385810165438536, ,0.04707189561432083,0.012409695509150095,0.022031551203319507,0.08455567556351175,0.09553140869299956,-0.016464494243949412, ,0.7445378303527832
0.012508205682771696,0.02126584024575552,-0.08635214254593161, ,0.012973983124607236,0.021109476724511616,-0.08686152783055735, ,0.0007077227877438307, ,0.007913926367879843,0.0022981807444209953,-0.018252053788342004,-0.03510602319730384,-0.02638355672413475,0.07722218892351913, ,0.02002621613742299, ,0.04391495080860159, ,7.295885643693056e-05, ,0.21597394756056265,-0.17344485762220826,0.10213857797,2.326719612904282,1.2520002473507308,-1.2380243428639237, ,0.044344365214238686,0.0122590029141546,0.01944909831501832,0.0,0.01952879952982442,0.08277809230767055, ,0.7553060054779053
0.012595264465993504,0.021293316493716283,-0.08653134626306015, ,0.013100858316881731,0.021148954384501806,-0.08714024086864247, ,0.0008044987267485802, ,0.008824631816313796,0.00296187594992884,-0.016833521988687653,0.002721407040483333,-0.006498398054299071,-0.1020080552097973, ,0.01923575572676819, ,0.007045131785055179, ,7.489343493127341e-05, ,0.2164373115330161,-0.17330584843047223,0.10233042889,2.3277680626217045,1.2520002473507308,-1.237044197982237, ,0.046540922784929266,0.013902276817824608,0.018308978758620694,0.1635014817391392,0.012438163556664534,0.060956689972591085, ,0.7686748504638672
0.012670355784603904,0.021319603056234655,-0.08667647225208203, ,0.013227152472867758,0.021187732916695876,-0.08741687625083143, ,0.0009357405447706531, ,0.009367866816465743,0.003279117467650958,-0.018940219878337293,-0.017487535342118228,-0.013447026876789198,-0.08324790469032758, ,0.021383205304571547, ,0.022059782110814326, ,7.725836729203758e-05, ,0.21682344817672733,-0.17319000743735885,0.10248857627,2.3292358922260963,1.2521368838504963,-1.236338828484528, ,0.04667827917288282,0.014541364014476064,0.020395405275288096,0.16747903872400982,0.0,0.0899018978105559, ,0.7808058261871338
0.012826286702879048,0.021370322479668226,-0.08703011372891821, ,0.01335286695572208,0.021225816955359373,-0.08769144345869649, ,0.0008576279034223541, ,0.009102772067258218,0.002980339438812101,-0.02084737130322854,0.04368836677421149,0.0177282512253042,-0.00036648014907658764, ,0.022942444785455453, ,0.04714828040426988, ,7.926787071421415e-05, ,0.2181672036968424,-0.17280387079364762,0.10311857321000001,2.330494031887004,1.253639885347916,-1.235032384480831, ,0.04981466748476156,0.014885794754269925,0.02585846025974026,0.021678021942806314,0.04029252926427423,0.09231951130271084, ,0.7918398380279541
0.012924031051851541,0.02140262783717726,-0.08725803872172226, ,0.013478003132896578,0.021263211123242913,-0.08796395194848698, ,0.0009080944721905314, ,0.009892052605031242,0.0032881246253589937,-0.02415563387827713,-0.023727232880354592,-0.01285736337454778,0.07001029430286733, ,0.0263089170501936, ,0.02698675877039691, ,8.140152771541874e-05, ,0.2181672036968424,-0.17280387079364762,0.10311857321000001,2.330494031887004,1.253639885347916,-1.235032384480831, ,0.04981466748476156,0.014885794754269925,0.02585846025974026,0.021678021942806314,0.04029252926427423,0.09231951130271084, ,0.8031289577484131
0.01315563797647344,0.02149160537771038,-0.08779484828985971, ,0.013602562376120102,0.021299920031590803,-0.08823441115116641, ,0.000655515217181602, ,0.010270541091020371,0.0036231135383228497,-0.024439085844922142,0.027551026823999816,0.02059875654773937,0.014119683893642224, ,0.0267559317339051, ,0.03439998738678272, ,8.25755814745644e-05, ,0.21923294083348538,-0.17247179328005596,0.10369931113000001,2.333429691095787,1.2545963408462744,-1.2328718751616456, ,0.051240249221636495,0.015110977955170506,0.026636808561872914,0.05730676045447125,0.0832748630522506,0.05539834142053878, ,0.8146958351135254
0.01315563797647344,0.02149160537771038,-0.08779484828985971, ,0.013726546061379912,0.021335948280148582,-0.08850283047244636, ,0.0009227155272851412, ,0.010270541091020371,0.0036231135383228497,-0.024439085844922142,0.027551026823999816,0.02059875654773937,0.014119683893642224, ,0.0267559317339051, ,0.03439998738678272, ,8.495230254097794e-05, ,0.21923294083348538,-0.17247179328005596,0.10369931113000001,2.333429691095787,1.2545963408462744,-1.2328718751616456, ,0.051240249221636495,0.015110977955170506,0.026636808561872914,0.05730676045447125,0.0832748630522506,0.05539834142053878, ,0.8232028484344482
0.013230250610485678,0.021516469030486304,-0.08797152381102531, ,0.013849955568903229,0.021371300457171567,-0.08876921929282335, ,0.0010205029308368156, ,0.010378154767947886,0.0033790051110174973,-0.02469222160720254,0.00909107259808124,0.005019438903417651,0.05970286928486867, ,0.026996843886405716, ,0.010384276035108178, ,8.762005871942352e-05, ,0.2196190774771966,-0.17236367501981684,0.10389116205000001,2.3336393810392715,1.2551428868453358,-1.232500759375026, ,0.05413402256615561,0.015173799417727977,0.02677111179831933,0.01640471373703381,0.0747088817047657,0.06492065097132427, ,0.8314599990844727
0.013395668938286653,0.021572864200915084,-0.08834559764263146, ,0.01397279228313862,0.0214059811394328,-0.08903358696761327, ,0.0009133732110543544, ,0.013329831878750318,0.0049488625703583,-0.028981957948798973,-0.020104419850585725,-0.00549368451545355,-0.05994259149385447, ,0.032282031305387114, ,0.020841012923071157, ,8.986320711561691e-05, ,0.22042996442899018,-0.17211654756784164,0.10429430824000001,2.3351072106436632,1.2556894328443977,-1.2308227837461567, ,0.06230921967069651,0.018151672065507034,0.03129432518664047,0.19446666254923825,0.023633660196536982,0.13824578089846923, ,0.8399360179901123
0.013520913301331006,0.021622002740957207,-0.08862672198454351, ,0.014095057592737215,0.021439994892231674,-0.08929594282698762, ,0.0009003471887631134, ,0.012678596073175985,0.005011863977713509,-0.029353524896671195,0.019046788291081567,0.01761559023482367,-0.04537206577386635, ,0.03236502746449246, ,0.025943541996325307, ,9.201596331840278e-05, ,0.22100916939455703,-0.17196209291035716,0.10460023268000002,2.3367847301915394,1.2562359788434594,-1.2298799167785528, ,0.05789929320223964,0.015523792173805133,0.03192146597194389,0.1479956873528528,0.06439585153142387,0.09185134530160699, ,0.8480498790740967
0.013651987999256463,0.021667792475290215,-0.08894039301732568, ,0.014216752890533759,0.021473346269400676,-0.0895562961760069, ,0.0008579658561258711, ,0.012850511385255763,0.004187046950675481,-0.031074419360378264,0.025387845534946173,0.02137855096611874,0.014782133387151028, ,0.03388637696205365, ,0.033189699725564695, ,9.398190239330367e-05, ,0.22161926529162077,-0.17174585638987888,0.10494115695000002,2.337833179908962,1.2571924343418175,-1.2291079460417573, ,0.06102697206332526,0.022708050145602003,0.03367613429175476,0.06974720294465005,0.0947472585967138,0.06767420413470422, ,0.8566868305206299
0.013690161018951364,0.0216813301004563,-0.08902824132061463, ,0.014337879573527772,0.021506039813315732,-0.08981465629465646, ,0.0010337864973511649, ,0.012943387534487046,0.004391162206657103,-0.031771412639877296,0.014143469066260642,0.016671341559241232,0.022970087399709956, ,0.03458664839972851, ,0.021861815424093486, ,9.649642008618412e-05, ,0.2217968881477279,-0.17168407452688508,0.10503708241000001,2.338252559795931,1.2574657073413484,-1.229004066888588, ,0.05979643450439242,0.02176036265958972,0.034329335172413794,0.0723644566162276,0.08479181406371143,0.08232070478776339, ,0.8673999309539795
0.013690161018951364,0.0216813301004563,-0.08902824132061463, ,0.014458439042864358,0.021538080054901994,-0.09007103243788177, ,0.001303144278976898, ,0.012943387534487046,0.004391162206657103,-0.031771412639877296,0.014143469066260642,0.016671341559241232,0.022970087399709956, ,0.03458664839972851, ,0.021861815424093486, ,0.00010018463084633206, ,0.2217968881477279,-0.17168407452688508,0.10503708241000001,2.338252559795931,1.2574657073413484,-1.229004066888588, ,0.05979643450439242,0.02176036265958972,0.034329335172413794,0.0723644566162276,0.08479181406371143,0.08232070478776339, ,0.8729288578033447
0.013887801081215546,0.021752863135121384,-0.08951731675900657, ,0.01457843270381514,0.021569471513644373,-0.0903254338356215, ,0.001078729685546468, ,0.013218717174655531,0.004756475764769109,-0.031167726737269558,-0.0139283864385462,0.0009633726125967681,0.015715854169436258, ,0.03418750847039715, ,0.013960609710861828, ,0.00010308351013297827, ,0.2226772796953895,-0.17139061067766453,0.10556337615000001,2.339510699456838,1.2584221628397065,-1.2272519512701057, ,0.06029030594566124,0.018523705164643918,0.03360508759493671,0.11027932053674593,0.051487308464373986,0.12396554071295626, ,0.8784158229827881
0.013887801081215546,0.021752863135121384,-0.08951731675900657, ,0.014697861965759097,0.02160021869759378,-0.0905778696928435, ,0.0013432317322211087, ,0.013218717174655531,0.004756475764769109,-0.031167726737269558,-0.0139283864385462,0.0009633726125967681,0.015715854169436258, ,0.03418750847039715, ,0.013960609710861828, ,0.00010681159115578205, ,0.2226772796953895,-0.17139061067766453,0.10556337615000001,2.339510699456838,1.2584221628397065,-1.2272519512701057, ,0.06029030594566124,0.018523705164643918,0.03360508759493671,0.11027932053674593,0.051487308464373986,0.12396554071295626, ,0.8838348388671875
0.014051681509173238,0.02180461911190164,-0.08988030783027504, ,0.014816728242163001,0.02163032610337672,-0.09082834918957798, ,0.001230632754085456, ,0.01494070935556074,0.004576480142544457,-0.03283622353312181,-0.007482381943362804,-0.0016139737960856413,-0.02778160942106467, ,0.03636463312697636, ,0.007651978639933941, ,0.00011012432591726052, ,0.22347272118143463,-0.17112031502706668,0.10595615202000001,2.3409785290612297,1.259105345338534,-1.2259304297653546, ,0.07172860284086982,0.02640426865845041,0.035476194922048995,0.14809416990070412,0.05550073344130636,0.1167173021488314, ,0.8902318477630615
0.014218249283087122,0.021859741659352633,-0.09024461658934074, ,0.01493503295056226,0.021659798216202904,-0.09107688148095287, ,0.0011164322891370662, ,0.017174197900564476,0.005917514006321155,-0.0383178416180627,0.017377837135527662,0.014226923559343631,-0.07579384898539192, ,0.042405507092943696, ,0.022456891429808945, ,0.00011302459658814256, ,0.2242449944688571,-0.1708422966435946,0.10635152047000002,2.3430754284960753,1.259788527837361,-1.2246905870007445, ,0.07842722442848825,0.026596676445759745,0.04158958621409923,0.20241668786462932,0.07455366399973411,0.11558066450696064, ,0.8956780433654785
0.014218249283087122,0.021859741659352633,-0.09024461658934074, ,0.015052777512541388,0.021688639509873375,-0.09132347569722721, ,0.0013746455128439744, ,0.017174197900564476,0.005917514006321155,-0.0383178416180627,0.017377837135527662,0.014226923559343631,-0.07579384898539192, ,0.042405507092943696, ,0.022456891429808945, ,0.00011671783234270106, ,0.2242449944688571,-0.1708422966435946,0.10635152047000002,2.3430754284960753,1.259788527837361,-1.2246905870007445, ,0.07842722442848825,0.026596676445759745,0.04158958621409923,0.20241668786462932,0.07455366399973411,0.11558066450696064, ,0.9012930393218994
0.014397022506875183,0.02192282993931655,-0.09065614361000471, ,0.0151699633537144,0.02171685444678916,-0.09156814094382532, ,0.001213096283536605, ,0.018199606560379212,0.006497633018703025,-0.04201704758182533,0.0027709994558748523,0.008444802208713378,-0.01048006641415364, ,0.04624799672733633, ,0.008880437244127464, ,0.00011984773847321608, ,0.22505588142065067,-0.17058744645874518,0.10679744423000001,2.3447529480439515,1.2606083468359537,-1.2233988046595492, ,0.08237581732506143,0.024578332441976374,0.04551089005714286,0.1616091600164445,0.08012508910398708,0.14230563510593758, ,0.9083609580993652
0.014577108497499878,0.021985510148382594,-0.09107697627533692, ,0.015286591903705335,0.02174444747795941,-0.09181088630137169, ,0.0010488573978700813, ,0.01855831112476832,0.00611800273877139,-0.04454113265883817,0.0048342036086711174,0.016948856225201474,0.03264078263664299, ,0.048639010761399475, ,0.01761981674242284, ,0.00012241650647614832, ,0.22586676837244424,-0.17032487354102155,0.10725373831000001,2.3462207776483432,1.2615648023343118,-1.2220550827417698, ,0.08259089778805116,0.030474290802334866,0.04812329764350454,0.11795740972525375,0.10352263559871512,0.13791075775449774, ,0.9153900146484375
0.014577108497499878,0.021985510148382594,-0.09107697627533692, ,0.015402664596128494,0.021771423043009545,-0.09205172082572374, ,0.0012951845811229816, ,0.01855831112476832,0.00611800273877139,-0.04454113265883817,0.0048342036086711174,0.016948856225201474,0.03264078263664299, ,0.048639010761399475, ,0.01761981674242284, ,0.00012572991836312208, ,0.22586676837244424,-0.17032487354102155,0.10725373831000001,2.3462207776483432,1.2615648023343118,-1.2220550827417698, ,0.08259089778805116,0.030474290802334866,0.04812329764350454,0.11795740972525375,0.10352263559871512,0.13791075775449774, ,0.9207899570465088
0.014577108497499878,0.021985510148382594,-0.09107697627533692, ,0.015518182868568837,0.021797785570189833,-0.09229065354800632, ,0.001547214920860936, ,0.01855831112476832,0.00611800273877139,-0.04454113265883817,0.0048342036086711174,0.016948856225201474,0.03264078263664299, ,0.048639010761399475, ,0.01761981674242284, ,0.00013019999698732904, ,0.22586676837244424,-0.17032487354102155,0.10725373831000001,2.3462207776483432,1.2615648023343118,-1.2220550827417698, ,0.08259089778805116,0.030474290802334866,0.04812329764350454,0.11795740972525375,0.10352263559871512,0.13791075775449774, ,0.9235320091247559
0.014767303564558604,0.022045048413825114,-0.09154129808509529, ,0.01563314816256211,0.021823539476382815,-0.09252769347464533, ,0.0013310630870789918, ,0.01881919016890552,0.005938174200598579,-0.045962051647132865,0.012848610159779655,0.02670306467701717,0.030417716268254083, ,0.05001933649163885, ,0.029629973529633778, ,0.00013396445808479507, ,0.22670082352286047,-0.16997735056168145,0.10775410625000001,2.3472692273657656,1.2626578943324351,-1.2206594212474053, ,0.08145660219611225,0.03470992741714366,0.04962246579439253,0.11541647413898988,0.1171644921712165,0.1295895336992452, ,0.9262828826904297
0.014767303564558604,0.022045048413825114,-0.09154129808509529, ,0.015747561923575137,0.021848689167112988,-0.09276284958740219, ,0.0015784965875729343, ,0.01881919016890552,0.005938174200598579,-0.045962051647132865,0.012848610159779655,0.02670306467701717,0.030417716268254083, ,0.05001933649163885, ,0.029629973529633778, ,0.0007510704867224162, ,0.22670082352286047,-0.16997735056168145,0.10775410625000001,2.3472692273657656,1.2626578943324351,-1.2206594212474053, ,0.08145660219611225,0.03470992741714366,0.04962246579439253,0.11541647413898988,0.1171644921712165,0.1295895336992452, ,0.92905592918396
0.014767303564558604,0.022045048413825114,-0.09154129808509529, ,0.015861425600985867,0.02187323903655379,-0.09299613084340601, ,0.0018284309796566258, ,0.01881919016890552,0.005938174200598579,-0.045962051647132865,0.012848610159779655,0.02670306467701717,0.030417716268254083, ,0.05001933649163885, ,0.029629973529633778, ,0.0007690264949379864, ,0.22670082352286047,-0.16997735056168145,0.10775410625000001,2.3472692273657656,1.2626578943324351,-1.2206594212474053, ,0.08145660219611225,0.03470992741714366,0.04962246579439253,0.11541647413898988,0.1171644921712165,0.1295895336992452, ,0.9318499565124512
0.014767303564558604,0.022045048413825114,-0.09154129808509529, ,0.01597474064806353,0.02189719346753672,-0.09322754617518864, ,0.002079230150105635, ,0.01881919016890552,0.005938174200598579,-0.051521233539763296,0.018068413510575088,0.025276740862331094,-0.03994697214816476, ,0.05001933649163885, ,0.029629973529633778, ,0.0007905052433833577, ,0.22759666053627053,-0.16963755031521557,0.10827132596000001,2.3491564368571263,1.2638876228303242,-1.2192118201764561, ,0.09527805377356505,0.03256586875719657,0.05492693627586208,0.21814090337637462,0.10950327798029494,0.16118631160892097, ,0.9351608753204346
0.014987111944191292,0.022117380168534324,-0.09205417575993179, ,0.01608750852194863,0.021920556831559048,-0.09345710449071748, ,0.0017938286088648777, ,0.022274443373642774,0.007715342270744987,-0.051521233539763296,0.018068413510575088,0.025276740862331094,-0.03994697214816476, ,0.05665787535214494, ,0.03106474166667104, ,0.0008066878783104791, ,0.22759666053627053,-0.16963755031521557,0.10827132596000001,2.3491564368571263,1.2638876228303242,-1.2192118201764561, ,0.09527805377356505,0.03256586875719657,0.05492693627586208,0.21814090337637462,0.10950327798029494,0.16118631160892097, ,0.9380998611450195
0.014987111944191292,0.022117380168534324,-0.09205417575993179, ,0.016199730683633017,0.021943333488792897,-0.0936848146734294, ,0.002039539095037635, ,0.022274443373642774,0.007715342270744987,-0.051521233539763296,0.018068413510575088,0.025276740862331094,-0.03994697214816476, ,0.05665787535214494, ,0.03106474166667104, ,0.0008262569452426562, ,0.22759666053627053,-0.16963755031521557,0.10827132596000001,2.3491564368571263,1.2638876228303242,-1.2192118201764561, ,0.09527805377356505,0.03256586875719657,0.05492693627586208,0.21814090337637462,0.10950327798029494,0.16118631160892097, ,0.9408688545227051
0.014987111944191292,0.022117380168534324,-0.09205417575993179, ,0.016311408597939777,0.021965527788092666,-0.09391068558226387, ,0.0022854867081194626, ,0.022274443373642774,0.007715342270744987,-0.051521233539763296,0.018068413510575088,0.025276740862331094,-0.03994697214816476, ,0.05665787535214494, ,0.03106474166667104, ,0.0008490574102876063, ,0.22759666053627053,-0.16963755031521557,0.10827132596000001,2.3491564368571263,1.2638876228303242,-1.2192118201764561, ,0.09527805377356505,0.03256586875719657,0.05492693627586208,0.21814090337637462,0.10950327798029494,0.16118631160892097, ,0.9436569213867188
0.01522637938417715,0.02220165509694913,-0.09260365346315867, ,0.016422543733503166,0.021987144067003722,-0.09413472605169658, ,0.0019547397279277203, ,0.028388818381092293,0.010037994767806698,-0.06664065388152016,0.025537156094834933,0.0381477192563705,-0.13112408101144873, ,0.0731277177121625, ,0.045892052913403814, ,0.0008660679074820696, ,0.22866239767291352,-0.16924369093863012,0.10890650806,2.3520920960659097,1.2649807148284475,-1.217244407501108, ,0.11364903180655184,0.04564547453509898,0.07207607022624436,0.3490004097978919,0.11899815138027112,0.20117390214852474, ,0.94651198387146
0.01522637938417715,0.02220165509694913,-0.09260365346315867, ,0.016533137562748747,0.022008186651771316,-0.09435694489177292, ,0.002195239806990448, ,0.028388818381092293,0.010037994767806698,-0.06664065388152016,0.025537156094834933,0.0381477192563705,-0.13112408101144873, ,0.0731277177121625, ,0.045892052913403814, ,0.0008862068756564389, ,0.22866239767291352,-0.16924369093863012,0.10890650806,2.3520920960659097,1.2649807148284475,-1.217244407501108, ,0.11364903180655184,0.04564547453509898,0.07207607022624436,0.3490004097978919,0.11899815138027112,0.20117390214852474, ,0.9493179321289062
0.01522637938417715,0.02220165509694913,-0.09260365346315867, ,0.016643191561872727,0.02202865985734753,-0.09457735088814087, ,0.0024357269192527846, ,0.028388818381092293,0.010037994767806698,-0.06664065388152016,0.025537156094834933,0.0381477192563705,-0.13112408101144873, ,0.0731277177121625, ,0.045892052913403814, ,0.0009093340404862352, ,0.22866239767291352,-0.16924369093863012,0.10890650806,2.3520920960659097,1.2649807148284475,-1.217244407501108, ,0.11364903180655184,0.04564547453509898,0.07207607022624436,0.3490004097978919,0.11899815138027112,0.20117390214852474, ,0.9524619579315186
0.015554808592542012,0.02232142797883581,-0.09338134284970845, ,0.016752707210822438,0.02204856798740111,-0.09479595280208508, ,0.0018736421728726426, ,0.032481030418240596,0.01212414860675279,-0.07818870625382025,0.03165623439702749,0.0571745972086015,-0.0764864414184264, ,0.08553061499904865, ,0.06533092279722574, ,0.0009235150424330941, ,0.229952094062909,-0.16874943603467976,0.10974780027000001,2.3560762049921156,1.266347079826102,-1.2146830432317468, ,0.12636077437878931,0.045755516662714935,0.08472772085106384,0.35447379633207254,0.16006472611299696,0.2548400340118356, ,0.9553289413452148
0.015554808592542012,0.02232142797883581,-0.09338134284970845, ,0.016861685993275522,0.02206791533432471,-0.09501275937055939, ,0.0021056393485068565, ,0.032481030418240596,0.01212414860675279,-0.07818870625382025,0.03165623439702749,0.0571745972086015,-0.0764864414184264, ,0.08553061499904865, ,0.06533092279722574, ,0.0009406472787530037, ,0.229952094062909,-0.16874943603467976,0.10974780027000001,2.3560762049921156,1.266347079826102,-1.2146830432317468, ,0.12636077437878931,0.045755516662714935,0.08472772085106384,0.35447379633207254,0.16006472611299696,0.2548400340118356, ,0.9582309722900391
0.015554808592542012,0.02232142797883581,-0.09338134284970845, ,0.01697012939662025,0.02208670617924361,-0.09522777930622045, ,0.0023382803274195054, ,0.032481030418240596,0.01212414860675279,-0.07818870625382025,0.03165623439702749,0.0571745972086015,-0.0764864414184264, ,0.08553061499904865, ,0.06533092279722574, ,0.0009606134651625252, ,0.229952094062909,-0.16874943603467976,0.10974780027000001,2.3560762049921156,1.266347079826102,-1.2146830432317468, ,0.12636077437878931,0.045755516662714935,0.08472772085106384,0.35447379633207254,0.16006472611299696,0.2548400340118356, ,0.9609780311584473
0.015554808592542012,0.02232142797883581,-0.09338134284970845, ,0.017078038911934847,0.02210494479202407,-0.09544102129746099, ,0.002570869674687162, ,0.032481030418240596,0.01212414860675279,-0.07818870625382025,0.03165623439702749,0.0571745972086015,-0.0764864414184264, ,0.08553061499904865, ,0.06533092279722574, ,0.0009832931300854074, ,0.229952094062909,-0.16874943603467976,0.10974780027000001,2.3560762049921156,1.266347079826102,-1.2146830432317468, ,0.12636077437878931,0.045755516662714935,0.08472772085106384,0.35447379633207254,0.16006472611299696,0.2548400340118356, ,0.9637470245361328
0.015880921764875336,0.022438260801315044,-0.09417897688804404, ,0.017185416033967428,0.022122635431281793,-0.09565249400844283, ,0.0019931325536479247, ,0.03452643573636138,0.012159783114932064,-0.08667462421657783,0.01772899664087546,0.055399524507658435,0.10306327429133025, ,0.09408732950373425, ,0.05812514892293547, ,0.0009973186776348869, ,0.23124951318577872,-0.1682860720622263,0.11061112941000001,2.35859248431393,1.2681233543230528,-1.2119658602326315, ,0.13576100366018712,0.05042345460067523,0.09369889129411767,0.19523958227165336,0.20902952342782197,0.27040955925726684, ,0.9665110111236572
0.015880921764875336,0.022438260801315044,-0.09417897688804404, ,0.01729226226111558,0.02213978234438979,-0.09586220607912997, ,0.002216806688752978, ,0.03452643573636138,0.012159783114932064,-0.08667462421657783,0.01772899664087546,0.055399524507658435,0.10306327429133025, ,0.09408732950373425, ,0.05812514892293547, ,0.0010140239928556824, ,0.23124951318577872,-0.1682860720622263,0.11061112941000001,2.35859248431393,1.2681233543230528,-1.2119658602326315, ,0.13576100366018712,0.05042345460067523,0.09369889129411767,0.19523958227165336,0.20902952342782197,0.27040955925726684, ,0.969221830368042
0.015880921764875336,0.022438260801315044,-0.09417897688804404, ,0.017398579095406222,0.022156389767487142,-0.096070166125322, ,0.002441174263304721, ,0.03452643573636138,0.012159783114932064,-0.08667462421657783,0.01772899664087546,0.055399524507658435,0.10306327429133025, ,0.09408732950373425, ,0.05812514892293547, ,0.00103330980732121, ,0.23124951318577872,-0.1682860720622263,0.11061112941000001,2.35859248431393,1.2681233543230528,-1.2119658602326315, ,0.13576100366018712,0.05042345460067523,0.09369889129411767,0.19523958227165336,0.20902952342782197,0.27040955925726684, ,0.9719228744506836
0.015880921764875336,0.022438260801315044,-0.09417897688804404, ,0.01750436804247503,0.022172461925487205,-0.0962763827386869, ,0.0026655840187385835, ,0.03452643573636138,0.012159783114932064,-0.08667462421657783,0.01772899664087546,0.055399524507658435,0.10306327429133025, ,0.09408732950373425, ,0.05812514892293547, ,0.0010550734634734416, ,0.23124951318577872,-0.1682860720622263,0.11061112941000001,2.35859248431393,1.2681233543230528,-1.2119658602326315, ,0.13576100366018712,0.05042345460067523,0.09369889129411767,0.19523958227165336,0.20902952342782197,0.27040955925726684, ,0.9747028350830078
0.016230466027083522,0.02255571273890068,-0.09505351368477145, ,0.01760963061154628,0.022188003032085946,-0.09648086448679437, ,0.0020185726867164248, ,0.03634802557163477,0.01178493865047095,-0.0901523834661445,0.05348725467015837,0.0879472421063878,0.06667306085005378, ,0.09791586177212731, ,0.10290601900427393, ,0.001067751084831902, ,0.23261643690451644,-0.1677145898295337,0.11155871740000001,2.3606893837487752,1.2705828113188307,-1.2093973730512957, ,0.14184894104405196,0.06267961793822377,0.0977227700613497,0.230698678176182,0.25806783109709996,0.2555792132529574, ,0.9783539772033691
0.016230466027083522,0.02255571273890068,-0.09505351368477145, ,0.01771436831541214,0.02220301728977022,-0.0966836199131485, ,0.0022323992467607307, ,0.03634802557163477,0.01178493865047095,-0.0901523834661445,0.05348725467015837,0.0879472421063878,0.06667306085005378, ,0.09791586177212731, ,0.10290601900427393, ,0.0010828763856361725, ,0.23261643690451644,-0.1677145898295337,0.11155871740000001,2.3606893837487752,1.2705828113188307,-1.2093973730512957, ,0.14184894104405196,0.06267961793822377,0.0977227700613497,0.230698678176182,0.25806783109709996,0.2555792132529574, ,0.9810919761657715
0.016230466027083522,0.02255571273890068,-0.09505351368477145, ,0.017818582670412673,0.022217508889826064,-0.09688465753722159, ,0.0024473626876116753, ,0.03634802557163477,0.01178493865047095,-0.0901523834661445,0.05348725467015837,0.0879472421063878,0.06667306085005378, ,0.09791586177212731, ,0.10290601900427393, ,0.0011003697997640635, ,0.23261643690451644,-0.1677145898295337,0.11155871740000001,2.3606893837487752,1.2705828113188307,-1.2093973730512957, ,0.14184894104405196,0.06267961793822377,0.0977227700613497,0.230698678176182,0.25806783109709996,0.2555792132529574, ,0.9838778972625732
0.016599031953409532,0.022671201606332365,-0.09595195806553182, ,0.017922275196415132,0.02223148201234741,-0.09708398585448616, ,0.0017960548200038665, ,0.036873471068206154,0.011100730875366206,-0.08842558324101926,0.03594199283215672,0.076973559183272,0.07791612516524847, ,0.09644668405963769, ,0.08491966493397617, ,0.0011091759392607699, ,0.23406831068487066,-0.1670581575352246,0.11253482377000001,2.3632056630705893,1.2733155413141395,-1.2068883641970714, ,0.14758466805360929,0.06585492127582983,0.09595669590361447,0.23888125636809596,0.24800432926406682,0.28037100370975654, ,0.9885518550872803
0.016599031953409532,0.022671201606332365,-0.09595195806553182, ,0.01802544741679356,0.02224494082624386,-0.09728161333644846, ,0.001996081778459772, ,0.036873471068206154,0.011100730875366206,-0.08842558324101926,0.03594199283215672,0.076973559183272,0.07791612516524847, ,0.09644668405963769, ,0.08491966493397617, ,0.0011202622622507573, ,0.23406831068487066,-0.1670581575352246,0.11253482377000001,2.3632056630705893,1.2733155413141395,-1.2068883641970714, ,0.14758466805360929,0.06585492127582983,0.09595669590361447,0.23888125636809596,0.24800432926406682,0.28037100370975654, ,0.9918279647827148
0.016599031953409532,0.022671201606332365,-0.09595195806553182, ,0.0181281008584084,0.022257889489249488,-0.09747754843068172, ,0.002199159972489538, ,0.036873471068206154,0.011100730875366206,-0.08842558324101926,0.03594199283215672,0.076973559183272,0.07791612516524847, ,0.09644668405963769, ,0.08491966493397617, ,0.00113358198706852, ,0.23406831068487066,-0.1670581575352246,0.11253482377000001,2.3632056630705893,1.2733155413141395,-1.2068883641970714, ,0.14758466805360929,0.06585492127582983,0.09595669590361447,0.23888125636809596,0.24800432926406682,0.28037100370975654, ,0.9947988986968994
0.016942915957604717,0.022765452678037035,-0.0967277776595856, ,0.01823023705158587,0.022270332147930824,-0.09767179956085846, ,0.0016713818499745426, ,0.03619734782100475,0.008757585283847267,-0.07738522875865145,-0.01293666385165609,0.026677960242607258,0.08388659049063252, ,0.08588024755033878, ,0.029602291456063093, ,0.0011401405219820082, ,0.23553562993097332,-0.16644033890528664,0.11337741227,2.3655122524489194,1.2752284523108557,-1.2039558841410907, ,0.1630531641898123,0.06896580055121422,0.08427942603174604,0.24465268778658938,0.19509645038094242,0.310085649371251, ,0.9979300498962402
0.016942915957604717,0.022765452678037035,-0.0967277776595856, ,0.018331857530097834,0.022282272937695757,-0.09786437512678442, ,0.0018586218431189006, ,0.03619734782100475,0.008757585283847267,-0.07738522875865145,-0.01293666385165609,0.026677960242607258,0.08388659049063252, ,0.08588024755033878, ,0.029602291456063093, ,0.0011487969234414887, ,0.23553562993097332,-0.16644033890528664,0.11337741227,2.3655122524489194,1.2752284523108557,-1.2039558841410907, ,0.1630531641898123,0.06896580055121422,0.08427942603174604,0.24465268778658938,0.19509645038094242,0.310085649371251, ,1.0010850429534912
0.016942915957604717,0.022765452678037035,-0.0967277776595856, ,0.018432963831140754,0.02229371598280111,-0.09805528350442992, ,0.002050621843041087, ,0.03619734782100475,0.008757585283847267,-0.07738522875865145,-0.01293666385165609,0.026677960242607258,0.08388659049063252, ,0.08588024755033878, ,0.029602291456063093, ,0.001159532934389103, ,0.23553562993097332,-0.16644033890528664,0.11337741227,2.3655122524489194,1.2752284523108557,-1.2039558841410907, ,0.1630531641898123,0.06896580055121422,0.08427942603174604,0.24465268778658938,0.19509645038094242,0.310085649371251, ,1.0039479732513428
0.017304470162346187,0.022831887896597725,-0.09743407966610601, ,0.01853355749531559,0.022304665396361466,-0.09824453304596456, ,0.0015637947172648199, ,0.03305752570177776,0.004161385912433093,-0.05936148517383565,0.0080818007762617,-0.0012344161945734324,0.10302665288415673, ,0.06807277767418782, ,0.008130325428706167, ,0.0011642889553641115, ,0.23733502669066764,-0.1656757883507384,0.11415259369000001,2.3676091518837645,1.2774146363071028,-1.2010828824122213, ,0.1793893035131773,0.07646812373768798,0.06555066469135803,0.13564104410302463,0.21177318391630715,0.21222053143829123, ,1.006777048110962
0.017304470162346187,0.022831887896597725,-0.09743407966610601, ,0.018633640066607143,0.02231512528035752,-0.09843213207978867, ,0.0017406449541460998, ,0.03305752570177776,0.004161385912433093,-0.05936148517383565,0.0080818007762617,-0.0012344161945734324,0.10302665288415673, ,0.06807277767418782, ,0.008130325428706167, ,0.001170990769303437, ,0.23733502669066764,-0.1656757883507384,0.11415259369000001,2.3676091518837645,1.2774146363071028,-1.2010828824122213, ,0.1793893035131773,0.07646812373768798,0.06555066469135803,0.13564104410302463,0.21177318391630715,0.21222053143829123, ,1.0095348358154297
0.017304470162346187,0.022831887896597725,-0.09743407966610601, ,0.01873321309236345,0.022325099725644195,-0.09861808891056724, ,0.001923543215335279, ,0.03305752570177776,0.004161385912433093,-0.05936148517383565,0.0080818007762617,-0.0012344161945734324,0.10302665288415673, ,0.06807277767418782, ,0.008130325428706167, ,0.0011796407974187454, ,0.23733502669066764,-0.1656757883507384,0.11415259369000001,2.3676091518837645,1.2774146363071028,-1.2010828824122213, ,0.1793893035131773,0.07646812373768798,0.06555066469135803,0.13564104410302463,0.21177318391630715,0.21222053143829123, ,1.0123050212860107
0.017304470162346187,0.022831887896597725,-0.09743407966610601, ,0.01883227812327538,0.02233459281195926,-0.09880241181926222, ,0.002110410492782223, ,0.03305752570177776,0.004161385912433093,-0.05936148517383565,0.0080818007762617,-0.0012344161945734324,0.10302665288415673, ,0.06807277767418782, ,0.008130325428706167, ,0.0011902177257751485, ,0.23928887810784644,-0.16482628773457372,0.11479166466000001,2.369496361375125,1.2796008203033498,-1.1996800980058822, ,0.19406327517069688,0.08754330402072949,0.05943586388059702,0.24162908980317813,0.20445323191445358,0.12459067420875694, ,1.0151138305664062
0.01765130067832476,0.022865085124153927,-0.0980087552573964, ,0.01893083671335594,0.02234360860793166,-0.0989851090631654, ,0.0016918678955386113, ,0.034005894539340914,0.0025852992379885474,-0.05320631996081151,0.05506072109987544,-0.008017013653327732,-0.08231222468156751, ,0.06319807844660287, ,0.05563747942729993, ,0.0011958542445365359, ,0.23928887810784644,-0.16482628773457372,0.11479166466000001,2.369496361375125,1.2796008203033498,-1.1996800980058822, ,0.19406327517069688,0.08754330402072949,0.05943586388059702,0.24162908980317813,0.20445323191445358,0.12459067420875694, ,1.0186729431152344
0.01765130067832476,0.022865085124153927,-0.0980087552573964, ,0.019028890419919592,0.02235215117108893,-0.09916618887593147, ,0.0018709642748244524, ,0.034005894539340914,0.0025852992379885474,-0.05320631996081151,0.05506072109987544,-0.008017013653327732,-0.08231222468156751, ,0.06319807844660287, ,0.05563747942729993, ,0.0012033554670952905, ,0.23928887810784644,-0.16482628773457372,0.11479166466000001,2.369496361375125,1.2796008203033498,-1.1996800980058822, ,0.19406327517069688,0.08754330402072949,0.05943586388059702,0.24162908980317813,0.20445323191445358,0.12459067420875694, ,1.021385908126831
0.01765130067832476,0.022865085124153927,-0.0980087552573964, ,0.019126440803561927,0.022360224547867333,-0.09934565946761072, ,0.002053834330675658, ,0.034005894539340914,0.0025852992379885474,-0.05320631996081151,0.05506072109987544,-0.008017013653327732,-0.08231222468156751, ,0.06319807844660287, ,0.05563747942729993, ,0.0012127013886730968, ,0.23928887810784644,-0.16482628773457372,0.11479166466000001,2.369496361375125,1.2796008203033498,-1.1996800980058822, ,0.19406327517069688,0.08754330402072949,0.05943586388059702,0.24162908980317813,0.20445323191445358,0.12459067420875694, ,1.024129867553711
0.01800433546065904,0.02288672271350435,-0.09854601351146743, ,0.01922348942813902,0.02236783277361883,-0.0995235290246822, ,0.0016465478264271966, ,0.03410748206044399,0.0017815254149905774,-0.05074714189118185,-0.015408839516750698,-0.0572539979262068,-0.09368635416997326, ,0.06116998099911026, ,0.05928841419132258, ,0.0012174171108225978, ,0.24130451138801903,-0.16389183705679256,0.11538925435000001,2.372222330640424,1.2812404583005352,-1.1981583569453194, ,0.1948602496067162,0.09107192088144989,0.05628555307420496,0.27612914943411404,0.1231296965353532,0.17483553468333984, ,1.0268559455871582
0.01800433546065904,0.02288672271350435,-0.09854601351146743, ,0.01932003786074663,0.022374979872619764,-0.09969980571008617, ,0.001823236127984073, ,0.03410748206044399,0.0017815254149905774,-0.05074714189118185,-0.015408839516750698,-0.0572539979262068,-0.09368635416997326, ,0.06116998099911026, ,0.05928841419132258, ,0.0012239312938028288, ,0.24130451138801903,-0.16389183705679256,0.11538925435000001,2.372222330640424,1.2812404583005352,-1.1981583569453194, ,0.1948602496067162,0.09107192088144989,0.05628555307420496,0.27612914943411404,0.1231296965353532,0.17483553468333984, ,1.0296850204467773
0.01800433546065904,0.02288672271350435,-0.09854601351146743, ,0.01941608767169971,0.02238166985807922,-0.0998744976632568, ,0.0020032455749874607, ,0.03410748206044399,0.0017815254149905774,-0.05074714189118185,-0.015408839516750698,-0.0572539979262068,-0.09368635416997326, ,0.06116998099911026, ,0.05928841419132258, ,0.0012322218712622398, ,0.24130451138801903,-0.16389183705679256,0.11538925435000001,2.372222330640424,1.2812404583005352,-1.1981583569453194, ,0.1948602496067162,0.09107192088144989,0.05628555307420496,0.27612914943411404,0.1231296965353532,0.17483553468333984, ,1.0330870151519775
0.01800433546065904,0.02288672271350435,-0.09854601351146743, ,0.019511640434511823,0.022387906732147498,-0.10004761300015533, ,0.002185311577758675, ,0.03410748206044399,0.0017815254149905774,-0.05074714189118185,-0.015408839516750698,-0.0572539979262068,-0.09368635416997326, ,0.06116998099911026, ,0.05928841419132258, ,0.001242254394488518, ,0.24130451138801903,-0.16389183705679256,0.11538925435000001,2.372222330640424,1.2812404583005352,-1.1981583569453194, ,0.1948602496067162,0.09107192088144989,0.05628555307420496,0.27612914943411404,0.1231296965353532,0.17483553468333984, ,1.036336898803711
0.01800433546065904,0.02288672271350435,-0.09854601351146743, ,0.01960669772587444,0.022393694485924303,-0.10021915981330315, ,0.0023685565666716753, ,0.03410748206044399,0.0017815254149905774,-0.05074714189118185,-0.015408839516750698,-0.0572539979262068,-0.09368635416997326, ,0.06116998099911026, ,0.05928841419132258, ,0.0012539867087820926, ,0.24130451138801903,-0.16389183705679256,0.11538925435000001,2.372222330640424,1.2812404583005352,-1.1981583569453194, ,0.1948602496067162,0.09107192088144989,0.05628555307420496,0.27612914943411404,0.1231296965353532,0.17483553468333984, ,1.0400478839874268
0.01800433546065904,0.02288672271350435,-0.09854601351146743, ,0.019701261125636305,0.022399037099467122,-0.10038914617181349, ,0.0025523581202942063, ,0.03322491974927897,0.0004830967760870277,-0.04911140735867201,-0.048615273552901093,-0.07194290016530211,-0.04113742856174492, ,0.05929636588856451, ,0.08682706954474168, ,0.0012673719810657226, ,0.24270232603825367,-0.16321995929673502,0.11578721538000002,2.374109540131785,1.2820602772991276,-1.196784895863984, ,0.1913244789485298,0.09693252457453604,0.054179631020408174,0.22837876566265766,0.10728332032435749,0.18892765920986862, ,1.0430519580841064
0.018247979006802608,0.022895838235619047,-0.09890543414210357, ,0.019795332216782844,0.02240393854179981,-0.10055758012142534, ,0.002316431221125438, ,0.03322491974927897,0.0004830967760870277,-0.04911140735867201,-0.048615273552901093,-0.07194290016530211,-0.04113742856174492, ,0.05929636588856451, ,0.08682706954474168, ,0.001278076667188781, ,0.24270232603825367,-0.16321995929673502,0.11578721538000002,2.374109540131785,1.2820602772991276,-1.196784895863984, ,0.1913244789485298,0.09693252457453604,0.054179631020408174,0.22837876566265766,0.10728332032435749,0.18892765920986862, ,1.0460319519042969
0.018247979006802608,0.022895838235619047,-0.09890543414210357, ,0.019888912585415554,0.022408402770920544,-0.10072446968453609, ,0.002497828386078221, ,0.03322491974927897,0.0004830967760870277,-0.04911140735867201,-0.048615273552901093,-0.07194290016530211,-0.04113742856174492, ,0.05929636588856451, ,0.08682706954474168, ,0.0012903973916220076, ,0.24270232603825367,-0.16321995929673502,0.11578721538000002,2.374109540131785,1.2820602772991276,-1.196784895863984, ,0.1913244789485298,0.09693252457453604,0.054179631020408174,0.22837876566265766,0.10728332032435749,0.18892765920986862, ,1.0490448474884033
0.018861813296960843,0.0229002908471953,-0.09988064580143183, ,0.01998200382073104,0.022412433733810175,-0.10088982286023315, ,0.0015846986176039622, ,0.0360751951956467,0.0011296355201013096,-0.061230017922940576,-0.04211419650771779,-0.06342649543892201,0.03365822942957711, ,0.07107609218053501, ,0.07612926658224133, ,0.001293340403881827, ,0.24610805123578666,-0.1613587806740469,0.11685535834,2.3772548892840524,1.2842464612953748,-1.1936668579146927, ,0.1917109930474157,0.10359928117736984,0.06692777949579834,0.13868098601766696,0.14361541477136142,0.16723682651074256, ,1.0519030094146729
0.018861813296960843,0.0229002908471953,-0.09988064580143183, ,0.020074607515000783,0.022416035366441066,-0.1010536476243283, ,0.0017553650510563482, ,0.0360751951956467,0.0011296355201013096,-0.061230017922940576,-0.04211419650771779,-0.06342649543892201,0.03365822942957711, ,0.07107609218053501, ,0.07612926658224133, ,0.0012979149053390004, ,0.24610805123578666,-0.1613587806740469,0.11685535834,2.3772548892840524,1.2842464612953748,-1.1936668579146927, ,0.1917109930474157,0.10359928117736984,0.06692777949579834,0.13868098601766696,0.14361541477136142,0.16723682651074256, ,1.0546679496765137
0.018861813296960843,0.0229002908471953,-0.09988064580143183, ,0.020166725263550244,0.0224192115937852,-0.10121595192938954, ,0.0019280235849105285, ,0.0360751951956467,0.0011296355201013096,-0.061230017922940576,-0.04211419650771779,-0.06342649543892201,0.03365822942957711, ,0.07107609218053501, ,0.07612926658224133, ,0.0013040924414132312, ,0.24610805123578666,-0.1613587806740469,0.11685535834,2.3772548892840524,1.2842464612953748,-1.1936668579146927, ,0.1917109930474157,0.10359928117736984,0.06692777949579834,0.13868098601766696,0.14361541477136142,0.16723682651074256, ,1.057438850402832
0.018861813296960843,0.0229002908471953,-0.09988064580143183, ,0.02025835866473808,0.022421966329822105,-0.10137674370477405, ,0.0021017712160378817, ,0.0360751951956467,0.0011296355201013096,-0.061230017922940576,-0.04211419650771779,-0.06342649543892201,0.03365822942957711, ,0.07107609218053501, ,0.07612926658224133, ,0.0013118368955358007, ,0.24610805123578666,-0.1613587806740469,0.11685535834,2.3772548892840524,1.2842464612953748,-1.1936668579146927, ,0.1917109930474157,0.10359928117736984,0.06692777949579834,0.13868098601766696,0.14361541477136142,0.16723682651074256, ,1.060215950012207
0.019242387374007155,0.022914112611883333,-0.10052642987600957, ,0.02034950931993567,0.022424303477547744,-0.10153603085666053, ,0.0015763648471615022, ,0.036218705505733674,0.0008432195962562831,-0.059819969617529375,-0.012410459682037118,-0.050117568154748736,0.013319108799632112, ,0.06993521582751218, ,0.05162387183693464, ,0.0013143804335322016, ,0.2481314072488335,-0.16030076627027814,0.11756313268000002,2.3785130289449596,1.28588609929256,-1.191981759373849, ,0.19406327517069688,0.10348630486201829,0.06582153520661158,0.14061239981972942,0.16843348797712057,0.1389939093476964, ,1.0629799365997314
0.019242387374007155,0.022914112611883333,-0.10052642987600957, ,0.020440178833506316,0.022426226928982614,-0.10169382126808288, ,0.001742279966686034, ,0.036218705505733674,0.0008432195962562831,-0.059819969617529375,-0.012410459682037118,-0.050117568154748736,0.013319108799632112, ,0.06993521582751218, ,0.05162387183693464, ,0.0013184556671812858, ,0.2481314072488335,-0.16030076627027814,0.11756313268000002,2.3785130289449596,1.28588609929256,-1.191981759373849, ,0.19406327517069688,0.10348630486201829,0.06582153520661158,0.14061239981972942,0.16843348797712057,0.1389939093476964, ,1.0657269954681396
0.019242387374007155,0.022914112611883333,-0.10052642987600957, ,0.020530368812784607,0.022427740565180175,-0.101850122798962, ,0.0019098735321281845, ,0.036218705505733674,0.0008432195962562831,-0.059819969617529375,-0.012410459682037118,-0.050117568154748736,0.013319108799632112, ,0.06993521582751218, ,0.05162387183693464, ,0.0013240350810015396, ,0.2481314072488335,-0.16030076627027814,0.11756313268000002,2.3785130289449596,1.28588609929256,-1.191981759373849, ,0.19406327517069688,0.10348630486201829,0.06582153520661158,0.14061239981972942,0.16843348797712057,0.1389939093476964, ,1.0684590339660645
0.01962309738962143,0.02291966044545278,-0.101138337242954, ,0.02062008086805559,0.022428848256235243,-0.10200494328613928, ,0.0014092120832012612, ,0.036218705505733674,0.0008432195962562831,-0.059819969617529375,-0.012410459682037118,-0.050117568154748736,0.013319108799632112, ,0.06993521582751218, ,0.05162387183693464, ,0.0013248311277510698, ,0.2501470405290061,-0.15916552453776714,0.11823849977,2.3808196183232897,1.2876623737895108,-1.1905714362169828, ,0.19770196158014744,0.11283821826215314,0.06664774694560671,0.25253210389160347,0.17471972152271947,0.15120992314445922, ,1.0716168880462646
0.01962309738962143,0.02291966044545278,-0.101138337242954, ,0.02070931661253425,0.022429553861291956,-0.1021582905434085, ,0.0015685602950384616, ,0.037731837384219744,0.0005361599449768342,-0.060319999398097845,0.005375188715220502,-0.03153477617039528,-0.08330496006761026, ,0.07115111627558857, ,0.031977120000309736, ,0.0013270878793000271, ,0.2501470405290061,-0.15916552453776714,0.11823849977,2.3808196183232897,1.2876623737895108,-1.1905714362169828, ,0.19770196158014744,0.11283821826215314,0.06664774694560671,0.25253210389160347,0.17471972152271947,0.15120992314445922, ,1.0743608474731445
0.01962309738962143,0.02291966044545278,-0.101138337242954, ,0.020798077662344674,0.022429861228552925,-0.1023101723615493, ,0.0017302252625995692, ,0.037731837384219744,0.0005361599449768342,-0.060319999398097845,0.005375188715220502,-0.03153477617039528,-0.08330496006761026, ,0.07115111627558857, ,0.031977120000309736, ,0.0013307863874036927, ,0.2501470405290061,-0.15916552453776714,0.11823849977,2.3808196183232897,1.2876623737895108,-1.1905714362169828, ,0.19770196158014744,0.11283821826215314,0.06664774694560671,0.25253210389160347,0.17471972152271947,0.15120992314445922, ,1.0771420001983643
0.01962309738962143,0.02291966044545278,-0.101138337242954, ,0.02088636563649929,0.022429774195286384,-0.10246059650835941, ,0.0018931996108763637, ,0.037731837384219744,0.0005361599449768342,-0.060319999398097845,0.005375188715220502,-0.03153477617039528,-0.08330496006761026, ,0.07115111627558857, ,0.031977120000309736, ,0.001335899234889808, ,0.2501470405290061,-0.15916552453776714,0.11823849977,2.3808196183232897,1.2876623737895108,-1.1905714362169828, ,0.19770196158014744,0.11283821826215314,0.06664774694560671,0.25253210389160347,0.17471972152271947,0.15120992314445922, ,1.0801408290863037
0.02003587495807195,0.022922556167997696,-0.10178307294316487, ,0.02097418215687838,0.02242929658783599,-0.10260957072868805, ,0.0013441815361877267, ,0.036885854020090494,-0.0003440121349700294,-0.056230457853448094,-0.012268733399083472,-0.04298128969668123,-0.0076284476448100404, ,0.0672498993422952, ,0.04469173218383799, ,0.0013359738502168163, ,0.2523480193981601,-0.15794533274363967,0.11895405185,2.383335897645104,1.2897119212859924,-1.1888938764266663, ,0.20062778342171414,0.10983442310008192,0.062465927529411776,0.19007811083238713,0.17632502746628326,0.1675888323924807, ,1.083108901977539
0.02003587495807195,0.022922556167997696,-0.10178307294316487, ,0.021061528848209207,0.022428432221627912,-0.10275710274446759, ,0.0014982851632968782, ,0.036885854020090494,-0.0003440121349700294,-0.056230457853448094,-0.012268733399083472,-0.04298128969668123,-0.0076284476448100404, ,0.0672498993422952, ,0.04469173218383799, ,0.0013374230583693169, ,0.2523480193981601,-0.15794533274363967,0.11895405185,2.383335897645104,1.2897119212859924,-1.1888938764266663, ,0.20062778342171414,0.10983442310008192,0.062465927529411776,0.19007811083238713,0.17632502746628326,0.1675888323924807, ,1.0871939659118652
0.02003587495807195,0.022922556167997696,-0.10178307294316487, ,0.02114840733804516,0.0224271849011798,-0.10290320025474717, ,0.0016546317362574096, ,0.036885854020090494,-0.0003440121349700294,-0.056230457853448094,-0.012268733399083472,-0.04298128969668123,-0.0076284476448100404, ,0.0672498993422952, ,0.04469173218383799, ,0.0013402302148108043, ,0.2523480193981601,-0.15794533274363967,0.11895405185,2.383335897645104,1.2897119212859924,-1.1888938764266663, ,0.20062778342171414,0.10983442310008192,0.062465927529411776,0.19007811083238713,0.17632502746628326,0.1675888323924807, ,1.0899889469146729
0.020384745359161335,0.022910882886945646,-0.10229406514625902, ,0.021234819256745228,0.022425558420108873,-0.10304787093572486, ,0.0014970739586485924, ,0.033795908317415385,-0.0016140537733665243,-0.047653419101809105,-0.022055836820794247,-0.05220634006808181,0.07676969238525586, ,0.05844327968787455, ,0.05667200494330597, ,0.001341606037125171, ,0.25431731628108734,-0.15689504107274513,0.11952312316000001,2.384594037306011,1.2913515592831777,-1.1872087778858225, ,0.19606806107122063,0.10193011982649922,0.053452387651006725,0.096085781368262,0.1787668528712852,0.15862864053558076, ,1.0931389331817627
0.020384745359161335,0.022910882886945646,-0.10229406514625902, ,0.02132076623745319,0.022423556561140857,-0.10319112244078066, ,0.0013850392853905367, ,0.033795908317415385,-0.0016140537733665243,-0.047653419101809105,-0.022055836820794247,-0.05220634006808181,0.07676969238525586, ,0.05844327968787455, ,0.05667200494330597, ,0.0013419837175448698, ,0.25431731628108734,-0.15689504107274513,0.11952312316000001,2.384594037306011,1.2913515592831777,-1.1872087778858225, ,0.19606806107122063,0.10193011982649922,0.053452387651006725,0.096085781368262,0.1787668528712852,0.15862864053558076, ,1.095947027206421
0.020384745359161335,0.022910882886945646,-0.10229406514625902, ,0.02140624991607694,0.022421183096117188,-0.10333296240050933, ,0.0015370702488258683, ,0.033795908317415385,-0.0016140537733665243,-0.047653419101809105,-0.022055836820794247,-0.05220634006808181,0.07676969238525586, ,0.05844327968787455, ,0.05667200494330597, ,0.0013436654979869474, ,0.25431731628108734,-0.15689504107274513,0.11952312316000001,2.384594037306011,1.2913515592831777,-1.1872087778858225, ,0.19606806107122063,0.10193011982649922,0.053452387651006725,0.096085781368262,0.1787668528712852,0.15862864053558076, ,1.0988008975982666
0.020384745359161335,0.022910882886945646,-0.10229406514625902, ,0.021491271931267698,0.022418441786004644,-0.10347339842275269, ,0.001690481076415447, ,0.033795908317415385,-0.0016140537733665243,-0.047653419101809105,-0.022055836820794247,-0.05220634006808181,0.07676969238525586, ,0.05844327968787455, ,0.05667200494330597, ,0.0013466297337000116, ,0.25431731628108734,-0.15689504107274513,0.11952312316000001,2.384594037306011,1.2913515592831777,-1.1872087778858225, ,0.19606806107122063,0.10193011982649922,0.053452387651006725,0.096085781368262,0.1787668528712852,0.15862864053558076, ,1.1016278266906738
0.020721951786120293,0.022889179246854522,-0.10276721665626802, ,0.021575833924399195,0.022415336380902793,-0.10361243809263249, ,0.001291526633165228, ,0.031550161633339444,-0.0027520612291558823,-0.045418791957799784,-0.032606015402113483,-0.042603282126135636,0.05457371063265268, ,0.05537014721855781, ,0.053646981390733144, ,0.0013461627582717509, ,0.2562634449653919,-0.15582930393610217,0.12005330577000001,2.3856424870234334,1.2931278337801284,-1.1855534185085346, ,0.17770962838664942,0.10808307694586651,0.05056765561904762,0.10805368313227819,0.16381615758709903,0.15327201649917538, ,1.1044700145721436
0.020721951786120293,0.022889179246854522,-0.10276721665626802, ,0.021659937539547,0.022411870620052517,-0.10375008897258296, ,0.0014400273570420064, ,0.031550161633339444,-0.0027520612291558823,-0.045418791957799784,-0.032606015402113483,-0.042603282126135636,0.05457371063265268, ,0.05537014721855781, ,0.053646981390733144, ,0.0013469515364126774, ,0.2562634449653919,-0.15582930393610217,0.12005330577000001,2.3856424870234334,1.2931278337801284,-1.1855534185085346, ,0.17770962838664942,0.10808307694586651,0.05056765561904762,0.10805368313227819,0.16381615758709903,0.15327201649917538, ,1.107226848602295
0.020721951786120293,0.022889179246854522,-0.10276721665626802, ,0.02174358442346793,0.022408048231844682,-0.10388635860238384, ,0.001589873892751932, ,0.031550161633339444,-0.0027520612291558823,-0.045418791957799784,-0.032606015402113483,-0.042603282126135636,0.05457371063265268, ,0.05537014721855781, ,0.053646981390733144, ,0.001348975889382171, ,0.2562634449653919,-0.15582930393610217,0.12005330577000001,2.3856424870234334,1.2931278337801284,-1.1855534185085346, ,0.17770962838664942,0.10808307694586651,0.05056765561904762,0.10805368313227819,0.16381615758709903,0.15327201649917538, ,1.1100108623504639
0.02102029714847369,0.0228665302361587,-0.10319772330812534, ,0.021826776225578926,0.02240387293382813,-0.10402125449919303, ,0.001242040218297977, ,0.03160013253216649,-0.00202878673868053,-0.04705534105392249,-0.002389301583137403,-0.0044892720614493065,-0.06624814071443587, ,0.056717629299737976, ,0.005062768735877887, ,0.0013480921235054424, ,0.2578697734032306,-0.15477901226520763,0.12053422936000001,2.387739386458279,1.2947674717773137,-1.184195034928253, ,0.16418155978974183,0.11073155374383986,0.05239740631578948,0.24707563234296265,0.16802808733502664,0.16605289691892425, ,1.1135728359222412
0.02102029714847369,0.0228665302361587,-0.10319772330812534, ,0.021909514597936768,0.022399348432718454,-0.10415478415757877, ,0.001387419179430583, ,0.03160013253216649,-0.00202878673868053,-0.04705534105392249,-0.002389301583137403,-0.0044892720614493065,-0.06624814071443587, ,0.056717629299737976, ,0.005062768735877887, ,0.0013484144764228615, ,0.2578697734032306,-0.15477901226520763,0.12053422936000001,2.387739386458279,1.2947674717773137,-1.184195034928253, ,0.16418155978974183,0.11073155374383986,0.05239740631578948,0.24707563234296265,0.16802808733502664,0.16605289691892425, ,1.1164329051971436
0.02102029714847369,0.0228665302361587,-0.10319772330812534, ,0.021991801195216876,0.022394478424405787,-0.10428695504955315, ,0.0015339748408469654, ,0.03160013253216649,-0.00202878673868053,-0.04705534105392249,-0.002389301583137403,-0.0044892720614493065,-0.06624814071443587, ,0.056717629299737976, ,0.005062768735877887, ,0.001349923097271838, ,0.2578697734032306,-0.15477901226520763,0.12053422936000001,2.387739386458279,1.2947674717773137,-1.184195034928253, ,0.16418155978974183,0.11073155374383986,0.05239740631578948,0.24707563234296265,0.16802808733502664,0.16605289691892425, ,1.119201898574829
0.02102029714847369,0.0228665302361587,-0.10319772330812534, ,0.02207363767469273,0.022389266593963134,-0.10441777462460365, ,0.0016810211370407136, ,0.03160013253216649,-0.00202878673868053,-0.04705534105392249,-0.002389301583137403,-0.0044892720614493065,-0.06624814071443587, ,0.056717629299737976, ,0.005062768735877887, ,0.001352593242753845, ,0.2578697734032306,-0.15477901226520763,0.12053422936000001,2.387739386458279,1.2947674717773137,-1.184195034928253, ,0.16418155978974183,0.11073155374383986,0.05239740631578948,0.24707563234296265,0.16802808733502664,0.16605289691892425, ,1.1228070259094238
0.02102029714847369,0.0228665302361587,-0.10319772330812534, ,0.022155025696215348,0.022383716615655802,-0.10454725030972731, ,0.0018280976443439281, ,0.03160013253216649,-0.00202878673868053,-0.04705534105392249,-0.002389301583137403,-0.0044892720614493065,-0.06624814071443587, ,0.056717629299737976, ,0.005062768735877887, ,0.0013563972779665659, ,0.2578697734032306,-0.15477901226520763,0.12053422936000001,2.387739386458279,1.2947674717773137,-1.184195034928253, ,0.16418155978974183,0.11073155374383986,0.05239740631578948,0.24707563234296265,0.16802808733502664,0.16605289691892425, ,1.1259338855743408
0.02102029714847369,0.0228665302361587,-0.10319772330812534, ,0.02223596692219208,0.02237783215294812,-0.10467538950946184, ,0.0019748863809947335, ,0.03160013253216649,-0.00202878673868053,-0.04705534105392249,-0.002389301583137403,-0.0044892720614493065,-0.06624814071443587, ,0.056717629299737976, ,0.005062768735877887, ,0.0013613059216413927, ,0.2578697734032306,-0.15477901226520763,0.12053422936000001,2.387739386458279,1.2947674717773137,-1.184195034928253, ,0.16418155978974183,0.11073155374383986,0.05239740631578948,0.24707563234296265,0.16802808733502664,0.16605289691892425, ,1.1290099620819092
0.021288346976295124,0.022854237215238347,-0.10360975875575795, ,0.02231646301756615,0.02237161685851297,-0.10480219960591926, ,0.0016467726571017497, ,0.03061835471664388,-0.0010142932240650585,-0.04775040212206742,0.016223500140869807,-0.005188894278950508,-0.07119708659501134, ,0.05673282417717061, ,0.01702581372496732, ,0.0013635536912119466, ,0.25923669712196834,-0.1538831752517976,0.12099181973,2.389626595949639,1.296133836774968,-1.182940530501141, ,0.15405347655595905,0.09926458322015773,0.053096038400000004,0.21281713554048995,0.16346418111430966,0.12247555593311267, ,1.132079839706421
0.021288346976295124,0.022854237215238347,-0.10360975875575795, ,0.022396515649795883,0.022365074374239756,-0.10492768795881864, ,0.0017900434291442276, ,0.03061835471664388,-0.0010142932240650585,-0.04775040212206742,0.016223500140869807,-0.005188894278950508,-0.07119708659501134, ,0.05673282417717061, ,0.01702581372496732, ,0.0013668856422895427, ,0.25923669712196834,-0.1538831752517976,0.12099181973,2.389626595949639,1.296133836774968,-1.182940530501141, ,0.15405347655595905,0.09926458322015773,0.053096038400000004,0.21281713554048995,0.16346418111430966,0.12247555593311267, ,1.134917974472046
0.021288346976295124,0.022854237215238347,-0.10360975875575795, ,0.022476126488833813,0.022358208331242913,-0.10505186190551846, ,0.0019330096530316614, ,0.03061835471664388,-0.0010142932240650585,-0.04775040212206742,0.016223500140869807,-0.005188894278950508,-0.07119708659501134, ,0.05673282417717061, ,0.01702581372496732, ,0.0013712742005123498, ,0.25923669712196834,-0.1538831752517976,0.12099181973,2.389626595949639,1.296133836774968,-1.182940530501141, ,0.15405347655595905,0.09926458322015773,0.053096038400000004,0.21281713554048995,0.16346418111430966,0.12247555593311267, ,1.1377298831939697
0.021787804375798515,0.022799174756482708,-0.10438479058421597, ,0.022555297207105866,0.022351022349869503,-0.10517472876104868, ,0.0011890702876109383, ,0.024869293670576314,-0.004502355793095821,-0.03716566009476417,-0.021829905205020924,-0.02245431556028326,0.05916946441205037, ,0.044944846930883374, ,0.03131565324645677, ,0.00136987263195157, ,0.2618469808334562,-0.1520297193619837,0.12184737113,2.391304115497516,1.298866566770277,-1.18092159408776, ,0.13556705936924396,0.10326108983511509,0.04105363793814434,0.0349146210382671,0.1540366352138985,0.08290970559547967, ,1.1405508518218994
0.021787804375798515,0.022799174756482708,-0.10438479058421597, ,0.022634029479490836,0.022343520039708843,-0.1052962958181452, ,0.001324598029032858, ,0.024869293670576314,-0.004502355793095821,-0.03716566009476417,-0.021829905205020924,-0.02245431556028326,0.05916946441205037, ,0.044944846930883374, ,0.03131565324645677, ,0.001369527024295702, ,0.2618469808334562,-0.1520297193619837,0.12184737113,2.391304115497516,1.298866566770277,-1.18092159408776, ,0.13556705936924396,0.10326108983511509,0.04105363793814434,0.0349146210382671,0.1540366352138985,0.08290970559547967, ,1.143293857574463
0.021787804375798515,0.022799174756482708,-0.10438479058421597, ,0.022712324983299354,0.022335704999599675,-0.10541657034727991, ,0.00146086003734349, ,0.024869293670576314,-0.004502355793095821,-0.03716566009476417,-0.021829905205020924,-0.02245431556028326,0.05916946441205037, ,0.044944846930883374, ,0.03131565324645677, ,0.0013702189410612156, ,0.2618469808334562,-0.1520297193619837,0.12184737113,2.391304115497516,1.298866566770277,-1.18092159408776, ,0.13556705936924396,0.10326108983511509,0.04105363793814434,0.0349146210382671,0.1540366352138985,0.08290970559547967, ,1.146003007888794
0.021787804375798515,0.022799174756482708,-0.10438479058421597, ,0.022790185398253372,0.022327580817639327,-0.10553555959669622, ,0.0015973220957014984, ,0.024869293670576314,-0.004502355793095821,-0.03716566009476417,-0.021829905205020924,-0.02245431556028326,0.05916946441205037, ,0.044944846930883374, ,0.03131565324645677, ,0.0013719264835773078, ,0.2618469808334562,-0.1520297193619837,0.12184737113,2.391304115497516,1.298866566770277,-1.18092159408776, ,0.13556705936924396,0.10326108983511509,0.04105363793814434,0.0349146210382671,0.1540366352138985,0.08290970559547967, ,1.148758888244629
0.022041279723732057,0.022761914669546,-0.10476372555249475, ,0.022867612406465017,0.022319151071191253,-0.10565327079243914, ,0.0012923451707993552, ,0.02746254102826156,-0.0026940287745435146,-0.041193703069661775,-0.0035029632100494167,-0.004112614191763019,-0.1157781302851051, ,0.04958195360570698, ,0.005391264022947083, ,0.0013713325931834425, ,0.26316756815494863,-0.15101031862258607,0.12226736909000001,2.392562255158423,1.3003695682676968,-1.1800235437847661, ,0.1346055908630791,0.1039396950257073,0.04564129375358167,0.25297429178123537,0.1280721332429448,0.12839039241732378, ,1.1517560482025146
0.022041279723732057,0.022761914669546,-0.10476372555249475, ,0.022944607692416186,0.022310419326894485,-0.10576971113838993, ,0.0014254320266052225, ,0.02746254102826156,-0.0026940287745435146,-0.041193703069661775,-0.0035029632100494167,-0.004112614191763019,-0.1157781302851051, ,0.04958195360570698, ,0.005391264022947083, ,0.0013717333297273075, ,0.26316756815494863,-0.15101031862258607,0.12226736909000001,2.392562255158423,1.3003695682676968,-1.1800235437847661, ,0.1346055908630791,0.1039396950257073,0.04564129375358167,0.25297429178123537,0.1280721332429448,0.12839039241732378, ,1.15447998046875
0.022041279723732057,0.022761914669546,-0.10476372555249475, ,0.023021172942937578,0.022301389140670713,-0.10588488781629796, ,0.0015586145468226458, ,0.02746254102826156,-0.0026940287745435146,-0.041193703069661775,-0.0035029632100494167,-0.004112614191763019,-0.1157781302851051, ,0.04958195360570698, ,0.005391264022947083, ,0.001373107456323597, ,0.26316756815494863,-0.15101031862258607,0.12226736909000001,2.392562255158423,1.3003695682676968,-1.1800235437847661, ,0.1346055908630791,0.1039396950257073,0.04564129375358167,0.25297429178123537,0.1280721332429448,0.12839039241732378, ,1.1572530269622803
0.022315265686707636,0.022741746235211815,-0.10517269850258043, ,0.023097309847188,0.02229206405773376,-0.1059988079858129, ,0.0012232187081505368, ,0.0270779847605954,-0.001927491507367489,-0.040991700269822566,-0.043206308818890614,-0.024206444092924325,-0.12089425764667072, ,0.04916555677724988, ,0.04952394691857685, ,0.001372013377869779, ,0.2644649872778183,-0.1500140860818111,0.12271847801,2.3957076043106906,1.3011893872662894,-1.1783233677428684, ,0.12737844504492724,0.09703163758534844,0.04512411195467422,0.2906421115866079,0.0759652625040428,0.17741857095651992, ,1.1601428985595703
0.022315265686707636,0.022741746235211815,-0.10517269850258043, ,0.023173020096633423,0.022282447612596838,-0.10611147878451774, ,0.0013520378213043595, ,0.0270779847605954,-0.001927491507367489,-0.040991700269822566,-0.043206308818890614,-0.024206444092924325,-0.12089425764667072, ,0.04916555677724988, ,0.04952394691857685, ,0.0013718686274598844, ,0.2644649872778183,-0.1500140860818111,0.12271847801,2.3957076043106906,1.3011893872662894,-1.1783233677428684, ,0.12737844504492724,0.09703163758534844,0.04512411195467422,0.2906421115866079,0.0759652625040428,0.17741857095651992, ,1.1646358966827393
0.022315265686707636,0.022741746235211815,-0.10517269850258043, ,0.023248305385026324,0.022272543329082,-0.10622290732796225, ,0.0014810985864111628, ,0.0270779847605954,-0.001927491507367489,-0.040991700269822566,-0.043206308818890614,-0.024206444092924325,-0.12089425764667072, ,0.04916555677724988, ,0.04952394691857685, ,0.0013726544545026994, ,0.2644649872778183,-0.1500140860818111,0.12271847801,2.3957076043106906,1.3011893872662894,-1.1783233677428684, ,0.12737844504492724,0.09703163758534844,0.04512411195467422,0.2906421115866079,0.0759652625040428,0.17741857095651992, ,1.1675939559936523
0.022315265686707636,0.022741746235211815,-0.10517269850258043, ,0.023323167408384964,0.022262354720327678,-0.10633310070969453, ,0.0016100358341907463, ,0.0270779847605954,-0.001927491507367489,-0.040991700269822566,-0.043206308818890614,-0.024206444092924325,-0.12089425764667072, ,0.04916555677724988, ,0.04952394691857685, ,0.0013743500357861855, ,0.2656542881404489,-0.14911824906840107,0.12313588339,2.397385123858567,1.3024191157641782,-1.1772024816324815, ,0.1221324859182378,0.09195440073495231,0.04259040513368984,0.08319692311563658,0.15861709407149802,0.09745012768973625, ,1.1712119579315186
0.02255925737311805,0.02271800979141387,-0.10554964552817608, ,0.023397607864972473,0.022251885288797166,-0.10644206600129362, ,0.0013101594940966347, ,0.024373642081150417,-0.003021589093640924,-0.03838857609037179,-0.0007568162312191506,0.0013195125068776233,0.03029663613562022, ,0.04557287793410792, ,0.0014934905497261755, ,0.0013738947837174653, ,0.2656542881404489,-0.14911824906840107,0.12313588339,2.397385123858567,1.3024191157641782,-1.1772024816324815, ,0.1221324859182378,0.09195440073495231,0.04259040513368984,0.08319692311563658,0.15861709407149802,0.09745012768973625, ,1.1750659942626953
0.02255925737311805,0.02271800979141387,-0.10554964552817608, ,0.02347162845527618,0.022241138526287656,-0.10654981025240393, ,0.0014353245872105818, ,0.024373642081150417,-0.003021589093640924,-0.03838857609037179,-0.0007568162312191506,0.0013195125068776233,0.03029663613562022, ,0.04557287793410792, ,0.0014934905497261755, ,0.0013743273879674167, ,0.2656542881404489,-0.14911824906840107,0.12313588339,2.397385123858567,1.3024191157641782,-1.1772024816324815, ,0.1221324859182378,0.09195440073495231,0.04259040513368984,0.08319692311563658,0.15861709407149802,0.09745012768973625, ,1.1778829097747803
0.022751683032566,0.022689325512028253,-0.10586032189432135, ,0.023545230881986616,0.02223011791393724,-0.1066563404907651, ,0.0012141809640036701, ,0.020404188748911263,-0.0033732363484221474,-0.03378326072796695,0.01070459349843887,0.013387179721301113,0.07795013287554552, ,0.03961083623678384, ,0.017139454404082002, ,0.0013732074829047331, ,0.2666273524826012,-0.14836142124672705,0.12348069653000002,2.3975948138020513,1.303922117261598,-1.1765494675499093, ,0.10225963530007626,0.08302444580793594,0.03739157633802818,0.0,0.16850109384794215,0.056484644994694605, ,1.180724859237671
0.022751683032566,0.022689325512028253,-0.10586032189432135, ,0.023618416849976925,0.022218826922234387,-0.1067616637222468, ,0.0013360439828125886, ,0.020404188748911263,-0.0033732363484221474,-0.03378326072796695,0.01070459349843887,0.013387179721301113,0.07795013287554552, ,0.03961083623678384, ,0.017139454404082002, ,0.001372949403042982, ,0.2666273524826012,-0.14836142124672705,0.12348069653000002,2.3975948138020513,1.303922117261598,-1.1765494675499093, ,0.10225963530007626,0.08302444580793594,0.03739157633802818,0.0,0.16850109384794215,0.056484644994694605, ,1.183459997177124
0.022751683032566,0.022689325512028253,-0.10586032189432135, ,0.02369118806628215,0.02220726901102611,-0.1068657869308811, ,0.0014580837144281239, ,0.020404188748911263,-0.0033732363484221474,-0.03378326072796695,0.01070459349843887,0.013387179721301113,0.07795013287554552, ,0.03961083623678384, ,0.017139454404082002, ,0.0013735365362249486, ,0.2666273524826012,-0.14836142124672705,0.12348069653000002,2.3975948138020513,1.303922117261598,-1.1765494675499093, ,0.10225963530007626,0.08302444580793594,0.03739157633802818,0.0,0.16850109384794215,0.056484644994694605, ,1.1861979961395264
0.023012518844454342,0.02264456208046968,-0.10630415325207056, ,0.023763546240078193,0.022195447629526206,-0.10696871707889459, ,0.0010988134595766497, ,0.020404188748911263,-0.0033732363484221474,-0.03378326072796695,0.01070459349843887,0.013387179721301113,0.07795013287554552, ,0.03961083623678384, ,0.017139454404082002, ,0.0013716548713163987, ,0.2666273524826012,-0.14836142124672705,0.12348069653000002,2.3975948138020513,1.303922117261598,-1.1765494675499093, ,0.10225963530007626,0.08302444580793594,0.03739157633802818,0.0,0.16850109384794215,0.056484644994694605, ,1.1895480155944824
0.023012518844454342,0.02264456208046968,-0.10630415325207056, ,0.023835493082661016,0.02218336621632282,-0.10707046110674019, ,0.0012154077299352678, ,0.023803689538965042,-0.003459601678822732,-0.04053716876109357,-0.026325262515527914,-0.004873995128920019,0.015538103910463407, ,0.04713646709935872, ,0.026770614712762486, ,0.0013705919655927175, ,0.267893880673974,-0.14728023864433562,0.12396680528000001,2.3975948138020513,1.3056983917585487,-1.1756292168338862, ,0.10907694432008136,0.096734904748696,0.04400224176795581,0.0920632490518851,0.12771771384453165,0.10207403219030943, ,1.1926100254058838
0.023012518844454342,0.02264456208046968,-0.10630415325207056, ,0.02390703030742618,0.02217102819938801,-0.1071710259331322, ,0.0013326114734202497, ,0.023803689538965042,-0.003459601678822732,-0.04053716876109357,-0.026325262515527914,-0.004873995128920019,0.015538103910463407, ,0.04713646709935872, ,0.026770614712762486, ,0.0013703353406456064, ,0.267893880673974,-0.14728023864433562,0.12396680528000001,2.3975948138020513,1.3056983917585487,-1.1756292168338862, ,0.10907694432008136,0.096734904748696,0.04400224176795581,0.0920632490518851,0.12771771384453165,0.10207403219030943, ,1.1953608989715576
0.023012518844454342,0.02264456208046968,-0.10630415325207056, ,0.02397815962984776,0.022158436996085846,-0.10727041845507689, ,0.0014499821263116541, ,0.023803689538965042,-0.003459601678822732,-0.04053716876109357,-0.026325262515527914,-0.004873995128920019,0.015538103910463407, ,0.04713646709935872, ,0.026770614712762486, ,0.0013708698828312845, ,0.267893880673974,-0.14728023864433562,0.12396680528000001,2.3975948138020513,1.3056983917585487,-1.1756292168338862, ,0.10907694432008136,0.096734904748696,0.04400224176795581,0.0920632490518851,0.12771771384453165,0.10207403219030943, ,1.1981489658355713
0.02326675221694159,0.022624668614495035,-0.10673793590886918, ,0.024048882767457584,0.022145596013179624,-0.10736864554790565, ,0.0011131187736064282, ,0.02461502182500358,-0.0010905963792908696,-0.041985914262437855,0.034766849757858966,0.038757044123509984,-0.138113319651422, ,0.048681677213924204, ,0.052064496915373695, ,0.0013691515421031188, ,0.268959617810617,-0.14631489703505757,0.12444384000000001,2.400111093123866,1.3070647567562033,-1.1744563911469146, ,0.10116944729048058,0.08730169416602647,0.04643968373177843,0.2722478514850354,0.14150729414823507,0.11495693094067301, ,1.201037883758545
0.02326675221694159,0.022624668614495035,-0.10673793590886918, ,0.024119201439824475,0.02213250864684156,-0.10746571406530796, ,0.0012241536489933467, ,0.02461502182500358,-0.0010905963792908696,-0.041985914262437855,0.034766849757858966,0.038757044123509984,-0.138113319651422, ,0.048681677213924204, ,0.052064496915373695, ,0.0013681912911553719, ,0.268959617810617,-0.14631489703505757,0.12444384000000001,2.400111093123866,1.3070647567562033,-1.1744563911469146, ,0.10116944729048058,0.08730169416602647,0.04643968373177843,0.2722478514850354,0.14150729414823507,0.11495693094067301, ,1.2039358615875244
0.02326675221694159,0.022624668614495035,-0.10673793590886918, ,0.024189117368533554,0.022119178282660842,-0.10756163083936411, ,0.0013359458398348922, ,0.02461502182500358,-0.0010905963792908696,-0.041985914262437855,0.034766849757858966,0.038757044123509984,-0.138113319651422, ,0.048681677213924204, ,0.052064496915373695, ,0.0013679791500282635, ,0.268959617810617,-0.14631489703505757,0.12444384000000001,2.400111093123866,1.3070647567562033,-1.1744563911469146, ,0.10116944729048058,0.08730169416602647,0.04643968373177843,0.2722478514850354,0.14150729414823507,0.11495693094067301, ,1.2071800231933594
0.023422889503014376,0.022616263291540924,-0.1070009519783163, ,0.024258632277165265,0.022105608295651235,-0.1076564026805775, ,0.0011784948589057221, ,0.022735048988751828,-0.0017592005272559178,-0.0384001758264963,0.019902573088794496,0.030856151166286882,-0.026145821460412035, ,0.044660393443428974, ,0.03671690325008062, ,0.001366740690609162, ,0.2696237728378003,-0.14576658300098763,0.12473550525000002,2.4015789227282576,1.3080212122545614,-1.1737660991502596, ,0.09978647903098925,0.08166690323448432,0.04259040513368984,0.15648742090544313,0.15350111241518616,0.11114728924416417, ,1.2118608951568604
0.023422889503014376,0.022616263291540924,-0.1070009519783163, ,0.024327747891274776,0.02209180205026062,-0.1077500363779074, ,0.0012864508284894677, ,0.022735048988751828,-0.0017592005272559178,-0.0384001758264963,0.019902573088794496,0.030856151166286882,-0.026145821460412035, ,0.044660393443428974, ,0.03671690325008062, ,0.001366219327868125, ,0.2696237728378003,-0.14576658300098763,0.12473550525000002,2.4015789227282576,1.3080212122545614,-1.1737660991502596, ,0.09978647903098925,0.08166690323448432,0.04259040513368984,0.15648742090544313,0.15350111241518616,0.11114728924416417, ,1.2148070335388184
0.023422889503014376,0.022616263291540924,-0.1070009519783163, ,0.024396465938370873,0.022077762900377627,-0.10784253869880145, ,0.0013950275821149332, ,0.022735048988751828,-0.0017592005272559178,-0.0384001758264963,0.019902573088794496,0.030856151166286882,-0.026145821460412035, ,0.044660393443428974, ,0.03671690325008062, ,0.001366405187572943, ,0.2696237728378003,-0.14576658300098763,0.12473550525000002,2.4015789227282576,1.3080212122545614,-1.1737660991502596, ,0.09978647903098925,0.08166690323448432,0.04259040513368984,0.15648742090544313,0.15350111241518616,0.11114728924416417, ,1.2176358699798584
0.023422889503014376,0.022616263291540924,-0.1070009519783163, ,0.024464788147895447,0.022063494189341868,-0.10793391638922815, ,0.0015038381091656999, ,0.022735048988751828,-0.0017592005272559178,-0.0384001758264963,0.019902573088794496,0.030856151166286882,-0.026145821460412035, ,0.044660393443428974, ,0.03671690325008062, ,0.0013672861678395635, ,0.2696237728378003,-0.14576658300098763,0.12473550525000002,2.4015789227282576,1.3080212122545614,-1.1737660991502596, ,0.09978647903098925,0.08166690323448432,0.04259040513368984,0.15648742090544313,0.15350111241518616,0.11114728924416417, ,1.221215009689331
0.023422889503014376,0.022616263291540924,-0.1070009519783163, ,0.024532716251202732,0.0220489992499513,-0.10802417617371116, ,0.0016126039991009537, ,0.022735048988751828,-0.0017592005272559178,-0.0384001758264963,0.019902573088794496,0.030856151166286882,-0.026145821460412035, ,0.044660393443428974, ,0.03671690325008062, ,0.0013688487017966425, ,0.2696237728378003,-0.14576658300098763,0.12473550525000002,2.4015789227282576,1.3080212122545614,-1.1737660991502596, ,0.09978647903098925,0.08166690323448432,0.04259040513368984,0.15648742090544313,0.15350111241518616,0.11114728924416417, ,1.224012851715088
0.023422889503014376,0.022616263291540924,-0.1070009519783163, ,0.02460025198153816,0.02203428140447028,-0.10811332475535879, ,0.0017211212966607525, ,0.022735048988751828,-0.0017592005272559178,-0.0384001758264963,0.019902573088794496,0.030856151166286882,-0.026145821460412035, ,0.044660393443428974, ,0.03671690325008062, ,0.0013710782751818582, ,0.2696237728378003,-0.14576658300098763,0.12473550525000002,2.4015789227282576,1.3080212122545614,-1.1737660991502596, ,0.09978647903098925,0.08166690323448432,0.04259040513368984,0.15648742090544313,0.15350111241518616,0.11114728924416417, ,1.2267918586730957
0.023422889503014376,0.022616263291540924,-0.1070009519783163, ,0.02466739707401792,0.022019343964638685,-0.10820136881590012, ,0.0018292381914527425, ,0.01770021347502924,-0.0052454631563933,-0.02801182578031298,-0.034816554647566486,0.006406536020535345,0.1044573475518701, ,0.03354809717902482, ,0.035400832399348374, ,0.0013739597840892223, ,0.2718015835083316,-0.14388995891255107,0.12551457554,2.402207992558711,1.3113004882489319,-1.1710493319896966, ,0.08844076566493084,0.08819418360452676,0.030750601389961392,0.0,0.1349820447653841,0.09853129981160424, ,1.2300589084625244
0.023865110417527594,0.022527873573816533,-0.10770461129883133, ,0.024734153265607947,0.022004190231679682,-0.10828831501571473, ,0.0011705510427720506, ,0.01770021347502924,-0.0052454631563933,-0.02801182578031298,-0.034816554647566486,0.006406536020535345,0.1044573475518701, ,0.03354809717902482, ,0.035400832399348374, ,0.00137268847945599, ,0.2718015835083316,-0.14388995891255107,0.12551457554,2.402207992558711,1.3113004882489319,-1.1710493319896966, ,0.08844076566493084,0.08819418360452676,0.030750601389961392,0.0,0.1349820447653841,0.09853129981160424, ,1.2330269813537598
0.023865110417527594,0.022527873573816533,-0.10770461129883133, ,0.024800522295103156,0.0219888234963084,-0.10837416999386733, ,0.001270385458382326, ,0.01770021347502924,-0.0052454631563933,-0.02801182578031298,-0.034816554647566486,0.006406536020535345,0.1044573475518701, ,0.03354809717902482, ,0.035400832399348374, ,0.0013720530569648493, ,0.2718015835083316,-0.14388995891255107,0.12551457554,2.402207992558711,1.3113004882489319,-1.1710493319896966, ,0.08844076566493084,0.08819418360452676,0.030750601389961392,0.0,0.1349820447653841,0.09853129981160424, ,1.2357628345489502
0.023865110417527594,0.022527873573816533,-0.10770461129883133, ,0.02486650590310674,0.02197324703874007,-0.10845894036813945, ,0.0013709178884063326, ,0.01770021347502924,-0.0052454631563933,-0.02801182578031298,-0.034816554647566486,0.006406536020535345,0.1044573475518701, ,0.03354809717902482, ,0.035400832399348374, ,0.001372046049751525, ,0.2718015835083316,-0.14388995891255107,0.12551457554,2.402207992558711,1.3113004882489319,-1.1710493319896966, ,0.08844076566493084,0.08819418360452676,0.030750601389961392,0.0,0.1349820447653841,0.09853129981160424, ,1.238497018814087
0.0240618664980494,0.022486260670991534,-0.1079884399840343, ,0.02493210583200912,0.02195746412869809,-0.10854263273506216, ,0.0011593411434103363, ,0.0193510675870775,-0.003071695922332672,-0.027071608566429407,0.06798975576988607,0.0614391541169116,-0.18981615167142138, ,0.03341812566516696, ,0.09163712134311482, ,0.0013707411116758122, ,0.2727128659874901,-0.14297095370051835,0.12583346288000002,2.4045145819370406,1.3128034897463519,-1.170069602946562, ,0.0870614142738264,0.08412849428942444,0.03081008030947776,0.30141340247569903,0.15244938785867945,0.08397108212212231, ,1.2411959171295166
0.0240618664980494,0.022486260670991534,-0.1079884399840343, ,0.02499732382596758,0.02194147802542329,-0.10862525366994895, ,0.0012559459438353038, ,0.0193510675870775,-0.003071695922332672,-0.027071608566429407,0.06798975576988607,0.0614391541169116,-0.18981615167142138, ,0.03341812566516696, ,0.09163712134311482, ,0.0013700411411401994, ,0.2727128659874901,-0.14297095370051835,0.12583346288000002,2.4045145819370406,1.3128034897463519,-1.170069602946562, ,0.0870614142738264,0.08412849428942444,0.03081008030947776,0.30141340247569903,0.15244938785867945,0.08397108212212231, ,1.2440509796142578
