NicholasDascanio/dvrk_moveit_final/test/execution/third_experiment_notsharpbends/thirdexp_400vel5.0/thirdexp_400vel5.0_8.csv
Current Position (x),Current Position (y),Current Position (z), ,Planned Position (x),Planned Position (y),Planned Position (z), ,Position Error,,Cartesian linear Velocity(x),Cartesian linear Velocity(y),Cartesian linear Velocity(z),Cartesian Angular Velocity(x),Cartesian Angular Velocity(y),Cartesian Angular Velocity(z), ,Total Linear Velocity, ,Total Angular Velocity, ,MSE, ,Joint 1 Position,Joint 2 Position,Joint 3 Position,Joint 4 Position,Joint 5 Position,Joint 6 Position, ,Joint 1 Velocity,Joint 2 Velocity,Joint 3 Velocity,Joint 4 Velocity,Joint 5 Velocity,Joint 6 Velocity, ,Time Stamp
0.009684108460587258,0.02049356857463018,-0.07950312638798437, ,0.009766962841436522,0.02036751528956239,-0.07960676310218068, ,0.0001830159764384045, ,0.00022964140791029334,0.00016410226712839892,-0.0009039779223542246,0.01653456585933938,-0.002241972560941643,-0.035328615202108775, ,0.0009470167973207037, ,0.016685871542123382, ,1.525133136986704e-05, ,0.20041264081900026,-0.1807351174554762,0.09483657640000001,2.312670386690819,1.2364236863774707,-1.236267653021367, ,0.0005131806686452243,0.00012080358185250598,0.0009420231570370112,0.0007078391637494193,0.0,-0.03840396253409173, ,0.03172183036804199
0.009700247704791175,0.02050280264139541,-0.07956110906985195, ,0.009824554025652322,0.020385116582008228,-0.07977588936374924, ,0.00027465004028167376, ,0.00038338019438360264,0.00028598251493223753,-0.0015075743798290344,0.13347916853140132,-0.017203734253423798,-0.28458505924999244, ,0.0015816279217974985, ,0.13458327126388656, ,2.080300076000356e-05, ,0.20043580901762292,-0.18071194925685352,0.09489231687,2.3128800766343036,1.2358771403784088,-1.2441532129009185, ,0.0007210475627087742,8.144124033377982e-05,0.0015554974432388717,0.002232918104717531,-0.002252367448592791,-0.3126664615652653, ,0.0613408088684082
0.00972492618102697,0.02051054854482089,-0.07964436096482672, ,0.009882249362101707,0.020402282850427163,-0.07994400930457668, ,0.00035533248008159934, ,0.001382100685807869,0.0007178214225900184,-0.005313887516747243,0.021023193582127998,-0.04302359935095144,-0.12702923715702943, ,0.005537406472445554, ,0.04788532933233084, ,2.5406203025052425e-05, ,0.20046669994911984,-0.18067333559248241,0.09495842766000001,2.3128800766343036,1.2335543198823964,-1.2463430455451074, ,0.002203692219489967,0.0023376992849175287,0.005080960612440192,0.002232918104717531,-0.04823110315553144,-0.12399363062336488, ,0.08858704566955566
0.009778194940942233,0.020542529815767412,-0.07985714864853063, ,0.009940048033073046,0.020419018162419193,-0.08011113110689877, ,0.00032551288930522795, ,0.00214472569348371,0.0012570132467198878,-0.00889187440423269,-0.111670472778376,-0.0269558044757556,0.14789005539432104, ,0.009232841438222955, ,0.11487780390438802, ,2.7107413954926323e-05, ,0.20053620454498786,-0.18059610826374015,0.09516713035,2.313089766577788,1.232187954884742,-1.2474341924919385, ,0.002660120130260821,0.0038764948855175437,0.008776204694214878,0.002173978301217016,-0.04692489879097154,0.18128382369297366, ,0.11667585372924805
0.009819091107521213,0.020569739393323214,-0.08001928581748545, ,0.009997949223878793,0.020435326570703332,-0.08027726291713998, ,0.00034148091691599334, ,0.0012695980447349152,0.0007137391218439702,-0.004881903997020375,0.0574057001415087,0.04929850468888953,-0.010992795754283776, ,0.005094535245276926, ,0.07566873178879303, ,2.8461390442748056e-05, ,0.20064432280522698,-0.1805188809349979,0.09534342579,2.313299456521273,1.2331444103831002,-1.2443752170312075, ,0.005180647216229722,0.004564792098829831,0.0056787206844919795,0.004132618826607338,0.0761886440499623,-0.029147081901458927, ,0.14492487907409668
0.009875553040297923,0.020593155416716618,-0.08020794229126557, ,0.010055952122850691,0.020451212113140625,-0.08044241284597618, ,0.0003281282850384108, ,0.0016546207787904732,0.0006936202768797752,-0.00579051514291918,0.007380370740512761,-0.005161600542739306,-0.03143549305336447, ,0.00606209078045523, ,0.009006219291142557, ,2.9163235291311447e-05, ,0.20086055932570526,-0.18034898081176498,0.09553916558000002,2.313509146464757,1.2335543198823964,-1.2447094707422965, ,0.00523339966532678,0.005269145099502424,0.005932518256983241,0.00764858730111257,0.0,-0.02629460280148175, ,0.172868013381958
0.009915059599701353,0.020611311989439322,-0.08034588450586864, ,0.010114055921335062,0.020466678812755743,-0.08060658896839744, ,0.0003584481951464634, ,0.0021487606970313,0.0009371301986726088,-0.007354123083823948,-0.006897559138052881,-0.006421942450959902,-0.0009186359309355842, ,0.007718711801486234, ,0.00942431140167181, ,3.0515053284616525e-05, ,0.20098412305169286,-0.18024086255152583,0.09568435006,2.3137188364082415,1.2335543198823964,-1.2447911494824369, ,0.0075526552328159385,0.005637878565883134,0.007599623816793894,0.004783900159616058,0.0,0.005351807891831586, ,0.19765901565551758
0.00997584362084706,0.02063171114355406,-0.08054094021617084, ,0.01017225981368794,0.020481730677759043,-0.08076979932377043, ,0.0003368233246992833, ,0.0021366324197433667,0.0006581034126783955,-0.006628214175673115,-0.007944057695892374,-0.00811448797181656,-0.0025896723045567664, ,0.006995106958258135, ,0.011355745458890846, ,3.129240134883821e-05, ,0.20123897323654227,-0.1800477942296702,0.09588527501,2.3137188364082415,1.2335543198823964,-1.2447911494824369, ,0.010095715789588582,0.006260545300024107,0.00608666852120749,0.004783900159616058,0.0,0.003424587271712896, ,0.2239840030670166
0.010018783276114083,0.02064481330323609,-0.08065944920578542, ,0.010230562997270171,0.020496371701567716,-0.08093205191590154, ,0.00037576295315194883, ,0.0018079786984443276,0.00039812268432293674,-0.0054255726857644045,-0.0075390206845360646,-0.006602732752472883,-0.005804220361308978, ,0.005732724275099381, ,0.010021622023456727, ,3.235005686583152e-05, ,0.2014320415583979,-0.17990878503793417,0.09600712627,2.314138216295211,1.233417683382631,-1.2446797315787403, ,0.007971154832435276,0.007896653178868934,0.005561735865921788,0.006877479632874769,0.0,0.0026722185729860085, ,0.24961590766906738
0.01005674376812665,0.02065578219856476,-0.08077660196668622, ,0.010288964672442823,0.02051060586282909,-0.08109335471309875, ,0.00041873024636266554, ,0.001921094419235331,0.0005498952252936287,-0.005867354842411307,-0.0044757929570770245,-0.004763916053658433,-0.016765083902052367, ,0.006198293424256816, ,0.006536636123212899, ,3.3651890892057866e-05, ,0.20158649621588237,-0.1797620531133239,0.09612768124000001,2.3143479062386954,1.233417683382631,-1.2445163740984593, ,0.007586035979573884,0.007741987247706268,0.006040504937428897,0.01578374971830453,0.0,0.0, ,0.27433204650878906
0.01012011862882983,0.02067351866513424,-0.08098151674592827, ,0.010347464042562296,0.020524437125441542,-0.08125371564823611, ,0.00038471221067172524, ,0.0023169472153544944,0.0007429143424962671,-0.007101736249563212,-0.005376049228011245,-0.007460395914452737,-0.012904916477570262, ,0.007506985005805311, ,0.009195618219457493, ,3.4416799234517724e-05, ,0.201849069133606,-0.17951492566134872,0.09633897651000001,2.3143479062386954,1.2335543198823964,-1.2446277920021558, ,0.009559138486104481,0.007854137888540912,0.007330332038656236,0.01175397860321833,0.0,0.0, ,0.29875898361206055
0.01019152443117915,0.020699117215161787,-0.08120350206695465, ,0.010406060313975446,0.020537869438576894,-0.08141314261881379, ,0.0003405519805324322, ,0.002406117827364857,0.0008268683448637204,-0.007346680382512853,-0.004665843695708732,-0.007402857166080872,-0.01467219275323826, ,0.0077747557454687834, ,0.008750563993944176, ,3.468232326401576e-05, ,0.2021348102499523,-0.17929096640799622,0.09656971613000001,2.3147672861256643,1.2336909563821619,-1.2445758524255712, ,0.009838140921741184,0.007516503552960861,0.007599623816793894,0.013655625906192362,0.0,0.0, ,0.3256080150604248
0.010234342258310101,0.020711211418916506,-0.0813292706002375, ,0.010464752696014962,0.02055090673670236,-0.08157164348702318, ,0.0003708519612890746, ,0.0018167447675084877,0.0003760199055123949,-0.005140953179820056,-0.0023733461636202425,-0.004377074249265282,-0.007804560049794731, ,0.005465469066485782, ,0.004979111105903209, ,3.5152011679319226e-05, ,0.20232787857180792,-0.17913651175051173,0.09670064142000001,2.3149769760691488,1.2338275928819273,-1.2444422341088461, ,0.00881921224408602,0.007508059355713848,0.00532380064171123,0.0062365686810093735,0.0047244361613549245,-0.0017045143767704107, ,0.35156798362731934
0.010291609642951975,0.020719727392649462,-0.08147941419069721, ,0.010523540400994446,0.020563552939602287,-0.0817292260798083, ,0.00037495108514577237, ,0.0019498790992517553,0.00029876060290917015,-0.004618562874820351,-0.006907025336975926,-0.0070393555218452065,0.0031113754748940212, ,0.005022191695686089, ,0.009862024288503668, ,3.5856786053087784e-05, ,0.20264451061965114,-0.17890482976428498,0.09685489993000002,2.3149769760691488,1.2338275928819273,-1.2441155191482838, ,0.011763893489642222,0.007207391915651451,0.004816695349259147,0.004747333105989546,0.0047244361613549245,0.008766618322024865, ,0.3742978572845459
0.010334298097559135,0.020732519190203386,-0.08159309745881614, ,0.010582422644203756,0.02057581195240031,-0.08188589818892902, ,0.00041455423840808237, ,0.0028156764123660723,0.001048830757489124,-0.00831751198142659,-0.0011408716862584011,-0.0037841130532477304,-0.010147613493913158, ,0.00884359006163135, ,0.003952348668394237, ,3.6762459457225234e-05, ,0.2028530244072552,-0.17876582057254894,0.09697545490000001,2.3153963559561177,1.234100865881458,-1.2442566762155358, ,0.012319478327725663,0.007299464441586555,0.008709027621651176,0.015299209719989708,0.007710819717482829,0.004477949901054548, ,0.3982508182525635
0.010401988050261811,0.020758696710694684,-0.08179637764529042, ,0.010641398643904077,0.020587687665581302,-0.08204166757102334, ,0.0003830517896117869, ,0.002909626466991397,0.0009712668116010499,-0.008709364193442539,-0.0037298406435256047,-0.004841637532359269,-0.005664230647986961, ,0.009233759258869245, ,0.006111719488813203, ,3.735945351060768e-05, ,0.20314648825647572,-0.17861136591506446,0.09718675017000002,2.3156060458996026,1.234100865881458,-1.2440933187352545, ,0.012702040096167955,0.008705500618014964,0.00908142047890536,0.011233373147482973,0.007710819717482829,0.0054223589013816745, ,0.42025303840637207
0.01048264086537784,0.02078037338432871,-0.08201269493672217, ,0.010700467621323179,0.020599183955013072,-0.08219654194767052, ,0.0003377540944770921, ,0.0026076522710792817,0.00048654778819513404,-0.006156324564338199,-0.005778341060850633,-0.009819809146160647,-0.003313633607267658, ,0.006703499926048812, ,0.01139376444549261, ,3.760708705450724e-05, ,0.2035789612974323,-0.17838740666171196,0.09741230463000002,2.3156060458996026,1.2342375023812235,-1.24404137915867, ,0.015440439563695212,0.008609853962117367,0.006438484850444625,0.008250695186277947,0.005341906542858232,0.005518993753481209, ,0.44436097145080566
0.010531619530261696,0.020789669277573627,-0.08211953382636138, ,0.010759628800650768,0.02061030468196871,-0.08235052900545327, ,0.0003708350823527455, ,0.002299213948510603,0.0003127290404927687,-0.005079252636886157,-0.008542302122005484,-0.009061473185087411,-0.007604985161850552, ,0.0055841733124168185, ,0.012453160982137685, ,3.803119848430535e-05, ,0.20387242514665282,-0.17822522927135323,0.09752508186000002,2.3160254257865716,1.234374138880989,-1.2439894395820854, ,0.013751187010356585,0.008771219206412769,0.005288450039840638,0.015825755267593344,0.001878055607322135,0.009923251286779415, ,0.4660489559173584
0.010559068188132877,0.02079428546098504,-0.08218472513849143, ,0.01081888140903361,0.02062105369314824,-0.08250363639602117, ,0.00044633680704359957, ,0.0024471562677493863,0.00043262455775699364,-0.006317721592032429,-0.0009580223105924487,-0.005510526151442899,-0.010385808107793425, ,0.006788913309300121, ,0.005593182917498075, ,3.885251188990741e-05, ,0.20402687980413733,-0.1781171110111141,0.09759378523000001,2.316235115730056,1.2345107753807543,-1.2439375000055006, ,0.013139980830583048,0.00959007970413567,0.006590323342987175,0.008547230540883506,0.008659722388755236,-0.0027786338236342823, ,0.4896118640899658
0.010654283498101914,0.020814751538797208,-0.0824330685204683, ,0.010878224676570665,0.020631434820700716,-0.08265587173615258, ,0.0003652340940641937, ,0.0029502425321958395,0.000794499345594678,-0.007682157596168941,-0.004806274950358673,-0.008570038564458576,0.0012638289145192505, ,0.008267448550871293, ,0.009825772902884956, ,3.915314171833246e-05, ,0.20455202563958458,-0.1778082016961451,0.09785304323,2.316235115730056,1.2347840483802852,-1.2437519421121905, ,0.015816156926411796,0.008106747352258307,0.008057061972685887,0.0060193403487684,0.008008942639152776,0.0073262731672153044, ,0.5114908218383789
0.010683974184852682,0.020822378095177826,-0.08251310370037343, ,0.01093765783630853,0.020641451882246087,-0.08280724260781776, ,0.00042849432483328806, ,0.0029748653892963696,0.000800005773136979,-0.008258694924432925,-0.003154890067531116,-0.007879192757156947,-0.004304390844481889, ,0.008814526372774665, ,0.008487341834912886, ,3.997453710559289e-05, ,0.2047064802970691,-0.17772325163452865,0.09793600579000002,2.316235115730056,1.2347840483802852,-1.2435885846319095, ,0.014696754151846179,0.009186758535728753,0.008619486753246754,0.005539263539224976,0.008008942639152776,0.0008654751417165292, ,0.5330829620361328
0.010753496772453675,0.02084034027551143,-0.08268758233738638, ,0.010997180124236372,0.020651108680897198,-0.08295775655824167, ,0.0004101027699870573, ,0.0028883027408528397,0.0006687474338860058,-0.0075585530788721735,-0.005660569981173388,-0.006877830905668264,-0.006050074731114973, ,0.008119189645480338, ,0.008907670054921931, ,4.0642644850453954e-05, ,0.20505400327640919,-0.17749929238117612,0.09811748639000001,2.3168641855605094,1.2350573213798162,-1.2436480629590214, ,0.014613018410605293,0.009752022717297913,0.007858318460779478,0.013327530023497163,0.007097445052788217,0.007637893683513929, ,0.5519299507141113
0.010809265369653636,0.020851790940321097,-0.08283714126181563, ,0.011056790779281574,0.020660409005282154,-0.08310742109996651, ,0.00041345745171854695, ,0.0029440833977517748,0.0006583600336483547,-0.007780112097895464,-0.0024421045297625937,-0.0060578883358344895,-0.007908902618941357, ,0.008344531697024253, ,0.006531604482681614, ,4.128105543345083e-05, ,0.20535518985850393,-0.1773062240593205,0.09827563377000001,2.3168641855605094,1.2351939578795816,-1.2435961233824364, ,0.015074970859169307,0.010164821691000995,0.008135245924412667,0.01053494786377411,0.009761591526300002,0.0019204920746953309, ,0.5718388557434082
0.010865966724234625,0.020864686679725804,-0.08299272777610273, ,0.011116489043304471,0.020669356629565264,-0.08325624371091428, ,0.0004127419396517147, ,0.002721957824442794,0.00034061812283216235,-0.007212982589463696,-0.006921602527727977,-0.008333235675108932,0.0014649135952594856, ,0.007717006734450442, ,0.010832884142485134, ,4.187327816846308e-05, ,0.20562548550910179,-0.17710543300459067,0.09843637373000001,2.3170738755039944,1.2351939578795816,-1.2431877296817337, ,0.014501366375071939,0.011739554090006536,0.007471299962476548,0.0,0.00839927977597537,0.0018174498129666311, ,0.5914008617401123
0.010924321919381249,0.0208752971446785,-0.08313843047121101, ,0.011176274161093985,0.020677955313469987,-0.08340423183444969, ,0.0004160217484078663, ,0.002975119546654911,0.0005292817416221674,-0.0074868195301944435,-0.0010650455062200528,-0.005503650743650275,-0.008582286597659083, ,0.008073657297446038, ,0.005605753287090017, ,4.2442300396373376e-05, ,0.20593439482407078,-0.17687375101836394,0.09859063224,2.317493255390963,1.235603867378878,-1.2432769471724017, ,0.016127964234954245,0.011011358686317555,0.00784670518226601,0.01020391230717301,0.012198138595540281,0.00029545908392019943, ,0.6113178730010986
0.010985647028101425,0.020886898922023847,-0.0833005598393708, ,0.011236145380362723,0.020686208802300574,-0.08355139287944291, ,0.0004073612188610754, ,0.0030670590963174553,0.0005173122619735275,-0.008062580801341389,-0.0027885561877193953,-0.004627778610752539,-0.004654493691495364, ,0.008641740140437606, ,0.005402994208061193, ,4.2936762800348545e-05, ,0.2062587496047882,-0.17665751449788566,0.09875914994000001,2.317493255390963,1.2357405038786433,-1.2431433288556761, ,0.01589829813343454,0.012185020744539133,0.008423485732416712,0.008259017706699647,0.013404061687991074,0.002494290115341088, ,0.6308000087738037
0.011041810305021355,0.020894173922042087,-0.08344700116632373, ,0.01129610195174212,0.02069412082696381,-0.08369773422033173, ,0.0004093318297109819, ,0.002721704476558788,0.00041404715816453606,-0.006953693109235889,-0.006067303258640887,-0.006476752010693225,-0.0008666279012163624, ,0.007478834011016621, ,0.008874709526623434, ,4.340969536603785e-05, ,0.20655993618688295,-0.17642583251165891,0.09891081587000002,2.317493255390963,1.2358771403784088,-1.2430097105389506, ,0.014510235712304403,0.010774231719190923,0.007246957015468609,0.00676714764046497,0.009019486571515354,0.00608530732222867, ,0.6533689498901367
0.011103329453087549,0.020904475520836442,-0.08358943716060675, ,0.011356143128777755,0.020701695103991277,-0.08384326319718505, ,0.00041165799994283806, ,0.002968638549192797,0.0003865238919329417,-0.007032235978330773,-0.005333032017710546,-0.007827106507301406,-0.009702045305315867, ,0.007642941737951314, ,0.009471262301350975, ,4.405037260225231e-05, ,0.2068920137004746,-0.17618642779255797,0.09906118551000001,2.3181223252214167,1.2361504133779397,-1.242987510125922, ,0.016607795162490512,0.011804547570346558,0.007343850401106501,0.014141169406282905,0.00838231634772442,0.0045869823129233295, ,0.6695618629455566
0.011165308437140576,0.02091300201335952,-0.08374680711099713, ,0.01141626816792464,0.02070893533556095,-0.08398798711576508, ,0.0004034746462453625, ,0.0032489817483493354,0.0005366248357625013,-0.00853907726132546,-0.01534458700639309,-0.011101106011089526,0.0014957368530175716, ,0.009152031965107516, ,0.01893913566312715, ,4.462546520816903e-05, ,0.20723181394694049,-0.175947023073457,0.09922451805000002,2.3181223252214167,1.2362870498777052,-1.2426905343289159, ,0.0161581715577168,0.012846479160480682,0.008829718137472286,0.011583253540756639,0.002979862561328585,0.01614243188223986, ,0.6868100166320801
0.011197662262472001,0.020918304789067838,-0.08383249716283114, ,0.011476476328542347,0.020715845209519686,-0.08413191324759013, ,0.0004564834680488385, ,0.0033431034880917645,0.0006054300199005969,-0.008673803780145721,-0.002757783442661648,-0.00364464213703394,-0.002631558023630361, ,0.009315458037990314, ,0.004570419753967051, ,4.538647600171671e-05, ,0.20740171407017344,-0.1758234593474694,0.09931396206000001,2.3181223252214167,1.2364236863774707,-1.2427202734924716, ,0.017307485237729486,0.012544209062587016,0.009096979737292977,0.010353900736702944,0.01593324789892326,0.006338704150335253, ,0.7039129734039307
0.011231708709436855,0.020925861413802746,-0.08392158070248394, ,0.011536766872890365,0.020722428399404847,-0.08427504882999724, ,0.0005092987253119758, ,0.0036581012245886784,0.0007175787842092216,-0.009060331823559111,-0.0015445402767544829,-0.00591651772928654,-0.008799576773799821, ,0.009797256587120821, ,0.006114795634571913, ,4.631946761314063e-05, ,0.20757161419340636,-0.17569989562148183,0.09940859123000001,2.318332015164901,1.2366969593770016,-1.2426980730794426, ,0.01686457109622726,0.012116565571817004,0.009509738220895524,0.0003611478316364337,0.014982581487605404,0.005995431311720109, ,0.7232530117034912
0.011346142282529706,0.020947244736083163,-0.08420404094388165, ,0.011597139066123205,0.02072868856446598,-0.08441740106620504, ,0.00039533369110676203, ,0.0032893012489946466,0.0002849549058509391,-0.007464110117592891,-0.01045101095444957,-0.007585673142725465,0.006182296059071489, ,0.008161718069901631, ,0.012913792774789426, ,4.677107101863262e-05, ,0.20816626462472165,-0.17529831351202216,0.09970284906000002,2.3189610849953546,1.236833595876767,-1.2422377398021551, ,0.019418240548080782,0.013535435966120495,0.00781974055964654,0.009941160259560735,0.012709960196397873,0.016893809343162307, ,0.7405328750610352
0.011376548859154564,0.020949359822745026,-0.08427482502068698, ,0.011657592176285843,0.02073462934968764,-0.08455897712537658, ,0.000453692561943802, ,0.0032596180533048316,0.00021453684911760442,-0.0073684102984452465,-0.013208778067183076,-0.008988057797099568,0.006986446032971828, ,0.00806006242155072, ,0.015976763729605558, ,4.742169558942964e-05, ,0.20835161021370305,-0.17516702705316034,0.09977803388,2.3189610849953546,1.2371068688762978,-1.2422972181292669, ,0.019213796630587324,0.014056723679228377,0.007687650347490348,0.009941160259560735,0.010356574570918297,0.018606593298806623, ,0.7570500373840332
0.011474661206379997,0.02095582251557244,-0.08450476772598696, ,0.011718125474308654,0.020740254385810283,-0.08469978414268141, ,0.0003791778884739125, ,0.003269076797542427,0.0002983406394688389,-0.0077212307117652465,-0.013191372726191695,5.274565212495114e-05,0.0253045424000232, ,0.008390069960953591, ,0.013191477137230127, ,4.776966512964043e-05, ,0.20893853791214412,-0.17474227674507797,0.10002044011000001,2.3189610849953546,1.237790051375125,-1.2422008777266245, ,0.018717345475043546,0.01390024045092585,0.008143564171779142,0.008714101059727754,0.021298985295428317,0.03441308882123611, ,0.7789490222930908
0.011509135152377411,0.020960114357795944,-0.08457945560896576, ,0.011778738234002988,0.020745567289353055,-0.08483982921935887, ,0.0004318688263681295, ,0.0030782970851531122,4.820778235837701e-05,-0.006879151559813185,-0.00952012141566213,-0.004722573935510564,0.0036320451211614424, ,0.0075366413685157025, ,0.01062710689415809, ,4.846649004198674e-05, ,0.20912388350112548,-0.17460326755334193,0.10009821751,2.319380464882324,1.237790051375125,-1.241874162766062, ,0.018203902082960056,0.015015338854188414,0.007191337029345373,0.011234062998393022,0.01482514286669614,0.015170791254975526, ,0.7929518222808838
0.011539444491841178,0.02096105768401354,-0.08464346611121047, ,0.011839429732056287,0.020750571662635577,-0.0849791194227808, ,0.0004969493486368299, ,0.0032735656797573632,0.00015159893825126544,-0.007053809443377127,-0.01640433897683534,-0.008222095432377098,0.015154118996674678, ,0.007777881598561432, ,0.01834952787139345, ,4.9369386844918994e-05, ,0.20930150635723266,-0.1744642583616059,0.10016432830000001,2.3195901548258084,1.237790051375125,-1.2415474478055, ,0.019957295806197848,0.014100585669906506,0.007384706314325453,0.010508601763751327,0.011602827117155004,0.027962870150707673, ,0.8087179660797119
0.011611879849307349,0.02096942752127099,-0.08480946091346567, ,0.011900199248027146,0.020755271093799394,-0.08511766178651362, ,0.0004732640164359212, ,0.0036064549001931998,0.0006069657513896221,-0.008483858094304405,0.016809503677081374,0.010041215242693271,-0.005296920866040751, ,0.009238548183279767, ,0.01958022914751225, ,5.015829653903511e-05, ,0.20973397939818925,-0.1741785172452596,0.10034321632000001,2.319799844769293,1.2386098703737176,-1.2420525977473973, ,0.020847307020753686,0.01257209765938106,0.009159753605520415,0.011725423643868405,0.04018214759186958,-0.0023028229402285473, ,0.8223209381103516
0.011654555999714062,0.020975095791666416,-0.08491482335098997, ,0.011961046064340921,0.020759669156830755,-0.08525546331038172, ,0.0005063401787790563, ,0.004278402204231821,0.0007449447870928634,-0.010754599611207174,0.0027141368147705776,-0.0015552122746277236,-0.004623606320513144, ,0.011598322333612307, ,0.0031281112509177512, ,5.103346330644566e-05, ,0.20996566138441597,-0.1740240625877751,0.10045210468000002,2.319799844769293,1.2386098703737176,-1.241725882786835, ,0.022589131530223943,0.015303490011041896,0.011361491811697575,0.011725423643868405,0.026098294238857764,0.0032501538847176242, ,0.8359320163726807
0.011742135166700165,0.020994786858152193,-0.08514073681769503, ,0.012021969466284584,0.020763769411581725,-0.08539253096052953, ,0.0004416747516098234, ,0.0044503762339782255,0.0009787260791842933,-0.011862754514394466,0.004526620668142578,-0.00730810586792237,-0.020000465765207646, ,0.01270782034932899, ,0.008596421995565286, ,5.166143446832309e-05, ,0.21018189790489425,-0.17387733066316483,0.10057525223000001,2.319799844769293,1.2386098703737176,-1.2413991678262726, ,0.021582201855462994,0.014671759671996099,0.012444384000000001,0.011725423643868405,0.01786135554781708,-0.011572278543506561, ,0.8517928123474121
0.011787693027133686,0.021004549075857835,-0.08525721801578695, ,0.012082968742002377,0.020767575403793037,-0.08552887166948533, ,0.00046598280720512895, ,0.004365511628640164,0.0008906458413664296,-0.011281820086767399,0.002730548723092931,-0.008832946105903974,-0.023737952658211808, ,0.012129732324529019, ,0.00924535832041154, ,5.2349102133434065e-05, ,0.21062209367872506,-0.17359158954681853,0.10081247330000001,2.3204289145997468,1.2391564163727795,-1.2415181244804963, ,0.021533229307572222,0.014658162119010006,0.011825398307349667,0.015960915622316232,0.01457465399234245,-0.010216190405437755, ,0.865372896194458
0.011834076610213715,0.021011765667949923,-0.08537269151444629, ,0.012144043182490696,0.02077109066511544,-0.085664492336222, ,0.0004890311365419378, ,0.003977429964639831,0.0005594472327041897,-0.009671600486955298,0.020679097602882834,0.010131421582935993,-0.0226897221941626, ,0.010472477563073082, ,0.023027607264696173, ,5.308944619165806e-05, ,0.210861498397826,-0.17341396669071135,0.10093432456000001,2.320638604543231,1.2394296893723105,-1.2416592815477487, ,0.02151370246168007,0.015800356569841956,0.01035683453836151,0.017744026591295876,0.04077512191522606,-0.014629935764971833, ,0.8788869380950928
0.0118755631151306,0.021014808365840996,-0.0854680755661856, ,0.012205192081593548,0.02077431871313154,-0.085799399826222, ,0.0005256104012292908, ,0.004007433479933158,0.00031782085752400945,-0.00856502416055909,0.0011749904709082563,-0.002286084228465368,-0.007135561344769455, ,0.009461510030884468, ,0.0025703574872993195, ,5.409668933140938e-05, ,0.21132486237027948,-0.1731050573757424,0.10111580516000002,2.320638604543231,1.2394296893723105,-1.241250887847046, ,0.0255580235815973,0.017402703385012062,0.009364380670194005,0.017744026591295876,0.019270492792266038,0.02157011922781562, ,0.8909919261932373
0.011962886481055292,0.021018905978798737,-0.0856563338358754, ,0.012266414735997752,0.020777263051378492,-0.08593360097153827, ,0.0004768624229684406, ,0.004403223594438717,0.00028168920584434044,-0.009401801314519757,-0.016798523866393494,-0.0144839294615348,0.00546795978055839, ,0.010385643686792671, ,0.02218049916651471, ,5.49235962064659e-05, ,0.21162604895237425,-0.1728888208552641,0.10122987868000001,2.3208482944867157,1.2397029623718412,-1.241147008693876, ,0.026294525230942303,0.01748929995548669,0.00984475372064277,0.014676357404062016,0.011138769407547999,0.02261511272430173, ,0.9019699096679688
0.01200859895651241,0.02102443787274797,-0.085753651081784, ,0.012327710445228198,0.020779927169369203,-0.08606710257085758, ,0.0005097739325422902, ,0.004670190727168208,0.0004927807483858197,-0.010887153994050186,0.01115291541101087,0.012481575616014554,0.004429393801219103, ,0.011856797054190923, ,0.016738491540923932, ,5.583293648143902e-05, ,0.21188862187009788,-0.17271119799915693,0.10133487817,2.3212676743736846,1.2401128718711374,-1.241236226184544, ,0.026500123305911973,0.018990782781362972,0.011686582186353635,0.016037552708884774,0.04935793123758612,0.011940422655398623, ,0.9135229587554932
0.012058503234764806,0.02103126704277888,-0.08587015645454231, ,0.012389078511643118,0.02078231454261485,-0.08619991138956373, ,0.0005291461784725253, ,0.005260634460472628,0.0008664525187004626,-0.012518194562354668,0.005057791879488563,0.0021372793155778488,-0.05150784906224345, ,0.013606256281389105, ,0.005490802688655378, ,5.677973039025255e-05, ,0.21215119478782152,-0.1725104069444271,0.10145932201,2.3216870542606536,1.2405227813704338,-1.2411620861949304, ,0.025468851733352327,0.020688236659793063,0.013218930721991703,0.06042026825408727,0.023518808374681382,0.005313823255501499, ,0.9244370460510254
0.0120817755302914,0.02103392754884464,-0.08593058737343529, ,0.012450518240429254,0.020784428632646474,-0.08633203415979906, ,0.000599483459109319, ,0.005295930717037619,0.0008398345653980713,-0.012728642179445996,-0.018825741471906965,0.0010872792609203062,-0.0034291051364625427, ,0.01381197074965306, ,0.01885710433847716, ,5.791845986287735e-05, ,0.21226703578093487,-0.1724177341499364,0.10152154393000001,2.3216870542606536,1.2405227813704338,-1.2409170499745088, ,0.02573127482604956,0.020787939005141462,0.01339681372582002,0.053242518514182824,0.02052701672580337,0.052059982855182305, ,0.937000036239624
0.012164853883105665,0.021044992166460975,-0.08613402122723438, ,0.012512028939597191,0.020786272887037202,-0.08646347758052872, ,0.0005440658729615916, ,0.0054973322910021475,0.0007699326589141364,-0.012518465108679978,0.007199581671594114,0.0021113208287374735,-0.018704103369354987, ,0.013693992379660342, ,0.007502755790462763, ,5.8862242441457657e-05, ,0.21272267702051412,-0.17211654756784164,0.10173672807,2.3216870542606536,1.2410693273694955,-1.2407909704083102, ,0.030183505584755334,0.01999092933610086,0.013340713165829148,0.03241037124427881,0.036528526811253056,0.007788869391826672, ,0.9479899406433105
0.012219432746514334,0.021048675831517465,-0.08625878461494144, ,0.012573609919976612,0.020787850739423883,-0.08659424831760144, ,0.0005531790801085271, ,0.005406909920103325,0.0005558452347476394,-0.01198652697368898,0.0200754328188128,0.012778459619661911,-0.015499308958884104, ,0.01316132469396895, ,0.023797306269318513, ,5.981069053203287e-05, ,0.21304703180123155,-0.17189258831448914,0.10187024594,2.3216870542606536,1.2416158733685574,-1.2406648908421123, ,0.031236649624249765,0.021224992520346854,0.012918744136253043,0.026223622170084265,0.05491233968886372,-0.00043649959645822994, ,0.9594709873199463
0.01227304173013126,0.021053256690490317,-0.08637641265650174, ,0.012635260495211468,0.02078916560952956,-0.086724353003814, ,0.0005674583844715166, ,0.005505552866886167,0.0002579100843967719,-0.01205998283320529,-0.04189646359899009,-0.021076954138771708,0.05575188227575016, ,0.013259744187536891, ,0.04689937529174438, ,6.0958697374859555e-05, ,0.21335594111620054,-0.17168407452688508,0.10199468978000001,2.3218967442041385,1.2418891463680883,-1.2403976542086614, ,0.03276828092488632,0.021785340119024516,0.012572069076558801,0.0,0.011312090784481635,0.06385298903597059, ,0.9679558277130127
0.012332358357978617,0.02105881005612955,-0.08649565032232695, ,0.01269697998175542,0.020790220903184897,-0.08685379823897305, ,0.0005773724896486649, ,0.005613427620135585,0.0002728154221960259,-0.011793289634923832,-0.014418547767187453,-0.016120132117531154,-4.8999103626619096e-05, ,0.013063945740636362, ,0.021627596978751613, ,6.211557830601523e-05, ,0.21369574136266642,-0.17145239254065833,0.10212172620000001,2.322525814034592,1.242162419367619,-1.240130417575211, ,0.03353248818320522,0.022487426909590234,0.012395962272373542,0.01742690741024949,0.01863567090371916,0.018406964019120613, ,0.9765419960021973
0.012390206980151508,0.02106373612535334,-0.08661806930821413, ,0.012758767698866857,0.020791020012350815,-0.08698259058995758, ,0.0005857361577665077, ,0.005963151440642785,0.0007287591389654816,-0.012823887204598811,0.020559110781112208,0.019521814311966236,-0.05036810670417668, ,0.014161297540230518, ,0.028350977466843633, ,6.32765940701096e-05, ,0.21402781887625807,-0.1712207105544316,0.10225265149000001,2.322945193921561,1.2425723288669153,-1.2401379563257382, ,0.03194107760298579,0.024165251224464168,0.013839106446568205,0.073033891972656,0.05328908018164029,0.012109628871033035, ,0.9848120212554932
0.012451435357970567,0.0210688060286111,-0.08676139459767147, ,0.012820622968604253,0.020791566315139398,-0.08711073659078225, ,0.000578965611001112, ,0.006276106944575878,0.00040444672959551013,-0.014937572455211094,-0.004884521171724885,-0.00968899157151551,0.019199145992982985, ,0.01620753424773538, ,0.010850546578210487, ,6.439802297152396e-05, ,0.2143598963898497,-0.1709658603695822,0.10240431742000002,2.3231548838650453,1.242982238366212,-1.239982137595984, ,0.03543575114207273,0.025448361908948988,0.0157243943928924,-0.010533262904013881,0.03790231457381402,0.0048548934040900105, ,0.9929358959197998
0.012451435357970567,0.0210688060286111,-0.08676139459767147, ,0.01288254511582157,0.020791863175837057,-0.08723824274265997, ,0.0006999550845561048, ,0.006276106944575878,0.00040444672959551013,-0.014937572455211094,-0.004884521171724885,-0.00968899157151551,0.019199145992982985, ,0.01620753424773538, ,0.010850546578210487, ,6.584591158764263e-05, ,0.2143598963898497,-0.1709658603695822,0.10240431742000002,2.3231548838650453,1.242982238366212,-1.239982137595984, ,0.03543575114207273,0.025448361908948988,0.0157243943928924,-0.010533262904013881,0.03790231457381402,0.0048548934040900105, ,1.001114845275879
0.012515852955098588,0.02107340173395307,-0.08691775474259587, ,0.012944533468163232,0.02079191394492577,-0.08736511551406366, ,0.0006805395047321617, ,0.006865365163753547,0.0008155085264195181,-0.01665909066055442,-7.234705053337821e-06,-0.005874750608057504,-0.009356497339221132, ,0.018036729044505692, ,0.005874645858244106, ,6.721418855639399e-05, ,0.21472286483493827,-0.17071101018473278,0.10256894625000001,2.322945193921561,1.2433921478655081,-1.2397446401260894, ,0.0357427275173148,0.026243623218603643,0.01756208546857773,0.01804420012736145,0.03692230925956651,0.004185129017859831, ,1.010213851928711
0.012563805703301855,0.021077596247379413,-0.08703365640331456, ,0.013006587356059642,0.020791721959105273,-0.08749136134079044, ,0.0006980497908494495, ,0.0068948667783674126,0.0006259556437241365,-0.01635267445040641,0.014452413693876533,0.012391364099417853,0.0038249468472553038, ,0.017757842493960785, ,0.019037252860505224, ,6.86085908743161e-05, ,0.2149854377526619,-0.17051794186287716,0.10269209380000001,2.322945193921561,1.2438020573648043,-1.2397521788766166, ,0.03762765327457208,0.028076018212565317,0.017465802105263162,0.014759166208192436,0.06546227839099707,0.0073022367561357965, ,1.0187718868255615
0.012654561284515234,0.02108593697836661,-0.0872336663200721, ,0.013068706112722293,0.020791290541314962,-0.08761698662602337, ,0.000636605779546856, ,0.00731352562248039,0.00043882291223283805,-0.015642656730799075,-0.0044887701555392625,-0.008304262571745073,-0.017990549221543646, ,0.01727347481477283, ,0.009439750938088859, ,7.000353109162958e-05, ,0.21547969265661227,-0.17015497341778862,0.10290468536000001,2.3235742637520147,1.2443486033638662,-1.2392177056097153, ,0.04165800770784494,0.029683122164050918,0.016558016133056134,0.03648088247469655,0.03660216595144527,0.015264215884960023, ,1.0250749588012695
0.012654561284515234,0.02108593697836661,-0.0872336663200721, ,0.013130889074139012,0.020790623000755713,-0.08774199774039418, ,0.0007566368623236052, ,0.00731352562248039,0.00043882291223283805,-0.015642656730799075,-0.0044887701555392625,-0.008304262571745073,-0.017990549221543646, ,0.01727347481477283, ,0.009439750938088859, ,7.171639164757498e-05, ,0.21547969265661227,-0.17015497341778862,0.10290468536000001,2.3235742637520147,1.2443486033638662,-1.2392177056097153, ,0.04165800770784494,0.029683122164050918,0.016558016133056134,0.03648088247469655,0.03660216595144527,0.015264215884960023, ,1.0306110382080078
0.01273106390005326,0.021090954304994653,-0.0873962739793805, ,0.013193135579069398,0.020789722632912497,-0.08786640102204604, ,0.0007247552642510779, ,0.007669379793072638,0.000579683264950472,-0.016315218309891775,0.012678846828454807,0.009672416713572217,-0.046900339841441485, ,0.018037232814306144, ,0.01594702624199283, ,7.332225485463555e-05, ,0.2159044429646946,-0.1698306186370712,0.10307838822000001,2.324203333582468,1.2448951493629279,-1.2390099473033764, ,0.04206424714471222,0.03205977755353743,0.017446671982475355,0.06896141335094093,0.05474122128190208,0.013075732282906517, ,1.0361709594726562
0.01273106390005326,0.021090954304994653,-0.0873962739793805, ,0.01325544496903983,0.020788592719575387,-0.08799020277669652, ,0.0008480267980022766, ,0.007669379793072638,0.000579683264950472,-0.016315218309891775,0.012678846828454807,0.009672416713572217,-0.046900339841441485, ,0.018037232814306144, ,0.01594702624199283, ,7.524912927302293e-05, ,0.2159044429646946,-0.1698306186370712,0.10307838822000001,2.324203333582468,1.2448951493629279,-1.2390099473033764, ,0.04206424714471222,0.03205977755353743,0.017446671982475355,0.06896141335094093,0.05474122128190208,0.013075732282906517, ,1.0419259071350098
0.01281438249137437,0.021094821296392514,-0.08758241192312985, ,0.013317816588338922,0.020787236528862354,-0.08811340927770012, ,0.000793733248493296, ,0.00852603952083122,0.0007919324525952874,-0.018387763383540853,0.010183437841999399,0.010106918997786306,-0.008795968873512547, ,0.02028374593533786, ,0.0143474776825916, ,7.700660192315204e-05, ,0.21639097513577077,-0.1694908183906053,0.10327672059000001,2.324203333582468,1.245578331861755,-1.2388319281605935, ,0.04817103632409685,0.032354906770702616,0.019738304237918218,0.04589672311262971,0.06821783832908719,0.02685080480561859, ,1.0479998588562012
0.012900573098614563,0.021101600136879766,-0.08777809977039353, ,0.013380249784012716,0.020785657315240878,-0.08823602676611061, ,0.0007345792826279412, ,0.009069021833647389,0.0005597703385574268,-0.02114633047417146,-0.013164569137964575,-0.007218295088733826,0.03650607567208595, ,0.023015816135300834, ,0.015013508456916918, ,7.858422713723257e-05, ,0.21686978457397268,-0.16915101814413944,0.10348542328000002,2.3244130235259526,1.2462615143605824,-1.2385722302776698, ,0.05002474515470257,0.03649882367633492,0.022340549116409536,0.0,0.05704754053014492,0.03242035460048959, ,1.0534138679504395
0.012900573098614563,0.021101600136879766,-0.08777809977039353, ,0.013442743905859858,0.02078385831954957,-0.0883580614507443, ,0.0008551401039505809, ,0.009069021833647389,0.0005597703385574268,-0.02114633047417146,-0.013164569137964575,-0.007218295088733826,0.03650607567208595, ,0.023015816135300834, ,0.015013508456916918, ,8.047063700122208e-05, ,0.21686978457397268,-0.16915101814413944,0.10348542328000002,2.3244130235259526,1.2462615143605824,-1.2385722302776698, ,0.05002474515470257,0.03649882367633492,0.022340549116409536,0.0,0.05704754053014492,0.03242035460048959, ,1.0601389408111572
0.012900573098614563,0.021101600136879766,-0.08777809977039353, ,0.013505298306427056,0.02078184276902111,-0.08847951950824241, ,0.0009797586437014793, ,0.009069021833647389,0.0005597703385574268,-0.02114633047417146,-0.013164569137964575,-0.007218295088733826,0.03650607567208595, ,0.023015816135300834, ,0.015013508456916918, ,8.267175896277862e-05, ,0.21686978457397268,-0.16915101814413944,0.10348542328000002,2.3244130235259526,1.2462615143605824,-1.2385722302776698, ,0.05002474515470257,0.03649882367633492,0.022340549116409536,0.0,0.05704754053014492,0.03242035460048959, ,1.0670509338378906
0.012961461195211849,0.021106545654480554,-0.08791591130477154, ,0.013567912341004115,0.020779613877303118,-0.08860040708313333, ,0.0009711857956932109, ,0.009555121278767665,0.0008567848983784003,-0.022082076042825423,0.00013349068308490288,0.005439594707578084,0.02770686849318049, ,0.024075973612196298, ,0.005440749935364924, ,8.482641745948358e-05, ,0.21720186208756434,-0.16891161342503846,0.10363190405000001,2.324622713469437,1.2466714238598786,-1.2381713753274943, ,0.05228481628565883,0.036484791064387075,0.023528525140324965,0.015824709784286177,0.07394640239442007,0.03456262793615677, ,1.0732738971710205
0.013129583305619702,0.021121966522503637,-0.08828460283387422, ,0.013630585367619429,0.02077717484448115,-0.08872073028789665, ,0.0007483926265761993, ,0.008743426704295875,0.0002504623959029732,-0.01772140651198868,-0.0005985961937413423,0.00837567218629462,-0.021728531864822133, ,0.019762552737647796, ,0.00839693123579267, ,8.636561903304006e-05, ,0.2181054218338486,-0.16823973566498093,0.10402856879000001,2.3258808531303443,1.2481744253572984,-1.2376817187252032, ,0.04965826350521757,0.0380196079961822,0.01896287085714286,0.06925729307789719,0.06152728840766444,0.040861121823988086, ,1.0792198181152344
0.013129583305619702,0.021121966522503637,-0.08828460283387422, ,0.013693316747035035,0.020774528857099756,-0.08884049520302406, ,0.0008645950788607888, ,0.008743426704295875,0.0002504623959029732,-0.01772140651198868,-0.0005985961937413423,0.00837567218629462,-0.021728531864822133, ,0.019762552737647796, ,0.00839693123579267, ,8.842988815725159e-05, ,0.2181054218338486,-0.16823973566498093,0.10402856879000001,2.3258808531303443,1.2481744253572984,-1.2376817187252032, ,0.04965826350521757,0.0380196079961822,0.01896287085714286,0.06925729307789719,0.06152728840766444,0.040861121823988086, ,1.08211088180542
0.013129583305619702,0.021121966522503637,-0.08828460283387422, ,0.013756105842741987,0.02077167908818489,-0.08895970787708338, ,0.000985392609841472, ,0.008743426704295875,0.0002504623959029732,-0.01772140651198868,-0.0005985961937413423,0.00837567218629462,-0.021728531864822133, ,0.019762552737647796, ,0.00839693123579267, ,9.080280541038444e-05, ,0.2181054218338486,-0.16823973566498093,0.10402856879000001,2.3258808531303443,1.2481744253572984,-1.2376817187252032, ,0.04965826350521757,0.0380196079961822,0.01896287085714286,0.06925729307789719,0.06152728840766444,0.040861121823988086, ,1.0850470066070557
0.013218113566238063,0.02111646936586543,-0.08846642687020326, ,0.013818952020955592,0.02076862869726599,-0.08907837432678112, ,0.0009254618679400933, ,0.010049662353295095,-0.0005001147535759086,-0.020187863559423022,-0.02864454680731933,-0.012222820315221816,0.014630690982529535, ,0.022556499357743013, ,0.03114328250384016, ,9.300507206613565e-05, ,0.2186460131350443,-0.1678149853568986,0.10422041971000001,2.3258808531303443,1.2487209713563603,-1.2372289241984427, ,0.05953384037545218,0.04846626228726802,0.02129520256684492,0.03885839584168229,0.05268873993091003,0.053937176561630544, ,1.0879158973693848
0.013218113566238063,0.02111646936586543,-0.08846642687020326, ,0.013881854650610708,0.020765380830397976,-0.08919650053702412, ,0.0010472931517994915, ,0.010049662353295095,-0.0005001147535759086,-0.020187863559423022,-0.02864454680731933,-0.012222820315221816,0.014630690982529535, ,0.022556499357743013, ,0.03114328250384016, ,0.0005185173637837844, ,0.2186460131350443,-0.1678149853568986,0.10422041971000001,2.3258808531303443,1.2487209713563603,-1.2372289241984427, ,0.05953384037545218,0.04846626228726802,0.02129520256684492,0.03885839584168229,0.05268873993091003,0.053937176561630544, ,1.090669870376587
0.013218113566238063,0.02111646936586543,-0.08846642687020326, ,0.01394481310335687,0.020761938620182437,-0.08931409246098324, ,0.0011714611477448137, ,0.010049662353295095,-0.0005001147535759086,-0.020187863559423022,-0.02864454680731933,-0.012222820315221816,0.014630690982529535, ,0.022556499357743013, ,0.03114328250384016, ,0.0005277137551071791, ,0.2186460131350443,-0.1678149853568986,0.10422041971000001,2.3258808531303443,1.2487209713563603,-1.2372289241984427, ,0.05953384037545218,0.04846626228726802,0.02129520256684492,0.03885839584168229,0.05268873993091003,0.053937176561630544, ,1.0933740139007568
0.013218113566238063,0.02111646936586543,-0.08846642687020326, ,0.014007826753553877,0.020758305185791085,-0.08943115602015617, ,0.0012971626077241398, ,0.010049662353295095,-0.0005001147535759086,-0.020187863559423022,-0.02864454680731933,-0.012222820315221816,0.014630690982529535, ,0.022556499357743013, ,0.03114328250384016, ,0.0005384005447268592, ,0.2186460131350443,-0.1678149853568986,0.10422041971000001,2.3258808531303443,1.2487209713563603,-1.2372289241984427, ,0.05953384037545218,0.04846626228726802,0.02129520256684492,0.03885839584168229,0.05268873993091003,0.053937176561630544, ,1.0960938930511475
0.013334740224862134,0.021116525878375664,-0.08871078827941221, ,0.014070894978266588,0.020754483632986213,-0.08954769710442922, ,0.0011719278091239075, ,0.012179977835872552,0.0005205436838218633,-0.026377851533608845,0.09940914199947656,0.05263194426778535,-0.04672792329695567, ,0.02905880034237862, ,0.11248238217737497, ,0.0005470790004035311, ,0.2193333363608503,-0.1672821167885771,0.10448615916000001,2.3263002330173133,1.25022397285378,-1.2374743762574165, ,0.07167442715896584,0.05002474515470257,0.028856542608695655,0.016892041893443052,0.17492913787075762,-0.0738685857288137, ,1.0991508960723877
0.013334740224862134,0.021116525878375664,-0.08871078827941221, ,0.014134017157260571,0.02075047705414359,-0.08966372157214061, ,0.0012965019154540932, ,0.012179977835872552,0.0005205436838218633,-0.026377851533608845,0.09940914199947656,0.05263194426778535,-0.04672792329695567, ,0.02905880034237862, ,0.11248238217737497, ,0.0005572063370934035, ,0.2193333363608503,-0.1672821167885771,0.10448615916000001,2.3263002330173133,1.25022397285378,-1.2374743762574165, ,0.07167442715896584,0.05002474515470257,0.028856542608695655,0.016892041893443052,0.17492913787075762,-0.0738685857288137, ,1.1039178371429443
0.013478068299190703,0.021135781682825545,-0.08901434425500294, ,0.0141971926729972,0.020746288528274124,-0.08977923525014309, ,0.001119778110560963, ,0.012179977835872552,0.0005205436838218633,-0.026377851533608845,0.09940914199947656,0.05263194426778535,-0.04672792329695567, ,0.02905880034237862, ,0.11248238217737497, ,0.000564707294072971, ,0.22009788691539853,-0.16679558461750096,0.10481412053000001,2.3275583726782205,1.2513170648519036,-1.237385574605301, ,0.07954479594171901,0.04922040537265082,0.036872248888888896,0.18049936376749778,0.05890101189080283,0.05557143575104689, ,1.1071078777313232
0.013478068299190703,0.021135781682825545,-0.08901434425500294, ,0.014260420910628914,0.020741921121045736,-0.08989424393386651, ,0.0012415414594824862, ,0.016016837181601636,0.0028488778206086267,-0.03452725724890645,0.004562924710316937,-0.00428929558036472,-0.11873574720067259, ,0.038167874859243285, ,0.006258535701482, ,0.0005736130067757278, ,0.22009788691539853,-0.16679558461750096,0.10481412053000001,2.3275583726782205,1.2513170648519036,-1.237385574605301, ,0.07954479594171901,0.04922040537265082,0.036872248888888896,0.18049936376749778,0.05890101189080283,0.05557143575104689, ,1.1100449562072754
0.013478068299190703,0.021135781682825545,-0.08901434425500294, ,0.014323701257994547,0.020737377884805726,-0.09000875338738071, ,0.0013647967650343609, ,0.016016837181601636,0.0028488778206086267,-0.03452725724890645,0.004562924710316937,-0.00428929558036472,-0.11873574720067259, ,0.038167874859243285, ,0.006258535701482, ,0.0005838881205193464, ,0.22009788691539853,-0.16679558461750096,0.10481412053000001,2.3275583726782205,1.2513170648519036,-1.237385574605301, ,0.07954479594171901,0.04922040537265082,0.036872248888888896,0.18049936376749778,0.05890101189080283,0.05557143575104689, ,1.1131129264831543
0.013478068299190703,0.021135781682825545,-0.08901434425500294, ,0.014387033105614656,0.02073266185860257,-0.09012276934345784, ,0.001489069772950594, ,0.016016837181601636,0.0028488778206086267,-0.03452725724890645,0.004562924710316937,-0.00428929558036472,-0.11873574720067259, ,0.038167874859243285, ,0.006258535701482, ,0.0005954930134992343, ,0.22009788691539853,-0.16679558461750096,0.10481412053000001,2.3275583726782205,1.2513170648519036,-1.237385574605301, ,0.07954479594171901,0.04922040537265082,0.036872248888888896,0.18049936376749778,0.05890101189080283,0.05557143575104689, ,1.119014024734497
0.013635837459454618,0.021160524021001385,-0.08937279147028306, ,0.014450415846686463,0.02072777606820733,-0.09023629750363545, ,0.0012635075817851906, ,0.016735280629473295,0.002267709089685868,-0.039884089732629184,-0.010624316589068683,0.0030624331750554222,0.01489998365954461, ,0.04331227004052183, ,0.01105231536892705, ,0.0006039488941104489, ,0.22087016020282096,-0.1662781615149279,0.10519522979000001,2.3288165123391273,1.2520002473507308,-1.2365541255413937, ,0.08201982848614588,0.05772320046135693,0.04236386042553192,0.06666168961953063,0.09776299549210249,0.07288463236782781, ,1.1218810081481934
0.013635837459454618,0.021160524021001385,-0.08937279147028306, ,0.014513848877079532,0.020722723526136633,-0.09034934353827856, ,0.0013842786079000958, ,0.016735280629473295,0.002267709089685868,-0.039884089732629184,-0.010624316589068683,0.0030624331750554222,0.01489998365954461, ,0.04331227004052183, ,0.01105231536892705, ,0.0006137030155328194, ,0.22087016020282096,-0.1662781615149279,0.10519522979000001,2.3288165123391273,1.2520002473507308,-1.2365541255413937, ,0.08201982848614588,0.05772320046135693,0.04236386042553192,0.06666168961953063,0.09776299549210249,0.07288463236782781, ,1.124635934829712
0.013635837459454618,0.021160524021001385,-0.08937279147028306, ,0.014577331595330718,0.02071750723167378,-0.09046191308664336, ,0.0015062738724211189, ,0.016735280629473295,0.002267709089685868,-0.039884089732629184,-0.010624316589068683,0.0030624331750554222,0.01489998365954461, ,0.04331227004052183, ,0.01105231536892705, ,0.0006247224088277367, ,0.22087016020282096,-0.1662781615149279,0.10519522979000001,2.3288165123391273,1.2520002473507308,-1.2365541255413937, ,0.08201982848614588,0.05772320046135693,0.04236386042553192,0.06666168961953063,0.09776299549210249,0.07288463236782781, ,1.1274428367614746
0.013635837459454618,0.021160524021001385,-0.08937279147028306, ,0.014640863402639738,0.020712130170891425,-0.09057401175693885, ,0.0016291299421362967, ,0.016735280629473295,0.002267709089685868,-0.039884089732629184,-0.010624316589068683,0.0030624331750554222,0.01489998365954461, ,0.04331227004052183, ,0.01105231536892705, ,0.0006369712811851582, ,0.22087016020282096,-0.1662781615149279,0.10519522979000001,2.3288165123391273,1.2520002473507308,-1.2365541255413937, ,0.08201982848614588,0.05772320046135693,0.04236386042553192,0.06666168961953063,0.09776299549210249,0.07288463236782781, ,1.1303479671478271
0.013832920325303815,0.021181821726376664,-0.08986119831335437, ,0.014704443702864079,0.020706595316672894,-0.09068564512639032, ,0.0012903897417598763, ,0.01633295547517037,0.0015979528822792667,-0.03916232582163444,0.03685796857142026,0.041436340042845965,0.033796770223222104, ,0.042461825817170624, ,0.055456180952239705, ,0.0006448437927583477, ,0.2218509472778475,-0.1655522246247508,0.10571633837000001,2.3288165123391273,1.2537765218476815,-1.2360422685260735, ,0.08251907961606154,0.061581402698553396,0.04202852643799473,0.028332850095556094,0.16392754391193484,0.03412374702975221, ,1.1331589221954346
0.013832920325303815,0.021181821726376664,-0.08986119831335437, ,0.014768071902514569,0.02070090562873477,-0.09079681874130141, ,0.0014075419533792458, ,0.01633295547517037,0.0015979528822792667,-0.03916232582163444,0.03685796857142026,0.041436340042845965,0.033796770223222104, ,0.042461825817170624, ,0.055456180952239705, ,0.0006539235327657393, ,0.2218509472778475,-0.1655522246247508,0.10571633837000001,2.3288165123391273,1.2537765218476815,-1.2360422685260735, ,0.08251907961606154,0.061581402698553396,0.04202852643799473,0.028332850095556094,0.16392754391193484,0.03412374702975221, ,1.1359930038452148
0.013832920325303815,0.021181821726376664,-0.08986119831335437, ,0.014831747410750358,0.020695064053648102,-0.09090753811711681, ,0.0015262423017068356, ,0.01633295547517037,0.0015979528822792667,-0.03916232582163444,0.03685796857142026,0.041436340042845965,0.033796770223222104, ,0.042461825817170624, ,0.055456180952239705, ,0.0006641861065179876, ,0.2218509472778475,-0.1655522246247508,0.10571633837000001,2.3288165123391273,1.2537765218476815,-1.2360422685260735, ,0.08251907961606154,0.061581402698553396,0.04202852643799473,0.028332850095556094,0.16392754391193484,0.03412374702975221, ,1.1388559341430664
0.014044523173703676,0.02119787771356602,-0.09034997439322301, ,0.014895469639374635,0.020689073524861528,-0.09101780873848574, ,0.0011954054971404584, ,0.018365196332589415,0.001033260802775499,-0.04182935227196671,0.018358330903109704,0.03362830938802697,0.06131862395705953, ,0.04569510669331449, ,0.03831140102038525, ,0.0006703630761763883, ,0.22293985261311314,-0.1647258922072088,0.10624133582,2.329445582169581,1.2558260693441632,-1.2354265323575844, ,0.09703163758534844,0.07211013796236382,0.0448698916056338,0.027175353289947052,0.17143028075661323,0.06387896555667749, ,1.1416330337524414
0.014044523173703676,0.02119787771356602,-0.09034997439322301, ,0.0149592380028292,0.020682936962721808,-0.09112763605932356, ,0.0013063785295328526, ,0.018365196332589415,0.001033260802775499,-0.04182935227196671,0.018358330903109704,0.03362830938802697,0.06131862395705953, ,0.04569510669331449, ,0.03831140102038525, ,0.0006776735986287614, ,0.22293985261311314,-0.1647258922072088,0.10624133582,2.329445582169581,1.2558260693441632,-1.2354265323575844, ,0.09703163758534844,0.07211013796236382,0.0448698916056338,0.027175353289947052,0.17143028075661323,0.06387896555667749, ,1.1443870067596436
0.014044523173703676,0.02119787771356602,-0.09034997439322301, ,0.015023051918190486,0.020676657274497256,-0.0912370255028754, ,0.0014198763752614146, ,0.018365196332589415,0.001033260802775499,-0.04182935227196671,0.018358330903109704,0.03362830938802697,0.06131862395705953, ,0.04569510669331449, ,0.03831140102038525, ,0.0006861077210904962, ,0.22293985261311314,-0.1647258922072088,0.10624133582,2.329445582169581,1.2558260693441632,-1.2354265323575844, ,0.09703163758534844,0.07211013796236382,0.0448698916056338,0.027175353289947052,0.17143028075661323,0.06387896555667749, ,1.1471989154815674
0.014044523173703676,0.02119787771356602,-0.09034997439322301, ,0.015086910805164238,0.02067023735439853,-0.091345982461778, ,0.001535255156471065, ,0.018365196332589415,0.001033260802775499,-0.04182935227196671,0.018358330903109704,0.03362830938802697,0.06131862395705953, ,0.04569510669331449, ,0.03831140102038525, ,0.0006956487035105026, ,0.22293985261311314,-0.1647258922072088,0.10624133582,2.329445582169581,1.2558260693441632,-1.2354265323575844, ,0.09703163758534844,0.07211013796236382,0.0448698916056338,0.027175353289947052,0.17143028075661323,0.06387896555667749, ,1.1500358581542969
0.014238472926403456,0.02121474294510606,-0.09075087064124535, ,0.015150814086081137,0.02066368008360125,-0.09145451229812306, ,0.0012771641438223571, ,0.020473472819013083,0.00131080871048685,-0.03927338738592308,0.05637415309314989,0.05287684675996105,-0.08020454073392352, ,0.044308918577540775, ,0.07729109023084145, ,0.0007021099861806342, ,0.22396697608538502,-0.1640076780499059,0.10667688926,2.3311231017174574,1.257602343841114,-1.2347513178619829, ,0.11474841784579294,0.07567539199240093,0.04293480194070081,0.18482198015121956,0.18685577795266198,0.07142241098193748, ,1.1529409885406494
0.014238472926403456,0.02121474294510606,-0.09075087064124535, ,0.015214761185891948,0.020656988330267963,-0.09156262034351967, ,0.0013867828074831021, ,0.020473472819013083,0.00131080871048685,-0.03927338738592308,0.05637415309314989,0.05287684675996105,-0.08020454073392352, ,0.044308918577540775, ,0.07729109023084145, ,0.0007096338633378041, ,0.22396697608538502,-0.1640076780499059,0.10667688926,2.3311231017174574,1.257602343841114,-1.2347513178619829, ,0.11474841784579294,0.07567539199240093,0.04293480194070081,0.18482198015121956,0.18685577795266198,0.07142241098193748, ,1.1561789512634277
0.014238472926403456,0.02121474294510606,-0.09075087064124535, ,0.015278751532162597,0.020650164949569894,-0.09167031189915663, ,0.0014987661983756177, ,0.020473472819013083,0.00131080871048685,-0.03927338738592308,0.05637415309314989,0.05287684675996105,-0.08020454073392352, ,0.044308918577540775, ,0.07729109023084145, ,0.00071821138871865, ,0.22396697608538502,-0.1640076780499059,0.10667688926,2.3311231017174574,1.257602343841114,-1.2347513178619829, ,0.11474841784579294,0.07567539199240093,0.04293480194070081,0.18482198015121956,0.18685577795266198,0.07142241098193748, ,1.1591789722442627
0.014238472926403456,0.02121474294510606,-0.09075087064124535, ,0.015342784555069778,0.02064321278370868,-0.0917775922358657, ,0.0016125470943368853, ,0.020473472819013083,0.00131080871048685,-0.03927338738592308,0.05637415309314989,0.05287684675996105,-0.08020454073392352, ,0.044308918577540775, ,0.07729109023084145, ,0.000727827901682287, ,0.22527211794112895,-0.163150454700867,0.10711633157000001,2.33217155143488,1.259788527837361,-1.234083642116909, ,0.12276447808340334,0.08124738147129348,0.038382678361445786,0.06691314537232086,0.18584684511581706,0.0877047006547047, ,1.1624128818511963
0.014455040998572786,0.02121512248883896,-0.09115222583102658, ,0.015406859687395965,0.020636134661939184,-0.09188446659418403, ,0.0013331775033057682, ,0.019676763156820005,-0.0007416856818426788,-0.03514438332566387,0.017638530959364372,0.025558622893291943,0.04633440591982264, ,0.040284647017461137, ,0.031053298768889574, ,0.0007342677910612602, ,0.22527211794112895,-0.163150454700867,0.10711633157000001,2.33217155143488,1.259788527837361,-1.234083642116909, ,0.12276447808340334,0.08124738147129348,0.038382678361445786,0.06691314537232086,0.18584684511581706,0.0877047006547047, ,1.1655678749084473
0.014455040998572786,0.02121512248883896,-0.09115222583102658, ,0.015470976364524967,0.020628933400590976,-0.09199094018441711, ,0.0014419376136146414, ,0.019676763156820005,-0.0007416856818426788,-0.03514438332566387,0.017638530959364372,0.025558622893291943,0.04633440591982264, ,0.040284647017461137, ,0.031053298768889574, ,0.0007417169470881377, ,0.22527211794112895,-0.163150454700867,0.10711633157000001,2.33217155143488,1.259788527837361,-1.234083642116909, ,0.12276447808340334,0.08124738147129348,0.038382678361445786,0.06691314537232086,0.18584684511581706,0.0877047006547047, ,1.1683998107910156
0.014455040998572786,0.02121512248883896,-0.09115222583102658, ,0.01553513402443675,0.020621611803089832,-0.09209701818670048, ,0.001552896800807509, ,0.019720242017383403,-0.002421322789872339,-0.03384574699526736,-0.01985737912884651,-0.001332730750463685,0.08996919536858107, ,0.0392464691271021, ,0.019900936235653338, ,0.0007501667372310479, ,0.22527211794112895,-0.163150454700867,0.10711633157000001,2.33217155143488,1.259788527837361,-1.234083642116909, ,0.12276447808340334,0.08124738147129348,0.038382678361445786,0.06691314537232086,0.18584684511581706,0.0877047006547047, ,1.171137809753418
0.014654925976703956,0.021199430105559847,-0.09150417915993088, ,0.015599332107702984,0.02061417265998044,-0.09220270575106372, ,0.001312390420718757, ,0.019720242017383403,-0.002421322789872339,-0.03384574699526736,-0.01985737912884651,-0.001332730750463685,0.08996919536858107, ,0.0392464691271021, ,0.019900936235653338, ,0.0007559628576793749, ,0.2265540915982502,-0.16228550861895386,0.10749873712,2.3323812413783642,1.2615648023343118,-1.233000033920605, ,0.12789345223513582,0.0924020852565441,0.03661795751724139,0.020185796319525807,0.16552455758326218,0.09517059303659764, ,1.1741678714752197
0.014654925976703956,0.021199430105559847,-0.09150417915993088, ,0.015663570057482496,0.02060661874894836,-0.0923080079974925, ,0.001419481942932988, ,0.019720242017383403,-0.002421322789872339,-0.03384574699526736,-0.01985737912884651,-0.001332730750463685,0.08996919536858107, ,0.0392464691271021, ,0.019900936235653338, ,0.000762733460590126, ,0.2265540915982502,-0.16228550861895386,0.10749873712,2.3323812413783642,1.2615648023343118,-1.233000033920605, ,0.12789345223513582,0.0924020852565441,0.03661795751724139,0.020185796319525807,0.16552455758326218,0.09517059303659764, ,1.1768949031829834
0.014654925976703956,0.021199430105559847,-0.09150417915993088, ,0.015727847319516007,0.02059895283484126,-0.09241293001599085, ,0.0015289085253542777, ,0.019720242017383403,-0.002421322789872339,-0.03384574699526736,-0.01985737912884651,-0.001332730750463685,0.08996919536858107, ,0.0392464691271021, ,0.019900936235653338, ,0.0007704726026584508, ,0.2265540915982502,-0.16228550861895386,0.10749873712,2.3323812413783642,1.2615648023343118,-1.233000033920605, ,0.12789345223513582,0.0924020852565441,0.03661795751724139,0.020185796319525807,0.16552455758326218,0.09517059303659764, ,1.1796629428863525
0.014849981552950753,0.02117390663446328,-0.09182248774299155, ,0.01579216334212194,0.020591177669691724,-0.09251747686664477, ,0.0013077803532037856, ,0.019807353155817244,-0.00303087071600645,-0.03190318827606936,-0.0025601119209102477,0.006437189033156797,0.03173599760067153, ,0.03767400746555559, ,0.0069252094390368744, ,0.0007758456801639041, ,0.22781289705674881,-0.16134333520829847,0.10784484655000001,2.3332200011523025,1.2632044403314968,-1.2322134015213073, ,0.12999581035406957,0.09773114475640657,0.03470329307189543,0.061489255068559484,0.17176937512911702,0.07413637531441311, ,1.1824769973754883
0.014849981552950753,0.02117390663446328,-0.09182248774299155, ,0.01585651757619133,0.020583295992738847,-0.09262165357968404, ,0.0014144262903154413, ,0.019807353155817244,-0.00303087071600645,-0.03190318827606936,-0.0025601119209102477,0.006437189033156797,0.03173599760067153, ,0.03767400746555559, ,0.0069252094390368744, ,0.0007821682604624341, ,0.22781289705674881,-0.16134333520829847,0.10784484655000001,2.3332200011523025,1.2632044403314968,-1.2322134015213073, ,0.12999581035406957,0.09773114475640657,0.03470329307189543,0.061489255068559484,0.17176937512911702,0.07413637531441311, ,1.1852738857269287
0.014849981552950753,0.02117390663446328,-0.09182248774299155, ,0.015920909475183213,0.020575310530450173,-0.09272546515554528, ,0.0015233424165101643, ,0.019807353155817244,-0.00303087071600645,-0.03190318827606936,-0.0025601119209102477,0.006437189033156797,0.03173599760067153, ,0.03767400746555559, ,0.0069252094390368744, ,0.0007894346737570198, ,0.22781289705674881,-0.16134333520829847,0.10784484655000001,2.3332200011523025,1.2632044403314968,-1.2322134015213073, ,0.12999581035406957,0.09773114475640657,0.03470329307189543,0.061489255068559484,0.17176937512911702,0.07413637531441311, ,1.188133955001831
0.014849981552950753,0.02117390663446328,-0.09182248774299155, ,0.01598533849512003,0.020567223996543933,-0.09282891656493476, ,0.0016340129078201155, ,0.019807353155817244,-0.00303087071600645,-0.03190318827606936,-0.0025601119209102477,0.006437189033156797,0.03173599760067153, ,0.03767400746555559, ,0.0069252094390368744, ,0.000797634462437244, ,0.22781289705674881,-0.16134333520829847,0.10784484655000001,2.3332200011523025,1.2632044403314968,-1.2322134015213073, ,0.12999581035406957,0.09773114475640657,0.03470329307189543,0.061489255068559484,0.17176937512911702,0.07413637531441311, ,1.1909408569335938
0.015056015148208257,0.021150731800845837,-0.09214349512873114, ,0.016049804094582457,0.020559039092010532,-0.09293201274889086, ,0.0013998131192865524, ,0.021393016937838166,-0.0025965201643142503,-0.03354712019890975,0.007503377045653186,0.009468926516489753,-0.08542352498056155, ,0.03987245119510988, ,0.012079683252962591, ,0.0008034246418300258, ,0.2291025934467443,-0.16035482540039772,0.10819614114000001,2.3351072106436632,1.2648440783286823,-1.2315084478621505, ,0.13365766416686023,0.10314884952007694,0.036533971376146786,0.17842252110036563,0.15522088052504757,0.07525795677440122, ,1.1942529678344727
0.015056015148208257,0.021150731800845837,-0.09214349512873114, ,0.01611430573470531,0.020550758505135287,-0.09303475861884702, ,0.0015080774283330403, ,0.021393016937838166,-0.0025965201643142503,-0.03354712019890975,0.007503377045653186,0.009468926516489753,-0.08542352498056155, ,0.03987245119510988, ,0.012079683252962591, ,0.0008101356207491022, ,0.2291025934467443,-0.16035482540039772,0.10819614114000001,2.3351072106436632,1.2648440783286823,-1.2315084478621505, ,0.13365766416686023,0.10314884952007694,0.036533971376146786,0.17842252110036563,0.15522088052504757,0.07525795677440122, ,1.1980819702148438
0.015287992042032024,0.02111662498832561,-0.09251585662741757, ,0.01617884287917227,0.020542384911519614,-0.0931371590566936, ,0.001228569732847075, ,0.02258495783782309,-0.003469190199217805,-0.036752243695917286,-0.026371628308891917,-0.031027707087012753,0.0388461682560103, ,0.04327635633759718, ,0.0407199500684112, ,0.000814083112372668, ,0.23057763542572118,-0.15922730640076094,0.10859799104000001,2.336155660361086,1.266347079826102,-1.2306920762992968, ,0.1462202489344696,0.10722818255194438,0.03962390925373134,0.033524626066725564,0.14968300209762672,0.06137273702664388, ,1.2047159671783447
0.015287992042032024,0.02111662498832561,-0.09251585662741757, ,0.016243414994211485,0.020533920974103736,-0.09323921891484171, ,0.001332527667483529, ,0.02258495783782309,-0.003469190199217805,-0.036752243695917286,-0.026371628308891917,-0.031027707087012753,0.0388461682560103, ,0.04327635633759718, ,0.0407199500684112, ,0.0008189283885886573, ,0.23057763542572118,-0.15922730640076094,0.10859799104000001,2.336155660361086,1.266347079826102,-1.2306920762992968, ,0.1462202489344696,0.10722818255194438,0.03962390925373134,0.033524626066725564,0.14968300209762672,0.06137273702664388, ,1.2075018882751465
0.015287992042032024,0.02111662498832561,-0.09251585662741757, ,0.016308021548590446,0.020525369343187647,-0.09334094301628541, ,0.0014390312648626872, ,0.02258495783782309,-0.003469190199217805,-0.036752243695917286,-0.026371628308891917,-0.031027707087012753,0.0388461682560103, ,0.04327635633759718, ,0.0407199500684112, ,0.0008246700818874908, ,0.23057763542572118,-0.15922730640076094,0.10859799104000001,2.336155660361086,1.266347079826102,-1.2306920762992968, ,0.1462202489344696,0.10722818255194438,0.03962390925373134,0.033524626066725564,0.14968300209762672,0.06137273702664388, ,1.2102718353271484
0.015513128866237402,0.021082665226772063,-0.09288215565328423, ,0.01637266201361176,0.020516732656454314,-0.0934423361546635, ,0.001171699236027431, ,0.022968377472533726,-0.0038542450110493906,-0.03663256474620516,-0.03568562872227491,-0.05052142649622629,0.053997502243015326, ,0.04340905859622974, ,0.061853154034491854, ,0.0008278538355951967, ,0.23203723193894962,-0.1581770147298664,0.10899335949000001,2.33636535030457,1.267850081323522,-1.2302840984371464, ,0.15110977955170507,0.10783743358917133,0.03942775128712872,0.0,0.13778263946917163,0.04626000854351174, ,1.2130370140075684
0.015513128866237402,0.021082665226772063,-0.09288215565328423, ,0.01643733586310819,0.020508013538991145,-0.09354340309432392, ,0.0012734328853991174, ,0.022968377472533726,-0.0038542450110493906,-0.03663256474620516,-0.03568562872227491,-0.05052142649622629,0.053997502243015326, ,0.04340905859622974, ,0.061853154034491854, ,0.0008319045542297778, ,0.23203723193894962,-0.1581770147298664,0.10899335949000001,2.33636535030457,1.267850081323522,-1.2302840984371464, ,0.15110977955170507,0.10783743358917133,0.03942775128712872,0.0,0.13778263946917163,0.04626000854351174, ,1.2158019542694092
0.015513128866237402,0.021082665226772063,-0.09288215565328423, ,0.016502042573437608,0.02049921460331117,-0.09364414857038501, ,0.0013780414202835582, ,0.022968377472533726,-0.0038542450110493906,-0.03663256474620516,-0.03568562872227491,-0.05052142649622629,0.053997502243015326, ,0.04340905859622974, ,0.061853154034491854, ,0.0008368247061762082, ,0.23203723193894962,-0.1581770147298664,0.10899335949000001,2.33636535030457,1.267850081323522,-1.2302840984371464, ,0.15110977955170507,0.10783743358917133,0.03942775128712872,0.0,0.13778263946917163,0.04626000854351174, ,1.218613862991333
0.01574352100026953,0.021039357554130722,-0.09322614425736632, ,0.016566781623478813,0.020490338449376404,-0.09374457728879888, ,0.0011171180954547848, ,0.022968377472533726,-0.0038542450110493906,-0.03663256474620516,-0.03568562872227491,-0.05052142649622629,0.053997502243015326, ,0.04340905859622974, ,0.061853154034491854, ,0.0008393273257233383, ,0.2335740557809203,-0.15706494119597808,0.10936409843000001,2.3367847301915394,1.2690798098214109,-1.229816642247884, ,0.157374695785192,0.11572797751033022,0.03531887254988914,0.03439099918833761,0.10956495136647013,0.05080999651420784, ,1.2214629650115967
0.01574352100026953,0.021039357554130722,-0.09322614425736632, ,0.016631552494626556,0.020481387664619228,-0.09384469392641363, ,0.0012175935387681643, ,0.02307019060461292,-0.005126239934409824,-0.03285059379639816,-0.05574501986258723,-0.07125440102583501,0.015455908807741316, ,0.040468179390408233, ,0.09046910327604578, ,0.0008426748143343545, ,0.2335740557809203,-0.15706494119597808,0.10936409843000001,2.3367847301915394,1.2690798098214109,-1.229816642247884, ,0.157374695785192,0.11572797751033022,0.03531887254988914,0.03439099918833761,0.10956495136647013,0.05080999651420784, ,1.2243280410766602
0.01574352100026953,0.021039357554130722,-0.09322614425736632, ,0.016696354670786426,0.02047236482396355,-0.09394450313103646, ,0.0013211405039259654, ,0.02307019060461292,-0.005126239934409824,-0.03285059379639816,-0.05574501986258723,-0.07125440102583501,0.015455908807741316, ,0.040468179390408233, ,0.09046910327604578, ,0.0008468718817869125, ,0.2335740557809203,-0.15706494119597808,0.10936409843000001,2.3367847301915394,1.2690798098214109,-1.229816642247884, ,0.157374695785192,0.11572797751033022,0.03531887254988914,0.03439099918833761,0.10956495136647013,0.05080999651420784, ,1.227057933807373
0.01574352100026953,0.021039357554130722,-0.09322614425736632, ,0.016761187638370947,0.020463272489848416,-0.09404400952149644, ,0.0014270329280939595, ,0.02307019060461292,-0.005126239934409824,-0.03285059379639816,-0.05574501986258723,-0.07125440102583501,0.015455908807741316, ,0.040468179390408233, ,0.09046910327604578, ,0.000851916760450452, ,0.2335740557809203,-0.15706494119597808,0.10936409843000001,2.3367847301915394,1.2690798098214109,-1.229816642247884, ,0.157374695785192,0.11572797751033022,0.03531887254988914,0.03439099918833761,0.10956495136647013,0.05080999651420784, ,1.2298948764801025
0.015981530649658755,0.02099119370596129,-0.09354113279191809, ,0.016826050886294047,0.020454113212248465,-0.09414321768770618, ,0.001167979498342976, ,0.02309355526100024,-0.005042431616158336,-0.0301159653885474,-0.02360170164892392,-0.044369856297128495,-0.12003097673818719, ,0.03828458936022026, ,0.05025633985128456, ,0.0008546414392253876, ,0.23516493875301053,-0.1558756403333475,0.10970631899000001,2.3384622497394156,1.2701729018195345,-1.229319446895066, ,0.1543039700137736,0.11891847313091576,0.03277533234567902,0.17371685673015558,0.11293930022696007,0.04896664288914404, ,1.2337639331817627
0.015981530649658755,0.02099119370596129,-0.09354113279191809, ,0.016890943905966835,0.020444889528697035,-0.09424213219072584, ,0.0012715663104903654, ,0.02309355526100024,-0.005042431616158336,-0.0301159653885474,-0.02360170164892392,-0.044369856297128495,-0.12003097673818719, ,0.03828458936022026, ,0.05025633985128456, ,0.0008582048996635498, ,0.23516493875301053,-0.1558756403333475,0.10970631899000001,2.3384622497394156,1.2701729018195345,-1.229319446895066, ,0.1543039700137736,0.11891847313091576,0.03277533234567902,0.17371685673015558,0.11293930022696007,0.04896664288914404, ,1.2368698120117188
0.015981530649658755,0.02099119370596129,-0.09354113279191809, ,0.016955866191292555,0.02043560396430743,-0.09434075756282509, ,0.0013774648754033309, ,0.02309355526100024,-0.005042431616158336,-0.0301159653885474,-0.02360170164892392,-0.044369856297128495,-0.12003097673818719, ,0.03828458936022026, ,0.05025633985128456, ,0.000862605407932531, ,0.23516493875301053,-0.1558756403333475,0.10970631899000001,2.3384622497394156,1.2701729018195345,-1.229319446895066, ,0.1543039700137736,0.11891847313091576,0.03277533234567902,0.17371685673015558,0.11293930022696007,0.04896664288914404, ,1.239837884902954
0.01621374878612581,0.02093735700243056,-0.09384758303077076, ,0.017020817238662,0.020426259031794968,-0.0944390983075456, ,0.0011235973234771414, ,0.02273888965176737,-0.00551177588061067,-0.030177810073825945,0.021426698676492845,-0.016802219924264682,-0.04233601285986933, ,0.03818556005619461, ,0.02722853249513456, ,0.0008647986173068554, ,0.23674037625935235,-0.15467089400496847,0.1100420581,2.339720389400323,1.2716759033169542,-1.2290748265131963, ,0.15763611554563253,0.11730153468290579,0.033323873472803356,0.06629265461054647,0.18403663815391458,-0.0010812241458457023, ,1.2430989742279053
0.01621374878612581,0.02093735700243056,-0.09384758303077076, ,0.01708579654694887,0.020416857231499556,-0.09453715889976433, ,0.001227559443690599, ,0.02273888965176737,-0.00551177588061067,-0.030177810073825945,0.021426698676492845,-0.016802219924264682,-0.04233601285986933, ,0.03818556005619461, ,0.02722853249513456, ,0.0008678216241933867, ,0.23674037625935235,-0.15467089400496847,0.1100420581,2.339720389400323,1.2716759033169542,-1.2290748265131963, ,0.15763611554563253,0.11730153468290579,0.033323873472803356,0.06629265461054647,0.18403663815391458,-0.0010812241458457023, ,1.2458808422088623
0.01621374878612581,0.02093735700243056,-0.09384758303077076, ,0.01715080361750477,0.02040740105140686,-0.09463494378575567, ,0.0013337398642638255, ,0.02273888965176737,-0.00551177588061067,-0.030177810073825945,0.021426698676492845,-0.016802219924264682,-0.04233601285986933, ,0.03818556005619461, ,0.02722853249513456, ,0.000871672188160911, ,0.23674037625935235,-0.15467089400496847,0.1100420581,2.339720389400323,1.2716759033169542,-1.2290748265131963, ,0.15763611554563253,0.11730153468290579,0.033323873472803356,0.06629265461054647,0.18403663815391458,-0.0010812241458457023, ,1.2486770153045654
0.016440256694220765,0.020884701759483176,-0.0941512920212375, ,0.0172158379541547,0.020397892967170816,-0.0947324573832543, ,0.0010845562544383987, ,0.02273888965176737,-0.00551177588061067,-0.030177810073825945,0.021426698676492845,-0.016802219924264682,-0.04233601285986933, ,0.03818556005619461, ,0.02722853249513456, ,0.0008734171395238412, ,0.2383003682999457,-0.15355109773820594,0.11037261205000001,2.340139769287292,1.2729056318148433,-1.2284440128436527, ,0.15842561195070248,0.11337746900653618,0.034477947012987016,0.026170488665580433,0.06906474886240706,0.1266478386950928, ,1.2516119480133057
0.016440256694220765,0.020884701759483176,-0.0941512920212375, ,0.017280899063192405,0.020388335442135648,-0.09482970408151822, ,0.001188823804035628, ,0.023392284184414098,-0.005342947561273206,-0.03217930929103215,-0.11429680373827268,-0.09835551558992438,0.08062465941184029, ,0.040140428428889666, ,0.15078969555848726, ,0.0008759814213491402, ,0.2383003682999457,-0.15355109773820594,0.11037261205000001,2.340139769287292,1.2729056318148433,-1.2284440128436527, ,0.15842561195070248,0.11337746900653618,0.034477947012987016,0.026170488665580433,0.06906474886240706,0.1266478386950928, ,1.2545909881591797
0.016440256694220765,0.020884701759483176,-0.0941512920212375, ,0.017345986453375126,0.020378730927357026,-0.09492668824139036, ,0.0012952189690579733, ,0.023392284184414098,-0.005342947561273206,-0.03217930929103215,-0.11429680373827268,-0.09835551558992438,0.08062465941184029, ,0.040140428428889666, ,0.15078969555848726, ,0.0008793623693145341, ,0.2383003682999457,-0.15355109773820594,0.11037261205000001,2.340139769287292,1.2729056318148433,-1.2284440128436527, ,0.15842561195070248,0.11337746900653618,0.034477947012987016,0.026170488665580433,0.06906474886240706,0.1266478386950928, ,1.257288932800293
0.016440256694220765,0.020884701759483176,-0.0941512920212375, ,0.017411099635919674,0.02036908186162562,-0.09502341419536287, ,0.0014032095292985975, ,0.023392284184414098,-0.005342947561273206,-0.03217930929103215,-0.11429680373827268,-0.09835551558992438,0.08062465941184029, ,0.040140428428889666, ,0.15078969555848726, ,0.0008835531465944066, ,0.2383003682999457,-0.15355109773820594,0.11037261205000001,2.340139769287292,1.2729056318148433,-1.2284440128436527, ,0.15842561195070248,0.11337746900653618,0.034477947012987016,0.026170488665580433,0.06906474886240706,0.1266478386950928, ,1.2600250244140625
0.01667872086268597,0.02083426223260427,-0.09448130404032302, ,0.017476238124496845,0.020359390671487197,-0.09511988624763791, ,0.0011266428084993193, ,0.024480780333773572,-0.004771120284431881,-0.03450570908788888,-0.011513694099685837,-0.03367853552510518,-0.05706720452592744, ,0.04257600444119915, ,0.03559157190268064, ,0.0008854824296253979, ,0.2398758058062875,-0.15239268780707224,0.11073038809,2.3409785290612297,1.2739987238129666,-1.227538423790132, ,0.15842561195070248,0.1178843994515165,0.03774599886255925,0.11491932918718022,0.14761310773202208,0.04590187272671352, ,1.2629408836364746
0.01667872086268597,0.02083426223260427,-0.09448130404032302, ,0.017541401435227446,0.02034965977126634,-0.09521610867419233, ,0.001232475219114396, ,0.024480780333773572,-0.004771120284431881,-0.03450570908788888,-0.011513694099685837,-0.03367853552510518,-0.05706720452592744, ,0.04257600444119915, ,0.03559157190268064, ,0.0008882146563142877, ,0.2398758058062875,-0.15239268780707224,0.11073038809,2.3409785290612297,1.2739987238129666,-1.227538423790132, ,0.15842561195070248,0.1178843994515165,0.03774599886255925,0.11491932918718022,0.14761310773202208,0.04590187272671352, ,1.265697956085205
0.01667872086268597,0.02083426223260427,-0.09448130404032302, ,0.017606589086676824,0.02033989156308686,-0.09531208572283843, ,0.0013399776132361938, ,0.024480780333773572,-0.004771120284431881,-0.03450570908788888,-0.011513694099685837,-0.03367853552510518,-0.05706720452592744, ,0.04257600444119915, ,0.03559157190268064, ,0.00089174405441524, ,0.2398758058062875,-0.15239268780707224,0.11073038809,2.3409785290612297,1.2739987238129666,-1.227538423790132, ,0.15842561195070248,0.1178843994515165,0.03774599886255925,0.11491932918718022,0.14761310773202208,0.04590187272671352, ,1.2684669494628906
0.01667872086268597,0.02083426223260427,-0.09448130404032302, ,0.01767180059985099,0.0203300884368954,-0.09540782161328813, ,0.0014487351012729644, ,0.024480780333773572,-0.004771120284431881,-0.03450570908788888,-0.011513694099685837,-0.03367853552510518,-0.05706720452592744, ,0.04257600444119915, ,0.03559157190268064, ,0.0008960618144684007, ,0.2398758058062875,-0.15239268780707224,0.11073038809,2.3409785290612297,1.2739987238129666,-1.227538423790132, ,0.15842561195070248,0.1178843994515165,0.03774599886255925,0.11491932918718022,0.14761310773202208,0.04590187272671352, ,1.2712218761444092
0.01693494759797404,0.02078918266825981,-0.09485132560509896, ,0.01773703549819098,0.020320252770481745,-0.09550332053721461, ,0.0011350496201528182, ,0.024583846556608557,-0.003951000097289048,-0.03615303230100422,0.011164425309816825,-0.012937139840350446,-0.07675099687223637, ,0.04389780926020235, ,0.017086609301464536, ,0.0008979001822044347, ,0.24148985697700043,-0.151180218745819,0.11113612686000002,2.3424463586656215,1.275638361810152,-1.227078506351397, ,0.15281311040011397,0.1131072009040176,0.03972272199501248,0.13893314226800058,0.16441253518960736,0.04343148364916298, ,1.274303913116455
0.01693494759797404,0.02078918266825981,-0.09485132560509896, ,0.017802293307568804,0.020310386929502103,-0.0955985866583157, ,0.0012409403777215028, ,0.024583846556608557,-0.003951000097289048,-0.03615303230100422,0.011164425309816825,-0.012937139840350446,-0.07675099687223637, ,0.04389780926020235, ,0.017086609301464536, ,0.0009005188096511298, ,0.24148985697700043,-0.151180218745819,0.11113612686000002,2.3424463586656215,1.275638361810152,-1.227078506351397, ,0.15281311040011397,0.1131072009040176,0.03972272199501248,0.13893314226800058,0.16441253518960736,0.04343148364916298, ,1.2772939205169678
0.01693494759797404,0.02078918266825981,-0.09485132560509896, ,0.01786757355628248,0.020300493267500747,-0.09569362411237615, ,0.001348360220373762, ,0.024583846556608557,-0.003951000097289048,-0.03615303230100422,0.011164425309816825,-0.012937139840350446,-0.07675099687223637, ,0.04389780926020235, ,0.017086609301464536, ,0.0009039115476111498, ,0.24148985697700043,-0.151180218745819,0.11113612686000002,2.3424463586656215,1.275638361810152,-1.227078506351397, ,0.15281311040011397,0.1131072009040176,0.03972272199501248,0.13893314226800058,0.16441253518960736,0.04343148364916298, ,1.2839879989624023
0.01693494759797404,0.02078918266825981,-0.09485132560509896, ,0.017932875775051055,0.02029057412593121,-0.09578843700733011, ,0.0014569313316965037, ,0.024583846556608557,-0.003951000097289048,-0.03615303230100422,0.011164425309816825,-0.012937139840350446,-0.07675099687223637, ,0.04389780926020235, ,0.017086609301464536, ,0.0009080695911005133, ,0.24148985697700043,-0.151180218745819,0.11113612686000002,2.3424463586656215,1.275638361810152,-1.227078506351397, ,0.15281311040011397,0.1131072009040176,0.03972272199501248,0.13893314226800058,0.16441253518960736,0.04343148364916298, ,1.2871618270874023
0.017085648729809277,0.020762355484786124,-0.09507810589507341, ,0.01799819949701035,0.020280631834179542,-0.09588302942332463, ,0.0013087048806378727, ,0.0239275668692975,-0.004386515673983442,-0.03573331961020851,-0.01771598601873641,-0.02274594043844881,-0.015205996768201923, ,0.043227770083687146, ,0.02883011806317565, ,0.0009110594066940757, ,0.2424243076547816,-0.15046972732139036,0.11138371825000001,2.3430754284960753,1.27659481730851,-1.2267149293153037, ,0.14897479051565274,0.1131072009040176,0.03904120470588236,0.0949795501138789,0.15264585768795388,0.0686155790597735, ,1.2902798652648926
0.017085648729809277,0.020762355484786124,-0.09507810589507341, ,0.018063544257707728,0.02027066870958517,-0.09597740541278145, ,0.0014166069218174838, ,0.0239275668692975,-0.004386515673983442,-0.03573331961020851,-0.01771598601873641,-0.02274594043844881,-0.015205996768201923, ,0.043227770083687146, ,0.02883011806317565, ,0.0009148042031023973, ,0.2424243076547816,-0.15046972732139036,0.11138371825000001,2.3430754284960753,1.27659481730851,-1.2267149293153037, ,0.14897479051565274,0.1131072009040176,0.03904120470588236,0.0949795501138789,0.15264585768795388,0.0686155790597735, ,1.293332815170288
0.017470110918225402,0.02068080712943042,-0.0956328953450752, ,0.018128909595098004,0.020260687057463964,-0.09607156900046027, ,0.0008960754139284747, ,0.0239275668692975,-0.004386515673983442,-0.03573331961020851,-0.01771598601873641,-0.02274594043844881,-0.015205996768201923, ,0.043227770083687146, ,0.02883011806317565, ,0.0009146664914172948, ,0.24487241397591075,-0.1485931032329538,0.11199297455000001,2.344333568156982,1.2793275473038188,-1.225267744082907, ,0.13290888173455292,0.09916085847280122,0.028961475490909095,0.059221307790397686,0.16257952213352633,0.07882155720057482, ,1.2967209815979004
0.017470110918225402,0.02068080712943042,-0.0956328953450752, ,0.018194295049537835,0.0202506891711289,-0.0961655241835206, ,0.000996562889958235, ,0.019842671813621683,-0.004883163432529015,-0.02598640743304318,-0.010368725291795102,-0.00463307125316423,0.0341654695568229, ,0.033058588613067055, ,0.011356230143077259, ,0.0009152642753482507, ,0.24487241397591075,-0.1485931032329538,0.11199297455000001,2.344333568156982,1.2793275473038188,-1.225267744082907, ,0.13290888173455292,0.09916085847280122,0.028961475490909095,0.059221307790397686,0.16257952213352633,0.07882155720057482, ,1.2995719909667969
0.017470110918225402,0.02068080712943042,-0.0956328953450752, ,0.018259700163781763,0.02024067733191331,-0.09625927493158577, ,0.0010997803425038426, ,0.019842671813621683,-0.004883163432529015,-0.02598640743304318,-0.010368725291795102,-0.00463307125316423,0.0341654695568229, ,0.033058588613067055, ,0.011356230143077259, ,0.0009166013482986536, ,0.24487241397591075,-0.1485931032329538,0.11199297455000001,2.344333568156982,1.2793275473038188,-1.225267744082907, ,0.13290888173455292,0.09916085847280122,0.028961475490909095,0.059221307790397686,0.16257952213352633,0.07882155720057482, ,1.3023078441619873
0.017470110918225402,0.02068080712943042,-0.0956328953450752, ,0.018325124482977143,0.02023065380919204,-0.0963528251868042, ,0.0012049834789917486, ,0.019842671813621683,-0.004883163432529015,-0.02598640743304318,-0.010368725291795102,-0.00463307125316423,0.0341654695568229, ,0.033058588613067055, ,0.011356230143077259, ,0.0009186760398863737, ,0.24487241397591075,-0.1485931032329538,0.11199297455000001,2.344333568156982,1.2793275473038188,-1.225267744082907, ,0.13290888173455292,0.09916085847280122,0.028961475490909095,0.059221307790397686,0.16257952213352633,0.07882155720057482, ,1.305081844329834
0.01768002723427678,0.020622565969394737,-0.09589314619342394, ,0.018390567554659412,0.020220620860403885,-0.09644617886391306, ,0.0009860388187893248, ,0.020646006336866116,-0.005992906018952265,-0.025438831606316287,-0.03156820861433555,-0.021427423693227497,0.04324856635319505, ,0.03330625547413618, ,0.03815331739058786, ,0.0009191572025928235, ,0.2463088422905165,-0.14750419789768812,0.11228334351000001,2.3449626379874355,1.2809671853010043,-1.2243994329434686, ,0.14163722620667282,0.10845364749539518,0.028292738046181175,0.05250981383862667,0.15202436763120913,0.08759711220618774, ,1.3086299896240234
0.01768002723427678,0.020622565969394737,-0.09589314619342394, ,0.01845602892874734,0.020210580731072954,-0.09653933985030032, ,0.0010906313348714581, ,0.020646006336866116,-0.005992906018952265,-0.025438831606316287,-0.03156820861433555,-0.021427423693227497,0.04324856635319505, ,0.03330625547413618, ,0.03815331739058786, ,0.0009203733311905442, ,0.2463088422905165,-0.14750419789768812,0.11228334351000001,2.3449626379874355,1.2809671853010043,-1.2243994329434686, ,0.14163722620667282,0.10845364749539518,0.028292738046181175,0.05250981383862667,0.15202436763120913,0.08759711220618774, ,1.3113939762115479
0.01768002723427678,0.020622565969394737,-0.09589314619342394, ,0.018521508157538405,0.020200535654831653,-0.09663231200606777, ,0.0011968984205875046, ,0.020646006336866116,-0.005992906018952265,-0.025438831606316287,-0.03156820861433555,-0.021427423693227497,0.04324856635319505, ,0.03330625547413618, ,0.03815331739058786, ,0.0009223206909750299, ,0.2463088422905165,-0.14750419789768812,0.11228334351000001,2.3449626379874355,1.2809671853010043,-1.2243994329434686, ,0.14163722620667282,0.10845364749539518,0.028292738046181175,0.05250981383862667,0.15202436763120913,0.08759711220618774, ,1.3141460418701172
0.017887671576562916,0.02057891365995037,-0.09615148627466111, ,0.018587004795704052,0.020190487853441758,-0.09672509916409372, ,0.0009843644170120123, ,0.021550420448338048,-0.003868417132528335,-0.027782990245268577,0.027236200699618775,0.017740416988004513,-0.11696741593409593, ,0.035373433810984116, ,0.03250409927630418, ,0.0009227545631850788, ,0.24763715234488312,-0.1464925198911647,0.11257371247000002,2.3468498474787967,1.282470186798424,-1.2235830613806153, ,0.1338461799132169,0.10095419314730934,0.03129432518664047,0.21621834613846974,0.16364515223402692,0.07854408946456627, ,1.3169059753417969
0.017887671576562916,0.02057891365995037,-0.09615148627466111, ,0.01865251840028492,0.020180439536816964,-0.0968177051300957, ,0.0010897797272390209, ,0.021550420448338048,-0.003868417132528335,-0.027782990245268577,0.027236200699618775,0.017740416988004513,-0.11696741593409593, ,0.035373433810984116, ,0.03250409927630418, ,0.0009239144601576757, ,0.24763715234488312,-0.1464925198911647,0.11257371247000002,2.3468498474787967,1.282470186798424,-1.2235830613806153, ,0.1338461799132169,0.10095419314730934,0.03129432518664047,0.21621834613846974,0.16364515223402692,0.07854408946456627, ,1.319654941558838
0.017887671576562916,0.02057891365995037,-0.09615148627466111, ,0.01871804853068594,0.0201703929030443,-0.0969101336826923, ,0.0011966457222061114, ,0.021550420448338048,-0.003868417132528335,-0.027782990245268577,0.027236200699618775,0.017740416988004513,-0.11696741593409593, ,0.035373433810984116, ,0.03250409927630418, ,0.0009257953654131822, ,0.24763715234488312,-0.1464925198911647,0.11257371247000002,2.3468498474787967,1.282470186798424,-1.2235830613806153, ,0.1338461799132169,0.10095419314730934,0.03129432518664047,0.21621834613846974,0.16364515223402692,0.07854408946456627, ,1.3226408958435059
0.017887671576562916,0.02057891365995037,-0.09615148627466111, ,0.018783594748671827,0.02016035013840668,-0.09700238857346732, ,0.0013045721421226391, ,0.021550420448338048,-0.003868417132528335,-0.027782990245268577,0.027236200699618775,0.017740416988004513,-0.11696741593409593, ,0.035373433810984116, ,0.03250409927630418, ,0.0009283897268974936, ,0.24763715234488312,-0.1464925198911647,0.11257371247000002,2.3468498474787967,1.282470186798424,-1.2235830613806153, ,0.1338461799132169,0.10095419314730934,0.03129432518664047,0.21621834613846974,0.16364515223402692,0.07854408946456627, ,1.3255119323730469
0.017887671576562916,0.02057891365995037,-0.09615148627466111, ,0.01884915661836252,0.020150313417404798,-0.0970944735270312, ,0.0014132857501747474, ,0.021550420448338048,-0.003868417132528335,-0.027782990245268577,0.027236200699618775,0.017740416988004513,-0.11696741593409593, ,0.035373433810984116, ,0.03250409927630418, ,0.0009316883393007402, ,0.24763715234488312,-0.1464925198911647,0.11257371247000002,2.3468498474787967,1.282470186798424,-1.2235830613806153, ,0.1338461799132169,0.10095419314730934,0.03129432518664047,0.21621834613846974,0.16364515223402692,0.07854408946456627, ,1.3284108638763428
0.017887671576562916,0.02057891365995037,-0.09615148627466111, ,0.01891473370622771,0.02014028490277846,-0.09718639224108391, ,0.0015225906095031843, ,0.021550420448338048,-0.003868417132528335,-0.027782990245268577,0.027236200699618775,0.017740416988004513,-0.11696741593409593, ,0.035373433810984116, ,0.03250409927630418, ,0.0009356809222075135, ,0.24763715234488312,-0.1464925198911647,0.11257371247000002,2.3468498474787967,1.282470186798424,-1.2235830613806153, ,0.1338461799132169,0.10095419314730934,0.03129432518664047,0.21621834613846974,0.16364515223402692,0.07854408946456627, ,1.3312878608703613
0.018240853065889767,0.020511831719848862,-0.09662710925363918, ,0.018980325581083115,0.02013026674552962,-0.09727814838647852, ,0.0010565336638469322, ,0.02042081010154074,-0.0040970777159626565,-0.02932178160860041,-0.025061578062433042,-0.014587262813888266,0.06536026655857102, ,0.03596612861730163, ,0.028997400861918928, ,0.0009364920144332813, ,0.249869022145534,-0.144886191453326,0.11310519137000001,2.3487370569701573,1.2850662802939674,-1.2221061369846629, ,0.12823911021414972,0.09249214576849003,0.032441571323828924,0.035669097833876375,0.14647676080630578,0.09178001383268407, ,1.3341870307922363
0.018240853065889767,0.020511831719848862,-0.09662710925363918, ,0.019045931814084833,0.020120261084943407,-0.09736974560728237, ,0.0011631801694785065, ,0.02042081010154074,-0.0040970777159626565,-0.02932178160860041,-0.025061578062433042,-0.014587262813888266,0.06536026655857102, ,0.03596612861730163, ,0.028997400861918928, ,0.0009380032688002495, ,0.249869022145534,-0.144886191453326,0.11310519137000001,2.3487370569701573,1.2850662802939674,-1.2221061369846629, ,0.12823911021414972,0.09249214576849003,0.032441571323828924,0.035669097833876375,0.14647676080630578,0.09178001383268407, ,1.337721824645996
0.018240853065889767,0.020511831719848862,-0.09662710925363918, ,0.019111551978725255,0.020110270048610695,-0.09746118752084143, ,0.0012708481138356364, ,0.02042081010154074,-0.0040970777159626565,-0.02932178160860041,-0.025061578062433042,-0.014587262813888266,0.06536026655857102, ,0.03596612861730163, ,0.028997400861918928, ,0.0009402075392971725, ,0.249869022145534,-0.144886191453326,0.11310519137000001,2.3487370569701573,1.2850662802939674,-1.2221061369846629, ,0.12823911021414972,0.09249214576849003,0.032441571323828924,0.035669097833876375,0.14647676080630578,0.09178001383268407, ,1.3406379222869873
0.018240853065889767,0.020511831719848862,-0.09662710925363918, ,0.019177185650827936,0.02010029575244985,-0.0975524777178413, ,0.001379270588615526, ,0.02042081010154074,-0.0040970777159626565,-0.02932178160860041,-0.025061578062433042,-0.014587262813888266,0.06536026655857102, ,0.03596612861730163, ,0.028997400861918928, ,0.0009430961119900565, ,0.25098109567942234,-0.14406758176865822,0.11340593065000001,2.3487370569701573,1.286432645291622,-1.221341704998394, ,0.11759224480603565,0.0880305580319766,0.03374748203389831,0.02131111111488148,0.13997306846996563,0.0835433948749296, ,1.3435168266296387
0.018420944482226413,0.020475382545931998,-0.09690013479988938, ,0.019242832408543218,0.020090340300728992,-0.09764361976237139, ,0.0011732549524520193, ,0.01970277105108769,-0.0036165168089419652,-0.030736694452769234,-0.024901600860820487,-0.011088437591044761,0.07098423083766989, ,0.03668818293134499, ,0.027258315058946023, ,0.0009446004181368667, ,0.25098109567942234,-0.14406758176865822,0.11340593065000001,2.3487370569701573,1.286432645291622,-1.221341704998394, ,0.11759224480603565,0.0880305580319766,0.03374748203389831,0.02131111111488148,0.13997306846996563,0.0835433948749296, ,1.346681833267212
0.018420944482226413,0.020475382545931998,-0.09690013479988938, ,0.019308491832342976,0.02008040578608728,-0.09773461719198592, ,0.0012806669364965816, ,0.01970277105108769,-0.0036165168089419652,-0.030736694452769234,-0.024901600860820487,-0.011088437591044761,0.07098423083766989, ,0.03668818293134499, ,0.027258315058946023, ,0.0009467826682560856, ,0.25098109567942234,-0.14406758176865822,0.11340593065000001,2.3487370569701573,1.286432645291622,-1.221341704998394, ,0.11759224480603565,0.0880305580319766,0.03374748203389831,0.02131111111488148,0.13997306846996563,0.0835433948749296, ,1.3494958877563477
0.018420944482226413,0.020475382545931998,-0.09690013479988938, ,0.019374163505016532,0.02007049428955783,-0.0978254735177687, ,0.0013888170319970921, ,0.01970277105108769,-0.0036165168089419652,-0.030736694452769234,-0.024901600860820487,-0.011088437591044761,0.07098423083766989, ,0.03668818293134499, ,0.027258315058946023, ,0.0009496345028608663, ,0.25098109567942234,-0.14406758176865822,0.11340593065000001,2.3487370569701573,1.286432645291622,-1.221341704998394, ,0.11759224480603565,0.0880305580319766,0.03374748203389831,0.02131111111488148,0.13997306846996563,0.0835433948749296, ,1.3522670269012451
0.01867722251284222,0.02044214098948484,-0.09729619001700471, ,0.019439847011665047,0.020060607880588492,-0.09791619222439348, ,0.0010543084826348612, ,0.022647526340077228,-0.0014009913473873687,-0.035058898879752054,0.03889192750219613,0.026079289970852522,-0.18300503947300423, ,0.04176122144694317, ,0.046825830744679366, ,0.0009503054899106996, ,0.25240980126115387,-0.14297095370051835,0.11384278038000001,2.350624266461518,1.288072283288807,-1.2203917151188148, ,0.1178843994515165,0.08893808955807946,0.03894574943765281,0.2879672962675134,0.1392621403120419,0.08585086377633443, ,1.3550879955291748
0.01867722251284222,0.02044214098948484,-0.09729619001700471, ,0.019505541939698036,0.020050748617065628,-0.09800677677018871, ,0.001159411314372628, ,0.022647526340077228,-0.0014009913473873687,-0.035058898879752054,0.03889192750219613,0.026079289970852522,-0.18300503947300423, ,0.04176122144694317, ,0.046825830744679366, ,0.0009516373741429412, ,0.25240980126115387,-0.14297095370051835,0.11384278038000001,2.350624266461518,1.288072283288807,-1.2203917151188148, ,0.1178843994515165,0.08893808955807946,0.03894574943765281,0.2879672962675134,0.1392621403120419,0.08585086377633443, ,1.35782790184021
0.01867722251284222,0.02044214098948484,-0.09729619001700471, ,0.019571247878827396,0.02004091854533423,-0.09809723058719905, ,0.0012656724694060416, ,0.022647526340077228,-0.0014009913473873687,-0.035058898879752054,0.03889192750219613,0.026079289970852522,-0.18300503947300423, ,0.04176122144694317, ,0.046825830744679366, ,0.0009536249380370114, ,0.25240980126115387,-0.14297095370051835,0.11384278038000001,2.350624266461518,1.288072283288807,-1.2203917151188148, ,0.1178843994515165,0.08893808955807946,0.03894574943765281,0.2879672962675134,0.1392621403120419,0.08585086377633443, ,1.360605001449585
0.01867722251284222,0.02044214098948484,-0.09729619001700471, ,0.01963696442106335,0.02003111970022089,-0.09818755708124775, ,0.0013727994295749833, ,0.022647526340077228,-0.0014009913473873687,-0.03525069814041278,0.027329791952252543,0.02255240294814066,-0.07168016725838239, ,0.04176122144694317, ,0.046825830744679366, ,0.000956261255593854, ,0.25359910212378445,-0.1421060076186052,0.11425111173000001,2.3531405457833325,1.289575284786227,-1.2193303073355404, ,0.11488733844851184,0.08062611857134305,0.039137129041769046,0.18184427365161807,0.1516480778846267,0.09045615512672542, ,1.3642799854278564
0.018907225616044757,0.020430695539478943,-0.09766397014949547, ,0.01970269116070955,0.020021354105055702,-0.09827775963200042, ,0.0010849255142719337, ,0.0217968531261389,-0.001266111200283175,-0.03525069814041278,0.027329791952252543,0.02255240294814066,-0.07168016725838239, ,0.0414646543837092, ,0.03543266821527518, ,0.0009570654072105922, ,0.25359910212378445,-0.1421060076186052,0.11425111173000001,2.3531405457833325,1.289575284786227,-1.2193303073355404, ,0.11488733844851184,0.08062611857134305,0.039137129041769046,0.18184427365161807,0.1516480778846267,0.09045615512672542, ,1.367069959640503
0.018907225616044757,0.020430695539478943,-0.09766397014949547, ,0.019768427694358347,0.020011623771693916,-0.09836784159302692, ,0.0011885811605713557, ,0.0217968531261389,-0.001266111200283175,-0.03525069814041278,0.027329791952252543,0.02255240294814066,-0.07168016725838239, ,0.0414646543837092, ,0.03543266821527518, ,0.0009585033932563112, ,0.25359910212378445,-0.1421060076186052,0.11425111173000001,2.3531405457833325,1.289575284786227,-1.2193303073355404, ,0.11488733844851184,0.08062611857134305,0.039137129041769046,0.18184427365161807,0.1516480778846267,0.09045615512672542, ,1.372201919555664
0.018907225616044757,0.020430695539478943,-0.09766397014949547, ,0.01983417362088611,0.0200019307005385,-0.09845780629186425, ,0.0012935407653885242, ,0.0217968531261389,-0.001266111200283175,-0.03525069814041278,0.027329791952252543,0.02255240294814066,-0.07168016725838239, ,0.0414646543837092, ,0.03543266821527518, ,0.0009605715251830532, ,0.25359910212378445,-0.1421060076186052,0.11425111173000001,2.3531405457833325,1.289575284786227,-1.2193303073355404, ,0.11488733844851184,0.08062611857134305,0.039137129041769046,0.18184427365161807,0.1516480778846267,0.09045615512672542, ,1.3752479553222656
0.018907225616044757,0.020430695539478943,-0.09766397014949547, ,0.019899928541448255,0.019992276880561325,-0.0985476570300789, ,0.0013994900933936769, ,0.0217968531261389,-0.001266111200283175,-0.03525069814041278,0.027329791952252543,0.02255240294814066,-0.07168016725838239, ,0.0414646543837092, ,0.03543266821527518, ,0.0009632642771352656, ,0.25359910212378445,-0.1421060076186052,0.11425111173000001,2.3531405457833325,1.289575284786227,-1.2193303073355404, ,0.11488733844851184,0.08062611857134305,0.039137129041769046,0.18184427365161807,0.1516480778846267,0.09045615512672542, ,1.3788869380950928
