NicholasDascanio/dvrk_moveit_final/test/execution/third_experiment_notsharpbends/thirdexp_400vel5.0/thirdexp_400vel5.0_15.csv
Current Position (x),Current Position (y),Current Position (z), ,Planned Position (x),Planned Position (y),Planned Position (z), ,Position Error,,Cartesian linear Velocity(x),Cartesian linear Velocity(y),Cartesian linear Velocity(z),Cartesian Angular Velocity(x),Cartesian Angular Velocity(y),Cartesian Angular Velocity(z), ,Total Linear Velocity, ,Total Angular Velocity, ,MSE, ,Joint 1 Position,Joint 2 Position,Joint 3 Position,Joint 4 Position,Joint 5 Position,Joint 6 Position, ,Joint 1 Velocity,Joint 2 Velocity,Joint 3 Velocity,Joint 4 Velocity,Joint 5 Velocity,Joint 6 Velocity, ,Time Stamp
0.00789969435952194,0.01918108462994706,-0.07938763956172909, ,0.00806638749191489,0.01917709028223884,-0.07954018274288249, ,0.00022599110008358187, ,0.0003785920086582965,3.538837066965876e-05,4.622317162151385e-05,-0.535068576955241,-0.007726697686830996,0.011600849114732028, ,0.00038304154786828116, ,0.5351243630241949, ,1.8832591673631824e-05, ,0.11659009820216742,-0.23552018446522488,0.08864808794000001,1.5978373693520755,0.15330615273682416,-1.3106594798277862, ,0.004776869573425393,-0.0002817367294751129,0.0,0.009561374551697976,0.0,0.5368581650893698, ,0.027373075485229492
0.007883025286758905,0.01920478280235663,-0.07947120635563512, ,0.008202370205116155,0.019247652879757864,-0.07970243566062259, ,0.00039659300536188627, ,-0.0009117037923946634,0.001240296070197423,-0.00464842998905648,-0.19069631811484497,0.27430910827072,0.0775543884802728, ,0.004896676373824761, ,0.33408168555110196, ,2.8299277520248553e-05, ,0.11690673025001062,-0.23555107539672177,0.08874012453,1.5980470592955602,0.15904488572697267,-1.2990032837549235, ,0.015618324812124882,-0.0010103305157179302,0.0050858274329501916,0.0015483819553486881,0.30003382936342604,0.19202762978452725, ,0.055027008056640625
0.007943834029574036,0.01926154259559937,-0.07966937402647647, ,0.008337605187095054,0.019317234384383382,-0.07986390524964286, ,0.00044271852979067366, ,0.004532305808750809,0.0020500427823144933,-0.006752999330402342,0.6432702315243891,-0.14022973308786446,-0.07110021136210559, ,0.008387339942423374, ,0.6583775275579287, ,3.329070735112943e-05, ,0.11763266714018773,-0.235628302725464,0.08895401238,1.5986761291260139,0.16136770622298516,-1.30489964638465, ,0.032734371010165846,-0.00393536432693795,0.007293411868131869,0.014395489674403485,-0.12111502997490321,-0.6384597372046822, ,0.08266806602478027
0.008108707541288738,0.01931514826618487,-0.07984311591488498, ,0.008472096497635749,0.01938584163115687,-0.08002459769742257, ,0.0004122920358666351, ,0.004735986493087217,0.0015121399314709627,-0.004390175729377452,-0.14060994429154616,-0.08296491133132217,-0.010323347784293085, ,0.006632479036519332, ,0.16326154765974452, ,3.518082550244707e-05, ,0.1188837498658121,-0.23573642098570316,0.08914456701000001,1.5986761291260139,0.15658542873119474,-1.3105564323517211, ,0.04802476799517752,-0.004049769462032927,0.005020110784746298,0.00831295392109686,-0.03649907698987342,0.14571271751371812, ,0.11272311210632324
0.00821238966150774,0.019354555263669568,-0.07995082099898715, ,0.008605848183833257,0.019453481432773017,-0.08018451916489004, ,0.00046819956051927247, ,0.004496620344678619,0.0019467341846477484,-0.0054459077217948815,-0.02847971455600939,0.0661605962322495,0.015606557576639302, ,0.007325795480639554, ,0.07202998424412117, ,3.741911983888557e-05, ,0.12018889172155604,-0.23585226197881654,0.08927030714,1.5993051989564673,0.15822506672838005,-1.3078911889291907, ,0.06170152246974693,-0.005646896236984646,0.00633352346719682,0.017190104739904687,0.12777483508928034,0.03615824864056038, ,0.1402890682220459
0.008384757824389532,0.019419970218226962,-0.08013644639049008, ,0.008738864280145643,0.019520160579622064,-0.08034367578649752, ,0.000422342885691524, ,0.006146809042579023,0.0022071811707013327,-0.005671380834111318,0.0026537813314261582,-0.042520788811236485,-0.0042462557314968, ,0.008649824893704782, ,0.04260352134058196, ,3.819575995667054e-05, ,0.1221890795359802,-0.23604533030067215,0.08948419499000002,1.5993051989564673,0.15959143172603446,-1.3066366845020787, ,0.06998299524960973,-0.007895422961202388,0.006656419356456332,0.01188203833922792,0.02546423343951658,0.006591258838735303, ,0.1728971004486084
0.00860194519327117,0.019485740410840207,-0.08027757933090605, ,0.008871148808443759,0.019585885839830366,-0.08050207367029344, ,0.0003645509591080412, ,0.0046448274289865995,0.000564706316739531,0.0005308426228324863,0.0038378246468540956,-0.06096829793559934,-0.01510124514222316, ,0.004709045440367662, ,0.06108896996335795, ,3.795400106141132e-05, ,0.12472213591872583,-0.2363465168827669,0.08965919414000001,1.5997245788434364,0.16027461422486164,-1.30711209528042, ,0.05706370508627226,-0.006465230350346718,9.070157851285001e-05,0.014815517909308412,-0.007544505226419154,0.004375518564283294, ,0.20696401596069336
0.008756401131970896,0.01953779810282568,-0.08038393858711892, ,0.009002705778058633,0.019650663959300405,-0.0806597188979928, ,0.0003865998708068427, ,0.0051817074820113135,0.0026368492781805894,-0.007155809438494174,0.05441356546492378,-0.000600957332968679,-0.005539397062480006, ,0.009220014927591811, ,0.05441688375457528, ,3.85097277435612e-05, ,0.1265447008770428,-0.2365936443347421,0.08979141572,1.6005633386173743,0.1610944332234543,-1.3076172452223176, ,0.05847008105882364,-0.008710215311421866,0.008151899447287616,0.01860142038282447,0.05466204745156819,-0.04352476152436173, ,0.23349499702453613
0.008862627276483058,0.01959403775198223,-0.08055429195709525, ,0.009133539185827017,0.01971450166175038,-0.08081661752504657, ,0.00039587816280012126, ,0.005285100989300557,0.002889083432106583,-0.008910061112434687,-0.010381321504387654,-0.04650697831413019,-0.016366411862102276, ,0.010754919087194443, ,0.047651556238296144, ,3.905740122253976e-05, ,0.12759499254793735,-0.23674037625935235,0.08998067406000002,1.6005633386173743,0.1612310697232197,-1.3073202694253112, ,0.05069281066157627,-0.0068159283914631524,0.009850842003710576,0.01860142038282447,0.0,0.0194563604128907, ,0.2625150680541992
0.009005664393761156,0.019672648535953696,-0.08077926915515256, ,0.009263653016134625,0.019777405648752324,-0.08097277558070695, ,0.00033908246590896315, ,0.0045284113811732895,0.0021823117859303947,-0.0053074581100719005,-0.025112352011580748,-0.03208125534177085,-0.004916753538639438, ,0.0073101372051636955, ,0.04074109919535778, ,3.89318037973489e-05, ,0.1291240936570338,-0.23697205824557907,0.09023345061000002,1.6009827185043435,0.16246079822110868,-1.3070978494564707, ,0.04844152197982173,-0.00891234488411582,0.006147746630644541,0.011157424776430497,0.014470730619467694,0.035367089900987844, ,0.2887859344482422
0.009048948685283414,0.019694157205856443,-0.0808292042516852, ,0.009393051240957899,0.01983938259977059,-0.08112819906809429, ,0.00047842960203015885, ,0.00413650487009682,0.001940965939641837,-0.0045065072269706895,-0.05710256286991606,-0.028127109975495338,-0.0029333841663629805, ,0.006417680944540908, ,0.06365404150584363, ,4.011739053673796e-05, ,0.12960290309523573,-0.23706473104006978,0.09029178366000001,1.601192408447828,0.1627340712206396,-1.3067489340828793, ,0.04497485381918047,-0.008456835215642033,0.005277936222664017,0.010439728484429221,0.015429187436661787,0.06684205058055455, ,0.31525301933288574
0.009209699104768812,0.019774537581712638,-0.08102947344653089, ,0.009521737819903888,0.019900439172198876,-0.08128289396426014, ,0.00042123785328039575, ,0.0044289497081626125,0.002302719307369227,-0.0060424710025209615,-0.008040688355734316,-0.016465355748671397,-0.008021354320991807, ,0.007837701674743137, ,0.018323771476123896, ,4.0631760950838424e-05, ,0.1315258635809176,-0.23737364035503875,0.09052511586,1.601611788334797,0.16533016471618295,-1.306333833308754, ,0.04716547791176481,-0.008063531059561462,0.0069015647833622195,0.016917995750024523,0.027677397701215824,0.018196161560732695, ,0.3413710594177246
0.009315523570482409,0.019834648226237022,-0.08120082099562037, ,0.009649716700248645,0.019960582001397942,-0.08143686622024972, ,0.0004280907751628762, ,0.004835916758460211,0.0025756685360107923,-0.0073848714794065885,-0.008670762033398482,-0.02663462915834837,-0.007473181730531412, ,0.009195460079273096, ,0.028010454524666325, ,4.1127038146118826e-05, ,0.1326842735120513,-0.2375435404782717,0.09071826307000001,1.6022408581652505,0.16669652971383736,-1.3064678674640315, ,0.048840422829887174,-0.007379371189886049,0.008300579218342888,0.014269002100080709,0.01956579432010033,0.017833633554769582, ,0.3690659999847412
0.009468800713236277,0.019905062189324123,-0.08138935112705871, ,0.009776991816974074,0.02001981770073118,-0.08159012176116254, ,0.000385304335999311, ,0.00469624148834942,0.0022427926133302143,-0.00594521174005921,0.01678014983402905,0.015974905336365516,0.0008395742092310006, ,0.00790128758225144, ,0.023168319350589668, ,4.123934179563173e-05, ,0.13439872021012914,-0.23777522246449842,0.09093603979,1.6024505481087352,0.1681995312112572,-1.306223247082162, ,0.054569834133680724,-0.007334209844681,0.006889624359861593,0.016763201798933352,0.0684897568909312,-0.007346786563171427, ,0.39562511444091797
0.00953163250228705,0.019932779158341508,-0.08146021604069331, ,0.009903567092803593,0.020078152861600817,-0.08174266648621341, ,0.0004891289271721057, ,0.004833324643145462,0.0018889619004575583,-0.004766458330144126,0.031187349474746984,-0.002172837158035946,-0.00017122357245934362, ,0.007046157050507587, ,0.03126294909497654, ,4.2352727759317406e-05, ,0.13511693436743202,-0.23787561799186335,0.09101900235,1.6024505481087352,0.1688827137100844,-1.306616979120363, ,0.056285255965878286,-0.00657366834385924,0.005664584466571835,0.01313498036186406,0.05230207899799721,-0.02298944606087785, ,0.4189600944519043
0.009663592841375818,0.019983281832507964,-0.08159500543327472, ,0.010029446438236247,0.02013559405348404,-0.08189450626879029, ,0.0004967379766727132, ,0.005661504517957934,0.0023275264301812777,-0.006396216643830326,-0.0017230779389411466,-0.027886713736985935,-0.024527743531420326, ,0.008853338355945884, ,0.027939896025693207, ,4.3398530107649685e-05, ,0.13657653088066046,-0.2380223499164736,0.09117714973,1.603289307882673,0.16970253270867705,-1.3062236629207145, ,0.060443911820682025,-0.006499719597744701,0.007405305216178523,0.03318463676129939,0.02557634842015352,0.01256426958774792, ,0.440532922744751
0.009722911914284494,0.020010915018927475,-0.08167942289142886, ,0.01015463375158004,0.020192147823967315,-0.08204564695651195, ,0.0005944317793207502, ,0.005229798726200017,0.002728628957081976,-0.0084644344868625,0.06751941357189253,0.05484616093658673,-0.006994204364251157, ,0.010317114998117294, ,0.08698834712261316, ,4.4953520915571395e-05, ,0.13771177261317147,-0.238138190909587,0.09134566743000001,1.603289307882673,0.17120553420609688,-1.3066324724599694, ,0.06549133302862027,-0.0075175663415284495,0.010184662097186702,0.027808353681816788,0.08175072956184427,0.005280220727521746, ,0.462615966796875
0.009952009925331965,0.020117152081906967,-0.0819894688445459, ,0.010279132918983747,0.020247820698782053,-0.08219609437128628, ,0.00040838443740241764, ,0.005378566984985771,0.002008569713744042,-0.004561798777129858,0.06535708859235036,0.005745688654788381,0.0010642155870808022, ,0.00733303096884039, ,0.06560916068210734, ,4.524547462861239e-05, ,0.1397119604275956,-0.23834670469719105,0.09162696236000001,1.6041280676566114,0.1727085357035167,-1.3060611371175375, ,0.06416290842357726,-0.008102427332872052,0.005600847932489452,0.014812733433779866,0.06788717225699464,-0.0553574369494009, ,0.4866979122161865
0.010069705922123782,0.020163833667776992,-0.08210679936036963, ,0.010402947814468004,0.020302619181838497,-0.08234585430936404, ,0.00043296517916016744, ,0.006172701583898169,0.002346890958804827,-0.0058306588708488035,0.0010256641096165289,-0.042732567985732245,0.037463887176335454, ,0.00880946791154759, ,0.042744875093771145, ,4.565119681221964e-05, ,0.14107116141345913,-0.23850115935467553,0.09176696168000001,1.6047571374870648,0.17407490070117113,-1.306766922453799, ,0.06754230715905395,-0.009080416555075535,0.006955812890829694,-0.029352607045194445,0.03272236501564755,0.00397056723423618, ,0.5093159675598145
0.010230504672367823,0.020224420191468404,-0.08227073405371116, ,0.010526082299955284,0.02035654975525998,-0.08249493254139566, ,0.0003938138106237525, ,0.005359969099985308,0.0019788385263562335,-0.005087261352628475,0.01462128584936471,-0.02160653300890293,0.0042387621422408156, ,0.007650182921743527, ,0.02608877661267901, ,4.5807504113454584e-05, ,0.1428319445087823,-0.23868650494365692,0.09196010889,1.6045474475435806,0.17516799269929464,-1.3068414782819646, ,0.05797003149570604,-0.005973708525090291,0.006763826547770702,0.00535913693781367,0.05649932477784562,-0.013443667458898394, ,0.5360898971557617
0.010374131882799833,0.02028818782188944,-0.082445009059965, ,0.0106485402252991,0.02040961887941715,-0.08264333481248447, ,0.00035969229110158066, ,0.005392773398745733,0.0024507454844076367,-0.006579192825642484,0.015323320241065487,0.009530700822299794,-0.013742823404351612, ,0.008852905545443799, ,0.018045453417613867, ,4.5772070910281514e-05, ,0.1443764910836272,-0.2388641277997641,0.09216233013000001,1.6053862073175185,0.1763977211971836,-1.3069457732736862, ,0.05968361104306338,-0.007137183364639397,0.007669143726528648,0.031045939768381468,0.06368089361481201,-0.003910098155983801, ,0.5633039474487305
0.01048806913933279,0.020330331885716788,-0.0825561772098973, ,0.010770325428312216,0.02046183299296159,-0.08279106684224086, ,0.0003900439632368857, ,0.0048874843133609285,0.0017187557082267435,-0.0044772671891864756,0.000585713742620108,-0.02252658533861846,-0.018302506843257387, ,0.006847448107235054, ,0.022534198583646452, ,4.589200757337013e-05, ,0.1456275738092516,-0.2389954142586259,0.09229455171,1.6053862073175185,0.17721754019577626,-1.3068791720345998, ,0.05298545033973801,-0.004944466611924277,0.0053578242583249246,0.02630040826342974,0.025028138539936094,0.00801677965653498, ,0.5852010250091553
0.010534178215139895,0.0203479847529901,-0.08260297739747047, ,0.010891441734794314,0.020513198512858613,-0.08293813432483547, ,0.0005169748300318947, ,0.004986678997697991,0.0020933672597217476,-0.005627059732752799,0.003209628788735653,0.0013027162513951588,-0.007047864997598432, ,0.007804675210803149, ,0.00346392565616822, ,4.684215697637161e-05, ,0.14615271964469884,-0.23904947338874546,0.09235029218000002,1.6053862073175185,0.17776408619483802,-1.3070798074289636, ,0.055076576644498415,-0.006032681165634664,0.006525527046292504,0.021852500030696404,0.052849553772098976,-0.017098600944875263, ,0.6065659523010254
0.01068609568264732,0.020422674606445233,-0.08282016122329376, ,0.01101189295855861,0.020563721834420845,-0.08308454292905061, ,0.00044264644113527316, ,0.005537833758328415,0.0028359929317302904,-0.00881750335037415,-0.026443378250579165,-0.010125235414691663,-0.07031987850600925, ,0.01079160896148324, ,0.02831558920817315, ,4.7380895672618894e-05, ,0.14770498895241796,-0.23921937351197842,0.09259788357000001,1.6066443469784255,0.178993814692727,-1.3071024236805449, ,0.05260362614105919,-0.004376390649127859,0.009893671751552797,0.08141609176565752,0.024228428462893085,0.04245439797071174, ,0.6266260147094727
0.010788113669009025,0.020471488820578553,-0.08297467949125341, ,0.011131682901458148,0.020613409331341946,-0.0832302982983328, ,0.00045113437398818483, ,0.004744954436980304,0.0023298507004416357,-0.007533643775318211,0.06418033369237182,0.05721391471863645,0.03433434670592544, ,0.00920318343991677, ,0.08597992350559566, ,4.792393251025459e-05, ,0.14877072608906095,-0.23930432357359488,0.09277288272,1.6068540369219102,0.18022354319061595,-1.3073700761525475, ,0.05530124799444684,-0.0038023536597036594,0.008577712180936998,-0.008110873661263803,0.11736190833713558,-0.061563813131756184, ,0.6459579467773438
0.010835851084757334,0.02049524340712519,-0.0830499524323684, ,0.011250815353411218,0.02066226735572724,-0.08337540605084306, ,0.0005531838767031493, ,0.005551960658201078,0.0027369039374066225,-0.008286290448726967,0.027164623066858157,0.011308282438781916,0.017339136368945608, ,0.010342993750044915, ,0.029424376952003294, ,4.8883035369864135e-05, ,0.14930359465738244,-0.23935065997084023,0.09285843786,1.6066443469784255,0.18117999868897403,-1.30782328651786, ,0.05850612919757755,-0.006033946283886947,0.009436499715639812,0.0,0.07172442810570953,-0.021197422393060533, ,0.6667599678039551
0.01098926036217231,0.020560987129320397,-0.08324826115394121, ,0.011369294092426263,0.020710302238128794,-0.08351987177950906, ,0.0004904008256218153, ,0.005576973028551175,0.001965810283192746,-0.0061423999993834005,-0.014342435838958292,-0.047703338898841756,0.003084703296910895, ,0.008526201732490196, ,0.049812789513826464, ,4.9516452370004166e-05, ,0.15081725030073045,-0.23948966916257627,0.09308528861000001,1.6068540369219102,0.1817265446880358,-1.306962098290397, ,0.0555602702332967,-0.0033485517397484287,0.007104733059768065,0.0,0.008246330245681936,0.017664130659113084, ,0.6859049797058105
0.011095936583971766,0.020608455007796643,-0.0833850124953377, ,0.011487122884626232,0.020757520287576096,-0.08366370105207326, ,0.0005029060460074055, ,0.005640603145946159,0.0024688707079348637,-0.007154160744845628,0.036247533930870095,0.02225841188088989,-0.019653360712666698, ,0.009438948160978884, ,0.04253610932828587, ,5.0164962243105314e-05, ,0.15199110569761257,-0.23958234195706696,0.09323954712000002,1.607692796695848,0.18363945568475198,-1.3078685190210224, ,0.06067579383533937,-0.005103503315516345,0.008322263072100313,0.03946814518523112,0.07677576438659214,-0.025555755308138105, ,0.7075979709625244
0.011230889325357771,0.0206596407010494,-0.08354215187067893, ,0.011604305484272447,0.020803927791608754,-0.08380689941114465, ,0.00047994755174219207, ,0.006512052824751305,0.0022926877780942954,-0.007519921335433117,-0.07340459954119441,-0.056003028676767715,0.03233796480608518, ,0.010208450721401197, ,0.09232862194751244, ,5.0684288114236175e-05, ,0.15337347488209876,-0.2396827374844319,0.09342621288000001,1.6079024866393328,0.1840493651840483,-1.306650876669441, ,0.06442426446603583,-0.0033559789655354375,0.008652260467137426,-0.02661220555520224,0.01578456474246136,0.07282311990916887, ,0.7277679443359375
0.011343146158748834,0.02070382344211766,-0.08367984015922679, ,0.011720845633787802,0.020849531016309087,-0.08394947237424678, ,0.0004864042783508903, ,0.0051332705998443345,0.0021164364741670418,-0.006824216669361834,0.044802209551820064,0.09326599813188928,0.03793309769260191, ,0.008797710131096998, ,0.10346876037463043, ,5.14019989396908e-05, ,0.15465544853922003,-0.23975996481317413,0.09358695284000002,1.607692796695848,0.1860989126805299,-1.3070969641227788, ,0.06482031527217949,-0.0027507351239387107,0.007988370872617855,4.3479793337473163e-05,0.16246333472055555,-0.042122548785979215, ,0.7440891265869141
0.011506115940803061,0.020769815113802898,-0.08387503627789727, ,0.011836747063779865,0.020894336206332974,-0.08409142543386708, ,0.0004143026777455225, ,0.007070414457302735,0.002763516470598453,-0.008036399678088687,-0.05431471795788357,-0.054795782340485,-0.050965166115343345, ,0.011054931192336224, ,0.07715352432410309, ,5.180927080164225e-05, ,0.15633128157292675,-0.2398758058062875,0.09381380359000001,1.6091606263002398,0.18732864117841885,-1.306711186673657, ,0.06768683420718315,-0.005374664565343891,0.00932600206088993,0.05645209720546315,0.0,0.06820469806946096, ,0.7658569812774658
0.011573162001911106,0.02079372002419015,-0.08395149488397996, ,0.011952013493063261,0.020938349584943117,-0.08423276405750593, ,0.0004935164740591648, ,0.006518834183595286,0.0020870932126340457,-0.007342148932181915,0.0001725702709813755,-0.05431696562000956,0.012632243085743646, ,0.010037843799032416, ,0.05431723955916374, ,5.2495965723632144e-05, ,0.1569722684014874,-0.2399066967377844,0.09390195131000001,1.6093703162437245,0.18732864117841885,-1.3063027929729543, ,0.06373199567392263,-0.0011499697012699879,0.008445817348886534,-0.009956254083178915,0.012133057235017695,-0.0005371890727603867, ,0.7824389934539795
0.011697843084409064,0.02083982701619788,-0.08409960319806294, ,0.012066648628681623,0.020981577354039504,-0.08437349368772427, ,0.0004807563708275952, ,0.006522728831946806,0.002458275680145472,-0.007870916042907395,0.03910860218449881,-0.002457531008991676,0.024030663360131207, ,0.010513820908176144, ,0.0391857396673488, ,5.310545313718289e-05, ,0.1583083011887282,-0.2399684786007782,0.09407435788000001,1.6093703162437245,0.1888316426758387,-1.3070383174727715, ,0.0686167328694655,-0.0035912075161424763,0.009138732943201378,-0.00824505600577851,0.0698841031615178,-0.036802828504030785, ,0.7987179756164551
0.011845964343373374,0.02089459790196091,-0.08428252090594834, ,0.01218065616592948,0.02102402569419161,-0.08451361974219161, ,0.0004268217913844536, ,0.0077205909799651475,0.0030883804981933307,-0.010493372890003743,-0.015222271775251064,-0.06256693236684657,0.003197902377937787, ,0.013388670351838737, ,0.06439206827374983, ,5.349462246294316e-05, ,0.15976017496908243,-0.240030260463772,0.09428435686000002,1.6091606263002398,0.18951482517466592,-1.3071870132905508, ,0.07087150228414546,-0.0030910183848394768,0.011887172776119406,0.0,0.008710391877503105,0.018285367285118467, ,0.8171999454498291
0.01191853159319066,0.020925252996646323,-0.08438824791190054, ,0.012294039788373455,0.021065700764669525,-0.08465314761373408, ,0.0004805245386279823, ,0.006660642798606213,0.002668414586430223,-0.009235505397739137,-0.0005017502538905727,-0.03980305862019404,0.004208872417561861, ,0.011695262239358599, ,0.039806220137688086, ,5.405644219481049e-05, ,0.1603857163318946,-0.24005342866239465,0.09439583780000001,1.6093703162437245,0.18978809817419678,-1.3072464916176625, ,0.06251445425459208,-0.0021180451400237728,0.010748185910931175,0.0017594561532230841,0.022696504124738868,0.0008182339360130637, ,0.833791971206665
0.012039053468043456,0.020970205259606526,-0.08453751914405608, ,0.01240680316787338,0.021106608703475995,-0.08479208267038152, ,0.00046759847108357173, ,0.006480696345460938,0.0022668594211215872,-0.007504205733509708,0.017809057285863933,-0.0019856965094524888,-0.046956444468000964, ,0.010171095341605959, ,0.017919416515103263, ,5.455044156693018e-05, ,0.16165996725614165,-0.24008431959389157,0.09457602211,1.6102090760176624,0.1908811901723203,-1.307321047445828, ,0.06603823351320166,-0.0010854686346790823,0.008723335991237677,0.06168991563399804,0.05082636153666725,-0.007064245203311351, ,0.8528420925140381
0.012182591378128639,0.02101670981217795,-0.0846854469037438, ,0.01251894996460305,0.02114675562737692,-0.08493043025541483, ,0.0004359654290672596, ,0.0056674881522926525,0.0016643885410649634,-0.005069546325625631,-0.020078384278860988,-0.0024458026236658837,0.03015424047923845, ,0.00778401638742303, ,0.02022680059661142, ,5.491754555228721e-05, ,0.16316590016661545,-0.24013837872401114,0.09475102126000001,1.6104187659611469,0.19211091867020927,-1.3071803062171283, ,0.06259692714938705,-0.002663451677113946,0.006157252230382684,-0.013834852650317689,0.06552916858733604,0.020566624553924995, ,0.8720788955688477
0.012239843325713085,0.02102992692316864,-0.08472965571761189, ,0.012630483827070426,0.021186147631933282,-0.08506819568741243, ,0.0005400131686359094, ,0.00629654182582438,0.0013713476132785345,-0.0047032475277811545,-0.006509669508726778,-0.034640699455061,0.008232572024394886, ,0.007977942751635918, ,0.035247040351600104, ,5.5799357648215696e-05, ,0.16379916426230184,-0.24014610145688536,0.09480546544000001,1.6102090760176624,0.19265746466927103,-1.3069725479107892, ,0.06711240562833859,0.0,0.005775493662073967,5.240352837907632e-05,0.033497865339446854,0.006525638769435748, ,0.8858051300048828
0.012370235679537003,0.021075776391489023,-0.08488164752094604, ,0.012741408392138071,0.02122479079153186,-0.08520538426029749, ,0.0005145677316016506, ,0.006885409786364005,0.0028545662802859258,-0.00977409898882704,0.042389224053104156,0.00965186754598195,-0.011383465940650653, ,0.012291884624340256, ,0.04347418514182388, ,5.656919733240057e-05, ,0.1651660879810396,-0.24017699238838225,0.09498305717000001,1.610838145848116,0.1941604661666909,-1.307463036190185, ,0.06797775183271546,-0.0018243687311015554,0.011154629915966389,0.0292126767639082,0.07254118475584104,-0.03591545934100154, ,0.9001491069793701
0.012421859301032685,0.021097178919791744,-0.08495601543134021, ,0.012851727285042872,0.021262691159416064,-0.08534200124338356, ,0.000600970741584986, ,0.007224194689196476,0.003243293837481223,-0.011308672310771385,-0.008230124822607356,-0.010170197607565122,-0.05231105167432192, ,0.013805579062685695, ,0.013083107009461416, ,5.759210651221724e-05, ,0.16564489741924152,-0.24018471512125647,0.09506731602000001,1.6112575257350852,0.19443373916622175,-1.307277478296875, ,0.06549133302862027,-0.0012487061306841176,0.012722692907348242,0.0658286709656843,0.041020194541547504,0.020044908047491636, ,0.9142179489135742
0.012522615767033628,0.021143174449720133,-0.08512427470992784, ,0.012961444119415754,0.021299854767717744,-0.08547805188142182, ,0.0005850447264718553, ,0.007446675372521913,0.0034972591047821517,-0.012552650534782574,-0.02185433383002889,-0.004741080070914888,-0.028917896052413815, ,0.015008425327064905, ,0.022362679529429216, ,5.8532246366365244e-05, ,0.16654845716552577,-0.2402001605870049,0.09525527807,1.6112575257350852,0.19511692166504896,-1.306936101673811, ,0.06664111064499352,-0.0009947749541003477,0.01403419517180617,0.04473812424720357,0.05305009664475131,0.030081608997870213, ,0.9281220436096191
0.012671135675796178,0.02120904353344928,-0.08537172297637233, ,0.01307056249730117,0.02133628762748734,-0.08561354139464622, ,0.00048395143622230734, ,0.007261509900390052,0.0030331580747144757,-0.010896572155395032,0.00016520063426302825,0.0037082892674257946,-0.008126903791379723, ,0.013441162846919113, ,0.003711946513603443, ,5.912816600621098e-05, ,0.16795399454863463,-0.2402001605870049,0.09553268413,1.6112575257350852,0.19689319616199968,-1.3071593533197559, ,0.06891571645495335,-0.0006711063555536517,0.012338351293570875,0.026012418437913642,0.06849449647985112,0.004732645218614891, ,0.9421219825744629
0.012787108089656279,0.0212553737047977,-0.08553788051481843, ,0.013179086009176236,0.021371995728725245,-0.08574847497882034, ,0.000459997189257063, ,0.006896412239007355,0.002584320884284414,-0.00941513967473737,0.011927734249934709,0.00986714513115431,0.008515480055401701, ,0.011953412537768984, ,0.015480029825326706, ,5.96323266173337e-05, ,0.16908151354827142,-0.24020788331987916,0.09572194247000002,1.6116769056220543,0.19812292465988865,-1.3070186120910559, ,0.06832033229551533,-9.066419097937261e-05,0.010777274370771315,0.010405870443434634,0.07793267802181725,-0.010121191567115738, ,0.9599668979644775
0.012866117840142055,0.021282738558177392,-0.08562739972703494, ,0.013287018233969897,0.021406985040412354,-0.08588285780528174, ,0.0005077924375310667, ,0.006844196702917218,0.001995544102509554,-0.00639012841936374,-0.025459974568223003,-0.004379187062650442,-0.03902011982690511, ,0.009573868914354515, ,0.02583384550719042, ,6.026565231051919e-05, ,0.16987695503431655,-0.2402233287856276,0.09582694196000001,1.6123059754525078,0.19880610715871586,-1.3069222716884132, ,0.07108385135465976,-0.0008267531911286218,0.0076913623949782725,0.05606295293501543,0.055264938966622414,0.035540550165056486, ,0.9739770889282227
0.012936550235001325,0.02130230020698586,-0.08569063727121012, ,0.013394362739081615,0.02144126151054073,-0.08601669502098921, ,0.0005789785738427104, ,0.006637991951875722,0.0016898702552994075,-0.0062668694600648625,0.012412940733539197,-0.022752295187260504,0.04436339585657587, ,0.009283978213158742, ,0.025918102250675118, ,6.127435668246138e-05, ,0.17061061465736788,-0.24023105151850183,0.09590342307000001,1.612725355339477,0.19935265315777762,-1.3067961921222153, ,0.06896580055121422,0.00031438895246330405,0.0074748059690286275,-0.033010266276301145,0.05558056495842364,-0.018124258676714692, ,0.9850759506225586
0.01299858247719531,0.021320452061753738,-0.0857552225451339, ,0.013501123080400221,0.021474831066144808,-0.08614999174856637, ,0.0006574364295086187, ,0.0071919537516645675,0.0020708330921055647,-0.007654581136495211,-0.008764523809276845,-0.0019417786567444055,0.04360921604018273, ,0.010705379994966542, ,0.008977046044009717, ,6.24906959236967e-05, ,0.17125932421880272,-0.24023105151850183,0.09597990418,1.612725355339477,0.20003583565660482,-1.306863209199854, ,0.07507669427094206,0.00031438895246330405,0.009024822390934847,-0.024913151855597702,0.08150518395397838,0.004397632349145118, ,0.9963130950927734
0.013047202124097568,0.0213355279764711,-0.08580931043950238, ,0.013607302802322262,0.021507699613331613,-0.08628275308634888, ,0.0007533284689562772, ,0.007476571558494207,0.0024654639415791425,-0.009174142286679956,0.03380123619799808,0.01634558824716648,0.042382017527757505, ,0.012088942113053598, ,0.03754599524145861, ,6.39582343646923e-05, ,0.17176130185562732,-0.24023105151850183,0.09604342239000001,1.612725355339477,0.20058238165566658,-1.307063844594218, ,0.07721476123553359,0.00031438895246330405,0.010654723424749164,-0.020139924016636404,0.10105989590074294,-0.037408330450386496, ,1.0076370239257812
0.013181647854559757,0.021384089651919812,-0.08598992102763352, ,0.013712905437770428,0.02153987303731146,-0.08641498410842806, ,0.0006979840295719326, ,0.00833374858742724,0.002991945027970177,-0.01110261704448717,-0.0052790617069063996,-0.0177307913201383,0.011780022518946906, ,0.01420109875345489, ,0.018499980665910576, ,6.523244500478788e-05, ,0.17309733464286817,-0.2402233287856276,0.09625082879,1.612725355339477,0.20222201965285186,-1.3074207145568884, ,0.07875264859624131,0.0003673209303028762,0.01270240153110048,0.0034738954785630952,0.06207450165997596,0.005523140570918239, ,1.0185599327087402
0.013263968503925985,0.02141625439447157,-0.08610606059972958, ,0.013817934508211867,0.021571357202428806,-0.08654668986469656, ,0.0007246305017635012, ,0.009082002737695319,0.003710304640746969,-0.013770903344387396,-0.04221686672892447,-0.013301356494559624,-0.007523951834219051, ,0.016908190712643198, ,0.044262731792866085, ,6.65535296821222e-05, ,0.17385416246454216,-0.24021560605275338,0.09655675323000001,1.6137738050568995,0.20372502115027172,-1.3072577729151593, ,0.08259089778805116,0.0004111690065983694,0.016873741016949155,0.07125659288641184,0.10616361189267025,-0.04047200211633836, ,1.0303449630737305
0.013388113065346315,0.021471199024393116,-0.08630987607425285, ,0.013922393523676127,0.02160215795219236,-0.08667787538089348, ,0.0006618378491831899, ,0.009392566431505161,0.004153116171165787,-0.01521348990364541,0.051480998895048626,0.02961647905338759,-0.03547099318677464, ,0.018355352166323512, ,0.05939215658466029, ,6.766796272565657e-05, ,0.17498940419705317,-0.24021560605275338,0.09661249370000001,1.6137738050568995,0.20413493064956803,-1.3074286691459673, ,0.08611337709480106,0.000392433529184122,0.017164667586206897,0.06178389898668522,0.10379957683681183,-0.04134785771240117, ,1.0469069480895996
0.013546327672478682,0.02153410854293785,-0.08654186646499015, ,0.014026285982773046,0.021632281109306175,-0.08680854565864878, ,0.000557777397120372, ,0.008848966147718976,0.0029323491488098524,-0.010867662559112746,-0.009643002053414382,-0.04149698974220247,0.02077787846796893, ,0.014318134058345146, ,0.04260267004159552, ,6.846769962319905e-05, ,0.1764181097787847,-0.24021560605275338,0.09687564057,1.613983495000384,0.20522802264769155,-1.3072581887537114, ,0.08223305161045995,0.0003178956367856968,0.012532503162863888,-0.01026739580388452,0.04455516206060021,0.0076191983176421806, ,1.058042049407959
0.013629825781733941,0.02155897268036157,-0.08663216072854579, ,0.014129615372710787,0.021661732475699275,-0.08693870567552826, ,0.0005952470204101286, ,0.008703253477086646,0.002467127234564783,-0.008815995316493498,0.003342161838432134,-0.008225530481850615,0.01977067262107015, ,0.012631512629071286, ,0.00887858908878947, ,6.954461653353202e-05, ,0.17724444219632673,-0.24021560605275338,0.09698193635,1.6137738050568995,0.20591120514651876,-1.3073252058313503, ,0.08835841858330612,0.0002871941796383816,0.010500205352669746,0.0,0.08254923332545357,-0.00359552384157354, ,1.0662670135498047
0.013723431312704796,0.021585447380296836,-0.08672691328544896, ,0.01423238516931343,0.021690517832557363,-0.08706836038507808, ,0.0006218198693674651, ,0.008870697426441258,0.0025023302822084707,-0.008787456696422263,-0.0038284428568737625,-0.018971304965990525,0.011464692425132173, ,0.012734611296157631, ,0.01935374212969704, ,7.067663302604399e-05, ,0.17818661560698212,-0.24020788331987916,0.09709471358,1.613983495000384,0.20673102414511138,-1.3073402833324042, ,0.08885481419332471,0.0,0.010493288221343874,0.006011600188639113,0.0705819065557628,0.004891622595915614, ,1.074970006942749
0.013723431312704796,0.021585447380296836,-0.08672691328544896, ,0.014334598837038503,0.021718642940351737,-0.0871975147168695, ,0.0007827723214789804, ,0.008870697426441258,0.0025023302822084707,-0.008787456696422263,-0.0038284428568737625,-0.018971304965990525,0.011464692425132173, ,0.012734611296157631, ,0.01935374212969704, ,7.222756352169846e-05, ,0.17818661560698212,-0.24020788331987916,0.09709471358,1.613983495000384,0.20673102414511138,-1.3073402833324042, ,0.08885481419332471,0.0,0.010493288221343874,0.006011600188639113,0.0705819065557628,0.004891622595915614, ,1.08632493019104
0.013786300069635498,0.02160300751433911,-0.08679022855361439, ,0.014436259828994746,0.021746113538870866,-0.08732617357654303, ,0.0008544963959231169, ,0.009564371842381108,0.0028284395368892816,-0.010068027877051817,0.023835496279363568,-0.023878750858859227,0.00020595975805732836, ,0.014171889933465598, ,0.03373908004103012, ,7.394673792967156e-05, ,0.17880443423692008,-0.2402001605870049,0.09716989840000001,1.6141931849438687,0.20714093364440772,-1.3074295008230719, ,0.09358672737521774,0.00032184707339813533,0.01190494134529148,0.016113010634436004,0.06771659417131644,-0.02135229238984171, ,1.0945899486541748
0.014024427679488475,0.02168493920010702,-0.08708541723764014, ,0.014537371586959134,0.02177293534725024,-0.08745434184585316, ,0.000637934276135438, ,0.010181632662051918,0.003928657511295341,-0.014482510745539752,0.05457120028843677,0.020244536884991036,-0.03081694810680942, ,0.018134031846246828, ,0.05820529647284078, ,7.505928889851226e-05, ,0.18104402677044518,-0.24017699238838225,0.09751211896,1.6156610145482602,0.20891720814135845,-1.307979467429579, ,0.09442481747111521,0.0012681828186191393,0.016575246118626433,0.05677044256440707,0.10394253609607591,-0.04577715889607281, ,1.1027429103851318
0.014127517864778158,0.021722622914982715,-0.08723342801992164, ,0.014637937541394586,0.02179911406400302,-0.08758202438271281, ,0.0006228150337836298, ,0.01062591412729451,0.0038528532214882867,-0.015527477784055955,-0.004321709136325027,-0.0056544197546231165,0.029700662914327807, ,0.019205652691885296, ,0.0071167921145158745, ,7.611402939476716e-05, ,0.18198620018110057,-0.24014610145688536,0.09768063666000001,1.6158707044917449,0.20987366363971652,-1.3082693203146105, ,0.09604953599035504,0.003600136389732196,0.01762036672566372,-0.007725638661574002,0.09505110390092594,-0.0004526942512269039, ,1.1108710765838623
0.014127517864778158,0.021722622914982715,-0.08723342801992164, ,0.014737961111466896,0.02182465536704965,-0.08770922602123656, ,0.0007806633824882212, ,0.01062591412729451,0.0038528532214882867,-0.015527477784055955,-0.004321709136325027,-0.0056544197546231165,0.029700662914327807, ,0.019205652691885296, ,0.0071167921145158745, ,7.756750648504063e-05, ,0.18198620018110057,-0.24014610145688536,0.09768063666000001,1.6158707044917449,0.20987366363971652,-1.3082693203146105, ,0.09604953599035504,0.003600136389732196,0.01762036672566372,-0.007725638661574002,0.09505110390092594,-0.0004526942512269039, ,1.11946702003479
0.014230206567958675,0.021761519024644703,-0.08738518051614041, ,0.014837445705062093,0.021849564913749137,-0.08783595157178614, ,0.0007613711268666922, ,0.011309262420288933,0.0043174789743920345,-0.01660132790452372,0.030128793012529742,-0.01145490606703348,0.02864653922256807, ,0.020546146338882985, ,0.032232868013863956, ,7.894784227462697e-05, ,0.1829129281260075,-0.24012293325826267,0.09785304323,1.6158707044917449,0.21083011913807462,-1.3084774944595017, ,0.10095419314730934,0.0017044090704008445,0.018872999431279625,-0.0076739030960228235,0.09387995733355033,-0.03307640139946889, ,1.1282169818878174
0.014319136029778657,0.0217945662818416,-0.0875153631727285, ,0.01493639471880349,0.021873848340928592,-0.08796220582101402, ,0.0007661346398620481, ,0.011603422156159537,0.004123207969876383,-0.01663006994505713,-0.02752879012513218,-0.020435583806158807,0.02763523934363527, ,0.020692981323975495, ,0.034284779411586135, ,8.052768371699786e-05, ,0.18370064687917842,-0.24009976505964,0.09800082029000001,1.6158707044917449,0.2115133016369018,-1.3084628327969998, ,0.10314884952007694,0.0039676069558726365,0.01889538733096086,-0.006882732054767372,0.08709484086756093,0.022497891522086918, ,1.134782075881958
0.014319136029778657,0.0217945662818416,-0.0875153631727285, ,0.015034811538068482,0.021897511264913943,-0.08808799353190717, ,0.0009223310853260703, ,0.011603422156159537,0.004123207969876383,-0.01663006994505713,-0.02752879012513218,-0.020435583806158807,0.02763523934363527, ,0.020692981323975495, ,0.034284779411586135, ,8.249480443506525e-05, ,0.18370064687917842,-0.24009976505964,0.09800082029000001,1.6158707044917449,0.2115133016369018,-1.3084628327969998, ,0.10314884952007694,0.0039676069558726365,0.01889538733096086,-0.006882732054767372,0.08709484086756093,0.022497891522086918, ,1.1403610706329346
0.014478722576196845,0.021852761681614916,-0.0877388630892299, ,0.015132699537005773,0.021920559281559553,-0.08821331944383148, ,0.0008107966528353194, ,0.011982579431631927,0.004443925082530911,-0.016498593020248024,0.0006261824155853553,-0.00021300315574787946,0.027086434221675372, ,0.02086945738686784, ,0.0006604939835107006, ,8.415497678459015e-05, ,0.18512935246090995,-0.24007659686101734,0.09825618942000001,1.6156610145482602,0.21274303013479076,-1.3083220915683, ,0.10958076392433115,0.0006440516889954416,0.01896287085714286,0.0,0.11270100584073052,-0.0012196263420617137, ,1.1457860469818115
0.014478722576196845,0.021852761681614916,-0.0877388630892299, ,0.01523006207855221,0.0219429979662795,-0.08833818827257588, ,0.000965320832812782, ,0.011982579431631927,0.004443925082530911,-0.016498593020248024,0.0006261824155853553,-0.00021300315574787946,0.027086434221675372, ,0.02086945738686784, ,0.0006604939835107006, ,8.619336778009808e-05, ,0.18512935246090995,-0.24007659686101734,0.09825618942000001,1.6156610145482602,0.21274303013479076,-1.3083220915683, ,0.10958076392433115,0.0006440516889954416,0.01896287085714286,0.0,0.11270100584073052,-0.0012196263420617137, ,1.1513159275054932
0.014591956058768786,0.021893007750777863,-0.0879010539459186, ,0.015326902514449313,0.02196483287407644,-0.08846260471039537, ,0.0009277092228379892, ,0.012827793371241854,0.0045662908464040265,-0.019073350969180468,0.06327921156166295,0.03207506447949729,0.028366227723206402, ,0.02343493144992678, ,0.07094410372232694, ,8.811530795128839e-05, ,0.1861796441318045,-0.240030260463772,0.09844155889000002,1.6158707044917449,0.2141093951324452,-1.308701161943999, ,0.1170122583951551,0.006564624722248867,0.02167185240816327,0.005126446661204189,0.15183879485371857,-0.06879854845995663, ,1.1575210094451904
0.014733845768150506,0.02194859568701046,-0.08811762710156384, ,0.015423224185260386,0.021986069539573154,-0.08858657342605598, ,0.0008346002317621903, ,0.013442054185370584,0.0054514622959354895,-0.020886798100545622,0.060052931451793655,0.057019591773538464,-0.06540962713079924, ,0.025429620460781583, ,0.08281053342885498, ,8.978206647245198e-05, ,0.18745389505605153,-0.2399762013336524,0.09868785399,1.6169191542091674,0.21574903312963048,-1.3090580319066694, ,0.11966827434863908,0.004259754471858681,0.023738914336810735,0.105661051552366,0.1558812829190312,-0.044972974400214194, ,1.1630430221557617
0.014733845768150506,0.02194859568701046,-0.08811762710156384, ,0.015519030420387133,0.022006713477041723,-0.08871009906487803, ,0.0009853505178054362, ,0.013442054185370584,0.0054514622959354895,-0.020886798100545622,0.060052931451793655,0.057019591773538464,-0.06540962713079924, ,0.025429620460781583, ,0.08281053342885498, ,9.181175509930469e-05, ,0.18745389505605153,-0.2399762013336524,0.09868785399,1.6169191542091674,0.21574903312963048,-1.3090580319066694, ,0.11966827434863908,0.004259754471858681,0.023738914336810735,0.105661051552366,0.1558812829190312,-0.044972974400214194, ,1.168653964996338
0.014863895988422604,0.021998290033772475,-0.08831907347402645, ,0.015614324538086059,0.02202677018043395,-0.08883318624877994, ,0.0009100912438149146, ,0.014470749336973697,0.005560800320804124,-0.022554040213444992,0.006591619505120449,0.032800592533567756,-0.024708205210502893, ,0.027368043710339872, ,0.033456277171354486, ,9.363247623618767e-05, ,0.18859685952143676,-0.23992214220353283,0.09891600103,1.617128844152652,0.21711539812728486,-1.3091920660619467, ,0.12619274143413667,0.006852760189118154,0.02552694153846154,0.0621569350915248,0.14862157403353682,-0.001857086062562227, ,1.1748390197753906
0.014863895988422604,0.021998290033772475,-0.08831907347402645, ,0.015709109845485573,0.022046245123411985,-0.08895583957632211, ,0.0010593192265914906, ,0.014470749336973697,0.005560800320804124,-0.022554040213444992,0.006591619505120449,0.032800592533567756,-0.024708205210502893, ,0.027368043710339872, ,0.033456277171354486, ,9.580717517414057e-05, ,0.18859685952143676,-0.23992214220353283,0.09891600103,1.617128844152652,0.21711539812728486,-1.3091920660619467, ,0.12619274143413667,0.006852760189118154,0.02552694153846154,0.0621569350915248,0.14862157403353682,-0.001857086062562227, ,1.1803641319274902
0.01501935390697491,0.022057085755218607,-0.08856746013020841, ,0.015803389638601995,0.022065143759377966,-0.08907806362275068, ,0.0009356777685161785, ,0.014891648361595006,0.005635926747837428,-0.024012161362146976,0.01582321110972597,0.035140406800327754,0.0025269195408028486, ,0.02881160798209931, ,0.03853847709882657, ,9.765348638547531e-05, ,0.18994061504155182,-0.23983719214191637,0.09919599967,1.617128844152652,0.21875503612447017,-1.3092222210640547, ,0.12806604798714005,0.009405916367036771,0.02704382261460102,0.0352466266742351,0.1594220186360095,-0.018498057344697026, ,1.1858789920806885
0.01517297303274207,0.02211238075809746,-0.08880603641956203, ,0.01589716720235654,0.022083471521504,-0.08919986294004076, ,0.0008248589379381137, ,0.015425793939931024,0.0052911403521984,-0.023504895762530596,0.016064900019693823,0.02742566366378996,0.03735842159441779, ,0.028608240241428756, ,0.031784286456391586, ,9.920793568218435e-05, ,0.19127664782879267,-0.23973679661455147,0.09946562799000001,1.6173385340961361,0.22039467412165545,-1.309415733546444, ,0.13498853706752598,0.011228343312454021,0.026592339766277135,0.0,0.16716001163371122,-0.027007282260502453, ,1.1917369365692139
0.01517297303274207,0.02211238075809746,-0.08880603641956203, ,0.015990445810591523,0.022101233822763168,-0.08932124205694081, ,0.000966345096473885, ,0.015425793939931024,0.0052911403521984,-0.023504895762530596,0.016064900019693823,0.02742566366378996,0.03735842159441779, ,0.028608240241428756, ,0.031784286456391586, ,0.00010134374149694222, ,0.19127664782879267,-0.23973679661455147,0.09946562799000001,1.6173385340961361,0.22039467412165545,-1.309415733546444, ,0.13498853706752598,0.011228343312454021,0.026592339766277135,0.0,0.16716001163371122,-0.027007282260502453, ,1.1945691108703613
0.01517297303274207,0.02211238075809746,-0.08880603641956203, ,0.016083228726086918,0.02211843605595852,-0.08944220547901556, ,0.0011105463367662267, ,0.015425793939931024,0.0052911403521984,-0.023504895762530596,0.016064900019693823,0.02742566366378996,0.03735842159441779, ,0.028608240241428756, ,0.031784286456391586, ,0.00010382335475313213, ,0.19127664782879267,-0.23973679661455147,0.09946562799000001,1.6173385340961361,0.22039467412165545,-1.309415733546444, ,0.13498853706752598,0.011228343312454021,0.026592339766277135,0.0,0.16716001163371122,-0.027007282260502453, ,1.1973419189453125
0.01517297303274207,0.02211238075809746,-0.08880603641956203, ,0.016175519200576697,0.022135083593753865,-0.08956275768869014, ,0.0012562807474993775, ,0.015425793939931024,0.0052911403521984,-0.023504895762530596,0.016064900019693823,0.02742566366378996,0.03735842159441779, ,0.028608240241428756, ,0.031784286456391586, ,0.0001066480052255494, ,0.19127664782879267,-0.23973679661455147,0.09946562799000001,1.6173385340961361,0.22039467412165545,-1.309415733546444, ,0.13498853706752598,0.011228343312454021,0.026592339766277135,0.0,0.16716001163371122,-0.027007282260502453, ,1.2001290321350098
0.015337193830732992,0.02216694383517564,-0.08904415917849018, ,0.016267320474765323,0.022151181788703678,-0.08968290314529337, ,0.0011284404597387075, ,0.01672989108734708,0.005273943253042219,-0.023780412160915834,0.02123694024008403,0.021602821581493094,0.020741550541465183, ,0.02955015627325579, ,0.03029326535855022, ,0.0005952110212235048, ,0.19272079887627264,-0.2396209556214381,0.09973655260000001,1.6177579139831053,0.22203431211884073,-1.309609246028833, ,0.1480451506372399,0.013038876278987468,0.027089815510204087,0.017690385739456638,0.17025800795881546,-0.03064799139649381, ,1.2029309272766113
0.015337193830732992,0.02216694383517564,-0.08904415917849018, ,0.016358635778343865,0.02216673597328345,-0.0898026462851013, ,0.0012722603453857138, ,0.01672989108734708,0.005273943253042219,-0.023780412160915834,0.02123694024008403,0.021602821581493094,0.020741550541465183, ,0.02955015627325579, ,0.03029326535855022, ,0.0006041195649624812, ,0.19272079887627264,-0.2396209556214381,0.09973655260000001,1.6177579139831053,0.22203431211884073,-1.309609246028833, ,0.1480451506372399,0.013038876278987468,0.027089815510204087,0.017690385739456638,0.17025800795881546,-0.03064799139649381, ,1.208993911743164
0.015451014555147413,0.02220331924680504,-0.08920946391948695, ,0.0164494683300066,0.022181751459919078,-0.08992199152138061, ,0.0012268132267880287, ,0.01837716860319613,0.006061526285065592,-0.027435366713014362,0.05787460736157386,0.06333589451586755,-0.08531243294293749, ,0.03357323001220489, ,0.08579563023663506, ,0.0006122064956355402, ,0.19372475414992182,-0.23951283736119894,0.09992451465,1.6185966737570436,0.2232640406167297,-1.3099585772409763, ,0.16002856923856792,0.017326445418745805,0.031110960000000003,0.13416562188886352,0.19701908083295844,-0.04956554612796039, ,1.2142081260681152
0.015451014555147413,0.02220331924680504,-0.08920946391948695, ,0.016539821337467023,0.022196233541017806,-0.09004094324443282, ,0.0013700030234507251, ,0.01837716860319613,0.006061526285065592,-0.027435366713014362,0.05787460736157386,0.06333589451586755,-0.08531243294293749, ,0.03357323001220489, ,0.08579563023663506, ,0.0006219218357357348, ,0.19372475414992182,-0.23951283736119894,0.09992451465,1.6185966737570436,0.2232640406167297,-1.3099585772409763, ,0.16002856923856792,0.017326445418745805,0.031110960000000003,0.13416562188886352,0.19701908083295844,-0.04956554612796039, ,1.2169749736785889
0.01567490161426362,0.022275643756575318,-0.08954217514145967, ,0.016629697997474206,0.02221018748899736,-0.09015950582163629, ,0.0011388669040079196, ,0.018317973967615912,0.005810104927912183,-0.026274780333488235,0.025515619127956943,0.03593447688549671,-0.011516393729375012, ,0.03255256627555904, ,0.0440717701696852, ,0.0006284654441948764, ,0.19566316010135218,-0.2393120463064691,0.10030173504,1.619225743587497,0.22558686111274218,-1.3103824642812856, ,0.15975916087284645,0.015234699238797684,0.029941375037593993,0.055534246167422606,0.18788521846507028,-0.02971563370974084, ,1.2231950759887695
0.01567490161426362,0.022275643756575318,-0.08954217514145967, ,0.01671910149582923,0.02222361855631718,-0.09027768359749165, ,0.0012782928862424621, ,0.018317973967615912,0.005810104927912183,-0.026274780333488235,0.025515619127956943,0.03593447688549671,-0.011516393729375012, ,0.03255256627555904, ,0.0440717701696852, ,0.0006365882872204713, ,0.19566316010135218,-0.2393120463064691,0.10030173504,1.619225743587497,0.22558686111274218,-1.3103824642812856, ,0.15975916087284645,0.015234699238797684,0.029941375037593993,0.055534246167422606,0.18788521846507028,-0.02971563370974084, ,1.2260029315948486
0.01567490161426362,0.022275643756575318,-0.08954217514145967, ,0.016808035007400947,0.022236531975507297,-0.09039548089366323, ,0.0014190319675063384, ,0.018317973967615912,0.005810104927912183,-0.026274780333488235,0.025515619127956943,0.03593447688549671,-0.011516393729375012, ,0.03255256627555904, ,0.0440717701696852, ,0.0006462480857425191, ,0.19566316010135218,-0.2393120463064691,0.10030173504,1.619225743587497,0.22558686111274218,-1.3103824642812856, ,0.15975916087284645,0.015234699238797684,0.029941375037593993,0.055534246167422606,0.18788521846507028,-0.02971563370974084, ,1.22878098487854
0.01567490161426362,0.022275643756575318,-0.08954217514145967, ,0.01689650169614248,0.02224893295919883,-0.09051290200902395, ,0.00156055467003053, ,0.018317973967615912,0.005810104927912183,-0.026274780333488235,0.025515619127956943,0.03593447688549671,-0.011516393729375012, ,0.03255256627555904, ,0.0440717701696852, ,0.0006573981660387143, ,0.19566316010135218,-0.2393120463064691,0.10030173504,1.619225743587497,0.22558686111274218,-1.3103824642812856, ,0.15975916087284645,0.015234699238797684,0.029941375037593993,0.055534246167422606,0.18788521846507028,-0.02971563370974084, ,1.2315471172332764
0.015919629810826966,0.0223470774110766,-0.08989030562299447, ,0.01698450471510732,0.02226082670015456,-0.0906299512196978, ,0.0012994126964222296, ,0.0214944199485003,0.005667623131430122,-0.03014879334899292,-0.0016348826339164825,-0.0015627987805834278,0.03937823868835927, ,0.037457733264076316, ,0.002256163255359748, ,0.0006651332808626121, ,0.19776374344314124,-0.23906491885449394,0.10069710349000001,1.6194354335309815,0.2277730451089892,-1.3106132546777576, ,0.1842659059387782,0.026448422953865878,0.034181998969957085,0.0,0.1880891519197939,-0.024087462615093036, ,1.2349860668182373
0.015919629810826966,0.0223470774110766,-0.08989030562299447, ,0.01707204720646555,0.022272218371298197,-0.09074663277910401, ,0.001437694657393434, ,0.0214944199485003,0.005667623131430122,-0.03014879334899292,-0.0016348826339164825,-0.0015627987805834278,0.03937823868835927, ,0.037457733264076316, ,0.002256163255359748, ,0.0006743304401070267, ,0.19776374344314124,-0.23906491885449394,0.10069710349000001,1.6194354335309815,0.2277730451089892,-1.3106132546777576, ,0.1842659059387782,0.026448422953865878,0.034181998969957085,0.0,0.1880891519197939,-0.024087462615093036, ,1.2377400398254395
0.015919629810826966,0.0223470774110766,-0.08989030562299447, ,0.017159132301519556,0.022283113125744117,-0.09086295091799951, ,0.0015768629376476185, ,0.0214944199485003,0.005667623131430122,-0.03014879334899292,-0.0016348826339164825,-0.0015627987805834278,0.03937823868835927, ,0.037457733264076316, ,0.002256163255359748, ,0.0006849484694898571, ,0.19776374344314124,-0.23906491885449394,0.10069710349000001,1.6194354335309815,0.2277730451089892,-1.3106132546777576, ,0.1842659059387782,0.026448422953865878,0.034181998969957085,0.0,0.1880891519197939,-0.024087462615093036, ,1.2405240535736084
0.016138889571672685,0.022408726997912878,-0.09023092389746254, ,0.01724576312072074,0.022293516096829256,-0.09097890984452334, ,0.0013408674738061084, ,0.02270485233499819,0.006858217387866355,-0.036910477612904204,0.044638959429867196,0.04669169705063207,0.04877096564084587, ,0.04387401079119628, ,0.06459630611218813, ,0.0006925754346563252, ,0.19961719933295513,-0.23875600953952494,0.10107950904000002,1.619225743587497,0.23023250210476714,-1.3113935958421847, ,0.1860724344283741,0.03146450316925424,0.04126635108808291,0.0,0.2392063412334709,-0.0753831898179512, ,1.2432761192321777
0.016138889571672685,0.022408726997912878,-0.09023092389746254, ,0.017331942773684994,0.02230343239814053,-0.09109451374423858, ,0.001476567072309179, ,0.02270485233499819,0.006858217387866355,-0.036910477612904204,0.044638959429867196,0.04669169705063207,0.04877096564084587, ,0.04387401079119628, ,0.06459630611218813, ,0.000701586832790266, ,0.19961719933295513,-0.23875600953952494,0.10107950904000002,1.619225743587497,0.23023250210476714,-1.3113935958421847, ,0.1860724344283741,0.03146450316925424,0.04126635108808291,0.0,0.2392063412334709,-0.0753831898179512, ,1.246021032333374
0.016138889571672685,0.022408726997912878,-0.09023092389746254, ,0.01741767435920925,0.02231286712354704,-0.0912097667801772, ,0.0016132616146767751, ,0.02270485233499819,0.006858217387866355,-0.036910477612904204,0.044638959429867196,0.04669169705063207,0.04877096564084587, ,0.04387401079119628, ,0.06459630611218813, ,0.0007119467734935218, ,0.19961719933295513,-0.23875600953952494,0.10107950904000002,1.619225743587497,0.23023250210476714,-1.3113935958421847, ,0.1860724344283741,0.03146450316925424,0.04126635108808291,0.0,0.2392063412334709,-0.0753831898179512, ,1.250365972518921
0.016384713114078145,0.022483106015932258,-0.090618019906106, ,0.017502960965287123,0.02232182534722852,-0.09132467309288228, ,0.0013326096342185462, ,0.025759202607143452,0.007751758982216361,-0.04015808305208245,0.03315279633163411,0.03005428813537431,-0.02343802303268857, ,0.048335265807608725, ,0.04474666133255924, ,0.0007189205135016682, ,0.20160966441450506,-0.2384316547588075,0.10151376619000001,1.620064503361435,0.23241868610101418,-1.3118694224590786, ,0.20856470672191377,0.033007631846424614,0.04512411195467422,0.07337125483485953,0.22759784588826518,-0.05101862769029346, ,1.2533810138702393
0.016384713114078145,0.022483106015932258,-0.090618019906106, ,0.017587805669125257,0.02233031212370676,-0.09143923680045195, ,0.0014646415455907297, ,0.025759202607143452,0.007751758982216361,-0.04015808305208245,0.03315279633163411,0.03005428813537431,-0.02343802303268857, ,0.048335265807608725, ,0.04474666133255924, ,0.0007272063027471022, ,0.20160966441450506,-0.2384316547588075,0.10151376619000001,1.620064503361435,0.23241868610101418,-1.3118694224590786, ,0.20856470672191377,0.033007631846424614,0.04512411195467422,0.07337125483485953,0.22759784588826518,-0.05101862769029346, ,1.2561910152435303
0.016384713114078145,0.022483106015932258,-0.090618019906106, ,0.017672211537159168,0.022338332487874136,-0.091553461998582, ,0.0015980186082265695, ,0.025759202607143452,0.007751758982216361,-0.04015808305208245,0.03315279633163411,0.03005428813537431,-0.02343802303268857, ,0.048335265807608725, ,0.04474666133255924, ,0.0007367756687413821, ,0.20160966441450506,-0.2384316547588075,0.10151376619000001,1.620064503361435,0.23241868610101418,-1.3118694224590786, ,0.20856470672191377,0.033007631846424614,0.04512411195467422,0.07337125483485953,0.22759784588826518,-0.05101862769029346, ,1.2590699195861816
0.016384713114078145,0.022483106015932258,-0.090618019906106, ,0.017756181625069273,0.022345891455024858,-0.0916673527606099, ,0.001732297073803028, ,0.025759202607143452,0.007751758982216361,-0.04015808305208245,0.03315279633163411,0.03005428813537431,-0.02343802303268857, ,0.048335265807608725, ,0.04474666133255924, ,0.0007475965535790087, ,0.20160966441450506,-0.2384316547588075,0.10151376619000001,1.620064503361435,0.23241868610101418,-1.3118694224590786, ,0.20856470672191377,0.033007631846424614,0.04512411195467422,0.07337125483485953,0.22759784588826518,-0.05101862769029346, ,1.2618789672851562
0.016600337843760114,0.022547131821898384,-0.09095749237927207, ,0.01783971897779678,0.022352994020884066,-0.09178091313755761, ,0.0015005921585708134, ,0.026284429415557264,0.007424522662001047,-0.04086404405239406,0.0632272561929903,0.059690730475905195,-0.04084539184449404, ,0.04915144822663908, ,0.08695145359588914, ,0.0007556932805144044, ,0.2033550020440798,-0.238138190909587,0.10189487545,1.6206935731918888,0.2344682335974958,-1.3124788673926975, ,0.21373185035691616,0.03878093239005753,0.04590435596541788,0.09674416175116861,0.2575531997419439,-0.08195181944144353, ,1.2646090984344482
0.016600337843760114,0.022547131821898384,-0.09095749237927207, ,0.01792282662956004,0.02235964516163866,-0.09189414715817479, ,0.001631395111915933, ,0.026284429415557264,0.007424522662001047,-0.04086404405239406,0.0632272561929903,0.059690730475905195,-0.04084539184449404, ,0.04915144822663908, ,0.08695145359588914, ,0.000765009257444208, ,0.2033550020440798,-0.238138190909587,0.10189487545,1.6206935731918888,0.2344682335974958,-1.3124788673926975, ,0.21373185035691616,0.03878093239005753,0.04590435596541788,0.09674416175116861,0.2575531997419439,-0.08195181944144353, ,1.26739501953125
0.016600337843760114,0.022547131821898384,-0.09095749237927207, ,0.01800550760386987,0.022365849833966375,-0.09200705882898255, ,0.0017632228861472262, ,0.026284429415557264,0.007424522662001047,-0.04086404405239406,0.0632272561929903,0.059690730475905195,-0.04084539184449404, ,0.04915144822663908, ,0.08695145359588914, ,0.0007755167693252922, ,0.2033550020440798,-0.238138190909587,0.10189487545,1.6206935731918888,0.2344682335974958,-1.3124788673926975, ,0.21373185035691616,0.03878093239005753,0.04590435596541788,0.09674416175116861,0.2575531997419439,-0.08195181944144353, ,1.2702751159667969
0.01692316583701838,0.022632386297712543,-0.0914595711339087, ,0.01808776491354609,0.022371612975066544,-0.09211965213431594, ,0.0013638184123818192, ,0.028383707290748596,0.006901420211391191,-0.04306939476883338,-0.010236878905770267,-0.0035578068641688616,0.07014469574091216, ,0.052040726419360306, ,0.010830673150901374, ,0.0007816449114404645, ,0.20594984028981922,-0.23762076780701394,0.10245746531000001,1.6211129530788577,0.23747423659233552,-1.313214807731067, ,0.22648434739491832,0.047212408735557605,0.048269125818181824,-0.025909528183243234,0.23561455362303288,-0.040883827243651125, ,1.273090124130249
0.01692316583701838,0.022632386297712543,-0.0914595711339087, ,0.018169601560733287,0.022376939502689888,-0.09223193103636781, ,0.0014884202690660716, ,0.028383707290748596,0.006901420211391191,-0.04306939476883338,-0.010236878905770267,-0.0035578068641688616,0.07014469574091216, ,0.052040726419360306, ,0.010830673150901374, ,0.0007889312553335119, ,0.20594984028981922,-0.23762076780701394,0.10245746531000001,1.6211129530788577,0.23747423659233552,-1.313214807731067, ,0.22648434739491832,0.047212408735557605,0.048269125818181824,-0.025909528183243234,0.23561455362303288,-0.040883827243651125, ,1.2758569717407227
0.01692316583701838,0.022632386297712543,-0.0914595711339087, ,0.018251020536916462,0.022381834315167916,-0.09234389947523168, ,0.0016149337494973407, ,0.028383707290748596,0.006901420211391191,-0.04306939476883338,-0.010236878905770267,-0.0035578068641688616,0.07014469574091216, ,0.052040726419360306, ,0.010830673150901374, ,0.0007973598522127346, ,0.20594984028981922,-0.23762076780701394,0.10245746531000001,1.6211129530788577,0.23747423659233552,-1.313214807731067, ,0.22648434739491832,0.047212408735557605,0.048269125818181824,-0.025909528183243234,0.23561455362303288,-0.040883827243651125, ,1.2786219120025635
0.01692316583701838,0.022632386297712543,-0.0914595711339087, ,0.0183320248229374,0.022386302291443828,-0.09245556136894525, ,0.0017428245834375366, ,0.028383707290748596,0.006901420211391191,-0.04306939476883338,-0.010236878905770267,-0.0035578068641688616,0.07014469574091216, ,0.052040726419360306, ,0.010830673150901374, ,0.0008069100010129853, ,0.20594984028981922,-0.23762076780701394,0.10245746531000001,1.6211129530788577,0.23747423659233552,-1.313214807731067, ,0.22648434739491832,0.047212408735557605,0.048269125818181824,-0.025909528183243234,0.23561455362303288,-0.040883827243651125, ,1.2813410758972168
0.017212779697897015,0.022694876785442845,-0.0918874004063029, ,0.018412617389010146,0.022390348291101696,-0.09256692061353304, ,0.0014121245699000734, ,0.02860865333953408,0.00555377144057116,-0.04097553092022343,-0.0069982684666079,-0.0033749361440405523,0.04099946762226844, ,0.05028213954586583, ,0.007762115988087136, ,0.000812962146701856, ,0.20826666015208659,-0.23708789923869245,0.10293709261000002,1.6209032631353733,0.239797057088348,-1.3135570160312353, ,0.2308928018454277,0.05611883001683665,0.04603702751445087,0.0017667126746883995,0.2335172891679739,-0.04746933895348655, ,1.284877061843872
0.017212779697897015,0.022694876785442845,-0.0918874004063029, ,0.01849280119473734,0.022393977154397116,-0.09267798108305028, ,0.0015342794487260615, ,0.02860865333953408,0.00555377144057116,-0.04097553092022343,-0.0069982684666079,-0.0033749361440405523,0.04099946762226844, ,0.05028213954586583, ,0.007762115988087136, ,0.0008201039021674422, ,0.20826666015208659,-0.23708789923869245,0.10293709261000002,1.6209032631353733,0.239797057088348,-1.3135570160312353, ,0.2308928018454277,0.05611883001683665,0.04603702751445087,0.0017667126746883995,0.2335172891679739,-0.04746933895348655, ,1.2877259254455566
0.017212779697897015,0.022694876785442845,-0.0918874004063029, ,0.01857257918912568,0.02239719370228665,-0.0927887466296256, ,0.0016583410049327049, ,0.02860865333953408,0.00555377144057116,-0.04097553092022343,-0.0069982684666079,-0.0033749361440405523,0.04099946762226844, ,0.05028213954586583, ,0.007762115988087136, ,0.0008283219129788664, ,0.20826666015208659,-0.23708789923869245,0.10293709261000002,1.6209032631353733,0.239797057088348,-1.3135570160312353, ,0.2308928018454277,0.05611883001683665,0.04603702751445087,0.0017667126746883995,0.2335172891679739,-0.04746933895348655, ,1.2905900478363037
0.017212779697897015,0.022694876785442845,-0.0918874004063029, ,0.018651954310602188,0.02240000273645803,-0.09289922108350468, ,0.0017838036196377806, ,0.02860865333953408,0.00555377144057116,-0.04097553092022343,-0.0069982684666079,-0.0033749361440405523,0.04099946762226844, ,0.05028213954586583, ,0.007762115988087136, ,0.0008375984344027393, ,0.20826666015208659,-0.23708789923869245,0.10293709261000002,1.6209032631353733,0.239797057088348,-1.3135570160312353, ,0.2308928018454277,0.05611883001683665,0.04603702751445087,0.0017667126746883995,0.2335172891679739,-0.04746933895348655, ,1.2958641052246094
0.017212779697897015,0.022694876785442845,-0.0918874004063029, ,0.018730929487029715,0.022402409039360156,-0.09300940825309278, ,0.001910292588322642, ,0.02860865333953408,0.00555377144057116,-0.04097553092022343,-0.0069982684666079,-0.0033749361440405523,0.04099946762226844, ,0.05028213954586583, ,0.007762115988087136, ,0.0008479128012673538, ,0.20826666015208659,-0.23708789923869245,0.10293709261000002,1.6209032631353733,0.239797057088348,-1.3142556784555222, ,0.24024542166701462,0.06288730388235307,0.04270458852546917,0.045492645293661794,0.25715872401864487,-0.08295309157753468, ,1.2990670204162598
0.01749747440366391,0.02274412202215619,-0.09227653204381121, ,0.01880950763572316,0.022404417374232967,-0.09311931192499867, ,0.0015959662834730656, ,0.02880877048464847,0.004177999872319967,-0.037683943591208725,0.030815731159059362,0.02078448146244329,0.0021368803329917772, ,0.047618069515213024, ,0.03716891123111492, ,0.0008550371201455035, ,0.21060664821297662,-0.23650097154025138,0.10337653492000001,1.6215323329658269,0.2422565140841259,-1.3142556784555222, ,0.24024542166701462,0.06288730388235307,0.04270458852546917,0.045492645293661794,0.25715872401864487,-0.08295309157753468, ,1.3029448986053467
0.01749747440366391,0.02274412202215619,-0.09227653204381121, ,0.018887691663465173,0.022406032485137634,-0.09322893586407698, ,0.001718744193109484, ,0.02880877048464847,0.004177999872319967,-0.037683943591208725,0.030815731159059362,0.02078448146244329,0.0021368803329917772, ,0.047618069515213024, ,0.03716891123111492, ,0.000863185300079126, ,0.21060664821297662,-0.23650097154025138,0.10337653492000001,1.6215323329658269,0.2422565140841259,-1.3142556784555222, ,0.24024542166701462,0.06288730388235307,0.04270458852546917,0.045492645293661794,0.25715872401864487,-0.08295309157753468, ,1.3057889938354492
0.01794103750429337,0.022790328046681824,-0.09281003178018302, ,0.01896548446652187,0.022407259096985994,-0.09333828381347221, ,0.0012146125346440481, ,0.02872167110874341,0.0021401775570354256,-0.030821374496961762,-0.05502078952984753,-0.07134478199800862,-0.03007343749198544, ,0.04218378689895478, ,0.09009626732030217, ,0.0008664696667573028, ,0.2143212827254786,-0.2354661253351053,0.10398449493,1.622371092739765,0.2455357900784965,-1.3149694183808627, ,0.2427031753413575,0.06631512338118153,0.03555538285714287,0.05773149928015032,0.16260558842550232,0.0022975557465796936, ,1.3087351322174072
0.01794103750429337,0.022790328046681824,-0.09281003178018302, ,0.019042888930658888,0.022408101915571,-0.09344735949466114, ,0.0013290447685196985, ,0.02872167110874341,0.0021401775570354256,-0.030821374496961762,-0.05502078952984753,-0.07134478199800862,-0.03007343749198544, ,0.04218378689895478, ,0.09009626732030217, ,0.0008707527695513991, ,0.2143212827254786,-0.2354661253351053,0.10398449493,1.622371092739765,0.2455357900784965,-1.3149694183808627, ,0.2427031753413575,0.06631512338118153,0.03555538285714287,0.05773149928015032,0.16260558842550232,0.0022975557465796936, ,1.3115110397338867
0.01794103750429337,0.022790328046681824,-0.09281003178018302, ,0.01911990793115726,0.022408565627596893,-0.09355616660749652, ,0.0014464422589547023, ,0.02872167110874341,0.0021401775570354256,-0.030821374496961762,-0.05502078952984753,-0.07134478199800862,-0.03007343749198544, ,0.04218378689895478, ,0.09009626732030217, ,0.0008760343245000532, ,0.2143212827254786,-0.2354661253351053,0.10398449493,1.622371092739765,0.2455357900784965,-1.3149694183808627, ,0.2427031753413575,0.06631512338118153,0.03555538285714287,0.05773149928015032,0.16260558842550232,0.0022975557465796936, ,1.3143949508666992
0.01794103750429337,0.022790328046681824,-0.09281003178018302, ,0.019196544332829007,0.022408654900708314,-0.09366470883025022, ,0.001566028303310159, ,0.02872167110874341,0.0021401775570354256,-0.030821374496961762,-0.05502078952984753,-0.07134478199800862,-0.03007343749198544, ,0.04218378689895478, ,0.09009626732030217, ,0.0008823069970346905, ,0.2143212827254786,-0.2354661253351053,0.10398449493,1.622371092739765,0.2455357900784965,-1.3149694183808627, ,0.2427031753413575,0.06631512338118153,0.03555538285714287,0.05773149928015032,0.16260558842550232,0.0022975557465796936, ,1.3171980381011963
0.018222000309325893,0.022800832369747368,-0.0930942573026817, ,0.01927280099003323,0.022408374383521112,-0.09377298981965564, ,0.0013110618487033872, ,0.029276137012392504,4.199720265092848e-05,-0.02837719063528197,-0.034430012211840784,-0.08628410764799149,0.021987892687623686, ,0.040772035888394675, ,0.09289970168026357, ,0.0008861696533560301, ,0.21673077538223665,-0.23476335664355086,0.10431375259000002,1.6225807826832495,0.24717542807568177,-1.3151629308632518, ,0.25305851082258873,0.08014944388384355,0.03291076760330579,0.0,0.1713433904847598,-0.04377146249819485, ,1.3200109004974365
0.018222000309325893,0.022800832369747368,-0.0930942573026817, ,0.01934868074669167,0.022407728705651688,-0.09388101321095187, ,0.0014293089791455884, ,0.029276137012392504,4.199720265092848e-05,-0.02837719063528197,-0.034430012211840784,-0.08628410764799149,0.021987892687623686, ,0.040772035888394675, ,0.09289970168026357, ,0.0008910191116220084, ,0.21673077538223665,-0.23476335664355086,0.10431375259000002,1.6225807826832495,0.24717542807568177,-1.3151629308632518, ,0.25305851082258873,0.08014944388384355,0.03291076760330579,0.0,0.1713433904847598,-0.04377146249819485, ,1.3227880001068115
0.018222000309325893,0.022800832369747368,-0.0930942573026817, ,0.01942418643630487,0.022406722477747644,-0.09398878261792602, ,0.0015494352617924068, ,0.029276137012392504,4.199720265092848e-05,-0.02837719063528197,-0.034430012211840784,-0.08628410764799149,0.021987892687623686, ,0.040772035888394675, ,0.09289970168026357, ,0.0008968458032164367, ,0.21673077538223665,-0.23476335664355086,0.10431375259000002,1.6225807826832495,0.24717542807568177,-1.3151629308632518, ,0.25305851082258873,0.08014944388384355,0.03291076760330579,0.0,0.1713433904847598,-0.04377146249819485, ,1.3255479335784912
0.018222000309325893,0.022800832369747368,-0.0930942573026817, ,0.019499320881967635,0.022405360291516827,-0.09409630163295694, ,0.001670939511110613, ,0.029276137012392504,4.199720265092848e-05,-0.02837719063528197,-0.034430012211840784,-0.08628410764799149,0.021987892687623686, ,0.040772035888394675, ,0.09289970168026357, ,0.0009036360988997189, ,0.21673077538223665,-0.23476335664355086,0.10431375259000002,1.6225807826832495,0.24717542807568177,-1.3151629308632518, ,0.25305851082258873,0.08014944388384355,0.03291076760330579,0.0,0.1713433904847598,-0.04377146249819485, ,1.3282980918884277
0.01854225347040267,0.022797363879709688,-0.09341881758815739, ,0.019574086896385158,0.022403646719758315,-0.09420357382705824, ,0.0013548194623302214, ,0.02903176387535923,-0.0001957275419221321,-0.03095707608394108,0.03465980356988732,-0.05087952558115659,0.023808125135232235, ,0.04244080798773978, ,0.06156297324994386, ,0.0009075594324947667, ,0.21947234555258635,-0.23382118323289547,0.10468708411000001,1.622371092739765,0.2492249755721634,-1.3161807694975738, ,0.2452117352932061,0.0880305580319766,0.03539735893333334,0.0,0.19897256863626286,-0.12066855407846352, ,1.3310050964355469
0.01854225347040267,0.022797363879709688,-0.09341881758815739, ,0.01964848728188847,0.022401586316391015,-0.0943106027499207, ,0.0014750165761923128, ,0.02903176387535923,-0.0001957275419221321,-0.03095707608394108,0.03465980356988732,-0.05087952558115659,0.023808125135232235, ,0.04244080798773978, ,0.06156297324994386, ,0.0009124513044231939, ,0.21947234555258635,-0.23382118323289547,0.10468708411000001,1.622371092739765,0.2492249755721634,-1.3161807694975738, ,0.2452117352932061,0.0880305580319766,0.03539735893333334,0.0,0.19897256863626286,-0.12066855407846352, ,1.3337409496307373
0.01854225347040267,0.022797363879709688,-0.09341881758815739, ,0.019722524830450703,0.022399183616485397,-0.0944173919299564, ,0.0015964769717945664, ,0.02903176387535923,-0.0001957275419221321,-0.03095707608394108,0.03465980356988732,-0.05087952558115659,0.023808125135232235, ,0.04244080798773978, ,0.06156297324994386, ,0.0009182976776485901, ,0.21947234555258635,-0.23382118323289547,0.10468708411000001,1.622371092739765,0.2492249755721634,-1.3161807694975738, ,0.2452117352932061,0.0880305580319766,0.03539735893333334,0.0,0.19897256863626286,-0.12066855407846352, ,1.3364980220794678
0.018776290078541702,0.022795471848747445,-0.0936682804721277, ,0.01979620232370243,0.022396443136292084,-0.09452394487434154, ,0.0013898224600316909, ,0.029454280622642007,-0.00028121188265545503,-0.0317914571103262,0.03545259383655718,-0.060239103996559205,0.02066918687934408, ,0.04333971010883669, ,0.06989709282096956, ,0.0009222936503806503, ,0.22143391970263937,-0.23311069180846683,0.10497226791000001,1.622371092739765,0.2507279770695832,-1.317079651477672, ,0.2452117352932061,0.09055051675426601,0.03628430870159454,-6.684760109695268e-05,0.18927084459636773,-0.12395518173346948, ,1.3402750492095947
0.018776290078541702,0.022795471848747445,-0.0936682804721277, ,0.01986952253294775,0.022393369373271892,-0.09463026506905908, ,0.0015107143889178602, ,0.029454280622642007,-0.00028121188265545503,-0.0317914571103262,0.03545259383655718,-0.060239103996559205,0.02066918687934408, ,0.04333971010883669, ,0.06989709282096956, ,0.0009272383624691984, ,0.22143391970263937,-0.23311069180846683,0.10497226791000001,1.622371092739765,0.2507279770695832,-1.317079651477672, ,0.2452117352932061,0.09055051675426601,0.03628430870159454,-6.684760109695268e-05,0.18927084459636773,-0.12395518173346948, ,1.3449609279632568
0.018776290078541702,0.022795471848747445,-0.0936682804721277, ,0.019942488219180016,0.02238996680612649,-0.09473635597894234, ,0.0016325555828444617, ,0.029454280622642007,-0.00028121188265545503,-0.0317914571103262,0.03545259383655718,-0.060239103996559205,0.02066918687934408, ,0.04333971010883669, ,0.06989709282096956, ,0.0009331160059723256, ,0.22143391970263937,-0.23311069180846683,0.10497226791000001,1.622371092739765,0.2507279770695832,-1.317079651477672, ,0.2452117352932061,0.09055051675426601,0.03628430870159454,-6.684760109695268e-05,0.18927084459636773,-0.12395518173346948, ,1.3480210304260254
0.019073844709441345,0.02279557012029447,-0.09400093790997889, ,0.020015102133097592,0.022386239894828137,-0.0948422210477181, ,0.0013271300195959095, ,0.030523783192189125,0.0005274832976555228,-0.03555496412523656,0.026538648537814614,-0.06031300084425559,0.01115919881706979, ,0.04686293901304027, ,0.06589310371392097, ,0.0009363723201345039, ,0.2238743032908943,-0.2321916865964341,0.10535078459000001,1.622790472626734,0.2526408880662994,-1.3182311084287193, ,0.2452117352932061,0.09133488119198342,0.04032610511392406,0.009266231305583052,0.18706029688410375,-0.11372590622900611, ,1.3509430885314941
0.019073844709441345,0.02279557012029447,-0.09400093790997889, ,0.0200873670151196,0.022382193080648743,-0.09494786369804951, ,0.0014473342700035811, ,0.030523783192189125,0.0005274832976555228,-0.03555496412523656,0.026538648537814614,-0.06031300084425559,0.01115919881706979, ,0.04686293901304027, ,0.06589310371392097, ,0.0009405605328383489, ,0.2238743032908943,-0.2321916865964341,0.10535078459000001,1.622790472626734,0.2526408880662994,-1.3182311084287193, ,0.2452117352932061,0.09133488119198342,0.04032610511392406,0.009266231305583052,0.18706029688410375,-0.11372590622900611, ,1.3546040058135986
0.019073844709441345,0.02279557012029447,-0.09400093790997889, ,0.020159285595401755,0.02237783078619111,-0.0950532873315793, ,0.0015684793187397674, ,0.030523783192189125,0.0005274832976555228,-0.03555496412523656,0.026538648537814614,-0.06031300084425559,0.01115919881706979, ,0.04686293901304027, ,0.06589310371392097, ,0.0009456655636180351, ,0.2238743032908943,-0.2321916865964341,0.10535078459000001,1.622790472626734,0.2526408880662994,-1.3182311084287193, ,0.2452117352932061,0.09133488119198342,0.04032610511392406,0.009266231305583052,0.18706029688410375,-0.11372590622900611, ,1.3573689460754395
0.019441689262189112,0.02279937680386193,-0.09445324752630925, ,0.020230860593852228,0.022373157415418263,-0.09515849532897293, ,0.0011409771342871752, ,0.02919217394024446,-0.00027004130243045844,-0.03700065072189931,-0.05121195493631052,-0.06376711170704012,-0.025585339697444632, ,0.04713071286864324, ,0.08178532578526439, ,0.0009472406569298831, ,0.2267394371872316,-0.23101010846667777,0.10585893027000001,1.6232098525137029,0.254690435562781,-1.3189222321024787, ,0.22276277361143376,0.10160272115467964,0.04126635108808291,0.039588523293121944,0.15389868865552334,-0.039203935377264035, ,1.3601078987121582
0.019441689262189112,0.02279937680386193,-0.09445324752630925, ,0.02030209472014729,0.022368177353683398,-0.09526349104996157, ,0.0012580640228299247, ,0.02919217394024446,-0.00027004130243045844,-0.03700065072189931,-0.05121195493631052,-0.06376711170704012,-0.025585339697444632, ,0.04713071286864324, ,0.08178532578526439, ,0.0009497272438570834, ,0.2267394371872316,-0.23101010846667777,0.10585893027000001,1.6232098525137029,0.254690435562781,-1.3189222321024787, ,0.22276277361143376,0.10160272115467964,0.04126635108808291,0.039588523293121944,0.15389868865552334,-0.039203935377264035, ,1.362860918045044
0.019441689262189112,0.02279937680386193,-0.09445324752630925, ,0.020372990673747062,0.022362894967759405,-0.09536827783338517, ,0.0013766332755257337, ,0.02919217394024446,-0.00027004130243045844,-0.03700065072189931,-0.05121195493631052,-0.06376711170704012,-0.025585339697444632, ,0.04713071286864324, ,0.08178532578526439, ,0.0009531153869655648, ,0.2267394371872316,-0.23101010846667777,0.10585893027000001,1.6232098525137029,0.254690435562781,-1.3189222321024787, ,0.22276277361143376,0.10160272115467964,0.04126635108808291,0.039588523293121944,0.15389868865552334,-0.039203935377264035, ,1.365696907043457
0.019441689262189112,0.02279937680386193,-0.09445324752630925, ,0.02044355114391139,0.022357314605869868,-0.09547285899723612, ,0.0014962465600920642, ,0.02919217394024446,-0.00027004130243045844,-0.03700065072189931,-0.05121195493631052,-0.06376711170704012,-0.025585339697444632, ,0.04713071286864324, ,0.08178532578526439, ,0.0009573920103760096, ,0.2267394371872316,-0.23101010846667777,0.10585893027000001,1.6232098525137029,0.254690435562781,-1.3189222321024787, ,0.22276277361143376,0.10160272115467964,0.04126635108808291,0.039588523293121944,0.15389868865552334,-0.039203935377264035, ,1.3685169219970703
0.019683561931309514,0.022792468918859936,-0.09475405776537339, ,0.0205137788097156,0.02235144059771807,-0.09557723783870138, ,0.0012495565126731292, ,0.028832835479519356,-0.0010418125734403749,-0.035339427038453684,-0.046083966609600555,-0.04424943067358485,-0.022040627201061844, ,0.04562118892174337, ,0.0638880972865424, ,0.0009596745455502058, ,0.22860061580991972,-0.23014516238476462,0.10619466938000001,1.6232098525137029,0.2560568005604354,-1.3193829812183182, ,0.22328692131404887,0.10474276110206487,0.039525586898263035,0.039588523293121944,0.17444026070087815,-0.0473300522307037, ,1.3713741302490234
0.019683561931309514,0.022792468918859936,-0.09475405776537339, ,0.020583676340066227,0.022345277254517563,-0.09568141763420625, ,0.001367546218535388, ,0.028832835479519356,-0.0010418125734403749,-0.035339427038453684,-0.046083966609600555,-0.04424943067358485,-0.022040627201061844, ,0.04562118892174337, ,0.0638880972865424, ,0.0009628363414648195, ,0.22860061580991972,-0.23014516238476462,0.10619466938000001,1.6232098525137029,0.2560568005604354,-1.3193829812183182, ,0.22328692131404887,0.10474276110206487,0.039525586898263035,0.039588523293121944,0.17444026070087815,-0.0473300522307037, ,1.3742849826812744
0.019683561931309514,0.022792468918859936,-0.09475405776537339, ,0.020653246393716733,0.022338828869021443,-0.09578540163945742, ,0.0014865219265325705, ,0.028832835479519356,-0.0010418125734403749,-0.035339427038453684,-0.046083966609600555,-0.04424943067358485,-0.022040627201061844, ,0.04562118892174337, ,0.0638880972865424, ,0.0009668646921191869, ,0.22860061580991972,-0.23014516238476462,0.10619466938000001,1.6232098525137029,0.2560568005604354,-1.3193829812183182, ,0.22328692131404887,0.10474276110206487,0.039525586898263035,0.039588523293121944,0.17444026070087815,-0.0473300522307037, ,1.3770170211791992
0.020028019168716868,0.02277510982766472,-0.0951859174911292, ,0.02072249161928347,0.022332099715553253,-0.09588919308948614, ,0.0010831188814129796, ,0.027827348143720787,-0.0016980639599217607,-0.035502653759733854,0.00407442727554247,-0.021494869163899567,-0.01225073178203737, ,0.045140703914619794, ,0.021876333210859866, ,0.0009677521286786816, ,0.2312417904529045,-0.22884002052902067,0.10667559297000001,1.6232098525137029,0.2582429845566825,-1.320267201535915, ,0.21182353026444373,0.10996169357876104,0.03942775128712872,0.028913725174662706,0.18802067705795847,-0.10488679716384476, ,1.380059003829956
0.020028019168716868,0.02277510982766472,-0.0951859174911292, ,0.020791414655261076,0.022325094050035556,-0.09599279519869065, ,0.001198473405608515, ,0.027827348143720787,-0.0016980639599217607,-0.035502653759733854,0.00407442727554247,-0.021494869163899567,-0.01225073178203737, ,0.045140703914619794, ,0.021876333210859866, ,0.0009695000171402714, ,0.2312417904529045,-0.22884002052902067,0.10667559297000001,1.6232098525137029,0.2582429845566825,-1.320267201535915, ,0.21182353026444373,0.10996169357876104,0.03942775128712872,0.028913725174662706,0.18802067705795847,-0.10488679716384476, ,1.382828950881958
0.020028019168716868,0.02277510982766472,-0.0951859174911292, ,0.020860018130038637,0.022317816110021427,-0.09609621116088009, ,0.001315284904887554, ,0.027827348143720787,-0.0016980639599217607,-0.035502653759733854,0.00407442727554247,-0.021494869163899567,-0.01225073178203737, ,0.045140703914619794, ,0.021876333210859866, ,0.000972099903514311, ,0.2312417904529045,-0.22884002052902067,0.10667559297000001,1.6232098525137029,0.2582429845566825,-1.320267201535915, ,0.21182353026444373,0.10996169357876104,0.03942775128712872,0.028913725174662706,0.18802067705795847,-0.10488679716384476, ,1.3864710330963135
0.020028019168716868,0.02277510982766472,-0.0951859174911292, ,0.020928304661915167,0.022310270114723283,-0.0961994441493172, ,0.001433117655619568, ,0.027827348143720787,-0.0016980639599217607,-0.035502653759733854,0.00407442727554247,-0.021494869163899567,-0.01225073178203737, ,0.045140703914619794, ,0.021876333210859866, ,0.0009755403345001712, ,0.2312417904529045,-0.22884002052902067,0.10667559297000001,1.6232098525137029,0.2582429845566825,-1.320267201535915, ,0.21182353026444373,0.10996169357876104,0.03942775128712872,0.028913725174662706,0.18802067705795847,-0.10488679716384476, ,1.390315055847168
0.020168762619190688,0.022765680105868928,-0.09536718017065564, ,0.020996276859115412,0.022302460265043154,-0.09630249731676147, ,0.0013319799555595413, ,0.027424050137919063,-0.0017646084422048567,-0.035671388684299164,0.021348059148620844,-0.014270059513956905,-0.009613527730236071, ,0.04502932754980631, ,0.02567715855676268, ,0.0009781806279894997, ,0.23230752758954748,-0.2282762610292023,0.10687651792000001,1.6232098525137029,0.25919944005504053,-1.320883769381509, ,0.20674714936486008,0.11034528088194276,0.039525586898263035,0.02588359748349064,0.1907546201162151,-0.12319158880634778, ,1.3933100700378418
0.020168762619190688,0.022765680105868928,-0.09536718017065564, ,0.021063937319805666,0.022294390743602854,-0.09640537379551205, ,0.0014495852545810368, ,0.027424050137919063,-0.0017646084422048567,-0.035671388684299164,0.021348059148620844,-0.014270059513956905,-0.009613527730236071, ,0.04502932754980631, ,0.02567715855676268, ,0.0009816468384791434, ,0.23230752758954748,-0.2282762610292023,0.10687651792000001,1.6232098525137029,0.25919944005504053,-1.320883769381509, ,0.20674714936486008,0.11034528088194276,0.039525586898263035,0.02588359748349064,0.1907546201162151,-0.12319158880634778, ,1.3970351219177246
0.020168762619190688,0.022765680105868928,-0.09536718017065564, ,0.021131288632109637,0.02228606571477372,-0.09650807669745157, ,0.001567842841150314, ,0.027424050137919063,-0.0017646084422048567,-0.035671388684299164,0.021348059148620844,-0.014270059513956905,-0.009613527730236071, ,0.04502932754980631, ,0.02567715855676268, ,0.000985925641418349, ,0.23230752758954748,-0.2282762610292023,0.10687651792000001,1.6232098525137029,0.25919944005504053,-1.320883769381509, ,0.20674714936486008,0.11034528088194276,0.039525586898263035,0.02588359748349064,0.1907546201162151,-0.12319158880634778, ,1.3999218940734863
0.020168762619190688,0.022765680105868928,-0.09536718017065564, ,0.02119833337412373,0.022277489324706135,-0.09661060911408768, ,0.0016865532056802306, ,0.027424050137919063,-0.0017646084422048567,-0.035671388684299164,0.021348059148620844,-0.014270059513956905,-0.009613527730236071, ,0.04502932754980631, ,0.02567715855676268, ,0.0009910026527535799, ,0.23230752758954748,-0.2282762610292023,0.10687651792000001,1.6232098525137029,0.25919944005504053,-1.320883769381509, ,0.20674714936486008,0.11034528088194276,0.039525586898263035,0.02588359748349064,0.1907546201162151,-0.12319158880634778, ,1.4030089378356934
0.020168762619190688,0.022765680105868928,-0.09536718017065564, ,0.021265074113933295,0.02226866570136029,-0.09671297411659795, ,0.0018055701472744878, ,0.027424050137919063,-0.0017646084422048567,-0.035671388684299164,0.021348059148620844,-0.014270059513956905,-0.009613527730236071, ,0.04502932754980631, ,0.02567715855676268, ,0.0009968628505558886, ,0.23230752758954748,-0.2282762610292023,0.10687651792000001,1.6232098525137029,0.25919944005504053,-1.320883769381509, ,0.20674714936486008,0.11034528088194276,0.039525586898263035,0.02588359748349064,0.1907546201162151,-0.12319158880634778, ,1.4059031009674072
0.020168762619190688,0.022765680105868928,-0.09536718017065564, ,0.021331513409628362,0.022259598954536018,-0.09681517475587195, ,0.0019247846246304144, ,0.027424050137919063,-0.0017646084422048567,-0.035671388684299164,0.021348059148620844,-0.014270059513956905,-0.009613527730236071, ,0.04502932754980631, ,0.02567715855676268, ,0.0010034908632278496, ,0.23230752758954748,-0.2282762610292023,0.10687651792000001,1.6232098525137029,0.25919944005504053,-1.320883769381509, ,0.20674714936486008,0.11034528088194276,0.039525586898263035,0.02588359748349064,0.1907546201162151,-0.12319158880634778, ,1.4087040424346924
0.020168762619190688,0.022765680105868928,-0.09536718017065564, ,0.021397653809318795,0.02225029317590163,-0.09691721406255425, ,0.0020441140650144657, ,0.027424050137919063,-0.0017646084422048567,-0.035671388684299164,0.021348059148620844,-0.014270059513956905,-0.009613527730236071, ,0.04502932754980631, ,0.02567715855676268, ,0.001010871169623499, ,0.23230752758954748,-0.2282762610292023,0.10687651792000001,1.6232098525137029,0.25919944005504053,-1.320883769381509, ,0.20674714936486008,0.11034528088194276,0.039525586898263035,0.02588359748349064,0.1907546201162151,-0.12319158880634778, ,1.4115021228790283
0.020168762619190688,0.022765680105868928,-0.09536718017065564, ,0.021463497851150898,0.022240752439025513,-0.09701909504708818, ,0.0021634951202338937, ,0.027424050137919063,-0.0017646084422048567,-0.035671388684299164,0.021348059148620844,-0.014270059513956905,-0.009613527730236071, ,0.04502932754980631, ,0.02567715855676268, ,0.0010189882396982202, ,0.2377288860672531,-0.2250636041535249,0.10792132766000001,1.6234195424571878,0.2631618985482383,-1.3231347437070182, ,0.15975916087284645,0.11586928151217434,0.0325077786122449,0.0,0.07932065329746694,-0.03286213767973476, ,1.4143800735473633
0.02090639223942007,0.022685850323301462,-0.09631570570464423, ,0.021529048063322332,0.02223098079940444,-0.09712082069975807, ,0.0011148168971480737, ,0.022747377825893676,-0.0041679709463699425,-0.02998941152844018,-0.0798728632186694,-0.08226521235724826,-0.010122431086080545, ,0.03787056883103136, ,0.11466130640187418, ,0.0010196583701698974, ,0.2377288860672531,-0.2250636041535249,0.10792132766000001,1.6234195424571878,0.2631618985482383,-1.3231347437070182, ,0.15975916087284645,0.11586928151217434,0.0325077786122449,0.0,0.07932065329746694,-0.03286213767973476, ,1.4171249866485596
0.02090639223942007,0.022685850323301462,-0.09631570570464423, ,0.02159430696409832,0.022220982294494745,-0.09722239399073271, ,0.001229395217481283, ,0.022747377825893676,-0.0041679709463699425,-0.02998941152844018,-0.0798728632186694,-0.08226521235724826,-0.010122431086080545, ,0.03787056883103136, ,0.11466130640187418, ,0.0010211148760540043, ,0.2377288860672531,-0.2250636041535249,0.10792132766000001,1.6234195424571878,0.2631618985482383,-1.3231347437070182, ,0.15975916087284645,0.11586928151217434,0.0325077786122449,0.0,0.07932065329746694,-0.03286213767973476, ,1.4199631214141846
0.02090639223942007,0.022685850323301462,-0.09631570570464423, ,0.02165927706182757,0.02221076094374213,-0.09732381787010906, ,0.0013449295938969545, ,0.022747377825893676,-0.0041679709463699425,-0.02998941152844018,-0.0798728632186694,-0.08226521235724826,-0.010122431086080545, ,0.03787056883103136, ,0.11466130640187418, ,0.0010233480810046454, ,0.2377288860672531,-0.2250636041535249,0.10792132766000001,1.6234195424571878,0.2631618985482383,-1.3231347437070182, ,0.15975916087284645,0.11586928151217434,0.0325077786122449,0.0,0.07932065329746694,-0.03286213767973476, ,1.4227519035339355
0.02112788120182518,0.02264451364373772,-0.09662242773887333, ,0.021723960854957272,0.022200320748610305,-0.09742509526795394, ,0.001094026253432758, ,0.020691814719347317,-0.003655786194862792,-0.030849760332821836,-0.002110777361013071,0.02425551691807058,0.009676163613247078, ,0.037325911665690034, ,0.024346612494043407, ,0.0010238321780760707, ,0.23929660084072066,-0.223897471489517,0.10825317790000001,1.6234195424571878,0.2645282635458927,-1.3238405290432795, ,0.14465997188791277,0.11151226975143451,0.03325430379958247,0.0,0.1725446120549846,-0.10652712851722211, ,1.4255330562591553
0.02112788120182518,0.02264451364373772,-0.09662242773887333, ,0.02178836083204975,0.022189665692613,-0.0975262290943486, ,0.0012082950346429802, ,0.020691814719347317,-0.003655786194862792,-0.030849760332821836,-0.002110777361013071,0.02425551691807058,0.009676163613247078, ,0.037325911665690034, ,0.024346612494043407, ,0.0010250870274404714, ,0.23929660084072066,-0.223897471489517,0.10825317790000001,1.6234195424571878,0.2645282635458927,-1.3238405290432795, ,0.14465997188791277,0.11151226975143451,0.03325430379958247,0.0,0.1725446120549846,-0.10652712851722211, ,1.4283270835876465
0.02112788120182518,0.02264451364373772,-0.09662242773887333, ,0.02185247947179736,0.022178799741341994,-0.09762722223943081, ,0.0013234591342696895, ,0.020691814719347317,-0.003655786194862792,-0.030849760332821836,-0.002110777361013071,0.02425551691807058,0.009676163613247078, ,0.037325911665690034, ,0.024346612494043407, ,0.0010271030551893174, ,0.23929660084072066,-0.223897471489517,0.10825317790000001,1.6234195424571878,0.2645282635458927,-1.3238405290432795, ,0.14465997188791277,0.11151226975143451,0.03325430379958247,0.0,0.1725446120549846,-0.10652712851722211, ,1.4310970306396484
0.02112788120182518,0.02264451364373772,-0.09662242773887333, ,0.021916319243038742,0.02216772684249801,-0.09772807757343757, ,0.0014392434663186766, ,0.020691814719347317,-0.003655786194862792,-0.030849760332821836,-0.002110777361013071,0.02425551691807058,0.009676163613247078, ,0.037325911665690034, ,0.024346612494043407, ,0.0010298690982170312, ,0.23929660084072066,-0.223897471489517,0.10825317790000001,1.6234195424571878,0.2645282635458927,-1.3238405290432795, ,0.14465997188791277,0.11151226975143451,0.03325430379958247,0.0,0.1725446120549846,-0.10652712851722211, ,1.4339349269866943
0.021333555867581195,0.022609128779997063,-0.09694801706952319, ,0.021979882604774695,0.022156450925921226,-0.09782879794675042, ,0.0011825525123524425, ,0.020550831836825444,-0.0034130227136361137,-0.03405094914898182,0.04590886665010431,0.07151810583895925,0.012849149349143042, ,0.03991807298925914, ,0.08498480877791005, ,0.0010308869876446006, ,0.24072530642245218,-0.22275450702413177,0.10860317620000001,1.623629232400672,0.26671444754213974,-1.3256232155024223, ,0.1381323749031598,0.11544640092271385,0.03645036961098399,0.0032769281758435495,0.21313616383127337,-0.15762476691659486, ,1.4367060661315918
0.021333555867581195,0.022609128779997063,-0.09694801706952319, ,0.02204317200618301,0.022144975903619156,-0.09792938618993502, ,0.0012969496163351606, ,0.020550831836825444,-0.0034130227136361137,-0.03405094914898182,0.04590886665010431,0.07151810583895925,0.012849149349143042, ,0.03991807298925914, ,0.08498480877791005, ,0.0010326489918081143, ,0.24072530642245218,-0.22275450702413177,0.10860317620000001,1.623629232400672,0.26671444754213974,-1.3256232155024223, ,0.1381323749031598,0.11544640092271385,0.03645036961098399,0.0032769281758435495,0.21313616383127337,-0.15762476691659486, ,1.4395370483398438
0.021333555867581195,0.022609128779997063,-0.09694801706952319, ,0.022106189886635486,0.022133305669799434,-0.09802984511378776, ,0.0014119925201485444, ,0.020550831836825444,-0.0034130227136361137,-0.03405094914898182,0.04590886665010431,0.07151810583895925,0.012849149349143042, ,0.03991807298925914, ,0.08498480877791005, ,0.001035144672915617, ,0.24072530642245218,-0.22275450702413177,0.10860317620000001,1.623629232400672,0.26671444754213974,-1.3256232155024223, ,0.1381323749031598,0.11544640092271385,0.03645036961098399,0.0032769281758435495,0.21313616383127337,-0.15762476691659486, ,1.4425230026245117
0.021333555867581195,0.022609128779997063,-0.09694801706952319, ,0.022168938675712558,0.02212144410089693,-0.09813017750937625, ,0.0015274829255687336, ,0.020550831836825444,-0.0034130227136361137,-0.03405094914898182,0.04590886665010431,0.07151810583895925,0.012849149349143042, ,0.03991807298925914, ,0.08498480877791005, ,0.0010383625699917813, ,0.24072530642245218,-0.22275450702413177,0.10860317620000001,1.623629232400672,0.26671444754213974,-1.3256232155024223, ,0.1381323749031598,0.11544640092271385,0.03645036961098399,0.0032769281758435495,0.21313616383127337,-0.15762476691659486, ,1.4454090595245361
0.0215624475421881,0.02257844155918827,-0.09733266138852684, ,0.0222314207932197,0.02210939505560598,-0.09823038614808356, ,0.0012138531941877251, ,0.0216490959155074,-0.002480956538646579,-0.03760951833119542,-0.0008338578235923988,0.03455199910732752,0.005448747528927437, ,0.04346624401084152, ,0.03456097096784745, ,0.0010395021194995473, ,0.2422157938671775,-0.22153431523000428,0.10901539642000001,1.623629232400672,0.26876399503862136,-1.3268860903571658, ,0.13556705936924396,0.11351308798860141,0.04022427151515152,0.0030987715068457595,0.17295516263164332,-0.1089342161621703, ,1.4494941234588623
0.0215624475421881,0.02257844155918827,-0.09733266138852684, ,0.02229363864920265,0.022097162374908528,-0.0983304737816512, ,0.001327365684380426, ,0.0216490959155074,-0.002480956538646579,-0.03760951833119542,-0.0008338578235923988,0.03455199910732752,0.005448747528927437, ,0.04346624401084152, ,0.03456097096784745, ,0.0010413593037891012, ,0.2422157938671775,-0.22153431523000428,0.10901539642000001,1.623629232400672,0.26876399503862136,-1.3268860903571658, ,0.13556705936924396,0.11351308798860141,0.04022427151515152,0.0030987715068457595,0.17295516263164332,-0.1089342161621703, ,1.4524860382080078
0.0215624475421881,0.02257844155918827,-0.09733266138852684, ,0.022355594643963667,0.02208474988210547,-0.09843044314222213, ,0.0014415056627783756, ,0.0216490959155074,-0.002480956538646579,-0.03760951833119542,-0.0008338578235923988,0.03455199910732752,0.005448747528927437, ,0.04346624401084152, ,0.03456097096784745, ,0.001043924344551853, ,0.2422157938671775,-0.22153431523000428,0.10901539642000001,1.623629232400672,0.26876399503862136,-1.3268860903571658, ,0.13556705936924396,0.11351308798860141,0.04022427151515152,0.0030987715068457595,0.17295516263164332,-0.1089342161621703, ,1.4553251266479492
0.021810806675461532,0.022548772071709487,-0.09777861675386829, ,0.022417291168076916,0.022072161382845824,-0.09853029694238348, ,0.0010770349550169075, ,0.0204723976882129,-0.0027358941218653095,-0.03748383549095305,-0.043964748226398946,0.0018030461670731537,-0.00481142764030595, ,0.04279768810185001, ,0.044000864355923874, ,0.0010441352401599107, ,0.24369855857902864,-0.22019828244276343,0.10948983856000001,1.623629232400672,0.2704036330358066,-1.3278963902409608, ,0.11876963899683453,0.11392189862961677,0.03972272199501248,0.0028791882588603147,0.12249419078804252,-0.06611791037579105, ,1.458117961883545
0.021810806675461532,0.022548772071709487,-0.09777861675386829, ,0.02247873060240413,0.02205940066515673,-0.09863003787521016, ,0.0011876551147538127, ,0.0204723976882129,-0.0027358941218653095,-0.03748383549095305,-0.043964748226398946,0.0018030461670731537,-0.00481142764030595, ,0.04279768810185001, ,0.044000864355923874, ,0.001045043593796581, ,0.24369855857902864,-0.22019828244276343,0.10948983856000001,1.623629232400672,0.2704036330358066,-1.3278963902409608, ,0.11876963899683453,0.11392189862961677,0.03972272199501248,0.0028791882588603147,0.12249419078804252,-0.06611791037579105, ,1.4609010219573975
0.021810806675461532,0.022548772071709487,-0.09777861675386829, ,0.022539915318110768,0.022046471499473568,-0.09872966861430756, ,0.0012993863624416481, ,0.0204723976882129,-0.0027358941218653095,-0.03748383549095305,-0.043964748226398946,0.0018030461670731537,-0.00481142764030595, ,0.04279768810185001, ,0.044000864355923874, ,0.0010466432338509524, ,0.24369855857902864,-0.22019828244276343,0.10948983856000001,1.623629232400672,0.2704036330358066,-1.3278963902409608, ,0.11876963899683453,0.11392189862961677,0.03972272199501248,0.0028791882588603147,0.12249419078804252,-0.06611791037579105, ,1.463690996170044
0.021810806675461532,0.022548772071709487,-0.09777861675386829, ,0.02260084767668101,0.02203337763866956,-0.09882919181385469, ,0.0014119150689336293, ,0.0204723976882129,-0.0027358941218653095,-0.03748383549095305,-0.043964748226398946,0.0018030461670731537,-0.00481142764030595, ,0.04279768810185001, ,0.044000864355923874, ,0.001048926182820219, ,0.2447642957156716,-0.21914799077186892,0.10983854057000002,1.623629232400672,0.2713600885341647,-1.3282679218661329, ,0.10686592517845808,0.11125081073677699,0.03403592205128206,0.0027093735340136507,0.0816730224147382,-0.0061592762831396905, ,1.4665849208831787
0.02199450730309023,0.02251930491928872,-0.09810818736690378, ,0.022661530029934318,0.022020122818086466,-0.0989286101086473, ,0.0011692713814410944, ,0.018399386823499134,-0.003782745642947923,-0.03228695760490102,-0.10125028640707993,-0.026615503389562516,-0.011471074487494156, ,0.037353637459565714, ,0.10468987740967839, ,0.001049673668525939, ,0.2447642957156716,-0.21914799077186892,0.10983854057000002,1.623629232400672,0.2713600885341647,-1.3282679218661329, ,0.10686592517845808,0.11125081073677699,0.03403592205128206,0.0027093735340136507,0.0816730224147382,-0.0061592762831396905, ,1.4693880081176758
0.02199450730309023,0.02251930491928872,-0.09810818736690378, ,0.022721964720040743,0.022006710755563867,-0.0990279261141414, ,0.001279791558548236, ,0.018399386823499134,-0.003782745642947923,-0.03228695760490102,-0.10125028640707993,-0.026615503389562516,-0.011471074487494156, ,0.037353637459565714, ,0.10468987740967839, ,0.0010510941493285457, ,0.2447642957156716,-0.21914799077186892,0.10983854057000002,1.623629232400672,0.2713600885341647,-1.3282679218661329, ,0.10686592517845808,0.11125081073677699,0.03403592205128206,0.0027093735340136507,0.0816730224147382,-0.0061592762831396905, ,1.4722490310668945
0.02199450730309023,0.02251930491928872,-0.09810818736690378, ,0.022782154079536286,0.021993145151468715,-0.09912714242649504, ,0.00139122282873193, ,0.018399386823499134,-0.003782745642947923,-0.03228695760490102,-0.10125028640707993,-0.026615503389562516,-0.011471074487494156, ,0.037353637459565714, ,0.10468987740967839, ,0.0010531808283432904, ,0.2447642957156716,-0.21914799077186892,0.10983854057000002,1.623629232400672,0.2713600885341647,-1.3282679218661329, ,0.10686592517845808,0.11125081073677699,0.03403592205128206,0.0027093735340136507,0.0816730224147382,-0.0061592762831396905, ,1.4750308990478516
