NicholasDascanio/dvrk_moveit_final/test/execution/third_experiment_notsharpbends/thirdexp_400vel5.0/thirdexp_400vel5.0_20.csv
Current Position (x),Current Position (y),Current Position (z), ,Planned Position (x),Planned Position (y),Planned Position (z), ,Position Error,,Cartesian linear Velocity(x),Cartesian linear Velocity(y),Cartesian linear Velocity(z),Cartesian Angular Velocity(x),Cartesian Angular Velocity(y),Cartesian Angular Velocity(z), ,Total Linear Velocity, ,Total Angular Velocity, ,MSE, ,Joint 1 Position,Joint 2 Position,Joint 3 Position,Joint 4 Position,Joint 5 Position,Joint 6 Position, ,Joint 1 Velocity,Joint 2 Velocity,Joint 3 Velocity,Joint 4 Velocity,Joint 5 Velocity,Joint 6 Velocity, ,Time Stamp
0.008858521225154627,0.020494826448021235,-0.07418788139786565, ,0.009052248769482515,0.020426970735920986,-0.07451950869776221, ,0.0003900146473308713, ,0.0003843795387869373,7.748034199556901e-05,-0.002005721784259491,0.20749984901341634,0.0020631916487190427,-0.07827002355986115, ,0.0020436904631296014, ,0.20751010601977307, ,3.250122061090594e-05, ,0.1779858245522523,-0.2603101569914856,0.08501329078000001,1.7075052097944818,0.5119769646211053,-1.2362305763194867, ,0.00031674179122422323,0.005782131291960805,0.0019883674347771817,-0.0007117113058009835,0.0,-0.2271139945757592, ,0.028161048889160156
0.008913769771301983,0.020531447519398935,-0.07441663371951238, ,0.009137774716025168,0.020418184845035915,-0.0748916367166785, ,0.0005372471460893084, ,0.0037027851422789717,0.0025993713659358516,-0.013840551397333879,0.02242375925514545,-0.13306375498410372,-0.05660420740226778, ,0.01456118856035351, ,0.13493993983145045, ,4.21482633372809e-05, ,0.17801671548374917,-0.26003213860801344,0.08524273411000001,1.7070858299075127,0.5104739631236854,-1.242682780952039, ,0.001469402182906229,0.012951677570420468,0.013839106446568205,-0.0008719819556339417,-0.13779710122201388,-0.050576692475064716, ,0.0553438663482666
0.009030571252861035,0.02060190311238915,-0.07489140166638689, ,0.009223352054521584,0.020409513929199048,-0.07526168991867496, ,0.00045966447010835685, ,0.004337377187856005,0.001517375257545692,-0.013211195582297596,0.34756450052845983,-0.1649759263473653,-0.238816649438642, ,0.013987528632880972, ,0.3847312541233429, ,4.334144573526677e-05, ,0.1780939428124914,-0.2594143199780755,0.08571717625000001,1.7058276902466056,0.5071946871293149,-1.2514437748830036, ,0.005988868873864277,0.02660413276099545,0.012845815741935485,0.04901664495300003,-0.1837269737635624,-0.4053503873601291, ,0.08700704574584961
0.009114298506913603,0.02060987343835646,-0.0751760461111372, ,0.009308978976371295,0.020400957267414293,-0.07562967342381338, ,0.0005360262964400274, ,0.0025953858591360496,1.8501018026346886e-05,-0.011505746268322896,-0.13307412219760137,-0.0025299641127610184,0.008869517839756138, ,0.011794853421577463, ,0.13309816871555846, ,4.5784584761156287e-05, ,0.1782097838056048,-0.2586266012249046,0.08598032312000001,1.7058276902466056,0.5043253206342407,-1.2517993973300174, ,0.005884601935837909,0.03908440756114941,0.011345307350427351,0.020436854263865396,0.0,0.09352728777352715, ,0.11633181571960449
0.009165227785232176,0.02059340977048457,-0.07551310072859929, ,0.009394653681832755,0.020392514142589382,-0.07599559234988626, ,0.0005707831987282979, ,0.001945589554571314,-0.0009125216479294502,-0.012770724843429206,-0.07620390440147579,0.02984132315557673,0.06805711024554358, ,0.012950267468256275, ,0.08183849506203514, ,4.795645689801657e-05, ,0.1783101793329697,-0.257298291170538,0.08632383997000001,1.7049889304726675,0.5063748681307223,-1.2497951225791384, ,0.0008335136378534114,0.05031651196101314,0.012434669414519907,-0.059388033174141666,0.04801094464753628,0.021959538294977207, ,0.1441788673400879
0.009236807387482237,0.02057314424204697,-0.07586090629343628, ,0.009480374380008236,0.020384183841529707,-0.07635945181240866, ,0.0005861557363868809, ,0.002814704402069576,-0.0008689907172266646,-0.012291603222452851,0.04783451756559566,0.00715293630344485,-0.03937095544584594, ,0.0126396683309282, ,0.04836636525441513, ,4.9675669275544234e-05, ,0.1784955249219511,-0.25590047652030334,0.08666346795,1.7049889304726675,0.5070580506295495,-1.2509239632786044, ,0.009374369159407382,0.051074780171405154,0.01196755185574756,0.0,0.01619196982826416,-0.10272481595658038, ,0.17259001731872559
0.009315954172644648,0.0205456915319076,-0.07620911333150736, ,0.009566139288828886,0.020375965654931823,-0.07672125692460964, ,0.0005947188626830602, ,0.003176443731537316,-0.000706111072852209,-0.014484485866649518,-0.0455724549779267,-0.03380997168792169,0.05774792937512292, ,0.014845494887271252, ,0.0567447107729126, ,5.103625496898337e-05, ,0.17872720690817784,-0.25448721640432026,0.08700050335000001,1.7039404807552447,0.5071946871293149,-1.25234224102455, ,0.0070434016302769725,0.051047305841027846,0.01407138826855124,-0.0793517623889352,-0.0072875304400729255,-0.020123731686434436, ,0.20290088653564453
0.00941759045684209,0.020527314957620873,-0.0766685388972527, ,0.009651946635039637,0.020367858877375866,-0.07708101279742516, ,0.0005004835442948587, ,0.0028056394691280957,-0.0008511534044733882,-0.012365656044952242,-0.0017437875436460935,-0.007902766557136072,-0.01970932354254639, ,0.012708482378739798, ,0.008092850247524251, ,5.154436916125507e-05, ,0.17896661162727878,-0.2527959379048651,0.08744901969,1.7037307908117605,0.5071946871293149,-1.2536491008667987, ,0.007369607130820346,0.04958042923640061,0.011994586987951809,-0.006475483535330683,0.0006363033051516166,-0.05109829330011955, ,0.2288649082183838
0.009453334888999368,0.020513467840786975,-0.07683266462161924, ,0.009737794654184104,0.02035986280732011,-0.07743872453948925, ,0.0006868919044244976, ,0.0026007647007533466,-0.0009205308766339216,-0.01199779503545351,-0.01737403897811243,-0.004542585333862326,0.015351105562449785, ,0.012310907352273998, ,0.017958064019401365, ,5.402206451651287e-05, ,0.17907472988751794,-0.2521240601448076,0.08760846336000001,1.7033114109247913,0.5074679601288459,-1.2541986516347539, ,0.006858082030644775,0.04756738925236631,0.01164386807017544,-0.03485052831004857,0.011110540977882067,-0.036635040549011164, ,0.25711894035339355
0.009571005259413316,0.02050454867261956,-0.07737396522845089, ,0.009823681590589392,0.020351976747093655,-0.07779439725712609, ,0.0005136989502921227, ,0.003243286273662054,0.0003234485929746467,-0.014702484213224853,0.011486834474706857,0.00263010475020035,-0.015396329926872628, ,0.015059434480927496, ,0.011784062552926685, ,5.4299846028063446e-05, ,0.1793836392024869,-0.25033238611798747,0.08814253484000001,1.7026823410943377,0.5080145061279076,-1.255869504351648, ,0.008702950475053059,0.04197122581091144,0.014680932276497697,-0.00798849339617171,0.013312869889984666,-0.057662832972061547, ,0.2813730239868164
0.00962719724560717,0.02050646210663977,-0.07762022070209766, ,0.009909605697351007,0.02034420000288984,-0.07814803605434123, ,0.0006202197755583949, ,0.0029940001082822054,0.00013358986122526735,-0.013313531357690549,0.02361905233398759,0.014060415784063677,0.013833592665317945, ,0.013646684583136873, ,0.027487351762167538, ,5.551763455867293e-05, ,0.17956126205859407,-0.2496141719606846,0.08838753365,1.7020532712638843,0.5082877791274385,-1.2565824125998843, ,0.011058960675733689,0.03843537527682089,0.013329549389121339,-0.03638085143739267,0.03482721473551912,-0.06880207351887338, ,0.30702900886535645
0.009703494468021844,0.02050125599222212,-0.07795824162898132, ,0.009995565236317464,0.02033653188475941,-0.07849964603281381, ,0.0006368344319847937, ,0.0029683967996115266,0.00013244236580245368,-0.013666045135712125,-0.026266863291955603,-0.0021816605208889884,0.026165773112709765, ,0.01398533911607167, ,0.026357300187246118, ,5.669007661813222e-05, ,0.17979294404482082,-0.2485175438925447,0.08872197647,1.7016338913769151,0.5086976886267348,-1.257243381271536, ,0.007877715519069038,0.03890813512032422,0.013591136109215017,-0.03696877880951828,0.015212487972069795,-0.018199459001414703, ,0.33119702339172363
0.009752832232720176,0.020509122934727224,-0.07819251085101313, ,0.010081558478075263,0.020328971706603874,-0.07884923229188792, ,0.0007561735649202963, ,0.003370523633493644,0.0009028679564995503,-0.015420377390902405,0.022102578666110467,0.02658630355047995,-0.01644235554092703, ,0.015810238422891254, ,0.03457390125879824, ,5.8642162930490204e-05, ,0.1799473987023053,-0.24789200252973254,0.08895790125000001,1.7014242014334306,0.509380871125562,-1.2581271857505802, ,0.010917667029547566,0.03718532192730046,0.015616481882352944,0.0,0.038442791384779566,-0.05889566311168029, ,0.3577558994293213
0.009889716086540268,0.020527134940534493,-0.07876866921988195, ,0.01016758370193338,0.0203215187861685,-0.07919679992856427, ,0.0005502584105103171, ,0.003211345228218568,-0.0002650740291996928,-0.012420474104342032,-0.007955828323999912,-0.0026117049867661925,-0.025556620470577582, ,0.012831647571235323, ,0.008373524447213902, ,5.8808673627793205e-05, ,0.1803953172090103,-0.24641696055075565,0.08953086143000001,1.7001660617725234,0.5097907806248584,-1.2593599056032156, ,0.012416190181665676,0.04160321857013186,0.01237669892773893,0.009416716045362686,0.007534952835136904,-0.033595889843500315, ,0.38570189476013184
0.009954089000737522,0.020520522355411304,-0.07901041377576101, ,0.01025363919590804,0.02031417244503574,-0.07954235403749105, ,0.0006444152752597637, ,0.002672579912612993,-0.000554796191708989,-0.010333537245314682,0.009517026099735943,0.014176734856870337,-0.0158800363169026, ,0.010687959309612992, ,0.017074937164100967, ,6.0025078426656264e-05, ,0.18067333559248241,-0.24558290540033942,0.08977456395000001,1.7001660617725234,0.5100640536243892,-1.2603995288120142, ,0.012401586716998274,0.03824947261526432,0.010237025398457585,0.0,0.02716102365550037,-0.04766921164331276, ,0.4078969955444336
0.010051818063664472,0.020501945951131233,-0.0794052883810086, ,0.010339723256707452,0.02030693200861768,-0.07988589971095633, ,0.0005932175725902928, ,0.0039902623116794406,6.560376421937324e-05,-0.016134943169192572,-0.04350389547491337,-0.016986784197365726,0.04246488066265981, ,0.016621157849047795, ,0.046702662293639105, ,6.077353501723271e-05, ,0.18103630403757096,-0.24422370441447588,0.09016345095000002,1.6991176120551008,0.5104739631236854,-1.2616322486646494, ,0.014172183625817023,0.04493226399548806,0.016073472774974774,-0.05358308198468023,0.010439523782649245,-0.009764159313312093, ,0.4310479164123535
0.010140835724486154,0.020515306948054632,-0.07978209119194948, ,0.010425834189716317,0.0202997968061504,-0.08022744203887902, ,0.0005709694591727195, ,0.004052984922500322,0.0005302501392229683,-0.017492027036649857,0.009247488514384882,0.018776258272361117,-0.016317367879546466, ,0.017963264231287433, ,0.02092993743327902, ,6.130674997971609e-05, ,0.18132204515391726,-0.2432506400723236,0.09054196763000001,1.6991176120551008,0.5108838726229818,-1.2625382535567227, ,0.013679824356129563,0.04604412496771994,0.017600896707182324,-0.002050171689872645,0.033688843321987745,-0.055350763045659654, ,0.45635390281677246
0.01021144815284057,0.020505362405404973,-0.08005784705435295, ,0.010511970308980483,0.020292766170685678,-0.08056698610880014, ,0.0006282780452245494, ,0.003476799898378675,-0.0011902075069727355,-0.012617258125469124,-0.028186117644427165,-0.02051416466507887,0.007385990928000314, ,0.013141534691493869, ,0.03486097904550109, ,6.213204366466712e-05, ,0.1815846180716409,-0.24234708032603933,0.09081418853,1.6984885422246472,0.5110205091227473,-1.2630580651611218, ,0.014347889561304924,0.04991948530166796,0.012281273338473403,-0.026775308791661775,0.0,-0.02719846891181675, ,0.478381872177124
0.010280586226171192,0.02048147831273743,-0.08031746857366755, ,0.010598129937191574,0.020285839439084647,-0.08090453700587402, ,0.0006955270817057335, ,0.00312675870099096,-0.000732848565466186,-0.012223492758999605,0.03195274542988042,0.01699571975392403,-0.01713206526306372, ,0.012638333047654833, ,0.04821747454111047, ,6.326616213545796e-05, ,0.18207115024271703,-0.24084887014843978,0.09120307553000001,1.698069162337678,0.5117036916215745,-1.2646769783014313, ,0.01410687402385473,0.04841680691758713,0.014171540498220642,-0.006015506127215518,0.033129409966423044,-0.06700002473046589, ,0.5013718605041504
0.01038931346648794,0.020470157473690076,-0.08075266938644476, ,0.010684311405671613,0.02027901595201093,-0.08124009981286025, ,0.0006009553111738125, ,0.003910185659686497,-2.777316347685703e-05,-0.016309422404715307,-0.009121576881338692,-0.01893180680269968,0.0095381938248436, ,0.01677163028501574, ,0.021014645361062075, ,6.378433707584128e-05, ,0.18227966403032111,-0.23994531040215553,0.09149992594,1.6974400925072246,0.5118403281213398,-1.2651967899058305, ,0.011172232347359404,0.0458439331200342,0.016187816585365857,-0.034422570306093976,0.0,-0.04463420171714935, ,0.5259120464324951
0.01046451425444593,0.02046852530249227,-0.08106808824568032, ,0.01077051305435738,0.020272295053923407,-0.0815736796101147, ,0.0006227071573310105, ,0.0035988116535323063,-0.00023107079905693119,-0.014027048517942365,0.04129542940947948,0.022796999566931184,-0.04250910314848229, ,0.014483194715134012, ,0.047170066104769974, ,6.437298870266997e-05, ,0.18254223694804472,-0.23904175065587124,0.09181492441000001,1.696811022676771,0.5123868741204016,-1.2664592489220219, ,0.015425380617436733,0.04436509656777502,0.014046571005291006,0.015635501709952176,0.03497058348073751,-0.08426637377742374, ,0.5505218505859375
0.010541916938544806,0.020458345564261772,-0.08133587734769973, ,0.010856733231785227,0.020265676093068827,-0.08190528147558021, ,0.0006785660501872586, ,0.0036599162880894885,-0.0007132905603538134,-0.012629210625281405,-0.0007249497312613357,-0.015088038668924022,-0.015648385258665336, ,0.013168171159163801, ,0.01510543417812841, ,6.552427723432942e-05, ,0.18288975992738485,-0.238138190909587,0.09208066386000001,1.6970207126202554,0.5125235106201671,-1.2670607392665616, ,0.016202312029788418,0.04419978647343771,0.012463858779342725,-0.0077758951595674934,0.002620357653844902,-0.04662504660182269, ,0.5701558589935303
0.010612372033006136,0.020449417956071126,-0.08161454872371648, ,0.010942970295075405,0.020259158421475586,-0.0822349104847786, ,0.0007282462605299268, ,0.0036710078863638426,-1.204005305738211e-05,-0.0160186365344479,0.03490506158321304,0.007661462815704609,0.034795418916104034, ,0.016433902771021015, ,0.035735980214725564, ,6.683928367281538e-05, ,0.18317550104373115,-0.23728869029342228,0.09235806992000001,1.6959722629028329,0.5130700566192289,-1.268323198282753, ,0.01233228610246534,0.04247848771641485,0.01604109921450151,-0.06701969812794896,0.036157837006321324,-0.0909545140083528, ,0.5900368690490723
0.010698205701862033,0.020463696481536817,-0.08197178224276398, ,0.011029222609916753,0.02025274139494535,-0.08256257171080138, ,0.0007092999630063637, ,0.004259996786836404,0.0007873156385480905,-0.01853347369289689,0.027049841709807794,0.005614645305583526,0.00577690602755695, ,0.019033052452611485, ,0.027626364070552665, ,6.797808073553545e-05, ,0.1834149057628321,-0.23646235787588027,0.09270417935000001,1.6959722629028329,0.5132066931189944,-1.2690880461075738, ,0.012309889941428303,0.04136745490779023,0.018543435995343426,-0.0346716431399726,0.02696910239470492,-0.07631955950308374, ,0.6099228858947754
0.010785941768232669,0.02047501004450584,-0.08231674559869744, ,0.011115488550551028,0.0202464243730475,-0.08288827022430144, ,0.000698206909593595, ,0.004372637703907307,7.680364367754965e-05,-0.015646006972776266,0.019765990501268465,-0.011519083740576872,-0.02846196470362566, ,0.016245719235585643, ,0.02287755959709559, ,6.89934247740964e-05, ,0.1837315378106753,-0.23560513452684134,0.09306454797000001,1.6957625729593484,0.5134799661185252,-1.2700459905762318, ,0.01794910943038978,0.043213543514786325,0.01567796409448819,0.0,0.006046175019926453,-0.06559810356249957, ,0.6290700435638428
0.010870826230287548,0.020472030664563025,-0.082636155337756, ,0.011201766499757565,0.02024020671911043,-0.08321201109348365, ,0.0007034725687948, ,0.004301567853757158,0.00015235987658677606,-0.016987822186610928,0.03376580766180332,0.013893917056133421,0.02714486109284762, ,0.01752463415242615, ,0.03651259075220281, ,6.99691707713359e-05, ,0.18409450625576387,-0.23474791117780242,0.0933847316,1.6942947433549567,0.514026512117587,-1.2714718070727042, ,0.018127400488724122,0.04315458915801309,0.01714619108719053,-0.05556363738532255,0.04565626536830708,-0.08759536679404939, ,0.6488230228424072
0.010962624650646496,0.020477405868090034,-0.08298167750077141, ,0.011288054848837733,0.020234087800215426,-0.08353379938409634, ,0.0006855268558526995, ,0.0043995228908490815,0.00035775386886516,-0.01753744984597674,0.014361268018386998,0.009124620865633743,-0.03871374503070431, ,0.018084411425256356, ,0.017014789628192722, ,7.080926802650048e-05, ,0.18441886103648128,-0.2338597968972666,0.09373084103000001,1.6940850534114722,0.514026512117587,-1.2722069157339693, ,0.015082158543940048,0.045470503861270134,0.017639879867109635,0.016760071801113014,0.020465995300325484,-0.05782711689396093, ,0.6683900356292725
0.011051217167043848,0.020478209574731846,-0.08332154761723304, ,0.011374351997599369,0.020228066987188983,-0.08385364015942257, ,0.0006709023075489443, ,0.004482105877390228,-5.89606019679573e-05,-0.016690422522754635,-0.0006293192124496864,-0.006812511742614112,-0.02193715579099784, ,0.017281867764706325, ,0.0068414226382347496, ,7.153942399051482e-05, ,0.18475093855007294,-0.2329176234866112,0.09407176530000001,1.6942947433549567,0.5144364216168833,-1.2732762781063236, ,0.016897603553858755,0.046609499783138886,0.016696867421383647,0.0,0.009993975587647577,-0.04714418028913897, ,0.6894810199737549
0.01113492048909934,0.020462783612091112,-0.08362427936969313, ,0.011460656354341334,0.02022214365459558,-0.08417153848027042, ,0.0006808112639772124, ,0.003732838039546034,-0.0013182247642641001,-0.013101660846305159,-0.010461152737468544,-0.010545240238358329,0.06292853889746974, ,0.013686683794484573, ,0.014853868931757112, ,7.256208545406817e-05, ,0.1851139069951615,-0.23197545007595582,0.09437250458000002,1.6930366036940496,0.5148463311161796,-1.2744273192188185, ,0.018061846509035168,0.04647254728622467,0.012918744136253043,-0.08565128708555522,0.027639521716473436,-0.05139934372093368, ,0.7059838771820068
0.0111787167101003,0.02045194261652141,-0.0837702528860402, ,0.011546966335838009,0.02021631718073101,-0.08448749940496583, ,0.0008399819651387238, ,0.004730242443005829,-0.0005113063216064303,-0.017016514357148592,-0.02095757925382189,-0.0010102066583551426,-0.015218728121648728, ,0.01766913661136765, ,0.02098187834551332, ,7.416767851920433e-05, ,0.18530697531701712,-0.231465749706257,0.09451639277000001,1.6928269137505652,0.5148463311161796,-1.2747540341793808, ,0.019712700780737596,0.05219853771093002,0.016981675394456292,0.0,0.019046833774825165,-0.030648490865889826, ,0.7221448421478271
0.011262384875157277,0.02045757363632877,-0.08408784727406249, ,0.011633280367323683,0.020210586947613747,-0.08480152798934168, ,0.0008413715314135549, ,0.005406378176118739,0.0006675301095441939,-0.020437683793700066,-0.012509353194350993,-0.0052411355624543,-0.016668340618923038, ,0.021151204227694256, ,0.013562811416279819, ,7.570397875291879e-05, ,0.1856236073648603,-0.23065486275446342,0.09483657640000001,1.6930366036940496,0.5152562406154759,-1.2752516453707512, ,0.019550255780484298,0.04775890365297976,0.020633175544041454,-0.0004921608202111481,0.014582093969342064,-0.035441580578333055, ,0.7403368949890137
0.011381995868837726,0.020473076866983082,-0.08458215876647301, ,0.011719596882477121,0.020204952340979403,-0.0851136292867302, ,0.0006843435685074374, ,0.004971564129028616,-0.0001495646613646651,-0.019757009982556875,-0.041980582670038916,-0.001135921714102072,0.03509748629980558, ,0.02037346958492405, ,0.04199591205322326, ,7.657564426803213e-05, ,0.18606380313869111,-0.2295350664877009,0.09533824063000002,1.6921978439201113,0.5166226056131303,-1.2768558968485588, ,0.017241450137803555,0.052227265579785784,0.019787343503105594,-0.045592711890655634,0.027226754770255487,-0.016414102334857995, ,0.757166862487793
0.011435590225973385,0.02047272492113461,-0.08478188549929384, ,0.011805914323406037,0.02019941275027226,-0.0854238083479536, ,0.0007898762077137504, ,0.005091263788500509,-0.00011460556819026978,-0.019183156222119444,-0.04650678516837361,-0.014567133772916754,0.038826570700053055, ,0.01984760902583978, ,0.048734791015121584, ,7.779943072027495e-05, ,0.18644993978240235,-0.228507943015429,0.09572194247000002,1.6917784640331426,0.5168958786126612,-1.2772420901362327, ,0.021631397665482284,0.05053085280003769,0.01769867946666667,0.014587361478672628,0.005744577330833163,-0.01047821037544898, ,0.7734899520874023
0.011530474629772861,0.020468179377901432,-0.08513276415171257, ,0.011892231140631431,0.020193967568638047,-0.0857320702213151, ,0.0007518162372218984, ,0.00427984598125379,-0.0005452588675978161,-0.0165321268734524,0.047954710104274455,0.06331106066619223,-1.5590699231903286e-05, ,0.017085830615333728, ,0.07942256221584368, ,7.883211062208744e-05, ,0.18666617630288063,-0.22802141084435287,0.09589175646,1.691988153976627,0.5175790611114884,-1.2780442158751366, ,0.02180536340957509,0.04937405908349156,0.016767170021052633,-0.021041323329670663,0.09197002986390544,-0.09896749177394322, ,0.790355920791626
0.011628449020029826,0.02045591743489071,-0.08548189935124116, ,0.011978545793072344,0.020188616192917216,-0.0860384199525902, ,0.000709741420646463, ,0.004919467767048256,-0.0007374579518257287,-0.018353396293778516,-0.03210124231235976,-0.01962940641423988,0.06203680105899027, ,0.019015576847895534, ,0.03762713477911467, ,7.967164522107303e-05, ,0.18707548114521452,-0.22701745557070369,0.09624045847000001,1.6909397042592043,0.5179889706107847,-1.2787868632869284, ,0.018625503740622332,0.05208394157984127,0.018266985688073393,-0.08262240123497576,0.01782856788332713,-0.03471566478076041, ,0.8070778846740723
0.011733535049811646,0.02044818777891141,-0.08586509867305193, ,0.012064856748030043,0.020183358023636615,-0.08634286258501739, ,0.0006388796620379805, ,0.0057747902982966115,0.00010184017529030664,-0.020309555937786168,-0.015831641142890516,-0.007130682581730087,-0.031281058236424006, ,0.021114843991861962, ,0.017363295768037194, ,8.050969900481037e-05, ,0.18748478598754842,-0.2259517184340607,0.09662416031000001,1.6905203243722353,0.5183988801100811,-1.279611189438861, ,0.022888794394228362,0.05242924947981811,0.02044776831835687,0.013646409494006537,0.012775861473756495,-0.034228513019479004, ,0.82423996925354
0.011787610558346468,0.020450241002266754,-0.08607044401253804, ,0.012151162481172652,0.020178192465003263,-0.08664540315929, ,0.000732637992225055, ,0.005204133880297164,0.00024303734621770184,-0.019622932785403908,0.07577488762159558,0.057807890794201885,-0.031064536861778527, ,0.02030274778684385, ,0.09530783243066457, ,8.164014248837544e-05, ,0.18771646797377517,-0.22542657259861343,0.096832863,1.69073001431572,0.5190820626089083,-1.280576672658046, ,0.024276526364407976,0.04874008297815653,0.020036240905660377,7.898613160030425e-05,0.08356673964709528,-0.12457441231630134, ,0.8378229141235352
0.011842171946454882,0.02044934343316036,-0.0862681552524551, ,0.012237461476519662,0.02017311892489588,-0.08694604671354558, ,0.0008319198426315975, ,0.005623316426684392,-0.00020572494912160077,-0.020272439702301883,0.0029721747129812463,0.007048607533169378,-0.00220307776671727, ,0.021038912088622245, ,0.007649396493192524, ,8.306680622638797e-05, ,0.1879481499600019,-0.22492459496178885,0.09703249166000001,1.6903106344287508,0.5194919721082046,-1.280992605109276, ,0.02329330916997319,0.053674740700492524,0.020421553230769232,-0.02050697266510299,0.03546306299207343,-0.06028055980761973, ,0.8520050048828125
0.011899094611984882,0.020445427704688053,-0.08647409699522725, ,0.012323752226426293,0.020168136814858392,-0.08724479828335893, ,0.0009226076103162341, ,0.0058122549650730425,-0.00031407319698388585,-0.020721927082436517,-0.04788478130937784,-0.03966025831201446,0.06243131173345464, ,0.021523921849000843, ,0.062176237821649515, ,8.474652006474656e-05, ,0.1881412182818575,-0.22444578552358693,0.09721397226,1.6898912545417817,0.5196286086079701,-1.2812673804932535, ,0.02135394724538046,0.0525162930594747,0.02050040092664093,-0.05346977970569203,0.0,-0.020375688325139973, ,0.866502046585083
0.012021062546582102,0.02044721568026279,-0.08691713234954604, ,0.012410033231568099,0.020163245550091746,-0.08754166290173149, ,0.0007886543217537678, ,0.005332060086089822,0.00026362877589215675,-0.020215868467949285,0.034039035962511906,0.05198109403235813,-0.02842040555443295, ,0.020908890520699008, ,0.062134424674208356, ,8.593519016712453e-05, ,0.188674086850179,-0.22328737559245324,0.09768711811000001,1.6892621847113283,0.5205850641063281,-1.2825373782599718, ,0.023083663721350227,0.049502838580318606,0.020606483208279434,0.010333749414857948,0.07431820781905227,-0.07989282826269335, ,0.8808519840240479
0.012076282187288984,0.020447419873426083,-0.0871164442911417, ,0.012496303000925336,0.02015844454944689,-0.08783664559908336, ,0.0008823911523341022, ,0.006023807938467892,-5.799119797714219e-05,-0.021430176933558028,0.01519332101273275,0.015873989620513947,-0.02059753147465843, ,0.022260775109195864, ,0.021973075114070335, ,8.73862004283376e-05, ,0.18891349156927995,-0.2227699524898802,0.09788933935000001,1.6894718746548125,0.5211316101053899,-1.2833914435754603, ,0.025373513785687377,0.05494901074607457,0.02167185240816327,-0.003609275224373971,0.04269566410870167,-0.07077543830894961, ,0.8944318294525146
0.01219935506562466,0.02044773884469941,-0.08754013150960603, ,0.012582560051767607,0.020153733235417262,-0.08812975140324376, ,0.0007621922189759976, ,0.006285219444659515,-0.0005228566072644574,-0.021311541955543564,-0.058150311186438514,-0.034030725399050166,0.059461528065520214, ,0.022225192530598688, ,0.06737614241032444, ,8.841226104926603e-05, ,0.1894000237403561,-0.2217582744833568,0.09831581876,1.68842342493739,0.5212682466051554,-1.2837478976995784, ,0.02515158800913617,0.05517264044097138,0.02138095506040269,-0.07442923752522934,0.008123315303532693,-0.009819536301888648, ,0.9087469577789307
0.01225461851604813,0.020446234279465115,-0.0877315093369515, ,0.012668802909638274,0.02014911103413148,-0.08842098533944254, ,0.0008574427635838188, ,0.006064843244180678,-7.672110511222152e-05,-0.021559303881557336,-0.017373173346081513,-0.005900845130336614,0.03485922535252521, ,0.022396245077284424, ,0.01834781915220647, ,8.99817118884771e-05, ,0.18963170572658283,-0.22127174231228064,0.09850896597000001,1.6882137349939055,0.5215415196046862,-1.284052412247112, ,0.024464279855238663,0.05211254341486588,0.021760671475409835,-0.05449863007575615,0.031037635001159563,-0.04411395884816144, ,0.920076847076416
0.012319381389978191,0.020445438262337842,-0.08797477189797301, ,0.012755030108338903,0.02014457737534558,-0.08871035243030045, ,0.0009063033701086125, ,0.005616143602340946,0.00012006566153571481,-0.021748563516796948,0.062239090421805754,0.07227945031804525,-0.05085205434586494, ,0.022462312876668472, ,0.0953835334270429, ,9.166287041941465e-05, ,0.18991744684292913,-0.2206616464152169,0.09875655736000001,1.6880040450504212,0.5224979751030443,-1.2851590525335492, ,0.023867440029796474,0.054569834133680724,0.022184974261838443,0.02596883156260174,0.09216855916487474,-0.11074627441044164, ,0.931567907333374
0.012386039467760308,0.020449124024762996,-0.08822187408786039, ,0.01284124018991391,0.02014013169243596,-0.08899785769582103, ,0.0009512279005105267, ,0.0067304782860306,0.000572061603624857,-0.024403332987087533,0.016432301476796432,0.01770737029175333,-0.02264973502462139, ,0.02532092520655092, ,0.024157045347039302, ,9.343969844018324e-05, ,0.190187742493527,-0.22007471871677586,0.09900803762000002,1.6882137349939055,0.5231811576018714,-1.285961178272453, ,0.02639692393837852,0.05435105472993745,0.024811232897196264,-0.001024496283420113,0.04500447280177248,-0.07082998127256868, ,0.9425539970397949
0.012524778047485873,0.02045836516209146,-0.08871081412792141, ,0.012927431704634963,0.020135773422390917,-0.08928350615338043, ,0.0007708252422974479, ,0.007380492458420555,0.0007568728572581443,-0.02576852965714653,-0.0503952994986893,-0.0166210709764172,0.021624723056074376, ,0.026815324837527087, ,0.053065382785184474, ,9.463209017753074e-05, ,0.19072061106184848,-0.21903214977875554,0.09950322040000001,1.6869555953329984,0.5235910671011678,-1.2866221469441044, ,0.029489416270500553,0.05536577687191993,0.02641593950248757,-0.07934361648251866,0.011453131525967292,-0.02087076572336621, ,0.9560239315032959
0.012600106178894658,0.020465248242063652,-0.0889778658802386, ,0.013013603210985518,0.020131502005804554,-0.0895673028177196, ,0.0007936008121417553, ,0.0067636534964358765,0.0003509209879693436,-0.02371750297655511,0.03708665069709646,0.03673840613048872,-0.02723672107754047, ,0.02466556509797712, ,0.05220270720986364, ,9.586375917287683e-05, ,0.19102952037681747,-0.21846066754606294,0.0997754413,1.6867459053895137,0.5241376131002295,-1.287394533519452, ,0.02964602985269315,0.054569834133680724,0.0242079202431611,0.0019411728891897079,0.06702615525745381,-0.09076870542417555, ,0.9671669006347656
0.012663307398888672,0.020465391560918537,-0.08919851825039037, ,0.01309975327564547,0.02012731688686851,-0.08984925270093466, ,0.0008533667521630018, ,0.006924405179879036,-0.0001807599179574299,-0.024861201500446836,0.0420817276175298,0.030751932456292437,-0.021603193080126683, ,0.02580812665206244, ,0.05212047248005977, ,9.724179939420084e-05, ,0.19129981602741533,-0.21791235351199298,0.09999969947000001,1.6869555953329984,0.5246841590992912,-1.2881669200948003, ,0.028540433551419782,0.06190276683527121,0.02520381569620253,-0.01217911116613205,0.06271396309949992,-0.1068348651718288, ,0.9779858589172363
0.012747560531553985,0.020467529173870513,-0.08948599242102716, ,0.013185880473475424,0.020123217513363982,-0.09012936081246786, ,0.0008512330927259459, ,0.007565503442167391,0.00037726349567471836,-0.025047047670470522,-0.034024351567124966,-0.024553385991954134,-0.01388436437547856, ,0.026167418043923214, ,0.0419584962239082, ,9.858170053956068e-05, ,0.1916396162738812,-0.21727136668343236,0.10028358698,1.6867459053895137,0.5250940685985876,-1.2886645312861706, ,0.029888800490856935,0.05569069340285844,0.02536434955414013,-0.003209957664867634,0.006051356323572933,-0.022994645282756784, ,0.988847017288208
0.01282056505714646,0.020466879792527704,-0.08972587453872317, ,0.01327198338750151,0.020119203336655202,-0.09040763215909867, ,0.0008885104838372237, ,0.007873346415023777,-0.00012898733477611178,-0.025449140721252306,-0.04239621160176272,-0.034499347659997126,0.02046671567074448, ,0.02663953800187989, ,0.054659245075307554, ,0.00010028504933903925, ,0.1919485255888502,-0.2166844389849913,0.10053377095,1.686326525502545,0.5252307050983531,-1.2889393066701482, ,0.03256586875719657,0.060443911820682025,0.02569163148387097,-0.04074240234472088,0.006762584311399645,-0.02554140358955112, ,0.997330904006958
0.01282056505714646,0.020466879792527704,-0.08972587453872317, ,0.013358060608899755,0.020115273811681218,-0.09068407174493458, ,0.0011535467567086025, ,0.007873346415023777,-0.00012898733477611178,-0.025449140721252306,-0.04239621160176272,-0.034499347659997126,0.02046671567074448, ,0.02663953800187989, ,0.054659245075307554, ,0.00010271437016152211, ,0.1919485255888502,-0.2166844389849913,0.10053377095,1.686326525502545,0.5252307050983531,-1.2889393066701482, ,0.03256586875719657,0.060443911820682025,0.02569163148387097,-0.04074240234472088,0.006762584311399645,-0.02554140358955112, ,1.005429983139038
0.012898322259643883,0.02046643299150051,-0.08999956610523417, ,0.013444110736980692,0.020111428396948575,-0.09095868457140266, ,0.0011592331759797112, ,0.007815313326063208,0.00015374022083256608,-0.028793714165579975,0.033031499410137354,0.051283270806159124,0.05023130477778796, ,0.029835896733451196, ,0.06100027890031421, ,0.00010511857938608467, ,0.19228832583531608,-0.2160511748893049,0.10081247330000001,1.6856974556720912,0.5260505240969456,-1.2899345290528887, ,0.03322722043363823,0.06373199567392263,0.029388951143911442,-0.07876587410459525,0.10328191184916242,-0.10931629299180856, ,1.0135679244995117
0.012983980188228883,0.02047234862894554,-0.09031292125219001, ,0.013530132379173844,0.020107666554523746,-0.09123147563723961, ,0.0011291666791809001, ,0.008816047925583678,0.0007107146060636614,-0.031822899559409784,0.022117865275572086,0.03800918905906442,0.017342114461568574, ,0.033029150044252484, ,0.04397574082536415, ,0.00010739816185393522, ,0.19261268061603348,-0.21541018806074425,0.10110932371,1.6856974556720912,0.5270069795953038,-1.2911228480794668, ,0.03542252391133661,0.06664111064499352,0.03211453935483872,-0.04586547915363666,0.08461402134055059,-0.09478082116432437, ,1.022083044052124
0.013055836386060261,0.020482270059873825,-0.0905653190616152, ,0.013616124151012415,0.020103987750025653,-0.09150244993848358, ,0.0011555233298723322, ,0.009551867231467321,0.0011090711732893363,-0.03345629023050357,-0.01314136005511834,-0.0008020699865837721,0.009954954916882145, ,0.034810796636427166, ,0.013164222099500293, ,0.00010971296419924223, ,0.19291386719812825,-0.21486959675954853,0.10139061864000001,1.6856974556720912,0.5274168890946002,-1.2915387805306966, ,0.0362894613990328,0.06576364626366651,0.03410880411134904,-0.03364318604322948,0.04332570932508622,-0.05802262921699008, ,1.0310418605804443
0.013175538276511677,0.020492703116887702,-0.09098012433870596, ,0.01370208467611781,0.020100391452617893,-0.09177161246846444, ,0.0010284031371057254, ,0.01041151010305977,0.000952166368764901,-0.035248508682459184,-0.05270051680738295,-0.03359667758442025,0.0019489378956652178, ,0.03676633688249787, ,0.06249821440123896, ,0.00011163931198025601, ,0.19335406297195906,-0.2140355416091323,0.10181191289000001,1.6850683858416375,0.527690162094131,-1.2920883312986515, ,0.03818790404767436,0.0710306448790949,0.03595668514672686,-0.021838082527905568,0.009581757082707783,-0.022146193301228658, ,1.0396490097045898
0.013279805465704142,0.020499030664993007,-0.09134259284791711, ,0.0137880125861841,0.020096877135001634,-0.09203896821779542, ,0.0009512836563108827, ,0.009945738203482551,0.00030879592570643094,-0.034415476256401484,0.004588287591761889,0.013319195014538458,0.07782037580098028, ,0.03582510389783789, ,0.014085633059103245, ,0.00011332337132552955, ,0.19377109054716718,-0.21329415925320674,0.10218135554,1.6842296260676997,0.5283733445929583,-1.2928904570375555, ,0.04131342688657849,0.07178286048295822,0.03508548792951543,-0.11055634909879782,0.07925765860856097,-0.09591125729833054, ,1.048144817352295
0.013279805465704142,0.020499030664993007,-0.09134259284791711, ,0.013873906520962716,0.020093444273406973,-0.09230452217436329, ,0.0012011512868811837, ,0.009945738203482551,0.00030879592570643094,-0.034415476256401484,0.004588287591761889,0.013319195014538458,0.07782037580098028, ,0.03582510389783789, ,0.014085633059103245, ,0.00011597148150006793, ,0.19377109054716718,-0.21329415925320674,0.10218135554,1.6842296260676997,0.5283733445929583,-1.2928904570375555, ,0.04131342688657849,0.07178286048295822,0.03508548792951543,-0.11055634909879782,0.07925765860856097,-0.09591125729833054, ,1.0535390377044678
0.013377409153661944,0.020503072114849537,-0.0916696741448705, ,0.013959765128247033,0.020090092347587015,-0.09256827932332025, ,0.0011476855126905914, ,0.010289566609618217,0.00017512904367411033,-0.03428301795884226,0.028741545109002464,0.01225085197947244,0.008024184878218063, ,0.035794289650194336, ,0.031242798070451442, ,0.00011844646136409619, ,0.19419584085524952,-0.21258366782877808,0.10251579836000001,1.684019936124215,0.5291931635915509,-1.2938856794202962, ,0.043490807313689636,0.07537485429584652,0.034931604210526324,-0.04796708599222547,0.06650290154051686,-0.11380696224810638, ,1.0598540306091309
0.013377409153661944,0.020503072114849537,-0.0916696741448705, ,0.014045587063856991,0.02008682084080877,-0.09283024464707398, ,0.0014023732503859426, ,0.010289566609618217,0.00017512904367411033,-0.03428301795884226,0.028741545109002464,0.01225085197947244,0.008024184878218063, ,0.035794289650194336, ,0.031242798070451442, ,0.00012157947299758477, ,0.19419584085524952,-0.21258366782877808,0.10251579836000001,1.684019936124215,0.5291931635915509,-1.2938856794202962, ,0.043490807313689636,0.07537485429584652,0.034931604210526324,-0.04796708599222547,0.06650290154051686,-0.11380696224810638, ,1.065354824066162
0.013496039536348873,0.020506767891438286,-0.09204771734438921, ,0.014131370991623536,0.02008362923984641,-0.09309042312527921, ,0.001292256832844706, ,0.011745154579510057,0.00027678870088068957,-0.03703100488422631,-0.04446976031074646,-0.02980223813423195,0.004448715425183772, ,0.03884997542878392, ,0.05353189091485233, ,0.00012438454756135358, ,0.19469781849207413,-0.21174961267836184,0.10290079649000002,1.684019936124215,0.5296030730908472,-1.2944649693518073, ,0.049245947876736265,0.08076335451784747,0.03765676482269504,-0.029253456999208897,0.025888560809070975,-0.040898271131408384, ,1.0728590488433838
0.01361962640063829,0.020510412846356105,-0.09244919530658055, ,0.014217115583373427,0.02008051703497332,-0.09334881973482849, ,0.0011623802493291072, ,0.011560870755106952,0.0006719511124849112,-0.03830807522835862,0.03534974709705183,0.039403577590153616,-0.034252877439646764, ,0.04002016839813946, ,0.052935470595470255, ,0.0001268143644608387, ,0.19522296432752137,-0.21087694386357447,0.10331042413000001,1.6838102461807307,0.5302862555896743,-1.2955121313111326, ,0.04942549039503686,0.08069467819597856,0.03923352591133005,0.0,0.09015375275297319,-0.11498572596258075, ,1.078805923461914
0.01361962640063829,0.020510412846356105,-0.09244919530658055, ,0.014302819518913816,0.020077483719955064,-0.09360543944984315, ,0.0014110566906309836, ,0.011560870755106952,0.0006719511124849112,-0.03830807522835862,0.03534974709705183,0.039403577590153616,-0.034252877439646764, ,0.04002016839813946, ,0.052935470595470255, ,0.0001298763431955194, ,0.19522296432752137,-0.21087694386357447,0.10331042413000001,1.6838102461807307,0.5302862555896743,-1.2955121313111326, ,0.04942549039503686,0.08069467819597856,0.03923352591133005,0.0,0.09015375275297319,-0.11498572596258075, ,1.0842218399047852
0.013742535609014263,0.020512432434376202,-0.09285993307510937, ,0.014388481486016595,0.020074528792040473,-0.09386028724166384, ,0.0012687451022684209, ,0.012346866580449135,1.538771338353991e-05,-0.04173520317758732,0.004281203694150749,0.023333604604075266,0.09048204974142675, ,0.04352324132474085, ,0.023720438146715133, ,0.00013253158639519672, ,0.19575583289584286,-0.21001199778166132,0.10373042209000001,1.682761796463308,0.5313793475877979,-1.2966485107611256, ,0.051912987723452285,0.08827622470555421,0.04259040513368984,-0.12855902896510527,0.1036459577915897,-0.11496845777520354, ,1.089850902557373
0.013742535609014263,0.020512432434376202,-0.09285993307510937, ,0.014474100180403572,0.020071651751955973,-0.09411336807884267, ,0.0015167642007546103, ,0.012346866580449135,1.538771338353991e-05,-0.04173520317758732,0.004281203694150749,0.023333604604075266,0.09048204974142675, ,0.04352324132474085, ,0.023720438146715133, ,0.00013580829065688315, ,0.19575583289584286,-0.21001199778166132,0.10373042209000001,1.682761796463308,0.5313793475877979,-1.2966485107611256, ,0.051912987723452285,0.08827622470555421,0.04259040513368984,-0.12855902896510527,0.1036459577915897,-0.11496845777520354, ,1.0953960418701172
0.013873171906389328,0.02051894599097739,-0.09330115076169815, ,0.014559674305730512,0.020068852103895807,-0.0943646869271326, ,0.0013434951532016856, ,0.013782828202234913,0.0009965070339474844,-0.046336106269254954,0.017548524256410833,0.01896771009847503,0.023097159235117723, ,0.04835280885033171, ,0.02583623679470628, ,0.00013859964110450793, ,0.19628870146416436,-0.20912388350112548,0.10418153101000001,1.6819230366893698,0.532335803086156,-1.297755151047563, ,0.05523686935883049,0.090723653497582,0.04740717714285715,-0.0642287337841854,0.08857734469979402,-0.11983596123379307, ,1.1013519763946533
0.013873171906389328,0.02051894599097739,-0.09330115076169815, ,0.014645202573572188,0.020066129355516577,-0.09461424874947974, ,0.0015891194360201275, ,0.013782828202234913,0.0009965070339474844,-0.046336106269254954,0.017548524256410833,0.01896771009847503,0.023097159235117723, ,0.04835280885033171, ,0.02583623679470628, ,0.00014199839797966626, ,0.19628870146416436,-0.20912388350112548,0.10418153101000001,1.6819230366893698,0.532335803086156,-1.297755151047563, ,0.05523686935883049,0.090723653497582,0.04740717714285715,-0.0642287337841854,0.08857734469979402,-0.11983596123379307, ,1.1067869663238525
0.014016144174970744,0.02053107503384671,-0.09377592569487309, ,0.014730683703406904,0.020063483017928152,-0.0948620585060133, ,0.0013816271257050122, ,0.014573038794151547,0.0010877363133473172,-0.04645091394580078,-0.017703576334270613,0.0001726870231130832,-0.029189699277743675, ,0.04869542110284508, ,0.01769831003972362, ,0.00014482734212849534, ,0.19686018369685698,-0.20819715555621857,0.10466763976000001,1.6817133467458854,0.5331556220847486,-1.298668694690163, ,0.05998542449966548,0.09222248936683264,0.047548691104477625,0.0,0.060982371211090076,-0.07290586472953942, ,1.1139228343963623
0.014016144174970744,0.02053107503384671,-0.09377592569487309, ,0.01481611642260109,0.020060912605686487,-0.0951081211540376, ,0.0016235002455345768, ,0.014573038794151547,0.0010877363133473172,-0.04645091394580078,-0.017703576334270613,0.0001726870231130832,-0.029189699277743675, ,0.04869542110284508, ,0.01769831003972362, ,0.00014862855781848526, ,0.19686018369685698,-0.20819715555621857,0.10466763976000001,1.6817133467458854,0.5331556220847486,-1.298668694690163, ,0.05998542449966548,0.09222248936683264,0.047548691104477625,0.0,0.060982371211090076,-0.07290586472953942, ,1.117074966430664
0.014016144174970744,0.02053107503384671,-0.09377592569487309, ,0.014901499466393969,0.020058417636785723,-0.0953524416480216, ,0.0018688663830192232, ,0.014573038794151547,0.0010877363133473172,-0.04645091394580078,-0.017703576334270613,0.0001726870231130832,-0.029189699277743675, ,0.04869542110284508, ,0.01769831003972362, ,0.0001530394240369487, ,0.19686018369685698,-0.20819715555621857,0.10466763976000001,1.6817133467458854,0.5331556220847486,-1.298668694690163, ,0.05998542449966548,0.09222248936683264,0.047548691104477625,0.0,0.060982371211090076,-0.07290586472953942, ,1.1199638843536377
0.014016144174970744,0.02053107503384671,-0.09377592569487309, ,0.014986831577882378,0.020055997632651677,-0.09559502493959153, ,0.002115905157003209, ,0.014573038794151547,0.0010877363133473172,-0.04645091394580078,-0.017703576334270613,0.0001726870231130832,-0.029189699277743675, ,0.04869542110284508, ,0.01769831003972362, ,0.00015805954100105678, ,0.19686018369685698,-0.20819715555621857,0.10466763976000001,1.6817133467458854,0.5331556220847486,-1.298668694690163, ,0.05998542449966548,0.09222248936683264,0.047548691104477625,0.0,0.060982371211090076,-0.07290586472953942, ,1.1233558654785156
0.014016144174970744,0.02053107503384671,-0.09377592569487309, ,0.015072111508005222,0.020053652118132762,-0.09583587597752015, ,0.002363555545330482, ,0.014573038794151547,0.0010877363133473172,-0.04645091394580078,-0.017703576334270613,0.0001726870231130832,-0.029189699277743675, ,0.04869542110284508, ,0.01769831003972362, ,0.0008911782788436623, ,0.19686018369685698,-0.20819715555621857,0.10466763976000001,1.6817133467458854,0.5331556220847486,-1.298668694690163, ,0.05998542449966548,0.09222248936683264,0.047548691104477625,0.0,0.060982371211090076,-0.07290586472953942, ,1.12611985206604
0.014016144174970744,0.02053107503384671,-0.09377592569487309, ,0.015157338015528297,0.020051380621493097,-0.09607499970771907, ,0.0026111628496732105, ,0.014573038794151547,0.0010877363133473172,-0.04645091394580078,-0.017703576334270613,0.0001726870231130832,-0.029189699277743675, ,0.04869542110284508, ,0.01769831003972362, ,0.0009147397113207793, ,0.19686018369685698,-0.20819715555621857,0.10466763976000001,1.6817133467458854,0.5331556220847486,-1.298668694690163, ,0.05998542449966548,0.09222248936683264,0.047548691104477625,0.0,0.060982371211090076,-0.07290586472953942, ,1.1289260387420654
0.014016144174970744,0.02053107503384671,-0.09377592569487309, ,0.015242509867028938,0.020049182674405034,-0.09631240107322925, ,0.0028583037630302123, ,0.014573038794151547,0.0010877363133473172,-0.04645091394580078,-0.017703576334270613,0.0001726870231130832,-0.029189699277743675, ,0.04869542110284508, ,0.01769831003972362, ,0.0009410040903979339, ,0.19686018369685698,-0.20819715555621857,0.10466763976000001,1.6817133467458854,0.5331556220847486,-1.298668694690163, ,0.05998542449966548,0.09222248936683264,0.047548691104477625,0.0,0.060982371211090076,-0.07290586472953942, ,1.131727933883667
0.014343981804036801,0.020516274219640727,-0.0947376139183186, ,0.015327625836880788,0.0200470578119414,-0.09654808501421167, ,0.002113178934607309, ,0.016178759028219733,-0.002325238396836283,-0.04331952379980523,-0.07697996387541171,-0.061779533532407935,-0.033277789466666055, ,0.04630054124453855, ,0.09870396673679695, ,0.0009566330883207257, ,0.1983429484087081,-0.20592667209119656,0.105647635,1.6817133467458854,0.5342487140828721,-1.300213467840859, ,0.0778481883170392,0.11803102183889398,0.043881023471074386,0.0,0.016070108076381574,-0.04001125433285368, ,1.134497880935669
0.014343981804036801,0.020516274219640727,-0.0947376139183186, ,0.015412684707238267,0.020045005572567307,-0.09678205646793835, ,0.002354562671011613, ,0.016178759028219733,-0.002325238396836283,-0.04331952379980523,-0.07697996387541171,-0.061779533532407935,-0.033277789466666055, ,0.04630054124453855, ,0.09870396673679695, ,0.0009750268986192899, ,0.1983429484087081,-0.20592667209119656,0.105647635,1.6817133467458854,0.5342487140828721,-1.300213467840859, ,0.0778481883170392,0.11803102183889398,0.043881023471074386,0.0,0.016070108076381574,-0.04001125433285368, ,1.1372640132904053
0.014343981804036801,0.020516274219640727,-0.0947376139183186, ,0.015497685268021531,0.020043025498133506,-0.09701432036878381, ,0.002595840576154183, ,0.016178759028219733,-0.002325238396836283,-0.04331952379980523,-0.07697996387541171,-0.061779533532407935,-0.033277789466666055, ,0.04630054124453855, ,0.09870396673679695, ,0.000996076426898964, ,0.1983429484087081,-0.20592667209119656,0.105647635,1.6817133467458854,0.5342487140828721,-1.300213467840859, ,0.0778481883170392,0.11803102183889398,0.043881023471074386,0.0,0.016070108076381574,-0.04001125433285368, ,1.1400270462036133
0.014343981804036801,0.020516274219640727,-0.0947376139183186, ,0.015582626316901051,0.020041117133867997,-0.09724488164821526, ,0.002836618753866991, ,0.016178759028219733,-0.002325238396836283,-0.04331952379980523,-0.07697996387541171,-0.061779533532407935,0.11978117346322087, ,0.04630054124453855, ,0.09870396673679695, ,0.001019673123398554, ,0.19917700355912432,-0.2047064802970691,0.10624781727000002,1.6802455171414936,0.5364348980791193,-1.3026495842211263, ,0.08868873042847737,0.1181780094127905,0.07808240941176472,-0.192580019271797,0.2957529168782337,-0.3134963077839853, ,1.1430928707122803
0.014525033801387088,0.02051463357462605,-0.09532086600293821, ,0.01566750665928226,0.020039280028368574,-0.09747374523478423, ,0.0024831621396680173, ,0.021470127630798395,0.003587201712899478,-0.07531002211637614,0.16146871564844703,0.16375872496101967,0.11978117346322087, ,0.07839281745020307, ,0.22997096258770586, ,0.0010381983008196864, ,0.19917700355912432,-0.2047064802970691,0.10624781727000002,1.6802455171414936,0.5364348980791193,-1.3026495842211263, ,0.08868873042847737,0.1181780094127905,0.07808240941176472,-0.192580019271797,0.2957529168782337,-0.3134963077839853, ,1.145831823348999
0.014525033801387088,0.02051463357462605,-0.09532086600293821, ,0.01575232510829051,0.020037513733595618,-0.09770091605411742, ,0.002720023077259412, ,0.021470127630798395,0.003587201712899478,-0.07531002211637614,0.16146871564844703,0.16375872496101967,0.11978117346322087, ,0.07839281745020307, ,0.22997096258770586, ,0.001059221110525183, ,0.19917700355912432,-0.2047064802970691,0.10624781727000002,1.6802455171414936,0.5364348980791193,-1.3026495842211263, ,0.08868873042847737,0.1181780094127905,0.07808240941176472,-0.192580019271797,0.2957529168782337,-0.3134963077839853, ,1.1485610008239746
0.014525033801387088,0.02051463357462605,-0.09532086600293821, ,0.01583708048475552,0.02003581780486382,-0.09792639902890718, ,0.002956270182193454, ,0.021470127630798395,0.003587201712899478,-0.07531002211637614,0.16146871564844703,0.16375872496101967,0.11978117346322087, ,0.07839281745020307, ,0.22997096258770586, ,0.0010826414694346676, ,0.19917700355912432,-0.2047064802970691,0.10624781727000002,1.6802455171414936,0.5364348980791193,-1.3026495842211263, ,0.08868873042847737,0.1181780094127905,0.07808240941176472,-0.192580019271797,0.2957529168782337,-0.3134963077839853, ,1.1513159275054932
0.014751380080366753,0.020573409871662663,-0.09613872629281346, ,0.015921771617196257,0.020034191800835002,-0.0981501990789026, ,0.002388848100354318, ,0.02452771362366725,0.007249391841047868,-0.08742135062944607,0.17890808999065436,0.18256630849823513,-0.011347714752702631, ,0.09108597566884945, ,0.255604099308731, ,0.0010985708185922245, ,0.20004194964103747,-0.20359440676318075,0.10709818351000001,1.6789873774805866,0.5394409010739589,-1.305917565503853, ,0.09195440073495231,0.1120388920406975,0.09102178011428572,-0.05171078147432174,0.2886845442086885,-0.2977228169889055, ,1.1542329788208008
0.014751380080366753,0.020573409871662663,-0.09613872629281346, ,0.016006397341805745,0.020032635283510507,-0.09837232112090137, ,0.0026184826403400155, ,0.02452771362366725,0.007249391841047868,-0.08742135062944607,0.17890808999065436,0.18256630849823513,-0.011347714752702631, ,0.09108597566884945, ,0.255604099308731, ,0.0011168830092156917, ,0.20004194964103747,-0.20359440676318075,0.10709818351000001,1.6789873774805866,0.5394409010739589,-1.305917565503853, ,0.09195440073495231,0.1120388920406975,0.09102178011428572,-0.05171078147432174,0.2886845442086885,-0.2977228169889055, ,1.1571879386901855
0.014751380080366753,0.020573409871662663,-0.09613872629281346, ,0.016090956502435527,0.020031147818223165,-0.0985927700687394, ,0.0028479543499367807, ,0.02452771362366725,0.007249391841047868,-0.08742135062944607,0.17890808999065436,0.18256630849823513,-0.011347714752702631, ,0.09108597566884945, ,0.255604099308731, ,0.0011374910013671334, ,0.20004194964103747,-0.20359440676318075,0.10709818351000001,1.6789873774805866,0.5394409010739589,-1.305917565503853, ,0.09195440073495231,0.1120388920406975,0.09102178011428572,-0.05171078147432174,0.2886845442086885,-0.2977228169889055, ,1.1623249053955078
0.014751380080366753,0.020573409871662663,-0.09613872629281346, ,0.016175447950580676,0.020029728973629837,-0.09881155083328227, ,0.003076938290247908, ,0.02452771362366725,0.007249391841047868,-0.08742135062944607,0.17890808999065436,0.18256630849823513,-0.011347714752702631, ,0.09108597566884945, ,0.255604099308731, ,0.0011603080282951424, ,0.20058254094223318,-0.20295341993462013,0.10762318096000001,1.6789873774805866,0.5405339930720824,-1.3069722662137055, ,0.09653808907270679,0.11502659582844943,0.09538210491017965,-0.03487109105531678,0.11394230437146276,-0.11115869281948765, ,1.165191888809204
0.01489908179764913,0.020616825484977886,-0.09664415205881843, ,0.01625987054536443,0.020028378321704236,-0.09902866832241687, ,0.002807834377458691, ,0.027431697157811654,0.007818100373947626,-0.0921173946733988,-0.007587262860637436,0.008833498640016917,-0.0026790412690510692, ,0.09643254172648222, ,0.011356244224954957, ,0.0011794653114249511, ,0.20058254094223318,-0.20295341993462013,0.10762318096000001,1.6789873774805866,0.5405339930720824,-1.3069722662137055, ,0.09653808907270679,0.11502659582844943,0.09538210491017965,-0.03487109105531678,0.11394230437146276,-0.11115869281948765, ,1.1681759357452393
0.01489908179764913,0.020616825484977886,-0.09664415205881843, ,0.01634422315352301,0.020027095437728657,-0.09924412744104166, ,0.003032505079179983, ,0.027431697157811654,0.007818100373947626,-0.0921173946733988,-0.007587262860637436,0.008833498640016917,-0.0026790412690510692, ,0.09643254172648222, ,0.011356244224954957, ,0.0012007646191002964, ,0.20058254094223318,-0.20295341993462013,0.10762318096000001,1.6789873774805866,0.5405339930720824,-1.3069722662137055, ,0.09653808907270679,0.11502659582844943,0.09538210491017965,-0.03487109105531678,0.11394230437146276,-0.11115869281948765, ,1.1709778308868408
0.015269163190441517,0.02072165824951448,-0.09789952729494868, ,0.016428504649390267,0.02002587990028675,-0.09945793309105735, ,0.0020632035175998996, ,0.028899039741093598,0.007671199984630612,-0.09870902309452102,-0.1415414674811141,-0.09958484608554206,-0.005222358208624066, ,0.10313812606129795, ,0.17303686781318933, ,0.0012105650611287009, ,0.20174095087336685,-0.2013779824282783,0.10891687838000001,1.6789873774805866,0.5408072660716132,-1.3072767807612389, ,0.08549274014276646,0.12669818632639623,0.10145739821656052,-0.018415766046841146,-0.010509938811075217,0.013943954977823924, ,1.1737489700317383
0.015269163190441517,0.02072165824951448,-0.09789952729494868, ,0.01651271391488245,0.020024731291255444,-0.09967009017135844, ,0.002273107672048596, ,0.028899039741093598,0.007671199984630612,-0.09870902309452102,-0.1415414674811141,-0.09958484608554206,-0.005222358208624066, ,0.10313812606129795, ,0.17303686781318933, ,0.0012225037421502727, ,0.20174095087336685,-0.2013779824282783,0.10891687838000001,1.6789873774805866,0.5408072660716132,-1.3072767807612389, ,0.08549274014276646,0.12669818632639623,0.10145739821656052,-0.018415766046841146,-0.010509938811075217,0.013943954977823924, ,1.1765429973602295
0.015269163190441517,0.02072165824951448,-0.09789952729494868, ,0.016596849839483275,0.020023649195798132,-0.09988060357782444, ,0.002484880624031378, ,0.028899039741093598,0.007671199984630612,-0.09870902309452102,-0.1415414674811141,-0.09958484608554206,-0.005222358208624066, ,0.10313812606129795, ,0.17303686781318933, ,0.0012365301519489517, ,0.20174095087336685,-0.2013779824282783,0.10891687838000001,1.6789873774805866,0.5408072660716132,-1.3072767807612389, ,0.08549274014276646,0.12669818632639623,0.10145739821656052,-0.018415766046841146,-0.010509938811075217,0.013943954977823924, ,1.1793529987335205
0.015269163190441517,0.02072165824951448,-0.09789952729494868, ,0.016680911320228087,0.020022633202356102,-0.10008947820330974, ,0.002697694159748672, ,0.028899039741093598,0.007671199984630612,-0.09870902309452102,-0.1415414674811141,-0.09958484608554206,-0.005222358208624066, ,0.10313812606129795, ,0.17303686781318933, ,0.0012525868992874101, ,0.20174095087336685,-0.2013779824282783,0.10891687838000001,1.6789873774805866,0.5408072660716132,-1.3072767807612389, ,0.08549274014276646,0.12669818632639623,0.10145739821656052,-0.018415766046841146,-0.010509938811075217,0.013943954977823924, ,1.1820929050445557
0.015621624185028991,0.020785379113384222,-0.09904003835591192, ,0.016764897261689293,0.02002168290264165,-0.10029671893763577, ,0.0018626731636550346, ,0.028971979042206556,0.0038665972721847732,-0.09087975037660997,0.020942861922993192,-0.0026243438027671187,-0.031217232170731562, ,0.0954644183588957, ,0.02095928067023274, ,0.0012592182717261885, ,0.20295341993462013,-0.19970987212744581,0.11009002083000001,1.6781486177066482,0.5413538120706751,-1.3082942035570087, ,0.10945437319316122,0.14532456593946522,0.09369889129411767,-0.033776057665688905,0.11433475630238994,-0.17286482221692714, ,1.1848788261413574
0.015621624185028991,0.020785379113384222,-0.09904003835591192, ,0.016848806575960648,0.02002079789162979,-0.10050233066758098, ,0.0020564191863622233, ,0.028971979042206556,0.0038665972721847732,-0.09087975037660997,0.020942861922993192,-0.0026243438027671187,-0.031217232170731562, ,0.0954644183588957, ,0.02095928067023274, ,0.0012677903245717373, ,0.20295341993462013,-0.19970987212744581,0.11009002083000001,1.6781486177066482,0.5413538120706751,-1.3082942035570087, ,0.10945437319316122,0.14532456593946522,0.09369889129411767,-0.033776057665688905,0.11433475630238994,-0.17286482221692714, ,1.1875970363616943
0.015621624185028991,0.020785379113384222,-0.09904003835591192, ,0.01693263818264239,0.020019977767551482,-0.10070631827687246, ,0.002254126371155151, ,0.028971979042206556,0.0038665972721847732,-0.09087975037660997,0.020942861922993192,-0.0026243438027671187,-0.031217232170731562, ,0.0954644183588957, ,0.02095928067023274, ,0.0012782832612375184, ,0.20295341993462013,-0.19970987212744581,0.11009002083000001,1.6781486177066482,0.5413538120706751,-1.3082942035570087, ,0.10945437319316122,0.14532456593946522,0.09369889129411767,-0.033776057665688905,0.11433475630238994,-0.17286482221692714, ,1.1903049945831299
0.015900494541180383,0.020806658666764313,-0.09987298785868347, ,0.01701639100882573,0.020019222131885,-0.10090868664617672, ,0.0017140458574323788, ,0.028971979042206556,0.0038665972721847732,-0.09087975037660997,0.020942861922993192,-0.0026243438027671187,-0.031217232170731562, ,0.0954644183588957, ,0.02095928067023274, ,0.0012828702359343064, ,0.20412727533150224,-0.1982888892785885,0.11095075739000002,1.6768904780457412,0.5429934500678604,-1.310693042023193, ,0.13235277762687694,0.14532456593946522,0.0773243277669903,-0.12021743993497729,0.1622757179091263,-0.23345094824456564, ,1.1932759284973145
0.015900494541180383,0.020806658666764313,-0.09987298785868347, ,0.017100063989077888,0.020018530589349243,-0.10110944065309056, ,0.0018944466842685788, ,0.027774901958989847,-1.863301118378187e-05,-0.07470864884808005,0.06362502181971796,0.0051776557336571495,0.04096851346152276, ,0.07970462808850147, ,0.06381711533375146, ,0.0012892408239377883, ,0.20412727533150224,-0.1982888892785885,0.11095075739000002,1.6768904780457412,0.5429934500678604,-1.310693042023193, ,0.13235277762687694,0.14532456593946522,0.0773243277669903,-0.12021743993497729,0.1622757179091263,-0.23345094824456564, ,1.196091890335083
0.015900494541180383,0.020806658666764313,-0.09987298785868347, ,0.01718365606542656,0.020017902747895205,-0.10130858517213166, ,0.0020807640527547794, ,0.027774901958989847,-1.863301118378187e-05,-0.07470864884808005,0.06362502181971796,0.0051776557336571495,0.04096851346152276, ,0.07970462808850147, ,0.06381711533375146, ,0.0012974008572245615, ,0.20412727533150224,-0.1982888892785885,0.11095075739000002,1.6768904780457412,0.5429934500678604,-1.310693042023193, ,0.13235277762687694,0.14532456593946522,0.0773243277669903,-0.12021743993497729,0.1622757179091263,-0.23345094824456564, ,1.198840856552124
0.015900494541180383,0.020806658666764313,-0.09987298785868347, ,0.01726716618734518,0.02001733821869926,-0.10150612507473065, ,0.0022711132346500853, ,0.027774901958989847,-1.863301118378187e-05,-0.07470864884808005,0.06362502181971796,0.0051776557336571495,0.04096851346152276, ,0.07970462808850147, ,0.06381711533375146, ,0.0013073366978105362, ,0.20412727533150224,-0.1982888892785885,0.11095075739000002,1.6768904780457412,0.5429934500678604,-1.310693042023193, ,0.13235277762687694,0.14532456593946522,0.0773243277669903,-0.12021743993497729,0.1622757179091263,-0.23345094824456564, ,1.2020800113677979
0.01610152610022449,0.02079559436549394,-0.10037433889590729, ,0.017350593311737394,0.020016836616155106,-0.10170206522922107, ,0.002464169097974452, ,0.02773423430528913,-0.0031332021093438685,-0.0636536491688477,-0.012750254870302489,-0.04336863398069777,-0.013110349040344475, ,0.06950389744805265, ,0.04519250393628441, ,0.0013190218735697678, ,0.20513895333802565,-0.19718453847757442,0.11146927339000001,1.676680788102257,0.5439499055662184,-1.3119630397899111, ,0.14874128770920184,0.15556875665323078,0.06582153520661158,-0.04728812597687803,0.11559743584247507,-0.15066511722219872, ,1.2055549621582031
0.01610152610022449,0.02079559436549394,-0.10037433889590729, ,0.017433936402921808,0.020016397557865672,-0.10189641050083038, ,0.0021677561786938165, ,0.02773423430528913,-0.0031332021093438685,-0.0636536491688477,-0.012750254870302489,-0.04336863398069777,-0.013110349040344475, ,0.06950389744805265, ,0.04519250393628441, ,0.0013275092166210084, ,0.20513895333802565,-0.19718453847757442,0.11146927339000001,1.676680788102257,0.5439499055662184,-1.3119630397899111, ,0.14874128770920184,0.15556875665323078,0.06582153520661158,-0.04728812597687803,0.11559743584247507,-0.15066511722219872, ,1.208711862564087
0.01610152610022449,0.02079559436549394,-0.10037433889590729, ,0.01751719443261702,0.02001602066463638,-0.10208916575167153, ,0.002356370753438021, ,0.02773423430528913,-0.0031332021093438685,-0.0636536491688477,-0.012750254870302489,-0.04336863398069777,-0.013110349040344475, ,0.06950389744805265, ,0.04519250393628441, ,0.001337695964510286, ,0.20513895333802565,-0.19718453847757442,0.11146927339000001,1.676680788102257,0.5439499055662184,-1.3119630397899111, ,0.14874128770920184,0.15556875665323078,0.06582153520661158,-0.04728812597687803,0.11559743584247507,-0.15066511722219872, ,1.2115809917449951
0.016469409377987757,0.02074060274813723,-0.1011533137820178, ,0.01760036637992622,0.02001570556046674,-0.1022803358407332, ,0.0017534874946110457, ,0.02747180687916531,-0.005011697864418896,-0.05534993707556854,-0.060497809036715484,-0.07566880268013233,-0.04685418993619855, ,0.06199542582287642, ,0.09687741272949768, ,0.0013417723520602932, ,0.2072009230154436,-0.19511484606728224,0.11227556577000002,1.676471098158772,0.5451796340641073,-1.3132925158837414, ,0.15763611554563253,0.157374695785192,0.057297883165467633,0.0,0.08286084216114016,-0.09384336053882594, ,1.2143759727478027
0.016469409377987757,0.02074060274813723,-0.1011533137820178, ,0.017683451231322374,0.020015451872543732,-0.10246992562387168, ,0.0019321511732087679, ,0.02747180687916531,-0.005011697864418896,-0.05534993707556854,-0.060497809036715484,-0.07566880268013233,-0.04685418993619855, ,0.06199542582287642, ,0.09687741272949768, ,0.001347504185275327, ,0.2072009230154436,-0.19511484606728224,0.11227556577000002,1.676471098158772,0.5451796340641073,-1.3132925158837414, ,0.15763611554563253,0.157374695785192,0.057297883165467633,0.0,0.08286084216114016,-0.09384336053882594, ,1.2171618938446045
0.016469409377987757,0.02074060274813723,-0.1011533137820178, ,0.017766447980632427,0.02001525923123285,-0.10265793995380064, ,0.0021147889424430796, ,0.02747180687916531,-0.005011697864418896,-0.05534993707556854,-0.060497809036715484,-0.07566880268013233,-0.04685418993619855, ,0.06199542582287642, ,0.09687741272949768, ,0.001354881923325017, ,0.2072009230154436,-0.19511484606728224,0.11227556577000002,1.676471098158772,0.5451796340641073,-1.3132925158837414, ,0.15763611554563253,0.157374695785192,0.057297883165467633,0.0,0.08286084216114016,-0.09384336053882594, ,1.2199020385742188
0.016469409377987757,0.02074060274813723,-0.1011533137820178, ,0.017849355629022633,0.020015127270071344,-0.10284438368008313, ,0.002300061678556205, ,0.02747180687916531,-0.005011697864418896,-0.05534993707556854,-0.060497809036715484,-0.07566880268013233,-0.04685418993619855, ,0.06199542582287642, ,0.09687741272949768, ,0.0013638836352795997, ,0.2072009230154436,-0.19511484606728224,0.11227556577000002,1.676471098158772,0.5451796340641073,-1.3132925158837414, ,0.15763611554563253,0.157374695785192,0.057297883165467633,0.0,0.08286084216114016,-0.09384336053882594, ,1.2226710319519043
0.016737967031445793,0.020685229315005948,-0.10169327504425354, ,0.017932173184983243,0.02001505562576069,-0.10302926164912184, ,0.0019131443540127376, ,0.025388299917299947,-0.006244152474336351,-0.052002480419340726,-0.05868205676738566,-0.043509286187275474,-0.03596311408200814, ,0.05820492404064667, ,0.07304971920724194, ,0.0013690653401733086, ,0.2087454695902885,-0.19351624036231777,0.11283426676000001,1.676680788102257,0.5461360895624655,-1.3141541199497568, ,0.1444397892822995,0.1602988877676871,0.05363236202020203,-0.009602006880063092,0.10417574308342804,-0.09935572808086729, ,1.2253849506378174
0.016737967031445793,0.020685229315005948,-0.10169327504425354, ,0.01801489966431316,0.02001504393815852,-0.10321257870415079, ,0.0020947527298463865, ,0.025388299917299947,-0.006244152474336351,-0.052002480419340726,-0.05868205676738566,-0.043509286187275474,-0.03596311408200814, ,0.05820492404064667, ,0.07304971920724194, ,0.00137584746531044, ,0.2087454695902885,-0.19351624036231777,0.11283426676000001,1.676680788102257,0.5461360895624655,-1.3141541199497568, ,0.1444397892822995,0.1602988877676871,0.05363236202020203,-0.009602006880063092,0.10417574308342804,-0.09935572808086729, ,1.228186845779419
0.016737967031445793,0.020685229315005948,-0.10169327504425354, ,0.018097534090105012,0.02001509185027128,-0.1033943396852254, ,0.002278404643911396, ,0.025388299917299947,-0.006244152474336351,-0.052002480419340726,-0.05868205676738566,-0.043509286187275474,-0.03596311408200814, ,0.05820492404064667, ,0.07304971920724194, ,0.001384204476223412, ,0.2087454695902885,-0.19351624036231777,0.11283426676000001,1.676680788102257,0.5461360895624655,-1.3141541199497568, ,0.1444397892822995,0.1602988877676871,0.05363236202020203,-0.009602006880063092,0.10417574308342804,-0.09935572808086729, ,1.2309539318084717
0.01698757493649381,0.020614864418915024,-0.1022390215127559, ,0.01818007549272975,0.020015199008246314,-0.10357454942921432, ,0.0018881978172361185, ,0.025870475759235668,-0.006650848326570775,-0.06094289469466818,-0.021578617455793845,0.03586799255385629,0.014409469735925632, ,0.06653985056518887, ,0.041848643595771534, ,0.0013888282683427948, ,0.21012783877477467,-0.19183268459573682,0.11339556033,1.6758420283283186,0.5476390910598853,-1.3155430743706986, ,0.1359555036654309,0.17638836720905351,0.06271185637795276,-0.07048198580233138,0.1878644393022759,-0.16323144079279994, ,1.2339730262756348
0.01698757493649381,0.020614864418915024,-0.1022390215127559, ,0.0182625229098216,0.020015365061364584,-0.1037532127697896, ,0.002068252155147751, ,0.025870475759235668,-0.006650848326570775,-0.06094289469466818,-0.021578617455793845,0.03586799255385629,0.014409469735925632, ,0.06653985056518887, ,0.041848643595771534, ,0.0013950048491319306, ,0.21012783877477467,-0.19183268459573682,0.11339556033,1.6758420283283186,0.5476390910598853,-1.3155430743706986, ,0.1359555036654309,0.17638836720905351,0.06271185637795276,-0.07048198580233138,0.1878644393022759,-0.16323144079279994, ,1.2368528842926025
0.01698757493649381,0.020614864418915024,-0.1022390215127559, ,0.01834487538626301,0.02001558966203324,-0.10393033453741854, ,0.0022498743281732106, ,0.025870475759235668,-0.006650848326570775,-0.06094289469466818,-0.021578617455793845,0.03586799255385629,0.014409469735925632, ,0.06653985056518887, ,0.041848643595771534, ,0.0014027063759701405, ,0.21012783877477467,-0.19183268459573682,0.11339556033,1.6758420283283186,0.5476390910598853,-1.3155430743706986, ,0.1359555036654309,0.17638836720905351,0.06271185637795276,-0.07048198580233138,0.1878644393022759,-0.16323144079279994, ,1.2395830154418945
0.01698757493649381,0.020614864418915024,-0.1022390215127559, ,0.018427131974169165,0.02001587246577702,-0.10410591955935349, ,0.0024323700666293714, ,0.025870475759235668,-0.006650848326570775,-0.06094289469466818,-0.021578617455793845,0.03586799255385629,0.014409469735925632, ,0.06653985056518887, ,0.041848643595771534, ,0.0014118998017795977, ,0.21012783877477467,-0.19183268459573682,0.11339556033,1.6758420283283186,0.5476390910598853,-1.3155430743706986, ,0.1359555036654309,0.17638836720905351,0.06271185637795276,-0.07048198580233138,0.1878644393022759,-0.16323144079279994, ,1.242347002029419
0.017259317261923476,0.020559306796764862,-0.10287602688237416, ,0.018509291732873075,0.020016213131231874,-0.10427997265962378, ,0.0019566426993768826, ,0.028975487844505272,-0.004504111331519019,-0.06738582970189592,-0.027179284002116725,0.005606864546436961,0.026295791095410075, ,0.07348956360822066, ,0.027726538892954244, ,0.0014167205353866532, ,0.211548821623632,-0.19013368336340744,0.11405407565000002,1.6750032685543808,0.5495520020566015,-1.3171846037625892, ,0.14920902760765847,0.1661942934474094,0.06986320842105265,-0.07994259925855511,0.17220398963679992,-0.1500116702753528, ,1.2453010082244873
0.017259317261923476,0.020559306796764862,-0.10287602688237416, ,0.018591353728910395,0.020016611320136744,-0.10445249865902693, ,0.0021340343934244327, ,0.028975487844505272,-0.004504111331519019,-0.06738582970189592,-0.027179284002116725,0.005606864546436961,0.026295791095410075, ,0.07348956360822066, ,0.027726538892954244, ,0.001423012762211546, ,0.211548821623632,-0.19013368336340744,0.11405407565000002,1.6750032685543808,0.5495520020566015,-1.3171846037625892, ,0.14920902760765847,0.1661942934474094,0.06986320842105265,-0.07994259925855511,0.17220398963679992,-0.1500116702753528, ,1.2483630180358887
0.017259317261923476,0.020559306796764862,-0.10287602688237416, ,0.018673317036004222,0.02001706669732586,-0.10462350237511804, ,0.0023123776257956887, ,0.028975487844505272,-0.004504111331519019,-0.06738582970189592,-0.027179284002116725,0.005606864546436961,0.026295791095410075, ,0.07348956360822066, ,0.027726538892954244, ,0.0014307463697209736, ,0.211548821623632,-0.19013368336340744,0.11405407565000002,1.6750032685543808,0.5495520020566015,-1.3171846037625892, ,0.14920902760765847,0.1661942934474094,0.06986320842105265,-0.07994259925855511,0.17220398963679992,-0.1500116702753528, ,1.2513279914855957
0.017259317261923476,0.020559306796764862,-0.10287602688237416, ,0.018755180735049733,0.020017578930720883,-0.10479298862220249, ,0.002491148113430347, ,0.028975487844505272,-0.004504111331519019,-0.06738582970189592,-0.027179284002116725,0.005606864546436961,0.026295791095410075, ,0.07348956360822066, ,0.027726538892954244, ,0.0014398877640632956, ,0.211548821623632,-0.19013368336340744,0.11405407565000002,1.6750032685543808,0.5495520020566015,-1.3171846037625892, ,0.14920902760765847,0.1661942934474094,0.06986320842105265,-0.07994259925855511,0.17220398963679992,-0.1500116702753528, ,1.2549269199371338
0.0175469104843081,0.020527007139500696,-0.10351626736076903, ,0.0188369439140995,0.020018147691324546,-0.10496096221132617, ,0.0020025652047321206, ,0.03289157532839755,-0.002862790217870781,-0.0702806439863412,-0.05693448007970416,-0.06512865860285823,-0.04409736835611321, ,0.07764934136584821, ,0.08649602609835713, ,0.0014446969729579012, ,0.21303930906835733,-0.18863547318580787,0.11472036871,1.674793578610896,0.5507817305544904,-1.3181873648958569, ,0.1728541740591453,0.15842561195070248,0.07340466138248848,0.0,0.10915087412181314,-0.09689947338505268, ,1.2577149868011475
0.0175469104843081,0.020527007139500696,-0.10351626736076903, ,0.01891860566834788,0.020018772653211492,-0.10512742795026576, ,0.002176163692399775, ,0.03289157532839755,-0.002862790217870781,-0.0702806439863412,-0.05693448007970416,-0.06512865860285823,-0.04409736835611321, ,0.07764934136584821, ,0.08649602609835713, ,0.001450895843461646, ,0.21303930906835733,-0.18863547318580787,0.11472036871,1.674793578610896,0.5507817305544904,-1.3181873648958569, ,0.1728541740591453,0.15842561195070248,0.07340466138248848,0.0,0.10915087412181314,-0.09689947338505268, ,1.2605030536651611
0.0175469104843081,0.020527007139500696,-0.10351626736076903, ,0.019000165100116085,0.020019453493521532,-0.1052923906435214, ,0.0023503560575897867, ,0.03289157532839755,-0.002862790217870781,-0.0702806439863412,-0.05693448007970416,-0.06512865860285823,-0.04409736835611321, ,0.07764934136584821, ,0.08649602609835713, ,0.001458454332656, ,0.21303930906835733,-0.18863547318580787,0.11472036871,1.674793578610896,0.5507817305544904,-1.3181873648958569, ,0.1728541740591453,0.15842561195070248,0.07340466138248848,0.0,0.10915087412181314,-0.09689947338505268, ,1.2632529735565186
0.017981712936748596,0.020491945850467593,-0.1044336850859353, ,0.019081621318837,0.020020189892451985,-0.105455855092306, ,0.0015739071303083375, ,0.03529023616691079,-0.0030131855904351,-0.07312825469958698,-0.07035790975993508,-0.08723520500435399,-0.042415354834284116, ,0.08125405646197861, ,0.11206304079045651, ,0.0014594164393031028, ,0.21303930906835733,-0.18863547318580787,0.11472036871,1.674793578610896,0.5507817305544904,-1.3181873648958569, ,0.1728541740591453,0.15842561195070248,0.07340466138248848,0.0,0.10915087412181314,-0.09689947338505268, ,1.2660188674926758
0.017981712936748596,0.020491945850467593,-0.1044336850859353, ,0.019162973441040013,0.020020981533249677,-0.10561782609453702, ,0.0017376345114389394, ,0.03529023616691079,-0.0030131855904351,-0.07312825469958698,-0.07035790975993508,-0.08723520500435399,-0.042415354834284116, ,0.08125405646197861, ,0.11206304079045651, ,0.0014617157622133163, ,0.21530979253337934,-0.1865966717070126,0.11567962331000001,1.6750032685543808,0.5520114590523794,-1.3191901260291246, ,0.18534558898138823,0.16249476294258697,0.07658082461538462,-0.001871865997809892,0.099822727787936,-0.0877551689191733, ,1.2687489986419678
0.017981712936748596,0.020491945850467593,-0.1044336850859353, ,0.019244220590335807,0.020021828102203952,-0.1057783084448275, ,0.0019034043842224638, ,0.03529023616691079,-0.0030131855904351,-0.07312825469958698,-0.07035790975993508,-0.08723520500435399,-0.042415354834284116, ,0.08125405646197861, ,0.11206304079045651, ,0.001465336160754375, ,0.21530979253337934,-0.1865966717070126,0.11567962331000001,1.6750032685543808,0.5520114590523794,-1.3191901260291246, ,0.18534558898138823,0.16249476294258697,0.07658082461538462,-0.001871865997809892,0.099822727787936,-0.0877551689191733, ,1.2714948654174805
0.017981712936748596,0.020491945850467593,-0.1044336850859353, ,0.019325361897401364,0.02002272928863831,-0.10593730693447606, ,0.002070370830254159, ,0.03529023616691079,-0.0030131855904351,-0.07312825469958698,-0.07035790975993508,-0.08723520500435399,-0.042415354834284116, ,0.08125405646197861, ,0.11206304079045651, ,0.0014702551418072187, ,0.21530979253337934,-0.1865966717070126,0.11567962331000001,1.6750032685543808,0.5520114590523794,-1.3191901260291246, ,0.18534558898138823,0.16249476294258697,0.07658082461538462,-0.001871865997809892,0.099822727787936,-0.0877551689191733, ,1.2743580341339111
0.018323480063876244,0.020458160062820616,-0.10512239302551184, ,0.019406396499964666,0.02002368478490348,-0.10609482635145925, ,0.001518915187916948, ,0.03303043137294558,-0.0036770383021160237,-0.06327298822864053,0.0014126393773041656,-0.017593963799265887,-0.043172148308550144, ,0.0714702808637253, ,0.01762183266921857, ,0.00147064756153391, ,0.21717097115606743,-0.18502895693354504,0.11640424942000001,1.674793578610896,0.5535144605497992,-1.3204157229697853, ,0.18717345475043548,0.1496797185464839,0.06692777949579834,-0.003996686252466728,0.17273002850292152,-0.14635085879972431, ,1.2784719467163086
0.018323480063876244,0.020458160062820616,-0.10512239302551184, ,0.01948732354278966,0.020024694286369476,-0.1062508714804219, ,0.001678060739651537, ,0.03303043137294558,-0.0036770383021160237,-0.06327298822864053,0.0014126393773041656,-0.017593963799265887,-0.043172148308550144, ,0.0714702808637253, ,0.01762183266921857, ,0.0014723068669588511, ,0.21717097115606743,-0.18502895693354504,0.11640424942000001,1.674793578610896,0.5535144605497992,-1.3204157229697853, ,0.18717345475043548,0.1496797185464839,0.06692777949579834,-0.003996686252466728,0.17273002850292152,-0.14635085879972431, ,1.2811939716339111
0.018323480063876244,0.020458160062820616,-0.10512239302551184, ,0.019568142177661098,0.020025757491418134,-0.10640544710266787, ,0.001839125750500381, ,0.03303043137294558,-0.0036770383021160237,-0.06327298822864053,0.0014126393773041656,-0.017593963799265887,-0.043172148308550144, ,0.0714702808637253, ,0.01762183266921857, ,0.0014752181279393394, ,0.21717097115606743,-0.18502895693354504,0.11640424942000001,1.674793578610896,0.5535144605497992,-1.3204157229697853, ,0.18717345475043548,0.1496797185464839,0.06692777949579834,-0.003996686252466728,0.17273002850292152,-0.14635085879972431, ,1.283890962600708
0.018636231185421036,0.020414254386105776,-0.10568214287281975, ,0.019648851563369242,0.020026874101435208,-0.10655855799615097, ,0.001394118712015258, ,0.030937328244816226,-0.0052614795448551,-0.05220076695512218,-0.05917393668513725,-0.09192900317570174,0.012683773769963885, ,0.06090748325642267, ,0.10932570057911258, ,0.0014745795498611969, ,0.21898581338151019,-0.1836311422833104,0.11699665395000002,1.6741645087804424,0.5547441890476882,-1.3214184841030532, ,0.18355307844965332,0.1407966491965442,0.055308373333333334,-0.05490295325030053,0.10303863337783882,-0.08889349924929978, ,1.2867100238800049
0.018636231185421036,0.020414254386105776,-0.10568214287281975, ,0.01972945086569502,0.020028043820803292,-0.10671020893546627, ,0.0015495830727183166, ,0.030937328244816226,-0.0052614795448551,-0.05220076695512218,-0.05917393668513725,-0.09192900317570174,0.012683773769963885, ,0.06090748325642267, ,0.10932570057911258, ,0.0014751655148835183, ,0.21898581338151019,-0.1836311422833104,0.11699665395000002,1.6741645087804424,0.5547441890476882,-1.3214184841030532, ,0.18355307844965332,0.1407966491965442,0.055308373333333334,-0.05490295325030053,0.10303863337783882,-0.08889349924929978, ,1.2895259857177734
0.018636231185421036,0.020414254386105776,-0.10568214287281975, ,0.019809939257394535,0.020029266356893637,-0.10686040469184131, ,0.0017070756676305792, ,0.030937328244816226,-0.0052614795448551,-0.05220076695512218,-0.05917393668513725,-0.09192900317570174,0.012683773769963885, ,0.06090748325642267, ,0.10932570057911258, ,0.0014769632680055886, ,0.21898581338151019,-0.1836311422833104,0.11699665395000002,1.6741645087804424,0.5547441890476882,-1.3214184841030532, ,0.18355307844965332,0.1407966491965442,0.055308373333333334,-0.05490295325030053,0.10303863337783882,-0.08889349924929978, ,1.293571949005127
0.018636231185421036,0.020414254386105776,-0.10568214287281975, ,0.01989031591818422,0.020030541420058934,-0.10700915003312593, ,0.001865720279346834, ,0.030937328244816226,-0.0052614795448551,-0.05220076695512218,-0.05917393668513725,-0.09192900317570174,0.012683773769963885, ,0.06090748325642267, ,0.10932570057911258, ,0.0014799537065543675, ,0.21898581338151019,-0.1836311422833104,0.11699665395000002,1.6741645087804424,0.5547441890476882,-1.3214184841030532, ,0.18355307844965332,0.1407966491965442,0.055308373333333334,-0.05490295325030053,0.10303863337783882,-0.08889349924929978, ,1.2964708805084229
0.018779736097348277,0.020388603191337944,-0.1059188940015168, ,0.019970580034725537,0.02003186872362566,-0.10715644972378496, ,0.0017541131461113948, ,0.03052748066639758,-0.005541269460253175,-0.0493246488857356,-0.06468603277196727,-0.10206215357217324,0.024332632209383195, ,0.05827138003144863, ,0.12083324902448465, ,0.0014820465267036578, ,0.21985075946342333,-0.1829747099890013,0.11724813421000001,1.6739548188369582,0.55529073504675,-1.3218641557178388, ,0.1842659059387782,0.13733276636537015,0.05239740631578948,-0.06572672016962332,0.0954406648646356,-0.08244171875133717, ,1.300096035003662
0.018779736097348277,0.020388603191337944,-0.1059188940015168, ,0.02005073080060995,0.020033247983886573,-0.10730230852488715, ,0.0019119468095776188, ,0.03052748066639758,-0.005541269460253175,-0.0493246488857356,-0.06468603277196727,-0.10206215357217324,0.024332632209383195, ,0.05827138003144863, ,0.12083324902448465, ,0.0014853033470284605, ,0.21985075946342333,-0.1829747099890013,0.11724813421000001,1.6739548188369582,0.55529073504675,-1.3218641557178388, ,0.1842659059387782,0.13733276636537015,0.05239740631578948,-0.06572672016962332,0.0954406648646356,-0.08244171875133717, ,1.3028819561004639
0.019237938693383895,0.02031164840735769,-0.10664737685999245, ,0.02013076741634375,0.020034678920092783,-0.10744673119409832, ,0.0012299685267809692, ,0.026453384201114472,-0.0038910285327385923,-0.040993428240182636,-0.022888010360412204,-0.06679411970669849,-0.053381137152794335, ,0.048942648044597685, ,0.07060594650786474, ,0.001483383536349908, ,0.21985075946342333,-0.1829747099890013,0.11724813421000001,1.6739548188369582,0.55529073504675,-1.3218641557178388, ,0.1842659059387782,0.13733276636537015,0.05239740631578948,-0.06572672016962332,0.0954406648646356,-0.08244171875133717, ,1.306445837020874
0.019237938693383895,0.02031164840735769,-0.10664737685999245, ,0.020210689089332656,0.020036161254446214,-0.10758972248567017, ,0.0013820824079886363, ,0.026453384201114472,-0.0038910285327385923,-0.040993428240182636,-0.022888010360412204,-0.06679411970669849,-0.053381137152794335, ,0.048942648044597685, ,0.07060594650786474, ,0.0014826275577800479, ,0.22263094329814417,-0.18096679944170294,0.11802590821000002,1.6737451288934733,0.5569303730439352,-1.3232011705621958, ,0.16111535069349878,0.10996169357876104,0.04400224176795581,0.021633091894534176,0.09166851407941336,-0.0786740608921677, ,1.3093440532684326
0.019237938693383895,0.02031164840735769,-0.10664737685999245, ,0.020290495033867297,0.02003769471209256,-0.10773128715043298, ,0.0015355087087880995, ,0.026453384201114472,-0.0038910285327385923,-0.040993428240182636,-0.022888010360412204,-0.06679411970669849,-0.053381137152794335, ,0.048942648044597685, ,0.07060594650786474, ,0.0014830192700097371, ,0.22263094329814417,-0.18096679944170294,0.11802590821000002,1.6737451288934733,0.5569303730439352,-1.3232011705621958, ,0.16111535069349878,0.10996169357876104,0.04400224176795581,0.021633091894534176,0.09166851407941336,-0.0786740608921677, ,1.312134027481079
0.019237938693383895,0.02031164840735769,-0.10664737685999245, ,0.02037018447110738,0.020039279021112823,-0.10787142993578566, ,0.0016895181313306092, ,0.026453384201114472,-0.0038910285327385923,-0.040993428240182636,-0.022888010360412204,-0.06679411970669849,-0.053381137152794335, ,0.048942648044597685, ,0.07060594650786474, ,0.0014845376439900377, ,0.22263094329814417,-0.18096679944170294,0.11802590821000002,1.6737451288934733,0.5569303730439352,-1.3232011705621958, ,0.16111535069349878,0.10996169357876104,0.04400224176795581,0.021633091894534176,0.09166851407941336,-0.0786740608921677, ,1.314903974533081
0.01951670297481251,0.020271805483595105,-0.10707530013474083, ,0.020449756629067055,0.020040913912516455,-0.10801015558568686, ,0.0013408410619743236, ,0.028059440584764457,-0.0037344400048953752,-0.043890856102109486,-0.010475497661621539,-0.054673762838958195,-0.04961955487104262, ,0.05222724861081782, ,0.05566680800344142, ,0.0014834887638293392, ,0.22432994453047356,-0.17983928044206615,0.11848609116000001,1.6737451288934733,0.5578868285422933,-1.3240627746282114, ,0.16976197058760426,0.11270420612644985,0.04726650302670624,0.015857768647154682,0.11383803363535422,-0.0945082712810756, ,1.3176169395446777
0.01951670297481251,0.020271805483595105,-0.10707530013474083, ,0.020529210742599648,0.02004259912023347,-0.10814746884064597, ,0.0014923984959644859, ,0.028059440584764457,-0.0037344400048953752,-0.043890856102109486,-0.010475497661621539,-0.054673762838958195,-0.04961955487104262, ,0.05222724861081782, ,0.05566680800344142, ,0.001483553327105681, ,0.22432994453047356,-0.17983928044206615,0.11848609116000001,1.6737451288934733,0.5578868285422933,-1.3240627746282114, ,0.16976197058760426,0.11270420612644985,0.04726650302670624,0.015857768647154682,0.11383803363535422,-0.0945082712810756, ,1.320361852645874
0.01951670297481251,0.020271805483595105,-0.10707530013474083, ,0.020608546053382356,0.02004433438110665,-0.10828337443771442, ,0.0016441739361130045, ,0.028059440584764457,-0.0037344400048953752,-0.043890856102109486,-0.010475497661621539,-0.054673762838958195,-0.04961955487104262, ,0.05222724861081782, ,0.05566680800344142, ,0.0014847088710553738, ,0.22432994453047356,-0.17983928044206615,0.11848609116000001,1.6737451288934733,0.5578868285422933,-1.3240627746282114, ,0.16976197058760426,0.11270420612644985,0.04726650302670624,0.015857768647154682,0.11383803363535422,-0.0945082712810756, ,1.3231170177459717
0.01951670297481251,0.020271805483595105,-0.10707530013474083, ,0.02068776180990125,0.020046119434884147,-0.10841787711047594, ,0.0017957800320741435, ,0.0280229331393623,-0.0018456516721619136,-0.048508302870323525,0.047034597118796866,0.009685537114249302,-0.037005090682262654, ,0.05605128597264439, ,0.04801868772837417, ,0.0014869308079197936, ,0.22599033209843183,-0.17873492964105206,0.11899553313000001,1.6739548188369582,0.5593898300397131,-1.325288371568872, ,0.16277348466290012,0.10203972210588257,0.05239740631578948,0.0,0.1749418223627677,-0.14420024887054433, ,1.3261809349060059
0.019798970814368034,0.020243160912720905,-0.10754830691128414, ,0.020766857267436416,0.020047954024212465,-0.10855098158903823, ,0.001407219394680054, ,0.0280229331393623,-0.0018456516721619136,-0.048508302870323525,0.047034597118796866,0.009685537114249302,-0.037005090682262654, ,0.05605128597264439, ,0.04801868772837417, ,0.0014863654787478804, ,0.22599033209843183,-0.17873492964105206,0.11899553313000001,1.6739548188369582,0.5593898300397131,-1.325288371568872, ,0.16277348466290012,0.10203972210588257,0.05239740631578948,0.0,0.1749418223627677,-0.14420024887054433, ,1.3294789791107178
0.019798970814368034,0.020243160912720905,-0.10754830691128414, ,0.02084583168804628,0.02004983789462755,-0.10868269260002361, ,0.0015556742489930284, ,0.0280229331393623,-0.0018456516721619136,-0.048508302870323525,0.047034597118796866,0.009685537114249302,-0.037005090682262654, ,0.05605128597264439, ,0.04801868772837417, ,0.0014868535686791845, ,0.22599033209843183,-0.17873492964105206,0.11899553313000001,1.6739548188369582,0.5593898300397131,-1.325288371568872, ,0.16277348466290012,0.10203972210588257,0.05239740631578948,0.0,0.1749418223627677,-0.14420024887054433, ,1.332312822341919
0.019798970814368034,0.020243160912720905,-0.10754830691128414, ,0.020924684340552783,0.020051770794548264,-0.10881301486655971, ,0.0017039211638179609, ,0.0280229331393623,-0.0018456516721619136,-0.048508302870323525,0.047034597118796866,0.009685537114249302,-0.037005090682262654, ,0.05605128597264439, ,0.04801868772837417, ,0.001488371523889945, ,0.22599033209843183,-0.17873492964105206,0.11899553313000001,1.6739548188369582,0.5593898300397131,-1.325288371568872, ,0.16277348466290012,0.10203972210588257,0.05239740631578948,0.0,0.1749418223627677,-0.14420024887054433, ,1.3351829051971436
0.020070626699556688,0.020230590913175747,-0.10801180803912278, ,0.021003414500526427,0.020053752475268687,-0.10894195310827103, ,0.0013291105162552036, ,0.0270545883706745,-0.0007773164389974155,-0.043923567817952,0.05483151769422321,0.0002641073947660878,-0.02718810258371203, ,0.0515929722211388, ,0.05483066292278394, ,0.0014872655446702592, ,0.22758121507052206,-0.17781592442901933,0.11949849365000001,1.6737451288934733,0.5611661045366639,-1.3266551255767849, ,0.16138935639195712,0.08405397835116987,0.047978347951807235,-0.00544444968892887,0.1649221856825604,-0.1358286702132912, ,1.3381788730621338
0.020070626699556688,0.020230590913175747,-0.10801180803912278, ,0.021082021450270803,0.020055782690949927,-0.10906951204126947, ,0.001473843618735362, ,0.0270545883706745,-0.0007773164389974155,-0.043923567817952,0.05483151769422321,0.0002641073947660878,-0.02718810258371203, ,0.0515929722211388, ,0.05483066292278394, ,0.0014871729796638118, ,0.22758121507052206,-0.17781592442901933,0.11949849365000001,1.6737451288934733,0.5611661045366639,-1.3266551255767849, ,0.16138935639195712,0.08405397835116987,0.047978347951807235,-0.00544444968892887,0.1649221856825604,-0.1358286702132912, ,1.3412129878997803
0.020070626699556688,0.020230590913175747,-0.10801180803912278, ,0.02116050447880763,0.02005786119861323,-0.10919569637814547, ,0.0016184130274042292, ,0.0270545883706745,-0.0007773164389974155,-0.043923567817952,0.05483151769422321,0.0002641073947660878,-0.02718810258371203, ,0.0515929722211388, ,0.05483066292278394, ,0.00148807188410039, ,0.22758121507052206,-0.17781592442901933,0.11949849365000001,1.6737451288934733,0.5611661045366639,-1.3266551255767849, ,0.16138935639195712,0.08405397835116987,0.047978347951807235,-0.00544444968892887,0.1649221856825604,-0.1358286702132912, ,1.3440098762512207
0.020345721269393068,0.020223000029648875,-0.10845582540994406, ,0.02123886288186161,0.02005998775813188,-0.10932051082795884, ,0.0012537766199428946, ,0.026007472606352264,-0.00040273428194268477,-0.0423992539607921,0.0053929753168515775,-0.05055764466190922,0.01918568422585351, ,0.04974180900111857, ,0.0508431174721245, ,0.0014864780387659853, ,0.22911031617961852,-0.17705137387447112,0.11995089886000002,1.6731160590630199,0.5625324695343182,-1.327769304613749, ,0.15110977955170507,0.07585686775257457,0.046304684651162796,-0.04641582323365717,0.11504035806880507,-0.09238359539778065, ,1.3467838764190674
0.020345721269393068,0.020223000029648875,-0.10845582540994406, ,0.021317095961845386,0.02006216213222399,-0.1094439600962297, ,0.0013949364790648055, ,0.026007472606352264,-0.00040273428194268477,-0.0423992539607921,0.0053929753168515775,-0.05055764466190922,0.01918568422585351, ,0.04974180900111857, ,0.0508431174721245, ,0.0014858595147139502, ,0.22911031617961852,-0.17705137387447112,0.11995089886000002,1.6731160590630199,0.5625324695343182,-1.327769304613749, ,0.15110977955170507,0.07585686775257457,0.046304684651162796,-0.04641582323365717,0.11504035806880507,-0.09238359539778065, ,1.3495149612426758
0.020345721269393068,0.020223000029648875,-0.10845582540994406, ,0.021395203027844353,0.02006438408644477,-0.1095660488849301, ,0.0015359580538447716, ,0.026007472606352264,-0.00040273428194268477,-0.0423992539607921,0.0053929753168515775,-0.05055764466190922,0.01918568422585351, ,0.04974180900111857, ,0.0508431174721245, ,0.0014861957465201973, ,0.22911031617961852,-0.17705137387447112,0.11995089886000002,1.6731160590630199,0.5625324695343182,-1.327769304613749, ,0.15110977955170507,0.07585686775257457,0.046304684651162796,-0.04641582323365717,0.11504035806880507,-0.09238359539778065, ,1.3522589206695557
0.020345721269393068,0.020223000029648875,-0.10845582540994406, ,0.021473183395601343,0.02006665338917851,-0.10968678189247366, ,0.001676564636362736, ,0.026007472606352264,-0.00040273428194268477,-0.0423992539607921,0.0053929753168515775,-0.05055764466190922,0.01918568422585351, ,0.04974180900111857, ,0.0508431174721245, ,0.001487464872452481, ,0.22911031617961852,-0.17705137387447112,0.11995089886000002,1.6731160590630199,0.5625324695343182,-1.327769304613749, ,0.15110977955170507,0.07585686775257457,0.046304684651162796,-0.04641582323365717,0.11504035806880507,-0.09238359539778065, ,1.354982852935791
0.02061025926771721,0.02022542831029911,-0.1089034514186837, ,0.021551036387501835,0.020068969811631896,-0.10980616381370785, ,0.0013131757380661956, ,0.027262812939988116,0.0008919776737245126,-0.04735421987694122,-0.01093596213237272,-0.06806040709845228,0.03359223023508049, ,0.05464868464771042, ,0.06893167750393672, ,0.001486310639774426, ,0.23068575368596034,-0.176255932388426,0.12046941486000001,1.6729063691195354,0.5636255615324419,-1.3284972903630394, ,0.14850851574095583,0.07076580280273734,0.05138326296774194,-0.05767805000771165,0.09184082490474631,-0.06949365262621954, ,1.3577299118041992
0.02061025926771721,0.02022542831029911,-0.1089034514186837, ,0.021628761332558685,0.02007133312782569,-0.10992419933990444, ,0.0014501786441760657, ,0.027262812939988116,0.0008919776737245126,-0.04735421987694122,-0.01093596213237272,-0.06806040709845228,0.03359223023508049, ,0.05464868464771042, ,0.06893167750393672, ,0.0014860729292770682, ,0.23068575368596034,-0.176255932388426,0.12046941486000001,1.6729063691195354,0.5636255615324419,-1.3284972903630394, ,0.14850851574095583,0.07076580280273734,0.05138326296774194,-0.05767805000771165,0.09184082490474631,-0.06949365262621954, ,1.3605070114135742
0.02061025926771721,0.02022542831029911,-0.1089034514186837, ,0.02170635756639685,0.020073743114587116,-0.11004089315874983, ,0.0015868880209426461, ,0.027262812939988116,0.0008919776737245126,-0.04735421987694122,-0.01093596213237272,-0.06806040709845228,0.03359223023508049, ,0.05464868464771042, ,0.06893167750393672, ,0.0014867318514448172, ,0.23068575368596034,-0.176255932388426,0.12046941486000001,1.6729063691195354,0.5636255615324419,-1.3284972903630394, ,0.14850851574095583,0.07076580280273734,0.05138326296774194,-0.05767805000771165,0.09184082490474631,-0.06949365262621954, ,1.3632829189300537
0.020883414734096245,0.020247032522412178,-0.10937034467756511, ,0.02178382443123863,0.02007619955154322,-0.11015624995433745, ,0.0012072980703631427, ,0.027642011422156377,0.003416570118942664,-0.04710844564776055,0.06236198116313816,-0.017052165083153995,-0.05338199081478526, ,0.054726222217400367, ,0.06464952455717392, ,0.0014849173463728584, ,0.2321916865964341,-0.17564583649136226,0.12098015312000002,1.6729063691195354,0.5647186535305654,-1.3293069548524703, ,0.15330685227539706,0.05214117668047844,0.05188537954397395,0.03363775310966598,0.1321828738651098,-0.10361488889500427, ,1.366508960723877
0.020883414734096245,0.020247032522412178,-0.10937034467756511, ,0.02186116127588813,0.02007870222111181,-0.11027027440715709, ,0.0013394763560904503, ,0.027642011422156377,0.003416570118942664,-0.04710844564776055,0.06236198116313816,-0.017052165083153995,-0.05338199081478526, ,0.054726222217400367, ,0.06464952455717392, ,0.0014839790174032944, ,0.2321916865964341,-0.17564583649136226,0.12098015312000002,1.6729063691195354,0.5647186535305654,-1.3293069548524703, ,0.15330685227539706,0.05214117668047844,0.05188537954397395,0.03363775310966598,0.1321828738651098,-0.10361488889500427, ,1.3695259094238281
0.020883414734096245,0.020247032522412178,-0.10937034467756511, ,0.0219383674557164,0.020081250908495225,-0.11038297119408742, ,0.001471672942718862, ,0.027642011422156377,0.003416570118942664,-0.04710844564776055,0.06236198116313816,-0.017052165083153995,-0.05338199081478526, ,0.054726222217400367, ,0.06464952455717392, ,0.0014839001323091634, ,0.2321916865964341,-0.17564583649136226,0.12098015312000002,1.6729063691195354,0.5647186535305654,-1.3293069548524703, ,0.15330685227539706,0.05214117668047844,0.05188537954397395,0.03363775310966598,0.1321828738651098,-0.10361488889500427, ,1.3736510276794434
0.02105936589140298,0.020270988514223234,-0.1096627799295484, ,0.02201544233264628,0.020083845401671924,-0.11049434498838585, ,0.0012808610983066004, ,0.02778863066116777,0.003602970154164141,-0.044932958221102375,0.06525056955649262,-0.018156655225142374,0.003669756656121959, ,0.05295432109331515, ,0.06772826440093337, ,0.00148260689005437, ,0.23318791913720907,-0.17534464990926749,0.12130422562000001,1.6731160590630199,0.5656751090289234,-1.3300052014382044, ,0.15949065808146348,0.04465738426280978,0.049933578432601884,-0.023951697993176004,0.14757420503543175,-0.11183015192290743, ,1.377126932144165
0.02105936589140298,0.020270988514223234,-0.1096627799295484, ,0.022092385275137263,0.020086485491389222,-0.11060440045967966, ,0.0014099005764132188, ,0.02778863066116777,0.003602970154164141,-0.044932958221102375,0.06525056955649262,-0.018156655225142374,0.003669756656121959, ,0.05295432109331515, ,0.06772826440093337, ,0.0014821467235123374, ,0.23318791913720907,-0.17534464990926749,0.12130422562000001,1.6731160590630199,0.5656751090289234,-1.3300052014382044, ,0.15949065808146348,0.04465738426280978,0.049933578432601884,-0.023951697993176004,0.14757420503543175,-0.11183015192290743, ,1.3799500465393066
0.02105936589140298,0.020270988514223234,-0.1096627799295484, ,0.022169195658170174,0.020089170971155493,-0.11071314227395722, ,0.0015388439767311396, ,0.02778863066116777,0.003602970154164141,-0.044932958221102375,0.06525056955649262,-0.018156655225142374,0.003669756656121959, ,0.05295432109331515, ,0.06772826440093337, ,0.001482503310010569, ,0.23318791913720907,-0.17534464990926749,0.12130422562000001,1.6731160590630199,0.5656751090289234,-1.3300052014382044, ,0.15949065808146348,0.04465738426280978,0.049933578432601884,-0.023951697993176004,0.14757420503543175,-0.11183015192290743, ,1.3848090171813965
0.021349175126339864,0.020309144346846334,-0.1101228736410968, ,0.022245872863232565,0.02009190163723318,-0.11082057509355961, ,0.0011567404821295375, ,0.02778863066116777,0.003602970154164141,-0.044932958221102375,0.06525056955649262,-0.018156655225142374,0.003669756656121959, ,0.05295432109331515, ,0.06772826440093337, ,0.0014804672923363126, ,0.23484830670516735,-0.17488900866968823,0.12181626017000001,1.6731160590630199,0.5670414740265779,-1.330874344254747, ,0.15949065808146348,0.04272712361930247,0.04812329764350454,-0.01746373603142113,0.12593123409178783,-0.08226949015711116, ,1.3876428604125977
0.021349175126339864,0.020309144346846334,-0.1101228736410968, ,0.022322416278302816,0.020094677288630097,-0.11092670357716936, ,0.0012803659730953939, ,0.027707649323147735,0.0034917374728960344,-0.043161166183376946,0.03943047169401197,-0.03845851022870736,0.003517966648398308, ,0.0514080959373447, ,0.05507875564023027, ,0.0014792244269994123, ,0.23484830670516735,-0.17488900866968823,0.12181626017000001,1.6731160590630199,0.5670414740265779,-1.330874344254747, ,0.15949065808146348,0.04272712361930247,0.04812329764350454,-0.01746373603142113,0.12593123409178783,-0.08226949015711116, ,1.3904030323028564
0.021349175126339864,0.020309144346846334,-0.1101228736410968, ,0.022398825297835986,0.02009749772709324,-0.11103153237980452, ,0.001404357674385221, ,0.027707649323147735,0.0034917374728960344,-0.043161166183376946,0.03943047169401197,-0.03845851022870736,0.003517966648398308, ,0.0514080959373447, ,0.05507875564023027, ,0.0014787622865511765, ,0.23484830670516735,-0.17488900866968823,0.12181626017000001,1.6731160590630199,0.5670414740265779,-1.330874344254747, ,0.15949065808146348,0.04272712361930247,0.04812329764350454,-0.01746373603142113,0.12593123409178783,-0.08226949015711116, ,1.3931670188903809
0.021349175126339864,0.020309144346846334,-0.1101228736410968, ,0.02247509932274766,0.020100362757099775,-0.11113506615280681, ,0.0015283418233613434, ,0.027707649323147735,0.0034917374728960344,-0.043161166183376946,0.03943047169401197,-0.03845851022870736,0.003517966648398308, ,0.0514080959373447, ,0.05507875564023027, ,0.0014790664554886622, ,0.23484830670516735,-0.17488900866968823,0.12181626017000001,1.6731160590630199,0.5670414740265779,-1.330874344254747, ,0.15949065808146348,0.04272712361930247,0.04812329764350454,-0.01746373603142113,0.12593123409178783,-0.08226949015711116, ,1.3962810039520264
0.021682699331658742,0.02035525344434498,-0.11063826277634026, ,0.022551237760399686,0.020103272185850875,-0.11123730954383475, ,0.0010847629171748358, ,0.02512488858375,0.0033860394252914258,-0.037467751808961065,0.006700916181901875,-0.05087133426404361,0.010089505987532622, ,0.04523889604039188, ,0.05131004860725078, ,0.001476662165620895, ,0.2367558217251008,-0.17441019923148632,0.12239181293000001,1.6731160590630199,0.5684078390242323,-1.331498450850868, ,0.14554745637802266,0.03407430576605773,0.04202852643799473,-0.012798534812686104,0.09856132364602341,-0.0392288510139801, ,1.3998959064483643
