NicholasDascanio/dvrk_moveit_final/test/execution/third_experiment_notsharpbends/thirdexp_400vel5.0/thirdexp_400vel5.0_4.csv
Current Position (x),Current Position (y),Current Position (z), ,Planned Position (x),Planned Position (y),Planned Position (z), ,Position Error,,Cartesian linear Velocity(x),Cartesian linear Velocity(y),Cartesian linear Velocity(z),Cartesian Angular Velocity(x),Cartesian Angular Velocity(y),Cartesian Angular Velocity(z), ,Total Linear Velocity, ,Total Angular Velocity, ,MSE, ,Joint 1 Position,Joint 2 Position,Joint 3 Position,Joint 4 Position,Joint 5 Position,Joint 6 Position, ,Joint 1 Velocity,Joint 2 Velocity,Joint 3 Velocity,Joint 4 Velocity,Joint 5 Velocity,Joint 6 Velocity, ,Time Stamp
0.009978502397887801,0.020500037780877584,-0.07747591509436444, ,0.010037191665213057,0.02036706591023167,-0.07761952581066066, ,0.00020432813393500592, ,-7.985799452026835e-05,-1.2883239865953924e-05,-1.3694192479184382e-05,0.007941458945128165,-5.725263721855596e-06,-0.016223323739219014, ,8.204150209436603e-05, ,0.007941461008895078, ,1.7027344494583828e-05, ,0.20961813840507587,-0.18398638799552472,0.09317084375000001,2.319380464882324,1.2670302623249292,-1.2292888760544054, ,-0.0008834997077973276,0.0,0.0,-0.0020598304614027796,0.0,-0.020039650465037084, ,0.027099132537841797
0.009985672051698757,0.020502560627487447,-0.07753271189064896, ,0.010078867352941926,0.020365701734310043,-0.07782929380063149, ,0.00033967123832381044, ,0.0006664622398607945,0.00034472759463928933,-0.0033925567929518298,0.128382997362478,-0.02075355767028008,-0.31094383526295566, ,0.003474543225385124, ,0.1300496219421582, ,2.472724419358256e-05, ,0.20961813840507587,-0.18392460613253092,0.09323176938000001,2.3187513950518706,1.2675768083239911,-1.2351253445184684, ,-0.0007081619633577654,0.002856086647127454,0.0033061045080946456,-0.005374517847239433,-0.016485378560348807,-0.34233901363053, ,0.0550229549407959
0.01002659995682892,0.02051957343376514,-0.07773182362763377, ,0.010120940492085916,0.020364300274854013,-0.07803884100811684, ,0.0003567485983006828, ,0.0018569744669730617,0.0009153615018138819,-0.008323649141619215,0.04527007126701099,-0.024567378510872956,-0.15594604437546977, ,0.008577259229076102, ,0.051506653933855666, ,2.8148374079984347e-05, ,0.20961813840507587,-0.18377787420792066,0.09341843514,2.3179126352779322,1.2658005338270404,-1.2404562472020817, ,0.0007197430937392553,0.007244639396401777,0.008279008066528067,-0.004069171089038222,-0.025954282070068616,-0.1666265912849827, ,0.08649706840515137
0.010072993924585296,0.02053423395574001,-0.07795287748099797, ,0.01016340823626279,0.020362862054448542,-0.07824816151850585, ,0.000353179471537237, ,0.0019508483810961278,5.2213685745289935e-05,-0.008842193326473737,-0.2275522269866844,-0.16077314085419783,0.14889376882753505, ,0.009054994119144483, ,0.2786180517710091, ,2.9855415288017528e-05, ,0.2096258611379501,-0.18358480588606504,0.09362065638000001,2.3168641855605094,1.2633410768312625,-1.247026992650305, ,0.0,0.01001907498004838,0.007001675393406594,-0.0617604639454363,-0.2134489332720229,0.16507529467341797, ,0.11346912384033203
0.010114969257232875,0.020541310004119386,-0.0781994124670346, ,0.010206267749491729,0.020361387595668873,-0.07845724945269053, ,0.00032739486697794864, ,0.00040931851838095924,-0.00032432879509372873,-0.004945127459087394,0.14182365827175258,0.05865374837456331,-0.1371724869203785, ,0.004972626710646666, ,0.15347381614142588, ,3.0410044405282398e-05, ,0.2096335838708243,-0.18313688737936,0.09388509954,2.315815735843087,1.2656638973272747,-1.2414066529202124, ,-0.001034507679871315,0.012821436510593335,0.0056067622386483645,-0.057813423135383624,0.1031217765323378,-0.24035612450298105, ,0.14706897735595703
0.01014479692532594,0.020539032536996862,-0.078357305580151, ,0.010249516206177344,0.020359877421077553,-0.07866609896699771, ,0.0003720430608173706, ,0.0013616624336182962,-0.00015869007315914992,-0.007042991141996762,-0.03213061318284934,-0.006607578690692713,0.05227767487371624, ,0.007175167687844752, ,0.032802993496479874, ,3.150589306277508e-05, ,0.20961813840507587,-0.1827816416671457,0.09404065434000002,2.3153963559561177,1.2656638973272747,-1.2415700104004934, ,0.0009091484470137559,0.01522492243838774,0.006928582653327534,-0.03490636451326147,0.0,0.02409881294791988, ,0.17483901977539062
0.010174278873862061,0.020540138161628155,-0.07850912221826924, ,0.010293150791093482,0.020358332053221302,-0.07887470425312304, ,0.00042524606755167714, ,0.001200661140456693,-0.00026446607033820497,-0.008836905080970582,-0.013653861624189079,-0.02260778440115398,0.05697032344441406, ,0.00892201887952758, ,0.02641097875680608, ,3.350156954146102e-05, ,0.2096335838708243,-0.18238005955768602,0.09425972735,2.314138216295211,1.2658005338270404,-1.2426615731858768, ,0.00016696413651109181,0.013951329249995703,0.008614825051379124,-0.11538855857811979,0.0,-0.05632478438011865, ,0.19977712631225586
0.010221361268007996,0.020545829573150085,-0.07877022375238386, ,0.010337168699367051,0.020356752014627947,-0.07908305953806216, ,0.00038344219003082116, ,0.0018517180732641229,0.00045926481453284295,-0.00814941097058064,0.00651788748568532,0.0009256924136901981,-0.05799328186949417, ,0.008369748094186644, ,0.006583291560946432, ,3.452567034343192e-05, ,0.20964130660369854,-0.1820865957084655,0.09445287456000001,2.313299456521273,1.2659371703268056,-1.2439981721916817, ,0.00017480939351782965,0.014306790525926547,0.00820649743431221,0.016879615208983543,-0.001128178731680346,-0.042394298635830274, ,0.22842693328857422
0.01026119768712956,0.020547541683645223,-0.07895911716036613, ,0.010381567136461814,0.020355137827803207,-0.07929115908404397, ,0.0004021938427613006, ,0.0013408404132758372,-5.989808131208474e-05,-0.006933473668296809,-0.016781188195583233,-0.0070864905806204154,0.021842833208908705, ,0.007062187897739892, ,0.018216108530128377, ,3.555334236220061e-05, ,0.20966447480232123,-0.1817159045305027,0.09463954032,2.3128800766343036,1.2658005338270404,-1.2441317905084068, ,0.000814682584423545,0.013695618640275764,0.006848156285468617,-0.03346009138345434,0.0,-0.008259917979880613, ,0.2579209804534912
0.010301784728082915,0.020545027994941973,-0.07919942499137772, ,0.01042634331816233,0.020353490015227942,-0.07949899718846339, ,0.0003767560766626554, ,0.0015312413270521775,0.00035611765454822615,-0.007453543873439858,0.009769709535827644,0.015414717889236162,-0.019125002070958425, ,0.007617534775689986, ,0.018249951479787887, ,3.613268925406643e-05, ,0.20967219753519545,-0.18126798602379768,0.09488065026,2.3112025570864274,1.266347079826102,-1.2447408196034735, ,-0.0003601657331988858,0.013152729252733303,0.007654402460355599,0.002880577834973796,0.0208045294748604,-0.021208643287874248, ,0.28255510330200195
0.010313032959618261,0.020548080137181696,-0.07925788097664027, ,0.010471494470557693,0.020351809099354645,-0.0797065681838134, ,0.0005147354472151088, ,0.001674390056141623,0.0005579581324033604,-0.008217845650005998,0.02758637461333385,0.02559773318172485,-0.034104284109037875, ,0.008405229709231242, ,0.037633123320697195, ,3.7904102748725416e-05, ,0.20966447480232123,-0.18116759049643277,0.09494157589,2.3112025570864274,1.266620352825633,-1.2451270128911478, ,-0.0003377573054665327,0.012853439192532953,0.008582333793103449,0.004281817461732884,0.03522528046533803,-0.040592216519924396, ,0.3082919120788574
0.01036517502733683,0.020558213760991147,-0.0795277904158493, ,0.010517017830025415,0.020350095602604368,-0.07991386643761775, ,0.000464138017364641, ,0.0013748156817181537,-0.00023189775173429504,-0.009002136648044315,-0.025630324278856743,-0.022218545859930765,0.08082610252297306, ,0.009109465349625086, ,0.033920159841163394, ,3.896445699550225e-05, ,0.20967992026806967,-0.1807660083869731,0.0952125005,2.310154107369005,1.2667569893253983,-1.2457285032356875, ,0.0015239638937410709,0.013930848731425539,0.00881018336283186,-0.11126065640570176,0.0,-0.025703334666377305, ,0.3354160785675049
0.010426200691564544,0.0205690680179625,-0.07981541265315602, ,0.010562910643215236,0.020348350047363985,-0.08012088635236429, ,0.0004008992570876738, ,0.0017373687471132918,-2.3555634976404492e-05,-0.007490279261704378,0.0072352936642397295,0.0036835878181786146,-0.04018174857164617, ,0.007689166954209268, ,0.008119006715414127, ,3.9683679585209144e-05, ,0.20971853393244078,-0.18027947621589696,0.09550416575000001,2.3097347274820357,1.267166898824695,-1.247124580568604, ,0.0019790692450422703,0.01714488555708596,0.007527793724007564,0.0,0.009388455961657325,-0.04313474301623536, ,0.3579890727996826
0.010457822656177309,0.02056560123816071,-0.08000168020895737, ,0.010609170167032871,0.020346572955982797,-0.08032762236543599, ,0.0004208535930771096, ,0.0019447665453364877,-8.414933074409178e-07,-0.009971511222836944,-0.008027814020578162,-0.0048550617418141985,0.018229565718840594, ,0.010159387466335464, ,0.009381754840229257, ,4.046689289123518e-05, ,0.20976487032968613,-0.17997056690092797,0.09568953522000001,2.307847517990675,1.2674401718242254,-1.2478374888168402, ,0.0018451669903913012,0.018130863882015815,0.009961733283302064,-0.051882857170613514,0.009852072195977911,-0.0336960623642278, ,0.3814370632171631
0.010502579162555328,0.02057593688526331,-0.08020546848402073, ,0.010655793668623886,0.020344764850769363,-0.08053406894904527, ,0.0004299923953004868, ,0.0022472838386243333,0.0003649959626856669,-0.009652346060272994,-0.011819098453352963,0.004382785946729317,-0.012486221023824667, ,0.009917221948276975, ,0.01260554707738843, ,4.122587326388236e-05, ,0.20980348399405727,-0.17965393485308476,0.09589694162000001,2.3076378280471905,1.2677134448237564,-1.2484687183249359, ,0.0016868767022477518,0.017942322094624843,0.009748354663402695,0.010810326223425787,0.005673639152104106,0.00013812485510651153, ,0.40374302864074707
0.010540934292203225,0.020577402124171026,-0.08037612487742335, ,0.010702778425357573,0.02034292625398896,-0.08074022061016523, ,0.00046231824508120297, ,0.0018946294481635242,-0.00019587234957420306,-0.008704170852308705,0.003748956661175083,0.006433491620008103,-0.012681842383534606, ,0.008910138997196206, ,0.007446102370395082, ,4.212121960827523e-05, ,0.2098498203913026,-0.17930641187374466,0.09606934819000001,2.307428138103706,1.2679867178232873,-1.2489365903527505, ,0.0025296121240113143,0.02012233705650356,0.008761722508250826,-0.02165929204422747,0.01899764197459825,-0.03795811436204741, ,0.426983118057251
0.010596187483703442,0.0205654950878091,-0.08064736929737658, ,0.010750121724810494,0.02034105768785954,-0.08094607189046328, ,0.00040409297964459043, ,0.0019456866661528773,-0.000193495559209599,-0.008642115017393391,-0.013612214578304143,0.004326288512715706,-0.006874175362844328, ,0.008860546772526812, ,0.014283175760843599, ,4.255149667736746e-05, ,0.20995021591866753,-0.17869631597668093,0.09633897651000001,2.30575061855583,1.2683966273225837,-1.2500876314652454, ,0.0014567174318853577,0.021306003942180237,0.008619486753246754,0.0,0.008108254385192548,-0.005082926315836675, ,0.44912099838256836
0.010631600222060725,0.02056481160329526,-0.08080414573719805, ,0.010797820864750615,0.020339159674549752,-0.08115161736623246, ,0.00044641306879014426, ,0.0021186568149438112,0.00010448892018918268,-0.009723451093876156,0.011163823826911879,0.010193491602070816,-0.04249083223296879, ,0.009952141769938347, ,0.015117478181341138, ,4.319784481987481e-05, ,0.2099811068501644,-0.1783410702644666,0.09649712389000001,2.30575061855583,1.2686699003221147,-1.250718860973341, ,0.001040358554226622,0.020190838629461867,0.009838672958616432,-0.000748925171401654,0.017347713217327154,-0.048109402106700824, ,0.4714779853820801
0.010674785489968516,0.02055819016590033,-0.08103096928731465, ,0.01084587315312078,0.020337232736175125,-0.08135685164832546, ,0.00042929300885484646, ,0.0017810079544731546,-0.0004220082116890118,-0.009699037432072136,-0.014599792455931999,-0.006017769785028184,0.0420910119088965, ,0.009870228334408787, ,0.01579137128659458, ,4.3684532321594855e-05, ,0.21002744324740977,-0.17788542902488735,0.09672138206000001,2.304282788951438,1.26880653682188,-1.2514837087981618, ,0.001994944222793598,0.020496099688654595,0.00960724458383595,-0.07167212691401112,0.012907216791047565,-0.028749006317229403, ,0.4938931465148926
0.01069741461211572,0.020556995008124482,-0.08112484210134847, ,0.010894275908022727,0.020335277394794814,-0.08156176938208545, ,0.0005280326869986375, ,0.0023693571631180177,2.8203092847261266e-05,-0.00897255375153042,0.008206052114777204,0.001718155452133943,-0.048519330755160905, ,0.00928015999888835, ,0.008383990178550805, ,4.4926101934709225e-05, ,0.21007377964465512,-0.17768463797015752,0.09681471494,2.3040730990079537,1.26880653682188,-1.2518921024988647, ,0.005431089287481308,0.019667759908491355,0.009071077175398635,0.004183757474944438,0.010534990886974249,-0.0476249364254483, ,0.5139930248260498
0.010770185954740032,0.020555654402669078,-0.0814622762652202, ,0.010943026457700693,0.020333294172409276,-0.0817663652472807, ,0.00041447318426586293, ,0.0020336287704427964,-0.0002234584945318552,-0.011409265124713248,-0.0034396225383462957,-0.0016978049577567053,0.05462444998306758, ,0.011591242830721351, ,0.0038357986855061445, ,4.546368511063879e-05, ,0.21018962063776847,-0.17702820567584843,0.09715563921,2.3028149593470464,1.269489719320707,-1.2531843006786116, ,0.0027609901380085742,0.019894537014354462,0.011459576633093526,-0.0971948736183228,0.026536755647498394,-0.04616835942890939, ,0.533411979675293
0.01081775492097262,0.020559705328210658,-0.0816830297048833, ,0.010992122140525303,0.020331283590956664,-0.08197063395803514, ,0.0004065668748627903, ,0.002217106799090736,0.0002612799636992464,-0.010022373495427204,-0.005988979248756403,0.0009880394222816112,-0.0238971930761886, ,0.010267998843973773, ,0.006069925305827549, ,4.592130728208086e-05, ,0.2102282343021396,-0.17663434629926297,0.09737730480000001,2.3023955794600774,1.2696263558204728,-1.2537857910231516, ,0.0010226493710373805,0.018369520239734954,0.010068780986093553,0.0,0.0036078309978601346,-0.02317338934852168, ,0.5530960559844971
0.010862173172212075,0.020558710035932296,-0.08188042386228009, ,0.011041560304977334,0.020329246172309835,-0.08217457026276252, ,0.0004139510998017281, ,0.0017981728378552967,-0.0003362082104682657,-0.009133444757853956,0.006499130625731021,0.0027762977374893513,0.026096694700789642, ,0.009314841633670256, ,0.007067281263618441, ,4.638381702621667e-05, ,0.21031318436375607,-0.17624048692267755,0.09757822975000001,2.3017665096296236,1.2701729018195345,-1.2548032138189211, ,0.003923571266695782,0.01826346065405519,0.009218062222222224,-0.07149632943347203,0.028138331485237998,-0.05117572619891168, ,0.5730500221252441
0.010904428905466444,0.02055731874354091,-0.08207653089246227, ,0.011091338309631315,0.020327182438273233,-0.08237816894409777, ,0.0004229460468688535, ,0.0025812394398558158,0.000368232482461639,-0.010638765905030578,0.0023868541990576687,0.0013119654912851315,-0.03888963275906466, ,0.010953617310690021, ,0.0027236354620813873, ,4.6858499768657906e-05, ,0.21039813442537253,-0.1758852412104632,0.09777526583000001,2.3007180599122012,1.2704461748190652,-1.255434443327017, ,0.0035812070477824476,0.01867314867344958,0.010769987505070995,0.003645953468552641,0.007157762466809022,-0.03679347736026105, ,0.5934081077575684
0.01093156043302156,0.02056261694092504,-0.08218552772192611, ,0.0111414535231395,0.020325092910579677,-0.0825814248188303, ,0.0005071560761816083, ,0.0023875747178482847,0.00028838806583234564,-0.010078590693304324,-0.009633762887482284,0.001493753561003439,-0.010783506764906182, ,0.010361547716098372, ,0.009748875990669616, ,4.769563330978409e-05, ,0.21045991628836633,-0.17550682729962622,0.09799044997,2.3007180599122012,1.2705828113188307,-1.2558725761912757, ,0.0031601765479526717,0.020028902819432415,0.011015775601659753,-0.008576964663720153,0.0019015836435971611,-0.02550728414384937, ,0.6128411293029785
0.010973927200013354,0.020560251233336862,-0.08239731723261211, ,0.01119190332421558,0.020322978110888026,-0.08278433273783631, ,0.0005035803080371459, ,0.001722806229642336,-0.000304064535864963,-0.010040473384854144,0.06741461869717645,0.04771194428744348,0.030952619932754496, ,0.01019174285089796, ,0.08259031625883077, ,4.868384471059519e-05, ,0.21050625268561168,-0.17530603624489638,0.0981032272,2.2996696101947784,1.2714026303174235,-1.2567044410937354, ,0.004980509240663661,0.018214384176289976,0.010712045406859449,-0.1076609837060345,0.10115553477851313,-0.10561516644077208, ,0.6301400661468506
0.011026536120894338,0.020566647805275087,-0.08261817223911946, ,0.011242685101618211,0.02032083856077873,-0.08298688758601122, ,0.000493045204399503, ,0.0024822628607013147,0.00025737141188904457,-0.011224369989839602,0.003104191104232532,0.005954494939009381,0.003096330686590189, ,0.011498449922580293, ,0.006715045363243786, ,4.957296920677188e-05, ,0.21059120274722815,-0.17492762233405937,0.09832748537000001,2.299459920251294,1.2716759033169542,-1.2570906343814092, ,0.003773673545165447,0.01840157873928074,0.01142669406025825,-0.0324998255989745,0.022161427782548596,-0.033330241137664515, ,0.6466970443725586
0.011078777963653433,0.020565171151130608,-0.08285559180220557, ,0.011293796254135057,0.020318674781752123,-0.08318908428220248, ,0.0004671301313048673, ,0.002335654330019795,-0.00035657300002199044,-0.012063583165906465,-0.04398510803685434,-0.026590101165354034,0.11194103365248974, ,0.012292780981308777, ,0.05139769404849771, ,5.0304401603600484e-05, ,0.2106993210074673,-0.1745260402245997,0.0985569287,2.298201780590387,1.2718125398167197,-1.2573654097653868, ,0.005537194661975729,0.019518087527451825,0.011825398307349667,-0.12114911375798654,0.0,-0.0006337328868807247, ,0.6634080410003662
0.011081631630814147,0.020564439177790706,-0.08287296100817029, ,0.011345234190566324,0.020316487295224495,-0.0833909177791417, ,0.0006318588941932838, ,0.002399828459196865,-0.00034757193073171226,-0.012273055943925141,-0.04394145777374444,-0.02661789911913615,0.11200522477929749, ,0.012510311150539782, ,0.051374740742292736, ,5.16910927152462e-05, ,0.21070704374034152,-0.17447970382735434,0.09858285450000001,2.2979920906469022,1.2719491763164852,-1.257476827669083, ,0.005797135097720754,0.020050061601198134,0.01210396012158055,-0.1215334219752868,0.00041530768819619834,-0.00104952583614995, ,0.6838679313659668
0.011162697324646491,0.020566201590659375,-0.0832061530809727, ,0.01139699632970853,0.020314276622525305,-0.08359238306337786, ,0.0005172386418773286, ,0.0026332422559699224,-0.00031598419439569166,-0.010257636239783322,-0.009939779263835371,-0.006047718989768172,-0.036258025631794116, ,0.010594947475917452, ,0.011635033443444649, ,5.253983077092592e-05, ,0.21085377566495178,-0.17383871699879372,0.09891729732000001,2.2975727107599333,1.2720858128162507,-1.258813426674888, ,0.005113684972990286,0.024835629824253018,0.010191178195777351,0.0,0.0,-0.03422565656330327, ,0.7006039619445801
0.011203712255828654,0.020560621035668736,-0.08339568580442283, ,0.011449080100338335,0.020312043284893874,-0.08379347515520906, ,0.0005293700453355345, ,0.002255827304057096,-0.0004946019713270593,-0.011613468492964844,0.006129877040356476,0.0012440303637148726,0.07210728813869485, ,0.011840863075504979, ,0.0062548215657526425, ,5.3396355013765843e-05, ,0.21096189392519094,-0.17346802582083093,0.09911044453000001,2.296314571099026,1.2727689953150778,-1.2598605886342136, ,0.006940611936036403,0.020670211622407054,0.011772957516629714,-0.12526840105099302,0.04268199529109876,-0.06119265650671564, ,0.722707986831665
0.011251313339341078,0.020562096675738776,-0.08359938122914376, ,0.011501482941196165,0.020309787803476854,-0.08399418910861572, ,0.0005311476804124863, ,0.0028353954911394534,0.000178587825192353,-0.011801570481780752,-0.012977649052730012,-0.003989692347949345,-0.023064050408820837, ,0.01213871603749423, ,0.013577068573114475, ,5.421967356974198e-05, ,0.21105456671968162,-0.1731127801086166,0.09931525835,2.2956855012685726,1.2729056318148433,-1.260135364018191, ,0.0035727376074432124,0.022115344105912555,0.011834183893016346,0.0,0.00018111324686198086,-0.020362038519566958, ,0.738853931427002
0.011311803438925922,0.020563164282121103,-0.08384605752537996, ,0.011554202300969887,0.020307510699324356,-0.08419452001119283, ,0.0004955220143807001, ,0.0029153384439853007,0.00013429852075240705,-0.01161898593764273,0.01539120461562192,0.01717070768466627,-0.018630161066546302, ,0.011979902693878377, ,0.023059101677072397, ,5.507953428442393e-05, ,0.21116268497992077,-0.17264169340328891,0.09955636829000002,2.2956855012685726,1.2733155413141395,-1.2607963326898426, ,0.0061818722303893636,0.021835467454779284,0.011949596039009755,-0.004070673715379131,0.017437224256280606,-0.03050851676320316, ,0.7527749538421631
0.011332367260356871,0.020559829161426495,-0.083938299791544, ,0.01160723563827865,0.020305212493387414,-0.08439446298408237, ,0.000590311046018513, ,0.002691555853123865,-0.0005646623345882851,-0.011814442536036116,0.02721620707201325,0.01842589662213973,0.02366275099733119, ,0.012130307865008518, ,0.0328669341974154, ,5.626341915132767e-05, ,0.2112321895757888,-0.17244090234855908,0.09966136778000001,2.2948467414946343,1.2738620873132014,-1.26148704052505, ,0.009109085504928074,0.025038770859754825,0.012159398106870231,-0.08584513237391682,0.060062629080147034,-0.07675713672077283, ,0.7708480358123779
0.011398511468267617,0.020559936433399994,-0.08420015577792045, ,0.011660580421656545,0.02030289370651473,-0.08459401318190622, ,0.0005384001805807572, ,0.003430114755500446,0.00037353009870928885,-0.012540966118381534,-0.004042985283304042,0.008382249887197081,-0.026469906729401346, ,0.013006961334336981, ,0.009306316831218193, ,5.721206522078936e-05, ,0.2114252578976444,-0.17198526110897983,0.09992581094000001,2.293798291777212,1.2741353603127321,-1.2622816275134268, ,0.0076316493736977645,0.023005319165689885,0.01282513004830918,0.019172363886959795,0.01754860407553613,-0.008606983418195945, ,0.784404993057251
0.011434479213342487,0.02056273215183678,-0.08433387271694302, ,0.011714234129536184,0.02030055485944955,-0.08479316579269827, ,0.0005982891234300999, ,0.0032267823248417126,0.00016688689040955933,-0.013002218119754239,-0.009495678315474931,0.0033796039885573407,-0.01673389445826887, ,0.013397673359198115, ,0.010079149675472967, ,5.834332897921745e-05, ,0.21149476249351243,-0.1717304109241304,0.10006062510000001,2.2940079817206964,1.2741353603127321,-1.2625266637338484, ,0.005303548901834484,0.024559249885732604,0.013153436432700248,0.0,0.012357399964138793,-0.016354583541814335, ,0.8007040023803711
0.011475112879432432,0.02056105160780521,-0.0845111795065688, ,0.011768194250232724,0.02029819647282704,-0.08499191603783762, ,0.0006213671413833724, ,0.003199574164234729,-3.4585874845729885e-05,-0.013816441465186898,-0.013369754012767483,-0.01644538843711551,0.027201802174088796, ,0.014182119932369529, ,0.021194353486977017, ,5.9516462418673974e-05, ,0.2115874352880031,-0.17141377887628723,0.10023951312000001,2.293169221946758,1.274408633312263,-1.263157893241944, ,0.007917920970122535,0.02253548837769432,0.013851140452173914,-0.07504388442669345,0.007493319548261634,-0.04665135379510472, ,0.8148059844970703
0.011556547925882642,0.020564448832433115,-0.08482136731267803, ,0.011822458281927139,0.02029581906716986,-0.08519025917197993, ,0.0005281585671901177, ,0.003796781974441583,0.00022736913236620187,-0.013337751078900551,-0.0005940457423814491,0.007755133039546943,-0.02131596315854708, ,0.013869493643479213, ,0.007777824677077874, ,6.032267310083044e-05, ,0.21185773093860097,-0.17091180123946262,0.10055710417000001,2.2919110822858513,1.2750918158110902,-1.2647768063822533, ,0.010785586149921684,0.02511165428908991,0.013672799587982834,0.006098467851780153,0.024312818513982152,-0.01826021567288843, ,0.8293919563293457
0.011596050310649052,0.020566251622381758,-0.08495478599161493, ,0.011877023732650257,0.020293423162886903,-0.08538819048299146, ,0.000584141151886035, ,0.0039028208284968306,0.000291522213650327,-0.013501759206082523,0.009464164116431828,0.0006520276854074178,-0.05685927024315417, ,0.014057542362711714, ,0.009486574399102818, ,6.150491606456393e-05, ,0.21198129466458857,-0.17066467378748745,0.10069191833,2.2919110822858513,1.2750918158110902,-1.2651852000829562, ,0.011189067005557933,0.02468702954174578,0.013791178805194806,0.008667716018958589,0.015928633065429427,-0.05235713152310994, ,0.8403630256652832
0.01162521299776466,0.020569351868427767,-0.08505314268939485, ,0.011931888120266269,0.020291009280268668,-0.08558570529188035, ,0.0006746459461900129, ,0.0040098245482578605,0.0002554138523421534,-0.014166882035192063,-0.007279236857314889,-0.0024437881175442128,-0.02338046885209083, ,0.014725640079223288, ,0.007678464621021796, ,6.296282858814133e-05, ,0.2120585219933308,-0.17048705093138028,0.10079173266000001,2.2921207722293357,1.2750918158110902,-1.2652668788230967, ,0.011258386707613094,0.025627043359025322,0.014415214045248871,0.0,0.012780729246233729,-0.023532379170988584, ,0.8523819446563721
0.011676086748605718,0.020568411624904102,-0.08526209837703083, ,0.011987048972456513,0.020288577939485214,-0.08578279895272997, ,0.0006679322463324896, ,0.004087481208341514,-0.00019607280841378734,-0.017465806370615847,-0.051462634395670254,-0.03797658427346235,0.1254392737272768, ,0.017938794255762825, ,0.06395797109575647, ,6.4359073326329e-05, ,0.2122129766508153,-0.17015497341778862,0.10100173164000001,2.2908626325684285,1.2752284523108557,-1.2657050116873556, ,0.013334858205594467,0.025808251715656996,0.017408537180327872,-0.1441023074177804,0.0,-0.00877278132954999, ,0.8631401062011719
0.011724914358044656,0.020571738245428302,-0.08544796123413906, ,0.012042503826703039,0.020286129660582155,-0.08597946685263087, ,0.0006818603646120659, ,0.004666874479959237,0.0003634508870096779,-0.017759338248928204,0.027770737014062432,0.017518454414281463,-0.004478198764626105, ,0.018365889823224117, ,0.03283455973189061, ,6.576445104588778e-05, ,0.2123674313082998,-0.1698615095685681,0.10119358256000001,2.290233562737975,1.2757749983099174,-1.2663140407824223, ,0.014477031511589744,0.028034546989208504,0.018393546789838337,-0.054122309665645456,0.05815936287665728,-0.07275847969650305, ,0.8742070198059082
0.011770869698076801,0.02057949521411974,-0.08561572907846192, ,0.012098250230272419,0.020283664963478523,-0.08617570441161368, ,0.0007129277128808755, ,0.004914640219924947,0.000706840109604737,-0.018396945166588283,0.0215572194225219,0.012277945712030142,-0.023168715625619528, ,0.019055206713502373, ,0.024808457284313915, ,6.723461414620583e-05, ,0.2124909950342874,-0.1696066593837187,0.10136858171000002,2.290233562737975,1.2763215443089793,-1.2669230698774894, ,0.013739241574992149,0.02691348314193726,0.01900812830548926,-0.0299493631830487,0.044236952165539266,-0.06389526011833399, ,0.8854589462280273
0.011826247275988178,0.020585409168709455,-0.08581297167242959, ,0.012154285740199378,0.020281184367963036,-0.08637150708258164, ,0.0007156282329428878, ,0.005114635877781275,0.0003867438249650902,-0.01796535513206833,0.003952222009291309,-3.4699174218716725e-05,-0.04745016714281973, ,0.018683229270384977, ,0.003952137572245102, ,6.867554890865119e-05, ,0.2126531724246461,-0.1692977500687497,0.10156950666000002,2.29002387279449,1.2764581808087447,-1.2673612027417478, ,0.01447261576307317,0.03138126374288055,0.01835116534562212,0.0,0.021342961884048446,-0.05117390093275666, ,0.8967571258544922
0.011868265699069815,0.020582632221702795,-0.08597276899304435, ,0.012210607923270365,0.020278688393690913,-0.0865668703512431, ,0.0007500243148529874, ,0.004724527700440319,-0.000298305289010182,-0.018140420259632774,-0.03895437334306845,-0.02537394680854808,0.08143448522905862, ,0.018747933092311125, ,0.04648955167307438, ,7.041356062790688e-05, ,0.21279990434925636,-0.1690120089524034,0.10173154291000001,2.2891851130205523,1.2767314538082757,-1.2678290747695624, ,0.0160896815121178,0.03129846357469353,0.018225184805491994,-0.1018268018258238,0.011091402421387746,-0.014305878315260572, ,0.9057190418243408
0.01191838353378924,0.02057967417984368,-0.08615838138912014, ,0.012267214356007401,0.020276177560181272,-0.08676178973604369, ,0.0007601939054036888, ,0.004453590103528844,-0.00035221272292395396,-0.016309886483597484,0.005670054168627285,-0.0015539186938525289,0.017550224524377905, ,0.016910674608668793, ,0.005879032526902151, ,7.215075437322324e-05, ,0.21297752720536353,-0.16867220870593752,0.10192080125000001,2.2883463532466144,1.2771413633075719,-1.2683266859609328, ,0.01632214337091001,0.030760759014091015,0.016644526144200627,-0.0754580054669504,0.03929655619058091,-0.06499068585459244, ,0.9137840270996094
0.011970895334361012,0.020581413383630377,-0.08633329044403894, ,0.012324102624651546,0.020273652386813616,-0.0869562607880993, ,0.0007794640919598008, ,0.005499402617692056,8.862127855163303e-05,-0.019309457994809938,0.015803033103674254,0.010887112808124091,-0.01597715439092801, ,0.020077511074229788, ,0.019190164047056524, ,7.391568173635845e-05, ,0.2131551500614707,-0.16834013119234587,0.10210228185,2.2883463532466144,1.2776879093066338,-1.2688540363158591, ,0.018430169267521997,0.034697236401634655,0.01988615670411985,-0.03708465495954471,0.05013106092066409,-0.06339108170942363, ,0.9227049350738525
0.012028314905175861,0.020585304766747983,-0.08653493757046463, ,0.012381270325146798,0.020271113392825096,-0.08715027909112884, ,0.0007758472368886522, ,0.006332098247830399,0.0007281940891138825,-0.02192618189018207,0.029565222099479357,0.01979679473481493,-0.058946497978106326, ,0.022833816744752624, ,0.0355810394988024, ,7.563648978505279e-05, ,0.21333277291757785,-0.16800033094588,0.10230968825000002,2.28813666330313,1.27809781880593,-1.2693516475072295, ,0.01899458397887726,0.035409306551668206,0.02272298362339515,0.0,0.05484019561490932,-0.07254241687932841, ,0.9309301376342773
0.01206247561797608,0.02058684660060462,-0.0866600621287891, ,0.012438715063123494,0.020268561097306736,-0.0873438402613859, ,0.0008428607929616816, ,0.006400553556423573,0.0006765610936708487,-0.022705424342364465,0.029452878049364226,0.020123900157458078,-0.03852908116432543, ,0.023600023629415125, ,0.03567123979262932, ,7.753172462691902e-05, ,0.21344861391069123,-0.16779953989115015,0.10243931725000001,2.2877172834161605,1.2785077283052262,-1.2696859012183186, ,0.019414267912944105,0.03579665845283696,0.023528525140324965,-0.022344366391679357,0.06093140627211612,-0.07542426188913924, ,0.9395599365234375
0.012149605951914739,0.02058509878822972,-0.08701569570678555, ,0.012496434453882209,0.020265996019201614,-0.08753693994759205, ,0.0007027176855269496, ,0.0063922234403494,-6.645813339846212e-05,-0.026004699318354425,-0.026368373333926536,-0.016724160530212844,0.12326642545743027, ,0.0267788969868602, ,0.031224617941624146, ,7.896502496730375e-05, ,0.2137266322941633,-0.16725894858995444,0.10280098216000001,2.285410694037831,1.2791909108040536,-1.2703246694769412, ,0.02030749872854072,0.03860738061776679,0.02641593950248757,-0.1682698086142853,0.04406826051005507,-0.04653559306373413, ,0.9485690593719482
0.012149605951914739,0.02058509878822972,-0.08701569570678555, ,0.012554426122377112,0.020263418677299864,-0.08772957383086902, ,0.00088146437263565, ,0.0063922234403494,-6.645813339846212e-05,-0.026004699318354425,-0.026368373333926536,-0.016724160530212844,0.12326642545743027, ,0.0267788969868602, ,0.031224617941624146, ,8.091236423538151e-05, ,0.2137266322941633,-0.16725894858995444,0.10280098216000001,2.285410694037831,1.2791909108040536,-1.2703246694769412, ,0.02030749872854072,0.03860738061776679,0.02641593950248757,-0.1682698086142853,0.04406826051005507,-0.04653559306373413, ,0.9568109512329102
0.012220644016766917,0.020591387484055246,-0.08728181699049248, ,0.012612687703200011,0.020260829590237468,-0.08792173762467154, ,0.0008200397498203517, ,0.0071286359787611836,0.0008607299171245948,-0.024808093622589036,0.01364194218327023,0.01425481832379685,-0.04284788168826282, ,0.0258263395798759, ,0.019730510268563872, ,8.288898592111601e-05, ,0.21392742334889314,-0.16685736648049476,0.10307449935000002,2.2847816242073775,1.2797374568031152,-1.2709336985720079, ,0.02042111933687772,0.0387334455340697,0.025609021736334413,0.0,0.04836075754761047,-0.05209600123154577, ,0.9630999565124512
0.012220644016766917,0.020591387484055246,-0.08728181699049248, ,0.012671216840563606,0.020258229276491922,-0.08811342707471913, ,0.0010027889074966797, ,0.0071286359787611836,0.0008607299171245948,-0.024808093622589036,0.01364194218327023,0.01425481832379685,-0.04284788168826282, ,0.0258263395798759, ,0.019730510268563872, ,8.53875260275472e-05, ,0.21392742334889314,-0.16685736648049476,0.10307449935000002,2.2847816242073775,1.2797374568031152,-1.2709336985720079, ,0.02042111933687772,0.0387334455340697,0.025609021736334413,0.0,0.04836075754761047,-0.05209600123154577, ,0.9684610366821289
0.012305081429081148,0.020601682021561166,-0.08755725510998062, ,0.01273001118828553,0.020255618254379895,-0.08830463795892991, ,0.0009267721155261122, ,0.0072269183312214215,0.0003563298163810055,-0.024324744913950324,0.025067638663823534,0.018053799287335713,-0.04470392405436185, ,0.025378111329114675, ,0.030892032318597787, ,8.763084075594784e-05, ,0.21417455080086834,-0.16638627977516707,0.10336097944000001,2.285410694037831,1.2804206393019424,-1.271654145570771, ,0.023909534280289944,0.04219517188015597,0.025163999241706165,-0.016318747663572674,0.06260482823307355,-0.07473105348519593, ,0.9743289947509766
0.012305081429081148,0.020601682021561166,-0.08755725510998062, ,0.012789068409771492,0.020252997042053033,-0.08849536608735163, ,0.0011116999677414463, ,0.0072269183312214215,0.0003563298163810055,-0.024324744913950324,0.025067638663823534,0.018053799287335713,-0.04470392405436185, ,0.025378111329114675, ,0.030892032318597787, ,9.039319558258368e-05, ,0.21417455080086834,-0.16638627977516707,0.10336097944000001,2.285410694037831,1.2804206393019424,-1.271654145570771, ,0.023909534280289944,0.04219517188015597,0.025163999241706165,-0.016318747663572674,0.06260482823307355,-0.07473105348519593, ,0.9798579216003418
0.012305081429081148,0.020601682021561166,-0.08755725510998062, ,0.01284838617799948,0.02025036615749644,-0.08868560730209551, ,0.0013006850333540556, ,0.0072269183312214215,0.0003563298163810055,-0.024324744913950324,0.025067638663823534,0.018053799287335713,-0.04470392405436185, ,0.025378111329114675, ,0.030892032318597787, ,9.367735582360683e-05, ,0.21417455080086834,-0.16638627977516707,0.10336097944000001,2.285410694037831,1.2804206393019424,-1.271654145570771, ,0.023909534280289944,0.04219517188015597,0.025163999241706165,-0.016318747663572674,0.06260482823307355,-0.07473105348519593, ,0.9855399131774902
0.012420469367833115,0.020604613310518747,-0.0879493493168974, ,0.012907962175502899,0.0202477261185238,-0.08887535747726794, ,0.0011056712071916516, ,0.008207093302473227,0.0003779494681314514,-0.02744550306820321,0.01684361563844317,0.012348231408660837,-0.02720931848393645, ,0.028648819608191777, ,0.020884698568140934, ,9.635466339079177e-05, ,0.2145684101774538,-0.16570667928223531,0.10376542192000002,2.2847816242073775,1.2813770948003005,-1.2727607858572085, ,0.028009723010174375,0.0463590334921694,0.028343080996441283,-0.0317145491901214,0.06366305365044518,-0.07108683837489606, ,0.991055965423584
0.012420469367833115,0.020604613310518747,-0.0879493493168974, ,0.01296779409435464,0.020245077442775865,-0.08906461251890348, ,0.001293306771885291, ,0.008207093302473227,0.0003779494681314514,-0.02744550306820321,0.01684361563844317,0.012348231408660837,-0.02720931848393645, ,0.028648819608191777, ,0.020884698568140934, ,9.95448009128315e-05, ,0.2145684101774538,-0.16570667928223531,0.10376542192000002,2.2847816242073775,1.2813770948003005,-1.2727607858572085, ,0.028009723010174375,0.0463590334921694,0.028343080996441283,-0.0317145491901214,0.06366305365044518,-0.07108683837489606, ,0.9966120719909668
0.012542985555471398,0.020609597637361532,-0.08837327548471664, ,0.013027879636150382,0.02024242064771619,-0.08925336836489704, ,0.0010698152592605716, ,0.008724530795595755,3.583205373258649e-05,-0.031097782805184233,-0.0024209785829338664,-0.0009722238440011584,0.05703205768042613, ,0.03229846462198761, ,0.002603319606010773, ,0.00010205409675558341, ,0.21500088321841035,-0.165042524255052,0.10420227165000001,2.2835234845464703,1.2823335502986586,-1.2735407111830834, ,0.030337896917669686,0.049998388597719066,0.03192146597194389,-0.1189260095719174,0.06800981138889162,-0.07122230054052027, ,1.0023260116577148
0.012542985555471398,0.020609597637361532,-0.08837327548471664, ,0.013088216511992327,0.020239756250628453,-0.08944162098493656, ,0.0012551579801481263, ,0.008724530795595755,3.583205373258649e-05,-0.031097782805184233,-0.0024209785829338664,-0.0009722238440011584,0.05703205768042613, ,0.03229846462198761, ,0.002603319606010773, ,0.00010506570072875522, ,0.21500088321841035,-0.165042524255052,0.10420227165000001,2.2835234845464703,1.2823335502986586,-1.2735407111830834, ,0.030337896917669686,0.049998388597719066,0.03192146597194389,-0.1189260095719174,0.06800981138889162,-0.07122230054052027, ,1.0077979564666748
0.01264187599715351,0.02061395941273039,-0.08873223128312444, ,0.013148802442472953,0.02023708476861378,-0.08962936638043563, ,0.0010972056786080697, ,0.010049728809983135,0.0011404601481866936,-0.03688640053795375,0.019036134422683686,0.02068197569524352,0.007735037281987586, ,0.03824793122706327, ,0.028107832475341894, ,0.00010790038637983898, ,0.21530979253337934,-0.16448648748810782,0.10457171430000001,2.2824750348290475,1.2831533692972512,-1.2743725760855433, ,0.028142627982939143,0.05196984751285365,0.038107204593301434,-0.07271121426700175,0.08407353995127963,-0.08057449049542946, ,1.0105819702148438
0.01264187599715351,0.02061395941273039,-0.08873223128312444, ,0.013209635157658469,0.020234406718586413,-0.08981660058446596, ,0.0012815098492251825, ,0.010049728809983135,0.0011404601481866936,-0.03688640053795375,0.019036134422683686,0.02068197569524352,0.007735037281987586, ,0.03824793122706327, ,0.028107832475341894, ,0.00011124400308310207, ,0.21530979253337934,-0.16448648748810782,0.10457171430000001,2.2824750348290475,1.2831533692972512,-1.2743725760855433, ,0.028142627982939143,0.05196984751285365,0.038107204593301434,-0.07271121426700175,0.08407353995127963,-0.08057449049542946, ,1.0133390426635742
0.01264187599715351,0.02061395941273039,-0.08873223128312444, ,0.01327071239707257,0.020231722617271908,-0.09000331966168978, ,0.0014687429495284128, ,0.010049728809983135,0.0011404601481866936,-0.03688640053795375,0.019036134422683686,0.02068197569524352,0.007735037281987586, ,0.03824793122706327, ,0.028107832475341894, ,0.00011510053418095807, ,0.21530979253337934,-0.16448648748810782,0.10457171430000001,2.2824750348290475,1.2831533692972512,-1.2743725760855433, ,0.028142627982939143,0.05196984751285365,0.038107204593301434,-0.07271121426700175,0.08407353995127963,-0.08057449049542946, ,1.0161209106445312
0.012751805267913453,0.020630889524323796,-0.08912821468004081, ,0.013332031909680018,0.02022903298120345,-0.09018951970829267, ,0.0016577614712052747, ,0.011893521179406966,0.0018960885012962898,-0.04273610388936596,0.04018456811302596,0.03651957863964853,-0.03929263025229072, ,0.03824793122706327, ,0.05429858732983303, ,0.0006488176846600387, ,0.21561097911547408,-0.16395361891978635,0.10498263823000001,2.2820556549420785,1.2841098247956093,-1.2753158588916993, ,0.03207061221982791,0.05720129087309873,0.044369948523676886,-0.035842347018821545,0.10293120979465582,-0.09736187724149184, ,1.0203320980072021
0.012751805267913453,0.020630889524323796,-0.08912821468004081, ,0.013393591453870137,0.02022633832671823,-0.09037519685191589, ,0.0014596286229528424, ,0.011893521179406966,0.0018960885012962898,-0.04273610388936596,0.04018456811302596,0.03651957863964853,-0.03929263025229072, ,0.04440073843183726, ,0.05429858732983303, ,0.0006611026988765964, ,0.21561097911547408,-0.16395361891978635,0.10498263823000001,2.2820556549420785,1.2841098247956093,-1.2753158588916993, ,0.03207061221982791,0.05720129087309873,0.044369948523676886,-0.035842347018821545,0.10293120979465582,-0.09736187724149184, ,1.0234339237213135
0.012751805267913453,0.020630889524323796,-0.08912821468004081, ,0.013455388797440761,0.02022363916995534,-0.09056034725158862, ,0.001646780597603544, ,0.011893521179406966,0.0018960885012962898,-0.04273610388936596,0.04018456811302596,0.03651957863964853,-0.03929263025229072, ,0.04440073843183726, ,0.05429858732983303, ,0.0006758143093053568, ,0.21561097911547408,-0.16395361891978635,0.10498263823000001,2.2820556549420785,1.2841098247956093,-1.2753158588916993, ,0.03207061221982791,0.05720129087309873,0.044369948523676886,-0.035842347018821545,0.10293120979465582,-0.09736187724149184, ,1.0274670124053955
0.012751805267913453,0.020630889524323796,-0.08912821468004081, ,0.013517421717581517,0.020220936026851852,-0.09074496709766132, ,0.0018352435255228562, ,0.011893521179406966,0.0018960885012962898,-0.04273610388936596,0.04018456811302596,0.03651957863964853,-0.03929263025229072, ,0.04440073843183726, ,0.05429858732983303, ,0.0006928647389556141, ,0.21561097911547408,-0.16395361891978635,0.10498263823000001,2.2820556549420785,1.2841098247956093,-1.2753158588916993, ,0.03207061221982791,0.05720129087309873,0.044369948523676886,-0.035842347018821545,0.10293120979465582,-0.09736187724149184, ,1.0304710865020752
0.012923920579168519,0.020656695691730013,-0.08976791642637501, ,0.013579688000857577,0.020218229413140037,-0.09092905261173745, ,0.0014037524104226137, ,0.014162401014458986,0.002414806919044028,-0.052951831766794535,0.037808700652148614,0.026727139691465257,0.05673883460841443, ,0.05486621348707712, ,0.04629710080015217, ,0.0007031674588319474, ,0.21609751128655022,-0.16315817743374122,0.10564633871000001,2.2803781353942023,1.2857494627927948,-1.2768979099564781, ,0.040024015840772156,0.060909461847542215,0.05492693627586208,-0.15710624062928832,0.12746751023832148,-0.12636465141934008, ,1.0335609912872314
0.012923920579168519,0.020656695691730013,-0.08976791642637501, ,0.013642185443193426,0.020215519844344224,-0.09111260004660643, ,0.001587045866296235, ,0.014162401014458986,0.002414806919044028,-0.052951831766794535,0.037808700652148614,0.026727139691465257,0.05673883460841443, ,0.05486621348707712, ,0.04629710080015217, ,0.0007157942932242944, ,0.21609751128655022,-0.16315817743374122,0.10564633871000001,2.2803781353942023,1.2857494627927948,-1.2768979099564781, ,0.040024015840772156,0.060909461847542215,0.05492693627586208,-0.15710624062928832,0.12746751023832148,-0.12636465141934008, ,1.0363919734954834
0.012923920579168519,0.020656695691730013,-0.08976791642637501, ,0.013704911849856106,0.0202128078357774,-0.09129560568617576, ,0.001772235387318225, ,0.014162401014458986,0.002414806919044028,-0.052951831766794535,0.037808700652148614,0.026727139691465257,0.05673883460841443, ,0.05486621348707712, ,0.04629710080015217, ,0.0007306737452537864, ,0.21609751128655022,-0.16315817743374122,0.10564633871000001,2.2803781353942023,1.2857494627927948,-1.2768979099564781, ,0.040024015840772156,0.060909461847542215,0.05492693627586208,-0.15710624062928832,0.12746751023832148,-0.12636465141934008, ,1.0391831398010254
0.012923920579168519,0.020656695691730013,-0.08976791642637501, ,0.013767865035439194,0.020210093902538348,-0.09147806584540419, ,0.001958649136212263, ,0.014162401014458986,0.002414806919044028,-0.052951831766794535,0.037808700652148614,0.026727139691465257,0.05673883460841443, ,0.05486621348707712, ,0.04629710080015217, ,0.0007477289590170985, ,0.21609751128655022,-0.16315817743374122,0.10564633871000001,2.2803781353942023,1.2857494627927948,-1.2768979099564781, ,0.040024015840772156,0.060909461847542215,0.05492693627586208,-0.15710624062928832,0.12746751023832148,-0.12636465141934008, ,1.0419609546661377
0.01308498452766558,0.020685312699095588,-0.09034376856218317, ,0.013831042823846394,0.020207378559508698,-0.09165997687023385, ,0.0015866405809963756, ,0.016786849797508028,0.002835448776862075,-0.05840210011406962,0.03000770991925507,0.021354520614341416,-0.016988166626527267, ,0.06083291373610272, ,0.036821172971760734, ,0.0007592208990442119, ,0.2165608752590037,-0.16247857694080947,0.1062439284,2.2793296856767795,1.2869791912906836,-1.2780640285700269, ,0.049143936591647217,0.07156632093399003,0.060565823269961974,-0.07205798786999879,0.11326049204694556,-0.1106240067743232, ,1.0447280406951904
0.01308498452766558,0.020685312699095588,-0.09034376856218317, ,0.013894443048274774,0.020204662321349095,-0.09184133513752259, ,0.001768884826603618, ,0.016786849797508028,0.002835448776862075,-0.05840210011406962,0.03000770991925507,0.021354520614341416,-0.016988166626527267, ,0.06083291373610272, ,0.036821172971760734, ,0.000772865006173393, ,0.2165608752590037,-0.16247857694080947,0.1062439284,2.2793296856767795,1.2869791912906836,-1.2780640285700269, ,0.049143936591647217,0.07156632093399003,0.060565823269961974,-0.07205798786999879,0.11326049204694556,-0.1106240067743232, ,1.0474660396575928
0.01308498452766558,0.020685312699095588,-0.09034376856218317, ,0.013958063551198937,0.02020194570249693,-0.09202213705497725, ,0.001952647288257315, ,0.016786849797508028,0.002835448776862075,-0.05840210011406962,0.03000770991925507,0.021354520614341416,-0.016988166626527267, ,0.06083291373610272, ,0.036821172971760734, ,0.0007885954366011787, ,0.2165608752590037,-0.16247857694080947,0.1062439284,2.2793296856767795,1.2869791912906836,-1.2780640285700269, ,0.049143936591647217,0.07156632093399003,0.060565823269961974,-0.07205798786999879,0.11326049204694556,-0.1106240067743232, ,1.0506720542907715
0.013247152057506971,0.020713822853904246,-0.0909031417885449, ,0.0140219021843541,0.020199229217162565,-0.0922023790610852, ,0.0015978303603269672, ,0.018945880119510594,0.003949256501455393,-0.06532553922177503,0.05755017534592086,0.039934468961370956,-0.05216373099685058, ,0.06813199743903611, ,0.0700399518493398, ,0.0007992432645449391, ,0.2170396846972056,-0.16180669918075194,0.10682466632000001,2.278700615846326,1.288072283288807,-1.278955371799598, ,0.05425782822096671,0.07356352058796184,0.06807184410256412,-0.047056781632627095,0.13994744436431203,-0.129894337569056, ,1.0534119606018066
0.013247152057506971,0.020713822853904246,-0.0909031417885449, ,0.01408595680872016,0.02019651337932638,-0.09238205762504771, ,0.0017771872592961754, ,0.018945880119510594,0.003949256501455393,-0.06532553922177503,0.05755017534592086,0.039934468961370956,-0.05216373099685058, ,0.06813199743903611, ,0.0700399518493398, ,0.0008119438359053448, ,0.2170396846972056,-0.16180669918075194,0.10682466632000001,2.278700615846326,1.288072283288807,-1.278955371799598, ,0.05425782822096671,0.07356352058796184,0.06807184410256412,-0.047056781632627095,0.13994744436431203,-0.129894337569056, ,1.056164026260376
0.013247152057506971,0.020713822853904246,-0.0909031417885449, ,0.014150225294505017,0.020193798702735934,-0.09256116924671214, ,0.0019583210771517896, ,0.018945880119510594,0.003949256501455393,-0.06532553922177503,0.05755017534592086,0.039934468961370956,-0.05216373099685058, ,0.06813199743903611, ,0.0700399518493398, ,0.0008266409800238889, ,0.2170396846972056,-0.16180669918075194,0.10682466632000001,2.278700615846326,1.288072283288807,-1.278955371799598, ,0.05425782822096671,0.07356352058796184,0.06807184410256412,-0.047056781632627095,0.13994744436431203,-0.129894337569056, ,1.058912992477417
0.01343017782081913,0.02074612485900368,-0.09153372725993385, ,0.014214705521128114,0.020191085700902025,-0.0927397104565043, ,0.0015420595481331362, ,0.019816293757752214,0.00295020086648275,-0.06805597277925934,0.05021874938641401,0.03661006217861001,0.00036386076345160286, ,0.0709436721235757, ,0.062135010383477345, ,0.000835696911265778, ,0.21758799873127557,-0.1610653168248264,0.10748188535000001,2.2778618560723882,1.289575284786227,-1.2801809687402592, ,0.06059830240004519,0.08353604010428767,0.07079471786666668,-0.11118270107996861,0.15783928500364514,-0.14272944118204212, ,1.0640439987182617
0.01343017782081913,0.02074612485900368,-0.09153372725993385, ,0.014279395377204449,0.02018837488709673,-0.09291767781536155, ,0.0017168502057849685, ,0.019816293757752214,0.00295020086648275,-0.06805597277925934,0.05021874938641401,0.03661006217861001,0.00036386076345160286, ,0.0709436721235757, ,0.062135010383477345, ,0.0008467113274472679, ,0.21758799873127557,-0.1610653168248264,0.10748188535000001,2.2778618560723882,1.289575284786227,-1.2801809687402592, ,0.06059830240004519,0.08353604010428767,0.07079471786666668,-0.11118270107996861,0.15783928500364514,-0.14272944118204212, ,1.066939115524292
0.01343017782081913,0.02074612485900368,-0.09153372725993385, ,0.014344292760527807,0.020185666774349187,-0.09309506791466458, ,0.001894070755744934, ,0.019816293757752214,0.00295020086648275,-0.06805597277925934,0.05021874938641401,0.03661006217861001,0.00036386076345160286, ,0.0709436721235757, ,0.062135010383477345, ,0.0008596416907595848, ,0.21758799873127557,-0.1610653168248264,0.10748188535000001,2.2778618560723882,1.289575284786227,-1.2801809687402592, ,0.06059830240004519,0.08353604010428767,0.07079471786666668,-0.11118270107996861,0.15783928500364514,-0.14272944118204212, ,1.0698530673980713
0.01343017782081913,0.02074612485900368,-0.09153372725993385, ,0.01440939557805453,0.02018296187544309,-0.09327187737617057, ,0.002072965457674518, ,0.019816293757752214,0.00295020086648275,-0.06805597277925934,0.05021874938641401,0.03661006217861001,0.00036386076345160286, ,0.0709436721235757, ,0.062135010383477345, ,0.0008744383220634255, ,0.21758799873127557,-0.1610653168248264,0.10748188535000001,2.2778618560723882,1.289575284786227,-1.2801809687402592, ,0.06059830240004519,0.08353604010428767,0.07079471786666668,-0.11118270107996861,0.15783928500364514,-0.14272944118204212, ,1.0727930068969727
0.01343017782081913,0.02074612485900368,-0.09153372725993385, ,0.014474701745887062,0.020180260702913233,-0.09344810285194573, ,0.002253012734202385, ,0.019816293757752214,0.00295020086648275,-0.06805597277925934,0.05021874938641401,0.03661006217861001,0.00036386076345160286, ,0.0709436721235757, ,0.062135010383477345, ,0.00089104765233016, ,0.21758799873127557,-0.1610653168248264,0.10748188535000001,2.2778618560723882,1.289575284786227,-1.2801809687402592, ,0.06059830240004519,0.08353604010428767,0.07079471786666668,-0.11118270107996861,0.15783928500364514,-0.14272944118204212, ,1.075679063796997
0.01343017782081913,0.02074612485900368,-0.09153372725993385, ,0.014540209189257537,0.020177563769042325,-0.09362374102429684, ,0.002433842412146285, ,0.019816293757752214,0.00295020086648275,-0.06805597277925934,0.05021874938641401,0.03661006217861001,0.00036386076345160286, ,0.0709436721235757, ,0.062135010383477345, ,0.0009094142566136853, ,0.21758799873127557,-0.1610653168248264,0.10748188535000001,2.2778618560723882,1.289575284786227,-1.2801809687402592, ,0.06059830240004519,0.08353604010428767,0.07079471786666668,-0.11118270107996861,0.15783928500364514,-0.14272944118204212, ,1.0784869194030762
0.01343017782081913,0.02074612485900368,-0.09153372725993385, ,0.014605915842511587,0.020174871585858338,-0.09379878860570541, ,0.0026151850981987954, ,0.019816293757752214,0.00295020086648275,-0.06805597277925934,0.05021874938641401,0.03661006217861001,0.00036386076345160286, ,0.0709436721235757, ,0.062135010383477345, ,0.0009294821488676278, ,0.21758799873127557,-0.1610653168248264,0.10748188535000001,2.2778618560723882,1.289575284786227,-1.2801809687402592, ,0.06059830240004519,0.08353604010428767,0.07079471786666668,-0.11118270107996861,0.15783928500364514,-0.14272944118204212, ,1.0812530517578125
0.013881083922432393,0.020803599977014173,-0.09303726330851145, ,0.014671819649091766,0.020172184665130925,-0.09397324233875924, ,0.0013784066999836244, ,0.021889263312322434,0.002267892352388299,-0.06951434969688977,0.008376374742494341,-0.0016717821769955212,-0.0038644638217428546, ,0.07291452528721341, ,0.008446023229856586, ,0.0009347022017875813, ,0.21900898158013288,-0.1591500790720187,0.10904261851000001,2.275764956637543,1.2925812877810665,-1.2826321626215802, ,0.07437064385460092,0.09177653922482666,0.07207607022624436,-0.08640635470293559,0.1182213450909422,-0.10758635199531255, ,1.0842750072479248
0.013881083922432393,0.020803599977014173,-0.09303726330851145, ,0.014737918561520938,0.020169503518367923,-0.09414709899608449, ,0.001538823957124545, ,0.021889263312322434,0.002267892352388299,-0.06951434969688977,0.008376374742494341,-0.0016717821769955212,-0.0038644638217428546, ,0.07291452528721341, ,0.008446023229856586, ,0.0009416461300098452, ,0.21900898158013288,-0.1591500790720187,0.10904261851000001,2.275764956637543,1.2925812877810665,-1.2826321626215802, ,0.07437064385460092,0.09177653922482666,0.07207607022624436,-0.08640635470293559,0.1182213450909422,-0.10758635199531255, ,1.0870931148529053
0.013881083922432393,0.020803599977014173,-0.09303726330851145, ,0.014804210541386495,0.020166828656813178,-0.09432035538027932, ,0.0017041026182380307, ,0.021889263312322434,0.002267892352388299,-0.06951434969688977,0.008376374742494341,-0.0016717821769955212,-0.0038644638217428546, ,0.07291452528721341, ,0.008446023229856586, ,0.0009503104082851654, ,0.21900898158013288,-0.1591500790720187,0.10904261851000001,2.275764956637543,1.2925812877810665,-1.2826321626215802, ,0.07437064385460092,0.09177653922482666,0.07207607022624436,-0.08640635470293559,0.1182213450909422,-0.10758635199531255, ,1.0898990631103516
0.0141033862195679,0.02081373318669234,-0.09369372211634086, ,0.014870693559323406,0.02016416059144261,-0.09449300832384598, ,0.0012843533593408238, ,0.02027507751148582,-0.0010452088903591722,-0.05762533473315361,-0.042115092391061856,-0.03431426747214661,-0.03277239736796093, ,0.06109705748093965, ,0.0543186388807429, ,0.0009540636998700605, ,0.21982759126480067,-0.15813067833262107,0.10972187447000001,2.275555266694058,1.2935377432794248,-1.2834120879474553, ,0.07987958043642322,0.10747105499260563,0.05921491271375466,-0.034573119870318886,0.0699096429165361,-0.06681576852100996, ,1.0934550762176514
0.0141033862195679,0.02081373318669234,-0.09369372211634086, ,0.01493736559499809,0.020161499832961463,-0.09466505468912313, ,0.0014368078901891457, ,0.02027507751148582,-0.0010452088903591722,-0.05762533473315361,-0.042115092391061856,-0.03431426747214661,-0.03277239736796093, ,0.06109705748093965, ,0.0543186388807429, ,0.0009594275242069391, ,0.21982759126480067,-0.15813067833262107,0.10972187447000001,2.275555266694058,1.2935377432794248,-1.2834120879474553, ,0.07987958043642322,0.10747105499260563,0.05921491271375466,-0.034573119870318886,0.0699096429165361,-0.06681576852100996, ,1.0961880683898926
0.0141033862195679,0.02081373318669234,-0.09369372211634086, ,0.015004224637091954,0.020158846891800853,-0.09483649136821838, ,0.0015957153495409669, ,0.02027507751148582,-0.0010452088903591722,-0.05762533473315361,-0.042115092391061856,-0.03431426747214661,-0.03277239736796093, ,0.06109705748093965, ,0.0543186388807429, ,0.0009664196981117087, ,0.21982759126480067,-0.15813067833262107,0.10972187447000001,2.275555266694058,1.2935377432794248,-1.2834120879474553, ,0.07987958043642322,0.10747105499260563,0.05921491271375466,-0.034573119870318886,0.0699096429165361,-0.06681576852100996, ,1.0989320278167725
0.0141033862195679,0.02081373318669234,-0.09369372211634086, ,0.01507126868328482,0.02015620227811458,-0.09500731528294132, ,0.0017591675209158578, ,0.02027507751148582,-0.0010452088903591722,-0.05762533473315361,-0.042115092391061856,-0.03431426747214661,-0.03277239736796093, ,0.06109705748093965, ,0.0543186388807429, ,0.0009750365222726233, ,0.21982759126480067,-0.15813067833262107,0.10972187447000001,2.275555266694058,1.2935377432794248,-1.2834120879474553, ,0.07987958043642322,0.10747105499260563,0.05921491271375466,-0.034573119870318886,0.0699096429165361,-0.06681576852100996, ,1.1017019748687744
0.014321217725480829,0.020791940243728504,-0.09428273026905859, ,0.015138495740239045,0.020153566501776573,-0.09517752338473572, ,0.0013697149731546417, ,0.020294318664495034,-0.002801266642329772,-0.05274212540854714,-0.02315482127211572,-0.020876330158437158,-0.06927170531226931, ,0.056581253586929434, ,0.03116983780493374, ,0.0009792803765831827, ,0.22066936914809113,-0.1569722684014874,0.11029224207,2.275555266694058,1.2943575622780172,-1.2840805953696335, ,0.08868873042847737,0.11847308559109959,0.05436454443686007,-0.0115300009170165,0.09338426917012457,-0.08490868548030782, ,1.1048579216003418
0.014321217725480829,0.020791940243728504,-0.09428273026905859, ,0.015205903823582577,0.02015094007237716,-0.09534711265461157, ,0.0015252739342565338, ,0.020294318664495034,-0.002801266642329772,-0.05274212540854714,-0.02315482127211572,-0.020876330158437158,-0.06927170531226931, ,0.056581253586929434, ,0.03116983780493374, ,0.0009850888186860906, ,0.22066936914809113,-0.1569722684014874,0.11029224207,2.275555266694058,1.2943575622780172,-1.2840805953696335, ,0.08868873042847737,0.11847308559109959,0.05436454443686007,-0.0115300009170165,0.09338426917012457,-0.08490868548030782, ,1.107698917388916
0.014321217725480829,0.020791940243728504,-0.09428273026905859, ,0.015273490957892863,0.020148323499220036,-0.09551608010307924, ,0.0016858880852710582, ,0.020294318664495034,-0.002801266642329772,-0.05274212540854714,-0.02315482127211572,-0.020876330158437158,-0.06927170531226931, ,0.056581253586929434, ,0.03116983780493374, ,0.0009924656530711955, ,0.22066936914809113,-0.1569722684014874,0.11029224207,2.275555266694058,1.2943575622780172,-1.2840805953696335, ,0.08868873042847737,0.11847308559109959,0.05436454443686007,-0.0115300009170165,0.09338426917012457,-0.08490868548030782, ,1.1105520725250244
0.014321217725480829,0.020791940243728504,-0.09428273026905859, ,0.01534125517668021,0.020145717291319015,-0.09568442277007973, ,0.0018500871259184144, ,0.020294318664495034,-0.002801266642329772,-0.05274212540854714,-0.02315482127211572,-0.020876330158437158,-0.06927170531226931, ,0.056581253586929434, ,0.03116983780493374, ,0.001001399210080021, ,0.22066936914809113,-0.1569722684014874,0.11029224207,2.275555266694058,1.2943575622780172,-1.2840805953696335, ,0.08868873042847737,0.11847308559109959,0.05436454443686007,-0.0115300009170165,0.09338426917012457,-0.08490868548030782, ,1.1133849620819092
0.014474586396111192,0.02076812033341198,-0.09467424021936308, ,0.015409194522371897,0.02014312195739545,-0.09585213772491946, ,0.001628360480143079, ,0.020150539167648637,-0.003444194105111184,-0.04917403870722808,-0.013768842162393874,-0.01559101317513966,-0.0713194773115027, ,0.05325404007735554, ,0.02079358504002307, ,0.0010078627283280936, ,0.22142619696976515,-0.1559992040593351,0.11073168438000001,2.2753455767505737,1.2951773812766099,-1.2849124602720934, ,0.09527805377356505,0.11862117694808846,0.05089077162939297,-0.006453491362833008,0.11008249581793958,-0.08789814013497488, ,1.1162030696868896
0.014474586396111192,0.02076812033341198,-0.09467424021936308, ,0.015477307046294948,0.02014053800587387,-0.09601922206620064, ,0.0017911684589858316, ,0.020150539167648637,-0.003444194105111184,-0.04917403870722808,-0.013768842162393874,-0.01559101317513966,-0.0713194773115027, ,0.05325404007735554, ,0.02079358504002307, ,0.00101585564394705, ,0.22142619696976515,-0.1559992040593351,0.11073168438000001,2.2753455767505737,1.2951773812766099,-1.2849124602720934, ,0.09527805377356505,0.11862117694808846,0.05089077162939297,-0.006453491362833008,0.11008249581793958,-0.08789814013497488, ,1.1189630031585693
0.014474586396111192,0.02076812033341198,-0.09467424021936308, ,0.015545590808660727,0.02013796594488052,-0.09618567292175617, ,0.001956674172914164, ,0.020150539167648637,-0.003444194105111184,-0.04917403870722808,-0.013768842162393874,-0.01559101317513966,-0.0713194773115027, ,0.05325404007735554, ,0.02079358504002307, ,0.0010253588614113642, ,0.22142619696976515,-0.1559992040593351,0.11073168438000001,2.2753455767505737,1.2951773812766099,-1.2849124602720934, ,0.09527805377356505,0.11862117694808846,0.05089077162939297,-0.006453491362833008,0.11008249581793958,-0.08789814013497488, ,1.1217639446258545
0.014474586396111192,0.02076812033341198,-0.09467424021936308, ,0.015614043878547713,0.020135406282238488,-0.09635148744858005, ,0.00212411127127299, ,0.020150539167648637,-0.003444194105111184,-0.04917403870722808,-0.013768842162393874,-0.01559101317513966,-0.0713194773115027, ,0.05325404007735554, ,0.02079358504002307, ,0.0010363463855099805, ,0.22142619696976515,-0.1559992040593351,0.11073168438000001,2.2753455767505737,1.2951773812766099,-1.2849124602720934, ,0.09527805377356505,0.11862117694808846,0.05089077162939297,-0.006453491362833008,0.11008249581793958,-0.08789814013497488, ,1.1245601177215576
0.014699712426758962,0.020711314588505503,-0.09519169518364635, ,0.015682664333885522,0.02013285952546569,-0.09651666283276127, ,0.0017482402531921145, ,0.018227982825009058,-0.005610369392011434,-0.040127713487437384,-0.07151439487252789,-0.06375951743096468,0.03123950385365901, ,0.04442937082959321, ,0.09580960646933293, ,0.0010433948396454471, ,0.22260005236664726,-0.15460138940910045,0.11126445957000002,2.274506816976636,1.2962704732747337,-1.2858038035016648, ,0.09957706354509001,0.11803102183889398,0.04105363793814434,-0.09189328255055788,0.06811715432619474,-0.053715112925035315, ,1.1274220943450928
0.014699712426758962,0.020711314588505503,-0.09519169518364635, ,0.01575145026143853,0.020130326181771317,-0.09668119628941578, ,0.0019137172063145422, ,0.018227982825009058,-0.005610369392011434,-0.040127713487437384,-0.07151439487252789,-0.06375951743096468,0.03123950385365901, ,0.04442937082959321, ,0.09580960646933293, ,0.0010519274118676932, ,0.22260005236664726,-0.15460138940910045,0.11126445957000002,2.274506816976636,1.2962704732747337,-1.2858038035016648, ,0.09957706354509001,0.11803102183889398,0.04105363793814434,-0.09189328255055788,0.06811715432619474,-0.053715112925035315, ,1.1303179264068604
0.014699712426758962,0.020711314588505503,-0.09519169518364635, ,0.015820399756789325,0.020127806758052855,-0.0968450850626192, ,0.002080893935735307, ,0.018227982825009058,-0.005610369392011434,-0.040127713487437384,-0.07151439487252789,-0.06375951743096468,0.03123950385365901, ,0.04442937082959321, ,0.09580960646933293, ,0.0010619173781188352, ,0.22260005236664726,-0.15460138940910045,0.11126445957000002,2.274506816976636,1.2962704732747337,-1.2858038035016648, ,0.09957706354509001,0.11803102183889398,0.04105363793814434,-0.09189328255055788,0.06811715432619474,-0.053715112925035315, ,1.1330199241638184
0.014918335310415535,0.020652018666467143,-0.09567545592959703, ,0.015889510924322302,0.0201253017608924,-0.09700832642533933, ,0.0017312297739138292, ,0.022276836633125345,-0.005353969334519,-0.052874503422564924,-0.035955406658865985,-0.029626765950997815,-0.03708358827922379, ,0.05762495596698322, ,0.046584581794588006, ,0.0010683530742322486, ,0.22373529409915827,-0.1532035747588658,0.11176353122000002,2.274297127033151,1.297363565272857,-1.2864501105108144, ,0.10857773633692308,0.13853568110725661,0.054550724383561656,-0.04903357493490159,0.11783712489766815,-0.09236515925357178, ,1.1357510089874268
0.014918335310415535,0.020652018666467143,-0.09567545592959703, ,0.01595878187720751,0.0201228116965542,-0.09717091767936878, ,0.0018971017158771494, ,0.022276836633125345,-0.005353969334519,-0.052874503422564924,-0.035955406658865985,-0.029626765950997815,-0.03708358827922379, ,0.05762495596698322, ,0.046584581794588006, ,0.0010762459184383904, ,0.22373529409915827,-0.1532035747588658,0.11176353122000002,2.274297127033151,1.297363565272857,-1.2864501105108144, ,0.10857773633692308,0.13853568110725661,0.054550724383561656,-0.04903357493490159,0.11783712489766815,-0.09236515925357178, ,1.138503074645996
0.014918335310415535,0.020652018666467143,-0.09567545592959703, ,0.016028210737383846,0.02012033707098094,-0.0973328561552573, ,0.0020643362832604493, ,0.022276836633125345,-0.005353969334519,-0.052874503422564924,-0.035955406658865985,-0.029626765950997815,-0.03708358827922379, ,0.05762495596698322, ,0.046584581794588006, ,0.0010855675256536928, ,0.22373529409915827,-0.1532035747588658,0.11176353122000002,2.274297127033151,1.297363565272857,-1.2864501105108144, ,0.10857773633692308,0.13853568110725661,0.054550724383561656,-0.04903357493490159,0.11783712489766815,-0.09236515925357178, ,1.141240119934082
0.015161698619537853,0.020613830611912024,-0.09627898274243525, ,0.016097795635543193,0.02011787838979115,-0.09749413921224467, ,0.001612095368184039, ,0.022276836633125345,-0.005353969334519,-0.052874503422564924,-0.035955406658865985,-0.029626765950997815,-0.03708358827922379, ,0.05762495596698322, ,0.046584581794588006, ,0.0010904883466119203, ,0.22373529409915827,-0.1532035747588658,0.11176353122000002,2.274297127033151,1.297363565272857,-1.2864501105108144, ,0.10857773633692308,0.13853568110725661,0.054550724383561656,-0.04903357493490159,0.11783712489766815,-0.09236515925357178, ,1.1443729400634766
0.015161698619537853,0.020613830611912024,-0.09627898274243525, ,0.01616753471111354,0.02011543615827527,-0.097654764238193, ,0.0017756345340755114, ,0.02512185150102366,-0.002427130525742205,-0.0637814475415486,0.057953324168977964,0.039018471507204396,-0.11884254076970838, ,0.06859352327970762, ,0.06985680616726973, ,0.0010968322927921387, ,0.2248396449001724,-0.15183665104012808,0.11239093558000002,2.274087437089667,1.298866566770277,-1.287430671231053, ,0.10907694432008136,0.12999581035406957,0.06692777949579834,0.006414992799374451,0.20027252910804966,-0.1487417753438375, ,1.1476850509643555
0.015161698619537853,0.020613830611912024,-0.09627898274243525, ,0.016237426112242787,0.02011301088139306,-0.0978147286495192, ,0.0019407538566658708, ,0.02512185150102366,-0.002427130525742205,-0.0637814475415486,0.057953324168977964,0.039018471507204396,-0.11884254076970838, ,0.06859352327970762, ,0.06985680616726973, ,0.0011045746924607052, ,0.2248396449001724,-0.15183665104012808,0.11239093558000002,2.274087437089667,1.298866566770277,-1.287430671231053, ,0.10907694432008136,0.12999581035406957,0.06692777949579834,0.006414992799374451,0.20027252910804966,-0.1487417753438375, ,1.150557041168213
0.015161698619537853,0.020613830611912024,-0.09627898274243525, ,0.01630746799578267,0.0201106030637707,-0.09797402989112787, ,0.0021069433464238527, ,0.02512185150102366,-0.002427130525742205,-0.0637814475415486,0.057953324168977964,0.039018471507204396,-0.11884254076970838, ,0.06859352327970762, ,0.06985680616726973, ,0.001113687134769461, ,0.2248396449001724,-0.15183665104012808,0.11239093558000002,2.274087437089667,1.298866566770277,-1.287430671231053, ,0.10907694432008136,0.12999581035406957,0.06692777949579834,0.006414992799374451,0.20027252910804966,-0.1487417753438375, ,1.153414011001587
0.015405729703076625,0.02059738979761566,-0.09689624993437386, ,0.0163776585272716,0.020108213209696482,-0.09813266543634332, ,0.0018063584218392104, ,0.026333902955209022,-0.0017624983778127337,-0.06560724013014767,-0.03822616258192053,-0.02450807844484084,-0.024108322021918697, ,0.07071697676570328, ,0.04539460214535649, ,0.0011199274166349541, ,0.22589765930394112,-0.15066279564324597,0.11303908058,2.274087437089667,1.3006428412672275,-1.2883073527981228, ,0.11392189862961677,0.12356372598759216,0.06836399793991417,0.006559795186079169,0.11804160650628079,-0.022439388324152876, ,1.1563489437103271
0.015405729703076625,0.02059738979761566,-0.09689624993437386, ,0.01644799588091916,0.020105841823119173,-0.09829063278684308, ,0.0018089338672174523, ,0.026333902955209022,-0.0017624983778127337,-0.06560724013014767,-0.03822616258192053,-0.02450807844484084,-0.024108322021918697, ,0.07071697676570328, ,0.04539460214535649, ,0.0011260792599437266, ,0.22589765930394112,-0.15066279564324597,0.11303908058,2.274087437089667,1.3006428412672275,-1.2883073527981228, ,0.11392189862961677,0.12356372598759216,0.06836399793991417,0.006559795186079169,0.11804160650628079,-0.022439388324152876, ,1.1591129302978516
0.015405729703076625,0.02059738979761566,-0.09689624993437386, ,0.01651847823958903,0.020103489407643373,-0.09844792947258857, ,0.0019722718600739325, ,0.026333902955209022,-0.0017624983778127337,-0.06560724013014767,-0.03822616258192053,-0.02450807844484084,-0.024108322021918697, ,0.07071697676570328, ,0.04539460214535649, ,0.0011335676900333744, ,0.22589765930394112,-0.15066279564324597,0.11303908058,2.274087437089667,1.3006428412672275,-1.2883073527981228, ,0.11392189862961677,0.12356372598759216,0.06836399793991417,0.006559795186079169,0.11804160650628079,-0.022439388324152876, ,1.1618709564208984
0.015405729703076625,0.02059738979761566,-0.09689624993437386, ,0.01658910379478304,0.020101156466527662,-0.09860455305176047, ,0.002136567644769872, ,0.026333902955209022,-0.0017624983778127337,-0.06560724013014767,-0.03822616258192053,-0.02450807844484084,-0.024108322021918697, ,0.07071697676570328, ,0.04539460214535649, ,0.0011423659352503613, ,0.22589765930394112,-0.15066279564324597,0.11303908058,2.274087437089667,1.3006428412672275,-1.2883073527981228, ,0.11392189862961677,0.12356372598759216,0.06836399793991417,0.006559795186079169,0.11804160650628079,-0.022439388324152876, ,1.16463303565979
0.01571560456935016,0.020567980685530896,-0.09766038077898331, ,0.016659870746624377,0.020098843502680094,-0.09876050111068854, ,0.0015238087327839002, ,0.027439098371744526,-0.003026429397785452,-0.06654854574221863,-0.1435023325281951,-0.10538006855017681,0.018319905154317653, ,0.07204701475257819, ,0.17803531402854067, ,0.0011456828291419572, ,0.22723369209118197,-0.1491645854656464,0.11382722490000001,2.274087437089667,1.3011893872662894,-1.2878545582713623, ,0.11891847313091576,0.1340352281899305,0.06836399793991417,0.005732871484389431,0.014831480716082805,0.05534095875734338, ,1.1674790382385254
0.01571560456935016,0.020567980685530896,-0.09766038077898331, ,0.016730777303841777,0.02009655101865663,-0.0989157712637858, ,0.001681911674552796, ,0.027439098371744526,-0.003026429397785452,-0.06654854574221863,-0.1435023325281951,-0.10538006855017681,0.018319905154317653, ,0.07204701475257819, ,0.17803531402854067, ,0.0011503054916023954, ,0.22723369209118197,-0.1491645854656464,0.11382722490000001,2.274087437089667,1.3011893872662894,-1.2878545582713623, ,0.11891847313091576,0.1340352281899305,0.06836399793991417,0.005732871484389431,0.014831480716082805,0.05534095875734338, ,1.1702899932861328
0.01571560456935016,0.020567980685530896,-0.09766038077898331, ,0.01680182168375235,0.020094279516656197,-0.09907036115348032, ,0.0018418211296106378, ,0.027439098371744526,-0.003026429397785452,-0.06654854574221863,-0.1435023325281951,-0.10538006855017681,0.018319905154317653, ,0.07204701475257819, ,0.17803531402854067, ,0.0011562158816708422, ,0.22723369209118197,-0.1491645854656464,0.11382722490000001,2.274087437089667,1.3011893872662894,-1.2878545582713623, ,0.11891847313091576,0.1340352281899305,0.06836399793991417,0.005732871484389431,0.014831480716082805,0.05534095875734338, ,1.173037052154541
0.01571560456935016,0.020567980685530896,-0.09766038077898331, ,0.016873002112246006,0.020092029498519095,-0.09922426845014828, ,0.002002958624820064, ,0.027439098371744526,-0.003026429397785452,-0.06654854574221863,-0.1435023325281951,-0.10538006855017681,0.018319905154317653, ,0.07204701475257819, ,0.17803531402854067, ,0.0011633916676297338, ,0.22846160661818368,-0.1478748890756509,0.11452333263000002,2.274087437089667,1.3021458427646473,-1.2884711261169561, ,0.12911148511356568,0.12453666871190391,0.07142964807174888,0.005047933395058513,0.12685644272289553,-0.07316747572568583, ,1.1757550239562988
0.015993787566725468,0.020543491875913384,-0.09832948819632338, ,0.01694431682376858,0.02008980146572295,-0.09937749085204658, ,0.001485816416384131, ,0.028819139273159097,-0.0017886510298411435,-0.06818210441831854,-0.0128388893220946,-0.0346974281570104,-0.06700946584505785, ,0.07404418561820222, ,0.03697668310437107, ,0.0011661011192999388, ,0.22846160661818368,-0.1478748890756509,0.11452333263000002,2.274087437089667,1.3021458427646473,-1.2884711261169561, ,0.12911148511356568,0.12453666871190391,0.07142964807174888,0.005047933395058513,0.12685644272289553,-0.07316747572568583, ,1.1787610054016113
0.015993787566725468,0.020543491875913384,-0.09832948819632338, ,0.017015764061305373,0.020087595919379538,-0.09953002608524412, ,0.0016412094020544787, ,0.028819139273159097,-0.0017886510298411435,-0.06818210441831854,-0.0128388893220946,-0.0346974281570104,-0.06700946584505785, ,0.07404418561820222, ,0.03697668310437107, ,0.0011700603549895598, ,0.22846160661818368,-0.1478748890756509,0.11452333263000002,2.274087437089667,1.3021458427646473,-1.2884711261169561, ,0.12911148511356568,0.12453666871190391,0.07142964807174888,0.005047933395058513,0.12685644272289553,-0.07316747572568583, ,1.181467056274414
0.015993787566725468,0.020543491875913384,-0.09832948819632338, ,0.017087342076365218,0.020085413360232077,-0.09968187190355658, ,0.0017985102400798394, ,0.028819139273159097,-0.0017886510298411435,-0.06818210441831854,-0.0128388893220946,-0.0346974281570104,-0.06700946584505785, ,0.07404418561820222, ,0.03697668310437107, ,0.0011752541556927854, ,0.22846160661818368,-0.1478748890756509,0.11452333263000002,2.274087437089667,1.3021458427646473,-1.2884711261169561, ,0.12911148511356568,0.12453666871190391,0.07142964807174888,0.005047933395058513,0.12685644272289553,-0.07316747572568583, ,1.1842341423034668
0.016271617970260825,0.020525695926025468,-0.09895811644285676, ,0.017159049128963693,0.020083254288651688,-0.09983302608847683, ,0.0013224052147196535, ,0.027925732621515483,-0.0024762887372565927,-0.060929879919338015,-0.021153352449619044,-0.058290346873250354,-0.06750463005649272, ,0.06707032738360226, ,0.062003137867132595, ,0.0011764603119143171, ,0.22975130300817917,-0.14670875641164302,0.11518314424000001,2.274297127033151,1.3032389347627709,-1.2890357543859652, ,0.13498853706752598,0.11847308559109959,0.06397113060240965,0.0,0.10443968747624699,-0.07410804993345525, ,1.1870520114898682
0.016271617970260825,0.020525695926025468,-0.09895811644285676, ,0.017230883487606867,0.020081119204634578,-0.09998348644910894, ,0.0014728280428120018, ,0.027925732621515483,-0.0024762887372565927,-0.060929879919338015,-0.021153352449619044,-0.058290346873250354,-0.06750463005649272, ,0.06707032738360226, ,0.062003137867132595, ,0.0011788698056614528, ,0.22975130300817917,-0.14670875641164302,0.11518314424000001,2.274297127033151,1.3032389347627709,-1.2890357543859652, ,0.13498853706752598,0.11847308559109959,0.06397113060240965,0.0,0.10443968747624699,-0.07410804993345525, ,1.1899359226226807
0.016271617970260825,0.020525695926025468,-0.09895811644285676, ,0.01730284342927488,0.0200790086077982,-0.10013325082209952, ,0.001626006247485562, ,0.027925732621515483,-0.0024762887372565927,-0.060929879919338015,-0.021153352449619044,-0.058290346873250354,-0.06750463005649272, ,0.06707032738360226, ,0.062003137867132595, ,0.0011824757447084216, ,0.22975130300817917,-0.14670875641164302,0.11518314424000001,2.274297127033151,1.3032389347627709,-1.2890357543859652, ,0.13498853706752598,0.11847308559109959,0.06397113060240965,0.0,0.10443968747624699,-0.07410804993345525, ,1.1952769756317139
0.016271617970260825,0.020525695926025468,-0.09895811644285676, ,0.01737492723940588,0.02007692299737924,-0.10028231707157173, ,0.0017810659139841564, ,0.027925732621515483,-0.0024762887372565927,-0.060929879919338015,-0.021153352449619044,-0.058290346873250354,-0.06750463005649272, ,0.06707032738360226, ,0.062003137867132595, ,0.0011872644660626275, ,0.22975130300817917,-0.14670875641164302,0.11518314424000001,2.274297127033151,1.3032389347627709,-1.2890357543859652, ,0.13498853706752598,0.11847308559109959,0.06397113060240965,0.0,0.10443968747624699,-0.07410804993345525, ,1.1983180046081543
0.01644157666055797,0.02050926736170139,-0.09931608948908265, ,0.017447133211878872,0.020074862872228837,-0.10043068308905637, ,0.00156274442295619, ,0.02711185451700211,-0.0032895762764675075,-0.0553539416833477,-0.05744663428148411,-0.07348921327524832,-0.018621919842952868, ,0.061724653318696275, ,0.09327518732225107, ,0.001190244465720513, ,0.2305853581585954,-0.1459828195214659,0.11555906834000002,2.274506816976636,1.3037854807618328,-1.289073032300048, ,0.1381323749031598,0.11744670984959255,0.05813434861313869,0.004299670842939251,0.08526125004807089,-0.01041947570875956, ,1.2045960426330566
0.01644157666055797,0.02050926736170139,-0.09931608948908265, ,0.01751945964899813,0.02007282873081099,-0.10057834679342545, ,0.0017162761775626153, ,0.02711185451700211,-0.0032895762764675075,-0.0553539416833477,-0.05744663428148411,-0.07348921327524832,-0.018621919842952868, ,0.061724653318696275, ,0.09327518732225107, ,0.0011943864477035218, ,0.2305853581585954,-0.1459828195214659,0.11555906834000002,2.274506816976636,1.3037854807618328,-1.289073032300048, ,0.1381323749031598,0.11744670984959255,0.05813434861313869,0.004299670842939251,0.08526125004807089,-0.01041947570875956, ,1.2074401378631592
0.016917135051480132,0.020440723008119388,-0.100223777130495, ,0.01759190486147663,0.020070821071198612,-0.10072530613082466, ,0.0009185167813339693, ,0.02711185451700211,-0.0032895762764675075,-0.0553539416833477,-0.05744663428148411,-0.07348921327524832,-0.018621919842952868, ,0.061724653318696275, ,0.09327518732225107, ,0.0011922312159350096, ,0.23305663267834725,-0.14382817704955728,0.11651961923000001,2.275974646581027,1.3056983917585487,-1.2884275569680026, ,0.12486439678746157,0.10348630486201829,0.0448698916056338,0.06015184387167804,0.1267290344278461,0.018101057624048254, ,1.2101831436157227
0.016917135051480132,0.020440723008119388,-0.100223777130495, ,0.017664467168419188,0.02006884039107022,-0.10087155907460474, ,0.0010566093984943237, ,0.023093988280085485,-0.0036318071253138642,-0.041970765239625715,-0.017821491634013836,-0.020196919638453756,-0.03297681682567073, ,0.04804235061355742, ,0.02693308170126565, ,0.0011911798840168648, ,0.23305663267834725,-0.14382817704955728,0.11651961923000001,2.275974646581027,1.3056983917585487,-1.2884275569680026, ,0.12486439678746157,0.10348630486201829,0.0448698916056338,0.06015184387167804,0.1267290344278461,0.018101057624048254, ,1.2133450508117676
0.016917135051480132,0.020440723008119388,-0.100223777130495, ,0.017737144897306732,0.02006688718770731,-0.10101710362525612, ,0.001200639952344456, ,0.023093988280085485,-0.0036318071253138642,-0.041970765239625715,-0.017821491634013836,-0.020196919638453756,-0.03297681682567073, ,0.04804235061355742, ,0.02693308170126565, ,0.001191252653773231, ,0.23305663267834725,-0.14382817704955728,0.11651961923000001,2.275974646581027,1.3056983917585487,-1.2884275569680026, ,0.12486439678746157,0.10348630486201829,0.0448698916056338,0.06015184387167804,0.1267290344278461,0.018101057624048254, ,1.2160649299621582
0.016917135051480132,0.020440723008119388,-0.100223777130495, ,0.017809936383979513,0.020064961957990724,-0.10116193781033944, ,0.0013484939923161113, ,0.023093988280085485,-0.0036318071253138642,-0.041970765239625715,-0.017821491634013836,-0.020196919638453756,-0.03297681682567073, ,0.04804235061355742, ,0.02693308170126565, ,0.0011924529693346272, ,0.23305663267834725,-0.14382817704955728,0.11651961923000001,2.275974646581027,1.3056983917585487,-1.2884275569680026, ,0.12486439678746157,0.10348630486201829,0.0448698916056338,0.06015184387167804,0.1267290344278461,0.018101057624048254, ,1.2188220024108887
0.017132319906102228,0.02039877821958478,-0.10060462471386382, ,0.017882839972620686,0.020063065198397647,-0.10130605968441926, ,0.0010807379982028845, ,0.020698257679446084,-0.005154438140647654,-0.03572000576908019,-0.02485480256831409,-0.006986227368089685,0.06608574123603572, ,0.041604145414292956, ,0.025816863335677474, ,0.0011916066437957502, ,0.23426137900672628,-0.1428242217759081,0.11692795058000001,2.276184336524512,1.3070647567562033,-1.2879898399422964, ,0.1204275908102421,0.10303685294079346,0.038382678361445786,-0.0252588589901998,0.1541553485520404,0.028930753330673638, ,1.2216370105743408
0.017132319906102228,0.02039877821958478,-0.10060462471386382, ,0.01795585401574029,0.02006119740499835,-0.10144946732899635, ,0.0012271626951868126, ,0.020698257679446084,-0.005154438140647654,-0.03572000576908019,-0.02485480256831409,-0.006986227368089685,0.06608574123603572, ,0.041604145414292956, ,0.025816863335677474, ,0.0011918739825280138, ,0.23426137900672628,-0.1428242217759081,0.11692795058000001,2.276184336524512,1.3070647567562033,-1.2879898399422964, ,0.1204275908102421,0.10303685294079346,0.038382678361445786,-0.0252588589901998,0.1541553485520404,0.028930753330673638, ,1.2244129180908203
0.017132319906102228,0.02039877821958478,-0.10060462471386382, ,0.01802897687415871,0.020059359073453412,-0.10159215885244045, ,0.001376380307174977, ,0.020698257679446084,-0.005154438140647654,-0.03572000576908019,-0.02485480256831409,-0.006986227368089685,0.06608574123603572, ,0.041604145414292956, ,0.025816863335677474, ,0.0011932508953985137, ,0.23426137900672628,-0.1428242217759081,0.11692795058000001,2.276184336524512,1.3070647567562033,-1.2879898399422964, ,0.1204275908102421,0.10303685294079346,0.038382678361445786,-0.0252588589901998,0.1541553485520404,0.028930753330673638, ,1.2271630764007568
0.017132319906102228,0.02039877821958478,-0.10060462471386382, ,0.01810220691698995,0.020057550699010017,-0.10173413238992199, ,0.001527384897450752, ,0.020698257679446084,-0.005154438140647654,-0.03572000576908019,-0.02485480256831409,-0.006986227368089685,0.06608574123603572, ,0.041604145414292956, ,0.025816863335677474, ,0.001195725962080382, ,0.23541978893785995,-0.141789375570762,0.11731035613000002,2.275974646581027,1.3085677582536233,-1.2872551471195837, ,0.11544640092271385,0.10382597544690457,0.039822028800000006,0.0,0.1632398585779068,0.06213854367383477, ,1.2302820682525635
0.017335190156732884,0.020346452690429624,-0.10096138279563498, ,0.018175542521625832,0.020055772776499135,-0.10187538610334612, ,0.0012751819305694074, ,0.020719159224052985,-0.004941149637879665,-0.037040852608547406,-0.028301622274397694,0.009467793169158373,0.0738910290493039, ,0.04272848324787239, ,0.02984210453757438, ,0.0011963101971428013, ,0.23541978893785995,-0.141789375570762,0.11731035613000002,2.275974646581027,1.3085677582536233,-1.2872551471195837, ,0.11544640092271385,0.10382597544690457,0.039822028800000006,0.0,0.1632398585779068,0.06213854367383477, ,1.233518123626709
0.017335190156732884,0.020346452690429624,-0.10096138279563498, ,0.018248982073719094,0.020054025800332012,-0.10201591818128365, ,0.0014256837072740547, ,0.020719159224052985,-0.004941149637879665,-0.037040852608547406,-0.028301622274397694,0.009467793169158373,0.0738910290493039, ,0.04272848324787239, ,0.02984210453757438, ,0.0011979844563408397, ,0.23541978893785995,-0.141789375570762,0.11731035613000002,2.275974646581027,1.3085677582536233,-1.2872551471195837, ,0.11544640092271385,0.10382597544690457,0.039822028800000006,0.0,0.1632398585779068,0.06213854367383477, ,1.2369790077209473
0.017335190156732884,0.020346452690429624,-0.10096138279563498, ,0.01832252396716753,0.02005231026449752,-0.10215572683890484, ,0.0015772778809248602, ,0.020719159224052985,-0.004941149637879665,-0.037040852608547406,-0.028301622274397694,0.009467793169158373,0.0738910290493039, ,0.04272848324787239, ,0.02984210453757438, ,0.0012007329594175354, ,0.23541978893785995,-0.141789375570762,0.11731035613000002,2.275974646581027,1.3085677582536233,-1.2872551471195837, ,0.11544640092271385,0.10382597544690457,0.039822028800000006,0.0,0.1632398585779068,0.06213854367383477, ,1.239898920059204
0.01755759333653125,0.02031214015558656,-0.10134980056639725, ,0.018396166604097073,0.020050626662558472,-0.10229481031791103, ,0.001290208457020766, ,0.02209045291492166,-0.002066159921946595,-0.037956089314856896,0.026019155849076804,0.022442703806488665,-0.07842601749965417, ,0.043965007027030295, ,0.03435975329972974, ,0.001201376668033386, ,0.23661681253336475,-0.14080086576286127,0.11773294667,2.27702309629845,1.310344032750574,-1.286743290104264, ,0.11730153468290579,0.08650587197672815,0.04148128,0.14323951077125918,0.15709941344254194,0.04357219211576133, ,1.242706060409546
0.01755759333653125,0.02031214015558656,-0.10134980056639725, ,0.018469908394845785,0.020048975487648675,-0.10243316688646825, ,0.001440575229393623, ,0.02209045291492166,-0.002066159921946595,-0.037956089314856896,0.026019155849076804,0.022442703806488665,-0.07842601749965417, ,0.043965007027030295, ,0.03435975329972974, ,0.001203085229185959, ,0.23661681253336475,-0.14080086576286127,0.11773294667,2.27702309629845,1.310344032750574,-1.286743290104264, ,0.11730153468290579,0.08650587197672815,0.04148128,0.14323951077125918,0.15709941344254194,0.04357219211576133, ,1.245445966720581
0.01755759333653125,0.02031214015558656,-0.10134980056639725, ,0.018543747757947367,0.02004735723246984,-0.10257079483913861, ,0.0015916775908832775, ,0.02209045291492166,-0.002066159921946595,-0.037956089314856896,0.026019155849076804,0.022442703806488665,-0.07842601749965417, ,0.043965007027030295, ,0.03435975329972974, ,0.0012058412033823939, ,0.23661681253336475,-0.14080086576286127,0.11773294667,2.27702309629845,1.310344032750574,-1.286743290104264, ,0.11730153468290579,0.08650587197672815,0.04148128,0.14323951077125918,0.15709941344254194,0.04357219211576133, ,1.248108148574829
0.01780009821673304,0.02029283499883553,-0.10177641283160774, ,0.018617683120114782,0.02004577238928825,-0.10270769249681394, ,0.0012636323919956384, ,0.02209045291492166,-0.002066159921946595,-0.037956089314856896,0.026019155849076804,0.022442703806488665,-0.07842601749965417, ,0.043965007027030295, ,0.03435975329972974, ,0.0012062481835838957, ,0.23789878619048602,-0.13991275148232543,0.1181957222,2.2780715460158727,1.3117103977482283,-1.2862238943384166, ,0.12602515479212587,0.0846538283304824,0.04783426882882884,0.08347848157998262,0.11689353493395203,0.059270398121509735, ,1.2510900497436523
0.01780009821673304,0.02029283499883553,-0.10177641283160774, ,0.01869171291622403,0.020044221449931968,-0.10284385820664736, ,0.0014128783025230145, ,0.024392160754659664,-0.0014725569277099484,-0.04430615129690462,-0.01680677048596172,-0.024616302204088707,-0.0165907065340452, ,0.050598230926888234, ,0.029803676523632146, ,0.0012076931494506029, ,0.23789878619048602,-0.13991275148232543,0.1181957222,2.2780715460158727,1.3117103977482283,-1.2862238943384166, ,0.12602515479212587,0.0846538283304824,0.04783426882882884,0.08347848157998262,0.11689353493395203,0.059270398121509735, ,1.2542510032653809
0.01780009821673304,0.02029283499883553,-0.10177641283160774, ,0.018765835589297473,0.02004270490578698,-0.10297929034198687, ,0.0015627309561124171, ,0.024392160754659664,-0.0014725569277099484,-0.04430615129690462,-0.01680677048596172,-0.024616302204088707,-0.0165907065340452, ,0.050598230926888234, ,0.029803676523632146, ,0.0012101586897746432, ,0.23789878619048602,-0.13991275148232543,0.1181957222,2.2780715460158727,1.3117103977482283,-1.2862238943384166, ,0.12602515479212587,0.0846538283304824,0.04783426882882884,0.08347848157998262,0.11689353493395203,0.059270398121509735, ,1.256978988647461
0.01780009821673304,0.02029283499883553,-0.10177641283160774, ,0.018840049590487556,0.020041223247794417,-0.1031139873023067, ,0.0017128668359512014, ,0.024392160754659664,-0.0014725569277099484,-0.04430615129690462,-0.01680677048596172,-0.024616302204088707,-0.0165907065340452, ,0.050598230926888234, ,0.029803676523632146, ,0.0012136256425068954, ,0.23789878619048602,-0.13991275148232543,0.1181957222,2.2780715460158727,1.3117103977482283,-1.2862238943384166, ,0.12602515479212587,0.0846538283304824,0.04783426882882884,0.08347848157998262,0.11689353493395203,0.059270398121509735, ,1.2597601413726807
0.018049295620732465,0.0202848788813889,-0.10225096808074645, ,0.018914353379060545,0.020039776966447452,-0.10324794751314087, ,0.0013425229467569889, ,0.025925655401287828,-0.00023550139016690675,-0.051514237027188874,-0.043363462277823554,-0.04511889787879555,0.014847262533538802, ,0.057670717746396157, ,0.06257589018420266, ,0.0012145085007551836, ,0.2391267007174877,-0.13909414179765764,0.11870516417000002,2.2789103057898106,1.3126668532465864,-1.2854519236016206, ,0.12324278124476726,0.08042113691395829,0.055116994878892746,0.06512153468321465,0.08856205295227328,0.0814453353700724, ,1.2625110149383545
0.018049295620732465,0.0202848788813889,-0.10225096808074645, ,0.018988745422380295,0.020038366551788245,-0.10338116942601559, ,0.001490197751746214, ,0.025925655401287828,-0.00023550139016690675,-0.051514237027188874,-0.043363462277823554,-0.04511889787879555,0.014847262533538802, ,0.057670717746396157, ,0.06257589018420266, ,0.0012163839378367554, ,0.2391267007174877,-0.13909414179765764,0.11870516417000002,2.2789103057898106,1.3126668532465864,-1.2854519236016206, ,0.12324278124476726,0.08042113691395829,0.055116994878892746,0.06512153468321465,0.08856205295227328,0.0814453353700724, ,1.2652361392974854
0.018049295620732465,0.0202848788813889,-0.10225096808074645, ,0.019063224195891522,0.020036992493404456,-0.10351365151838132, ,0.0016382515925673533, ,0.025925655401287828,-0.00023550139016690675,-0.051514237027188874,-0.043363462277823554,-0.04511889787879555,0.014847262533538802, ,0.057670717746396157, ,0.06257589018420266, ,0.0012192343949633136, ,0.2391267007174877,-0.13909414179765764,0.11870516417000002,2.2789103057898106,1.3126668532465864,-1.2854519236016206, ,0.12324278124476726,0.08042113691395829,0.055116994878892746,0.06512153468321465,0.08856205295227328,0.0814453353700724, ,1.2680089473724365
0.018308557726142576,0.020291994580326447,-0.10276730777512941, ,0.019137788183103487,0.020035655280426008,-0.10364539229354568, ,0.0012346519383645658, ,0.026481606068288522,0.001555132369263938,-0.0527048763256507,-0.001783084198205052,-0.02113840129984641,-0.05334457430521241, ,0.05900421921476534, ,0.021203884494783835, ,0.0012193378684089594, ,0.24033144704586673,-0.1383527594417321,0.11926127258000001,2.2799587555072334,1.3137599452447097,-1.284709692028381, ,0.12088782364136405,0.06916686702512448,0.05688861257142858,0.1338171021026941,0.10524376495566737,0.07151369729748258, ,1.2733709812164307
0.018308557726142576,0.020291994580326447,-0.10276730777512941, ,0.019212435875573936,0.02003435540152237,-0.10377639028060609, ,0.0013789928057583905, ,0.026481606068288522,0.001555132369263938,-0.0527048763256507,-0.001783084198205052,-0.02113840129984641,-0.05334457430521241, ,0.05900421921476534, ,0.021203884494783835, ,0.0012204022346579558, ,0.24033144704586673,-0.1383527594417321,0.11926127258000001,2.2799587555072334,1.3137599452447097,-1.284709692028381, ,0.12088782364136405,0.06916686702512448,0.05688861257142858,0.1338171021026941,0.10524376495566737,0.07151369729748258, ,1.2798810005187988
0.018588229305005942,0.020315990620554204,-0.10333380317945305, ,0.019287165772892318,0.020033093344898868,-0.1039066440343821, ,0.0009469370094100972, ,0.027422860246718476,0.002943698680318926,-0.05681856496377618,0.01999321999311475,-0.00324966961221172,-0.05895920613803112, ,0.06315875197131762, ,0.02024097383026318, ,0.0012185912066761818, ,0.2415748070386169,-0.13768088168167456,0.11987312146000001,2.2814265851116247,1.3148530372428335,-1.2839674604551412, ,0.11847308559109959,0.06198363263126765,0.061501202779922784,0.1456346690396592,0.12394907362327805,0.07067953194282774, ,1.2835159301757812
0.018588229305005942,0.020315990620554204,-0.10333380317945305, ,0.01936197638266398,0.020031869598294342,-0.10403615213534853, ,0.0010829142862303614, ,0.027422860246718476,0.002943698680318926,-0.05681856496377618,0.01999321999311475,-0.00324966961221172,-0.05895920613803112, ,0.06315875197131762, ,0.02024097383026318, ,0.0012176985953574592, ,0.2415748070386169,-0.13768088168167456,0.11987312146000001,2.2814265851116247,1.3148530372428335,-1.2839674604551412, ,0.11847308559109959,0.06198363263126765,0.061501202779922784,0.1456346690396592,0.12394907362327805,0.07067953194282774, ,1.2864041328430176
0.018588229305005942,0.020315990620554204,-0.10333380317945305, ,0.0194368662204931,0.020030684648976744,-0.10416491318956671, ,0.0012216087592418607, ,0.027422860246718476,0.002943698680318926,-0.05681856496377618,0.01999321999311475,-0.00324966961221172,-0.05895920613803112, ,0.06315875197131762, ,0.02024097383026318, ,0.0012177241519841548, ,0.2415748070386169,-0.13768088168167456,0.11987312146000001,2.2814265851116247,1.3148530372428335,-1.2839674604551412, ,0.11847308559109959,0.06198363263126765,0.061501202779922784,0.1456346690396592,0.12394907362327805,0.07067953194282774, ,1.289259910583496
0.018845464236421965,0.020335777178122315,-0.10385815641194115, ,0.019511833809966565,0.02002953898374072,-0.10429292582861847, ,0.0008525577317238104, ,0.027422860246718476,0.002943698680318926,-0.05681856496377618,0.01999321999311475,-0.00324966961221172,-0.05895920613803112, ,0.06315875197131762, ,0.02024097383026318, ,0.0012153529414629836, ,0.24274093970262478,-0.13708623125035926,0.12044089648000002,2.2820556549420785,1.3160827657407224,-1.2831732893053165, ,0.10970744688840552,0.052896845907731756,0.04698764460176992,0.06140989403855525,0.10112507922603194,0.08788786577778035, ,1.2920269966125488
0.018845464236421965,0.020335777178122315,-0.10385815641194115, ,0.01958687768263795,0.020028433088904656,-0.1044201887095379, ,0.0009798135490738877, ,0.0227826159875065,0.0012831328815254754,-0.04318542500726857,-0.012173031296456395,-0.022730274087640265,0.03393397874942304, ,0.048843371651476473, ,0.02578173472616185, ,0.0012138333324798283, ,0.24274093970262478,-0.13708623125035926,0.12044089648000002,2.2820556549420785,1.3160827657407224,-1.2831732893053165, ,0.10970744688840552,0.052896845907731756,0.04698764460176992,0.06140989403855525,0.10112507922603194,0.08788786577778035, ,1.2951841354370117
0.018845464236421965,0.020335777178122315,-0.10385815641194115, ,0.01966199637801087,0.020027367450307143,-0.10454670051474464, ,0.0011117258115040112, ,0.0227826159875065,0.0012831328815254754,-0.04318542500726857,-0.012173031296456395,-0.022730274087640265,0.03393397874942304, ,0.048843371651476473, ,0.02578173472616185, ,0.0012131787970889576, ,0.24274093970262478,-0.13708623125035926,0.12044089648000002,2.2820556549420785,1.3160827657407224,-1.2831732893053165, ,0.10970744688840552,0.052896845907731756,0.04698764460176992,0.06140989403855525,0.10112507922603194,0.08788786577778035, ,1.2979850769042969
0.018845464236421965,0.020335777178122315,-0.10385815641194115, ,0.019737188443522517,0.020026342553303652,-0.1046724599519751, ,0.001246600218144373, ,0.0227826159875065,0.0012831328815254754,-0.04318542500726857,-0.012173031296456395,-0.022730274087640265,0.03393397874942304, ,0.048843371651476473, ,0.02578173472616185, ,0.0012133916723823042, ,0.24274093970262478,-0.13708623125035926,0.12044089648000002,2.2820556549420785,1.3160827657407224,-1.2831732893053165, ,0.10970744688840552,0.052896845907731756,0.04698764460176992,0.06140989403855525,0.10112507922603194,0.08788786577778035, ,1.3007581233978271
0.01907477866804541,0.020339765332055053,-0.10426443803548315, ,0.01981245243452733,0.020025358882763765,-0.10479746575421656, ,0.0009628772248057996, ,0.021562645821392355,-0.00011471730066015158,-0.03620039970403215,-0.04273373943838319,-0.045404275707227514,0.09150236517732982, ,0.04213584926887758, ,0.06235109117645936, ,0.0012118061379039718, ,0.24391479509950692,-0.13652247175054089,0.12088422766000001,2.2824750348290475,1.3170392212390805,-1.2821562823480992, ,0.11544640092271385,0.05355357875760201,0.03962390925373134,0.020241713176789026,0.08508758697832762,0.11250375363827222, ,1.3035359382629395
0.01907477866804541,0.020339765332055053,-0.10426443803548315, ,0.01988778691428076,0.020024416923067636,-0.10492171667963858, ,0.0010919900382148084, ,0.021562645821392355,-0.00011471730066015158,-0.03620039970403215,-0.04273373943838319,-0.045404275707227514,0.09150236517732982, ,0.04213584926887758, ,0.06235109117645936, ,0.0012110525775285684, ,0.24391479509950692,-0.13652247175054089,0.12088422766000001,2.2824750348290475,1.3170392212390805,-1.2821562823480992, ,0.11544640092271385,0.05355357875760201,0.03962390925373134,0.020241713176789026,0.08508758697832762,0.11250375363827222, ,1.3062829971313477
0.01907477866804541,0.020339765332055053,-0.10426443803548315, ,0.019963190453922936,0.020023517158103157,-0.10504521151152622, ,0.001224293931091057, ,0.021562645821392355,-0.00011471730066015158,-0.03620039970403215,-0.04273373943838319,-0.045404275707227514,0.09150236517732982, ,0.04213584926887758, ,0.06235109117645936, ,0.0012111353359883338, ,0.24391479509950692,-0.13652247175054089,0.12088422766000001,2.2824750348290475,1.3170392212390805,-1.2821562823480992, ,0.11544640092271385,0.05355357875760201,0.03962390925373134,0.020241713176789026,0.08508758697832762,0.11250375363827222, ,1.3090429306030273
0.019291411502400123,0.02035078279675658,-0.10461122484279728, ,0.020038661632462137,0.020022660071262757,-0.10516794905821254, ,0.0009879216223430542, ,0.022410205423697153,0.0015811332208487032,-0.03504237802524696,0.02867104493876093,0.004475088566711057,-0.14446702810528672, ,0.041625539600811036, ,0.029017277524723308, ,0.001209748915406686, ,0.245019145900521,-0.13601277138084206,0.12126922579000002,2.2843622443204086,1.3179956767374386,-1.2809759179106006, ,0.11164346065702443,0.05219853771093002,0.039137129041769046,0.2708401236832461,0.10133125558180188,0.11293608432884406, ,1.3120200634002686
0.019291411502400123,0.02035078279675658,-0.10461122484279728, ,0.02011419903675825,0.020021846145439524,-0.10528992815301058, ,0.0011161616507340212, ,0.022410205423697153,0.0015811332208487032,-0.03504237802524696,0.02867104493876093,0.004475088566711057,-0.14446702810528672, ,0.041625539600811036, ,0.029017277524723308, ,0.00120917121624204, ,0.245019145900521,-0.13601277138084206,0.12126922579000002,2.2843622443204086,1.3179956767374386,-1.2809759179106006, ,0.11164346065702443,0.05219853771093002,0.039137129041769046,0.2708401236832461,0.10133125558180188,0.11293608432884406, ,1.315737009048462
0.019291411502400123,0.02035078279675658,-0.10461122484279728, ,0.020189801261507136,0.020021075863025543,-0.10541114765414675, ,0.0012472719533188883, ,0.022410205423697153,0.0015811332208487032,-0.03504237802524696,0.02867104493876093,0.004475088566711057,-0.14446702810528672, ,0.041625539600811036, ,0.029017277524723308, ,0.0012094049630952722, ,0.245019145900521,-0.13601277138084206,0.12126922579000002,2.2843622443204086,1.3179956767374386,-1.2809759179106006, ,0.11164346065702443,0.05219853771093002,0.039137129041769046,0.2708401236832461,0.10133125558180188,0.11293608432884406, ,1.3188340663909912
