NicholasDascanio/dvrk_moveit_final/test/execution/third_experiment_notsharpbends/thirdexp_400vel5.0/thirdexp_400vel5.0_23.csv
Current Position (x),Current Position (y),Current Position (z), ,Planned Position (x),Planned Position (y),Planned Position (z), ,Position Error,,Cartesian linear Velocity(x),Cartesian linear Velocity(y),Cartesian linear Velocity(z),Cartesian Angular Velocity(x),Cartesian Angular Velocity(y),Cartesian Angular Velocity(z), ,Total Linear Velocity, ,Total Angular Velocity, ,MSE, ,Joint 1 Position,Joint 2 Position,Joint 3 Position,Joint 4 Position,Joint 5 Position,Joint 6 Position, ,Joint 1 Velocity,Joint 2 Velocity,Joint 3 Velocity,Joint 4 Velocity,Joint 5 Velocity,Joint 6 Velocity, ,Time Stamp
0.009498499443668096,0.020428397109361167,-0.07813965412618674, ,0.009669930176036439,0.020366834142759218,-0.07831985080799801, ,0.0002562212695951889, ,0.00017277576824206725,0.00017345166317271165,-0.0006892902462517462,0.13456209890349918,0.000699461003845478,-0.04818358206812337, ,0.0007314765813932865, ,0.13456391680911656, ,2.135177246626574e-05, ,0.17722127399770404,-0.24721240203680078,0.08886975353000001,1.7001660617725234,0.5126601471199326,-1.2504280154414429, ,0.000625405872505176,0.0,0.0007271604013520102,-0.0010458915931511362,0.0,-0.14344494743100178, ,0.02860093116760254
0.009522331779239893,0.02043896439662433,-0.07821073373897706, ,0.00973459921956749,0.02038486857098506,-0.07852267201898146, ,0.00038116835533255226, ,0.0021683700414119296,0.001077339782825989,-0.005075750598254664,0.12733154060570753,-0.1325995185817331,-0.09115087583228304, ,0.00562367618020765, ,0.18383675790701196, ,2.897225567853369e-05, ,0.1772676103949494,-0.24715062017380698,0.08893975319000001,1.6997466818855542,0.5117036916215745,-1.2561007105866722, ,0.0018576907020572183,0.0017788667520412292,0.00485190725555894,0.0038035627669965474,-0.13865295153493945,-0.14903976513184014, ,0.05711698532104492
0.00959214116848683,0.020483432223693126,-0.07843425813340918, ,0.009799539862099086,0.02040237406357571,-0.07872508786391959, ,0.000366287558596313, ,0.0028043460977070353,0.0016781541980193794,-0.008544630561242822,0.4025613607172204,-0.11248751940448436,-0.18598201573580456, ,0.0091482932821472, ,0.41798216602951677, ,3.136491198512669e-05, ,0.17735256045656586,-0.24701933371494517,0.08916271507000001,1.6997466818855542,0.5088343251265002,-1.2625822385442282, ,0.004016169021925458,0.005418092646967085,0.008499899423692638,0.0038035627669965474,-0.11848676853094585,-0.4434878847057969, ,0.08479690551757812
0.009676034617962867,0.02052029247899456,-0.07866908229016673, ,0.009864748362299978,0.02041935630463539,-0.07892709507764448, ,0.00033521871531589113, ,0.0018716469350792502,0.0011478945202784898,-0.0076996242092472675,-0.1391224019622348,0.011308109319724246,0.04683422673629942, ,0.008006555878959662, ,0.13958121663414183, ,3.187847378190346e-05, ,0.17754562877842148,-0.24676448353009575,0.08939475098,1.6997466818855542,0.5055550491321297,-1.2629303222407149, ,0.00812229665083886,0.010366751433203198,0.008000407594173784,0.0037250178735718366,0.020592390608386957,0.13939462589142948, ,0.11199402809143066
0.009700507435153426,0.020537806374747898,-0.07879999167021288, ,0.0099302210002708,0.02043582095501648,-0.07912869041997514, ,0.0004137779790322305, ,0.0010123909074107465,0.0005987520909600393,-0.0061873206025614335,-0.03887630344876599,0.08128034521962886,0.0366029893427834, ,0.006298124772876301, ,0.09009917579975162, ,3.3705266882157226e-05, ,0.17769236070303174,-0.24654824700961747,0.08953345401000001,1.699956371829039,0.5069214141297841,-1.2608590304121972, ,0.008133428698918988,0.012542551091524027,0.006598513471416737,-0.0022261941938510107,0.09389066164551135,0.03615470583745334, ,0.14000701904296875
0.009758665578237864,0.020557174777152888,-0.07901259714297694, ,0.009995954077496868,0.020451773652357966,-0.07932987067566327, ,0.00040997283267539883, ,0.0021767075361839466,0.0005905584105823832,-0.007212566818936696,0.03326564373080421,0.001129396392082024,-0.015297144814002949, ,0.007556979227973053, ,0.03328480989154985, ,3.5453224763074994e-05, ,0.17800899275087495,-0.24613121943440935,0.08975252702000001,1.6997466818855542,0.5076045966286112,-1.2606810112694142, ,0.012240028577127663,0.015200535248834017,0.007401864089219333,-0.0008150661713862127,0.013614092718046202,-0.05017102597056207, ,0.1640629768371582
0.00980893920883019,0.020573012823116087,-0.07917737105260494, ,0.010061943916801123,0.020467220011124252,-0.07953063265434117, ,0.0004472105327313293, ,0.002514943512013803,0.0009143951890343721,-0.00856751420571056,0.013038173684097914,-0.0050764839384216,-0.009780097953588312, ,0.00897570939232113, ,0.013991590904284854, ,3.7283674903984345e-05, ,0.17826384293572436,-0.24581458738656614,0.08992104472000001,1.6997466818855542,0.5076045966286112,-1.2613344411905387, ,0.012791069087271975,0.015367925758456807,0.008805313167495854,-0.0008150661713862127,0.007943021958986933,-0.029358546023008587, ,0.1887190341949463
0.009886633055788782,0.020597589183722963,-0.07944037374349128, ,0.010128186862296704,0.020482165622643485,-0.07973097319046711, ,0.000395118815640808, ,0.002583093195662361,0.0008188698347082461,-0.008661062151961217,-0.011626936869128392,-0.014113523858311492,0.0013235110345935063, ,0.009075071121694164, ,0.018285982826229587, ,3.8037671631895094e-05, ,0.17864997957943557,-0.24532805521549,0.09018548788000001,1.69953699194207,0.5078778696281421,-1.262210706919056, ,0.012539236463857134,0.016438063668538158,0.008888845714285717,-0.006494478042647949,0.0,-0.005633898701104265, ,0.21305203437805176
0.009938507228114563,0.020613467091668627,-0.07960836080699427, ,0.010194679279339983,0.02049661605514618,-0.07993088914327198, ,0.0004281387768790409, ,0.002653546766006029,0.0007087598214524846,-0.008548877145178269,-0.025646818759140884,-0.013118131026851132,0.006062934387989082, ,0.008979251158489653, ,0.028807023942796644, ,3.9012668588622195e-05, ,0.17894344342865612,-0.24498825496902413,0.09036307961000001,1.69953699194207,0.5080145061279076,-1.262403803562893, ,0.013877879724842172,0.01727283246422839,0.008732901052631581,-0.005995426056377392,0.002380154064076462,0.008298904405676457, ,0.2380380630493164
0.010011107669953986,0.020627886355109627,-0.07984030958167519, ,0.010261417554483121,0.02051057685380364,-0.08013037739670578, ,0.00040069426587645117, ,0.0023868228784663975,0.00038570574865160357,-0.007355555784237105,-0.00930129952557186,7.820920260020591e-05,-0.0013351786987486698, ,0.007742731641529199, ,0.009301627170130876, ,3.9523805171909324e-05, ,0.17936047100386424,-0.24446310913357686,0.09060030068000001,1.6993273019985855,0.508424415627204,-1.2627380572739824, ,0.014380503342699013,0.017824369188292784,0.007524237846008504,-0.000489142163174624,0.015077109611331697,-0.007504876410416619, ,0.26296186447143555
0.010062105100156073,0.020638786921187237,-0.07999425568628409, ,0.010328398095427066,0.020524053540766748,-0.08032943485938378, ,0.0004431938469709429, ,0.002502291641584057,0.0004880958236517911,-0.007389657340397549,-0.008112819557651698,-0.002314013029283557,-0.0015419523036725425, ,0.007817079800097933, ,0.008436378099592343, ,4.0349084421190066e-05, ,0.17966938031883323,-0.24412330888711098,0.09075844806000001,1.6993273019985855,0.5086976886267348,-1.2629608930813752, ,0.015531414330355283,0.016692513906503215,0.007592379180171592,-0.000489142163174624,0.013784702139622584,-0.007698018973895437, ,0.28713083267211914
0.010113124485034772,0.020648686589390588,-0.08014843398088166, ,0.010395617330974142,0.020537051615204322,-0.08052805846453334, ,0.00048618856841384044, ,0.002705628082164803,0.0006578511991490607,-0.008456729744781729,-0.007703474626326208,-0.0022283295305014156,0.0036608348206251294, ,0.00890334035604035, ,0.008019284915898196, ,4.1782381728596385e-05, ,0.1799782896338022,-0.2437835086406451,0.09091659544000001,1.6991176120551008,0.5089709616262656,-1.2632654076289085, ,0.01580298776993685,0.0175086608041459,0.008694766113537119,-0.0063881567082329236,0.015611865334375537,-0.009915050707921364, ,0.30907392501831055
0.010172526864866582,0.02066749932672073,-0.08033693984558124, ,0.010463071710981046,0.02054957655334152,-0.08072624516994004, ,0.0004998807094289892, ,0.0031035133192421067,0.001039447384390859,-0.009913888074011673,-0.007223384885475699,-0.006178670267098128,0.002788160896244635, ,0.0104401830698346, ,0.00950542790753371, ,4.313993628269653e-05, ,0.18031036714739385,-0.243435985661305,0.09111103894000001,1.6991176120551008,0.5092442346257966,-1.263406564696161, ,0.017064726048996722,0.01729171675628112,0.010230450558766861,-0.0063881567082329236,0.012811043323526342,-0.010446546813784588, ,0.33179688453674316
0.010263300897527704,0.020695192824548125,-0.08061496136155333, ,0.01053075770631147,0.02056163380849857,-0.08092399195789449, ,0.0004299663531113721, ,0.0028467943054633488,0.0006164610859030345,-0.008648732485751915,0.007758127188389155,0.011267760847558471,-0.0003334512376345137, ,0.009126052580286386, ,0.013680311531476474, ,4.379260445846422e-05, ,0.18085095844858956,-0.2429340080244804,0.09139881532000001,1.6989079221116163,0.5097907806248584,-1.2638522363109466, ,0.01842659059387782,0.018717345475043546,0.008953800741989884,-0.003732042911104183,0.0315337137072611,-0.025713629103918192, ,0.3539750576019287
0.010325947191004268,0.02070966766692319,-0.08079658952081252, ,0.01059867180878899,0.02057322881112936,-0.08112129583513777, ,0.0004454531053644624, ,0.0031735889515915575,0.0007888199152147489,-0.009127342898032496,-0.016789955471969382,-0.018174453050305607,0.004426514198149745, ,0.00969547791862617, ,0.024742944147414892, ,4.448182380409283e-05, ,0.18122164962655235,-0.24257103957939186,0.09158548108,1.6986982321681319,0.5099274171246237,-1.2640453329547834, ,0.01842659059387782,0.01758327618278132,0.009380925512367492,-0.0079947110140729,0.002239037690458132,-0.001825785102782765, ,0.37707090377807617
0.010385190036223875,0.02072209191446041,-0.08096319432098302, ,0.010666810531149812,0.020584366968859676,-0.08131815383280953, ,0.00047357630730345034, ,0.002960312055228326,0.00046658976993773954,-0.008322563206124822,-0.007054669979199657,-0.006817316375121445,0.0036199530151154653, ,0.008845688882030803, ,0.009810409326077513, ,4.528813693334426e-05, ,0.18160778627026358,-0.2422157938671775,0.09175788765000001,1.6986982321681319,0.5103373266239201,-1.2645429441461538, ,0.018709964818310488,0.019002190940823144,0.008550086698872786,-0.0079947110140729,0.014223458742692818,-0.012598136122636064, ,0.3993089199066162
0.010446768066381507,0.020732215074677086,-0.08112985356334958, ,0.01073517040699559,0.020595053666526066,-0.08151456300639286, ,0.0004999905174344041, ,0.0030487057279301333,0.0005392356092704695,-0.008448954854416373,-0.010446683488650686,-0.006070787365206303,0.005580013616124736, ,0.00899834539178094, ,0.012082533347417357, ,4.6484042547076245e-05, ,0.1819939229139748,-0.24183737995634053,0.09192899793,1.6986982321681319,0.5104739631236854,-1.2648993982702719, ,0.01957849010903049,0.018498429153698006,0.008709027621651176,-0.0079947110140729,0.01593802720254608,-0.008321451806285705, ,0.4183070659637451
0.010513540453675894,0.020746199318164387,-0.08132599383571394, ,0.010803747990746163,0.02060529426621403,-0.08171052043566161, ,0.0005019316231368978, ,0.0034418199079881712,0.000809818590772414,-0.009940599753162553,-0.0011162786184971646,-0.008960357549842262,-0.0026320169304316484, ,0.010550708690962883, ,0.009029617284805962, ,4.758743833024727e-05, ,0.18240322775630868,-0.24142807511400663,0.09213121917000001,1.6984885422246472,0.5108838726229818,-1.2652336519813612, ,0.020589486126810757,0.01980320149383781,0.010250200463320465,-0.004271491620733034,0.012955366420196002,-0.0191608364246311, ,0.4377279281616211
0.010582311111823601,0.020762494297077827,-0.08153201936042448, ,0.010872539857592341,0.020615094107296908,-0.08190602322462676, ,0.000495820966938856, ,0.0034784595451701115,0.0008420965736125625,-0.011022267026609819,0.007183564197010347,0.007969494824070309,0.00045671117410818896, ,0.011588752212924614, ,0.01072922549095609, ,4.856174311244563e-05, ,0.18281253259864258,-0.24101877027167273,0.09234381073,1.698278852281163,0.5112937821222782,-1.265649584432591, ,0.020251161237403066,0.022428962788577353,0.011377722514285715,-0.006950504838155113,0.030739862073546356,-0.02967232834853668, ,0.4575350284576416
0.010655226740574064,0.020778576386222297,-0.08174001301299019, ,0.010941542603448824,0.020624458506474107,-0.08210106850148197, ,0.0004858910988707544, ,0.003618869150137707,0.0006655821233136154,-0.010073643396137057,-0.009780962026907621,-0.022513753458578555,-0.001723136046177375, ,0.010724621427408466, ,0.02454661298893724, ,4.940058734855847e-05, ,0.18323728290672495,-0.24059401996359037,0.09255769858000001,1.698278852281163,0.5114304186220436,-1.2660877172968497, ,0.020976335446169492,0.021416597056752605,0.010316587772020727,-0.006950504838155113,0.0,-0.013278371169762524, ,0.47751903533935547
0.010724412929191537,0.02079035493201038,-0.0819410943106636, ,0.011010752844906806,0.02063339275780961,-0.08229565341855169, ,0.0004820164234215047, ,0.0032515293037483645,0.00029297011481120523,-0.009072685157731703,0.009097426729706603,0.01029789695248872,0.0006265042714799565, ,0.009642193229376393, ,0.013740807591775445, ,5.0153141558401535e-05, ,0.18365431048193306,-0.24015382418975958,0.09275862353000001,1.698278852281163,0.5119769646211053,-1.267023461352479, ,0.021997436615315436,0.022971905484984453,0.009364380670194005,-0.006950504838155113,0.034991069917065035,-0.03175639141176146, ,0.4969179630279541
0.010793942679542994,0.020798936893863182,-0.08213192968927074, ,0.011080167219186863,0.02064190213277066,-0.08248977515223634, ,0.0004843942388703539, ,0.003846481362882435,0.0005572477366792387,-0.01048192498028339,-0.04380375063260599,-0.0358323937898194,0.004667978881759624, ,0.011179297616904426, ,0.056592657541935605, ,5.0862302451813996e-05, ,0.1841022289886381,-0.2396904602173061,0.09296084477000001,1.698069162337678,0.5122502376206363,-1.2673279759000122, ,0.02128211293080753,0.023559320148577652,0.010661855100401608,-0.006095105042881407,-0.01341812917483645,0.01960043645825388, ,0.5157949924468994
0.010833760232648048,0.020805630025172363,-0.08224268697194682, ,0.01114978238409177,0.020649991880266286,-0.08268343090295882, ,0.0005642237544421816, ,0.003916097941270333,0.0009203931902169496,-0.011271902383458413,0.0022619030269856112,-0.012860794224608311,-0.006615233427915009, ,0.011968238385511667, ,0.013058179483639567, ,5.21976114195011e-05, ,0.18431846550911637,-0.23945877823107936,0.09307362200000001,1.6978594723941938,0.5121136011208708,-1.2672165579963157, ,0.022567643652430622,0.02197705918445363,0.011618389146608317,-0.0032407603976581456,0.010639425166730393,-0.025026407939525538, ,0.5324289798736572
0.010911731539262047,0.02082110674897058,-0.08247733473570179, ,0.01121959501795913,0.02065766722668586,-0.08287661789511175, ,0.0005300183396341339, ,0.003663809240479218,0.0005813377432359781,-0.010692468366997204,0.02643297279577318,0.013490370723216082,-0.0014866796776131764, ,0.011317699920989575, ,0.029676455538181188, ,5.328177477508673e-05, ,0.18478955221444407,-0.238964523327129,0.09331602823000001,1.6976497824507093,0.512796783619698,-1.2681003624753602, ,0.023612078019027316,0.023963874130926963,0.011069361723419043,-0.010361019738917121,0.040559319446723224,-0.051531207741198556, ,0.5485219955444336
0.01099336320164266,0.0208330058145168,-0.0826958014351146, ,0.01128960181961446,0.020664933375937205,-0.08306933337700345, ,0.0005055015084044678, ,0.004196309040849748,0.0006232165758034729,-0.011351514013633058,-0.010350355385656635,-0.02526207484019588,-0.0004588996216933805, ,0.01211834472477084, ,0.027300221489201405, ,5.418376923991172e-05, ,0.18528380711839443,-0.23847026842317864,0.0935402864,1.6976497824507093,0.5129334201194634,-1.268293459119197, ,0.024622973938368133,0.024979452897728554,0.011626869722627739,-0.009810124934760602,0.001587596180025522,-0.016800540770443167, ,0.5648999214172363
0.011033376889571624,0.020840844936680893,-0.08281253167900399, ,0.011359799508323566,0.020671795509485526,-0.08326157462080398, ,0.0005803180149266019, ,0.0041229156701030785,0.0007841571548617844,-0.011794429361798591,-0.006977977117450523,-0.011031610472736276,0.0019087936282144488, ,0.012518861770814436, ,0.013053289471913736, ,5.538761546390762e-05, ,0.1855232118374954,-0.23822314097120345,0.09366084137000001,1.6976497824507093,0.5132066931189944,-1.2685979736667305, ,0.02401846154352589,0.02445797462847185,0.012140862439024392,-0.009092085747740572,0.01553028316623406,-0.01849976373280952, ,0.5814778804779053
0.011115747964452418,0.02085601779501759,-0.08305114962589963, ,0.011430184823745726,0.020678258786392036,-0.0834533389224925, ,0.0005405784253220332, ,0.004176994493352243,0.0008863069089235754,-0.012216774303503854,-0.0037323413384655582,-0.00029191828666155436,-0.003000885093813459, ,0.012941499036705627, ,0.003743703516431135, ,5.63429032278461e-05, ,0.18601746674144576,-0.23772116333437887,0.09390713647000001,1.6974400925072246,0.513753239118056,-1.269125324021657, ,0.024451672650984486,0.02480317343399655,0.012621879175911255,-0.0019999149880544284,0.025363967890964952,-0.020113361348608715, ,0.5982959270477295
0.011160514601822312,0.020862073864639986,-0.08317418547688442, ,0.011500754525886241,0.020684328343351856,-0.08364462360180336, ,0.0006071809496700842, ,0.004436475480475276,0.0005371976232921838,-0.012397602909525032,-0.01634384027939209,-0.012787311929433443,0.006509380228941498, ,0.013178446565418576, ,0.020751775070573027, ,5.780239396116831e-05, ,0.18627231692629517,-0.237450867683781,0.09403287660000001,1.6972304025637401,0.513753239118056,-1.269125324021657, ,0.026301813070529596,0.02860926788015399,0.012712539122106946,-0.01258699453129864,0.016963770428106085,-0.01344352421839662, ,0.6119389533996582
0.01124797535927786,0.020874646842135535,-0.08342710076996003, ,0.011571505395049312,0.02069000929473326,-0.08383542600217217, ,0.0005527134910766173, ,0.0045316221243088635,0.0006409845836223117,-0.013347844457668609,0.023402217939891147,0.024917051375067785,0.004499255978625589, ,0.014110684320049175, ,0.03418366320388499, ,5.8958979580776975e-05, ,0.18682835369323933,-0.2368793854510884,0.09429472718000001,1.6970207126202554,0.5147096946164142,-1.2700686068278129, ,0.029073817879433455,0.03023158380327199,0.013839106446568205,-0.013995720835305028,0.05888870139737554,-0.05402215013952305, ,0.6258199214935303
0.011297537937136696,0.020884037236776495,-0.08356552401691145, ,0.011642434231790788,0.02069530673261543,-0.0840257434906827, ,0.0006052888742619542, ,0.0048719933910872405,0.0010406903120318428,-0.014207659008369991,0.0026430686828304807,-0.004543790053591031,0.0034083261584308302, ,0.015055793915515437, ,0.005256544606599755, ,6.029157175398757e-05, ,0.18711409480958566,-0.2365936443347421,0.09443731908000001,1.6970207126202554,0.5148463311161796,-1.2703433822117904, ,0.028092641077107988,0.027812702684194248,0.014680932276497697,-0.013002409991404625,0.027283127497609506,-0.031975395091701546, ,0.6392350196838379
0.01135208570657562,0.020894438173852233,-0.08371703607615738, ,0.011713537856870973,0.020700225726827854,-0.0842155734580135, ,0.0006456823155703502, ,0.005141707425921387,0.0008532299515954432,-0.014678513867954792,-0.008192298630778829,-0.015376718226710911,0.0014360080072633005, ,0.015576390017453205, ,0.01742287401281685, ,6.173789300104813e-05, ,0.1874152813916804,-0.2362847350197731,0.09459287388000001,1.6970207126202554,0.5148463311161796,-1.270425060951931, ,0.029109491275604533,0.031123955906353157,0.015084101818181822,-0.01174172077522441,0.016865701663748015,-0.024575330456697977, ,0.6533429622650146
0.011449049119310663,0.02090954999256177,-0.08399460543047915, ,0.011784813111207389,0.020704771324987964,-0.08440491331838397, ,0.000568352288483683, ,0.004876306307837483,0.0005912975038203957,-0.013843848693269082,0.022631921589394827,0.017993856207449074,-0.008621958367641144, ,0.014689456851361384, ,0.02891335725146351, ,6.280646429108287e-05, ,0.18799448635724725,-0.23568236185558358,0.09487935397000001,1.696811022676771,0.5155295136150068,-1.2711455079506941, ,0.030750791172544,0.032332859134061594,0.014324470791366908,-0.0028727977286904308,0.05073464493088689,-0.05396402594957816, ,0.6670398712158203
0.011501794801045781,0.02091310202319658,-0.08413742662366491, ,0.011856256855827708,0.020708948552540064,-0.0845937605095013, ,0.0006128316271406604, ,0.00503727309052661,0.0004251601223907651,-0.013486484219737959,0.00985635743686483,-0.0007486244560681892,0.00016400496611856754, ,0.014402782298134477, ,0.009884724292374962, ,6.401130020110403e-05, ,0.18831884113796468,-0.2353425616091177,0.09502583474000001,1.696391642789802,0.5158027866145377,-1.2714500224982277, ,0.0318981316162927,0.032521227401806296,0.013899486492146597,-0.01273330830221593,0.0349530894283374,-0.043862752743526544, ,0.6813640594482422
0.011553564558021739,0.020916019138267863,-0.08426763680111161, ,0.011927865971822224,0.020712762412793916,-0.08478211249250622, ,0.0006679072404603759, ,0.005191660793040527,8.74043916961341e-06,-0.012367554639734182,-0.022964681573000228,-0.035550598926940395,0.0009389832584522644, ,0.013413046855658172, ,0.04232282356443548, ,6.564567337434196e-05, ,0.1886431959186821,-0.23501048409552605,0.09515935261000001,1.696391642789802,0.5159394231143032,-1.271561440401924, ,0.032813603581767214,0.033819294924615384,0.012601907848101265,-0.01226143334342255,0.0,-0.013254211583767201, ,0.6921260356903076
0.011606385838586442,0.02091711326374015,-0.0844015879213205, ,0.011999637360297024,0.02071621788696327,-0.08496996675192063, ,0.0007197639938287952, ,0.005269209514592346,0.00017996573728146697,-0.0134703215840578,-0.017350338507929403,-0.01785811600366425,0.0020224595317448004, ,0.014465355859888108, ,0.024898717036103527, ,6.74315378287616e-05, ,0.18898299616514797,-0.2346475156504375,0.09529675935000001,1.696391642789802,0.516212696113834,-1.2719476336895978, ,0.032813603581767214,0.035004404853733226,0.013791178805194806,-0.010832504046421368,0.017938897959635335,-0.018654321499160298, ,0.7036759853363037
0.011657610496381029,0.020921732317310975,-0.08454599520600736, ,0.01207156794232652,0.020719319934203805,-0.08515732079559267, ,0.0007655393630445542, ,0.005221258570478427,0.0005510160117614563,-0.01506022362215859,0.04937425166585369,0.05146513447008775,-0.0025991992912788005, ,0.015949153433785616, ,0.07131953462302783, ,6.933851172002895e-05, ,0.1893305191444881,-0.23429226993822316,0.09544712899,1.696391642789802,0.5170325151124266,-1.272861177332198, ,0.035409306551668206,0.0357427275173148,0.01570888710059172,-0.009731306210971227,0.0915973705671148,-0.08379842303480207, ,0.7148199081420898
0.011776174389562456,0.02094247082567211,-0.08488696141376505, ,0.012143654658906338,0.020722073491652393,-0.08534417215464468, ,0.0006266246043491707, ,0.0070052203085311255,0.0014851057843546767,-0.019642711265921525,-0.042623015160047975,-0.03750873345017095,-0.003283369796657792, ,0.020907289557428075, ,0.05677696348140711, ,7.066150625589657e-05, ,0.19001784237029407,-0.23358950124666875,0.09579971987000001,1.6961819528463176,0.5178523341110194,-1.2737747209747985, ,0.037040180155531136,0.037229086527450286,0.020214227817258887,-0.0017908967249061364,0.0,0.006086414515074537, ,0.7260138988494873
0.011845574541061497,0.020954933130242517,-0.08508220575098188, ,0.012215894470905994,0.020724483474465198,-0.08553051838341859, ,0.000625482302459668, ,0.0068456858661206845,0.0011688076995556083,-0.01884716789918007,-0.026278807724636418,-0.04038589990980358,0.003034153747847869, ,0.020085946934014054, ,0.04818292507570476, ,7.194074609707599e-05, ,0.19039625628113105,-0.2332033646029575,0.09600064482000001,1.6959722629028329,0.5179889706107847,-1.2738044601383542, ,0.036881827267186466,0.03771738535710285,0.019354570498177404,-0.015719868885372624,0.0,-0.01448653344038751, ,0.7368040084838867
0.011910204917016415,0.020964672140068443,-0.08527104029038433, ,0.01228828435902193,0.02072655477585597,-0.08571635705942275, ,0.0006308335504659785, ,0.0068456858661206845,0.0011688076995556083,-0.01884716789918007,-0.026278807724636418,-0.04038589990980358,0.003034153747847869, ,0.020085946934014054, ,0.04818292507570476, ,7.347215315307138e-05, ,0.19039625628113105,-0.2332033646029575,0.09600064482000001,1.6959722629028329,0.5179889706107847,-1.2738044601383542, ,0.036881827267186466,0.03771738535710285,0.019354570498177404,-0.015719868885372624,0.0,-0.01448653344038751, ,0.7454750537872314
0.011910204917016415,0.020964672140068443,-0.08527104029038433, ,0.01236082132373007,0.020728292267135337,-0.08590168578327853, ,0.0008103359352979244, ,0.00605992322357455,0.0009133964405049488,-0.017763480907479968,0.052863317342940155,0.057318939493124714,-0.0026354131334645177, ,0.018790907814247575, ,0.07797428663651321, ,7.562514394080389e-05, ,0.19078239292484228,-0.23280178249349784,0.09619638461,1.6957625729593484,0.5186721531096119,-1.2744432283969769, ,0.039359992351087,0.03859168017831264,0.018565048391608396,-0.009906618294227128,0.10166744183608604,-0.08973358834810548, ,0.7537610530853271
0.011974131955830008,0.020974398043662613,-0.08544993934052794, ,0.012433502385238679,0.020729700797748274,-0.0860865021786668, ,0.0008222591929997294, ,0.006827288401963739,0.000802001785543413,-0.018393315724831966,0.013290099165845918,0.012640287563303617,-0.002948424367860803, ,0.019635914471726402, ,0.018341251328309747, ,7.77745438006498e-05, ,0.19119169776717618,-0.2324156458497866,0.09638305037000001,1.6957625729593484,0.5194919721082046,-1.2751117358191555, ,0.04263115074504527,0.04118790866253071,0.019076420982035932,-0.008706580950553443,0.05881733677986242,-0.053807333088450975, ,0.7618498802185059
0.012044811469491032,0.020981851882091083,-0.0856395787017786, ,0.01250632458344118,0.020730785195313406,-0.08627080389227454, ,0.0008212637071453455, ,0.007619552085370033,0.001068531453916562,-0.020052990944599995,-0.015595481874528149,-0.020148873518396202,-0.00833375197473323, ,0.02147840262388908, ,0.025479264438775875, ,7.987432978544765e-05, ,0.19161644807525854,-0.23199089554170427,0.09657879016000001,1.695552883015864,0.5199018816075008,-1.2754459895302446, ,0.04474160375222573,0.04263115074504527,0.02071366907672302,-0.002271072354217058,0.02576121628819893,-0.026161605183838307, ,0.7699899673461914
0.012101917138616967,0.02099105774702071,-0.08579703248718246, ,0.01257928497786901,0.020731550265661033,-0.08645458859374075, ,0.0008529971981817458, ,0.007845752636462427,0.0013541212518628542,-0.0215097581867581,-0.00033398074524347473,-0.0037448777571719404,0.006642634482441966, ,0.022935979945276175, ,0.003759128636484407, ,8.204172981663282e-05, ,0.19195624832172442,-0.23167426349386105,0.09674212270000002,1.6953431930723792,0.5203117911067973,-1.275780243241334, ,0.04602179513019921,0.04257377369155261,0.022309259831932778,-0.01840350913337755,0.04773422111169189,-0.04365369949502426, ,0.779109001159668
0.01220012082201893,0.02100679353936007,-0.08607922634018357, ,0.012652380647644242,0.020732000792872053,-0.08663785397560383, ,0.0007694899859337351, ,0.007603193390211221,0.0012835319870714338,-0.022391122360840638,0.024490407205135706,0.030633623248460855,0.006902814416724096, ,0.02368160392939897, ,0.039219807369173465, ,8.38716766574854e-05, ,0.19253545328729124,-0.23110278126116846,0.09703508424000001,1.6949238131854105,0.5212682466051554,-1.27672352604749, ,0.04407661010611741,0.045470503861270134,0.023253739445255477,-0.020076481145936128,0.08140852462565004,-0.07059715398942751, ,0.787513017654419
0.01220012082201893,0.02100679353936007,-0.08607922634018357, ,0.012725608691432555,0.020732141539316098,-0.08682059775324732, ,0.0009493170145621389, ,0.007603193390211221,0.0012835319870714338,-0.022391122360840638,0.024490407205135706,0.030633623248460855,0.006902814416724096, ,0.02368160392939897, ,0.039219807369173465, ,8.65854740923714e-05, ,0.19253545328729124,-0.23110278126116846,0.09703508424000001,1.6949238131854105,0.5212682466051554,-1.27672352604749, ,0.04407661010611741,0.045470503861270134,0.023253739445255477,-0.020076481145936128,0.08140852462565004,-0.07059715398942751, ,0.7935118675231934
0.012279179379960162,0.021019558140257456,-0.08630332839548292, ,0.01279896622739591,0.020731977245690016,-0.08700281766484678, ,0.0009176962327712761, ,0.008315317606152433,0.0011864188176928029,-0.02366384494842855,0.0014534907939345876,0.006115845705759874,0.0067701497983369335, ,0.02511034954446934, ,0.006285601307569932, ,8.915280265991117e-05, ,0.19298337179399627,-0.23063941728871498,0.09726712015000001,1.6949238131854105,0.521814792604217,-1.2772508764024162, ,0.04707189561432083,0.049554538672830696,0.0244682204608295,-0.020076481145936128,0.05929761904212268,-0.05223834645356668, ,0.7989890575408936
0.012279179379960162,0.021019558140257456,-0.08630332839548292, ,0.012872450393145449,0.02073151263105665,-0.0871845114713167, ,0.001100647229403012, ,0.008315317606152433,0.0011864188176928029,-0.02366384494842855,0.0014534907939345876,0.006115845705759874,0.0067701497983369335, ,0.02511034954446934, ,0.006285601307569932, ,9.23115068519769e-05, ,0.19298337179399627,-0.23063941728871498,0.09726712015000001,1.6949238131854105,0.521814792604217,-1.2772508764024162, ,0.04707189561432083,0.049554538672830696,0.0244682204608295,-0.020076481145936128,0.05929761904212268,-0.05223834645356668, ,0.8044040203094482
0.012371615030122407,0.021032878541811725,-0.08656510199623099, ,0.012946058345694112,0.020730752392883356,-0.08736567695625555, ,0.0010306238883752035, ,0.00930511211176188,0.001291410650227147,-0.02601924433778981,0.00022419686164883737,0.0009182766148763655,0.004633970736104567, ,0.02766322339839638, ,0.0009389199976885694, ,9.518906084745733e-05, ,0.19350851762944354,-0.23008338052177083,0.09753804476000001,1.6949238131854105,0.5224979751030443,-1.277889644661039, ,0.05274982854834395,0.05441338392114149,0.02690677621621622,-0.020076481145936128,0.05974553641470484,-0.055968090898194565, ,0.809830904006958
0.012371615030122407,0.021032878541811725,-0.08656510199623099, ,0.013019787261409685,0.02072970120707997,-0.08754631192589407, ,0.001214420299474776, ,0.010374626475518983,0.001813873058218919,-0.029229734911109702,0.03253072754619729,0.03522781799770615,0.00046731813633063427, ,0.031069284075298825, ,0.047950245661574104, ,9.864866279941633e-05, ,0.19407227712926192,-0.2295427892205751,0.09781933969,1.6949238131854105,0.5233177941016369,-1.2787215095634987, ,0.06114493657117962,0.05744366922425592,0.030456618585086043,-0.01701486882745279,0.10288500008907792,-0.08925585298750026, ,0.8199009895324707
0.012575736612158776,0.02106949951859223,-0.08714546016348022, ,0.01309363433596737,0.020728363728037772,-0.08772641420904057, ,0.0008497642514110993, ,0.010948573020758539,0.0022113956241937485,-0.03160046976605978,0.03593041029999258,0.03142106287681499,0.0005053648558286311, ,0.03351643195856688, ,0.04773097595099966, ,0.00010083814912764541, ,0.19469009575919988,-0.22895586152213404,0.09814211590000001,1.6945044332984414,0.5244108860997605,-1.2797762102733512, ,0.061661430512326684,0.058687038687984396,0.03291076760330579,-0.02019851660394965,0.10010998809927336,-0.09509078651251329, ,0.8262639045715332
0.012575736612158776,0.02106949951859223,-0.08714546016348022, ,0.013167596784302738,0.020726744588668244,-0.08790598165702794, ,0.0010228256681886342, ,0.010948573020758539,0.0022113956241937485,-0.03160046976605978,0.03593041029999258,0.03142106287681499,0.0005053648558286311, ,0.03351643195856688, ,0.04773097595099966, ,0.00010357531369408989, ,0.19469009575919988,-0.22895586152213404,0.09814211590000001,1.6945044332984414,0.5244108860997605,-1.2797762102733512, ,0.061661430512326684,0.058687038687984396,0.03291076760330579,-0.02019851660394965,0.10010998809927336,-0.09509078651251329, ,0.8318719863891602
0.012689170744134422,0.021086133582337747,-0.08745831990912763, ,0.013241671840564425,0.020724848400440806,-0.08808501214366014, ,0.0009102349153037476, ,0.011197468266217049,0.0011429965979748659,-0.02971914663080487,-0.04623542025452805,-0.030957006002424174,0.06392430162524457, ,0.03177919780704353, ,0.05564195470240345, ,0.0001059034073626845, ,0.19533108258776052,-0.22835348835794453,0.09846618840000002,1.6936656735245033,0.5250940685985876,-1.2805783360122551, ,0.06416290842357726,0.061943173341038375,0.030691351676300584,-0.07552695663277613,0.051758615212408925,-0.02637637051026892, ,0.8374269008636475
0.012689170744134422,0.021086133582337747,-0.08745831990912763, ,0.013315856758066983,0.020722679753421885,-0.08826350356515862, ,0.0010831226919198592, ,0.011197468266217049,0.0011429965979748659,-0.02971914663080487,-0.04623542025452805,-0.030957006002424174,0.06392430162524457, ,0.03177919780704353, ,0.05564195470240345, ,0.00010912855351633853, ,0.19533108258776052,-0.22835348835794453,0.09846618840000002,1.6936656735245033,0.5250940685985876,-1.2805783360122551, ,0.06416290842357726,0.061943173341038375,0.030691351676300584,-0.07552695663277613,0.051758615212408925,-0.02637637051026892, ,0.8402178287506104
0.012689170744134422,0.021086133582337747,-0.08745831990912763, ,0.01339014880924361,0.020720243216313012,-0.08844145384010836, ,0.0012616649055749976, ,0.011197468266217049,0.0011429965979748659,-0.02971914663080487,-0.04623542025452805,-0.030957006002424174,0.06392430162524457, ,0.03177919780704353, ,0.05564195470240345, ,0.0001129197915165315, ,0.19533108258776052,-0.22835348835794453,0.09846618840000002,1.6936656735245033,0.5250940685985876,-1.2805783360122551, ,0.06416290842357726,0.061943173341038375,0.030691351676300584,-0.07552695663277613,0.051758615212408925,-0.02637637051026892, ,0.8430728912353516
0.012689170744134422,0.021086133582337747,-0.08745831990912763, ,0.01346454528559915,0.020717543336489824,-0.08861886090940546, ,0.0014435788382390988, ,0.011758401006487097,0.0006062295100598045,-0.030848401544874303,-0.04194208771305614,-0.016733470454431076,-0.02289371162065222, ,0.03301895495502587, ,0.045156614346478656, ,0.0006387713474868691, ,0.19599523761494383,-0.22765844239926433,0.09877600171,1.6934559835810188,0.5256406145976494,-1.2810240076270407, ,0.06659434495331282,0.07454590852982779,0.03173070023904383,0.01172492008554747,0.04855082494232213,-0.02680016087919764, ,0.8461060523986816
0.012804123742625672,0.021093735204710876,-0.08775883233224546, ,0.013539043497662565,0.02071458464004018,-0.08879572273620277, ,0.00132627444627888, ,0.011758401006487097,0.0006062295100598045,-0.030848401544874303,-0.04194208771305614,-0.016733470454431076,-0.02289371162065222, ,0.03301895495502587, ,0.045156614346478656, ,0.0006508328053604132, ,0.19599523761494383,-0.22765844239926433,0.09877600171,1.6934559835810188,0.5256406145976494,-1.2810240076270407, ,0.06659434495331282,0.07454590852982779,0.03173070023904383,0.01172492008554747,0.04855082494232213,-0.02680016087919764, ,0.8490869998931885
0.012804123742625672,0.021093735204710876,-0.08775883233224546, ,0.013613640774940053,0.020711371631802606,-0.08897203730585654, ,0.001507775193949321, ,0.011758401006487097,0.0006062295100598045,-0.030848401544874303,-0.04194208771305614,-0.016733470454431076,-0.02289371162065222, ,0.03301895495502587, ,0.045156614346478656, ,0.0006656076741291874, ,0.19599523761494383,-0.22765844239926433,0.09877600171,1.6934559835810188,0.5256406145976494,-1.2810240076270407, ,0.06659434495331282,0.07454590852982779,0.03173070023904383,0.01172492008554747,0.04855082494232213,-0.02680016087919764, ,0.8518328666687012
0.012804123742625672,0.021093735204710876,-0.08775883233224546, ,0.01368833446586762,0.02070790879540518,-0.08914780262587307, ,0.001691132489722124, ,0.011758401006487097,0.0006062295100598045,-0.030848401544874303,-0.04194208771305614,-0.016733470454431076,-0.02289371162065222, ,0.03301895495502587, ,0.045156614346478656, ,0.0006829894506646608, ,0.19599523761494383,-0.22765844239926433,0.09877600171,1.6934559835810188,0.5256406145976494,-1.2810240076270407, ,0.06659434495331282,0.07454590852982779,0.03173070023904383,0.01172492008554747,0.04855082494232213,-0.02680016087919764, ,0.854578971862793
0.012929205894519015,0.021107092374070005,-0.08810795520927141, ,0.013763121937764022,0.02070420059330345,-0.08932301672585524, ,0.0015277801685038533, ,0.014011604216782192,0.0022180774976808537,-0.04086401652023733,0.09624558305552773,0.10777090108817211,-0.020134905355512742, ,0.04325636099673314, ,0.14449105657941533, ,0.0006970692959619808, ,0.19672889723799517,-0.22687844637896765,0.09913896291,1.6936656735245033,0.5270069795953038,-1.282301544144286, ,0.08194899961871396,0.08251907961606154,0.04270458852546917,-0.007081754999426069,0.1960556370486824,-0.1736342048468003, ,0.8572838306427002
0.012929205894519015,0.021107092374070005,-0.08810795520927141, ,0.01383800057678356,0.020700251466819735,-0.08949767765744915, ,0.001709606908413063, ,0.014011604216782192,0.0022180774976808537,-0.04086401652023733,0.09624558305552773,0.10777090108817211,-0.020134905355512742, ,0.04325636099673314, ,0.14449105657941533, ,0.0007136682732152772, ,0.19672889723799517,-0.22687844637896765,0.09913896291,1.6936656735245033,0.5270069795953038,-1.282301544144286, ,0.08194899961871396,0.08251907961606154,0.04270458852546917,-0.007081754999426069,0.1960556370486824,-0.1736342048468003, ,0.8600518703460693
0.012929205894519015,0.021107092374070005,-0.08810795520927141, ,0.013912967787868706,0.020696065836180468,-0.0896717834942901, ,0.0018926936314895054, ,0.014011604216782192,0.0022180774976808537,-0.04086401652023733,0.09624558305552773,0.10777090108817211,-0.020134905355512742, ,0.04325636099673314, ,0.14449105657941533, ,0.0007326848112519583, ,0.19672889723799517,-0.22687844637896765,0.09913896291,1.6936656735245033,0.5270069795953038,-1.282301544144286, ,0.08194899961871396,0.08251907961606154,0.04270458852546917,-0.007081754999426069,0.1960556370486824,-0.1736342048468003, ,0.8628129959106445
0.012929205894519015,0.021107092374070005,-0.08810795520927141, ,0.013988020994703206,0.02069164810055614,-0.08984533233194976, ,0.0020765747343111994, ,0.014011604216782192,0.0022180774976808537,-0.04086401652023733,0.09624558305552773,0.10777090108817211,-0.020134905355512742, ,0.04325636099673314, ,0.14449105657941533, ,0.0007540163973322637, ,0.19672889723799517,-0.22687844637896765,0.09913896291,1.6936656735245033,0.5270069795953038,-1.282301544144286, ,0.08194899961871396,0.08251907961606154,0.04270458852546917,-0.007081754999426069,0.1960556370486824,-0.1736342048468003, ,0.8656759262084961
0.013088610612017519,0.021137290471194378,-0.08858279162034162, ,0.01406315763966457,0.020687002638098383,-0.09001832228788231, ,0.0017925538594920428, ,0.017210942210241876,0.004118928731910497,-0.05206025422091639,0.13775690888111733,0.12390725680131796,-0.011917362151327458, ,0.05498592706510718, ,0.18528246495712108, ,0.0007702435451785103, ,0.19760156605278253,-0.22602122302992872,0.09961599763000001,1.693246293637534,0.5291931635915509,-1.2844926243041315, ,0.09451886609409439,0.08918885484818684,0.054179631020408174,-0.027411664110216807,0.22984111007771832,-0.22606633182279964, ,0.8693220615386963
0.013088610612017519,0.021137290471194378,-0.08858279162034162, ,0.014138375183777125,0.020682133805979424,-0.09019075150137085, ,0.0019735015138101003, ,0.017210942210241876,0.004118928731910497,-0.05206025422091639,0.13775690888111733,0.12390725680131796,-0.011917362151327458, ,0.05498592706510718, ,0.18528246495712108, ,0.000788755206234381, ,0.19760156605278253,-0.22602122302992872,0.09961599763000001,1.693246293637534,0.5291931635915509,-1.2844926243041315, ,0.09451886609409439,0.08918885484818684,0.054179631020408174,-0.027411664110216807,0.22984111007771832,-0.22606633182279964, ,0.8721580505371094
0.013088610612017519,0.021137290471194378,-0.08858279162034162, ,0.014213671106664612,0.020677045940429784,-0.09036261813347393, ,0.0021553117086776587, ,0.017210942210241876,0.004118928731910497,-0.05206025422091639,0.13775690888111733,0.12390725680131796,-0.011917362151327458, ,0.05498592706510718, ,0.18528246495712108, ,0.0008094606077865518, ,0.19760156605278253,-0.22602122302992872,0.09961599763000001,1.693246293637534,0.5291931635915509,-1.2844926243041315, ,0.09451886609409439,0.08918885484818684,0.054179631020408174,-0.027411664110216807,0.22984111007771832,-0.22606633182279964, ,0.8749639987945557
0.01328476290424102,0.021187127747336065,-0.08917562050124682, ,0.014289042906503246,0.02067174335677804,-0.09053392036697298, ,0.0017661194518509785, ,0.02091191584283016,0.005553303139645431,-0.06279387084968831,0.06272666296779346,0.035142630773035755,0.09313943802520676, ,0.06641699794680381, ,0.07189341025440657, ,0.0008237390979964686, ,0.19858235312780903,-0.22511766328364446,0.10020840216000002,1.6921978439201113,0.531106074588267,-1.2862158324361626, ,0.10509074369708835,0.09340250153392793,0.06475126634146343,-0.13572175504595785,0.17737776960819188,-0.18075793330048026, ,0.877816915512085
0.01328476290424102,0.021187127747336065,-0.08917562050124682, ,0.014364488099974192,0.02066623034948777,-0.09070465640631711, ,0.0019429594428037602, ,0.02091191584283016,0.005553303139645431,-0.06279387084968831,0.06272666296779346,0.035142630773035755,0.09313943802520676, ,0.06641699794680381, ,0.07189341025440657, ,0.0008401982207142228, ,0.19858235312780903,-0.22511766328364446,0.10020840216000002,1.6921978439201113,0.531106074588267,-1.2862158324361626, ,0.10509074369708835,0.09340250153392793,0.06475126634146343,-0.13572175504595785,0.17737776960819188,-0.18075793330048026, ,0.8806259632110596
0.01328476290424102,0.021187127747336065,-0.08917562050124682, ,0.014440004222216692,0.020660511192197153,-0.09087482447757118, ,0.002121132162799168, ,0.02091191584283016,0.005553303139645431,-0.06279387084968831,0.06272666296779346,0.035142630773035755,0.09313943802520676, ,0.06641699794680381, ,0.07189341025440657, ,0.0008587624807444395, ,0.19858235312780903,-0.22511766328364446,0.10020840216000002,1.6921978439201113,0.531106074588267,-1.2862158324361626, ,0.10509074369708835,0.09340250153392793,0.06475126634146343,-0.13572175504595785,0.17737776960819188,-0.18075793330048026, ,0.883465051651001
0.01328476290424102,0.021187127747336065,-0.08917562050124682, ,0.014515588826780659,0.020654590137756938,-0.09104442282836149, ,0.0023002067070246137, ,0.022984511733560073,0.005929254650339928,-0.06994676779973927,0.03158121218831314,0.025450794895114676,0.003831787763762802, ,0.07386470175915814, ,0.04053938338073244, ,0.0008793545411198705, ,0.1996635357302005,-0.22409053981137259,0.10090710247000001,1.691568774089658,0.5327457125854522,-1.2875528472805196, ,0.10820631876678537,0.11060249598889368,0.0727342991780822,-0.04193472862040344,0.1459586904138612,-0.14586019140358522, ,0.8863010406494141
0.013491336165918511,0.021242128264484024,-0.08980142171388829, ,0.014591239485579575,0.020648471418269056,-0.09121344972782248, ,0.001885746238440974, ,0.022984511733560073,0.005929254650339928,-0.06994676779973927,0.03158121218831314,0.025450794895114676,0.003831787763762802, ,0.07386470175915814, ,0.04053938338073244, ,0.0008935290720680551, ,0.1996635357302005,-0.22409053981137259,0.10090710247000001,1.691568774089658,0.5327457125854522,-1.2875528472805196, ,0.10820631876678537,0.11060249598889368,0.0727342991780822,-0.04193472862040344,0.1459586904138612,-0.14586019140358522, ,0.8890998363494873
0.013491336165918511,0.021242128264484024,-0.08980142171388829, ,0.014666953788843265,0.020642159245125514,-0.09138190346654337, ,0.002059116847096578, ,0.022984511733560073,0.005929254650339928,-0.06994676779973927,0.03158121218831314,0.025450794895114676,0.003831787763762802, ,0.07386470175915814, ,0.04053938338073244, ,0.0009097177911656733, ,0.1996635357302005,-0.22409053981137259,0.10090710247000001,1.691568774089658,0.5327457125854522,-1.2875528472805196, ,0.10820631876678537,0.11060249598889368,0.0727342991780822,-0.04193472862040344,0.1459586904138612,-0.14586019140358522, ,0.8918428421020508
0.013491336165918511,0.021242128264484024,-0.08980142171388829, ,0.014742729345070704,0.020635657809045874,-0.09154978235651441, ,0.002233955290249118, ,0.022984511733560073,0.005929254650339928,-0.06994676779973927,0.03158121218831314,0.025450794895114676,0.003831787763762802, ,0.07386470175915814, ,0.04053938338073244, ,0.0009278580308791451, ,0.1996635357302005,-0.22409053981137259,0.10090710247000001,1.691568774089658,0.5327457125854522,-1.2875528472805196, ,0.10820631876678537,0.11060249598889368,0.0727342991780822,-0.04193472862040344,0.1459586904138612,-0.14586019140358522, ,0.8946390151977539
0.013728017273712931,0.021299116509803092,-0.09050664369840042, ,0.014818563780982782,0.020628971280117044,-0.09171708473107379, ,0.001761690610455994, ,0.024474578801737566,0.00513368962835368,-0.07120185765066951,0.032910299746695855,0.033866500632911335,-0.014534268809748858, ,0.07546564986554434, ,0.0472037887380109, ,0.0009391260387112646, ,0.20079877746271146,-0.22293212988023892,0.10164080261000001,1.691568774089658,0.5342487140828721,-1.2887784442211803, ,0.12104201729396784,0.12166274558778303,0.07408749544186047,-0.02371205609733661,0.1636017131098608,-0.15368057131206847, ,0.8974449634552002
0.013728017273712931,0.021299116509803092,-0.09050664369840042, ,0.014894454741475336,0.020622103807830527,-0.09188380894485348, ,0.001927564961517587, ,0.024474578801737566,0.00513368962835368,-0.07120185765066951,0.032910299746695855,0.033866500632911335,-0.014534268809748858, ,0.07546564986554434, ,0.0472037887380109, ,0.0009523052243486822, ,0.20079877746271146,-0.22293212988023892,0.10164080261000001,1.691568774089658,0.5342487140828721,-1.2887784442211803, ,0.12104201729396784,0.12166274558778303,0.07408749544186047,-0.02371205609733661,0.1636017131098608,-0.15368057131206847, ,0.900305986404419
0.013728017273712931,0.021299116509803092,-0.09050664369840042, ,0.014970399889571606,0.02061505952112195,-0.09204995337372689, ,0.0020960088935659707, ,0.024474578801737566,0.00513368962835368,-0.07120185765066951,0.032910299746695855,0.033866500632911335,-0.014534268809748858, ,0.07546564986554434, ,0.0472037887380109, ,0.0009673539568383833, ,0.20079877746271146,-0.22293212988023892,0.10164080261000001,1.691568774089658,0.5342487140828721,-1.2887784442211803, ,0.12104201729396784,0.12166274558778303,0.07408749544186047,-0.02371205609733661,0.1636017131098608,-0.15368057131206847, ,0.9030349254608154
0.013728017273712931,0.021299116509803092,-0.09050664369840042, ,0.015046396906375239,0.02060784252840884,-0.09221551641475376, ,0.00226632533716329, ,0.024251374549965576,0.0030732956286639314,-0.06643103240143813,0.05557424582337359,0.0810246285178681,-0.03547927181293222, ,0.07078598999452368, ,0.09824557731243516, ,0.0009842237150244212, ,0.2020653056540843,-0.22165015622311765,0.10237061388000002,1.6913590841461734,0.5362982615793538,-1.2906130702569076, ,0.13143620714469637,0.13161850424198443,0.06925570226086958,0.0,0.2172600215159018,-0.1790685414304866, ,0.9060430526733398
0.013973366219726308,0.021341186962182082,-0.09120725082088234, ,0.015122443491023228,0.020600456917629444,-0.09238049648612828, ,0.0018015451605032083, ,0.024251374549965576,0.0030732956286639314,-0.06643103240143813,0.05557424582337359,0.0810246285178681,-0.03547927181293222, ,0.07078598999452368, ,0.09824557731243516, ,0.000994702195094662, ,0.2020653056540843,-0.22165015622311765,0.10237061388000002,1.6913590841461734,0.5362982615793538,-1.2906130702569076, ,0.13143620714469637,0.13161850424198443,0.06925570226086958,0.0,0.2172600215159018,-0.1790685414304866, ,0.9093809127807617
0.013973366219726308,0.021341186962182082,-0.09120725082088234, ,0.015198537360638436,0.020592906756281257,-0.09254489202712478, ,0.0019622057964710626, ,0.024251374549965576,0.0030732956286639314,-0.06643103240143813,0.05557424582337359,0.0810246285178681,-0.03547927181293222, ,0.07078598999452368, ,0.09824557731243516, ,0.001006949076124743, ,0.2020653056540843,-0.22165015622311765,0.10237061388000002,1.6913590841461734,0.5362982615793538,-1.2906130702569076, ,0.13143620714469637,0.13161850424198443,0.06925570226086958,0.0,0.2172600215159018,-0.1790685414304866, ,0.912121057510376
0.013973366219726308,0.021341186962182082,-0.09120725082088234, ,0.015274676250282575,0.020585196091459194,-0.09270870149804411, ,0.002125860796993126, ,0.024251374549965576,0.0030732956286639314,-0.06643103240143813,0.05557424582337359,0.0810246285178681,-0.03547927181293222, ,0.07078598999452368, ,0.09824557731243516, ,0.001020935472635598, ,0.2020653056540843,-0.22165015622311765,0.10237061388000002,1.6913590841461734,0.5362982615793538,-1.2906130702569076, ,0.13143620714469637,0.13161850424198443,0.06925570226086958,0.0,0.2172600215159018,-0.1790685414304866, ,0.9148809909820557
0.014220995517097679,0.02135101295095129,-0.09184677933701366, ,0.015350857912909044,0.020577328949894523,-0.09287192338016075, ,0.0017105836068896966, ,0.02522510874714582,-0.00041414465958821925,-0.06103637747577986,0.014002213641376127,0.02758465628231748,0.10404108347477022, ,0.0660448105642698, ,0.030921321630585752, ,0.0010294496471325622, ,0.2034862885029416,-0.2202446188400088,0.10303561065000001,1.6901009444852664,0.5384844455756008,-1.292477435456191, ,0.15232253861712805,0.1462202489344696,0.06346140047808765,-0.1506763127058396,0.21734036021459902,-0.18194898187006486, ,0.9176290035247803
0.014220995517097679,0.02135101295095129,-0.09184677933701366, ,0.015427080119315614,0.020569309337993006,-0.09303455617566884, ,0.0018645413443163282, ,0.02522510874714582,-0.00041414465958821925,-0.06103637747577986,0.014002213641376127,0.02758465628231748,0.10404108347477022, ,0.0660448105642698, ,0.030921321630585752, ,0.0010396336922201689, ,0.2034862885029416,-0.2202446188400088,0.10303561065000001,1.6901009444852664,0.5384844455756008,-1.292477435456191, ,0.15232253861712805,0.1462202489344696,0.06346140047808765,-0.1506763127058396,0.21734036021459902,-0.18194898187006486, ,0.92044997215271
0.014220995517097679,0.02135101295095129,-0.09184677933701366, ,0.015503340658097328,0.0205611412418734,-0.09319659840762871, ,0.0020224534360135786, ,0.02522510874714582,-0.00041414465958821925,-0.06103637747577986,0.014002213641376127,0.02758465628231748,0.10404108347477022, ,0.0660448105642698, ,0.030921321630585752, ,0.0010514748939526196, ,0.2034862885029416,-0.2202446188400088,0.10303561065000001,1.6901009444852664,0.5384844455756008,-1.292477435456191, ,0.15232253861712805,0.1462202489344696,0.06346140047808765,-0.1506763127058396,0.21734036021459902,-0.18194898187006486, ,0.9232690334320068
0.014487858775581192,0.02133898999486702,-0.09244948231989365, ,0.015579637335599352,0.020552828627406546,-0.09335804861991377, ,0.001623429345963323, ,0.025841382801183366,-0.002180740155814052,-0.05485828983712009,-0.004544230177385917,-0.0002694536590310382,0.0006736192347624499, ,0.060679194593846984, ,0.004497310214134125, ,0.0010582838755241757, ,0.2051543988037741,-0.21869234953228966,0.10366301501000001,1.6892621847113283,0.5405339930720824,-1.2941487040116373, ,0.1661942934474094,0.15355492161564852,0.057092514408602156,-0.04297629665913739,0.17881788150439237,-0.15046391008076074, ,0.9269750118255615
0.014487858775581192,0.02133898999486702,-0.09244948231989365, ,0.015655967975869614,0.020544375440252498,-0.09351890537715649, ,0.001771879530218993, ,0.025841382801183366,-0.002180740155814052,-0.05485828983712009,-0.004544230177385917,-0.0002694536590310382,0.0006736192347624499, ,0.060679194593846984, ,0.004497310214134125, ,0.0010666791185205853, ,0.2051543988037741,-0.21869234953228966,0.10366301501000001,1.6892621847113283,0.5405339930720824,-1.2941487040116373, ,0.1661942934474094,0.15355492161564852,0.057092514408602156,-0.04297629665913739,0.17881788150439237,-0.15046391008076074, ,0.9300260543823242
0.014487858775581192,0.02133898999486702,-0.09244948231989365, ,0.015732330420611812,0.020535785605900775,-0.09367916726469559, ,0.0019250901353475393, ,0.025841382801183366,-0.002180740155814052,-0.05485828983712009,-0.004544230177385917,-0.0002694536590310382,0.0006736192347624499, ,0.060679194593846984, ,0.004497310214134125, ,0.0010766606419720616, ,0.2051543988037741,-0.21869234953228966,0.10366301501000001,1.6892621847113283,0.5405339930720824,-1.2941487040116373, ,0.1661942934474094,0.15355492161564852,0.057092514408602156,-0.04297629665913739,0.17881788150439237,-0.15046391008076074, ,0.9328179359436035
0.014487858775581192,0.02133898999486702,-0.09244948231989365, ,0.015808722529138113,0.02052706302970753,-0.0938388328885218, ,0.0020818745050460944, ,0.025841382801183366,-0.002180740155814052,-0.05485828983712009,-0.004544230177385917,-0.0002694536590310382,0.0006736192347624499, ,0.060679194593846984, ,0.004497310214134125, ,0.001088214824306246, ,0.2051543988037741,-0.21869234953228966,0.10366301501000001,1.6892621847113283,0.5405339930720824,-1.2941487040116373, ,0.1661942934474094,0.15355492161564852,0.057092514408602156,-0.04297629665913739,0.17881788150439237,-0.15046391008076074, ,0.9355900287628174
0.014751658962629574,0.021307746155356484,-0.0929768097861966, ,0.015885142178322074,0.020518211596934455,-0.09399790087522494, ,0.0017177823003199106, ,0.02643890159859038,-0.004137866737027908,-0.0501603765564399,-0.08342729211288885,-0.08679016736073321,-0.03803206028758336, ,0.05685244792581224, ,0.12038408813365613, ,0.0010953690001700375, ,0.20686112276897772,-0.21710918929307363,0.10421004939,1.6890524947678438,0.5417637215699714,-1.2952331438850457, ,0.1728541740591453,0.16277348466290012,0.05188537954397395,0.0,0.08780961739466717,-0.07399174913233876, ,0.9383549690246582
0.014751658962629574,0.021307746155356484,-0.0929768097861966, ,0.015961587262551168,0.02050923517278754,-0.09415636987194026, ,0.0018689323893907898, ,0.02643890159859038,-0.004137866737027908,-0.0501603765564399,-0.08342729211288885,-0.08679016736073321,-0.03803206028758336, ,0.05685244792581224, ,0.12038408813365613, ,0.001104060723644428, ,0.20686112276897772,-0.21710918929307363,0.10421004939,1.6890524947678438,0.5417637215699714,-1.2952331438850457, ,0.1728541740591453,0.16277348466290012,0.05188537954397395,0.0,0.08780961739466717,-0.07399174913233876, ,0.941107988357544
0.014751658962629574,0.021307746155356484,-0.0929768097861966, ,0.016038055693680074,0.020500137602455018,-0.09431423854629467, ,0.0020237993509027693, ,0.02643890159859038,-0.004137866737027908,-0.0501603765564399,-0.08342729211288885,-0.08679016736073321,-0.03803206028758336, ,0.05685244792581224, ,0.12038408813365613, ,0.0011142800417250761, ,0.20686112276897772,-0.21710918929307363,0.10421004939,1.6890524947678438,0.5417637215699714,-1.2952331438850457, ,0.1728541740591453,0.16277348466290012,0.05188537954397395,0.0,0.08780961739466717,-0.07399174913233876, ,0.9438920021057129
0.015018611892374648,0.02125369941747667,-0.09347522241875303, ,0.016114545400983032,0.02049092271114636,-0.09447150558635391, ,0.0016659768032765763, ,0.026089140232588633,-0.00617392116637576,-0.0481507391665053,-0.07317537467139378,-0.06332445778825462,-0.0384887978645951, ,0.05511128943261195, ,0.09676964184271947, ,0.0011203426435003674, ,0.20862962859717513,-0.21535612893062467,0.10472467652,1.6892621847113283,0.5428568135680949,-1.2962878445948982, ,0.1738039222682615,0.177046532758341,0.04962246579439253,-0.0054620892910460525,0.11391859567439885,-0.09882201608363272, ,0.9468159675598145
0.015018611892374648,0.02125369941747667,-0.09347522241875303, ,0.01619105433110692,0.020481594304130612,-0.09462816970056828, ,0.0018166053541814702, ,0.026089140232588633,-0.00617392116637576,-0.0481507391665053,-0.07317537467139378,-0.06332445778825462,-0.0384887978645951, ,0.05511128943261195, ,0.09676964184271947, ,0.0011279107164425533, ,0.20862962859717513,-0.21535612893062467,0.10472467652,1.6892621847113283,0.5428568135680949,-1.2962878445948982, ,0.1738039222682615,0.177046532758341,0.04962246579439253,-0.0054620892910460525,0.11391859567439885,-0.09882201608363272, ,0.9496619701385498
0.015018611892374648,0.02125369941747667,-0.09347522241875303, ,0.016267580448023972,0.020472156166774603,-0.09478422961772, ,0.001970845542569499, ,0.026089140232588633,-0.00617392116637576,-0.0481507391665053,-0.07317537467139378,-0.06332445778825462,-0.0384887978645951, ,0.05511128943261195, ,0.09676964184271947, ,0.0011369745317772516, ,0.20862962859717513,-0.21535612893062467,0.10472467652,1.6892621847113283,0.5428568135680949,-1.2962878445948982, ,0.1738039222682615,0.177046532758341,0.04962246579439253,-0.0054620892910460525,0.11391859567439885,-0.09882201608363272, ,0.9523909091949463
0.015018611892374648,0.02125369941747667,-0.09347522241875303, ,0.016344121732984652,0.020462612064581866,-0.09493968408686834, ,0.002127779009869952, ,0.026089140232588633,-0.00617392116637576,-0.0481507391665053,-0.07317537467139378,-0.06332445778825462,-0.0384887978645951, ,0.05511128943261195, ,0.09676964184271947, ,0.0011475150049484505, ,0.20862962859717513,-0.21535612893062467,0.10472467652,1.6892621847113283,0.5428568135680949,-1.2962878445948982, ,0.1738039222682615,0.177046532758341,0.04962246579439253,-0.0054620892910460525,0.11391859567439885,-0.09882201608363272, ,0.95505690574646
0.015278304208724471,0.02118477140982321,-0.09395744991128965, ,0.01642067618447036,0.02045296574323089,-0.09509453187729837, ,0.0017701719300814952, ,0.026683050752862494,-0.006916743484543098,-0.050108627606779824,0.0030487000143616804,-0.03602640752569509,0.00965085879403851, ,0.05719004370120504, ,0.036150804992286, ,0.0011540692883709037, ,0.21036724349387564,-0.21355673217093038,0.10522115559,1.68842342493739,0.5442231785657493,-1.298055453552987, ,0.17804304232358495,0.18390880146990463,0.05171692051948052,-0.08204469974226132,0.161853029282928,-0.1999849425175356, ,0.9578649997711182
0.015278304208724471,0.02118477140982321,-0.09395744991128965, ,0.016497241818146446,0.02044322092861371,-0.09524877177846523, ,0.0019243747494942945, ,0.026683050752862494,-0.006916743484543098,-0.050108627606779824,0.0030487000143616804,-0.03602640752569509,0.00965085879403851, ,0.05719004370120504, ,0.036150804992286, ,0.001162093303590939, ,0.21036724349387564,-0.21355673217093038,0.10522115559,1.68842342493739,0.5442231785657493,-1.298055453552987, ,0.17804304232358495,0.18390880146990463,0.05171692051948052,-0.08204469974226132,0.161853029282928,-0.1999849425175356, ,0.9607100486755371
0.015278304208724471,0.02118477140982321,-0.09395744991128965, ,0.016573816666814727,0.02043338132687407,-0.09540240259994151, ,0.002081064116807458, ,0.026683050752862494,-0.006916743484543098,-0.050108627606779824,0.0030487000143616804,-0.03602640752569509,0.00965085879403851, ,0.05719004370120504, ,0.036150804992286, ,0.0011715672295003878, ,0.21036724349387564,-0.21355673217093038,0.10522115559,1.68842342493739,0.5442231785657493,-1.298055453552987, ,0.17804304232358495,0.18390880146990463,0.05171692051948052,-0.08204469974226132,0.161853029282928,-0.1999849425175356, ,0.963547945022583
0.015558092920841378,0.021115667515210185,-0.09448078237206017, ,0.016650398780366584,0.020423450624446556,-0.09555542317136459, ,0.0016814128470251436, ,0.029178132973440515,-0.006392916544646839,-0.05496243629630605,-0.015273664076705407,-0.06851858139435209,0.01167024280702069, ,0.06255479381620642, ,0.07019671817512783, ,0.0011767697358016607, ,0.21036724349387564,-0.21355673217093038,0.10522115559,1.68842342493739,0.5442231785657493,-1.298055453552987, ,0.17804304232358495,0.18390880146990463,0.05171692051948052,-0.08204469974226132,0.161853029282928,-0.1999849425175356, ,0.9670438766479492
0.015558092920841378,0.021115667515210185,-0.09448078237206017, ,0.016726986225735638,0.02041343248809445,-0.0957078323423814, ,0.0018344201321399006, ,0.029178132973440515,-0.006392916544646839,-0.05496243629630605,-0.015273664076705407,-0.06851858139435209,0.01167024280702069, ,0.06255479381620642, ,0.07019671817512783, ,0.0011834126690980066, ,0.2122129766508153,-0.21168783081536804,0.10576170852000001,1.6873749752199676,0.5457261800631692,-1.3000161591549126, ,0.18903773218818878,0.18754336276377626,0.05688861257142858,-0.08602423481126574,0.1404444507566669,-0.1869774456337156, ,0.9698610305786133
0.015558092920841378,0.021115667515210185,-0.09448078237206017, ,0.016803577086850614,0.020403330564948696,-0.09585962898259685, ,0.0019899428921142564, ,0.029178132973440515,-0.006392916544646839,-0.05496243629630605,-0.015273664076705407,-0.06851858139435209,0.01167024280702069, ,0.06255479381620642, ,0.07019671817512783, ,0.001191477971328169, ,0.2122129766508153,-0.21168783081536804,0.10576170852000001,1.6873749752199676,0.5457261800631692,-1.3000161591549126, ,0.18903773218818878,0.18754336276377626,0.05688861257142858,-0.08602423481126574,0.1404444507566669,-0.1869774456337156, ,0.9726159572601318
0.015558092920841378,0.021115667515210185,-0.09448078237206017, ,0.016880169464588122,0.02039314848254599,-0.0960108119815187, ,0.0021473031332131837, ,0.029178132973440515,-0.006392916544646839,-0.05496243629630605,-0.015273664076705407,-0.06851858139435209,0.01167024280702069, ,0.06255479381620642, ,0.07019671817512783, ,0.001200941586792377, ,0.2122129766508153,-0.21168783081536804,0.10576170852000001,1.6873749752199676,0.5457261800631692,-1.3000161591549126, ,0.18903773218818878,0.18754336276377626,0.05688861257142858,-0.08602423481126574,0.1404444507566669,-0.1869774456337156, ,0.9755170345306396
0.015841473648856,0.02105936839209971,-0.09500712662300712, ,0.016956761476725497,0.02038288984886768,-0.09616138024850508, ,0.0017417782839450012, ,0.030060840403759375,-0.006167543436373021,-0.05490815536847128,-0.07673719537433436,-0.10943408624010924,-0.018788293708869027, ,0.06290149635571496, ,0.1336559661553471, ,0.001206243907352697, ,0.21402781887625807,-0.2099116022542964,0.10630744661000001,1.6873749752199676,0.5468192720612927,-1.3013975748253273, ,0.1917109930474157,0.18534558898138823,0.05688861257142858,-0.039483347112951504,0.09187040433440744,-0.11278205014684124, ,0.9783298969268799
0.015841473648856,0.02105936839209971,-0.09500712662300712, ,0.01703335125789356,0.020372558252377854,-0.09631133271271095, ,0.0018955827408399775, ,0.030060840403759375,-0.006167543436373021,-0.05490815536847128,-0.07673719537433436,-0.10943408624010924,-0.018788293708869027, ,0.06290149635571496, ,0.1336559661553471, ,0.001212936517386554, ,0.21402781887625807,-0.2099116022542964,0.10630744661000001,1.6873749752199676,0.5468192720612927,-1.3013975748253273, ,0.1917109930474157,0.18534558898138823,0.05688861257142858,-0.039483347112951504,0.09187040433440744,-0.11278205014684124, ,0.981050968170166
0.015841473648856,0.02105936839209971,-0.09500712662300712, ,0.01710993695952957,0.020362157262062117,-0.09646066832303359, ,0.002051313238900654, ,0.030060840403759375,-0.006167543436373021,-0.05490815536847128,-0.07673719537433436,-0.10943408624010924,-0.018788293708869027, ,0.06290149635571496, ,0.1336559661553471, ,0.0012209978320164973, ,0.21402781887625807,-0.2099116022542964,0.10630744661000001,1.6873749752199676,0.5468192720612927,-1.3013975748253273, ,0.1917109930474157,0.18534558898138823,0.05688861257142858,-0.039483347112951504,0.09187040433440744,-0.11278205014684124, ,0.983799934387207
0.016153293998262746,0.02098936214917753,-0.09556040826752574, ,0.017186516749829808,0.02035169042746592,-0.09660938604806064, ,0.0016045338460382815, ,0.03076721218518748,-0.007449585737113148,-0.05375973913454703,-0.09394948891668499,-0.11066625035223647,-0.0542494915273788, ,0.06238771694105736, ,0.1451656860073039, ,0.001224650555959562, ,0.2160280066906822,-0.20796547356999182,0.10688040679000001,1.687165285276483,0.5476390910598853,-1.302229439727787, ,0.19852916644031546,0.1956637970277748,0.055695145174825184,0.0,0.089364554857254,-0.0965745014571724, ,0.9869940280914307
0.016153293998262746,0.02098936214917753,-0.09556040826752574, ,0.017263088813702726,0.020341161278733238,-0.09675748487601556, ,0.0017563602442026763, ,0.03076721218518748,-0.007449585737113148,-0.05375973913454703,-0.09394948891668499,-0.11066625035223647,-0.0542494915273788, ,0.06238771694105736, ,0.1451656860073039, ,0.0012296666850939307, ,0.2160280066906822,-0.20796547356999182,0.10688040679000001,1.687165285276483,0.5476390910598853,-1.302229439727787, ,0.19852916644031546,0.1956637970277748,0.055695145174825184,0.0,0.089364554857254,-0.0965745014571724, ,0.9898350238800049
0.016153293998262746,0.02098936214917753,-0.09556040826752574, ,0.017339651352721405,0.020330573326644827,-0.09690496381470455, ,0.0019103078559806772, ,0.03076721218518748,-0.007449585737113148,-0.05375973913454703,-0.09394948891668499,-0.11066625035223647,-0.0542494915273788, ,0.06238771694105736, ,0.1451656860073039, ,0.0012360278175321247, ,0.2160280066906822,-0.20796547356999182,0.10688040679000001,1.687165285276483,0.5476390910598853,-1.302229439727787, ,0.19852916644031546,0.1956637970277748,0.055695145174825184,0.0,0.089364554857254,-0.0965745014571724, ,0.9927749633789062
0.016153293998262746,0.02098936214917753,-0.09556040826752574, ,0.01741620258507669,0.020319930062657022,-0.0970518218914628, ,0.0020657666893375655, ,0.03076721218518748,-0.007449585737113148,-0.05375973913454703,-0.09394948891668499,-0.11066625035223647,-0.0542494915273788, ,0.06238771694105736, ,0.1451656860073039, ,0.0012437105848636565, ,0.2160280066906822,-0.20796547356999182,0.10688040679000001,1.687165285276483,0.5476390910598853,-1.302229439727787, ,0.19852916644031546,0.1956637970277748,0.055695145174825184,0.0,0.089364554857254,-0.0965745014571724, ,0.9956369400024414
0.016469089204209066,0.020911227146780537,-0.09612433335311114, ,0.01749274074552965,0.02030923495893971,-0.09719805815310098, ,0.0016009815796512491, ,0.03107605282043363,-0.006714547982572606,-0.05659211859368351,-0.00496457457344828,-0.009254683452115785,-0.03146324503165614, ,0.06491127868429483, ,0.010474526075971494, ,0.0012469883004121664, ,0.21809769910097437,-0.20594984028981922,0.10746762616000001,1.6865362154460295,0.5494153655568361,-1.3040045874364028, ,0.20190838629461869,0.1917109930474157,0.05921491271375466,-0.028189259946607568,0.20209214561208824,-0.18499983700764117, ,0.9984040260314941
0.016469089204209066,0.020911227146780537,-0.09612433335311114, ,0.01756926408536484,0.02029849146841534,-0.09734367166585237, ,0.0017528878177414532, ,0.03107605282043363,-0.006714547982572606,-0.05659211859368351,-0.00496457457344828,-0.009254683452115785,-0.03146324503165614, ,0.06491127868429483, ,0.010474526075971494, ,0.0012515873869333419, ,0.21809769910097437,-0.20594984028981922,0.10746762616000001,1.6865362154460295,0.5494153655568361,-1.3040045874364028, ,0.20190838629461869,0.1917109930474157,0.05921491271375466,-0.028189259946607568,0.20209214561208824,-0.18499983700764117, ,1.0011329650878906
0.016469089204209066,0.020911227146780537,-0.09612433335311114, ,0.017645770872342755,0.020287703024797345,-0.0974886615153184, ,0.0019065029276160658, ,0.03107605282043363,-0.006714547982572606,-0.05659211859368351,-0.00496457457344828,-0.009254683452115785,-0.03146324503165614, ,0.06491127868429483, ,0.010474526075971494, ,0.0012574875269394925, ,0.21809769910097437,-0.20594984028981922,0.10746762616000001,1.6865362154460295,0.5494153655568361,-1.3040045874364028, ,0.20190838629461869,0.1917109930474157,0.05921491271375466,-0.028189259946607568,0.20209214561208824,-0.18499983700764117, ,1.0039448738098145
0.016771769418802932,0.020842703682952837,-0.09666540127794196, ,0.017722259390652775,0.020276873042628454,-0.09763302680641639, ,0.0014696580090185734, ,0.031189532489445317,-0.007469918774354792,-0.05432943061325066,-0.02728954192875247,-0.048719168833152554,0.0490096910147809, ,0.06308941000013901, ,0.05583729190856988, ,0.00125938190624377, ,0.22007471871677586,-0.20411955259862802,0.10803410489000001,1.6854877657286067,0.5513282765535522,-1.3058094743085742, ,0.20451927060015251,0.18828758245728333,0.05688861257142858,-0.1148727625603131,0.18211866262471402,-0.17904444975504621, ,1.0072078704833984
0.016771769418802932,0.020842703682952837,-0.09666540127794196, ,0.017798727940866052,0.020266004917319096,-0.09777676666332442, ,0.001619369720646852, ,0.031189532489445317,-0.007469918774354792,-0.05432943061325066,-0.02728954192875247,-0.048719168833152554,0.0490096910147809, ,0.06308941000013901, ,0.05583729190856988, ,0.001262567639114594, ,0.22007471871677586,-0.20411955259862802,0.10803410489000001,1.6854877657286067,0.5513282765535522,-1.3058094743085742, ,0.20451927060015251,0.18828758245728333,0.05688861257142858,-0.1148727625603131,0.18211866262471402,-0.17904444975504621, ,1.009990930557251
0.016771769418802932,0.020842703682952837,-0.09666540127794196, ,0.017875174839888174,0.02025510202518607,-0.09791988022942975, ,0.0017710157173826747, ,0.031189532489445317,-0.007469918774354792,-0.05432943061325066,-0.02728954192875247,-0.048719168833152554,0.0490096910147809, ,0.06308941000013901, ,0.05583729190856988, ,0.0012670277099765947, ,0.22007471871677586,-0.20411955259862802,0.10803410489000001,1.6854877657286067,0.5513282765535522,-1.3058094743085742, ,0.20451927060015251,0.18828758245728333,0.05688861257142858,-0.1148727625603131,0.18211866262471402,-0.17904444975504621, ,1.0127630233764648
0.016771769418802932,0.020842703682952837,-0.09666540127794196, ,0.01795159842091212,0.02024416772349114,-0.09806236666727337, ,0.001923994300401269, ,0.031189532489445317,-0.007469918774354792,-0.05432943061325066,-0.02728954192875247,-0.048719168833152554,0.0490096910147809, ,0.06308941000013901, ,0.05583729190856988, ,0.0012727404629368092, ,0.22007471871677586,-0.20411955259862802,0.10803410489000001,1.6854877657286067,0.5513282765535522,-1.3058094743085742, ,0.20451927060015251,0.18828758245728333,0.05688861257142858,-0.1148727625603131,0.18211866262471402,-0.17904444975504621, ,1.0155160427093506
0.01707965995944752,0.0207726548711324,-0.09719689084106975, ,0.01802799703337112,0.020233205350479413,-0.09820422515849822, ,0.0014849482880490475, ,0.03073419885075602,-0.006897862066371801,-0.053657591380999105,-0.02121047109090651,-0.04456205006861185,-0.01779494517008881, ,0.062219840829873335, ,0.0493479036975263, ,0.0012745698407395007, ,0.2220749065312,-0.20227381944168835,0.10859150959000001,1.6852780757851225,0.5529679145507375,-1.3073098466332125, ,0.19729093879099954,0.18249411838167456,0.05628555307420496,-0.04332791481505178,0.16413914817704817,-0.16457886999084667, ,1.018277883529663
0.01707965995944752,0.0207726548711324,-0.09719689084106975, ,0.01810436904289108,0.020222218225417643,-0.09834545490379461, ,0.0016346891486825536, ,0.03073419885075602,-0.006897862066371801,-0.053657591380999105,-0.02121047109090651,-0.04456205006861185,-0.01779494517008881, ,0.062219840829873335, ,0.0493479036975263, ,0.001277647783542433, ,0.2220749065312,-0.20227381944168835,0.10859150959000001,1.6852780757851225,0.5529679145507375,-1.3073098466332125, ,0.19729093879099954,0.18249411838167456,0.05628555307420496,-0.04332791481505178,0.16413914817704817,-0.16457886999084667, ,1.0210318565368652
0.01707965995944752,0.0207726548711324,-0.09719689084106975, ,0.018180712831244054,0.020211209648633082,-0.09848605512284728, ,0.0017859122906149886, ,0.03073419885075602,-0.006897862066371801,-0.053657591380999105,-0.02121047109090651,-0.04456205006861185,-0.01779494517008881, ,0.062219840829873335, ,0.0493479036975263, ,0.0012819551098735562, ,0.2220749065312,-0.20227381944168835,0.10859150959000001,1.6852780757851225,0.5529679145507375,-1.3073098466332125, ,0.19729093879099954,0.18249411838167456,0.05628555307420496,-0.04332791481505178,0.16413914817704817,-0.16457886999084667, ,1.023866891860962
0.01707965995944752,0.0207726548711324,-0.09719689084106975, ,0.01825702679630055,0.02020018290155169,-0.09862602505428161, ,0.0019381283300776598, ,0.03073419885075602,-0.006897862066371801,-0.053657591380999105,-0.02121047109090651,-0.04456205006861185,-0.01779494517008881, ,0.062219840829873335, ,0.0493479036975263, ,0.0012874691705475404, ,0.22406737161274992,-0.2004280862847487,0.10917354380000001,1.6852780757851225,0.5544709160481573,-1.3086171223140135, ,0.1909395202383718,0.17671683716661224,0.05628555307420496,-0.025788946763782898,0.0887247210323127,-0.10007476589561343, ,1.027224063873291
0.017395615297473778,0.020706431327276974,-0.09775144720817405, ,0.018333309351982463,0.020189141246736635,-0.09876536395561016, ,0.0014747495848508561, ,0.030964747320861054,-0.006447601104302508,-0.053783135734037264,-0.07761754442090055,-0.1087291479413237,-0.028711581991821146, ,0.062394012741855694, ,0.13358914924214105, ,0.0012890298406667347, ,0.22406737161274992,-0.2004280862847487,0.10917354380000001,1.6852780757851225,0.5544709160481573,-1.3086171223140135, ,0.1909395202383718,0.17671683716661224,0.05628555307420496,-0.025788946763782898,0.0887247210323127,-0.10007476589561343, ,1.0300788879394531
0.017395615297473778,0.020706431327276974,-0.09775144720817405, ,0.018409558928216,0.02017808792792704,-0.09890407110317921, ,0.0016235055519757933, ,0.030964747320861054,-0.006447601104302508,-0.053783135734037264,-0.07761754442090055,-0.1087291479413237,-0.028711581991821146, ,0.062394012741855694, ,0.13358914924214105, ,0.001291794102743669, ,0.22406737161274992,-0.2004280862847487,0.10917354380000001,1.6852780757851225,0.5544709160481573,-1.3086171223140135, ,0.1909395202383718,0.17671683716661224,0.05628555307420496,-0.025788946763782898,0.0887247210323127,-0.10007476589561343, ,1.0328750610351562
0.017395615297473778,0.020706431327276974,-0.09775144720817405, ,0.01848577397088449,0.02016702617007634,-0.09904214579211569, ,0.0017735012521608764, ,0.030964747320861054,-0.006447601104302508,-0.053783135734037264,-0.07761754442090055,-0.1087291479413237,-0.028711581991821146, ,0.062394012741855694, ,0.13358914924214105, ,0.0012957425220011872, ,0.22406737161274992,-0.2004280862847487,0.10917354380000001,1.6852780757851225,0.5544709160481573,-1.3086171223140135, ,0.1909395202383718,0.17671683716661224,0.05628555307420496,-0.025788946763782898,0.0887247210323127,-0.10007476589561343, ,1.035667896270752
0.017701613618560708,0.02064329763960617,-0.09828866448859859, ,0.018561952941780997,0.02015595917939042,-0.09917958733627277, ,0.0013309493027130975, ,0.029899911919801465,-0.006367883759544257,-0.05169678131295134,-0.0362018241224973,-0.057710512994012246,-0.05320235980613951, ,0.060059236379644956, ,0.06812272845654181, ,0.001296028755990715, ,0.22593627296831226,-0.19868274865517396,0.10973613366000001,1.6850683858416375,0.5554273715465154,-1.3093970476398886, ,0.1860724344283741,0.17129411833658983,0.05436454443686007,0.0,0.13058834031484137,-0.12936753078670243, ,1.0384008884429932
0.017701613618560708,0.02064329763960617,-0.09828866448859859, ,0.018638094318561546,0.020144890143366987,-0.09931639506817738, ,0.0014770363157291812, ,0.029899911919801465,-0.006367883759544257,-0.05169678131295134,-0.0362018241224973,-0.057710512994012246,-0.05320235980613951, ,0.060059236379644956, ,0.06812272845654181, ,0.0012974884943757026, ,0.22593627296831226,-0.19868274865517396,0.10973613366000001,1.6850683858416375,0.5554273715465154,-1.3093970476398886, ,0.1860724344283741,0.17129411833658983,0.05436454443686007,0.0,0.13058834031484137,-0.12936753078670243, ,1.0411460399627686
0.017701613618560708,0.02064329763960617,-0.09828866448859859, ,0.018714196594697377,0.020133822230832918,-0.099452568338976, ,0.0016246727820179178, ,0.029899911919801465,-0.006367883759544257,-0.05169678131295134,-0.0362018241224973,-0.057710512994012246,-0.05320235980613951, ,0.060059236379644956, ,0.06812272845654181, ,0.0013001059686768403, ,0.22593627296831226,-0.19868274865517396,0.10973613366000001,1.6850683858416375,0.5554273715465154,-1.3093970476398886, ,0.1860724344283741,0.17129411833658983,0.05436454443686007,0.0,0.13058834031484137,-0.12936753078670243, ,1.0439338684082031
0.017701613618560708,0.02064329763960617,-0.09828866448859859, ,0.018790258279428287,0.02012275859198374,-0.09958810651838139, ,0.0017733182699394925, ,0.027751690076508042,-0.00692743157746475,-0.04802626845796524,-0.005984481527849582,-0.0036988955471604686,0.07520232724453937, ,0.055898730507584496, ,0.007017146533664935, ,0.0013038616218614646, ,0.22776656065950346,-0.19700691562146724,0.11026761256,1.684019936124215,0.5572036460434662,-1.3110905166083637, ,0.17770962838664942,0.161664295670308,0.05072869910828026,-0.13305130866736367,0.20358788760976498,-0.1776508237782224, ,1.0466809272766113
0.017991369517917938,0.020575073464993293,-0.09879311403696901, ,0.018866277897715243,0.020111702358421787,-0.09972300899461926, ,0.0013582643659126932, ,0.027751690076508042,-0.00692743157746475,-0.04802626845796524,-0.005984481527849582,-0.0036988955471604686,0.07520232724453937, ,0.055898730507584496, ,0.007017146533664935, ,0.00130428998992486, ,0.22776656065950346,-0.19700691562146724,0.11026761256,1.684019936124215,0.5572036460434662,-1.3110905166083637, ,0.17770962838664942,0.161664295670308,0.05072869910828026,-0.13305130866736367,0.20358788760976498,-0.1776508237782224, ,1.049407958984375
0.017991369517917938,0.020575073464993293,-0.09879311403696901, ,0.01894225399019309,0.02010065664319418,-0.09985727517437448, ,0.0015038921260463031, ,0.027751690076508042,-0.00692743157746475,-0.04802626845796524,-0.005984481527849582,-0.0036988955471604686,0.07520232724453937, ,0.055898730507584496, ,0.007017146533664935, ,0.0013058493816133086, ,0.22776656065950346,-0.19700691562146724,0.11026761256,1.684019936124215,0.5572036460434662,-1.3110905166083637, ,0.17770962838664942,0.161664295670308,0.05072869910828026,-0.13305130866736367,0.20358788760976498,-0.1776508237782224, ,1.052145004272461
0.017991369517917938,0.020575073464993293,-0.09879311403696901, ,0.019018185113123528,0.020089624540832046,-0.09999090448273772, ,0.0016506704324308692, ,0.027751690076508042,-0.00692743157746475,-0.04802626845796524,-0.005984481527849582,-0.0036988955471604686,0.07520232724453937, ,0.055898730507584496, ,0.007017146533664935, ,0.0013085224130149951, ,0.22776656065950346,-0.19700691562146724,0.11026761256,1.684019936124215,0.5572036460434662,-1.3110905166083637, ,0.17770962838664942,0.161664295670308,0.05072869910828026,-0.13305130866736367,0.20358788760976498,-0.1776508237782224, ,1.054893970489502
0.018251517121595815,0.020510199988697332,-0.09923852843214356, ,0.019094069838347917,0.02007860912738897,-0.10012389636315214, ,0.0012961643897784118, ,0.026970044660203724,-0.007079730116052274,-0.045029696330331825,-0.006034976420626483,0.004650791289804543,0.0141725499609288, ,0.05296394470856019, ,0.007606948285753639, ,0.0013084273512977906, ,0.22944239369321018,-0.19547781451237078,0.11073946212,1.6833908662937616,0.5592531935399478,-1.3130068213842319, ,0.1741228285476528,0.15895635101921404,0.047691052455089825,-0.06483115099967886,0.19474865086660634,-0.1595913544990039, ,1.0581769943237305
0.018251517121595815,0.020510199988697332,-0.09923852843214356, ,0.019169906753239974,0.020067613460478806,-0.10025625027735974, ,0.0014405138335685072, ,0.026970044660203724,-0.007079730116052274,-0.045029696330331825,-0.006034976420626483,0.004650791289804543,0.0141725499609288, ,0.05296394470856019, ,0.007606948285753639, ,0.0013094356450555824, ,0.22944239369321018,-0.19547781451237078,0.11073946212,1.6833908662937616,0.5592531935399478,-1.3130068213842319, ,0.1741228285476528,0.15895635101921404,0.047691052455089825,-0.06483115099967886,0.19474865086660634,-0.1595913544990039, ,1.0609228610992432
0.018251517121595815,0.020510199988697332,-0.09923852843214356, ,0.01924569446065881,0.020056640579315173,-0.10038796570534796, ,0.0015859731285166913, ,0.026970044660203724,-0.007079730116052274,-0.045029696330331825,-0.006034976420626483,0.004650791289804543,0.0141725499609288, ,0.05296394470856019, ,0.007606948285753639, ,0.0013115306259908937, ,0.22944239369321018,-0.19547781451237078,0.11073946212,1.6833908662937616,0.5592531935399478,-1.3130068213842319, ,0.1741228285476528,0.15895635101921404,0.047691052455089825,-0.06483115099967886,0.19474865086660634,-0.1595913544990039, ,1.0637240409851074
0.018251517121595815,0.020510199988697332,-0.09923852843214356, ,0.019321431578901472,0.020045693504748746,-0.10051904214529553, ,0.0017321081343704178, ,0.026970044660203724,-0.007079730116052274,-0.045029696330331825,-0.006034976420626483,0.004650791289804543,0.0141725499609288, ,0.05296394470856019, ,0.007606948285753639, ,0.0013146928628960028, ,0.22944239369321018,-0.19547781451237078,0.11073946212,1.6833908662937616,0.5592531935399478,-1.3130068213842319, ,0.1741228285476528,0.15895635101921404,0.047691052455089825,-0.06483115099967886,0.19474865086660634,-0.1595913544990039, ,1.0664608478546143
0.018533849131510877,0.020443814956042045,-0.09970229437219454, ,0.01939711674165603,0.020034775239306923,-0.10064947911352014, ,0.0013452521662471026, ,0.026751889412997602,-0.005913851994082887,-0.043939848382210454,-0.03720967292126623,-0.024816787215974138,-0.004821762275106975, ,0.05178172948468228, ,0.04472436578196285, ,0.001314920917398623, ,0.23124951318577872,-0.1938792088074063,0.11123205232000001,1.6833908662937616,0.5610294680368985,-1.314536932872426, ,0.16945882421155498,0.14554745637802266,0.04671205724340176,-0.033396513626650796,0.1539270431227734,-0.10807464404070047, ,1.069234848022461
0.018533849131510877,0.020443814956042045,-0.09970229437219454, ,0.019472748597954195,0.020023888767231494,-0.100779276144424, ,0.001489214541243478, ,0.026751889412997602,-0.005913851994082887,-0.043939848382210454,-0.03720967292126623,-0.024816787215974138,-0.004821762275106975, ,0.05178172948468228, ,0.04472436578196285, ,0.0013162119812789553, ,0.23124951318577872,-0.1938792088074063,0.11123205232000001,1.6833908662937616,0.5610294680368985,-1.314536932872426, ,0.16945882421155498,0.14554745637802266,0.04671205724340176,-0.033396513626650796,0.1539270431227734,-0.10807464404070047, ,1.0721449851989746
0.018533849131510877,0.020443814956042045,-0.09970229437219454, ,0.019548325812124324,0.020013037054517808,-0.10090843279044123, ,0.0016338611997109022, ,0.026751889412997602,-0.005913851994082887,-0.043939848382210454,-0.03720967292126623,-0.024816787215974138,-0.004821762275106975, ,0.05178172948468228, ,0.04472436578196285, ,0.0013185476372968373, ,0.23124951318577872,-0.1938792088074063,0.11123205232000001,1.6833908662937616,0.5610294680368985,-1.314536932872426, ,0.16945882421155498,0.14554745637802266,0.04671205724340176,-0.033396513626650796,0.1539270431227734,-0.10807464404070047, ,1.0752029418945312
0.018795050271527787,0.020391203338719584,-0.10013755870799439, ,0.019623847063743958,0.020002223048952397,-0.10103694862198308, ,0.0012833986153957637, ,0.02679183572088123,-0.005099175585539242,-0.04502346227806219,-0.018741014731352982,-0.014590391663444214,-0.03791046527299345, ,0.05263949285898313, ,0.023747003018835595, ,0.0013182910750931796, ,0.23287128708936586,-0.19249683962292014,0.11169482785000001,1.683181176350277,0.562395833034553,-1.31565111190939, ,0.16561420865352666,0.14017273494604252,0.047978347951807235,0.0,0.1538027525317118,-0.11412668950269039, ,1.078268051147461
0.018795050271527787,0.020391203338719584,-0.10013755870799439, ,0.019699311047592993,0.01999144968015231,-0.10116482322738564, ,0.001425749954048082, ,0.02679183572088123,-0.005099175585539242,-0.04502346227806219,-0.018741014731352982,-0.014590391663444214,-0.03791046527299345, ,0.05263949285898313, ,0.023747003018835595, ,0.0013190697626218385, ,0.23287128708936586,-0.19249683962292014,0.11169482785000001,1.683181176350277,0.562395833034553,-1.31565111190939, ,0.16561420865352666,0.14017273494604252,0.047978347951807235,0.0,0.1538027525317118,-0.11412668950269039, ,1.0811128616333008
0.018795050271527787,0.020391203338719584,-0.10013755870799439, ,0.019774716473606357,0.019980719859603348,-0.10129205621285567, ,0.0015687915868123925, ,0.02679183572088123,-0.005099175585539242,-0.04502346227806219,-0.018741014731352982,-0.014590391663444214,-0.03791046527299345, ,0.05263949285898313, ,0.023747003018835595, ,0.0013208663225081014, ,0.23287128708936586,-0.19249683962292014,0.11169482785000001,1.683181176350277,0.562395833034553,-1.31565111190939, ,0.16561420865352666,0.14017273494604252,0.047978347951807235,0.0,0.1538027525317118,-0.11412668950269039, ,1.083914041519165
0.018795050271527787,0.020391203338719584,-0.10013755870799439, ,0.019850062066826542,0.019970036480697968,-0.10141864720241738, ,0.0017121971676936807, ,0.02679183572088123,-0.005099175585539242,-0.04502346227806219,-0.018741014731352982,-0.014590391663444214,-0.03791046527299345, ,0.05263949285898313, ,0.023747003018835595, ,0.0013236615428308556, ,0.23287128708936586,-0.19249683962292014,0.11169482785000001,1.683181176350277,0.562395833034553,-1.31565111190939, ,0.16561420865352666,0.14017273494604252,0.047978347951807235,0.0,0.1538027525317118,-0.11412668950269039, ,1.0866749286651611
0.01906845099154711,0.020340117377977453,-0.10060332734963173, ,0.019925346567356905,0.019959402418774922,-0.10154459583785924, ,0.0013286083978859557, ,0.026313056165931405,-0.004271110583852858,-0.04520245815468421,-0.013376256895354337,-0.014597366328871665,-0.014237412519205288, ,0.05247743832959968, ,0.01979440920058007, ,0.0013236966269092607, ,0.23454712012307258,-0.1910990249726855,0.11219130692000001,1.6825521065198237,0.5640354710317381,-1.3169881267537473, ,0.15895635101921404,0.13017413108157858,0.048269125818181824,-0.023755321029585587,0.15151732588318903,-0.11544838744027767, ,1.0897300243377686
0.01906845099154711,0.020340117377977453,-0.10060332734963173, ,0.02000056873031432,0.019948820531156868,-0.1016699017786797, ,0.0014695365643478291, ,0.026313056165931405,-0.004271110583852858,-0.04520245815468421,-0.013376256895354337,-0.014597366328871665,-0.014237412519205288, ,0.05247743832959968, ,0.01979440920058007, ,0.0013247236687222083, ,0.23454712012307258,-0.1910990249726855,0.11219130692000001,1.6825521065198237,0.5640354710317381,-1.3169881267537473, ,0.15895635101921404,0.13017413108157858,0.048269125818181824,-0.023755321029585587,0.15151732588318903,-0.11544838744027767, ,1.0926690101623535
0.01906845099154711,0.020340117377977453,-0.10060332734963173, ,0.020075727325781712,0.019938293657188837,-0.10179456470203398, ,0.0016109358602550926, ,0.026313056165931405,-0.004271110583852858,-0.04520245815468421,-0.013376256895354337,-0.014597366328871665,-0.014237412519205288, ,0.05247743832959968, ,0.01979440920058007, ,0.0013267251525790817, ,0.23454712012307258,-0.1910990249726855,0.11219130692000001,1.6825521065198237,0.5640354710317381,-1.3169881267537473, ,0.15895635101921404,0.13017413108157858,0.048269125818181824,-0.023755321029585587,0.15151732588318903,-0.11544838744027767, ,1.0954790115356445
0.019331200431978213,0.020297743965514925,-0.10106881328815928, ,0.02015082113876129,0.019927824618277513,-0.10191858430268123, ,0.0012372264156450148, ,0.026117580379196526,-0.003664142625047836,-0.04677857386577786,-0.01113420203170593,-0.01850567801176465,0.05203296292373254, ,0.053700921025216314, ,0.021591817439270283, ,0.0013261036335725951, ,0.23610711216366592,-0.18980932858269,0.11268778599000001,1.6817133467458854,0.5656751090289234,-1.3182434628579636, ,0.15256743015831317,0.12276447808340334,0.049933578432601884,-0.09529826697198063,0.1545574235608002,-0.12753008262316406, ,1.0982270240783691
0.019331200431978213,0.020297743965514925,-0.10106881328815928, ,0.02022584896912708,0.01991741621792865,-0.10204196029293011, ,0.0013755218258904838, ,0.026117580379196526,-0.003664142625047836,-0.04677857386577786,-0.01113420203170593,-0.01850567801176465,0.05203296292373254, ,0.053700921025216314, ,0.021591817439270283, ,0.001326444448692029, ,0.23610711216366592,-0.18980932858269,0.11268778599000001,1.6817133467458854,0.5656751090289234,-1.3182434628579636, ,0.15256743015831317,0.12276447808340334,0.049933578432601884,-0.09529826697198063,0.1545574235608002,-0.12753008262316406, ,1.1009738445281982
0.019331200431978213,0.020297743965514925,-0.10106881328815928, ,0.020300809631577953,0.01990707124178683,-0.10216469240258613, ,0.0015145026280764771, ,0.026117580379196526,-0.003664142625047836,-0.04677857386577786,-0.01113420203170593,-0.01850567801176465,0.05203296292373254, ,0.053700921025216314, ,0.021591817439270283, ,0.0013277325184138402, ,0.23610711216366592,-0.18980932858269,0.11268778599000001,1.6817133467458854,0.5656751090289234,-1.3182434628579636, ,0.15256743015831317,0.12276447808340334,0.049933578432601884,-0.09529826697198063,0.1545574235608002,-0.12753008262316406, ,1.103684902191162
0.019331200431978213,0.020297743965514925,-0.10106881328815928, ,0.02037570195559029,0.019896792457672514,-0.10228678037889703, ,0.0016538407960227713, ,0.026117580379196526,-0.003664142625047836,-0.04677857386577786,-0.01113420203170593,-0.01850567801176465,0.05203296292373254, ,0.053700921025216314, ,0.021591817439270283, ,0.0013299509420710439, ,0.23610711216366592,-0.18980932858269,0.11268778599000001,1.6817133467458854,0.5656751090289234,-1.3182434628579636, ,0.15256743015831317,0.12276447808340334,0.049933578432601884,-0.09529826697198063,0.1545574235608002,-0.12753008262316406, ,1.1064610481262207
0.01959896085254546,0.02026906079251564,-0.10154955456767589, ,0.02045052478537078,0.019886582615621737,-0.10240822398650068, ,0.0012683705524466837, ,0.026741135559811998,-0.002258234112912128,-0.04834729618353675,0.020448196639164067,0.00393434866481769,-0.054525744371170026, ,0.05529601251985164, ,0.020816908726331712, ,0.0013295348583573657, ,0.23765165873851082,-0.1886123049871852,0.11320241312000001,1.6812939668589162,0.5671781105263433,-1.3195507385387648, ,0.15281311040011397,0.11672440536097266,0.05188537954397395,0.01787201964338375,0.1559032823324479,-0.1271286729877589, ,1.1091978549957275
0.01959896085254546,0.02026906079251564,-0.10154955456767589, ,0.02052527697980944,0.019876444447924035,-0.10252902300737075, ,0.0014041252031169078, ,0.026741135559811998,-0.002258234112912128,-0.04834729618353675,0.020448196639164067,0.00393434866481769,-0.054525744371170026, ,0.05529601251985164, ,0.020816908726331712, ,0.001330035464698034, ,0.23765165873851082,-0.1886123049871852,0.11320241312000001,1.6812939668589162,0.5671781105263433,-1.3195507385387648, ,0.15281311040011397,0.11672440536097266,0.05188537954397395,0.01787201964338375,0.1559032823324479,-0.1271286729877589, ,1.1119968891143799
0.01959896085254546,0.02026906079251564,-0.10154955456767589, ,0.020599957412432295,0.019866380669161313,-0.10264917724076297, ,0.0015405568531596326, ,0.026741135559811998,-0.002258234112912128,-0.04834729618353675,0.020448196639164067,0.00393434866481769,-0.054525744371170026, ,0.05529601251985164, ,0.020816908726331712, ,0.001331438940621111, ,0.23765165873851082,-0.1886123049871852,0.11320241312000001,1.6812939668589162,0.5671781105263433,-1.3195507385387648, ,0.15281311040011397,0.11672440536097266,0.05188537954397395,0.01787201964338375,0.1559032823324479,-0.1271286729877589, ,1.114764928817749
0.019862358087444323,0.02024787043364579,-0.10202585576270845, ,0.020674564971354094,0.019856393976245463,-0.10276868650316232, ,0.0011682171664259893, ,0.026013578028852784,-0.0018822368728443296,-0.04659544915465765,0.04082985536305467,0.022382160911163868,-0.05001360215745939, ,0.053398360830956164, ,0.04655983862673585, ,0.0013303580017191567, ,0.23915759164898462,-0.18748478598754842,0.11371444767000001,1.6812939668589162,0.5688177485235285,-1.3208877533831218, ,0.1496797185464839,0.10882676784228298,0.0502486167823344,0.013638697204313415,0.17229069782371398,-0.14049151149850467, ,1.1180880069732666
0.019862358087444323,0.02024787043364579,-0.10202585576270845, ,0.02074909855923138,0.019846487048458046,-0.1028875506282291, ,0.0012999751257137808, ,0.026013578028852784,-0.0018822368728443296,-0.04659544915465765,0.04082985536305467,0.022382160911163868,-0.05001360215745939, ,0.053398360830956164, ,0.04655983862673585, ,0.001330158114377016, ,0.23915759164898462,-0.18748478598754842,0.11371444767000001,1.6812939668589162,0.5688177485235285,-1.3208877533831218, ,0.1496797185464839,0.10882676784228298,0.0502486167823344,0.013638697204313415,0.17229069782371398,-0.14049151149850467, ,1.121077060699463
0.019862358087444323,0.02024787043364579,-0.10202585576270845, ,0.020823557093215202,0.019836662547488025,-0.10300576946674586, ,0.0014329083437867138, ,0.026013578028852784,-0.0018822368728443296,-0.04659544915465765,0.04082985536305467,0.022382160911163868,-0.05001360215745939, ,0.053398360830956164, ,0.04655983862673585, ,0.0013308296845038767, ,0.23915759164898462,-0.18748478598754842,0.11371444767000001,1.6812939668589162,0.5688177485235285,-1.3208877533831218, ,0.1496797185464839,0.10882676784228298,0.0502486167823344,0.013638697204313415,0.17229069782371398,-0.14049151149850467, ,1.1241788864135742
0.019862358087444323,0.02024787043364579,-0.10202585576270845, ,0.02089793950490372,0.019826923117470474,-0.1031233428865633, ,0.0015665578515361666, ,0.026013578028852784,-0.0018822368728443296,-0.04659544915465765,0.04082985536305467,0.022382160911163868,-0.05001360215745939, ,0.053398360830956164, ,0.04655983862673585, ,0.0013323603868872034, ,0.23915759164898462,-0.18748478598754842,0.11371444767000001,1.6812939668589162,0.5688177485235285,-1.3208877533831218, ,0.1496797185464839,0.10882676784228298,0.0502486167823344,0.013638697204313415,0.17229069782371398,-0.14049151149850467, ,1.127004861831665
0.02012302162228605,0.020230611920345823,-0.10248873752303274, ,0.02097224474029546,0.019817271385025016,-0.10324027077254717, ,0.0012069931762137861, ,0.024961406354875613,-0.0018276017466288335,-0.04370170444565776,0.035330060650768574,0.01408913272897368,-0.026354235573740326, ,0.05036120438207499, ,0.03803363571018013, ,0.0013315515661731813, ,0.24066352455945839,-0.18642677158377965,0.11421481561,1.6812939668589162,0.5705940230204792,-1.3223361861311753, ,0.1444397892822995,0.10095419314730934,0.04726650302670624,-0.008888677584530614,0.16278895847841326,-0.13274348018080706, ,1.1312999725341797
0.02012302162228605,0.020230611920345823,-0.10248873752303274, ,0.021046471759741732,0.01980770995929437,-0.10335655302652483, ,0.0013359303773510468, ,0.024961406354875613,-0.0018276017466288335,-0.04370170444565776,0.035330060650768574,0.01408913272897368,-0.026354235573740326, ,0.05036120438207499, ,0.03803363571018013, ,0.0013315796354756036, ,0.24066352455945839,-0.18642677158377965,0.11421481561,1.6812939668589162,0.5705940230204792,-1.3223361861311753, ,0.1444397892822995,0.10095419314730934,0.04726650302670624,-0.008888677584530614,0.16278895847841326,-0.13274348018080706, ,1.1341018676757812
0.02012302162228605,0.020230611920345823,-0.10248873752303274, ,0.02112061953789959,0.01979824143198271,-0.10347218956723134, ,0.0014660572170560862, ,0.024961406354875613,-0.0018276017466288335,-0.04370170444565776,0.035330060650768574,0.01408913272897368,-0.026354235573740326, ,0.05036120438207499, ,0.03803363571018013, ,0.0013324361805812117, ,0.24066352455945839,-0.18642677158377965,0.11421481561,1.6812939668589162,0.5705940230204792,-1.3223361861311753, ,0.1444397892822995,0.10095419314730934,0.04726650302670624,-0.008888677584530614,0.16278895847841326,-0.13274348018080706, ,1.1368558406829834
0.020359665501170323,0.020209418636488122,-0.10289613607439668, ,0.021194687063684818,0.01978886837739455,-0.10358718033025612, ,0.00116261158339496, ,0.023681966362297725,-0.0024322126929936464,-0.040216564365684784,-0.008353114920941835,-0.02714618775248559,0.031053683766795296, ,0.04673460429647637, ,0.028400437253196447, ,0.0013313613413585138, ,0.24202272554532192,-0.18547687544025004,0.11465425792000002,1.6806648970284628,0.5718237515183683,-1.3234206260045838, ,0.13673910887387722,0.09653808907270679,0.0434027561852861,-0.06469406101897651,0.12346916736995144,-0.0985024354885838, ,1.1396009922027588
0.020359665501170323,0.020209418636488122,-0.10289613607439668, ,0.021268673340224566,0.019779593352472896,-0.10370152526799029, ,0.0012882921948836716, ,0.023681966362297725,-0.0024322126929936464,-0.040216564365684784,-0.008353114920941835,-0.02714618775248559,0.031053683766795296, ,0.04673460429647637, ,0.028400437253196447, ,0.0013310904662234518, ,0.24202272554532192,-0.18547687544025004,0.11465425792000002,1.6806648970284628,0.5718237515183683,-1.3234206260045838, ,0.13673910887387722,0.09653808907270679,0.0434027561852861,-0.06469406101897651,0.12346916736995144,-0.0985024354885838, ,1.1425909996032715
0.020359665501170323,0.020209418636488122,-0.10289613607439668, ,0.02134257738481005,0.01977041889683738,-0.10381522434957174, ,0.0014154715821866172, ,0.023681966362297725,-0.0024322126929936464,-0.040216564365684784,-0.008353114920941835,-0.02714618775248559,0.031053683766795296, ,0.04673460429647637, ,0.028400437253196447, ,0.0013316178481982215, ,0.24202272554532192,-0.18547687544025004,0.11465425792000002,1.6806648970284628,0.5718237515183683,-1.3234206260045838, ,0.13673910887387722,0.09653808907270679,0.0434027561852861,-0.06469406101897651,0.12346916736995144,-0.0985024354885838, ,1.1453430652618408
0.020597214352927253,0.020181912674878517,-0.10328138592803174, ,0.021416398228849703,0.019761347532823863,-0.10392827756083253, ,0.0011253470779588215, ,0.022417245916955205,-0.0031306422671125438,-0.0352816955758969,-0.0075464474181396405,-0.027853944403457898,0.029374294833841765, ,0.0419181569038542, ,0.02885717272527371, ,0.0013303366632899025, ,0.24342826292843078,-0.18450381109809777,0.11507166330000002,1.6802455171414936,0.5730534800162572,-1.3244233871378515, ,0.13498853706752598,0.09358672737521774,0.03829041230769231,-0.062213901263841034,0.12041253856851218,-0.09601051387839699, ,1.1481740474700928
0.020597214352927253,0.020181912674878517,-0.10328138592803174, ,0.021490134917821854,0.01975238176552184,-0.10404068490424545, ,0.001248334439396615, ,0.022417245916955205,-0.0031306422671125438,-0.0352816955758969,-0.0075464474181396405,-0.027853944403457898,0.029374294833841765, ,0.0419181569038542, ,0.02885717272527371, ,0.00132983047672266, ,0.24342826292843078,-0.18450381109809777,0.11507166330000002,1.6802455171414936,0.5730534800162572,-1.3244233871378515, ,0.13498853706752598,0.09358672737521774,0.03829041230769231,-0.062213901263841034,0.12041253856851218,-0.09601051387839699, ,1.1509499549865723
0.020597214352927253,0.020181912674878517,-0.10328138592803174, ,0.02156378651122732,0.019743524082813546,-0.10415244639887011, ,0.0013730231748629474, ,0.022417245916955205,-0.0031306422671125438,-0.0352816955758969,-0.0075464474181396405,-0.027853944403457898,0.029374294833841765, ,0.0419181569038542, ,0.02885717272527371, ,0.0013300954626008213, ,0.24342826292843078,-0.18450381109809777,0.11507166330000002,1.6802455171414936,0.5730534800162572,-1.3244233871378515, ,0.13498853706752598,0.09358672737521774,0.03829041230769231,-0.062213901263841034,0.12041253856851218,-0.09601051387839699, ,1.1537058353424072
