NicholasDascanio/dvrk_moveit_final/test/execution/third_experiment_notsharpbends/thirdexp_400vel5.0/thirdexp_400vel5.0_19.csv
Current Position (x),Current Position (y),Current Position (z), ,Planned Position (x),Planned Position (y),Planned Position (z), ,Position Error,,Cartesian linear Velocity(x),Cartesian linear Velocity(y),Cartesian linear Velocity(z),Cartesian Angular Velocity(x),Cartesian Angular Velocity(y),Cartesian Angular Velocity(z), ,Total Linear Velocity, ,Total Angular Velocity, ,MSE, ,Joint 1 Position,Joint 2 Position,Joint 3 Position,Joint 4 Position,Joint 5 Position,Joint 6 Position, ,Joint 1 Velocity,Joint 2 Velocity,Joint 3 Velocity,Joint 4 Velocity,Joint 5 Velocity,Joint 6 Velocity, ,Time Stamp
0.009327961884938049,0.02047396380896875,-0.07882245481394684, ,0.0095083513802921,0.02040977661129142,-0.078981066637033, ,0.0002486324130166304, ,0.00026612999965068264,0.00031994606894046303,-0.0012895906258852151,0.012017668380293509,-0.0005435312925118836,-0.0037778711296178875, ,0.0013550773579820263, ,0.012029953431376174, ,2.0719367751385865e-05, ,0.17319000743735885,-0.24593042837967952,0.08950234305,1.698278852281163,0.5085610521269693,-1.2520678814791246, ,0.0005087785503553331,7.819497351624909e-05,0.0013522387532556275,-0.0007216587610675376,0.0,-0.013002719482058556, ,0.028141021728515625
0.009338539549816881,0.020477562432689334,-0.07885179560082016, ,0.009583471303313761,0.020426326616561005,-0.07917733933574225, ,0.0004106036971002795, ,0.0004523714362658095,0.00015975925901471816,-0.001241524775669803,0.12269779634413304,-0.0016712414803134051,-0.045074518452870985, ,0.0013309946302641788, ,0.12270917763471859, ,2.9965277732586812e-05, ,0.17324406656747843,-0.24588409198243416,0.08953215772,1.698278852281163,0.508424415627204,-1.2539167533388016, ,0.0029261534747913463,0.0018980214368688895,0.001287139241881428,-0.0007216587610675376,0.0,-0.13271647720293966, ,0.05695390701293945
0.009404102883892911,0.020518839575732285,-0.07906815789992322, ,0.00965847890866057,0.02044246459477141,-0.07937239206305723, ,0.0004038548324722885, ,0.002847863536791715,0.0017503988334162056,-0.00934650218111918,0.1590201070864081,-0.08834563794139717,-0.08816918903576314, ,0.00992629466729042, ,0.1819130180325738, ,3.322159195591245e-05, ,0.17341396669071135,-0.24575280552357234,0.08975123073,1.6978594723941938,0.5066481411302531,-1.2603911583843825, ,0.0062766946335127746,0.006985465449858015,0.00941419120567376,0.001635533797375078,-0.08773540062471387,-0.18392656033639687, ,0.08385205268859863
0.00949921694247729,0.02055559250236787,-0.0792994248647867, ,0.009733374870118874,0.02045819437488118,-0.07956623343580924, ,0.00036810751674803597, ,0.003771403029069619,0.0010266611366813987,-0.0070880813869276275,-0.10193290310848477,-0.1829697830935865,-0.020004357494542054, ,0.008094344423420424, ,0.2094475071313728, ,3.4076153793743674e-05, ,0.17372287600568034,-0.2455134008044714,0.08997937777000001,1.6978594723941938,0.5029589556365863,-1.2662858576599005, ,0.013811227122467002,0.00819360572189396,0.006821760822269807,0.001635533797375078,-0.17538790337323262,0.08449831019385301, ,0.11307096481323242
0.009560258971444698,0.02057501435368677,-0.07948830982058601, ,0.009808159858999008,0.020473519772211197,-0.07975887203806337, ,0.0003807360156924761, ,0.001555943056952511,0.0006823731737626513,-0.006813950046557677,-0.07493139348449109,0.07613711852347563,0.045284288165680246, ,0.007022571265692717, ,0.10682497148090574, ,3.4844893750571355e-05, ,0.17400089438915242,-0.24528944155111887,0.09010641419000001,1.6978594723941938,0.5028223191368209,-1.2642141499928305, ,0.014098490797574028,0.011621248194216923,0.006379179623548259,0.001635533797375078,0.08785872378759015,0.10655819769831351, ,0.14297890663146973
0.009621517295475099,0.02058682719310058,-0.07967471501820371, ,0.009882834544138948,0.020488444588465063,-0.0799503164211702, ,0.000392328911324684, ,0.0026940633763114707,0.0004076308621718599,-0.0067635568577961505,0.003189756430313311,-0.00721256791941728,-0.007534157237854702, ,0.007291765339341295, ,0.007886423011926595, ,3.555263526378055e-05, ,0.17461871301909038,-0.24471795931842627,0.09037085735000001,1.6978594723941938,0.5050085031330679,-1.2626480081062104, ,0.019647399908586084,0.016081501704536653,0.006977140394218134,0.001635533797375078,0.012320781177801457,-0.01883673332706698, ,0.17149996757507324
0.009672638711552087,0.020593734728952984,-0.07979944204507675, ,0.009957399591908313,0.02050297261174771,-0.08014057510381684, ,0.00045353972777057366, ,0.0027104134496870507,0.0003391722817299831,-0.006354407218190251,0.008421202864320102,-0.01882557141337318,-0.012669138057856718, ,0.006916637188657993, ,0.020623258383720013, ,3.691393214062455e-05, ,0.17498940419705317,-0.2444167727363315,0.09049919006000001,1.6978594723941938,0.5051451396328334,-1.2634945346711717, ,0.01945805650163436,0.015518714891000946,0.006520184821940238,0.001635533797375078,0.0,-0.024889768097824092, ,0.20106101036071777
0.009759210146419858,0.02061353855833623,-0.08002935350531169, ,0.010031855666212192,0.020517107616583954,-0.08032965657207769, ,0.00041691298600442494, ,0.002507442953162879,0.0005675556013804432,-0.006683425394042689,-0.007373251364628931,-0.015706234566084998,-0.006021554908742541, ,0.007160835462553177, ,0.017350810545787444, ,3.79594580262888e-05, ,0.1755377182311231,-0.24395340876387803,0.09073511484,1.6978594723941938,0.5050085031330679,-1.263628152987897, ,0.0161581715577168,0.013654236195463422,0.006871790992234686,0.001635533797375078,0.0,-0.00615433803044996, ,0.22719788551330566
0.009836969423978189,0.020630193639255334,-0.08022058213008167, ,0.010106203428494807,0.020530853363939207,-0.08051756927946635, ,0.00041298523749351963, ,0.002632822085263758,0.0006453103787234605,-0.006595595476069065,0.007404108958337183,0.002391030333272244,-0.0013575004743307149, ,0.007130922612220914, ,0.007780606855507014, ,3.8752237084699025e-05, ,0.17612464592956417,-0.24355182665441835,0.09093474350000001,1.698069162337678,0.5055550491321297,-1.2640738246026828, ,0.0201095447252534,0.012579127990253285,0.006916548640903171,-0.0013065911581904605,0.023521595276145287,-0.01918028375845894, ,0.25267910957336426
0.009878047065687833,0.020640849919233897,-0.08032316954684703, ,0.010180443537743672,0.020544213601236476,-0.08070432164698552, ,0.000496043473606798, ,0.0026611314490606816,0.0007902210004973758,-0.007570943423106554,0.004969907545453583,0.0028084446648031624,-0.0015440520110332188, ,0.00806382379114817, ,0.005708530246163832, ,4.023984657807788e-05, ,0.17640266431303625,-0.24336648106543698,0.09104103928000001,1.698069162337678,0.5055550491321297,-1.2640738246026828, ,0.018127400488724122,0.013658166603118997,0.007889455928677564,-0.0012828392168251794,0.02190300337103542,-0.01786043059098961, ,0.2812619209289551
0.00998165736623246,0.020674803972032252,-0.08060033609424645, ,0.010254576650493176,0.02055719206237726,-0.08088992206317898, ,0.0004149428037894681, ,0.0027275621422725993,0.000569660501303147,-0.006314501383446259,0.013024182689551524,0.006788175599559875,-0.002416627853694961, ,0.006901958855879131, ,0.01468702327437937, ,4.072858902795535e-05, ,0.17712860120321336,-0.2429340080244804,0.09133140824000001,1.6978594723941938,0.5062382316309569,-1.264630914121165, ,0.022318189454014765,0.012703740503142007,0.006667564470489746,-0.00035884313801259654,0.030089174706417088,-0.02453570440914003, ,0.3065340518951416
0.010024809626878291,0.02068344256116473,-0.08069449668729892, ,0.010328603420828539,0.02056979246775932,-0.08107437888418237, ,0.0004995172634481629, ,0.0028627977530456153,0.000810053165168669,-0.0070530303844938535,-0.0005998895233178391,-0.008027023718301888,-0.0019841137474508625, ,0.007654869999538615, ,0.008049407416761717, ,4.1864998961259326e-05, ,0.1778082016961451,-0.24257103957939186,0.09154270351,1.6978594723941938,0.5063748681307223,-1.2647423320248612, ,0.020643232881981895,0.011831061159265773,0.0073915598700696064,-0.00035884313801259654,0.013131335083814448,-0.010737693812269572, ,0.3343660831451416
0.010125735759353084,0.02070892498508723,-0.08093501938366779, ,0.010402524500389664,0.020582018524297127,-0.08125770043377427, ,0.00044366689875705755, ,0.0024688856842341915,0.0006036793587358186,-0.0065343971685304265,0.029407328756626813,0.027584375566198634,-0.002854735058363308, ,0.00701128887196061, ,0.040319830704806395, ,4.239580775574919e-05, ,0.17822522927135323,-0.24231618939454244,0.09168270283,1.6978594723941938,0.5070580506295495,-1.2652994215433433, ,0.020412334170460483,0.012958752090464397,0.00693763567944251,-0.00035884313801259654,0.0495546808614541,-0.04049501178283246, ,0.3584449291229248
0.010216823847857548,0.020731500837518603,-0.08115144932876366, ,0.01047634053837488,0.020593873925439772,-0.08143989500342635, ,0.00041169283066024183, ,0.0028019461955262077,0.0005704051049442263,-0.006658891417375709,0.0007273058526623723,-0.00499099495744872,-0.002327708381996643, ,0.007246868245992202, ,0.005043708097866576, ,4.261899709544178e-05, ,0.17886621609991388,-0.2419300527508312,0.09190825729,1.6978594723941938,0.5071946871293149,-1.2654925181871803, ,0.020842728214028283,0.01339406373443483,0.006958851690694627,-0.00035884313801259654,0.0164264322680246,-0.013394654076007494, ,0.38500189781188965
0.010276725338450343,0.020742266129925267,-0.08130017934304412, ,0.010550052181544844,0.02060536235119105,-0.08162097085235587, ,0.00044312233100377794, ,0.003031563323098074,0.00062124650277588,-0.007203769680737625,-0.008247251572661301,-0.01515112790024623,0.000379753326885637, ,0.007840320211080627, ,0.017250327989707957, ,4.303254818672513e-05, ,0.17929096640799622,-0.24162114343586225,0.09206251580000001,1.6976497824507093,0.5074679601288459,-1.2657970327347137, ,0.021479615563257306,0.0141341884954529,0.007488862961918196,-0.0031705944430465653,0.00730313930845403,-0.005955220409976357, ,0.41047191619873047
0.010364420047356942,0.020756610275688196,-0.08151328829200208, ,0.010623660074226418,0.020616487468127873,-0.08180093620757502, ,0.0004118022778753547, ,0.0027242748725078885,0.00026874073236348464,-0.006067437666178441,-0.005724833215447367,-0.009741129464319083,0.00021848050001741507, ,0.006656402556574386, ,0.011298818980866291, ,4.347690274186693e-05, ,0.17993195323655686,-0.24115005673053455,0.09228418139000001,1.6976497824507093,0.5080145061279076,-1.26632438308964, ,0.020598424475465765,0.014869467495843119,0.006290999810426541,-0.002970200274236865,0.011925606822697558,-0.008962119956433782, ,0.43566298484802246
0.010419872718998585,0.020760560034942446,-0.08164327955199452, ,0.010697164858316325,0.02062725292942012,-0.08197979926394304, ,0.00045596845443524406, ,0.0031120808306185294,0.0003906574767058255,-0.007670603583602143,-0.018730454130115388,-0.02121332164079061,-0.00029193054834939956, ,0.008287087528026931, ,0.028299026492105816, ,4.4152860444993854e-05, ,0.1803258126131423,-0.24081025648406867,0.09241769926000001,1.6976497824507093,0.508151142627673,-1.266517479733477, ,0.020531575412910164,0.017925376191626517,0.007866079762962965,-0.002835243035102507,0.0,0.0006389318625719773, ,0.45713210105895996
0.0104915056793214,0.020777249257379674,-0.0818356402858591, ,0.010770567173285197,0.020637662374849097,-0.08215756818421661, ,0.0004483273211937869, ,0.0034315586114395486,0.001064249302605451,-0.009941270904988322,0.01671000585041487,0.011704713064793305,-0.002275866046674361, ,0.010570576535279826, ,0.020401580976782362, ,4.471895828805241e-05, ,0.1808277902499669,-0.24043184257323166,0.09261862421000001,1.6976497824507093,0.5088343251265002,-1.2670745692519592, ,0.02274615090087986,0.016979234488901554,0.010404187798824299,-0.0026944162642006677,0.036128199836341586,-0.032825626819606005, ,0.4808919429779053
0.010559286739511068,0.020791129403938003,-0.08201798994430463, ,0.010843867656181224,0.02064771943082729,-0.08233425109910071, ,0.0004489697501540501, ,0.003216084205143513,0.0006376355016526351,-0.008444388084000503,-0.006869681574864912,-0.006969408500130185,-0.002673829659213731, ,0.009058557653443019, ,0.009785966321412176, ,4.523724285537985e-05, ,0.18125254055804924,-0.2400688741281431,0.09280658626,1.6974400925072246,0.5089709616262656,-1.267267665895796, ,0.02128211293080753,0.017453916049010625,0.008747288039538717,5.718470651789027e-05,0.01475282164127488,-0.009640827578820607, ,0.5023519992828369
0.010614765230785661,0.020800098500839775,-0.08215546276779376, ,0.010917066941633996,0.0206574277104174,-0.08250985610729958, ,0.00048717134347954326, ,0.003276127765852134,0.000414719128122763,-0.007370338925357996,-0.010631736914378577,-0.014352497019733934,-0.002495049475178545, ,0.008076317289957438, ,0.017861354337483246, ,4.5918076554491285e-05, ,0.18163867720176047,-0.23976768754604835,0.09294917816,1.6974400925072246,0.5092442346257966,-1.267490501703189, ,0.023783694626183155,0.016933786859113273,0.007647053058089295,5.718470651789027e-05,0.009723505389007752,-0.005539757404922043, ,0.5250658988952637
0.010686425321764531,0.02080799276730676,-0.0823249304265735, ,0.010990165661858467,0.020666790813350874,-0.08268439127556766, ,0.0004913331740895801, ,0.003055954506454061,0.00025137375901054955,-0.007172634036958058,-0.0014885126215196515,0.003755496335223315,-0.001346766387913733, ,0.007800559322277167, ,0.004039728154721871, ,4.656385031310404e-05, ,0.18217154577008196,-0.23935838270371446,0.09312547360000001,1.6974400925072246,0.5097907806248584,-1.2681812095383962, ,0.023224900038783844,0.01829162327649784,0.007464297806935334,5.718470651789027e-05,0.027847799445935552,-0.015090716872330349, ,0.5475280284881592
0.010785596729981944,0.02082218615792127,-0.0825556851842503, ,0.011063164446658572,0.02067581232604822,-0.08285786463876037, ,0.0004356392529677255, ,0.0031839972508149223,0.0003746161285591538,-0.006993963621650336,-0.009174690083793968,-0.013486747966530592,0.001054132773608326, ,0.007693744399051863, ,0.016311569271891844, ,4.68794925654185e-05, ,0.18288203719451063,-0.23885640506688985,0.09336528725000001,1.6972304025637401,0.5102006901241547,-1.268433784509345, ,0.023437130540496613,0.016000158752060494,0.00727342991780822,-0.003527260972394338,0.01112975991356154,-0.006661509281115174, ,0.5701169967651367
0.01085330183250464,0.020829673913445146,-0.08270605238893676, ,0.011136063923431134,0.02068449582163756,-0.08303028419988506, ,0.00045404553255904816, ,0.0031103773463331858,0.00033705499604585727,-0.0072964536564787815,0.01575689278713841,0.015352245394508007,0.00016732558446386496, ,0.007938909828690884, ,0.021999342905599635, ,4.748765239440941e-05, ,0.1833840148313352,-0.23850888208754975,0.09351954576,1.6972304025637401,0.5106105996234509,-1.2687680382204343, ,0.024894265886272502,0.016509558378300416,0.008352811494493972,-0.003527260972394338,0.02680989816826204,-0.019459928786423566, ,0.5895779132843018
0.010889308829373629,0.020836057403045977,-0.082787188083228, ,0.011208864717169727,0.020692844859973313,-0.0832016579301515, ,0.0005425965830405434, ,0.003958979274047897,0.0009464226558113806,-0.009660125314561632,-0.009854199539493676,-0.0167092788571104,0.0007203260101068252, ,0.010482712140892183, ,0.01939858665898158, ,4.8469816021884545e-05, ,0.18390143793390826,-0.2381768045739581,0.09370491523,1.6972304025637401,0.5108838726229818,-1.268990874027827, ,0.02652234252612375,0.01696405819779599,0.010081526278481015,-0.003527260972394338,0.010981531945302547,-0.0069601909889672135, ,0.6100380420684814
0.0109989354669811,0.02086221246592888,-0.08306896055735956, ,0.01128156745046837,0.020700862987656565,-0.0833719937690231, ,0.0004446837298573207, ,0.0035979932368978684,0.0007514066847164199,-0.009387543826727551,0.011000853774243653,0.010078482050409147,-0.001295431711834875, ,0.010081475409746823, ,0.014919601579709767, ,4.894671655448241e-05, ,0.18440341557073284,-0.237829281594618,0.09390195131000001,1.6970207126202554,0.5115670551218091,-1.2696296422864497, ,0.02518496325861751,0.018549050343719856,0.009832599703703704,-0.002348249317554912,0.03689570249786783,-0.02830040886349064, ,0.6301350593566895
0.011038836384642009,0.020868943556306536,-0.08316291033388572, ,0.0113541727435254,0.0207085537380532,-0.08354129962426733, ,0.0005180157990917604, ,0.0037163952517155715,0.0006691988063907413,-0.00887493856432742,-0.0015851082231502526,-0.006125581277586926,-0.000914043594331419, ,0.009644892701841472, ,0.0063273421757178245, ,4.9715965603650756e-05, ,0.18466598848845647,-0.23763621327276238,0.09399917306000001,1.6970207126202554,0.5115670551218091,-1.2696296422864497, ,0.02616403130920066,0.017925376191626517,0.009271717997671713,-0.002348249317554912,0.021217826494114446,-0.015638853013374518, ,0.6504490375518799
0.01114563094442996,0.020881969173335974,-0.08340573491975473, ,0.01142668121414732,0.020715920631313615,-0.08370958337200712, ,0.00044596553045289297, ,0.0028764060649923407,-7.573588622139916e-05,-0.006034224571207963,0.01604979525007866,0.016126481448707125,-0.001556975440317722, ,0.006685156239831377, ,0.022752127889158476, ,5.0132790162064957e-05, ,0.1854614299745016,-0.23708017650581822,0.0942532459,1.6970207126202554,0.5123868741204016,-1.2702981497086283, ,0.02437630145349879,0.01845167053441003,0.006336042768496421,-0.002348249317554912,0.04228300802749887,-0.03309582325148862, ,0.6763041019439697
0.011213510120335857,0.020878374978992267,-0.08353614789405384, ,0.01149909347775251,0.020722967174392065,-0.08387685285677088, ,0.00047094512566119983, ,0.003391570009484354,0.00015348847778004303,-0.007141134396241965,-0.0032558966074891843,-0.0062790096232077045,-0.009157550308923448, ,0.007907092152443592, ,0.0070729630280359, ,5.062872237085317e-05, ,0.18597113034420043,-0.23668631712923277,0.09438676377,1.6966013327332867,0.5123868741204016,-1.2702981497086283, ,0.02559939076300803,0.019159487494139062,0.007429482985074627,0.005919092690612111,0.01846978569450289,-0.013818809749418324, ,0.6972529888153076
0.011285819760337056,0.020887440086068177,-0.08370294301799197, ,0.011571410147375035,0.020729696861065305,-0.08404311589154327, ,0.00047134104224325535, ,0.0033483647298460702,0.0005215656301581638,-0.00831063992965266,0.020853541299206795,0.02092349265212948,-0.009633601593850022, ,0.008974982624550123, ,0.029540864744247226, ,5.10983608674286e-05, ,0.18651172164539614,-0.23630790321839576,0.09456176292000001,1.6966013327332867,0.5130700566192289,-1.2708552392271104, ,0.02497287935749231,0.018369520239734954,0.008752094241758242,0.005919092690612111,0.045823159657155124,-0.03624121168109867, ,0.7168440818786621
0.011355506022742014,0.020896453358677125,-0.08386909800428458, ,0.011643631833668537,0.020736113171952238,-0.08420838025781738, ,0.00047311510857648003, ,0.0033968333772764875,0.0005884794811244296,-0.00845281199497122,-0.0009422912789458279,-0.0025863160889767543,-0.008997222689354257, ,0.009128790484780193, ,0.0027526170481868236, ,5.154924595533673e-05, ,0.18698280835072384,-0.235937212040433,0.09473416949,1.6966013327332867,0.5133433296187598,-1.2710780750345032, ,0.02264843473949183,0.0176749751459249,0.008805313167495854,0.005919092690612111,0.019234284532226944,-0.014652603768643649, ,0.7359509468078613
0.011425374262426135,0.020906518866727283,-0.08403857951964949, ,0.011715759144909896,0.02074221957453314,-0.08437265370564329, ,0.000472147433687847, ,0.0034081730268963315,0.0006631901010460931,-0.008596106065051371,0.025864198075400524,0.02517420843653454,-0.009669831437207347, ,0.00927084160003838, ,0.03609290048684563, ,5.217081831394675e-05, ,0.18748478598754842,-0.2355665208624702,0.09491176122000002,1.6966013327332867,0.514026512117587,-1.2716351645529853, ,0.025265426400018845,0.017479635579014694,0.009091787397260276,0.005919092690612111,0.050498296745365975,-0.04022726080542028, ,0.7533779144287109
0.011459875349445337,0.020914297466389696,-0.08413267452028345, ,0.011787792687003196,0.020748019523168536,-0.08453594395368054, ,0.0005457145504614176, ,0.0036578257806062476,0.0006185645206379287,-0.009344052685302594,0.01899077155701832,0.01831248447853613,-0.0003281304289244029, ,0.010053538287248443, ,0.026381744083272377, ,5.303906324147562e-05, ,0.18773963617239783,-0.23537345254061462,0.09501157555,1.696811022676771,0.5147096946164142,-1.2721922540714674, ,0.02617846663681953,0.01945805650163436,0.00982047565967941,-0.00420380528815161,0.046809152143105257,-0.03725479353445187, ,0.7697761058807373
0.011542358371810911,0.020926419030573105,-0.08432831281638425, ,0.011859733063483341,0.020753516459118774,-0.08469825868924827, ,0.0005171865649635603, ,0.0037388799779656833,0.0006246923311378359,-0.009758067009883962,-0.009098132865749519,-0.009745505491914604,0.003831687627056886, ,0.01046849252603262, ,0.013332322020604411, ,5.3765166108317616e-05, ,0.1882647820078451,-0.23497187043115494,0.09521379679000001,1.6966013327332867,0.5147096946164142,-1.2722739328116082, ,0.023230585448830058,0.0199279591680955,0.010107113908629443,-0.007725025894544334,0.01574258500040926,-0.011270168030031587, ,0.7893939018249512
0.011613633224063911,0.020938838381725715,-0.08451247746082097, ,0.011931580875519949,0.02075871381056307,-0.0848596055683753, ,0.0005040173541230364, ,0.0033178529707705616,0.0006064643578524686,-0.008909525514309725,0.045218456944664934,0.04758862729374468,0.006112985871033275, ,0.009526572953750598, ,0.06564591563851781, ,5.441311738500737e-05, ,0.18875903691179546,-0.23460117925319215,0.09540694400000001,1.696391642789802,0.5155295136150068,-1.2729424402337866, ,0.025928126108871796,0.018123938418348126,0.009487082501488983,-0.011266130052958538,0.07834524409333583,-0.062411393672240155, ,0.8064229488372803
0.01169682120212169,0.020952056478189027,-0.08471071697002824, ,0.0120033367219211,0.020763614992618803,-0.08501999221585235, ,0.00047446088884267113, ,0.004540222630029129,0.0005786719533633869,-0.010060179832318817,-0.027082735874101656,-0.03583082054851288,0.005913937205018606, ,0.011052407023740678, ,0.044914609878753925, ,5.4930537610645926e-05, ,0.1893305191444881,-0.23419187441085826,0.0956143504,1.696391642789802,0.5160760596140685,-1.2733881118485724, ,0.02974825754184037,0.021041450456423676,0.010417796939175933,-0.0097581762092105,-0.003915857967526386,0.0045818705553672115, ,0.8263230323791504
0.011747035177902694,0.02095908724141599,-0.0848196766773761, ,0.01207500119913719,0.020768223407360377,-0.08517942622528107, ,0.0005228866525860361, ,0.004233337044317991,0.0006632814402597073,-0.00955494440420566,-0.0169070036912501,-0.02511630884213516,0.005448581640854426, ,0.010471773840531938, ,0.030276652127137607, ,5.5592535648050585e-05, ,0.18994061504155182,-0.23376712410277592,0.09582046051000001,1.696391642789802,0.516212696113834,-1.2734995297522687, ,0.028092641077107988,0.021557687768848425,0.008642871144872492,-0.008511129637546709,0.015612216867504478,-0.01142098385785585, ,0.8433361053466797
0.011823002091819183,0.020963201724557137,-0.08498628337926502, ,0.012146574901264615,0.020772542443838953,-0.08533791515912593, ,0.0005144854059587517, ,0.0033863303334394643,-7.044032201715325e-05,-0.0073129788697054955,0.03520845497989736,0.03647275146261587,0.0024599029676868568, ,0.00805927136377087, ,0.0506941503569154, ,5.6199683943589e-05, ,0.19023407889077235,-0.2335431648494234,0.09590212678000001,1.696391642789802,0.5167592421128957,-1.2739452013670545, ,0.029073817879433455,0.02132994865328631,0.007766363490980011,-0.008014028967569585,0.06935179861519827,-0.05527727615910795, ,0.8603410720825195
0.011903095521242366,0.020966751923903005,-0.08515701568484485, ,0.012218058420049667,0.020776575478101727,-0.08549546654876454, ,0.000499917688675535, ,0.004357690178202237,8.532712837845113e-05,-0.008701420231172027,-0.012564608579587036,-0.019382610094186164,0.002556950419084287, ,0.009731981219026648, ,0.02309880760859079, ,5.673494573639822e-05, ,0.19082872932208764,-0.23311069180846683,0.09607842222000001,1.696391642789802,0.517442424611723,-1.2745022908855366, ,0.03201651199678501,0.02298303258863424,0.009040188149829742,-0.007187698592571419,0.014911198346373543,-0.01094889318690199, ,0.8774421215057373
0.011948173405670387,0.02096972383148307,-0.08524685079449917, ,0.012289452344892154,0.02078032587321084,-0.0856520878945382, ,0.0005626366573571789, ,0.0043707427013603235,0.00037447009931999614,-0.009117301304516353,-0.014257716061131217,-0.022525860280540974,0.0027222048227433307, ,0.01011774691787232, ,0.026658896932536424, ,5.763773514958652e-05, ,0.19115308410280507,-0.2328867325551143,0.09617434768000001,1.696391642789802,0.517442424611723,-1.2745022908855366, ,0.030730874857017743,0.020806170041322247,0.00950406415274463,-0.006821341626949514,0.010070457736052198,-0.007032679538209632, ,0.8910439014434814
0.01203143228413364,0.020979183660413823,-0.08544825083975355, ,0.012360757262849398,0.020783796979262085,-0.08580778666580255, ,0.0005252588952034637, ,0.004119811713608664,0.0007445537785473412,-0.011133445502848748,0.05873331536192818,0.06329805064791318,-0.006340779735002874, ,0.011894570931716676, ,0.08634955343352795, ,5.839273584848949e-05, ,0.19177090273274303,-0.2324388140484093,0.09638693924000001,1.6961819528463176,0.5186721531096119,-1.2755050520188043, ,0.031144385152107244,0.02297746768970237,0.011860619151154134,0.0,0.09713273038173954,-0.07807972679565499, ,0.9054899215698242
0.012093120301611675,0.02098945827059836,-0.08560440392625294, ,0.012431973758639858,0.020786992133405575,-0.08596257030097854, ,0.0005330078367470686, ,0.004818072003948634,0.0008137858617916473,-0.011560371791650145,-0.0009850540443940578,-0.00746924154911775,0.0014951538896646715, ,0.012550627921553006, ,0.00753390299369917, ,5.91483601666858e-05, ,0.1922033757736996,-0.2321299047334403,0.09655156807000001,1.6959722629028329,0.5194919721082046,-1.2760102019607016, ,0.0316428614733147,0.022439570006732273,0.012094769567198179,-0.0066890690762053335,0.026435607649340446,-0.021430631684729966, ,0.9223020076751709
0.01214710045170296,0.020997613754959746,-0.08572796809372187, ,0.0125031024146469,0.020789914659863375,-0.08611644620760285, ,0.0005663846366986992, ,0.005179731772381086,0.0007026178820559636,-0.01169112225126897,-0.012549396427697536,-0.021692045109638267,0.0014941373858863116, ,0.01280646838968946, ,0.025060565702390264, ,5.99836775613317e-05, ,0.19254317602016546,-0.23188277728146514,0.09667990078000001,1.6959722629028329,0.5194919721082046,-1.2760102019607016, ,0.034283577152626726,0.023939692623226736,0.012196639754977033,-0.0066890690762053335,0.014527310860642614,-0.0117202141383993, ,0.936237096786499
0.012195821958119328,0.021001973768436582,-0.0858297308255922, ,0.012574143810922712,0.020792567869950353,-0.08626942176237874, ,0.0006166898527798548, ,0.005139428829624269,0.00030960700527901013,-0.010494683070326829,-0.024924314416818485,-0.03659739340612455,0.001314614576043431, ,0.011689651745843221, ,0.044278556051047205, ,6.0946508761858125e-05, ,0.19288297626663137,-0.2316510952952384,0.09678619656000001,1.6959722629028329,0.5196286086079701,-1.2760399411242576, ,0.03506908409403946,0.02495974265083398,0.010887772740943269,-0.0066890690762053335,0.0,-0.0008704601392352691, ,0.9499518871307373
0.012288911685298479,0.021006002429567752,-0.08603491005703068, ,0.012645098525191927,0.020794955062091905,-0.08642150431122651, ,0.0005664496214218877, ,0.004315601491226678,0.00029833474194969144,-0.009770515626169832,0.03998782404389041,0.03833423673309814,-0.0007816830666923463, ,0.010685335532895586, ,0.05539440123905922, ,6.17300928265665e-05, ,0.19357029949243734,-0.23114139492553956,0.09699489925000002,1.6959722629028329,0.520858337105859,-1.2769610235173847, ,0.03412331591458856,0.023933654869727813,0.01045883881812213,-0.006003065867896296,0.07577880354644231,-0.06187348110378093, ,0.96533203125
0.012388907370670568,0.021012488986709023,-0.08624520927992296, ,0.012715967132855468,0.02079707952184403,-0.08657270116933431, ,0.0005105098071771799, ,0.005264368162338787,0.0002507652875539063,-0.011278164338498998,-0.017852850795575994,-0.0231126046579761,9.86064624356952e-05, ,0.01244883312701551, ,0.02920473579977631, ,6.232554811578286e-05, ,0.19428079091686598,-0.23062397182296654,0.09722175000000001,1.6959722629028329,0.5211316101053899,-1.2771838593247775, ,0.03564873837658557,0.027602368108921114,0.011712361411764708,-0.00540649527323654,0.014173925259314185,-0.009686343803876896, ,0.9793779850006104
0.012437299967377666,0.021014910356792028,-0.08634950150013068, ,0.012786750206994373,0.02079894452191237,-0.08672301962120851, ,0.000555222926919408, ,0.005411312553227045,0.00036927454923132833,-0.011302708789737229,-0.01700372420605856,-0.028339162235658064,-0.004611138759270496, ,0.012536741730889481, ,0.033048972277972516, ,6.321744530078658e-05, ,0.19462059116333186,-0.23037684437099135,0.09733063836000001,1.6957625729593484,0.5214048831049207,-1.27732501639203, ,0.03665389785958701,0.026514931980573,0.011764262570162482,-0.001434571858462751,0.008866332839589569,-0.00910704163082971, ,0.9901390075683594
0.012437299967377666,0.021014910356792028,-0.08634950150013068, ,0.01285744831837339,0.020800553322171872,-0.08687246692072492, ,0.0007042488241189214, ,0.005411312553227045,0.00036927454923132833,-0.011302708789737229,-0.01700372420605856,-0.028339162235658064,-0.004611138759270496, ,0.012536741730889481, ,0.033048972277972516, ,6.45182494590453e-05, ,0.19462059116333186,-0.23037684437099135,0.09733063836000001,1.6957625729593484,0.5214048831049207,-1.27732501639203, ,0.03665389785958701,0.026514931980573,0.011764262570162482,-0.001434571858462751,0.008866332839589569,-0.00910704163082971, ,1.001589059829712
0.012538673565917684,0.021023758834030706,-0.08658532512727538, ,0.012928062035444991,0.0208019091696851,-0.08702105029117864, ,0.0006250576551243914, ,0.005298389033921072,0.0003975905232932995,-0.011901780753002073,0.043542663959375345,0.03902113527499961,-0.004846194734993904, ,0.013033932241327569, ,0.05846890065680159, ,6.556378979319973e-05, ,0.1953851417178801,-0.22983625306979563,0.09758082233000001,1.695552883015864,0.523044521102106,-1.2785803524962465, ,0.04045052922355958,0.028150976433838855,0.012641913904761905,-0.0037035050652556266,0.08249565774466383,-0.06940558035406189, ,1.012566089630127
0.012597827466539892,0.021029349719066164,-0.0867162333975139, ,0.01299859192435291,0.020803015298722218,-0.08716877692533515, ,0.0006454727453978903, ,0.006048246052892155,0.0006782583719479957,-0.013518945973503787,-0.019638150403309417,-0.022063871243335448,-0.00019688560918798602, ,0.014825761868111782, ,0.029537618623491645, ,6.664327595158028e-05, ,0.195794446560214,-0.2295427892205751,0.09771822907000001,1.695552883015864,0.5234544306014023,-1.278669569986914, ,0.03944178784641346,0.028730530293209437,0.014108779025686451,-0.0037035050652556266,0.018782852997960103,-0.008252689148949121, ,1.0233519077301025
0.012665236024555018,0.02103727026120406,-0.08686670493564096, ,0.013069038548936075,0.020803874930780408,-0.0873156539854813, ,0.0006473678307675071, ,0.006495810118691591,0.0007456317820417865,-0.014095133503168171,-0.017923307144882623,-0.04208482325423513,-0.006271092433373412, ,0.015537834608613283, ,0.04574250464286725, ,6.770398549743316e-05, ,0.19619602866967367,-0.22924932537135456,0.09786470984000001,1.695552883015864,0.5235910671011678,-1.2787809878906105, ,0.04125953980803077,0.029416286905911585,0.014667413922651935,-0.0037035050652556266,0.0,0.027991282426820255, ,1.0341529846191406
0.012665236024555018,0.02103727026120406,-0.08686670493564096, ,0.01313940247073224,0.02080449127460216,-0.08746168860347499, ,0.000795628958920539, ,0.006495810118691591,0.0007456317820417865,-0.014095133503168171,-0.017923307144882623,-0.04208482325423513,-0.006271092433373412, ,0.015537834608613283, ,0.04574250464286725, ,6.914975138429488e-05, ,0.19619602866967367,-0.22924932537135456,0.09786470984000001,1.695552883015864,0.5235910671011678,-1.2787809878906105, ,0.04125953980803077,0.029416286905911585,0.014667413922651935,-0.0037035050652556266,0.0,0.027991282426820255, ,1.0455780029296875
0.012777144023072394,0.021049999008324778,-0.08713120995936546, ,0.013209684248981907,0.02080486752619576,-0.08760688788079674, ,0.0006880770127665934, ,0.005773598059872827,0.0005931466732898524,-0.013883749894529281,0.032045653731865006,0.04200386748241139,0.0018910120786275477, ,0.015048081893279419, ,0.0528322656216836, ,7.027094486448402e-05, ,0.19699919288859302,-0.22866239767291352,0.09815378251000001,1.6953431930723792,0.5248207955990567,-1.2797020702837376, ,0.0412774865413096,0.030701048708660878,0.014694475571955721,-0.006961053123960036,0.08725522152324156,-0.060157182383623754, ,1.0572218894958496
0.012841519109489968,0.02105332987620393,-0.08726851161930278, ,0.013279884440631929,0.02080500686885326,-0.08775125888859928, ,0.0006977631442976213, ,0.005788012447859848,-7.498217880953229e-05,-0.011419429374706856,-0.021683214269770906,-0.014113998767994492,0.005126462754202053, ,0.012802737116243438, ,0.025872119126656674, ,7.139406983709772e-05, ,0.19744711139529805,-0.22833032015932186,0.0982976707,1.6953431930723792,0.5252307050983531,-1.2798729665145456, ,0.041712941344382755,0.03113416717797598,0.011931694022471913,-0.006961053123960036,0.030110094833314918,-0.008313828673655611, ,1.0679209232330322
0.012906221422778589,0.02105024032176793,-0.08739441566244183, ,0.01335000360033935,0.02080491247317102,-0.08789480866775928, ,0.0007124054563157098, ,0.006620498032783812,-0.00029944877043705184,-0.013135551437821339,-0.04182882100223853,-0.037805328373353486,0.002961396634234951, ,0.014712694360444685, ,0.0563816701490481, ,7.27262175558261e-05, ,0.1979104753677515,-0.22795962898135907,0.09842859599,1.6953431930723792,0.525503978097884,-1.280014123581798, ,0.04516751145096182,0.037792489668845394,0.013567982555366271,-0.006961053123960036,0.009283935984918595,0.004416264300816631, ,1.0761229991912842
0.0129641731502662,0.02105151672317295,-0.08751770372959475, ,0.013420042280475228,0.02080458749706778,-0.08803754422892744, ,0.0007341831183900243, ,0.005958950103521104,0.00018027923007665802,-0.012867027303622686,0.0495989386253378,0.039736437661549016,-0.005274248425141919, ,0.014181042929531767, ,0.06355343293718953, ,7.409492966649599e-05, ,0.19832750294295964,-0.22764299693351586,0.09855822499000001,1.6953431930723792,0.5260505240969456,-1.2803781164564432, ,0.0453185012218103,0.03244339882340882,0.01366107334476844,-0.006620581743195998,0.08881413595324619,-0.08040773737704299, ,1.0864059925079346
0.013030314617442926,0.021053936480680848,-0.08765921728348175, ,0.013490001031128252,0.020804035085804848,-0.08817947255257863, ,0.0007378535431309627, ,0.006695122402662784,0.0003324678186439867,-0.014505024932121276,0.03876611196483839,0.03988941765213055,-0.001895568754018082, ,0.015979078418936768, ,0.05562352411895238, ,7.545168954578934e-05, ,0.19882948057978422,-0.22728775122130154,0.09870859463000001,1.6953431930723792,0.5270069795953038,-1.2812397205224586, ,0.05010398181545448,0.03506908409403946,0.01540504015473888,-0.006241770696081306,0.09390282247050363,-0.07116400882060399, ,1.0952680110931396
0.013100004526591161,0.0210570617313841,-0.08781447252764113, ,0.013559880400108611,0.020803258372004897,-0.08832060058906346, ,0.000729429625690331, ,0.007421407128245048,0.0005324544072530328,-0.01693203372546114,-0.01730801987153439,-0.018371232949619617,0.004117917491080408, ,0.01849471701700578, ,0.025240213158026787, ,7.676520013861692e-05, ,0.1992928445522377,-0.22693250550908722,0.09887063088,1.6949238131854105,0.5274168890946002,-1.281573974233548, ,0.047142047470676005,0.03815719403235657,0.017639879867109635,-0.011375156160802476,0.03220833927638637,-0.021014714895734955, ,1.103334903717041
0.01318272742397787,0.021063310945648575,-0.08799777299058038, ,0.013629680932951667,0.020802260475670964,-0.08846093525865768, ,0.0006945747430118879, ,0.007968694242412325,0.0005544359470705008,-0.0173736326137082,-0.044167571647942876,-0.051325900092208235,0.0029109014419723134, ,0.019121992504563024, ,0.06771352023527238, ,7.796799584482427e-05, ,0.19981026765481075,-0.22653092339962755,0.09906118551000001,1.6947141232419258,0.5275535255943656,-1.2816853921372444, ,0.049143936591647217,0.03882853582588821,0.01801901755656109,-0.009533339117843636,0.0,0.004528109347616519, ,1.1114189624786377
0.01318272742397787,0.021063310945648575,-0.08799777299058038, ,0.013699403172921813,0.020801044504206494,-0.0886004834516143, ,0.0008360606531186523, ,0.007968694242412325,0.0005544359470705008,-0.0173736326137082,-0.044167571647942876,-0.051325900092208235,0.0029109014419723134, ,0.019121992504563024, ,0.06771352023527238, ,7.951595642473219e-05, ,0.20032769075738377,-0.22612934129016787,0.09925303643000001,1.6947141232419258,0.5282367080931928,-1.282160802915586, ,0.051658650821159925,0.03838873040391213,0.018761851024734984,-0.009533339117843636,0.09845920745219157,-0.08075908447054243, ,1.1196839809417725
0.013261284966039831,0.021070583056853612,-0.08818037382450482, ,0.013769047661016175,0.020799613552434155,-0.08873925202821263, ,0.0008022420291374904, ,0.007506918968457484,0.0007375508056140356,-0.017737274497277168,0.04420781282392129,0.042144852792256486,-0.0016386711478039951, ,0.019274561478321826, ,0.06107796309570253, ,8.09539517305059e-05, ,0.20032769075738377,-0.22612934129016787,0.09925303643000001,1.6947141232419258,0.5282367080931928,-1.282160802915586, ,0.051658650821159925,0.03838873040391213,0.018761851024734984,-0.009533339117843636,0.09845920745219157,-0.08075908447054243, ,1.1287329196929932
0.013261284966039831,0.021070583056853612,-0.08818037382450482, ,0.013838614935968316,0.020797970702614285,-0.08887724781880994, ,0.0009451247292290646, ,0.007506918968457484,0.0007375508056140356,-0.017737274497277168,0.04420781282392129,0.042144852792256486,-0.0016386711478039951, ,0.019274561478321826, ,0.06107796309570253, ,8.29418116943842e-05, ,0.20032769075738377,-0.22612934129016787,0.09925303643000001,1.6947141232419258,0.5282367080931928,-1.282160802915586, ,0.051658650821159925,0.03838873040391213,0.018761851024734984,-0.009533339117843636,0.09845920745219157,-0.08075908447054243, ,1.1344881057739258
0.013367726729580191,0.021078370672815233,-0.08842347141910663, ,0.01390810553425207,0.020796119024466094,-0.08901447762389134, ,0.0008490957423214645, ,0.007944773892753195,0.0004386774956293259,-0.01731013944653014,0.013211572090335626,0.009913905195737307,0.000137836679843262, ,0.019051320106765912, ,0.016517554272433184, ,8.466709482300212e-05, ,0.2010613503804351,-0.22557330452322372,0.09950970185,1.6947141232419258,0.5294664365910817,-1.2832452427889942, ,0.054475856233335694,0.040193537297107486,0.018225184805491994,-0.009533339117843636,0.06829300189193385,-0.052221215295709014, ,1.1403889656066895
0.013367726729580191,0.021078370672815233,-0.08842347141910663, ,0.013977519990085324,0.020794061575185006,-0.08915094821412095, ,0.000990909668353834, ,0.007944773892753195,0.0004386774956293259,-0.01731013944653014,0.013211572090335626,0.009913905195737307,0.000137836679843262, ,0.019051320106765912, ,0.016517554272433184, ,8.673135481975547e-05, ,0.2010613503804351,-0.22557330452322372,0.09950970185,1.6947141232419258,0.5294664365910817,-1.2832452427889942, ,0.054475856233335694,0.040193537297107486,0.018225184805491994,-0.009533339117843636,0.06829300189193385,-0.052221215295709014, ,1.145845890045166
0.013506001293241969,0.021081184105209642,-0.08868986076805985, ,0.014046858835433614,0.020791801399462947,-0.08928666633039195, ,0.0008558306553059447, ,0.009202032914486775,-0.0003403148914958186,-0.017589652209446333,-0.04279966458931005,-0.0538252077447094,-0.00030031411932724653, ,0.01985419574885752, ,0.06876745301328976, ,8.843727468392154e-05, ,0.2020035237910905,-0.2249091494960404,0.09978840420000001,1.6947141232419258,0.5297397095906126,-1.2833863998562465, ,0.06222750266129232,0.04879020131540914,0.018266985688073393,-0.009435149621957418,0.010803745973938475,-0.006382197607260049, ,1.1512629985809326
0.013506001293241969,0.021081184105209642,-0.08868986076805985, ,0.014116122600013974,0.02078934152950751,-0.08942163868387773, ,0.0009964532181936082, ,0.009202032914486775,-0.0003403148914958186,-0.017589652209446333,-0.04279966458931005,-0.0538252077447094,-0.00030031411932724653, ,0.01985419574885752, ,0.06876745301328976, ,9.047602759144832e-05, ,0.2020035237910905,-0.2249091494960404,0.09978840420000001,1.6947141232419258,0.5297397095906126,-1.2833863998562465, ,0.06222750266129232,0.04879020131540914,0.018266985688073393,-0.009435149621957418,0.010803745973938475,-0.006382197607260049, ,1.1566851139068604
0.013594582708981902,0.021082738733561156,-0.0888870359231941, ,0.014185311811298795,0.020786684985060748,-0.08955587195608183, ,0.0009401863289871191, ,0.00932710904303403,0.0010306584047549599,-0.023030695595235077,0.08983834438319817,0.09648190138346781,-0.007852651569323523, ,0.024869060284785985, ,0.13183201028838215, ,9.235532034838946e-05, ,0.20261361968815422,-0.22442261732496424,0.09999581060000001,1.6945044332984414,0.5306961650889708,-1.2841663251821214, ,0.06464369315972122,0.04876512926951222,0.024505863876923082,-0.006785058700334664,0.1668740090024193,-0.13389295243560978, ,1.1624729633331299
0.013594582708981902,0.021082738733561156,-0.0888870359231941, ,0.014254426994519299,0.020783834773418945,-0.08968937279888894, ,0.0010809636999662984, ,0.00932710904303403,0.0010306584047549599,-0.023030695595235077,0.08983834438319817,0.09648190138346781,-0.007852651569323523, ,0.024869060284785985, ,0.13183201028838215, ,9.4562840198807e-05, ,0.20261361968815422,-0.22442261732496424,0.09999581060000001,1.6945044332984414,0.5306961650889708,-1.2841663251821214, ,0.06464369315972122,0.04876512926951222,0.024505863876923082,-0.006785058700334664,0.1668740090024193,-0.13389295243560978, ,1.1678860187530518
0.013689196671765333,0.0210973242029346,-0.08912840105574034, ,0.014323468672669596,0.020780793889451758,-0.08982214783461563, ,0.00099185533405053, ,0.01009895807205713,0.0016227705174682474,-0.025104291461957723,0.09164361671310692,0.09298827813295996,0.0013690899319975052, ,0.027108076067852094, ,0.13055788901236767, ,9.653031484011317e-05, ,0.2032700519824633,-0.22395925335251077,0.10025377231000002,1.6942947433549567,0.5326090760856869,-1.2857261758338714, ,0.0682711809773171,0.047025243586952814,0.02677111179831933,-0.016484210219649586,0.16913589383804206,-0.13594564834573217, ,1.1750319004058838
0.013798415861364625,0.02111215305580721,-0.08938711813220579, ,0.014392437366510203,0.0207775653156214,-0.08995420365606008, ,0.0008867899953332579, ,0.011784282037850485,0.0018269656685459676,-0.02759314805071684,0.004733836490219007,-0.003417754708892858,-0.0008649042584977293, ,0.030059755921338246, ,0.005837316108931694, ,9.822233768316935e-05, ,0.20397282067401776,-0.22347272118143463,0.1005272895,1.693875363467988,0.5337021680838104,-1.286372482843021, ,0.07221989464114975,0.0505039603823687,0.029067174306569344,-0.010385629067805314,0.07293441939064041,-0.053849948218258836, ,1.1807479858398438
0.013798415861364625,0.02111215305580721,-0.08938711813220579, ,0.014461333594571949,0.02077415202200194,-0.09008554682655355, ,0.0010205426306345497, ,0.011784282037850485,0.0018269656685459676,-0.02759314805071684,0.004733836490219007,-0.003417754708892858,-0.0008649042584977293, ,0.030059755921338246, ,0.005837316108931694, ,0.00010022257543867471, ,0.20397282067401776,-0.22347272118143463,0.1005272895,1.693875363467988,0.5337021680838104,-1.286372482843021, ,0.07221989464114975,0.0505039603823687,0.029067174306569344,-0.010385629067805314,0.07293441939064041,-0.053849948218258836, ,1.1862549781799316
0.013798415861364625,0.02111215305580721,-0.08938711813220579, ,0.014530157873159522,0.02077055696629851,-0.09021618388001058, ,0.001157360909300294, ,0.011784282037850485,0.0018269656685459676,-0.02759314805071684,0.004733836490219007,-0.003417754708892858,-0.0008649042584977293, ,0.030059755921338246, ,0.005837316108931694, ,0.00010253396615950307, ,0.20397282067401776,-0.22347272118143463,0.1005272895,1.693875363467988,0.5337021680838104,-1.286372482843021, ,0.07221989464114975,0.0505039603823687,0.029067174306569344,-0.010385629067805314,0.07293441939064041,-0.053849948218258836, ,1.191831111907959
0.013974103527785912,0.021135707869218145,-0.08979720141543007, ,0.014598910716355423,0.020766783093866634,-0.09034612132097943, ,0.0009098365652492812, ,0.012115329147830423,0.0009735116769014152,-0.025928156242276245,-0.07678535208003585,-0.06106081221720178,0.010578671883129527, ,0.02863561089743366, ,0.09810403337556067, ,0.00010422812152712393, ,0.2049999441462896,-0.22268500242826375,0.10095636149000001,1.693875363467988,0.5342487140828721,-1.2862464032768228, ,0.07396488040410817,0.05466413684243708,0.027089815510204087,-0.010385629067805314,0.01593240622456479,0.02378506374328359, ,1.197274923324585
0.013974103527785912,0.021135707869218145,-0.08979720141543007, ,0.014667592636023609,0.020762833337731306,-0.09047536562469273, ,0.001039167577535352, ,0.012115329147830423,0.0009735116769014152,-0.025928156242276245,-0.07678535208003585,-0.06106081221720178,0.010578671883129527, ,0.02863561089743366, ,0.09810403337556067, ,0.00010647018257270721, ,0.2049999441462896,-0.22268500242826375,0.10095636149000001,1.693875363467988,0.5342487140828721,-1.2862464032768228, ,0.07396488040410817,0.05466413684243708,0.027089815510204087,-0.010385629067805314,0.01593240622456479,0.02378506374328359, ,1.2000949382781982
0.013974103527785912,0.021135707869218145,-0.08979720141543007, ,0.0147362041418133,0.020758710618606912,-0.09060392323711824, ,0.0011720598834774757, ,0.012115329147830423,0.0009735116769014152,-0.025928156242276245,-0.07678535208003585,-0.06106081221720178,0.010578671883129527, ,0.02863561089743366, ,0.09810403337556067, ,0.00010901944023037412, ,0.2049999441462896,-0.22268500242826375,0.10095636149000001,1.693875363467988,0.5342487140828721,-1.2862464032768228, ,0.07396488040410817,0.05466413684243708,0.027089815510204087,-0.010385629067805314,0.01593240622456479,0.02378506374328359, ,1.202897071838379
0.014086454556053996,0.02114209854896232,-0.09003223843237755, ,0.014804745741162547,0.020754417844915805,-0.0907318005750094, ,0.0010750003471154401, ,0.011368915680112411,8.895849650968112e-05,-0.02352728471750353,0.05170121098334914,0.07023683645752365,0.00062446770057371, ,0.026130313498580197, ,0.08721365262372077, ,0.00011132488392222393, ,0.20576449470083782,-0.22215213385994226,0.10120524917000001,1.693875363467988,0.5352051695812303,-1.2866996136421354, ,0.08316997507315581,0.05908900470639525,0.025084742551181104,-0.010385629067805314,0.1598119374521385,-0.10567130037144784, ,1.2056770324707031
0.014086454556053996,0.02114209854896232,-0.09003223843237755, ,0.014873217939302168,0.020749957912807544,-0.09085900402595519, ,0.0012067776292539437, ,0.011368915680112411,8.895849650968112e-05,-0.02352728471750353,0.05170121098334914,0.07023683645752365,0.00062446770057371, ,0.026130313498580197, ,0.08721365262372077, ,0.000621453298606049, ,0.20576449470083782,-0.22215213385994226,0.10120524917000001,1.693875363467988,0.5352051695812303,-1.2866996136421354, ,0.08316997507315581,0.05908900470639525,0.025084742551181104,-0.010385629067805314,0.1598119374521385,-0.10567130037144784, ,1.2084710597991943
0.014086454556053996,0.02114209854896232,-0.09003223843237755, ,0.014941621239259491,0.020745333706178804,-0.09098553994843143, ,0.0013407148007851446, ,0.011368915680112411,8.895849650968112e-05,-0.02352728471750353,0.05170121098334914,0.07023683645752365,0.00062446770057371, ,0.026130313498580197, ,0.08721365262372077, ,0.0006306745999160374, ,0.20576449470083782,-0.22215213385994226,0.10120524917000001,1.693875363467988,0.5352051695812303,-1.2866996136421354, ,0.08316997507315581,0.05908900470639525,0.025084742551181104,-0.010385629067805314,0.1598119374521385,-0.10567130037144784, ,1.2111749649047852
0.014214299326521058,0.021141226590074027,-0.09030391126191006, ,0.015009956141861881,0.020740548096692006,-0.09111141467185127, ,0.0014760485427494628, ,0.013328210503644492,0.00020726231096741528,-0.028674056637302936,0.11000078496422036,0.09986443617558968,-0.006795514541871151, ,0.030845772504426983, ,0.1485700471875497, ,0.0006413755359012706, ,0.20669122264574477,-0.22145708790126203,0.10149432184000001,1.6936656735245033,0.5371180805779463,-1.2882594642938854, ,0.0959524181582111,0.07013816818807891,0.030573534587332057,-0.01925975028340167,0.20484313857120456,-0.1774308072969188, ,1.214613914489746
0.014214299326521058,0.021141226590074027,-0.09030391126191006, ,0.01507822314574074,0.020735603943795082,-0.09123663449661533, ,0.0013344911873626258, ,0.013328210503644492,0.00020726231096741528,-0.028674056637302936,0.11000078496422036,0.09986443617558968,-0.006795514541871151, ,0.03162096894363396, ,0.1485700471875497, ,0.0006500394815445376, ,0.20669122264574477,-0.22145708790126203,0.10149432184000001,1.6936656735245033,0.5371180805779463,-1.2882594642938854, ,0.0959524181582111,0.07013816818807891,0.030573534587332057,-0.01925975028340167,0.20484313857120456,-0.1774308072969188, ,1.2174999713897705
0.014214299326521058,0.021141226590074027,-0.09030391126191006, ,0.015146422747335105,0.02073050409474023,-0.09136120569416276, ,0.0014681343795020416, ,0.013328210503644492,0.00020726231096741528,-0.028674056637302936,0.11000078496422036,0.09986443617558968,-0.006795514541871151, ,0.03162096894363396, ,0.1485700471875497, ,0.0006601394185563586, ,0.20669122264574477,-0.22145708790126203,0.10149432184000001,1.6936656735245033,0.5371180805779463,-1.2882594642938854, ,0.0959524181582111,0.07013816818807891,0.030573534587332057,-0.01925975028340167,0.20484313857120456,-0.1774308072969188, ,1.2204360961914062
0.014214299326521058,0.021141226590074027,-0.09030391126191006, ,0.015214555440895292,0.020725251384603856,-0.09148513450702109, ,0.0016027588779038502, ,0.013328210503644492,0.00020726231096741528,-0.028674056637302936,0.11000078496422036,0.09986443617558968,-0.006795514541871151, ,0.03162096894363396, ,0.1485700471875497, ,0.0006716347778166939, ,0.20669122264574477,-0.22145708790126203,0.10149432184000001,1.6936656735245033,0.5371180805779463,-1.2882594642938854, ,0.0959524181582111,0.07013816818807891,0.030573534587332057,-0.01925975028340167,0.20484313857120456,-0.1774308072969188, ,1.2235779762268066
0.014214299326521058,0.021141226590074027,-0.09030391126191006, ,0.015282621718486945,0.020719848636305046,-0.09160842714885767, ,0.0017379970691566034, ,0.013328210503644492,0.00020726231096741528,-0.028674056637302936,0.11000078496422036,0.09986443617558968,-0.006795514541871151, ,0.03162096894363396, ,0.1485700471875497, ,0.0006844825162665723, ,0.20669122264574477,-0.22145708790126203,0.10149432184000001,1.6936656735245033,0.5371180805779463,-1.2882594642938854, ,0.0959524181582111,0.07013816818807891,0.030573534587332057,-0.01925975028340167,0.20484313857120456,-0.1774308072969188, ,1.2264769077301025
0.014214299326521058,0.021141226590074027,-0.09030391126191006, ,0.01535062206999445,0.02071429866062552,-0.09173108980452924, ,0.0018735889161688255, ,0.013328210503644492,0.00020726231096741528,-0.028674056637302936,0.11000078496422036,0.09986443617558968,-0.006795514541871151, ,0.03162096894363396, ,0.1485700471875497, ,0.0006986385448368372, ,0.20669122264574477,-0.22145708790126203,0.10149432184000001,1.6936656735245033,0.5371180805779463,-1.2882594642938854, ,0.0959524181582111,0.07013816818807891,0.030573534587332057,-0.01925975028340167,0.20484313857120456,-0.1774308072969188, ,1.2295279502868652
0.014368220070171106,0.021151324352870347,-0.09063660395710176, ,0.015418556983124842,0.020708604256228693,-0.0918531286301335, ,0.0016670755816034725, ,0.016459638382749723,0.0016688835898672194,-0.03563150335769335,0.03614314352650646,0.01033270075919911,-0.009626637898550203, ,0.039284970404172746, ,0.037590345765052297, ,0.000710031921739974, ,0.20774151431663931,-0.22073115101108493,0.10184820901000001,1.6934559835810188,0.5388943550748971,-1.2896262183017984, ,0.10591176513222186,0.07124395011897205,0.03774599886255925,-0.012143573795475433,0.12170604320764496,-0.10534192231451286, ,1.2324581146240234
0.014368220070171106,0.021151324352870347,-0.09063660395710176, ,0.015486426943411452,0.02070276820967865,-0.09197454975305842, ,0.0018004688772303415, ,0.016459638382749723,0.0016688835898672194,-0.03563150335769335,0.03614314352650646,0.01033270075919911,-0.009626637898550203, ,0.039284970404172746, ,0.037590345765052297, ,0.0007227114212224202, ,0.2083979466109484,-0.22029095523725414,0.10208543008000001,1.693246293637534,0.5394409010739589,-1.2899902111764434, ,0.10907694432008136,0.0731101244672348,0.04012295093198993,-0.015424501942682647,0.0821406857317922,-0.07104827679226185, ,1.2354800701141357
0.01447277565198114,0.021161816978805852,-0.09086129230382607, ,0.015554232434217743,0.020696793295459686,-0.09209535927203392, ,0.0017054961389402516, ,0.01762244582586194,0.001972201645610871,-0.0380066693598051,-0.0016138748036512718,-0.03218331313275354,-0.004810769939607323, ,0.04193980319507874, ,0.03222252211354202, ,0.0007340077972881424, ,0.2083979466109484,-0.22029095523725414,0.10208543008000001,1.693246293637534,0.5394409010739589,-1.2899902111764434, ,0.10907694432008136,0.0731101244672348,0.04012295093198993,-0.015424501942682647,0.0821406857317922,-0.07104827679226185, ,1.2390410900115967
0.01447277565198114,0.021161816978805852,-0.09086129230382607, ,0.01562197393674101,0.020690682275995992,-0.09221556325718205, ,0.001837572970249205, ,0.01762244582586194,0.001972201645610871,-0.0380066693598051,-0.0016138748036512718,-0.03218331313275354,-0.004810769939607323, ,0.04193980319507874, ,0.03222252211354202, ,0.0007465483106172454, ,0.2083979466109484,-0.22029095523725414,0.10208543008000001,1.693246293637534,0.5394409010739589,-1.2899902111764434, ,0.10907694432008136,0.0731101244672348,0.04012295093198993,-0.015424501942682647,0.0821406857317922,-0.07104827679226185, ,1.2418370246887207
0.01447277565198114,0.021161816978805852,-0.09086129230382607, ,0.015689651930015983,0.020684437901669905,-0.09233516775006716, ,0.0019700222055508564, ,0.01762244582586194,0.001972201645610871,-0.0380066693598051,-0.0016138748036512718,-0.03218331313275354,-0.004810769939607323, ,0.04193980319507874, ,0.03222252211354202, ,0.0007602952083131287, ,0.2083979466109484,-0.22029095523725414,0.10208543008000001,1.693246293637534,0.5394409010739589,-1.2899902111764434, ,0.10907694432008136,0.0731101244672348,0.04012295093198993,-0.015424501942682647,0.0821406857317922,-0.07104827679226185, ,1.2445380687713623
0.014741322221010803,0.021187989641809533,-0.09144141719079166, ,0.015757266890918907,0.02067806291084234,-0.09245417876374676, ,0.0015224502773240464, ,0.01898351977737169,0.0007451145925865307,-0.040302495924626563,-0.08795987273831976,-0.10606286563737864,0.03702046084375135, ,0.0445558121533935, ,0.13779029119788969, ,0.0007687635979688055, ,0.2100042750487871,-0.21918660443624002,0.10269468638000001,1.6921978439201113,0.5401240835727862,-1.2903839432146444, ,0.11177496061068408,0.08794897271406003,0.04202852643799473,-0.056467857466639584,0.018474428867515137,-0.008694462032812824, ,1.2472679615020752
0.014741322221010803,0.021187989641809533,-0.09144141719079166, ,0.01582481929417075,0.02067156002987096,-0.09257260228282174, ,0.0016493165748467792, ,0.01898351977737169,0.0007451145925865307,-0.040302495924626563,-0.08795987273831976,-0.10606286563737864,0.03702046084375135, ,0.0445558121533935, ,0.13779029119788969, ,0.000778440004308124, ,0.2100042750487871,-0.21918660443624002,0.10269468638000001,1.6921978439201113,0.5401240835727862,-1.2903839432146444, ,0.11177496061068408,0.08794897271406003,0.04202852643799473,-0.056467857466639584,0.018474428867515137,-0.008694462032812824, ,1.2499771118164062
0.014741322221010803,0.021187989641809533,-0.09144141719079166, ,0.015892309612341452,0.020664931973130685,-0.09269044426348777, ,0.0017771972113678623, ,0.01898351977737169,0.0007451145925865307,-0.040302495924626563,-0.08795987273831976,-0.10606286563737864,0.03702046084375135, ,0.0445558121533935, ,0.13779029119788969, ,0.0007892960609065994, ,0.2100042750487871,-0.21918660443624002,0.10269468638000001,1.6921978439201113,0.5401240835727862,-1.2903839432146444, ,0.11177496061068408,0.08794897271406003,0.04202852643799473,-0.056467857466639584,0.018474428867515137,-0.008694462032812824, ,1.252737045288086
0.014933545388100046,0.021194802135030173,-0.09187091524391039, ,0.0159597383158533,0.02065818144303156,-0.0928077106335845, ,0.001489503035970905, ,0.020763094488152077,0.0018265354411687849,-0.04877992509965615,0.13388646640562385,0.1183392869010818,-0.06968892697142054, ,0.053046426997205395, ,0.17868826632520185, ,0.0007968251681653554, ,0.21120129864429188,-0.21821354009408775,0.10314709159,1.691988153976627,0.5417637215699714,-1.291802636799142, ,0.12858664167814468,0.10214956034281031,0.05171692051948052,0.03290252675841388,0.24503638486832055,-0.2220149392128336, ,1.2560980319976807
0.014933545388100046,0.021194802135030173,-0.09187091524391039, ,0.0160271058729849,0.020651311130039016,-0.0929244072926473, ,0.0016127933852046197, ,0.020763094488152077,0.0018265354411687849,-0.04877992509965615,0.13388646640562385,0.1183392869010818,-0.06968892697142054, ,0.053046426997205395, ,0.17868826632520185, ,0.0008055056811125816, ,0.21120129864429188,-0.21821354009408775,0.10314709159,1.691988153976627,0.5417637215699714,-1.291802636799142, ,0.12858664167814468,0.10214956034281031,0.05171692051948052,0.03290252675841388,0.24503638486832055,-0.2220149392128336, ,1.2588911056518555
0.014933545388100046,0.021194802135030173,-0.09187091524391039, ,0.016094412749874706,0.02064432371269324,-0.093040540111957, ,0.0017374296696687549, ,0.020763094488152077,0.0018265354411687849,-0.04877992509965615,0.13388646640562385,0.1183392869010818,-0.06968892697142054, ,0.053046426997205395, ,0.17868826632520185, ,0.0008153154073079097, ,0.21120129864429188,-0.21821354009408775,0.10314709159,1.691988153976627,0.5417637215699714,-1.291802636799142, ,0.12858664167814468,0.10214956034281031,0.05171692051948052,0.03290252675841388,0.24503638486832055,-0.2220149392128336, ,1.2616279125213623
0.014933545388100046,0.021194802135030173,-0.09187091524391039, ,0.016161659410524925,0.02063722185762779,-0.09315611493459086, ,0.0018630346380971868, ,0.020763094488152077,0.0018265354411687849,-0.04877992509965615,0.13388646640562385,0.1183392869010818,-0.06968892697142054, ,0.053046426997205395, ,0.17868826632520185, ,0.000826229149295298, ,0.21120129864429188,-0.21821354009408775,0.10314709159,1.691988153976627,0.5417637215699714,-1.291802636799142, ,0.12858664167814468,0.10214956034281031,0.05171692051948052,0.03290252675841388,0.24503638486832055,-0.2220149392128336, ,1.2644379138946533
0.015141549476834019,0.021221051521754124,-0.0923545917790178, ,0.016228846316805087,0.02063000821958887,-0.09327113757547256, ,0.001540000909169986, ,0.022647525589862463,0.0028446306494353943,-0.04905551876703148,0.11305571163002341,0.06479845360474043,-0.035415624381805275, ,0.05410588009059422, ,0.13030790245638998, ,0.0008335876210465835, ,0.21248327230141317,-0.21729453488205502,0.10366171872,1.6921978439201113,0.5440865420659838,-1.2937784199021216, ,0.1437832447855618,0.0902062182114741,0.05239740631578948,0.0,0.21306970927890004,-0.1971575413812945, ,1.269608974456787
0.015141549476834019,0.021221051521754124,-0.0923545917790178, ,0.016295973928455984,0.020622685441455738,-0.09338561382142391, ,0.0016594409397389233, ,0.022647525589862463,0.0028446306494353943,-0.04905551876703148,0.11305571163002341,0.06479845360474043,-0.035415624381805275, ,0.05410588009059422, ,0.13030790245638998, ,0.0008420146957271176, ,0.21248327230141317,-0.21729453488205502,0.10366171872,1.6921978439201113,0.5440865420659838,-1.2937784199021216, ,0.1437832447855618,0.0902062182114741,0.05239740631578948,0.0,0.21306970927890004,-0.1971575413812945, ,1.2745211124420166
0.015312597079189347,0.021235363974244435,-0.09270105323389242, ,0.016363042703093078,0.020615256154258316,-0.09349954943121368, ,0.0014579320609421197, ,0.02424657338407666,0.0009663433167744092,-0.04627068502347542,-0.011756660780001947,-0.04331475610187864,-0.02216044983596301, ,0.05224754953887275, ,0.04487956187669941, ,0.0008482360832545419, ,0.21358762310242727,-0.21659948892337483,0.10403116137000001,1.6921978439201113,0.5453162705638728,-1.29486285977553, ,0.15763611554563253,0.10214956034281031,0.049162998518518526,-0.0005809707554800242,0.11715019314665755,-0.08457370898128257, ,1.2774391174316406
0.015312597079189347,0.021235363974244435,-0.09270105323389242, ,0.01643005309621065,0.020607722977197866,-0.0936129501356093, ,0.0015729580828844638, ,0.02424657338407666,0.0009663433167744092,-0.04627068502347542,-0.011756660780001947,-0.04331475610187864,-0.02216044983596301, ,0.05224754953887275, ,0.04487956187669941, ,0.0008554833032508411, ,0.21358762310242727,-0.21659948892337483,0.10403116137000001,1.6921978439201113,0.5453162705638728,-1.29486285977553, ,0.15763611554563253,0.10214956034281031,0.049162998518518526,-0.0005809707554800242,0.11715019314665755,-0.08457370898128257, ,1.280195951461792
0.015312597079189347,0.021235363974244435,-0.09270105323389242, ,0.016497005561185128,0.020600088517665597,-0.0937258216374275, ,0.001690132728172208, ,0.02424657338407666,0.0009663433167744092,-0.04627068502347542,-0.011756660780001947,-0.04331475610187864,-0.02216044983596301, ,0.05224754953887275, ,0.04487956187669941, ,0.0008637471589431319, ,0.21358762310242727,-0.21659948892337483,0.10403116137000001,1.6921978439201113,0.5453162705638728,-1.29486285977553, ,0.15763611554563253,0.10214956034281031,0.049162998518518526,-0.0005809707554800242,0.11715019314665755,-0.08457370898128257, ,1.2830350399017334
0.015312597079189347,0.021235363974244435,-0.09270105323389242, ,0.016563900549279097,0.020592355371261823,-0.09383816961158387, ,0.0018089372830981196, ,0.02424657338407666,0.0009663433167744092,-0.04627068502347542,-0.011756660780001947,-0.04331475610187864,-0.02216044983596301, ,0.05224754953887275, ,0.04487956187669941, ,0.0008730137287877886, ,0.21358762310242727,-0.21659948892337483,0.10403116137000001,1.6921978439201113,0.5453162705638728,-1.29486285977553, ,0.15763611554563253,0.10214956034281031,0.049162998518518526,-0.0005809707554800242,0.11715019314665755,-0.08457370898128257, ,1.285780906677246
0.01564139693481412,0.021222360601258095,-0.09328871426967111, ,0.01663073850964484,0.02058452612181576,-0.09394999970514416, ,0.001350158509961987, ,0.022940546750599113,-0.002515888696707191,-0.03682716882762833,-0.09007211943473173,-0.14080360032686773,0.02463867063386833, ,0.043460772485188086, ,0.1671483557353265, ,0.0008776462023914217, ,0.2157422655743359,-0.21509355601290103,0.10465078799000001,1.6913590841461734,0.5461360895624655,-1.2953680097174276, ,0.15633763024459765,0.11151226975143451,0.03875623240875913,-0.054628617811068855,0.027715555036888925,-0.03002283387838024, ,1.2885220050811768
0.01564139693481412,0.021222360601258095,-0.09328871426967111, ,0.01669751988932818,0.02057660334140443,-0.09406131753737428, ,0.0014592168937381533, ,0.022940546750599113,-0.002515888696707191,-0.03682716882762833,-0.09007211943473173,-0.14080360032686773,0.02463867063386833, ,0.043460772485188086, ,0.1671483557353265, ,0.0008832382282697557, ,0.2157422655743359,-0.21509355601290103,0.10465078799000001,1.6913590841461734,0.5461360895624655,-1.2953680097174276, ,0.15633763024459765,0.11151226975143451,0.03875623240875913,-0.054628617811068855,0.027715555036888925,-0.03002283387838024, ,1.2912580966949463
0.01564139693481412,0.021222360601258095,-0.09328871426967111, ,0.01676424513327225,0.020568589590372364,-0.09417212869979212, ,0.0015711860700761207, ,0.022940546750599113,-0.002515888696707191,-0.03682716882762833,-0.09007211943473173,-0.14080360032686773,0.02463867063386833, ,0.043460772485188086, ,0.1671483557353265, ,0.0008897901124774354, ,0.2157422655743359,-0.21509355601290103,0.10465078799000001,1.6913590841461734,0.5461360895624655,-1.2953680097174276, ,0.15633763024459765,0.11151226975143451,0.03875623240875913,-0.054628617811068855,0.027715555036888925,-0.03002283387838024, ,1.294006109237671
0.015863284537917424,0.021185517065217183,-0.09363281531792873, ,0.016830914684320988,0.020560487417349897,-0.09428243875621545, ,0.0013224903676448984, ,0.022229760436842664,-0.004620617810862364,-0.033798182530373685,0.0014404089161858076,-0.023664289746285677,0.02690808261704489, ,0.04071645245339936, ,0.023707156813583707, ,0.0008938721903563737, ,0.21734087127930038,-0.21389653241739626,0.10501504548000001,1.6911493942026892,0.547229181560589,-1.2964227104272799, ,0.16532568215761462,0.12569131332247785,0.035875701621621625,-0.0651613845717056,0.1588596463788856,-0.1342626775944397, ,1.2967491149902344
0.015863284537917424,0.021185517065217183,-0.09363281531792873, ,0.016897528983223158,0.02055229935927373,-0.09439225324281546, ,0.001430864143628706, ,0.022229760436842664,-0.004620617810862364,-0.033798182530373685,0.0014404089161858076,-0.023664289746285677,0.02690808261704489, ,0.04071645245339936, ,0.023707156813583707, ,0.0008988908067420965, ,0.21734087127930038,-0.21389653241739626,0.10501504548000001,1.6911493942026892,0.547229181560589,-1.2964227104272799, ,0.16532568215761462,0.12569131332247785,0.035875701621621625,-0.0651613845717056,0.1588596463788856,-0.1342626775944397, ,1.2997090816497803
0.015863284537917424,0.021185517065217183,-0.09363281531792873, ,0.016964088468635858,0.02054402794140514,-0.09450157766816504, ,0.001542084826150108, ,0.022229760436842664,-0.004620617810862364,-0.033798182530373685,0.0014404089161858076,-0.023664289746285677,0.02690808261704489, ,0.04071645245339936, ,0.023707156813583707, ,0.0009048463069218003, ,0.21734087127930038,-0.21389653241739626,0.10501504548000001,1.6911493942026892,0.547229181560589,-1.2964227104272799, ,0.16532568215761462,0.12569131332247785,0.035875701621621625,-0.0651613845717056,0.1588596463788856,-0.1342626775944397, ,1.3024680614471436
0.015863284537917424,0.021185517065217183,-0.09363281531792873, ,0.017030593577128342,0.02053567567735003,-0.09461041751329038, ,0.0016554788657015661, ,0.022229760436842664,-0.004620617810862364,-0.033798182530373685,0.0014404089161858076,-0.023664289746285677,0.02690808261704489, ,0.04071645245339936, ,0.023707156813583707, ,0.0009117328441583119, ,0.21734087127930038,-0.21389653241739626,0.10501504548000001,1.6911493942026892,0.547229181560589,-1.2964227104272799, ,0.16532568215761462,0.12569131332247785,0.035875701621621625,-0.0651613845717056,0.1588596463788856,-0.1342626775944397, ,1.305232048034668
0.016077246584744583,0.021140055367933886,-0.09394976899731686, ,0.017097044743185717,0.020527245069077844,-0.09471877823172156, ,0.001416650962285231, ,0.022040361420199057,-0.0048653478446252455,-0.031230340629286,0.0229028963425156,0.009862862095465032,-0.03642740554430261, ,0.038532886175362345, ,0.024935697321171887, ,0.0009163230088685566, ,0.21896264518288752,-0.21267634062326876,0.10535337717000001,1.6909397042592043,0.5490054560575397,-1.297952821915474, ,0.16945882421155498,0.12535923587644754,0.03346388974789917,0.004789518783536729,0.18227982402990228,-0.13927958665775822, ,1.3079850673675537
0.016077246584744583,0.021140055367933886,-0.09394976899731686, ,0.01716344239921272,0.020518738606940555,-0.0948266652495421, ,0.00152800618520542, ,0.022040361420199057,-0.0048653478446252455,-0.031230340629286,0.0229028963425156,0.009862862095465032,-0.03642740554430261, ,0.038532886175362345, ,0.024935697321171887, ,0.0009218336681148347, ,0.21896264518288752,-0.21267634062326876,0.10535337717000001,1.6909397042592043,0.5490054560575397,-1.297952821915474, ,0.16945882421155498,0.12535923587644754,0.03346388974789917,0.004789518783536729,0.18227982402990228,-0.13927958665775822, ,1.3108999729156494
0.016077246584744583,0.021140055367933886,-0.09394976899731686, ,0.017229786975537367,0.020510158769692876,-0.09493408396544054, ,0.0016413394022433928, ,0.022040361420199057,-0.0048653478446252455,-0.031230340629286,0.0229028963425156,0.009862862095465032,-0.03642740554430261, ,0.038532886175362345, ,0.024935697321171887, ,0.0009282578264552682, ,0.21896264518288752,-0.21267634062326876,0.10535337717000001,1.6909397042592043,0.5490054560575397,-1.297952821915474, ,0.16945882421155498,0.12535923587644754,0.03346388974789917,0.004789518783536729,0.18227982402990228,-0.13927958665775822, ,1.31541109085083
0.016077246584744583,0.021140055367933886,-0.09394976899731686, ,0.017296078900414687,0.020501508024510454,-0.09504103975076031, ,0.0017561795981151558, ,0.022040361420199057,-0.0048653478446252455,-0.031230340629286,0.0229028963425156,0.009862862095465032,-0.03642740554430261, ,0.038532886175362345, ,0.024935697321171887, ,0.0009355845677973911, ,0.21896264518288752,-0.21267634062326876,0.10535337717000001,1.6909397042592043,0.5490054560575397,-1.297952821915474, ,0.16945882421155498,0.12535923587644754,0.03346388974789917,0.004789518783536729,0.18227982402990228,-0.13927958665775822, ,1.3182361125946045
0.016077246584744583,0.021140055367933886,-0.09394976899731686, ,0.0173623186000305,0.020492788827009785,-0.09514753794955057, ,0.0018721684011877506, ,0.022040361420199057,-0.0048653478446252455,-0.031230340629286,0.0229028963425156,0.009862862095465032,-0.03642740554430261, ,0.038532886175362345, ,0.024935697321171887, ,0.0009438002154587101, ,0.21896264518288752,-0.21267634062326876,0.10535337717000001,1.6909397042592043,0.5490054560575397,-1.297952821915474, ,0.16945882421155498,0.12535923587644754,0.03346388974789917,0.004789518783536729,0.18227982402990228,-0.13927958665775822, ,1.3212940692901611
0.016077246584744583,0.021140055367933886,-0.09394976899731686, ,0.017428506498505143,0.020484003621267663,-0.0952535838786169, ,0.001989030038370325, ,0.022040361420199057,-0.0048653478446252455,-0.031230340629286,0.0229028963425156,0.009862862095465032,-0.03642740554430261, ,0.038532886175362345, ,0.024935697321171887, ,0.0009528891704405502, ,0.21896264518288752,-0.21267634062326876,0.10535337717000001,1.6909397042592043,0.5490054560575397,-1.297952821915474, ,0.16945882421155498,0.12535923587644754,0.03346388974789917,0.004789518783536729,0.18227982402990228,-0.13927958665775822, ,1.3244009017944336
0.016213278139234927,0.021110668022224218,-0.09413795213921247, ,0.017494643017897077,0.020475154839839586,-0.09535918282757071, ,0.0018807385122449742, ,0.02292914712544316,-0.005353449337030712,-0.031164194590729968,-0.001830969543160991,-0.02132758895184654,-0.005494265953216348, ,0.039059086422921566, ,0.021405352240873792, ,0.0009608878716630021, ,0.22001293685378207,-0.21191179006872055,0.10555559841,1.6911493942026892,0.5500985480556632,-1.2989258438851858, ,0.17671683716661224,0.12823911021414972,0.033393734842767295,-0.027611397337294875,0.16481634050541338,-0.12461755057956059, ,1.3272020816802979
0.016213278139234927,0.021110668022224218,-0.09413795213921247, ,0.017560728578206817,0.020466244903780028,-0.09546434005888144, ,0.0019975506888473787, ,0.02292914712544316,-0.005353449337030712,-0.031164194590729968,-0.001830969543160991,-0.02132758895184654,-0.005494265953216348, ,0.039059086422921566, ,0.021405352240873792, ,0.000969748237621843, ,0.22001293685378207,-0.21191179006872055,0.10555559841,1.6911493942026892,0.5500985480556632,-1.2989258438851858, ,0.17671683716661224,0.12823911021414972,0.033393734842767295,-0.027611397337294875,0.16481634050541338,-0.12461755057956059, ,1.3299970626831055
0.016665664573983788,0.021010863599943502,-0.09474015570474156, ,0.017626763597380406,0.020457276222661126,-0.09556906080792547, ,0.0013846494094696474, ,0.024117043800586088,-0.005186794469330516,-0.030878285548236132,-0.09506797737462287,-0.13843683364639153,-0.014454032375574216, ,0.039522185629654566, ,0.16793644381319583, ,0.0009732643492476717, ,0.2233954938526924,-0.20948685194621405,0.10619855825,1.69073001431572,0.5520114590523794,-1.3004856945369356, ,0.177046532758341,0.12453666871190391,0.03291076760330579,-0.013400859515246128,0.04235810211540049,-0.027870961810000337, ,1.3327770233154297
0.016665664573983788,0.021010863599943502,-0.09474015570474156, ,0.01769274849131331,0.020448251194592294,-0.09567335028303811, ,0.0014974265300354813, ,0.024117043800586088,-0.005186794469330516,-0.030878285548236132,-0.09506797737462287,-0.13843683364639153,-0.014454032375574216, ,0.039522185629654566, ,0.16793644381319583, ,0.0009776690734559727, ,0.2233954938526924,-0.20948685194621405,0.10619855825,1.69073001431572,0.5520114590523794,-1.3004856945369356, ,0.177046532758341,0.12453666871190391,0.03291076760330579,-0.013400859515246128,0.04235810211540049,-0.027870961810000337, ,1.3354899883270264
0.016665664573983788,0.021010863599943502,-0.09474015570474156, ,0.017758683673854123,0.020439172206239187,-0.09577721366556274, ,0.0016115244386665454, ,0.024117043800586088,-0.005186794469330516,-0.030878285548236132,-0.09506797737462287,-0.13843683364639153,-0.014454032375574216, ,0.039522185629654566, ,0.16793644381319583, ,0.0009829512014993941, ,0.2233954938526924,-0.20948685194621405,0.10619855825,1.69073001431572,0.5520114590523794,-1.3004856945369356, ,0.177046532758341,0.12453666871190391,0.03291076760330579,-0.013400859515246128,0.04235810211540049,-0.027870961810000337, ,1.3382360935211182
0.016665664573983788,0.021010863599943502,-0.09474015570474156, ,0.017824569556808185,0.02043004163284309,-0.09588065610990215, ,0.001726602470417865, ,0.024117043800586088,-0.005186794469330516,-0.030878285548236132,-0.09506797737462287,-0.13843683364639153,-0.014454032375574216, ,0.039522185629654566, ,0.16793644381319583, ,0.0009890970797549188, ,0.2233954938526924,-0.20948685194621405,0.10619855825,1.69073001431572,0.5520114590523794,-1.3004856945369356, ,0.177046532758341,0.12453666871190391,0.03291076760330579,-0.013400859515246128,0.04235810211540049,-0.027870961810000337, ,1.3410630226135254
0.016914823407709733,0.020948939184142035,-0.0950761757668623, ,0.0178904065499415,0.02042086183824043,-0.09598368274356887, ,0.0014332470350335302, ,0.02461341510626765,-0.006624908146022305,-0.035488189256287994,-0.003418457494271581,-0.010234639253993068,0.026943953084226438, ,0.043693491366870556, ,0.010787835921110525, ,0.0009927376531588417, ,0.2252335042767578,-0.20810448276172785,0.10655633429000001,1.6901009444852664,0.5531045510505029,-1.3013770377665073, ,0.18214384176289977,0.1462202489344696,0.03783565681710214,-0.06943365642402963,0.1902717162804527,-0.14944556170962317, ,1.3447151184082031
0.016914823407709733,0.020948939184142035,-0.0950761757668623, ,0.01795619506098422,0.020411635174881815,-0.09608629866723563, ,0.001547093659889206, ,0.02461341510626765,-0.006624908146022305,-0.035488189256287994,-0.003418457494271581,-0.010234639253993068,0.026943953084226438, ,0.043693491366870556, ,0.010787835921110525, ,0.0009972446125631538, ,0.2252335042767578,-0.20810448276172785,0.10655633429000001,1.6901009444852664,0.5531045510505029,-1.3013770377665073, ,0.18214384176289977,0.1462202489344696,0.03783565681710214,-0.06943365642402963,0.1902717162804527,-0.14944556170962317, ,1.3474531173706055
0.016914823407709733,0.020948939184142035,-0.0950761757668623, ,0.01802193549563452,0.020402363983851306,-0.09618850895478587, ,0.001661844380728306, ,0.02461341510626765,-0.006624908146022305,-0.035488189256287994,-0.003418457494271581,-0.010234639253993068,0.026943953084226438, ,0.043693491366870556, ,0.010787835921110525, ,0.0010026042881128728, ,0.2252335042767578,-0.20810448276172785,0.10655633429000001,1.6901009444852664,0.5531045510505029,-1.3013770377665073, ,0.18214384176289977,0.1462202489344696,0.03783565681710214,-0.06943365642402963,0.1902717162804527,-0.14944556170962317, ,1.3501830101013184
0.017156782228717964,0.020893336590745618,-0.09544347357519337, ,0.018087628257562327,0.02039305059488581,-0.09629031865336407, ,0.0013542182222561871, ,0.024548749779763717,-0.0048487679832755586,-0.0376129448466758,0.016454713390631783,0.005250121213427948,0.015273512213860415, ,0.04517615838851465, ,0.01726980267105203, ,0.0010054171995860194, ,0.2269865646392068,-0.20671439084436746,0.10694911016000001,1.6896815645982974,0.5551540985469845,-1.3030483063219536, ,0.17541024317647097,0.1327229951866724,0.04032610511392406,-0.05441085170774973,0.19589512535700843,-0.1528267059195742, ,1.3529510498046875
0.017156782228717964,0.020893336590745618,-0.09544347357519337, ,0.018153273748412888,0.02038369732639433,-0.09639173278342718, ,0.001466943439466102, ,0.024548749779763717,-0.0048487679832755586,-0.0376129448466758,0.016454713390631783,0.005250121213427948,0.015273512213860415, ,0.04517615838851465, ,0.01726980267105203, ,0.0010090801062517343, ,0.2269865646392068,-0.20671439084436746,0.10694911016000001,1.6896815645982974,0.5551540985469845,-1.3030483063219536, ,0.17541024317647097,0.1327229951866724,0.04032610511392406,-0.05441085170774973,0.19589512535700843,-0.1528267059195742, ,1.3557031154632568
0.017156782228717964,0.020893336590745618,-0.09544347357519337, ,0.01821887236781075,0.020374306485477407,-0.09649275633879355, ,0.0015806397539355076, ,0.024548749779763717,-0.0048487679832755586,-0.0376129448466758,0.016454713390631783,0.005250121213427948,0.015273512213860415, ,0.04517615838851465, ,0.01726980267105203, ,0.0010135805759185358, ,0.2269865646392068,-0.20671439084436746,0.10694911016000001,1.6896815645982974,0.5551540985469845,-1.3030483063219536, ,0.17541024317647097,0.1327229951866724,0.04032610511392406,-0.05441085170774973,0.19589512535700843,-0.1528267059195742, ,1.358515977859497
0.017156782228717964,0.020893336590745618,-0.09544347357519337, ,0.018284424513363186,0.020364880367945856,-0.09659339428669467, ,0.001695040042086129, ,0.024548749779763717,-0.0048487679832755586,-0.0376129448466758,0.016454713390631783,0.005250121213427948,0.015273512213860415, ,0.04517615838851465, ,0.01726980267105203, ,0.00101890447799797, ,0.2269865646392068,-0.20671439084436746,0.10694911016000001,1.6896815645982974,0.5551540985469845,-1.3030483063219536, ,0.17541024317647097,0.1327229951866724,0.04032610511392406,-0.05441085170774973,0.19589512535700843,-0.1528267059195742, ,1.361677885055542
0.017156782228717964,0.020893336590745618,-0.09544347357519337, ,0.01834993058066408,0.02035542125834069,-0.09669365156782508, ,0.0018099450013325565, ,0.024548749779763717,-0.0048487679832755586,-0.0376129448466758,0.016454713390631783,0.005250121213427948,0.015273512213860415, ,0.04517615838851465, ,0.01726980267105203, ,0.001025036575078083, ,0.2269865646392068,-0.20671439084436746,0.10694911016000001,1.6896815645982974,0.5551540985469845,-1.3030483063219536, ,0.17541024317647097,0.1327229951866724,0.04032610511392406,-0.05441085170774973,0.19589512535700843,-0.1528267059195742, ,1.3647549152374268
0.017421810561998423,0.020844116479852612,-0.0958274299919105, ,0.018415390963297695,0.020345931429952203,-0.09679353309639363, ,0.001472666142166048, ,0.026313973610605494,-0.004637315557349716,-0.03691802944809377,0.004466263600459896,-0.028252920770129492,-0.04353010080042213, ,0.04557269797903564, ,0.028602560433799194, ,0.001028479879440298, ,0.22889407965914024,-0.2053474671256297,0.10736262667000002,1.6894718746548125,0.5569303730439352,-1.3044967390700068, ,0.19017423158010174,0.13161850424198443,0.03992183338345865,0.008585879514500981,0.16354397853976396,-0.12661803849973544, ,1.368920087814331
0.017653877263946075,0.02080916264534586,-0.0961644990230927, ,0.018480806052842327,0.02033641314483906,-0.09689304376017288, ,0.0015858016361203404, ,0.026740769598169522,-0.0035887943866120776,-0.04054681509805195,-0.016376974165088,-0.050270486407062755,-0.02558578755745796, ,0.04847008218400949, ,0.05286981646625145, ,0.0010327342439951075, ,0.22889407965914024,-0.2053474671256297,0.10736262667000002,1.6894718746548125,0.5569303730439352,-1.3044967390700068, ,0.19017423158010174,0.13161850424198443,0.03992183338345865,0.008585879514500981,0.16354397853976396,-0.12661803849973544, ,1.372262954711914
0.017653877263946075,0.02080916264534586,-0.0961644990230927, ,0.018546176238873915,0.02032686865384772,-0.09699218842055053, ,0.001309150370872879, ,0.026740769598169522,-0.0035887943866120776,-0.04054681509805195,-0.016376974165088,-0.050270486407062755,-0.02558578755745796, ,0.04870310481321883, ,0.05286981646625145, ,0.0010348283055623634, ,0.23053129902847583,-0.20421994812599292,0.10772688416000001,1.6896815645982974,0.5582967380415896,-1.305610918106971, ,0.18249411838167456,0.12686756892843687,0.043640579506849325,-0.008349399790376612,0.13676224054550082,-0.10550887327553843, ,1.3750519752502441
0.017653877263946075,0.02080916264534586,-0.0961644990230927, ,0.018611501908969902,0.020317300196631676,-0.09709097191257929, ,0.001420325893647567, ,0.026740769598169522,-0.0035887943866120776,-0.04054681509805195,-0.016376974165088,-0.050270486407062755,-0.02558578755745796, ,0.04870310481321883, ,0.05286981646625145, ,0.001037726783668267, ,0.23053129902847583,-0.20421994812599292,0.10772688416000001,1.6896815645982974,0.5582967380415896,-1.305610918106971, ,0.18249411838167456,0.12686756892843687,0.043640579506849325,-0.008349399790376612,0.13676224054550082,-0.10550887327553843, ,1.37785005569458
0.017653877263946075,0.02080916264534586,-0.0961644990230927, ,0.018676783448712944,0.02030771000167075,-0.09718939904502787, ,0.001532387637527066, ,0.026740769598169522,-0.0035887943866120776,-0.04054681509805195,-0.016376974165088,-0.050270486407062755,-0.02558578755745796, ,0.04870310481321883, ,0.05286981646625145, ,0.001041418282577661, ,0.23053129902847583,-0.20421994812599292,0.10772688416000001,1.6896815645982974,0.5582967380415896,-1.305610918106971, ,0.18249411838167456,0.12686756892843687,0.043640579506849325,-0.008349399790376612,0.13676224054550082,-0.10550887327553843, ,1.3805930614471436
0.017959629193090132,0.020761671741232585,-0.09661453685919787, ,0.018742021241694586,0.020298100286290754,-0.09728747460043148, ,0.0011313182642974338, ,0.02619874820403964,-0.004867885888103599,-0.0369071032858444,-0.09493788078390464,-0.13644941191386917,-0.011540157533854171, ,0.04552147837483153, ,0.1662274789003892, ,0.001042084208368178, ,0.23259326870589378,-0.2027603516127645,0.10820910404000002,1.6892621847113283,0.5592531935399478,-1.306227485952565, ,0.17671683716661224,0.12946376747403926,0.03942775128712872,-0.0206447235914324,0.045364891233137375,-0.03452576564055757, ,1.383362054824829
0.017959629193090132,0.020761671741232585,-0.09661453685919787, ,0.01880721566951905,0.02028847325668177,-0.0973852033351415, ,0.0012394540967497574, ,0.02619874820403964,-0.004867885888103599,-0.0369071032858444,-0.09493788078390464,-0.13644941191386917,-0.011540157533854171, ,0.04552147837483153, ,0.1662274789003892, ,0.0010435354575474543, ,0.23259326870589378,-0.2027603516127645,0.10820910404000002,1.6892621847113283,0.5592531935399478,-1.306227485952565, ,0.17671683716661224,0.12946376747403926,0.03942775128712872,-0.0206447235914324,0.045364891233137375,-0.03452576564055757, ,1.3860890865325928
0.017959629193090132,0.020761671741232585,-0.09661453685919787, ,0.01887236711180683,0.020278831107918747,-0.09748258997937741, ,0.0013489780594567245, ,0.02619874820403964,-0.004867885888103599,-0.0369071032858444,-0.09493788078390464,-0.13644941191386917,-0.011540157533854171, ,0.04552147837483153, ,0.1662274789003892, ,0.0010457649655905875, ,0.23259326870589378,-0.2027603516127645,0.10820910404000002,1.6892621847113283,0.5592531935399478,-1.306227485952565, ,0.17671683716661224,0.12946376747403926,0.03942775128712872,-0.0206447235914324,0.045364891233137375,-0.03452576564055757, ,1.3888521194458008
0.01820677404851724,0.020706939489010225,-0.096961428484992, ,0.01893747594619844,0.020269176023979676,-0.09757963923727599, ,0.0014595063906160063, ,0.02392611076537828,-0.005040187510724847,-0.03495344215814069,0.014682794803968408,-0.003507996172881515,0.011765358222886838, ,0.043971820707180455, ,0.015094314390874572, ,0.0010487630918588878, ,0.2343308836025943,-0.20146293248989477,0.10858243556000001,1.6888428048243591,0.5606195585376021,-1.3072599862493888, ,0.16795918859906334,0.1251938542987741,0.03774599886255925,-0.0515895239570203,0.17834836559900305,-0.14411157149812398, ,1.3925049304962158
0.01820677404851724,0.020706939489010225,-0.096961428484992, ,0.019002542548358276,0.020259510177765467,-0.09767635578694248, ,0.0011595523019572714, ,0.02392611076537828,-0.005040187510724847,-0.03495344215814069,0.014682794803968408,-0.003507996172881515,0.011765358222886838, ,0.04265683280792075, ,0.015094314390874572, ,0.0010495601365358544, ,0.2343308836025943,-0.20146293248989477,0.10858243556000001,1.6888428048243591,0.5606195585376021,-1.3072599862493888, ,0.16795918859906334,0.1251938542987741,0.03774599886255925,-0.0515895239570203,0.17834836559900305,-0.14411157149812398, ,1.3952770233154297
0.01820677404851724,0.020706939489010225,-0.096961428484992, ,0.01906756729197818,0.020249835731119076,-0.097772744280501, ,0.0012681254565336325, ,0.02392611076537828,-0.005040187510724847,-0.03495344215814069,0.014682794803968408,-0.003507996172881515,0.011765358222886838, ,0.04265683280792075, ,0.015094314390874572, ,0.0010511213173929814, ,0.2343308836025943,-0.20146293248989477,0.10858243556000001,1.6888428048243591,0.5606195585376021,-1.3072599862493888, ,0.16795918859906334,0.1251938542987741,0.03774599886255925,-0.0515895239570203,0.17834836559900305,-0.14411157149812398, ,1.397986888885498
0.01820677404851724,0.020706939489010225,-0.096961428484992, ,0.019132550548781175,0.020240154834844714,-0.09786880934414498, ,0.001377784477109015, ,0.02392611076537828,-0.005040187510724847,-0.03495344215814069,0.014682794803968408,-0.003507996172881515,0.011765358222886838, ,0.04265683280792075, ,0.015094314390874572, ,0.0010534380773909674, ,0.2343308836025943,-0.20146293248989477,0.10858243556000001,1.6888428048243591,0.5606195585376021,-1.3072599862493888, ,0.16795918859906334,0.1251938542987741,0.03774599886255925,-0.0515895239570203,0.17834836559900305,-0.14411157149812398, ,1.400726079940796
0.018427663876147072,0.02066207842923619,-0.09728184136565228, ,0.0191974926885252,0.020230469628727234,-0.09796455557818749, ,0.0011158052038962136, ,0.022891370128248097,-0.004715841222385902,-0.032804667908961006,0.044855233275889465,0.02677388303319073,0.010096297168976687, ,0.040279029548890816, ,0.05223786724329275, ,0.0010538772825072016, ,0.23589087564318764,-0.20032769075738377,0.10892984128000001,1.68842342493739,0.562395833034553,-1.3087084189974423, ,0.16361541648012204,0.1170122583951551,0.03571482403587444,-0.049686572965293774,0.2042878845730483,-0.1654618329615892, ,1.4037740230560303
0.018427663876147072,0.02066207842923619,-0.09728184136565228, ,0.01926239407900701,0.020220782241551535,-0.09805998755711257, ,0.0012235310916015791, ,0.022891370128248097,-0.004715841222385902,-0.032804667908961006,0.044855233275889465,0.02677388303319073,0.010096297168976687, ,0.040279029548890816, ,0.05223786724329275, ,0.0010550636727805888, ,0.23589087564318764,-0.20032769075738377,0.10892984128000001,1.68842342493739,0.562395833034553,-1.3087084189974423, ,0.16361541648012204,0.1170122583951551,0.03571482403587444,-0.049686572965293774,0.2042878845730483,-0.1654618329615892, ,1.406954050064087
0.018427663876147072,0.02066207842923619,-0.09728184136565228, ,0.019327255086065507,0.02021109479112149,-0.09815510982962425, ,0.0013323844779108034, ,0.022891370128248097,-0.004715841222385902,-0.032804667908961006,0.044855233275889465,0.02677388303319073,0.010096297168976687, ,0.040279029548890816, ,0.05223786724329275, ,0.0010569895117051042, ,0.23589087564318764,-0.20032769075738377,0.10892984128000001,1.68842342493739,0.562395833034553,-1.3087084189974423, ,0.16361541648012204,0.1170122583951551,0.03571482403587444,-0.049686572965293774,0.2042878845730483,-0.1654618329615892, ,1.4103479385375977
0.018427663876147072,0.02066207842923619,-0.09728184136565228, ,0.019392076073585767,0.020201409384279632,-0.0982499269186986, ,0.001442045940172062, ,0.022891370128248097,-0.004715841222385902,-0.032804667908961006,0.044855233275889465,0.02677388303319073,0.010096297168976687, ,0.040279029548890816, ,0.05223786724329275, ,0.0010596450732807384, ,0.23589087564318764,-0.20032769075738377,0.10892984128000001,1.68842342493739,0.562395833034553,-1.3087084189974423, ,0.16361541648012204,0.1170122583951551,0.03571482403587444,-0.049686572965293774,0.2042878845730483,-0.1654618329615892, ,1.4133310317993164
0.018682387228515465,0.02060999331406675,-0.09763267166642521, ,0.01945685740350273,0.02019172811692613,-0.09834444332163333, ,0.0011319755811154207, ,0.023149683089547082,-0.003980459270184861,-0.03227921322793567,0.018621433450710247,-0.0032692280201798065,-0.055307166672844424, ,0.039921165936913715, ,0.01890530590929161, ,0.0010601404877179622, ,0.2377288860672531,-0.1990457171002625,0.10931354312000001,1.6882137349939055,0.5645820170307999,-1.3103277479763038, ,0.1619401733079706,0.11138138680571688,0.03524073345132744,0.025803487352925626,0.15669268124300872,-0.11692298131962385, ,1.4167299270629883
0.018682387228515465,0.02060999331406675,-0.09763267166642521, ,0.019521599435804705,0.020182053074038003,-0.09843866351009811, ,0.0012397712813121545, ,0.023149683089547082,-0.003980459270184861,-0.03227921322793567,0.018621433450710247,-0.0032692280201798065,-0.055307166672844424, ,0.039921165936913715, ,0.01890530590929161, ,0.0010613624659056777, ,0.2377288860672531,-0.1990457171002625,0.10931354312000001,1.6882137349939055,0.5645820170307999,-1.3103277479763038, ,0.1619401733079706,0.11138138680571688,0.03524073345132744,0.025803487352925626,0.15669268124300872,-0.11692298131962385, ,1.4194951057434082
0.018682387228515465,0.02060999331406675,-0.09763267166642521, ,0.019586302528537335,0.02017238632968891,-0.09853259193018607, ,0.0013484877543075088, ,0.023149683089547082,-0.003980459270184861,-0.03227921322793567,0.018621433450710247,-0.0032692280201798065,-0.055307166672844424, ,0.039921165936913715, ,0.01890530590929161, ,0.0010633025016381227, ,0.2377288860672531,-0.1990457171002625,0.10931354312000001,1.6882137349939055,0.5645820170307999,-1.3103277479763038, ,0.1619401733079706,0.11138138680571688,0.03524073345132744,0.025803487352925626,0.15669268124300872,-0.11692298131962385, ,1.422286033630371
0.018947794602264086,0.020566381661395076,-0.09800987029296819, ,0.01965096703780716,0.020162729947067984,-0.0986262330024633, ,0.0010184739418575865, ,0.022863805644337206,-0.003715297551106042,-0.03300731614115129,-0.06806252373076949,-0.05882355053100771,-0.010863328397719557, ,0.040324185835267486, ,0.0899593133304246, ,0.0010630016388208036, ,0.23952828282694738,-0.19778691164176393,0.10972317076000002,1.68842342493739,0.5659483820284543,-1.3109518545724246, ,0.15159255840011304,0.10734948140098505,0.03571482403587444,-0.004777844304415647,0.09595965623092068,-0.03267696274960552, ,1.4253549575805664
0.018947794602264086,0.020566381661395076,-0.09800987029296819, ,0.01971559331778548,0.020153085978499245,-0.09871959112201983, ,0.0011242917078082466, ,0.022863805644337206,-0.003715297551106042,-0.03300731614115129,-0.06806252373076949,-0.05882355053100771,-0.010863328397719557, ,0.040324185835267486, ,0.0899593133304246, ,0.00106341023928072, ,0.23952828282694738,-0.19778691164176393,0.10972317076000002,1.68842342493739,0.5659483820284543,-1.3109518545724246, ,0.15159255840011304,0.10734948140098505,0.03571482403587444,-0.004777844304415647,0.09595965623092068,-0.03267696274960552, ,1.4282379150390625
0.018947794602264086,0.020566381661395076,-0.09800987029296819, ,0.01978018172071187,0.020143456465460955,-0.09881267065852059, ,0.001231349854121397, ,0.022863805644337206,-0.003715297551106042,-0.03300731614115129,-0.06806252373076949,-0.05882355053100771,-0.010863328397719557, ,0.040324185835267486, ,0.0899593133304246, ,0.0010645224221604594, ,0.23952828282694738,-0.19778691164176393,0.10972317076000002,1.68842342493739,0.5659483820284543,-1.3109518545724246, ,0.15159255840011304,0.10734948140098505,0.03571482403587444,-0.004777844304415647,0.09595965623092068,-0.03267696274960552, ,1.430941104888916
0.018947794602264086,0.020566381661395076,-0.09800987029296819, ,0.01984473259689797,0.020133843438604273,-0.09890547595625418, ,0.0013392895820183229, ,0.022863805644337206,-0.003715297551106042,-0.03300731614115129,-0.06806252373076949,-0.05882355053100771,-0.010863328397719557, ,0.040324185835267486, ,0.0899593133304246, ,0.001066330100843735, ,0.23952828282694738,-0.19778691164176393,0.10972317076000002,1.68842342493739,0.5659483820284543,-1.3109518545724246, ,0.15159255840011304,0.10734948140098505,0.03571482403587444,-0.004777844304415647,0.09595965623092068,-0.03267696274960552, ,1.4336609840393066
0.01918009770186726,0.02052407757855957,-0.09834352867295966, ,0.01990924629473148,0.020124248917774326,-0.09899801133418594, ,0.0010582382445872148, ,0.020915860089848207,-0.004028661973598292,-0.030081574796753954,-0.046069513308215425,0.0026650417479022904,0.017954637609537104, ,0.03685925206577481, ,0.046146266065570034, ,0.001066277212894346, ,0.24108827486754075,-0.1966748381078756,0.11008483567,1.6880040450504212,0.5671781105263433,-1.3113828645247088, ,0.14313264186798005,0.10281358782066174,0.03277533234567902,-0.027783485445086308,0.1548170322338328,-0.052838218176002205, ,1.43641996383667
0.01918009770186726,0.02052407757855957,-0.09834352867295966, ,0.019973723160679302,0.02011467491202695,-0.09909028108600612, ,0.0011640837936460412, ,0.020915860089848207,-0.004028661973598292,-0.030081574796753954,-0.046069513308215425,0.0026650417479022904,0.017954637609537104, ,0.03685925206577481, ,0.046146266065570034, ,0.0010669123205615649, ,0.24108827486754075,-0.1966748381078756,0.11008483567,1.6880040450504212,0.5671781105263433,-1.3113828645247088, ,0.14313264186798005,0.10281358782066174,0.03277533234567902,-0.027783485445086308,0.1548170322338328,-0.052838218176002205, ,1.4391779899597168
0.01918009770186726,0.02052407757855957,-0.09834352867295966, ,0.02003816353929172,0.0201051234196499,-0.09918228948018147, ,0.0012709521078128926, ,0.020915860089848207,-0.004028661973598292,-0.030081574796753954,-0.046069513308215425,0.0026650417479022904,0.017954637609537104, ,0.03685925206577481, ,0.046146266065570034, ,0.001068228706285767, ,0.24108827486754075,-0.1966748381078756,0.11008483567,1.6880040450504212,0.5671781105263433,-1.3113828645247088, ,0.14313264186798005,0.10281358782066174,0.03277533234567902,-0.027783485445086308,0.1548170322338328,-0.052838218176002205, ,1.4419970512390137
0.01938305620559338,0.020481644715153013,-0.09863829717429587, ,0.02010256777320609,0.020095596428181546,-0.09927404076000601, ,0.001034843023155539, ,0.01997134809451808,-0.004328939201802141,-0.029150233531657726,0.05521828833636221,0.06142640228559236,0.050974726211896686, ,0.03559958671495349, ,0.08259685960483143, ,0.0010680146954964705, ,0.24250925771639806,-0.19565543736847796,0.11040761188,1.6873749752199676,0.5692276580228249,-1.3127274181195927, ,0.1407966491965442,0.10073985303447004,0.031985565301204825,-0.08679808999096462,0.22338867870113524,-0.16806092321386376, ,1.4449610710144043
0.01938305620559338,0.020481644715153013,-0.09863829717429587, ,0.020166936203150257,0.020086095914430006,-0.099365539143651, ,0.0011400910429938066, ,0.01997134809451808,-0.004328939201802141,-0.029150233531657726,0.05521828833636221,0.06142640228559236,0.050974726211896686, ,0.03559958671495349, ,0.08259685960483143, ,0.0010684737805123773, ,0.24250925771639806,-0.19565543736847796,0.11040761188,1.6873749752199676,0.5692276580228249,-1.3127274181195927, ,0.1407966491965442,0.10073985303447004,0.031985565301204825,-0.08679808999096462,0.22338867870113524,-0.16806092321386376, ,1.4477949142456055
0.01938305620559338,0.020481644715153013,-0.09863829717429587, ,0.020231269167946517,0.020076623844492374,-0.09945678882421512, ,0.0012463690128377402, ,0.01997134809451808,-0.004328939201802141,-0.029150233531657726,0.05521828833636221,0.06142640228559236,0.050974726211896686, ,0.03559958671495349, ,0.08259685960483143, ,0.0010695996997043098, ,0.24250925771639806,-0.19565543736847796,0.11040761188,1.6873749752199676,0.5692276580228249,-1.3127274181195927, ,0.1407966491965442,0.10073985303447004,0.031985565301204825,-0.08679808999096462,0.22338867870113524,-0.16806092321386376, ,1.4506421089172363
0.01938305620559338,0.020481644715153013,-0.09863829717429587, ,0.020295567004515395,0.020067182173774845,-0.09954779396977623, ,0.0013533807953949946, ,0.01997134809451808,-0.004328939201802141,-0.029150233531657726,0.05521828833636221,0.06142640228559236,0.050974726211896686, ,0.03559958671495349, ,0.08259685960483143, ,0.00107138448646966, ,0.24250925771639806,-0.19565543736847796,0.11040761188,1.6873749752199676,0.5692276580228249,-1.3127274181195927, ,0.1407966491965442,0.10073985303447004,0.031985565301204825,-0.08679808999096462,0.22338867870113524,-0.16806092321386376, ,1.4544329643249512
0.01938305620559338,0.020481644715153013,-0.09863829717429587, ,0.02035983004787904,0.0200577728470103,-0.09963855872344009, ,0.001460916721196893, ,0.01997134809451808,-0.004328939201802141,-0.029150233531657726,0.05521828833636221,0.06142640228559236,0.050974726211896686, ,0.03559958671495349, ,0.08259685960483143, ,0.001073819062936705, ,0.24250925771639806,-0.19565543736847796,0.11040761188,1.6873749752199676,0.5692276580228249,-1.3127274181195927, ,0.1407966491965442,0.10073985303447004,0.031985565301204825,-0.08679808999096462,0.22338867870113524,-0.16806092321386376, ,1.457279920578003
0.019590915585611275,0.02044488729589652,-0.098941340767846, ,0.02042405863116532,0.020048397798279625,-0.09972908720339278, ,0.0015688249834204602, ,0.020913722269319805,-0.003345644254263456,-0.03063875559391153,0.013528667267331462,0.02060384636795407,0.02176863325174732, ,0.037246616745387415, ,0.0246478462282463, ,0.0010768936338713868, ,0.24382984503789046,-0.19473643215644523,0.11071353632000001,1.687165285276483,0.571140569019541,-1.3138788750706396, ,0.14100585669906504,0.09575877049290694,0.033393734842767295,-0.048739638570246366,0.18052804988803664,-0.11665795614986177, ,1.4606521129608154
0.019590915585611275,0.02044488729589652,-0.098941340767846, ,0.020488253085611165,0.02003905895102948,-0.09981938350294965, ,0.0013194204330204534, ,0.020913722269319805,-0.003345644254263456,-0.03063875559391153,0.013528667267331462,0.02060384636795407,0.02176863325174732, ,0.037246616745387415, ,0.0246478462282463, ,0.0010783907128784798, ,0.24382984503789046,-0.19473643215644523,0.11071353632000001,1.687165285276483,0.571140569019541,-1.3138788750706396, ,0.14100585669906504,0.09575877049290694,0.033393734842767295,-0.048739638570246366,0.18052804988803664,-0.11665795614986177, ,1.4637000560760498
0.019802055694710677,0.02041813356661081,-0.09925129476948556, ,0.020552413740566596,0.02002975821809191,-0.09990945169060658, ,0.0010710009995968208, ,0.021542965756900418,-0.0020580492561920014,-0.03223390796878935,-0.026227389800633032,-0.032053019608287645,-0.01757427234268289, ,0.038824731335635514, ,0.04141542276640848, ,0.001078345377214175, ,0.24533577794836423,-0.19375564508141874,0.11108038639000001,1.6869555953329984,0.5726435705169609,-1.3148594357908787, ,0.13733276636537015,0.08746261894789933,0.03524073345132744,0.0013332875225952987,0.10726471058085063,-0.054288166734239654, ,1.4665451049804688
