NicholasDascanio/dvrk_moveit_final/test/execution/third_experiment_notsharpbends/thirdexp_400vel5.0/thirdexp_400vel5.0_26.csv
Current Position (x),Current Position (y),Current Position (z), ,Planned Position (x),Planned Position (y),Planned Position (z), ,Position Error,,Cartesian linear Velocity(x),Cartesian linear Velocity(y),Cartesian linear Velocity(z),Cartesian Angular Velocity(x),Cartesian Angular Velocity(y),Cartesian Angular Velocity(z), ,Total Linear Velocity, ,Total Angular Velocity, ,MSE, ,Joint 1 Position,Joint 2 Position,Joint 3 Position,Joint 4 Position,Joint 5 Position,Joint 6 Position, ,Joint 1 Velocity,Joint 2 Velocity,Joint 3 Velocity,Joint 4 Velocity,Joint 5 Velocity,Joint 6 Velocity, ,Time Stamp
0.008533267173163935,0.020960662563151357,-0.07772253468573596, ,0.008746317951237554,0.020891970223156683,-0.077969984113957, ,0.00033367722598139234, ,0.00026681055710956684,0.00014168536252974492,-0.0006332700778061594,0.10476892253371878,-0.00133066267388615,-0.0365553858350453, ,0.000701636377894506, ,0.10477737251920348, ,2.7806435498449363e-05, ,0.16461005121409542,-0.2553212715547365,0.08844197783,1.7005854416594925,0.499133133643154,-1.2427464713212601, ,0.0006332045607532985,0.00025877792891713583,0.0005416696394988261,-0.0019846843116306146,0.0,-0.10624876766252012, ,0.027692079544067383
0.00856472555824278,0.020974257954457596,-0.07782572781198796, ,0.008850428996885887,0.0208834258850323,-0.07819890074414255, ,0.0004786804330463428, ,0.0018170056781832316,0.0013025943075426554,-0.007303924778510987,0.26726975193134184,-0.00469474763878956,-0.10027185280181038, ,0.007638427765891316, ,0.2673109816899531, ,3.692534813762432e-05, ,0.16477222860445415,-0.255166816897252,0.08854827361,1.700375751716008,0.49885986064362303,-1.2495480071659557, ,0.007610669079861577,0.007661622554329489,0.007552779288762448,-0.001160299971917701,0.0,-0.29268807010465137, ,0.05464315414428711
0.008658710303721687,0.021021192619945502,-0.0781189912325621, ,0.008954564894202847,0.02087463354031858,-0.07842702239742622, ,0.0004515447940763059, ,0.0037552454845158727,0.0015257485606549484,-0.010921079851627125,0.349508604491939,-0.09708035064779469,-0.16011667806047644, ,0.011649024098392682, ,0.36274075996563365, ,3.949695165950129e-05, ,0.16511975158379424,-0.2548115711850377,0.08884382773,1.700375751716008,0.496673676647376,-1.2561782309412908, ,0.015325733455825382,0.015766230529734304,0.010947636783505157,-0.0011309443192233958,-0.08910408073751892,-0.3965522014959944, ,0.08209800720214844
0.00869775259769729,0.02103115381321336,-0.0782126897790104, ,0.00905872142667431,0.020865597708348796,-0.07865434913786155, ,0.0005939447016446731, ,0.004361910832707756,0.0009283424107503677,-0.009835995838903674,0.016860772981252728,-0.16287322390707992,-0.05979097314750374, ,0.010799763881077284, ,0.16374361862175496, ,4.423445606544558e-05, ,0.16528965170702717,-0.25464167106180474,0.08893586432,1.700375751716008,0.49544394814948706,-1.2582792619333643, ,0.01899458397887726,0.019002190940823144,0.009578359302465424,-0.0011160193873268737,-0.15016308228848568,-0.05181054829926057, ,0.11144399642944336
0.008825462076063896,0.02102616010507754,-0.07852883509503843, ,0.009162894406250678,0.02085632288676602,-0.07888088103890864, ,0.00051637351285145, ,0.0019472214009367862,-0.001257656370086081,-0.0052026709534398335,0.050508557124814654,0.12179737771017433,0.011466228006749474, ,0.005695713807702321, ,0.13185490342074396, ,4.565808976154162e-05, ,0.16632449791217327,-0.25356821119228756,0.08925604795000001,1.7001660617725234,0.4964004036478451,-1.25481189277193, ,0.02917213082031072,0.033238858689481884,0.005502180145077721,-0.0003419351834427588,0.15661259061049812,-0.07425174164586223, ,0.13827800750732422
0.008895448110483168,0.02101414442512112,-0.07868042958978647, ,0.00926707967328341,0.020846813551562718,-0.07910661818341398, ,0.0005897002264315047, ,0.004160787845985981,-0.0003576151631662095,-0.008868916883393776,-0.05118982363122818,-0.02232022210015774,0.007399636757632091, ,0.009802945005904002, ,0.055844339938120394, ,4.8588867115273264e-05, ,0.16695003927498545,-0.2529426698294754,0.08940901017000001,1.699956371829039,0.49708358614667236,-1.2545521948890066, ,0.034633920276814154,0.03270053120553783,0.008943745940482875,-0.0022068220672944823,0.013613165251229534,0.020995928774197453, ,0.16344809532165527
0.008984303607099823,0.021006560823238214,-0.07888094805322775, ,0.009371273096461482,0.020837074157119894,-0.07933156066358726, ,0.0006176753518667744, ,0.004627151050955337,-0.00021032199385609488,-0.010371439788675227,0.04369079804848693,-0.030430568139211328,-0.03049862551581836, ,0.01135876425847338, ,0.053243827730404425, ,5.116566065569205e-05, ,0.16767597616516255,-0.25220901020642406,0.08961123141,1.699956371829039,0.4974934956459687,-1.256193308442345, ,0.03631723748889046,0.03543575114207273,0.010451976062992127,-0.0021442855660466806,0.005863928589025302,-0.08338666473453589, ,0.18804407119750977
0.00915927078967918,0.02098847671968946,-0.07922896282606776, ,0.009475470572747799,0.020827109136246774,-0.07955570858098089, ,0.0004824775519674755, ,0.004860350665698872,-0.0008152864147369384,-0.008797005560099179,-0.049968109386205814,-0.04175869154062145,-0.0014875675131778912, ,0.010083402568380872, ,0.06511989114036612, ,5.144397212488505e-05, ,0.16912784994551677,-0.2508961456178059,0.08996122971,1.6997466818855542,0.4976301321457341,-1.257448228708009, ,0.04156677247414401,0.037642578960123275,0.008795588912203204,-0.00027661877167405925,0.0,0.013613316117505533, ,0.21245312690734863
0.009203852316262175,0.020982081811024393,-0.0793189314507491, ,0.009579668027315885,0.020816922900220018,-0.07977906204646795, ,0.0006166320455583536, ,0.004400232196487799,-0.0005550994970167902,-0.008662582299643388,0.009532623312578198,0.009505032419955588,0.0005337205201921891, ,0.009731932538437115, ,0.013461667792085406, ,5.318983912982128e-05, ,0.1698306186370712,-0.25030921791936483,0.09011289564000001,1.69953699194207,0.4984499511443268,-1.2581167361301877, ,0.04143971247094794,0.034184777218469305,0.00889877738547486,-0.006471628935613745,0.054288659989416656,-0.04213336804226638, ,0.23848199844360352
0.0093692313859008,0.020958437894800164,-0.07963180092666149, ,0.009683861413486311,0.020806519838823093,-0.08000162118022058, ,0.0005087614076684938, ,0.004605064618132228,-0.00046055556726483994,-0.009344123850913096,-0.023932608757483455,-0.02817021144420894,-0.00019239943950360126, ,0.010427434109545596, ,0.03696390812015547, ,5.349966238239965e-05, ,0.17098902856820486,-0.2492666489813445,0.09036956106,1.69953699194207,0.49885986064362303,-1.2583693111011365, ,0.03803484631602035,0.0344954349540061,0.009442093372851216,-0.006471628935613745,0.011827297441863735,-0.010748714956446439, ,0.2630321979522705
0.009500049714577477,0.020952079447120242,-0.07990395066413392, ,0.009788046712663286,0.020795904320386204,-0.08022338611168804, ,0.00045757179357007433, ,0.00454944401211091,-0.00028303422032559147,-0.008958389083776032,-0.03587971085522455,-0.04373136847970342,0.0008467105258496499, ,0.010051382201743436, ,0.056566652565496554, ,5.3273953251536236e-05, ,0.1721397157664643,-0.24833992103643757,0.09064955970000001,1.6993273019985855,0.500089589141512,-1.2593720722344042, ,0.036123693018070335,0.030850761234873465,0.009045321703577514,-0.0066730666980890545,-0.00616991461403627,0.004093705181810452, ,0.2923471927642822
0.009566529194667196,0.020944452980438868,-0.080028687598729, ,0.009892219934271227,0.02078508069182497,-0.08044435697957547, ,0.0005515931638582392, ,0.003960385519295737,-0.0004660752390200797,-0.00732539175717615,-0.025500937887500588,-0.03198385816412893,0.0006367878371045072, ,0.008340458259950664, ,0.040905561909250265, ,5.437396674141298e-05, ,0.17268802980053427,-0.24786111159823565,0.09077529983,1.6993273019985855,0.500089589141512,-1.2593720722344042, ,0.03314598028587872,0.028026267441958293,0.00739842615884812,-0.006039421624584399,0.002722454273931669,-0.0030622683113857166, ,0.31549501419067383
0.009663205517479664,0.020938051811119615,-0.0802330456230334, ,0.00999637711569134,0.020774053278680517,-0.08066453393182119, ,0.0005692811195864824, ,0.0043148123005275355,0.00011486641790933863,-0.009697960645499574,-0.010826366643069175,-0.015521115204238984,0.005286256061443727, ,0.010615142022809, ,0.018923930513776735, ,5.547469941071772e-05, ,0.17352980768382473,-0.24716606563955543,0.09098529881,1.6989079221116163,0.5010460446398701,-1.2602336763004196, ,0.034147873896535,0.028150976433838855,0.009949288894440977,-0.01091334336738464,0.02198054103986205,-0.017923657360798567, ,0.33785104751586914
0.009787991260197781,0.02094338570298024,-0.08053744061110896, ,0.010100514322198157,0.020762826385158886,-0.08088391712557598, ,0.000500318205356771, ,0.003931597044737911,0.0003690630327501766,-0.010873686403430994,0.033373153125432674,0.038127585838241454,0.002396617470616834, ,0.011568522759820923, ,0.05067030688057746, ,5.5909473334341025e-05, ,0.1744951492931028,-0.2463088422905165,0.09129122325000001,1.6989079221116163,0.5022757731377591,-1.2613997949139686, ,0.0316428614733147,0.029181101340243164,0.011353393813257305,-0.008861366553897404,0.07514958918155168,-0.06127945098585983, ,0.36513710021972656
0.0098738631665833,0.020945054591910435,-0.08073415908778216, ,0.010204627646896265,0.020751404294170037,-0.08110250672718025, ,0.0005315877751621083, ,0.0044257529315569226,-1.2090424737248656e-05,-0.009586134501620889,-0.01818285136573463,-0.021917152449732323,-0.005008873359234002, ,0.010558475736237754, ,0.02847766799341315, ,5.652042977265537e-05, ,0.17516702705316034,-0.24571419185920124,0.09149992594,1.6986982321681319,0.50254904613729,-1.2617043094615021, ,0.034345617646931156,0.029461950188907415,0.00979631704797048,-0.0002755962087590273,0.012894072531428878,-0.010400060497260357, ,0.38844799995422363
0.009996365459674904,0.02092504541542018,-0.08098293700795359, ,0.010308713210656769,0.020739791267368052,-0.0813203029121425, ,0.0004956772843525816, ,0.0038754696021128555,-0.0008706689616041851,-0.008366324756529594,0.000693283444167563,0.004822806018720509,0.003185054762232948, ,0.009261356218682102, ,0.004872377124009576, ,5.6818469814924815e-05, ,0.17620959599118063,-0.2447256820513005,0.09175270249,1.6984885422246472,0.503505501635648,-1.262484234787377, ,0.03295032693002458,0.03523837413979605,0.008463768076514347,-0.011081454194282293,0.04171908109958319,-0.035874439852208555, ,0.41105008125305176
0.010037950088515482,0.020918988471765126,-0.08107170645153207, ,0.01041276716205406,0.02072799154519004,-0.08153730586511708, ,0.0006274954011846286, ,0.004315814800537247,-0.00038922208733467855,-0.009417842727372021,-0.014305404926150803,-0.020126850054238393,0.0023980516707460676, ,0.010366943274819226, ,0.02469280520956154, ,5.794150645560813e-05, ,0.17653395077189807,-0.24438588180483461,0.09184214650000001,1.6984885422246472,0.5036421381354135,-1.2627590101713546, ,0.03347334799240592,0.032521227401806296,0.009549647194244606,-0.010815043024858629,0.016415646506022206,-0.019303350864197953, ,0.4333610534667969
0.010178513863097956,0.020908214403035932,-0.08138829357979976, ,0.010516785677302347,0.020716009346896137,-0.0817535157798831, ,0.0005336270788898786, ,0.0048018134168354475,-0.0006401217224893201,-0.010023379417500398,-0.01440355019508249,-0.012449022750196093,-0.0015131476773134723, ,0.011132623359158173, ,0.01903786554429648, ,5.873676442890392e-05, ,0.17763830157291216,-0.2433124219353174,0.09216492271000001,1.698278852281163,0.5045985936337716,-1.2639473291979324, ,0.03887625627139319,0.03746424854262565,0.010184662097186702,-0.005449463546438009,0.028619694850463746,-0.022321872589087816, ,0.45294618606567383
0.010278083251616797,0.02089951197001677,-0.08160754080967852, ,0.010620764960192413,0.020703848870608364,-0.08196893285932105, ,0.0005350878576525869, ,0.004905330693819228,-0.0004486033758860482,-0.011147344550355848,0.031332095826719635,0.025899032639012318,0.0012393798680930689, ,0.012187157368678293, ,0.04065046061733061, ,5.947444601610784e-05, ,0.1784414657918315,-0.24257103957939186,0.09238918088,1.6978594723941938,0.5054184126323642,-1.2646158366201108, ,0.04178641195881584,0.03837320726181592,0.011509256878612718,-0.013101434051468953,0.07293762049729512,-0.06934394925151835, ,0.4745461940765381
0.010376872151764784,0.020893221524929093,-0.0818215455369565, ,0.010724701242028076,0.0206915142933511,-0.082183557315392, ,0.0005410391954657953, ,0.004927060059301413,-0.0005326203718147783,-0.010216818176457133,-0.018019712763214384,-0.015922286165075402,0.0054442679980422045, ,0.011355306201913721, ,0.024046395436114518, ,6.0187120720982356e-05, ,0.17925235274362508,-0.24185282542208897,0.09260955018000001,1.6978594723941938,0.5063748681307223,-1.2656407981664075, ,0.03942540156147519,0.03613744918449001,0.010417796939175933,-0.011603392805362432,0.02712659460351965,-0.018375078135536304, ,0.4947061538696289
0.01047977613132487,0.020876611480464116,-0.0820244354873279, ,0.010828590781563072,0.02067900977108982,-0.08239738936911467, ,0.0005475515443392142, ,0.005255719521706481,-0.0005052705484270792,-0.01027395779092131,-0.018715184195273387,-0.018236501492926067,-0.003262113088258728, ,0.011551281085125886, ,0.02613097762609051, ,6.088075643137982e-05, ,0.18009413062691557,-0.24106510666891806,0.09281566029,1.6976497824507093,0.5069214141297841,-1.2661681485213336, ,0.04282352958414746,0.03640082146469918,0.010521011571994717,-0.0021762593207897735,0.025919919296109407,-0.016287422294705867, ,0.5135221481323242
0.010587116484360311,0.020869858375027035,-0.08225704679939791, ,0.010932429864937653,0.020666339438770852,-0.08261042925054352, ,0.000534359845982347, ,0.005752001115440359,2.588578674366193e-06,-0.012168633849980006,-0.019089814738097094,-0.026965244948709197,0.002284042626040799, ,0.013459612673017226, ,0.03303854105532577, ,6.145321437298134e-05, ,0.18099769037319982,-0.24030055611436985,0.09305677023000002,1.6974400925072246,0.5082877791274385,-1.2673640062984384, ,0.04381206904823212,0.035409306551668206,0.012512813448546743,-0.009682288538813639,0.019726013570391273,-0.016791204907133997, ,0.5353012084960938
0.01070132941774999,0.020860037733161953,-0.08248511765705788, ,0.011036214805615112,0.020653507410361278,-0.08282267719874718, ,0.0005184104950974838, ,0.005647317668770228,-0.0007393562417279571,-0.010548086692479443,-0.03369585136018243,-0.04453161540259494,0.004551740763670681, ,0.01198753424922108, ,0.05584330791307592, ,6.190340822240284e-05, ,0.1818703591879872,-0.23952828282694738,0.09328880614000001,1.6972304025637401,0.508424415627204,-1.2673937454619946, ,0.044282287241470264,0.038749261559195905,0.010697657165883145,-0.01372555775069863,0.003058849665943826,-0.006978021753504348, ,0.5541272163391113
0.010801385070930043,0.020843199280593007,-0.08268232625697607, ,0.01113994194431872,0.020640517778888184,-0.08303413346178536, ,0.000528648141023653, ,0.005065218371266258,-0.0007388114939551802,-0.00949205704417385,0.014825229348231567,0.01631488967333038,0.004228325155197861, ,0.010973796313108962, ,0.05625692944619499, ,6.268176313175549e-05, ,0.18232600042756644,-0.23913442345036195,0.09339250934000001,1.6972304025637401,0.509380871125562,-1.2683370282681503, ,0.04620104262827205,0.03916506048636846,0.00985693782178218,-0.012351889329338365,0.116461088506509,-0.09723486540329085, ,0.5745429992675781
0.01085604107393718,0.02083687059763658,-0.08277846805602833, ,0.011243607648968196,0.02062737461647801,-0.08324479829668754, ,0.0006415296638162148, ,0.005485819717701146,-0.0007889303449345479,-0.009757406253285684,-0.0242625103914877,-0.027273884697690185,0.004041779627405876, ,0.01122156877873748, ,0.03650389169054749, ,6.395791257899436e-05, ,0.18323728290672495,-0.23840076382731062,0.09358954542,1.6972304025637401,0.5104739631236854,-1.269391728978003, ,0.04542697058806643,0.037025728270960116,0.00997420884157796,-0.010331238395143593,0.0217838237039781,-0.013586202681061026, ,0.5909590721130371
0.010967865936579021,0.02082313228518916,-0.0829969329030389, ,0.011347208314616613,0.020614081974396774,-0.08345467196943027, ,0.0006301807083039325, ,0.00576596665254043,-0.00026972471427140975,-0.011861159928385774,-0.028625864271002756,-0.031215101009578798,0.0071388892119578756, ,0.013191142395806418, ,0.042353540602100205, ,6.510946974175121e-05, ,0.18413311992013498,-0.23761304507413972,0.09381639617000001,1.696811022676771,0.5108838726229818,-1.269725982689092, ,0.04341122669646422,0.036753269387479,0.012159398106870231,-0.013521297149679241,0.015868865464862537,-0.009156518585036705, ,0.6074020862579346
0.011071801028269027,0.02082120015232697,-0.08324874912496882, ,0.01145074036338688,0.02060064388308894,-0.08366375475491471, ,0.0006037133098470977, ,0.005610547455042844,-1.915951232911461e-06,-0.013166929460642213,0.01803138133875809,0.0226611600631436,0.007692693823553494, ,0.014312451845776973, ,0.02895960104420727, ,6.607790833900843e-05, ,0.18498262053629969,-0.23686393998533994,0.09407954304,1.6966013327332867,0.512796783619698,-1.2712858333408419, ,0.043751471442356284,0.03747904484931705,0.013696312570937234,-0.015536558218927212,0.07214028525062761,-0.05502201639231252, ,0.6240170001983643
0.0111391679240257,0.020819218783439248,-0.08339115386903037, ,0.011554200244408598,0.02058706435221768,-0.08387204693694533, ,0.0006763177135539818, ,0.006491923918455746,-0.00034144129991044435,-0.013826354070597138,-0.027745541560696547,-0.027944828534173825,0.006042998693270454, ,0.015278407155519204, ,0.03937928405917797, ,6.731618384130901e-05, ,0.18548459817312427,-0.23643146694438336,0.09422602381,1.6966013327332867,0.5130700566192289,-1.271508669148235, ,0.04792774826185393,0.042842863006081616,0.014171540498220642,-0.013839036748428821,0.023936670481702352,-0.01583178770142753, ,0.6407392024993896
0.011252107950795462,0.020817297126585244,-0.0836346258669525, ,0.011657584433754732,0.02057334737070406,-0.08407954880820635, ,0.0006495221976818714, ,0.00624824491671345,-0.0002125142036812441,-0.012965115146441653,-0.0028102774547035265,-0.0037308541622281255,-0.004559816705248262, ,0.014393746474997138, ,0.00467082067888466, ,6.837491269749013e-05, ,0.18633409878928897,-0.23572097551995472,0.09447750407000001,1.696391642789802,0.513753239118056,-1.272065758666717, ,0.04876512926951222,0.039589879665611505,0.013442035037974686,-0.002746982675635693,0.04703381991746232,-0.03482651705208228, ,0.6587271690368652
0.011383435944929542,0.02080387381765392,-0.08391042150863484, ,0.011760889434378332,0.020559496906766603,-0.08428626067024063, ,0.0005860429051429914, ,0.006278538091220803,-0.0008605172394258148,-0.012206791617698378,-0.028455837339727313,-0.028686232174747573,0.005780333214107538, ,0.013753773739602196, ,0.0404058699208989, ,6.940515886481307e-05, ,0.18738439046018351,-0.23478652484217355,0.09476268787000001,1.6961819528463176,0.5151196041157104,-1.2731799377036812, ,0.048342812816337635,0.043751471442356284,0.012473619044635868,-0.014047282762968556,0.02361136706676157,-0.016119733361162715, ,0.6729412078857422
0.011446872100511544,0.020794802087369727,-0.08403818170400078, ,0.011864111776049195,0.02054551690796126,-0.0844921828334269, ,0.0006650932814543135, ,0.006184080005950482,-0.0007088027926938463,-0.01237229082340273,-0.011359145911610838,-0.010177301893892059,-0.00025938600820989876, ,0.013849867405061412, ,0.015251471397183039, ,7.071948732402897e-05, ,0.1877319134395236,-0.23446989279433034,0.09485342817,1.6959722629028329,0.5153928771152414,-1.2734027735110742, ,0.04787938524645347,0.04385256079411774,0.012866568271405495,-0.008355722183237903,0.03126666241872803,-0.02251606728765572, ,0.686683177947998
0.011477898062103172,0.020792155834510388,-0.08410070991058666, ,0.011967248015290744,0.020531411301220576,-0.08469731561695674, ,0.00081448723574931, ,0.006229808291294392,-0.0004005514756049989,-0.013246556757456656,0.01263307732885395,0.015234981912244636,-0.001227373844779322, ,0.014643845763985985, ,0.019791384711524217, ,7.258543792779079e-05, ,0.18812577281610907,-0.23412236981499024,0.09495842766000001,1.6959722629028329,0.5158027866145377,-1.2737370272221633, ,0.04934838354574663,0.041952670892338985,0.013767339256698359,-0.007610892174666886,0.06826697881888127,-0.052845108566586106, ,0.7007970809936523
0.011639093010443184,0.020773580738902266,-0.08443403354193751, ,0.012070294735316608,0.0205171839928937,-0.08490165934881382, ,0.0006858193013865309, ,0.007004623997845722,-0.0007546859349796861,-0.014851608038067454,0.004200231441988778,0.008634420961957103,0.004910180250061481, ,0.016437900399018185, ,0.009601793945164918, ,7.386675583155101e-05, ,0.18940774647323033,-0.23298712808247923,0.09530324080000001,1.695552883015864,0.517442424611723,-1.2750740420665205, ,0.054569834133680724,0.049893239515494625,0.015213764584527223,-0.015841639100627962,0.05900486244672237,-0.04568933600590017, ,0.7146420478820801
0.011714511182807405,0.0207702546313108,-0.08459983707551963, ,0.012173248545967375,0.02050283886878575,-0.0851052143657496, ,0.0007330466314539612, ,0.007099192102446749,-7.586085062476612e-06,-0.01607053586401103,0.0229518999336589,0.024170082908909613,0.010617778520647268, ,0.017568742385628902, ,0.033331389807422895, ,7.528198093776193e-05, ,0.18998695143879715,-0.23249287317852887,0.09547564737000001,1.6953431930723792,0.5182622436103156,-1.275742549488699, ,0.05416492098086232,0.04426163318958525,0.016784838271865124,-0.0213126641211311,0.08557711333008168,-0.06749182448923031, ,0.7296891212463379
0.011872164437119996,0.020771187040448953,-0.08495786519532147, ,0.012276106083647457,0.020488379794197764,-0.08530798101326266, ,0.0006047560485882902, ,0.0068399699923334485,-0.000307273286312541,-0.014371889538160855,-0.01707689808175161,-0.019664679725710434,0.008098196248784321, ,0.01591951052217375, ,0.02604456687402575, ,7.61535311053172e-05, ,0.19112991590418238,-0.23150436337062813,0.09584768260000001,1.6953431930723792,0.5196286086079701,-1.2768567285256633, ,0.04984083065045734,0.042440492646901064,0.014845117912395157,-0.017149615019186742,0.035072842107612696,-0.0265372738369695, ,0.7493631839752197
0.011942582212038855,0.02076028402442189,-0.08508112375172891, ,0.012378864011261606,0.02047381061396596,-0.08550995964557549, ,0.0006755065115026566, ,0.006735259318486306,-0.0019383753801259368,-0.010749705664414225,-0.03839948031124809,-0.03990131291080572,0.004943012095096961, ,0.012832661028526947, ,0.05537720394383126, ,7.754786338757805e-05, ,0.19166278447250387,-0.23104099939817466,0.09597342273000001,1.6953431930723792,0.5196286086079701,-1.2768567285256633, ,0.05504462967428699,0.05088307858363044,0.010895219917920657,-0.015150524129270738,0.019146530149271028,-0.01364234244672726, ,0.7600951194763184
0.012011665314395471,0.020740565719094255,-0.08519684476677597, ,0.012481519018151881,0.02045913515250161,-0.08571115062561158, ,0.0007513163003548541, ,0.007088683870591499,-0.001659723452598073,-0.011656756244469437,-0.03610368583865835,-0.038983312024480674,-0.007565306407314029, ,0.013743510726858161, ,0.05313355373313187, ,7.918165911648376e-05, ,0.1922342667051965,-0.23050813082985316,0.09609138512000001,1.695133503128895,0.5200385181072663,-1.2771909822367524, ,0.05679050961009622,0.05080136057733982,0.011887172776119406,-0.002102467157777052,0.018808612638689007,-0.013453392188680507, ,0.7712690830230713
0.012079025752596027,0.02072426137714546,-0.08532127460699854, ,0.012584067820034267,0.020444357213830526,-0.08591155432497453, ,0.0008257384428359553, ,0.006605332831958619,-0.0013514232394582842,-0.012431972328422726,0.07671386943066164,0.08354688961803583,-0.0007527397432749985, ,0.014142514011581066, ,0.11342442519541965, ,8.103936643900207e-05, ,0.19285208533513445,-0.2299829849944059,0.09622231041000001,1.6949238131854105,0.5214048831049207,-1.278223482533576, ,0.061581402698553396,0.04984083065045734,0.013197026942833473,-0.013325127405814397,0.152201306909781,-0.12335902058278642, ,0.7838120460510254
0.012146080919875596,0.020713960356740918,-0.08545153335168688, ,0.012686507158935437,0.020429480581633068,-0.08611117112392389, ,0.000898950083637335, ,0.0071989444220300555,-0.0006521181764504699,-0.014828522260367369,0.03689196069714213,0.038626279368977626,0.0029395040703598307, ,0.016496518764083087, ,0.05341353297638122, ,8.310696578389894e-05, ,0.1928906989995056,-0.22994437133003479,0.09623008815,1.6949238131854105,0.5215415196046862,-1.2783349004372724, ,0.06146174971403549,0.04909308926977277,0.013274009600000001,-0.013325127405814397,0.15089012438621646,-0.1222915471752165, ,0.7946300506591797
0.012227206590792888,0.02070806765799189,-0.0856240371254481, ,0.012788833803129597,0.020414509019283242,-0.08631000141135367, ,0.0009338890734640394, ,0.008730697221495385,-0.0005213585918110841,-0.01862500948976427,-0.038046489443213934,-0.03151741679091172,-0.04323016091302805, ,0.020576391016125534, ,0.05626135120351215, ,8.52398069552764e-05, ,0.1946283138962061,-0.228438438419561,0.09674341899000001,1.6940850534114722,0.5235910671011678,-1.2799244902525784, ,0.05872335492479627,0.05453847216004068,0.021438508102288024,0.03320763523441603,0.020193098875881933,-0.017541618860451167, ,0.8057842254638672
0.012400795815020895,0.020708107453675795,-0.08602125686753838, ,0.01289104454707503,0.020399446269889022,-0.08650804558476996, ,0.0007566893688174211, ,0.008756824457628503,-0.00011575383204017565,-0.020515946000959195,0.025736929568248034,0.03010153194271802,0.0045521850803519285, ,0.022306936451373733, ,0.03960414289301194, ,8.669340884687192e-05, ,0.19520751886177293,-0.22792101531698797,0.09694952910000001,1.6942947433549567,0.524274249599995,-1.2805632585112008, ,0.06218672448130458,0.05592041341100223,0.02138095506040269,-0.01932326067335824,0.09920615264433626,-0.0812840884657947, ,0.8166830539703369
0.012400795815020895,0.020708107453675795,-0.08602125686753838, ,0.012993136211351067,0.020384296056331436,-0.0867053040502676, ,0.00096106270054273, ,0.008756824457628503,-0.00011575383204017565,-0.020515946000959195,0.025736929568248034,0.03010153194271802,0.0045521850803519285, ,0.022306936451373733, ,0.03960414289301194, ,8.91189537396128e-05, ,0.19520751886177293,-0.22792101531698797,0.09694952910000001,1.6942947433549567,0.524274249599995,-1.2805632585112008, ,0.06218672448130458,0.05592041341100223,0.02138095506040269,-0.01932326067335824,0.09920615264433626,-0.0812840884657947, ,0.8251922130584717
0.012497055447268382,0.020709457613430272,-0.08624029643087176, ,0.013095105642594737,0.020369062081304675,-0.08690177722250883, ,0.0009545103415499286, ,0.009362058497074183,0.00031115808354901587,-0.021389851962075514,0.017671707996502688,0.017194386109724534,0.003041104700470699, ,0.023351032645583417, ,0.024656271000902084, ,9.147221908321242e-05, ,0.19590256482045315,-0.22734181035142112,0.09717897243000001,1.6942947433549567,0.5253673415981185,-1.2815362804809127, ,0.06576364626366651,0.053463065666744095,0.022371926292134834,-0.016161655842177103,0.08889958469225684,-0.07039481165163704, ,0.8336660861968994
0.012595977216711192,0.020710567779696352,-0.08646009915045944, ,0.013196949713437591,0.020353748027355126,-0.08709746552469984, ,0.0009458986058213496, ,0.010615942865219085,-6.20150553672008e-05,-0.023097837884155405,0.006098847984756453,0.004096181023410954,-0.0016199449789312424, ,0.02542070423311307, ,0.007346296434928454, ,9.374842907837077e-05, ,0.19659761077913335,-0.22676260538585427,0.09740841576,1.6942947433549567,0.5261871605967111,-1.2822047879030913, ,0.07525530654914415,0.06206470997937919,0.024098050711043876,-0.013001361151337982,0.0844540642167266,-0.06680251035283057, ,0.8417801856994629
0.012702715278291001,0.02070678346766654,-0.08669209921045765, ,0.013298665322442267,0.020338357556922225,-0.08729236938856871, ,0.0009226149757949773, ,0.010242375024316797,-0.0004278524009116957,-0.02184303606288039,0.028091965370802163,0.028313869469137946,0.014323353084084403, ,0.024128976941843343, ,0.03988519462559611, ,9.59006763554173e-05, ,0.19737760679943,-0.22612934129016787,0.09765082199000001,1.6936656735245033,0.5272802525948347,-1.2830961311326625, ,0.07622244301885203,0.061862413010737145,0.022886223448275865,-0.030764549565960905,0.11430862203986235,-0.0911871173316661, ,0.8498520851135254
0.012802356210776545,0.020697442326886844,-0.08690140644350448, ,0.013400249394039578,0.020322894312376903,-0.08748648925434256, ,0.0009165611650642461, ,0.010334036766301288,-0.0011368974694425452,-0.021442192823602334,-0.0065772918288358765,-0.006485781814062178,0.05340343992617451, ,0.02382965557509875, ,0.009236969251653453, ,9.798990936537742e-05, ,0.19811126642248134,-0.22548835446160723,0.09786859871,1.693246293637534,0.5282367080931928,-1.2838760564585376, ,0.07561509287527553,0.06594645000588659,0.022246943463687153,-0.0717285751125215,0.08733222160618213,-0.06922471498485208, ,0.8608732223510742
0.012878133556526498,0.020692611582127447,-0.08705570172301345, ,0.013501698878465002,0.020307361916061736,-0.08767982557072554, ,0.0009626949637403057, ,0.010487119277964474,-0.0009732201356719288,-0.02172639282641453,-0.007863853743484634,-0.008442312716835475,0.035983674291511274, ,0.02414462618121076, ,0.011537243980851871, ,0.0001001896634299964, ,0.1986595804565513,-0.22502499048915375,0.09802933867000001,1.693246293637534,0.5287832540922546,-1.2843217280733232, ,0.07573578735711954,0.06558185318484504,0.02256205597733711,-0.05329496106253714,0.08119797256484629,-0.06424642662017714, ,0.8692481517791748
0.012878133556526498,0.020692611582127447,-0.08705570172301345, ,0.013603010751695517,0.02029176397033111,-0.08787237879487601, ,0.00116322276270065, ,0.010487119277964474,-0.0009732201356719288,-0.02172639282641453,-0.007863853743484634,-0.008442312716835475,0.035983674291511274, ,0.02414462618121076, ,0.011537243980851871, ,0.00010333621060594627, ,0.1986595804565513,-0.22502499048915375,0.09802933867000001,1.693246293637534,0.5287832540922546,-1.2843217280733232, ,0.07573578735711954,0.06558185318484504,0.02256205597733711,-0.05329496106253714,0.08119797256484629,-0.06424642662017714, ,0.8746860027313232
0.01301392951051486,0.020680697145060132,-0.08732787227686756, ,0.013704182015386404,0.020276104057590113,-0.08806414939238345, ,0.0010873123183990753, ,0.010980861030307407,-0.0013715346859076612,-0.021540720656888238,-0.028374967354943943,-0.030465091825495113,0.018682697252284674, ,0.024216999458637797, ,0.04163239069097627, ,0.00010619543105135921, ,0.19963264479870357,-0.22417548987298908,0.09831192989000001,1.693246293637534,0.5296030730908472,-1.2849902354955018, ,0.07894920262767952,0.06987992750991957,0.022278058069930072,-0.03539525425649294,0.05778979944933376,-0.045198716731620854, ,0.8804750442504883
0.01301392951051486,0.020680697145060132,-0.08732787227686756, ,0.013805209696808027,0.020260385740334876,-0.08825513783724682, ,0.0012894213545725632, ,0.010980861030307407,-0.0013715346859076612,-0.021540720656888238,-0.028374967354943943,-0.030465091825495113,0.018682697252284674, ,0.024216999458637797, ,0.04163239069097627, ,0.00010966972296255226, ,0.2005516500107363,-0.2233646029211955,0.09857507676,1.693246293637534,0.5305595285892053,-1.2856884820812362, ,0.09204359026039842,0.08014944388384355,0.027606259133448878,-0.027890392670077285,0.11049522820615633,-0.08954509661609203, ,0.8862090110778809
0.013140434782276274,0.020667401724947927,-0.0875808270929493, ,0.013906090848782509,0.020244612561191686,-0.08844534461185143, ,0.0012297847086609047, ,0.012797370434474794,-0.0011071583125964852,-0.026487692633460347,0.008764038236181175,0.009559285135687065,0.007103908313904646, ,0.02943800860471018, ,0.012968240444273174, ,0.00011290832957388496, ,0.2005516500107363,-0.2233646029211955,0.09857507676,1.693246293637534,0.5305595285892053,-1.2856884820812362, ,0.09204359026039842,0.08014944388384355,0.027606259133448878,-0.027890392670077285,0.11049522820615633,-0.08954509661609203, ,0.8919529914855957
0.01326979320171007,0.020658765510410626,-0.08786047639624547, ,0.014006822549620608,0.02022878804295735,-0.08863477020694621, ,0.0011522255801224145, ,0.013533933459787404,-0.00033511150276345904,-0.02969049804887682,0.03517671874693702,0.03783535006592462,-0.009263443187587714, ,0.032631354997970825, ,0.051661321937178845, ,0.00011585867645596981, ,0.20146293248989477,-0.22256143870227615,0.09886674201000001,1.6928269137505652,0.5317892570870942,-1.286691243214504, ,0.09470752650545987,0.08042113691395829,0.031110960000000003,-0.01202734588587088,0.13854084523179633,-0.11241279016562404, ,0.8975400924682617
0.01326979320171007,0.020658765510410626,-0.08786047639624547, ,0.014107401903058392,0.020212915688638394,-0.08882341512162158, ,0.001351895480049292, ,0.013533933459787404,-0.00033511150276345904,-0.02969049804887682,0.03517671874693702,0.03783535006592462,-0.009263443187587714, ,0.032631354997970825, ,0.051661321937178845, ,0.0001194035439469108, ,0.20146293248989477,-0.22256143870227615,0.09886674201000001,1.6928269137505652,0.5317892570870942,-1.286691243214504, ,0.09470752650545987,0.08042113691395829,0.031110960000000003,-0.01202734588587088,0.13854084523179633,-0.11241279016562404, ,0.9034910202026367
0.013413553533702105,0.020655497767003265,-0.08817355437548262, ,0.01420782603819402,0.02019699898149109,-0.08901127986328686, ,0.0012421247685417312, ,0.015575786720674407,-0.00024332978159223465,-0.03382189069077239,-0.009350561458706401,-0.022601135829234297,0.09241134357195589, ,0.03723687193158286, ,0.024458129172255164, ,0.0001225586309929734, ,0.20246688776354396,-0.22176599721623103,0.09919470338000001,1.6917784640331426,0.5331556220847486,-1.2879687797317494, ,0.10544104617607865,0.08383122045801306,0.03531887254988914,-0.1193492035702816,0.11165136854348613,-0.09331901383362795, ,0.9095780849456787
0.013413553533702105,0.020655497767003265,-0.08817355437548262, ,0.014308092109424568,0.020181041385060723,-0.08919836494764656, ,0.0014406751301527232, ,0.015575786720674407,-0.00024332978159223465,-0.03382189069077239,-0.009350561458706401,-0.022601135829234297,0.09241134357195589, ,0.03723687193158286, ,0.024458129172255164, ,0.0001262947493309946, ,0.20246688776354396,-0.22176599721623103,0.09919470338000001,1.6917784640331426,0.5331556220847486,-1.2879687797317494, ,0.10544104617607865,0.08383122045801306,0.03531887254988914,-0.1193492035702816,0.11165136854348613,-0.09331901383362795, ,0.9149861335754395
0.013574734350059283,0.02065288690523167,-0.08852500460038625, ,0.014408197296382786,0.02016504634322195,-0.08938467089867955, ,0.001292932728821388, ,0.01671496760800749,-0.00026219818727755224,-0.037060383906482273,-0.03371627344186573,-0.04565873196160367,0.03556832120142261, ,0.04065625345899449, ,0.056757704212692404, ,0.00012952562892776291, ,0.2035171794344385,-0.22087016020282096,0.09956025716000001,1.6911493942026892,0.5339754410833412,-1.2886372871539278, ,0.10626757173400983,0.09395736787967403,0.03847539014492755,-0.06250214199334718,0.0759465862802665,-0.06904985134379794, ,0.9204771518707275
0.013574734350059283,0.02065288690523167,-0.08852500460038625, ,0.014508138803873803,0.020149017280218062,-0.08957019824861509, ,0.0014891468146929162, ,0.01671496760800749,-0.00026219818727755224,-0.037060383906482273,-0.03371627344186573,-0.04565873196160367,0.03556832120142261, ,0.04065625345899449, ,0.056757704212692404, ,0.0001337349824440637, ,0.2035171794344385,-0.22087016020282096,0.09956025716000001,1.6911493942026892,0.5339754410833412,-1.2886372871539278, ,0.10626757173400983,0.09395736787967403,0.03847539014492755,-0.06250214199334718,0.0759465862802665,-0.06904985134379794, ,0.9232590198516846
0.01374926428548429,0.020652293882078267,-0.08891148398257621, ,0.014607913861811886,0.020132957600700763,-0.08975494753791051, ,0.0016883560094900466, ,0.01748029673508652,2.9039182999444934e-05,-0.038573590711905754,0.017345927633559105,0.009532796043594504,-0.050271335127202485, ,0.042349539757008545, ,0.019790654545977372, ,0.00013853319549050192, ,0.20457519383820727,-0.21994343225791405,0.09993618126,1.6911493942026892,0.5349318965816994,-1.289580569960084, ,0.11283821826215314,0.09793286022546002,0.03992183338345865,0.02477296001206356,0.11047666062655559,-0.09836757254437876, ,0.9268410205841064
0.01374926428548429,0.020652293882078267,-0.08891148398257621, ,0.014707519725157341,0.02011687068977003,-0.08993891931522871, ,0.0015035141653164693, ,0.01748029673508652,2.9039182999444934e-05,-0.038573590711905754,0.017345927633559105,0.009532796043594504,-0.050271335127202485, ,0.042349539757008545, ,0.019790654545977372, ,0.0007731378250706515, ,0.20457519383820727,-0.21994343225791405,0.09993618126,1.6911493942026892,0.5349318965816994,-1.289580569960084, ,0.11283821826215314,0.09793286022546002,0.03992183338345865,0.02477296001206356,0.11047666062655559,-0.09836757254437876, ,0.9296841621398926
0.01374926428548429,0.020652293882078267,-0.08891148398257621, ,0.014806953673853224,0.02010075991301356,-0.09012211413741558, ,0.001699565218844782, ,0.01748029673508652,2.9039182999444934e-05,-0.038573590711905754,0.017345927633559105,0.009532796043594504,-0.050271335127202485, ,0.042349539757008545, ,0.019790654545977372, ,0.0007883251593948176, ,0.20457519383820727,-0.21994343225791405,0.09993618126,1.6911493942026892,0.5349318965816994,-1.289580569960084, ,0.11283821826215314,0.09793286022546002,0.03992183338345865,0.02477296001206356,0.11047666062655559,-0.09836757254437876, ,0.9325551986694336
0.01374926428548429,0.020652293882078267,-0.08891148398257621, ,0.014906213012761967,0.02008462861654715,-0.09030453256947701, ,0.0018977245787274465, ,0.01748029673508652,2.9039182999444934e-05,-0.038573590711905754,0.017345927633559105,0.009532796043594504,-0.050271335127202485, ,0.042349539757008545, ,0.019790654545977372, ,0.0008062186984163116, ,0.20457519383820727,-0.21994343225791405,0.09993618126,1.6911493942026892,0.5349318965816994,-1.289580569960084, ,0.11283821826215314,0.09793286022546002,0.03992183338345865,0.02477296001206356,0.11047666062655559,-0.09836757254437876, ,0.9353320598602295
0.01374926428548429,0.020652293882078267,-0.08891148398257621, ,0.015005295071602358,0.020068480127053496,-0.0904861751845566, ,0.0020971657583097503, ,0.019693282724053667,0.0001795252143531672,-0.04438084934584574,0.10041675956144952,0.0441749728200756,-0.03036856907963197, ,0.04855427275133215, ,0.10970315239920209, ,0.0008267099215892234, ,0.20582627656383162,-0.21888541785414528,0.10037821615,1.6911493942026892,0.5365715345788846,-1.291489335985425, ,0.1287611147333389,0.10882676784228298,0.04657547228070176,-0.020756395003625243,0.18087848494760717,-0.21002073276035083, ,0.9382591247558594
0.01392837811338632,0.02065270854677032,-0.08930705434819876, ,0.01510419720488618,0.020052317751822632,-0.09066704256391264, ,0.001895412247895984, ,0.019693282724053667,0.0001795252143531672,-0.04438084934584574,0.10041675956144952,0.0441749728200756,-0.03036856907963197, ,0.04855427275133215, ,0.10970315239920209, ,0.0008434083954377664, ,0.20582627656383162,-0.21888541785414528,0.10037821615,1.6911493942026892,0.5365715345788846,-1.291489335985425, ,0.1287611147333389,0.10882676784228298,0.04657547228070176,-0.020756395003625243,0.18087848494760717,-0.21002073276035083, ,0.9411351680755615
0.01392837811338632,0.02065270854677032,-0.08930705434819876, ,0.015202916791855016,0.020036144778791433,-0.0908471352968959, ,0.0020919964272046354, ,0.019693282724053667,0.0001795252143531672,-0.04438084934584574,0.10041675956144952,0.0441749728200756,-0.03036856907963197, ,0.04855427275133215, ,0.10970315239920209, ,0.0008626174420803337, ,0.20582627656383162,-0.21888541785414528,0.10037821615,1.6911493942026892,0.5365715345788846,-1.291489335985425, ,0.1287611147333389,0.10882676784228298,0.04657547228070176,-0.020756395003625243,0.18087848494760717,-0.21002073276035083, ,0.9440240859985352
0.014130344024635734,0.020658193631116296,-0.0897662765842148, ,0.01530145123641705,0.020019964476583295,-0.09102645398092632, ,0.0018349048003547094, ,0.022719201497255582,0.0009885382738432805,-0.05233255211126234,0.10770725769205992,0.032203311012068,-0.03185878964749084, ,0.0570599275768007, ,0.11241669841125825, ,0.0008773490687208546, ,0.20712369568670136,-0.21780423525175385,0.10086043603000001,1.6909397042592043,0.5383478090758353,-1.293591198654603, ,0.1422742752001061,0.11832536353924038,0.05492693627586208,-0.02762107175943449,0.18371661042090545,-0.22896097110819477, ,0.9476161003112793
0.014130344024635734,0.020658193631116296,-0.0897662765842148, ,0.015399797967083777,0.020003780094548076,-0.09120499922147106, ,0.002027237829114835, ,0.022719201497255582,0.0009885382738432805,-0.05233255211126234,0.10770725769205992,0.032203311012068,-0.03185878964749084, ,0.0570599275768007, ,0.11241669841125825, ,0.000894511587532705, ,0.20712369568670136,-0.21780423525175385,0.10086043603000001,1.6909397042592043,0.5383478090758353,-1.293591198654603, ,0.1422742752001061,0.11832536353924038,0.05492693627586208,-0.02762107175943449,0.18371661042090545,-0.22896097110819477, ,0.9505491256713867
0.014130344024635734,0.020658193631116296,-0.0897662765842148, ,0.015497954436906804,0.019987594862801376,-0.09138277163202094, ,0.002221062175491609, ,0.022719201497255582,0.0009885382738432805,-0.05233255211126234,0.10770725769205992,0.032203311012068,-0.03185878964749084, ,0.0570599275768007, ,0.11241669841125825, ,0.0009140196844144536, ,0.20712369568670136,-0.21780423525175385,0.10086043603000001,1.6909397042592043,0.5383478090758353,-1.293591198654603, ,0.1422742752001061,0.11832536353924038,0.05492693627586208,-0.02762107175943449,0.18371661042090545,-0.22896097110819477, ,0.953362226486206
0.014385832240943364,0.020670138075408767,-0.09035301052531897, ,0.015595918123414605,0.019971411992265032,-0.09155977183406863, ,0.0018462932699104967, ,0.022719201497255582,0.0009885382738432805,-0.05233255211126234,0.10770725769205992,0.032203311012068,-0.03185878964749084, ,0.0570599275768007, ,0.11241669841125825, ,0.0009275308957984542, ,0.20712369568670136,-0.21780423525175385,0.10086043603000001,1.6909397042592043,0.5383478090758353,-1.293591198654603, ,0.1422742752001061,0.11832536353924038,0.05492693627586208,-0.02762107175943449,0.18371661042090545,-0.22896097110819477, ,0.9564762115478516
0.014385832240943364,0.020670138075408767,-0.09035301052531897, ,0.015693686528549328,0.019955234674706158,-0.09173600045708545, ,0.0020332808122128444, ,0.02603630901274719,0.0013040673084184688,-0.05974464941569559,0.03314093376238944,0.002405387248215531,0.05265227676470897, ,0.06518445452986871, ,0.03321665523397075, ,0.0009433273231758027, ,0.20870685592591737,-0.2165222615946326,0.10147617378000001,1.6901009444852664,0.5402607200725515,-1.2956411217471961, ,0.15975916087284645,0.12806604798714005,0.06271185637795276,-0.09884036906698535,0.18717497727804197,-0.1751295022903201, ,0.9596571922302246
0.014385832240943364,0.020670138075408767,-0.09035301052531897, ,0.01579125717860351,0.019939066082777148,-0.09191145813849834, ,0.002222261118057884, ,0.02603630901274719,0.0013040673084184688,-0.05974464941569559,0.03314093376238944,0.002405387248215531,0.05265227676470897, ,0.06518445452986871, ,0.03321665523397075, ,0.0009613404752163955, ,0.20870685592591737,-0.2165222615946326,0.10147617378000001,1.6901009444852664,0.5402607200725515,-1.2956411217471961, ,0.15975916087284645,0.12806604798714005,0.06271185637795276,-0.09884036906698535,0.18717497727804197,-0.1751295022903201, ,0.9623970985412598
0.014385832240943364,0.020670138075408767,-0.09035301052531897, ,0.01588862762415688,0.019922909370055676,-0.09208614552366845, ,0.002412571579127837, ,0.02603630901274719,0.0013040673084184688,-0.05974464941569559,0.03314093376238944,0.002405387248215531,0.05265227676470897, ,0.06518445452986871, ,0.03321665523397075, ,0.000981496462770721, ,0.20870685592591737,-0.2165222615946326,0.10147617378000001,1.6901009444852664,0.5402607200725515,-1.2956411217471961, ,0.15975916087284645,0.12806604798714005,0.06271185637795276,-0.09884036906698535,0.18717497727804197,-0.1751295022903201, ,0.965158224105835
0.01465817558677674,0.020682510172341646,-0.09098019045612542, ,0.015985795440013103,0.019906767671083927,-0.09226006326586664, ,0.0020006062361393874, ,0.028392440193869592,0.0012666610278766965,-0.06565913601186894,0.07477793153315027,0.021724809479346192,0.03509095651440456, ,0.07154618950123834, ,0.07786196802945232, ,0.0009954568706250862, ,0.21036724349387564,-0.21516306060876905,0.10213468910000001,1.6892621847113283,0.5423102675690331,-1.297802462743486, ,0.1716038726192962,0.14121568684296246,0.06895589402597403,-0.09589493863067237,0.21771126933580556,-0.23037950986974845, ,0.9679272174835205
0.01465817558677674,0.020682510172341646,-0.09098019045612542, ,0.016082758225136537,0.019890644101408787,-0.09243321202625218, ,0.0021835199222962104, ,0.028392440193869592,0.0012666610278766965,-0.06565913601186894,0.07477793153315027,0.021724809479346192,0.03509095651440456, ,0.07154618950123834, ,0.07786196802945232, ,0.00101151177672875, ,0.21036724349387564,-0.21516306060876905,0.10213468910000001,1.6892621847113283,0.5423102675690331,-1.297802462743486, ,0.1716038726192962,0.14121568684296246,0.06895589402597403,-0.09589493863067237,0.21771126933580556,-0.23037950986974845, ,0.9707131385803223
0.01465817558677674,0.020682510172341646,-0.09098019045612542, ,0.016179513602589037,0.019874541757621253,-0.09260559247384938, ,0.0023683779336842754, ,0.028392440193869592,0.0012666610278766965,-0.06565913601186894,0.07477793153315027,0.021724809479346192,0.03509095651440456, ,0.07154618950123834, ,0.07786196802945232, ,0.001029603325488157, ,0.21036724349387564,-0.21516306060876905,0.10213468910000001,1.6892621847113283,0.5423102675690331,-1.297802462743486, ,0.1716038726192962,0.14121568684296246,0.06895589402597403,-0.09589493863067237,0.21771126933580556,-0.23037950986974845, ,0.9735062122344971
0.014959805628730942,0.020694123692143813,-0.09166685396696195, ,0.016276059219466815,0.019858463717396628,-0.0927772052855247, ,0.0019140875526353527, ,0.028392440193869592,0.0012666610278766965,-0.06565913601186894,0.07477793153315027,0.021724809479346192,0.03509095651440456, ,0.07154618950123834, ,0.07786196802945232, ,0.001041241275845357, ,0.21219753118506685,-0.21364940496542106,0.10285672263000001,1.6888428048243591,0.5446330880650456,-1.3000232820668876, ,0.18075607915899194,0.1568544488569765,0.07175140324324325,-0.024963520660605337,0.23449571356392906,-0.2172284503058427, ,0.9769132137298584
0.014959805628730942,0.020694123692143813,-0.09166685396696195, ,0.016372392746836825,0.019842413039533956,-0.0929480511459649, ,0.0020886070988802336, ,0.030003803715758694,0.0005249286318673024,-0.06832436020659505,0.06263455142951416,0.043998766865078864,-0.028299858704289298, ,0.0746238700760211, ,0.07653423793390848, ,0.0010548434293912643, ,0.21219753118506685,-0.21364940496542106,0.10285672263000001,1.6888428048243591,0.5446330880650456,-1.3000232820668876, ,0.18075607915899194,0.1568544488569765,0.07175140324324325,-0.024963520660605337,0.23449571356392906,-0.2172284503058427, ,0.9798622131347656
0.014959805628730942,0.020694123692143813,-0.09166685396696195, ,0.016468511879674082,0.019826392763995622,-0.09311813074765327, ,0.002266132345974873, ,0.030003803715758694,0.0005249286318673024,-0.06832436020659505,0.06263455142951416,0.043998766865078864,-0.028299858704289298, ,0.0746238700760211, ,0.07653423793390848, ,0.0010703727744756696, ,0.21219753118506685,-0.21364940496542106,0.10285672263000001,1.6888428048243591,0.5446330880650456,-1.3000232820668876, ,0.18075607915899194,0.1568544488569765,0.07175140324324325,-0.024963520660605337,0.23449571356392906,-0.2172284503058427, ,0.9827220439910889
0.014959805628730942,0.020694123692143813,-0.09166685396696195, ,0.016564414336798002,0.0198104059119477,-0.09328744479084752, ,0.002445821097198549, ,0.030003803715758694,0.0005249286318673024,-0.06832436020659505,0.06263455142951416,0.043998766865078864,-0.028299858704289298, ,0.0746238700760211, ,0.07653423793390848, ,0.0010877835127379846, ,0.21219753118506685,-0.21364940496542106,0.10285672263000001,1.6888428048243591,0.5446330880650456,-1.3000232820668876, ,0.18075607915899194,0.1568544488569765,0.07175140324324325,-0.024963520660605337,0.23449571356392906,-0.2172284503058427, ,0.9857220649719238
0.014959805628730942,0.020694123692143813,-0.09166685396696195, ,0.016660097860809308,0.019794455485798966,-0.09345599398355686, ,0.002627055110757107, ,0.030003803715758694,0.0005249286318673024,-0.06832436020659505,0.06263455142951416,0.043998766865078864,-0.028299858704289298, ,0.0746238700760211, ,0.07653423793390848, ,0.0011070244077132237, ,0.21219753118506685,-0.21364940496542106,0.10285672263000001,1.6888428048243591,0.5446330880650456,-1.3000232820668876, ,0.18075607915899194,0.1568544488569765,0.07175140324324325,-0.024963520660605337,0.23449571356392906,-0.2172284503058427, ,0.9887301921844482
0.015348116497072597,0.020687103247341375,-0.09251297006626046, ,0.016755560218026842,0.019778544469241335,-0.09362377904151913, ,0.0020100431488979, ,0.03136730808239803,-0.001495978477039102,-0.06528842694137492,0.027931814314006004,0.017830902994271498,-0.01608363243672552, ,0.07244808251720046, ,0.033120100986493935, ,0.001118172787234022, ,0.21459930110895067,-0.21159515802087733,0.10374597757000001,1.6882137349939055,0.5476390910598853,-1.3026378334284898, ,0.19770196158014744,0.16795918859906334,0.06865867034482759,-0.035003580936333115,0.2272282188547479,-0.194845878003798, ,0.9917130470275879
0.015348116497072597,0.020687103247341375,-0.09251297006626046, ,0.016850799198424207,0.019762675827288953,-0.0937908006881782, ,0.002178410533897788, ,0.03136730808239803,-0.001495978477039102,-0.06528842694137492,0.027931814314006004,0.017830902994271498,-0.01608363243672552, ,0.07244808251720046, ,0.033120100986493935, ,0.0011311025158518729, ,0.21459930110895067,-0.21159515802087733,0.10374597757000001,1.6882137349939055,0.5476390910598853,-1.3026378334284898, ,0.19770196158014744,0.16795918859906334,0.06865867034482759,-0.035003580936333115,0.2272282188547479,-0.194845878003798, ,0.9945230484008789
0.015348116497072597,0.020687103247341375,-0.09251297006626046, ,0.01694581261556671,0.01974685250631865,-0.0939570596546614, ,0.002349914696829006, ,0.03136730808239803,-0.001495978477039102,-0.06528842694137492,0.027931814314006004,0.017830902994271498,-0.01608363243672552, ,0.07244808251720046, ,0.033120100986493935, ,0.0011457869999600312, ,0.21459930110895067,-0.21159515802087733,0.10374597757000001,1.6882137349939055,0.5476390910598853,-1.3026378334284898, ,0.19770196158014744,0.16795918859906334,0.06865867034482759,-0.035003580936333115,0.2272282188547479,-0.194845878003798, ,0.997279167175293
0.015689436869229634,0.020651192948504933,-0.09316486799798986, ,0.017040598306547923,0.019731077434109436,-0.09412255667975628, ,0.0018945757838394373, ,0.03135873675214038,-0.005167008862214454,-0.05535404091759092,-0.07169127806576467,-0.10556589487650656,0.03522779566967511, ,0.06382897615643363, ,0.12760594742815726, ,0.0011547011521490717, ,0.21682344817672733,-0.20973397939818925,0.10443041869000001,1.6873749752199676,0.5495520020566015,-1.304116005340099, ,0.20902410034905458,0.17804304232358495,0.05792295098181819,-0.0895738584057999,0.12425470430446474,-0.1194329378349042, ,1.000197172164917
0.015689436869229634,0.020651192948504933,-0.09316486799798986, ,0.01713515413192658,0.01971535351988187,-0.09428729250988835, ,0.002055658197448219, ,0.03135873675214038,-0.005167008862214454,-0.05535404091759092,-0.07169127806576467,-0.10556589487650656,0.03522779566967511, ,0.06382897615643363, ,0.12760594742815726, ,0.0011653006467996498, ,0.21682344817672733,-0.20973397939818925,0.10443041869000001,1.6873749752199676,0.5495520020566015,-1.304116005340099, ,0.20902410034905458,0.17804304232358495,0.05792295098181819,-0.0895738584057999,0.12425470430446474,-0.1194329378349042, ,1.0030181407928467
0.015689436869229634,0.020651192948504933,-0.09316486799798986, ,0.017229477975663293,0.019699683654338346,-0.09445126789909795, ,0.002220792933157374, ,0.03135873675214038,-0.005167008862214454,-0.05535404091759092,-0.07169127806576467,-0.10556589487650656,0.03522779566967511, ,0.06382897615643363, ,0.12760594742815726, ,0.0011775738129200884, ,0.21682344817672733,-0.20973397939818925,0.10443041869000001,1.6873749752199676,0.5495520020566015,-1.304116005340099, ,0.20902410034905458,0.17804304232358495,0.05792295098181819,-0.0895738584057999,0.12425470430446474,-0.1194329378349042, ,1.0057411193847656
0.015689436869229634,0.020651192948504933,-0.09316486799798986, ,0.017323567745057302,0.019684070709702763,-0.09461448360901782, ,0.0023889526081224393, ,0.03135873675214038,-0.005167008862214454,-0.05535404091759092,-0.07169127806576467,-0.10556589487650656,0.03522779566967511, ,0.06382897615643363, ,0.12760594742815726, ,0.0011914977071178167, ,0.21682344817672733,-0.20973397939818925,0.10443041869000001,1.6873749752199676,0.5495520020566015,-1.304116005340099, ,0.20902410034905458,0.17804304232358495,0.05792295098181819,-0.0895738584057999,0.12425470430446474,-0.1194329378349042, ,1.008608102798462
0.01601652512278488,0.020583503759736787,-0.09370489421425365, ,0.017417421370683302,0.019668517539760063,-0.09477694040884987, ,0.001987207368009542, ,0.03415902998558781,-0.0072915767477425295,-0.05637749670870481,-0.010022706026320414,-0.029828555429980908,-0.027420237589891188, ,0.06632064954570732, ,0.031458350385104694, ,0.0012005398623552226, ,0.21910937710749778,-0.20778785071388467,0.10499819371,1.687165285276483,0.5513282765535522,-1.3056461168282931, ,0.24024542166701462,0.20407944421176513,0.05943586388059702,-0.03322619880931986,0.22132735422063435,-0.1922283072574257, ,1.0113680362701416
0.01601652512278488,0.020583503759736787,-0.09370489421425365, ,0.01751103680632806,0.019653026979896324,-0.09493863907534297, ,0.002149762450210175, ,0.03415902998558781,-0.0072915767477425295,-0.05637749670870481,-0.010022706026320414,-0.029828555429980908,-0.027420237589891188, ,0.06632064954570732, ,0.031458350385104694, ,0.0012112052846906716, ,0.21910937710749778,-0.20778785071388467,0.10499819371,1.687165285276483,0.5513282765535522,-1.3056461168282931, ,0.24024542166701462,0.20407944421176513,0.05943586388059702,-0.03322619880931986,0.22132735422063435,-0.1922283072574257, ,1.014158010482788
0.01601652512278488,0.020583503759736787,-0.09370489421425365, ,0.017604412028927385,0.01963760184713799,-0.09509958039276988, ,0.0023154405178067226, ,0.03415902998558781,-0.0072915767477425295,-0.05637749670870481,-0.010022706026320414,-0.029828555429980908,-0.027420237589891188, ,0.06632064954570732, ,0.031458350385104694, ,0.0012234745650586275, ,0.21910937710749778,-0.20778785071388467,0.10499819371,1.687165285276483,0.5513282765535522,-1.3056461168282931, ,0.24024542166701462,0.20407944421176513,0.05943586388059702,-0.03322619880931986,0.22132735422063435,-0.1922283072574257, ,1.0169811248779297
0.01635383415648948,0.020511583094371594,-0.09425959593665025, ,0.017697545038502634,0.019622244940192313,-0.09525976515290428, ,0.0018965283409592899, ,0.033893759526036196,-0.00712318073065741,-0.056011575559589265,0.0845022525301172,0.07539385003791171,-0.04163289066561247, ,0.06585456123305322, ,0.11324447891615945, ,0.0012308707603981952, ,0.2214416424355136,-0.20585716749532854,0.10556467244,1.6867459053895137,0.554061006548861,-1.3078744749022215, ,0.2427031753413575,0.20062778342171414,0.059882750075187986,-0.023680694047012264,0.3324731305183628,-0.28100198337412424, ,1.0204071998596191
0.01635383415648948,0.020511583094371594,-0.09425959593665025, ,0.017790433858097747,0.019606959039486865,-0.09541919415499858, ,0.0020559259255463684, ,0.033893759526036196,-0.00712318073065741,-0.056011575559589265,0.0845022525301172,0.07539385003791171,-0.04163289066561247, ,0.06585456123305322, ,0.11324447891615945, ,0.0012398387513237188, ,0.2214416424355136,-0.20585716749532854,0.10556467244,1.6867459053895137,0.554061006548861,-1.3078744749022215, ,0.2427031753413575,0.20062778342171414,0.059882750075187986,-0.023680694047012264,0.3324731305183628,-0.28100198337412424, ,1.0232181549072266
0.01635383415648948,0.020511583094371594,-0.09425959593665025, ,0.017883076533715753,0.01959174690720907,-0.09557786820576059, ,0.00221867587426007, ,0.033893759526036196,-0.00712318073065741,-0.056011575559589265,0.0845022525301172,0.07539385003791171,-0.04163289066561247, ,0.06585456123305322, ,0.11324447891615945, ,0.001250363881677873, ,0.2214416424355136,-0.20585716749532854,0.10556467244,1.6867459053895137,0.554061006548861,-1.3078744749022215, ,0.2427031753413575,0.20062778342171414,0.059882750075187986,-0.023680694047012264,0.3324731305183628,-0.28100198337412424, ,1.0261781215667725
0.01635383415648948,0.020511583094371594,-0.09425959593665025, ,0.017975471134255683,0.0195766112873461,-0.09573578811933083, ,0.0023839090015767136, ,0.033893759526036196,-0.00712318073065741,-0.056011575559589265,0.0845022525301172,0.07539385003791171,-0.04163289066561247, ,0.06585456123305322, ,0.11324447891615945, ,0.0012624228723150947, ,0.2214416424355136,-0.20585716749532854,0.10556467244,1.6867459053895137,0.554061006548861,-1.3078744749022215, ,0.2427031753413575,0.20062778342171414,0.059882750075187986,-0.023680694047012264,0.3324731305183628,-0.28100198337412424, ,1.0301251411437988
0.016672993912055043,0.020432483626949962,-0.09476008362142428, ,0.01806761575144932,0.019561554905725056,-0.09589295471726011, ,0.0019967182655923725, ,0.035583189255258864,-0.009875401141607815,-0.05369714806117749,-0.02994198285919977,-0.041445150211534984,0.07864509801121432, ,0.06516955282328747, ,0.05112510519100313, ,0.0012701522975074873, ,0.2238356896265232,-0.20388787061240127,0.10611818827000001,1.6856974556720912,0.5567937365441699,-1.3101845117162907, ,0.2578721238001923,0.2151858085226095,0.05688861257142858,-0.1472595157427826,0.2506328271559534,-0.2071639653941222, ,1.0330312252044678
0.016672993912055043,0.020432483626949962,-0.09476008362142428, ,0.018159508499797812,0.019546580470051922,-0.09604936882848611, ,0.00215796347701309, ,0.035583189255258864,-0.009875401141607815,-0.05369714806117749,-0.02994198285919977,-0.041445150211534984,0.07864509801121432, ,0.06516955282328747, ,0.05112510519100313, ,0.0012794003306273373, ,0.2238356896265232,-0.20388787061240127,0.10611818827000001,1.6856974556720912,0.5567937365441699,-1.3101845117162907, ,0.2578721238001923,0.2151858085226095,0.05688861257142858,-0.1472595157427826,0.2506328271559534,-0.2071639653941222, ,1.0358190536499023
0.016672993912055043,0.020432483626949962,-0.09476008362142428, ,0.01825114751650862,0.01953169066995215,-0.09620503128931157, ,0.0023216094662021846, ,0.035583189255258864,-0.009875401141607815,-0.05369714806117749,-0.02994198285919977,-0.041445150211534984,0.07864509801121432, ,0.06516955282328747, ,0.05112510519100313, ,0.0012901447547054284, ,0.2238356896265232,-0.20388787061240127,0.10611818827000001,1.6856974556720912,0.5567937365441699,-1.3101845117162907, ,0.2578721238001923,0.2151858085226095,0.05688861257142858,-0.1472595157427826,0.2506328271559534,-0.2071639653941222, ,1.0385711193084717
0.01710890378373212,0.020316838198922254,-0.09541978760906303, ,0.018342530961432183,0.019516888177010125,-0.09635994294338018, ,0.0017451785306272947, ,0.035855532304604,-0.009300711047389129,-0.05508440936623652,-0.08394700748249705,-0.09924886303068804,-0.004938084435587698, ,0.06638082989885448, ,0.12998819069404374, ,0.0012947879565005495, ,0.2269016145775903,-0.2012775869009134,0.10681559229000001,1.6848586958981533,0.5591165570401824,-1.3120786160791298, ,0.24584699885614195,0.21325155406397928,0.05813434861313869,-0.055080082919660794,0.16033577695715687,-0.13309722575298705, ,1.0414600372314453
0.01710890378373212,0.020316838198922254,-0.09541978760906303, ,0.01843365701699866,0.019502175644808696,-0.09651410464165532, ,0.001901624561775159, ,0.035855532304604,-0.009300711047389129,-0.05508440936623652,-0.08394700748249705,-0.09924886303068804,-0.004938084435587698, ,0.06638082989885448, ,0.12998819069404374, ,0.0013009176191800913, ,0.2269016145775903,-0.2012775869009134,0.10681559229000001,1.6848586958981533,0.5591165570401824,-1.3120786160791298, ,0.24584699885614195,0.21325155406397928,0.05813434861313869,-0.055080082919660794,0.16033577695715687,-0.13309722575298705, ,1.0443830490112305
0.01710890378373212,0.020316838198922254,-0.09541978760906303, ,0.018524523888154638,0.019487555708969283,-0.09666751724239595, ,0.002061193578023403, ,0.035855532304604,-0.009300711047389129,-0.05508440936623652,-0.08394700748249705,-0.09924886303068804,-0.004938084435587698, ,0.06638082989885448, ,0.12998819069404374, ,0.0013085203787685242, ,0.2269016145775903,-0.2012775869009134,0.10681559229000001,1.6848586958981533,0.5591165570401824,-1.3120786160791298, ,0.24584699885614195,0.21325155406397928,0.05813434861313869,-0.055080082919660794,0.16033577695715687,-0.13309722575298705, ,1.0471291542053223
0.01710890378373212,0.020316838198922254,-0.09541978760906303, ,0.018615129802300047,0.01947303098719161,-0.09682018161113425, ,0.0022230228947576493, ,0.035855532304604,-0.009300711047389129,-0.05508440936623652,-0.08394700748249705,-0.09924886303068804,-0.004938084435587698, ,0.06638082989885448, ,0.12998819069404374, ,0.0013175748591248522, ,0.2269016145775903,-0.2012775869009134,0.10681559229000001,1.6848586958981533,0.5591165570401824,-1.3120786160791298, ,0.24584699885614195,0.21325155406397928,0.05813434861313869,-0.055080082919660794,0.16033577695715687,-0.13309722575298705, ,1.0498971939086914
0.017450408445046233,0.020225778364591863,-0.09594031257629604, ,0.018705473009224736,0.019458604079293243,-0.0969720986206532, ,0.0017967542641135507, ,0.037089832213591745,-0.010274273679779011,-0.05562620678197456,-0.08966953072480696,-0.10363208570582567,-0.031156229663838762, ,0.06764237750279317, ,0.13703905039429284, ,0.001322272696428663, ,0.22923387990560612,-0.19921561722349546,0.10736521925,1.6848586958981533,0.5606195585376021,-1.3133042130197903, ,0.25373513785687374,0.22328692131404887,0.058777902287822884,-0.030541745119537323,0.15888769705969424,-0.13168090492118817, ,1.0526552200317383
0.017450408445046233,0.020225778364591863,-0.09594031257629604, ,0.018795551781045403,0.01944427756724987,-0.0971232691509638, ,0.0019543644358662525, ,0.037089832213591745,-0.010274273679779011,-0.05562620678197456,-0.08966953072480696,-0.10363208570582567,-0.031156229663838762, ,0.06764237750279317, ,0.13703905039429284, ,0.0013284095094329115, ,0.22923387990560612,-0.19921561722349546,0.10736521925,1.6848586958981533,0.5606195585376021,-1.3133042130197903, ,0.25373513785687374,0.22328692131404887,0.058777902287822884,-0.030541745119537323,0.15888769705969424,-0.13168090492118817, ,1.0553719997406006
0.017450408445046233,0.020225778364591863,-0.09594031257629604, ,0.018885364412142173,0.019430054015234413,-0.09727369408928103, ,0.0021142805222663192, ,0.037089832213591745,-0.010274273679779011,-0.05562620678197456,-0.08966953072480696,-0.10363208570582567,-0.031156229663838762, ,0.06764237750279317, ,0.13703905039429284, ,0.0013359659614793863, ,0.22923387990560612,-0.19921561722349546,0.10736521925,1.6848586958981533,0.5606195585376021,-1.3133042130197903, ,0.25373513785687374,0.22328692131404887,0.058777902287822884,-0.030541745119537323,0.15888769705969424,-0.13168090492118817, ,1.0581140518188477
0.017450408445046233,0.020225778364591863,-0.09594031257629604, ,0.01897490921909538,0.019415935969657246,-0.0974233743300032, ,0.0022758337988567703, ,0.037071870877407584,-0.010024775594444523,-0.054278530655134966,-0.02721485604247741,-0.04256477788993511,-0.06321625978548498, ,0.06649044011097067, ,0.050516705916045776, ,0.0013449170837401233, ,0.2319059454800878,-0.19691424282697656,0.10797706813,1.6846490059546686,0.5626691060340837,-1.3149754815752366, ,0.2578721238001923,0.21765353568456597,0.05792295098181819,0.0,0.21910339411689056,-0.1805728095217003, ,1.0613582134246826
0.017837600897353034,0.02012011434588803,-0.09651635413683515, ,0.01906418454062249,0.019401925959206024,-0.0975723107746869, ,0.00177069094246405, ,0.037071870877407584,-0.010024775594444523,-0.054278530655134966,-0.02721485604247741,-0.04256477788993511,-0.06321625978548498, ,0.06649044011097067, ,0.050516705916045776, ,0.0013489338182563868, ,0.2319059454800878,-0.19691424282697656,0.10797706813,1.6846490059546686,0.5626691060340837,-1.3149754815752366, ,0.2578721238001923,0.21765353568456597,0.05792295098181819,0.0,0.21910339411689056,-0.1805728095217003, ,1.0648300647735596
0.017837600897353034,0.02012011434588803,-0.09651635413683515, ,0.019153188737514638,0.019388026494885136,-0.09772050433202586, ,0.0019278749127847846, ,0.037071870877407584,-0.010024775594444523,-0.054278530655134966,-0.02721485604247741,-0.04256477788993511,-0.06321625978548498, ,0.06649044011097067, ,0.050516705916045776, ,0.0013543444826912315, ,0.2319059454800878,-0.19691424282697656,0.10797706813,1.6846490059546686,0.5626691060340837,-1.3149754815752366, ,0.2578721238001923,0.21765353568456597,0.05792295098181819,0.0,0.21910339411689056,-0.1805728095217003, ,1.0676651000976562
0.017837600897353034,0.02012011434588803,-0.09651635413683515, ,0.019241920192573488,0.019374240070055757,-0.09786795591782729, ,0.0020869280037073426, ,0.037071870877407584,-0.010024775594444523,-0.054278530655134966,-0.02721485604247741,-0.04256477788993511,-0.06321625978548498, ,0.06649044011097067, ,0.050516705916045776, ,0.0013611276634413808, ,0.2319059454800878,-0.19691424282697656,0.10797706813,1.6846490059546686,0.5626691060340837,-1.3149754815752366, ,0.2578721238001923,0.21765353568456597,0.05792295098181819,0.0,0.21910339411689056,-0.1805728095217003, ,1.0705671310424805
0.01815794727173637,0.020028638359756667,-0.09697632400965826, ,0.019330377310547958,0.019360569160475564,-0.09801466645498945, ,0.0017026637027646365, ,0.036649453495443234,-0.01092652354666739,-0.05063507493581857,-0.01127729873400793,-0.026860965331201806,-0.04701117498072081, ,0.06345456777952628, ,0.029126552637994886, ,0.00136426102160031, ,0.2341687062122356,-0.19502989600566578,0.10846965833000001,1.6842296260676997,0.5648552900303309,-1.3167581680343794, ,0.26142408142829415,0.21665968392344928,0.05436454443686007,-0.018986007747612072,0.2423833274314613,-0.19940238088694037, ,1.0733940601348877
0.01815794727173637,0.020028638359756667,-0.09697632400965826, ,0.01941855851807095,0.019347016224338362,-0.09816063687347863, ,0.0018591251731090719, ,0.036649453495443234,-0.01092652354666739,-0.05063507493581857,-0.01127729873400793,-0.026860965331201806,-0.04701117498072081, ,0.06345456777952628, ,0.029126552637994886, ,0.0013687597866140259, ,0.2341687062122356,-0.19502989600566578,0.10846965833000001,1.6842296260676997,0.5648552900303309,-1.3167581680343794, ,0.26142408142829415,0.21665968392344928,0.05436454443686007,-0.018986007747612072,0.2423833274314613,-0.19940238088694037, ,1.0762431621551514
0.01815794727173637,0.020028638359756667,-0.09697632400965826, ,0.01950646226359622,0.0193335837023143,-0.09830586811030648, ,0.002017245938320751, ,0.036649453495443234,-0.01092652354666739,-0.05063507493581857,-0.01127729873400793,-0.026860965331201806,-0.04701117498072081, ,0.06345456777952628, ,0.029126552637994886, ,0.0013746020041969693, ,0.2341687062122356,-0.19502989600566578,0.10846965833000001,1.6842296260676997,0.5648552900303309,-1.3167581680343794, ,0.26142408142829415,0.21665968392344928,0.05436454443686007,-0.018986007747612072,0.2423833274314613,-0.19940238088694037, ,1.0789861679077148
0.018561722633094746,0.01990174983015328,-0.0975194688796378, ,0.019594087017334928,0.019320274017588884,-0.09845036110950707, ,0.0015068014753364186, ,0.036626616258872306,-0.011569026930699434,-0.04837528952802824,-0.0854961057611639,-0.10791314941448038,0.04634925247247092, ,0.061769895900984785, ,0.13767558605272248, ,0.0013757823566178573, ,0.23703384010857287,-0.19267446247902728,0.10905169254000001,1.6829714864067924,0.5670414740265779,-1.3185408544935222, ,0.2585747726388849,0.21135176293646052,0.05188537954397395,-0.11168562217728233,0.17491166669451821,-0.1426287358692979, ,1.0817391872406006
0.018561722633094746,0.01990174983015328,-0.0975194688796378, ,0.019681431271192443,0.01930708957590378,-0.09859411682211455, ,0.0016619977293859899, ,0.036626616258872306,-0.011569026930699434,-0.04837528952802824,-0.0854961057611639,-0.10791314941448038,0.04634925247247092, ,0.061769895900984785, ,0.13767558605272248, ,0.001378315236022885, ,0.23703384010857287,-0.19267446247902728,0.10905169254000001,1.6829714864067924,0.5670414740265779,-1.3185408544935222, ,0.2585747726388849,0.21135176293646052,0.05188537954397395,-0.11168562217728233,0.17491166669451821,-0.1426287358692979, ,1.0844759941101074
0.018561722633094746,0.01990174983015328,-0.0975194688796378, ,0.019768493538705308,0.01929403276559566,-0.09873713620613936, ,0.0018188814604619256, ,0.036626616258872306,-0.011569026930699434,-0.04837528952802824,-0.0854961057611639,-0.10791314941448038,0.04634925247247092, ,0.061769895900984785, ,0.13767558605272248, ,0.0013821798520267361, ,0.23703384010857287,-0.19267446247902728,0.10905169254000001,1.6829714864067924,0.5670414740265779,-1.3185408544935222, ,0.2585747726388849,0.21135176293646052,0.05188537954397395,-0.11168562217728233,0.17491166669451821,-0.1426287358692979, ,1.087240219116211
0.018561722633094746,0.01990174983015328,-0.0975194688796378, ,0.019855272354977666,0.01928110595763641,-0.09887942022654622, ,0.001976850364957887, ,0.036626616258872306,-0.011569026930699434,-0.04837528952802824,-0.0854961057611639,-0.10791314941448038,0.04634925247247092, ,0.061769895900984785, ,0.13767558605272248, ,0.001387350899965268, ,0.23703384010857287,-0.19267446247902728,0.10905169254000001,1.6829714864067924,0.5670414740265779,-1.3185408544935222, ,0.2585747726388849,0.21135176293646052,0.05188537954397395,-0.11168562217728233,0.17491166669451821,-0.1426287358692979, ,1.089996099472046
0.018947816742014744,0.019792160728958893,-0.09804410518706498, ,0.019941766276618207,0.019268311505673034,-0.09902096985523154, ,0.0014888311744411442, ,0.037163191460892565,-0.010044360646028126,-0.05153053422456731,-0.051950547852440125,-0.07769612826526302,-0.023452357974272958, ,0.0643225305613495, ,0.09346220851875947, ,0.0013882257299176464, ,0.23969818295018033,-0.1905043745413702,0.10961557869,1.682761796463308,0.5688177485235285,-1.3199892872415757, ,0.25373513785687374,0.20407944421176513,0.05550108543554008,-0.03825387462349008,0.18634722422830033,-0.15195366625174384, ,1.092696189880371
0.018947816742014744,0.019792160728958893,-0.09804410518706498, ,0.02002797388167685,0.019255651746067273,-0.09916178607099962, ,0.0016443211041032558, ,0.037163191460892565,-0.010044360646028126,-0.05153053422456731,-0.051950547852440125,-0.07769612826526302,-0.023452357974272958, ,0.0643225305613495, ,0.09346220851875947, ,0.00139041457926966, ,0.23969818295018033,-0.1905043745413702,0.10961557869,1.682761796463308,0.5688177485235285,-1.3199892872415757, ,0.25373513785687374,0.20407944421176513,0.05550108543554008,-0.03825387462349008,0.18634722422830033,-0.15195366625174384, ,1.0954232215881348
0.018947816742014744,0.019792160728958893,-0.09804410518706498, ,0.020113893769581545,0.019243128997935222,-0.09930186985954065, ,0.0018008729680956666, ,0.037163191460892565,-0.010044360646028126,-0.05153053422456731,-0.051950547852440125,-0.07769612826526302,-0.023452357974272958, ,0.0643225305613495, ,0.09346220851875947, ,0.0013938930401919145, ,0.23969818295018033,-0.1905043745413702,0.10961557869,1.682761796463308,0.5688177485235285,-1.3199892872415757, ,0.25373513785687374,0.20407944421176513,0.05550108543554008,-0.03825387462349008,0.18634722422830033,-0.15195366625174384, ,1.0981922149658203
0.019313969596335478,0.019698130311960223,-0.09856693031119601, ,0.0201995245610749,0.01923074556318755,-0.09944122221340794, ,0.0013293014816937825, ,0.03548265350198862,-0.009082920657220618,-0.05166779117751945,-0.023149854355921706,-0.03914588138097375,-0.036636267787322055, ,0.06333307818487356, ,0.045474691560117186, ,0.0013933502539860477, ,0.24216173473705796,-0.18850418672694605,0.11017946484,1.682761796463308,0.5708672960200102,-1.321660555797022, ,0.23547628178280589,0.1932727933981075,0.055695145174825184,-0.023682008164081742,0.20415726034991877,-0.1664765564958203, ,1.1021521091461182
0.019313969596335478,0.019698130311960223,-0.09856693031119601, ,0.02028486489815101,0.019218503726568654,-0.09957984413199383, ,0.0014827925535505955, ,0.03548265350198862,-0.009082920657220618,-0.05166779117751945,-0.023149854355921706,-0.03914588138097375,-0.036636267787322055, ,0.06333307818487356, ,0.045474691560117186, ,0.001394095606482419, ,0.24216173473705796,-0.18850418672694605,0.11017946484,1.682761796463308,0.5708672960200102,-1.321660555797022, ,0.23547628178280589,0.1932727933981075,0.055695145174825184,-0.023682008164081742,0.20415726034991877,-0.1664765564958203, ,1.1049811840057373
0.019313969596335478,0.019698130311960223,-0.09856693031119601, ,0.020369913443992246,0.019206405755697317,-0.09971773662150919, ,0.0016374265212499679, ,0.03548265350198862,-0.009082920657220618,-0.05166779117751945,-0.023149854355921706,-0.03914588138097375,-0.036636267787322055, ,0.06333307818487356, ,0.045474691560117186, ,0.0013961066057780185, ,0.24216173473705796,-0.18850418672694605,0.11017946484,1.682761796463308,0.5708672960200102,-1.321660555797022, ,0.23547628178280589,0.1932727933981075,0.055695145174825184,-0.023682008164081742,0.20415726034991877,-0.1664765564958203, ,1.1080482006072998
0.019313969596335478,0.019698130311960223,-0.09856693031119601, ,0.020454668882905955,0.019194453901105718,-0.09985490069495835, ,0.0017926942011069775, ,0.03548265350198862,-0.009082920657220618,-0.05166779117751945,-0.023149854355921706,-0.03914588138097375,-0.036636267787322055, ,0.06333307818487356, ,0.045474691560117186, ,0.001399357323772518, ,0.24216173473705796,-0.18850418672694605,0.11017946484,1.682761796463308,0.5708672960200102,-1.321660555797022, ,0.23547628178280589,0.1932727933981075,0.055695145174825184,-0.023682008164081742,0.20415726034991877,-0.1664765564958203, ,1.1118791103363037
0.01948722931790099,0.019653740999416257,-0.09882026629036988, ,0.020539129920261117,0.019182650396279418,-0.09999133737211736, ,0.0016431155504451427, ,0.034498909018803835,-0.008775459594873507,-0.05094381396637116,-0.01564206110645871,-0.027798811469891476,-0.03938375523942426, ,0.06214865723432161, ,0.03189208155501618, ,0.0014013390979731085, ,0.2433124219353174,-0.18755429058341644,0.11045298203000001,1.682761796463308,0.5719603880181336,-1.3225518990265934, ,0.22648434739491832,0.18791473575934806,0.05492693627586208,-0.019952450272360592,0.205834168090932,-0.16784396231722767, ,1.1148600578308105
0.01948722931790099,0.019653740999416257,-0.09882026629036988, ,0.020623295282425205,0.019170997457697472,-0.10012704767951118, ,0.0017975997334856242, ,0.034498909018803835,-0.008775459594873507,-0.05094381396637116,-0.01564206110645871,-0.027798811469891476,-0.03938375523942426, ,0.06214865723432161, ,0.03189208155501618, ,0.0014045347482594998, ,0.2433124219353174,-0.18755429058341644,0.11045298203000001,1.682761796463308,0.5719603880181336,-1.3225518990265934, ,0.22648434739491832,0.18791473575934806,0.05492693627586208,-0.019952450272360592,0.205834168090932,-0.16784396231722767, ,1.117643117904663
0.019959223428117394,0.01952837041827979,-0.09950126266290854, ,0.020707163716700942,0.019159497284871835,-0.10026203265039084, ,0.0011288281701350568, ,0.030357293061655816,-0.008622834863821463,-0.04126068134867284,-0.12010176972675246,-0.14263610905426954,0.07204486810806557, ,0.05194576352770946, ,0.18646547967703989, ,0.0014023290956345041, ,0.246393792352133,-0.18502895693354504,0.11118668217000001,1.6815036568024009,0.5742832085141462,-1.324200967169011, ,0.19770196158014744,0.15975916087284645,0.044369948523676886,-0.1213013214138578,0.0786503632685102,-0.06251823398201274, ,1.1228020191192627
0.019959223428117394,0.01952837041827979,-0.09950126266290854, ,0.02079073399126286,0.019148152060387134,-0.10039629332470988, ,0.001279474775783259, ,0.030357293061655816,-0.008622834863821463,-0.04126068134867284,-0.12010176972675246,-0.14263610905426954,0.07204486810806557, ,0.05194576352770946, ,0.18646547967703989, ,0.0014013540613499703, ,0.246393792352133,-0.18502895693354504,0.11118668217000001,1.6815036568024009,0.5742832085141462,-1.324200967169011, ,0.19770196158014744,0.15975916087284645,0.044369948523676886,-0.1213013214138578,0.0786503632685102,-0.06251823398201274, ,1.1256542205810547
0.019959223428117394,0.01952837041827979,-0.09950126266290854, ,0.020874004895094292,0.019136963949940952,-0.10052983074910271, ,0.0014310752823380832, ,0.030357293061655816,-0.008622834863821463,-0.04126068134867284,-0.12010176972675246,-0.14263610905426954,0.07204486810806557, ,0.05194576352770946, ,0.18646547967703989, ,0.0014015880867120814, ,0.246393792352133,-0.18502895693354504,0.11118668217000001,1.6815036568024009,0.5742832085141462,-1.324200967169011, ,0.19770196158014744,0.15975916087284645,0.044369948523676886,-0.1213013214138578,0.0786503632685102,-0.06251823398201274, ,1.1285490989685059
0.02027905493710998,0.019437833300819666,-0.09993070362053022, ,0.020956975237924006,0.019125935102383182,-0.10066264597686113, ,0.0015831216186322097, ,0.03053706477617763,-0.008552918258203977,-0.04169991311902304,-0.06126889124554475,-0.06300633451750667,0.008829704107594255, ,0.05238842897062344, ,0.0878837250872495, ,0.0014030063174302074, ,0.24849437569392205,-0.1833222329683414,0.11165075399000002,1.6810842769154317,0.5753763005122697,-1.3246839166978794, ,0.20147970606894008,0.16221699411704404,0.04525230545454546,-0.055648708370390466,0.15116384569711572,-0.10596570496157932, ,1.1321961879730225
0.02027905493710998,0.019437833300819666,-0.09993070362053022, ,0.021039643850162826,0.019115067649755613,-0.1007947400679111, ,0.001195504973878521, ,0.03053706477617763,-0.008552918258203977,-0.04169991311902304,-0.06126889124554475,-0.06300633451750667,0.008829704107594255, ,0.05238842897062344, ,0.0878837250872495, ,0.001401397779883295, ,0.24849437569392205,-0.1833222329683414,0.11165075399000002,1.6810842769154317,0.5753763005122697,-1.3246839166978794, ,0.20147970606894008,0.16221699411704404,0.04525230545454546,-0.055648708370390466,0.15116384569711572,-0.10596570496157932, ,1.1351962089538574
0.02027905493710998,0.019437833300819666,-0.09993070362053022, ,0.0211220095828406,0.01910436370733251,-0.1009261140887912, ,0.001346334469908147, ,0.03053706477617763,-0.008552918258203977,-0.04169991311902304,-0.06126889124554475,-0.06300633451750667,0.008829704107594255, ,0.05238842897062344, ,0.0878837250872495, ,0.0014009742159604092, ,0.24849437569392205,-0.1833222329683414,0.11165075399000002,1.6810842769154317,0.5753763005122697,-1.3246839166978794, ,0.20147970606894008,0.16221699411704404,0.04525230545454546,-0.055648708370390466,0.15116384569711572,-0.10596570496157932, ,1.1379880905151367
0.02027905493710998,0.019437833300819666,-0.09993070362053022, ,0.02120407130754272,0.019093825373659373,-0.10105676911262806, ,0.0014973377147494938, ,0.03053706477617763,-0.008552918258203977,-0.04169991311902304,-0.06126889124554475,-0.06300633451750667,0.008829704107594255, ,0.05238842897062344, ,0.0878837250872495, ,0.001401709815187807, ,0.24849437569392205,-0.1833222329683414,0.11165075399000002,1.6810842769154317,0.5753763005122697,-1.3246839166978794, ,0.20147970606894008,0.16221699411704404,0.04525230545454546,-0.055648708370390466,0.15116384569711572,-0.10596570496157932, ,1.1406991481781006
0.020562640910033632,0.01936714317426024,-0.10033411974499644, ,0.021285827916347064,0.01908345473059382,-0.10118670621911545, ,0.0011534219848005093, ,0.028352362749570984,-0.006639750616399766,-0.04056318591744817,0.05028870888154693,0.02923522465525887,-0.021992830565155583, ,0.049933103383474044, ,0.058168228329254314, ,0.001399828846775782, ,0.25036327704948436,-0.18184719098936453,0.11209149259000001,1.6810842769154317,0.5774258480087513,-1.3262735065131852, ,0.18717345475043548,0.14184894104405196,0.044493886927374306,-0.032700236110257484,0.2258527453749976,-0.19244221929007696, ,1.1433892250061035
0.020562640910033632,0.01936714317426024,-0.10033411974499644, ,0.02136727832176052,0.01907325384334412,-0.1013159264944892, ,0.0013029799678147072, ,0.028352362749570984,-0.006639750616399766,-0.04056318591744817,0.05028870888154693,0.02923522465525887,-0.021992830565155583, ,0.049933103383474044, ,0.058168228329254314, ,0.0013991006597159242, ,0.25036327704948436,-0.18184719098936453,0.11209149259000001,1.6810842769154317,0.5774258480087513,-1.3262735065131852, ,0.18717345475043548,0.14184894104405196,0.044493886927374306,-0.032700236110257484,0.2258527453749976,-0.19244221929007696, ,1.1461610794067383
0.020562640910033632,0.01936714317426024,-0.10033411974499644, ,0.021448421456656038,0.019063224760510505,-0.10144443103150741, ,0.0014525029197714166, ,0.028352362749570984,-0.006639750616399766,-0.04056318591744817,0.05028870888154693,0.02923522465525887,-0.021992830565155583, ,0.049933103383474044, ,0.058168228329254314, ,0.0013994991840446966, ,0.25036327704948436,-0.18184719098936453,0.11209149259000001,1.6810842769154317,0.5774258480087513,-1.3262735065131852, ,0.18717345475043548,0.14184894104405196,0.044493886927374306,-0.032700236110257484,0.2258527453749976,-0.19244221929007696, ,1.148909091949463
0.020562640910033632,0.01936714317426024,-0.10033411974499644, ,0.021529256274209017,0.01905336951412337,-0.10157222092942436, ,0.0016017782976858646, ,0.028352362749570984,-0.006639750616399766,-0.04056318591744817,0.05028870888154693,0.02923522465525887,-0.021992830565155583, ,0.049933103383474044, ,0.058168228329254314, ,0.001400997547849446, ,0.25036327704948436,-0.18184719098936453,0.11209149259000001,1.6810842769154317,0.5774258480087513,-1.3262735065131852, ,0.18717345475043548,0.14184894104405196,0.044493886927374306,-0.032700236110257484,0.2258527453749976,-0.19244221929007696, ,1.15171217918396
0.020850317138919577,0.019303326912497344,-0.10073740813692053, ,0.02160978174783418,0.019043690119684435,-0.10169929729396993, ,0.0012527683372536129, ,0.027018151252940232,-0.0055555639506067725,-0.03744983223934041,0.008059984426184023,-0.0022977821698321878,-0.03760272890863762, ,0.04651166222240157, ,0.008376723037893117, ,0.0013999076271833, ,0.2522553466036694,-0.1804570990720041,0.11253482377000001,1.680874586971947,0.579475395505233,-1.328026453808772, ,0.17671683716661224,0.12602515479212587,0.04126635108808291,0.0,0.17736438925787365,-0.12620140803445107, ,1.1549410820007324
0.020850317138919577,0.019303326912497344,-0.10073740813692053, ,0.02168999687112252,0.019034188576205504,-0.10182566123732566, ,0.0014006399634723106, ,0.027018151252940232,-0.0055555639506067725,-0.03744983223934041,0.008059984426184023,-0.0022977821698321878,-0.03760272890863762, ,0.04651166222240157, ,0.008376723037893117, ,0.0013999129727036578, ,0.2522553466036694,-0.1804570990720041,0.11253482377000001,1.680874586971947,0.579475395505233,-1.328026453808772, ,0.17671683716661224,0.12602515479212587,0.04126635108808291,0.0,0.17736438925787365,-0.12620140803445107, ,1.1576859951019287
0.020850317138919577,0.019303326912497344,-0.10073740813692053, ,0.02176990065777765,0.019024866866248914,-0.10195131387810276, ,0.0015481411414942912, ,0.027018151252940232,-0.0055555639506067725,-0.03744983223934041,0.008059984426184023,-0.0022977821698321878,-0.03760272890863762, ,0.04651166222240157, ,0.008376723037893117, ,0.0014009870898688073, ,0.2522553466036694,-0.1804570990720041,0.11253482377000001,1.680874586971947,0.579475395505233,-1.328026453808772, ,0.17671683716661224,0.12602515479212587,0.04126635108808291,0.0,0.17736438925787365,-0.12620140803445107, ,1.1604599952697754
0.020850317138919577,0.019303326912497344,-0.10073740813692053, ,0.021849492141552948,0.01901572695596699,-0.10207625634131881, ,0.001695163394869107, ,0.026683429279234696,-0.0035779918665479185,-0.043831052888486585,0.007609876859269451,0.001214897401224099,-0.020674928010820583, ,0.05143897958951277, ,0.007695740848918542, ,0.0014031034661637735, ,0.2522553466036694,-0.1804570990720041,0.11253482377000001,1.680874586971947,0.579475395505233,-1.328026453808772, ,0.17671683716661224,0.12602515479212587,0.04126635108808291,0.0,0.17736438925787365,-0.12620140803445107, ,1.1632781028747559
0.02111745555902098,0.01925548297350726,-0.1011378936625951, ,0.021928770376187907,0.019006770795141945,-0.10220048975837415, ,0.0013598529122617294, ,0.026683429279234696,-0.0035779918665479185,-0.043831052888486585,0.007609876859269451,0.001214897401224099,-0.020674928010820583, ,0.05143897958951277, ,0.007695740848918542, ,0.0014027945336359017, ,0.25391573417162766,-0.17925235274362508,0.11297296979000002,1.6804552070849783,0.5811150335024182,-1.329200111172848, ,0.15556875665323078,0.11615292724415029,0.047691052455089825,-0.016910525345670096,0.16240879799221672,-0.1210248330693612, ,1.1666960716247559
0.02111745555902098,0.01925548297350726,-0.1011378936625951, ,0.02200773443534519,0.01899800031722566,-0.10232401526703065, ,0.0015052502305011304, ,0.026683429279234696,-0.0035779918665479185,-0.043831052888486585,0.007609876859269451,0.001214897401224099,-0.020674928010820583, ,0.05143897958951277, ,0.007695740848918542, ,0.001403521169783882, ,0.25391573417162766,-0.17925235274362508,0.11297296979000002,1.6804552070849783,0.5811150335024182,-1.329200111172848, ,0.15556875665323078,0.11615292724415029,0.047691052455089825,-0.016910525345670096,0.16240879799221672,-0.1210248330693612, ,1.1696221828460693
0.02138142729844178,0.019224807763592793,-0.10159450385074503, ,0.02208638341254724,0.018989417439379624,-0.10244683401138803, ,0.0011308573872463184, ,0.026720499951229507,-0.002048726716042445,-0.04789176715066625,-0.011548722689717779,-0.01062753409850045,0.05607895676821382, ,0.054879903057624996, ,0.01568647610554337, ,0.0014016010023012234, ,0.25539849888347876,-0.1781557246754852,0.11346815257000001,1.6794067573675557,0.5827546714996036,-1.3304554472770644, ,0.14422027592472764,0.1039396950257073,0.05188537954397395,-0.09254498379593523,0.15236788385438027,-0.1089317540149815, ,1.1724262237548828
0.02138142729844178,0.019224807763592793,-0.10159450385074503, ,0.022164716421112927,0.01898102406251421,-0.10256894714186074, ,0.001273778658247545, ,0.026720499951229507,-0.002048726716042445,-0.04789176715066625,-0.011548722689717779,-0.01062753409850045,0.05607895676821382, ,0.054879903057624996, ,0.01568647610554337, ,0.0014007071397553934, ,0.25539849888347876,-0.1781557246754852,0.11346815257000001,1.6794067573675557,0.5827546714996036,-1.3304554472770644, ,0.14422027592472764,0.1039396950257073,0.05188537954397395,-0.09254498379593523,0.15236788385438027,-0.1089317540149815, ,1.1751391887664795
0.02138142729844178,0.019224807763592793,-0.10159450385074503, ,0.02224273259409439,0.018972822071329127,-0.1026903558151554, ,0.0014164162980306624, ,0.026720499951229507,-0.002048726716042445,-0.04789176715066625,-0.011548722689717779,-0.01062753409850045,0.05607895676821382, ,0.054879903057624996, ,0.01568647610554337, ,0.001400816231132305, ,0.25539849888347876,-0.1781557246754852,0.11346815257000001,1.6794067573675557,0.5827546714996036,-1.3304554472770644, ,0.14422027592472764,0.1039396950257073,0.05188537954397395,-0.09254498379593523,0.15236788385438027,-0.1089317540149815, ,1.1778521537780762
0.02138142729844178,0.019224807763592793,-0.10159450385074503, ,0.022320431084213836,0.018964813334353046,-0.1028110611942487, ,0.0015586330494900475, ,0.026720499951229507,-0.002048726716042445,-0.04789176715066625,-0.011548722689717779,-0.01062753409850045,0.05607895676821382, ,0.054879903057624996, ,0.01568647610554337, ,0.001401904622983048, ,0.25539849888347876,-0.1781557246754852,0.11346815257000001,1.6794067573675557,0.5827546714996036,-1.3304554472770644, ,0.14422027592472764,0.1039396950257073,0.05188537954397395,-0.09254498379593523,0.15236788385438027,-0.1089317540149815, ,1.180589199066162
0.0216357074558679,0.01921703311443651,-0.10205581838948757, ,0.022397811063800163,0.018956999703982822,-0.10293106444836331, ,0.0011893170087714437, ,0.026324898034806785,-0.0004013157392539731,-0.04888293076257191,0.01784019838260717,0.005213562415269355,0.01578819601654511, ,0.055522087774181786, ,0.01857888033382024, ,0.0014004485434336536, ,0.256749977136468,-0.17722899673057826,0.11396981680000001,1.6794067573675557,0.5842576729970234,-1.3315176867374439, ,0.1365423619546342,0.09124705919083728,0.053096038400000004,-0.04940379522763498,0.15279153930091902,-0.11571220067335046, ,1.1835651397705078
0.0216357074558679,0.01921703311443651,-0.10205581838948757, ,0.022474871724725745,0.018949383016524216,-0.10305036675294586, ,0.0013285178554681696, ,0.026324898034806785,-0.0004013157392539731,-0.04888293076257191,0.01784019838260717,0.005213562415269355,0.01578819601654511, ,0.055522087774181786, ,0.01857888033382024, ,0.0013999592190257252, ,0.256749977136468,-0.17722899673057826,0.11396981680000001,1.6794067573675557,0.5842576729970234,-1.3315176867374439, ,0.1365423619546342,0.09124705919083728,0.053096038400000004,-0.04940379522763498,0.15279153930091902,-0.11571220067335046, ,1.1864750385284424
0.0216357074558679,0.01921703311443651,-0.10205581838948757, ,0.0225516122783431,0.01894196509223065,-0.10316896928964372, ,0.001467531596658833, ,0.026324898034806785,-0.0004013157392539731,-0.04888293076257191,0.01784019838260717,0.005213562415269355,0.01578819601654511, ,0.055522087774181786, ,0.01857888033382024, ,0.0014004157891448676, ,0.256749977136468,-0.17722899673057826,0.11396981680000001,1.6794067573675557,0.5842576729970234,-1.3315176867374439, ,0.1365423619546342,0.09124705919083728,0.053096038400000004,-0.04940379522763498,0.15279153930091902,-0.11571220067335046, ,1.189216136932373
0.02191929112482237,0.019219540654181796,-0.10258870752882843, ,0.022628031955421776,0.018934747735344128,-0.10328687324628255, ,0.0010348216950794205, ,0.026324898034806785,-0.0004013157392539731,-0.04888293076257191,0.01784019838260717,0.005213562415269355,0.01578819601654511, ,0.055522087774181786, ,0.01857888033382024, ,0.0013979621375068447, ,0.25819412818394805,-0.17627910058704865,0.11454925843000001,1.6794067573675557,0.5858973109942087,-1.3326096653613795, ,0.13180130772009832,0.08587958512078804,0.05363236202020203,-0.010851969936792496,0.1692808377480696,-0.11777284019149342, ,1.1920661926269531
0.02191929112482237,0.019219540654181796,-0.10258870752882843, ,0.022704130006084892,0.018927732734134,-0.10340407981684321, ,0.001168741160311596, ,0.0259676337831358,0.00034084069401184086,-0.04925992325906299,0.035610216365937336,0.03291924485832081,-0.017261699987628033, ,0.05568639166046338, ,0.048492000829890546, ,0.0013964339976588764, ,0.25819412818394805,-0.17627910058704865,0.11454925843000001,1.6794067573675557,0.5858973109942087,-1.3326096653613795, ,0.13180130772009832,0.08587958512078804,0.05363236202020203,-0.010851969936792496,0.1692808377480696,-0.11777284019149342, ,1.19504714012146
0.02191929112482237,0.019219540654181796,-0.10258870752882843, ,0.022779905699746066,0.018920921860937353,-0.10352059020143897, ,0.0013031638215365066, ,0.0259676337831358,0.00034084069401184086,-0.04925992325906299,0.035610216365937336,0.03291924485832081,-0.017261699987628033, ,0.05568639166046338, ,0.048492000829890546, ,0.0013958163143732976, ,0.25819412818394805,-0.17627910058704865,0.11454925843000001,1.6794067573675557,0.5858973109942087,-1.3326096653613795, ,0.13180130772009832,0.08587958512078804,0.05363236202020203,-0.010851969936792496,0.1692808377480696,-0.11777284019149342, ,1.197869062423706
0.02191929112482237,0.019219540654181796,-0.10258870752882843, ,0.022855358325045982,0.018914316872198834,-0.10363640560629284, ,0.0014377255029890343, ,0.0259676337831358,0.00034084069401184086,-0.04925992325906299,0.035610216365937336,0.03291924485832081,-0.017261699987628033, ,0.05568639166046338, ,0.048492000829890546, ,0.001396092032719454, ,0.25819412818394805,-0.17627910058704865,0.11454925843000001,1.6794067573675557,0.5858973109942087,-1.3326096653613795, ,0.13180130772009832,0.08587958512078804,0.05363236202020203,-0.010851969936792496,0.1692808377480696,-0.11777284019149342, ,1.2007060050964355
0.02191929112482237,0.019219540654181796,-0.10258870752882843, ,0.02293048718978919,0.018907919508509757,-0.10375152724371388, ,0.0015721879370993203, ,0.0259676337831358,0.00034084069401184086,-0.04925992325906299,0.035610216365937336,0.03291924485832081,-0.017261699987628033, ,0.05568639166046338, ,0.048492000829890546, ,0.0013972429863428517, ,0.25819412818394805,-0.17627910058704865,0.11454925843000001,1.6794067573675557,0.5858973109942087,-1.3326096653613795, ,0.13180130772009832,0.08587958512078804,0.05363236202020203,-0.010851969936792496,0.1692808377480696,-0.11777284019149342, ,1.203585147857666
0.02191929112482237,0.019219540654181796,-0.10258870752882843, ,0.023005291620880976,0.01890173149464906,-0.10386595633207642, ,0.0017063892418556976, ,0.0259676337831358,0.00034084069401184086,-0.04925992325906299,0.035610216365937336,0.03291924485832081,-0.017261699987628033, ,0.05568639166046338, ,0.048492000829890546, ,0.0013992504295604676, ,0.25819412818394805,-0.17627910058704865,0.11454925843000001,1.6794067573675557,0.5858973109942087,-1.3326096653613795, ,0.13180130772009832,0.08587958512078804,0.05363236202020203,-0.010851969936792496,0.1692808377480696,-0.11777284019149342, ,1.2064721584320068
0.02233369040283316,0.019230124568305976,-0.10335208052351647, ,0.02307977096426388,0.018895754539621817,-0.10397969409579448, ,0.001030697975322838, ,0.02400080530264276,0.001018670184602716,-0.042194915293967156,0.039423987877945904,0.032552531842752926,-0.008976803757918605, ,0.04855396194735736, ,0.0511251835935847, ,0.0013968726717911927, ,0.26034877065585665,-0.17501257239567583,0.11538536548000002,1.6789873774805866,0.5887666774892829,-1.3344593688981607, ,0.12858664167814468,0.06654764485166254,0.04657547228070176,-0.010135669467433297,0.16554127891691772,-0.10215351909628029, ,1.2096171379089355
0.02233369040283316,0.019230124568305976,-0.10335208052351647, ,0.023153924584854504,0.018889990336700087,-0.10409274176530119, ,0.0011563107211941086, ,0.02400080530264276,0.001018670184602716,-0.042194915293967156,0.039423987877945904,0.032552531842752926,-0.008976803757918605, ,0.04855396194735736, ,0.0511251835935847, ,0.0013953306080053138, ,0.26034877065585665,-0.17501257239567583,0.11538536548000002,1.6789873774805866,0.5887666774892829,-1.3344593688981607, ,0.12858664167814468,0.06654764485166254,0.04657547228070176,-0.010135669467433297,0.16554127891691772,-0.10215351909628029, ,1.2124011516571045
0.02233369040283316,0.019230124568305976,-0.10335208052351647, ,0.023227751866480295,0.018884440563462,-0.10420510057702469, ,0.0012831549180325023, ,0.02400080530264276,0.001018670184602716,-0.042194915293967156,0.039423987877945904,0.032552531842752926,-0.008976803757918605, ,0.04855396194735736, ,0.0511251835935847, ,0.0013946161131647226, ,0.26034877065585665,-0.17501257239567583,0.11538536548000002,1.6789873774805866,0.5887666774892829,-1.3344593688981607, ,0.12858664167814468,0.06654764485166254,0.04657547228070176,-0.010135669467433297,0.16554127891691772,-0.10215351909628029, ,1.2151670455932617
0.02233369040283316,0.019230124568305976,-0.10335208052351647, ,0.023301252211816267,0.018879106881831823,-0.10431677177336594, ,0.0014106801472894132, ,0.02400080530264276,0.001018670184602716,-0.042194915293967156,0.039423987877945904,0.032552531842752926,-0.008976803757918605, ,0.04855396194735736, ,0.0511251835935847, ,0.0013947177842667776, ,0.26034877065585665,-0.17501257239567583,0.11538536548000002,1.6789873774805866,0.5887666774892829,-1.3344593688981607, ,0.12858664167814468,0.06654764485166254,0.04657547228070176,-0.010135669467433297,0.16554127891691772,-0.10215351909628029, ,1.2178730964660645
0.02256342021112744,0.01923400692116571,-0.10375138393935746, ,0.023374425042321664,0.018873990938120075,-0.10442775660267553, ,0.0011157151625539002, ,0.02201374775064139,-0.0002084583148494838,-0.03805884092023443,0.031184043345087474,0.03981364796005585,0.04503221329962714, ,0.04396730509241622, ,0.05057164494762056, ,0.0013929630507968852, ,0.2615921306486068,-0.17435614010136677,0.11582610408,1.678358307650133,0.5904063154864682,-1.3354696687819556, ,0.1204275908102421,0.0673983959932321,0.04202852643799473,-0.06803891582104302,0.17473098325620545,-0.10946596388069393, ,1.220682144165039
0.02256342021112744,0.01923400692116571,-0.10375138393935746, ,0.023447269798176858,0.018869094363062475,-0.10453805631923109, ,0.00123822643359158, ,0.02201374775064139,-0.0002084583148494838,-0.03805884092023443,0.031184043345087474,0.03981364796005585,0.04503221329962714, ,0.04396730509241622, ,0.05057164494762056, ,0.001391995946939352, ,0.2615921306486068,-0.17435614010136677,0.11582610408,1.678358307650133,0.5904063154864682,-1.3354696687819556, ,0.1204275908102421,0.0673983959932321,0.04202852643799473,-0.06803891582104302,0.17473098325620545,-0.10946596388069393, ,1.2234220504760742
0.02256342021112744,0.01923400692116571,-0.10375138393935746, ,0.02351978593821981,0.018864418771860535,-0.10464767218321408, ,0.0013618235642473418, ,0.02201374775064139,-0.0002084583148494838,-0.03805884092023443,0.031184043345087474,0.03981364796005585,0.04503221329962714, ,0.04396730509241622, ,0.05057164494762056, ,0.001391808540835675, ,0.2615921306486068,-0.17435614010136677,0.11582610408,1.678358307650133,0.5904063154864682,-1.3354696687819556, ,0.1204275908102421,0.0673983959932321,0.04202852643799473,-0.06803891582104302,0.17473098325620545,-0.10946596388069393, ,1.226147174835205
0.022780710107999563,0.019231381884614634,-0.104125393065232, ,0.023591972939883066,0.018859965764221207,-0.10475660546068741, ,0.0010929439167040107, ,0.02061302866212446,-0.0003398967827113274,-0.03456439812372409,0.020697833292269072,0.03035442446376052,0.042837710072361715, ,0.0402456220986055, ,0.03673883576914748, ,0.0013899636974768377, ,0.2627814315112374,-0.17366881687556077,0.11623962059000001,1.6781486177066482,0.5921825899834189,-1.3364280290891657, ,0.11405882398854661,0.06230921967069651,0.03829041230769231,-0.06227978737296549,0.15761541783234526,-0.09277727009131484, ,1.2292861938476562
0.022780710107999563,0.019231381884614634,-0.104125393065232, ,0.0236638302991304,0.018855736924396328,-0.10486485742357264, ,0.0012115353669524141, ,0.02061302866212446,-0.0003398967827113274,-0.03456439812372409,0.020697833292269072,0.03035442446376052,0.042837710072361715, ,0.0402456220986055, ,0.03673883576914748, ,0.001388869045142332, ,0.2627814315112374,-0.17366881687556077,0.11623962059000001,1.6781486177066482,0.5921825899834189,-1.3364280290891657, ,0.11405882398854661,0.06230921967069651,0.03829041230769231,-0.06227978737296549,0.15761541783234526,-0.09277727009131484, ,1.2320311069488525
