NicholasDascanio/dvrk_moveit_final/test/execution/third_experiment_notsharpbends/thirdexp_400vel3.0/thirdexp_400vel3.0_26.csv
Current Position (x),Current Position (y),Current Position (z), ,Planned Position (x),Planned Position (y),Planned Position (z), ,Position Error,,Cartesian linear Velocity(x),Cartesian linear Velocity(y),Cartesian linear Velocity(z),Cartesian Angular Velocity(x),Cartesian Angular Velocity(y),Cartesian Angular Velocity(z), ,Total Linear Velocity, ,Total Angular Velocity, ,MSE, ,Joint 1 Position,Joint 2 Position,Joint 3 Position,Joint 4 Position,Joint 5 Position,Joint 6 Position, ,Joint 1 Velocity,Joint 2 Velocity,Joint 3 Velocity,Joint 4 Velocity,Joint 5 Velocity,Joint 6 Velocity, ,Time Stamp
0.00970042096488788,0.020423274227175547,-0.07973245442024936, ,0.00984693541128333,0.020358643048594003,-0.07978403442193115, ,0.00016823842849033685, ,2.5421978795333646e-05,-9.494373928342684e-05,-2.122671551716168e-05,0.056104686013889404,-0.0006437473201786226,-0.017512693168574872, ,0.00010055428427787766, ,0.056108379083068816, ,1.4019869040861404e-05, ,0.172162883965087,-0.24297262168885153,0.09026715415000001,1.6978594723941938,0.4718058336900659,-1.2702869220677189, ,0.00027652256740615425,0.0011105081864722956,0.0,-0.0014725486326358087,0.0,-0.06042025736523282, ,0.027348995208740234
0.009712727327470291,0.020425770403243525,-0.0797474753409006, ,0.00986826782255935,0.020377846046267634,-0.07986665040807149, ,0.000201723291266252, ,0.0008700320092262487,0.00011935719154386915,-0.00040297694652658507,0.17060899175794816,-0.10148311292224457,-0.08358255954600362, ,0.0009662257788340122, ,0.19851007600888337, ,1.6816441807117678e-05, ,0.17218605216370966,-0.2429648989559773,0.09028011705000001,1.6978594723941938,0.4708493781917078,-1.276368010913651, ,-0.0007695573490439262,-0.0011886947106257496,0.00012592815143659973,-0.0014725486326358087,-0.10574225819968482,-0.1877556533186897, ,0.05504798889160156
0.009743795785138624,0.020435412006602212,-0.07979130538759767, ,0.009889817190720126,0.020396751868718668,-0.07994908841815337, ,0.00021843154964545493, ,0.0009523439891929222,0.0004322058526112987,-0.0020791976714444357,0.34929777556833047,-0.06519671583894339,-0.13015798729968064, ,0.0023274071259071355, ,0.35533019541424965, ,1.838728966881387e-05, ,0.17218605216370966,-0.24297262168885153,0.09031770946,1.6978594723941938,0.4679800116966335,-1.2817877152493797, ,0.0006134603932471582,0.00045672165537302185,0.00197613621750895,-0.0014725486326358087,-0.06622635987511448,-0.3735282350816217, ,0.08269405364990234
0.009780107232258143,0.020442850700860042,-0.07983572809149261, ,0.009911582282704393,0.020415362260131232,-0.08003134937728226, ,0.00023729515527616836, ,0.0008076565653909669,0.0005549654090355461,-0.002539177074680011,-0.11304029027598655,-0.04125555905474772,0.024957570913949335, ,0.0027217119519570144, ,0.12033340508143832, ,1.96592482066241e-05, ,0.17219377489658388,-0.2429571762231031,0.09035400558000001,1.6978594723941938,0.4645640992024975,-1.2838213133252623, ,0.00024794849837050573,-0.00032396199038280685,0.0030893738401861917,-0.0014725486326358087,-0.12545570644873094,0.12160496092349843, ,0.11284518241882324
0.00979094606044809,0.02047030952417424,-0.07993945915592594, ,0.009933561868696424,0.020433678960443753,-0.08011343420762249, ,0.0002279218848078305, ,-0.00021176234654064012,0.000498193824803137,-0.0020904127249577703,0.0068902591987767565,0.06765348787460489,0.018770954903970058, ,0.002159366976488653, ,0.06800345648116514, ,2.0261736720885436e-05, ,0.1722014976294581,-0.2429648989559773,0.09046548652000001,1.6978594723941938,0.4655205547008556,-1.2797821929828441, ,5.15424508125218e-05,0.00084366420197686,0.002371770625372246,-0.0014725486326358087,0.07069294224984617,-0.0021324774689831863, ,0.14455604553222656
0.009800052405229527,0.020483410340066593,-0.07999099290319323, ,0.009955754722122524,0.02045170370535144,-0.08019534382840122, ,0.00025885869273442, ,0.0002211383974643974,0.00039371824518516984,-0.0017389899296061178,0.0699154704232339,0.012017899304879499,-0.01748973976495264, ,0.0017966641930801375, ,0.07094084090415347, ,2.1168854874523592e-05, ,0.17221694309520658,-0.2429648989559773,0.09051993070000001,1.6978594723941938,0.46565719120062105,-1.2798936108865404, ,0.0003524006559256256,0.0005611248386559278,0.0018473552979153371,-0.0014725486326358087,0.01335876262928853,-0.07305699686947853, ,0.17928409576416016
0.009814411796797451,0.020499940965197864,-0.0800590238632068, ,0.009978159619647556,0.020469438226311542,-0.08027707915591112, ,0.0002743936537970227, ,0.0004799110738380637,0.0006459235689043453,-0.0025606154625118817,0.013172733309647825,0.005244975980767924,-0.0009116164979296887, ,0.0026840796267088404, ,0.014178528688684676, ,2.2039759111353963e-05, ,0.17224783402670346,-0.2429571762231031,0.09059122665000001,1.6978594723941938,0.46565719120062105,-1.2802203258471028, ,0.0011323812837601894,0.0,0.0027080604420265217,-0.0014476803478479486,0.007011788153689565,-0.01346345684452062, ,0.2082691192626953
0.00982871873820913,0.020514599428794467,-0.08011946490716017, ,0.010000775341171726,0.020486884250546476,-0.08035864110351461, ,0.00029593387543659877, ,0.000648915417073947,0.0007059385240658757,-0.00280649924329352,0.009745697280685505,0.0022714845060684426,-0.00036073794772456725, ,0.0029657846214591614, ,0.010006910470967524, ,2.296093331041566e-05, ,0.17230961588969726,-0.24294945349022884,0.09067807808000002,1.6978594723941938,0.46565719120062105,-1.2802203258471028, ,0.0020794154881665383,5.054338434434543e-05,0.002731746101869319,-0.0013809459698720284,0.004845423767403354,-0.008196318620967803, ,0.23627614974975586
0.009852009786966535,0.020537988741847604,-0.0802169444679896, ,0.01002360066982684,0.02050404350104928,-0.08044003058164732, ,0.0002834839052936514, ,0.000626925929177062,0.0006409222701719238,-0.002558004942474858,0.004756278108907254,0.0005173495749500353,0.000638126700367019, ,0.0027105731428616084, ,0.004784331920179447, ,2.3546526486388433e-05, ,0.17237139775269106,-0.2429340080244804,0.09075715177,1.6978594723941938,0.46565719120062105,-1.2802203258471028, ,0.0025795906333482316,6.993523904798936e-05,0.0027089815510204086,-0.001309910437432724,0.0035536350601543037,-0.004981081798982609, ,0.2654860019683838
0.009873455334569526,0.02056137497944933,-0.08031465041111327, ,0.01004663439197313,0.020520917696586427,-0.08052124849782158, ,0.000272599609485017, ,0.0007058046814000352,0.0008038858217775355,-0.003394796126947502,0.0030225330397890414,0.0007555777213675131,0.0006874464971367226, ,0.0035593585666913227, ,0.0031155422030130645, ,2.3910588688556398e-05, ,0.17242545688281063,-0.24291856255873195,0.09085955868000001,1.6978594723941938,0.46565719120062105,-1.2802203258471028, ,0.0016900948455258757,0.0005941796155531163,0.0035618988193202154,-0.0012513560778862896,0.0028601665502493634,-0.0037541487208748972, ,0.29458117485046387
0.009887380334397575,0.020576340844857426,-0.0803764038081064, ,0.010069875297195635,0.02053750855170294,-0.08060229575663018, ,0.00029298384058881304, ,0.0006710161636356216,0.0006818555577956151,-0.0028626305387622797,0.002628462599208587,-0.00021997564394685715,0.0007460524881235561, ,0.003018251695106201, ,0.0026376513657297156, ,2.4611386367761853e-05, ,0.17246407054718174,-0.24291083982585773,0.09092437318,1.6978594723941938,0.46565719120062105,-1.2802203258471028, ,0.002359611940955442,0.0004743319975102179,0.003013966228949858,-0.001215315159391279,0.002532287549430965,-0.0032391472472054245, ,0.32275915145874023
0.009910033502771875,0.02059785158184959,-0.08046636395545681, ,0.01009332217830094,0.020553817776726442,-0.08068317325974991, ,0.00028729773580535154, ,0.0006792247715220128,0.0006506935133432491,-0.0027636251769104165,0.0019545182655340003,-0.0008621508960956839,0.0007562688945904966, ,0.0029193102707676076, ,0.002136222286358151, ,2.5159680188557643e-05, ,0.17254902060879823,-0.2428953943601093,0.09101900235,1.6978594723941938,0.46565719120062105,-1.2802203258471028, ,0.0026225410863103256,0.0005531965388527611,0.0029104351397770878,-0.0011591968834921333,0.002123182953046554,-0.0026395354630988346, ,0.34848713874816895
0.009924621384469385,0.02061218897072589,-0.08052819541238636, ,0.010116973831313564,0.02056984707777112,-0.08076388190594533, ,0.00030714886122539735, ,0.0008010749112125085,0.000809664293148264,-0.0034395708442414357,0.0015769366196141587,-0.0010559176518592525,0.0007359398124099175, ,0.003623247834958181, ,0.0018978120845782463, ,2.578535258800244e-05, ,0.17259535700604356,-0.24287994889436082,0.09108381685000001,1.6978594723941938,0.46565719120062105,-1.2802203258471028, ,0.0026493737120791977,0.0006812812537361028,0.0036144342001361474,-0.0011291198412321575,0.0019417792642129254,-0.002386387480601584, ,0.37581706047058105
0.009948841782540819,0.02063368829161992,-0.08062334682389972, ,0.010140829055472669,0.020585598156741807,-0.08084442259107194, ,0.00029672591540205506, ,0.0007405243136933575,0.0006426034786051125,-0.002802776451433767,0.0011682647434272826,-0.001852847869709765,0.0007124307837217881, ,0.002969321694696967, ,0.0021904080820852934, ,2.6253886951118624e-05, ,0.17268802980053427,-0.24284905796286393,0.09118363118,1.6978594723941938,0.46565719120062105,-1.2802203258471028, ,0.0032320305194877483,0.0007768680872719868,0.0029519665530022246,-0.0010837337405568026,0.0017072469416175304,-0.0020690279657991115, ,0.40128517150878906
0.009967886679209786,0.020649263378288145,-0.08069238567530361, ,0.010164886653228523,0.02060107271133841,-0.0809247962080802, ,0.0003084574296235079, ,0.0007592484618305656,0.000672796724869905,-0.0029459077846268143,0.0009168488517828186,-0.0018878774603116955,0.0006914088830792462, ,0.0031156839273765585, ,0.002098736024444204, ,2.6744855978761074e-05, ,0.17277297986215073,-0.24282588976424127,0.09125622342,1.6978594723941938,0.46565719120062105,-1.2802203258471028, ,0.0031357090985330233,0.0008404391798161826,0.0030989905680933855,-0.001051328248673485,0.0015623357237388264,-0.0018780036359778542, ,0.4270331859588623
0.009995071761106698,0.020673550178133507,-0.08080342868632188, ,0.010189145430239119,0.020616272435060295,-0.08100500364701897, ,0.0002856182656661047, ,0.0008807186161384592,0.0007644194657753986,-0.0035223948022169455,-0.0003370647630720468,-0.003469382751912292,0.0003162368774857016, ,0.0037104268680509178, ,0.0034857178301654114, ,2.7032769836820405e-05, ,0.1728810981223899,-0.24277955336699591,0.09137288952000001,1.6978594723941938,0.46579382770038646,-1.280168386270518, ,0.0032240375646945827,0.0014464616562448636,0.0036855186302637674,-0.0010099716133938274,0.0,-0.0013188193017203609, ,0.4548051357269287
0.01001354875603544,0.02068848754352231,-0.08087269808280928, ,0.010213604195366769,0.020631199017209383,-0.08108504579503925, ,0.00029731415193774523, ,0.0008388297903874013,0.0006751067968995035,-0.0032114245023246307,-0.0013337294959881443,-0.003605848875138456,0.0005476739981752847, ,0.0033871303397702726, ,0.003844604028665252, ,2.7360159069586234e-05, ,0.17295832545113213,-0.242748662435499,0.09144548176,1.6978594723941938,0.46579382770038646,-1.2802500650106587, ,0.0033681942990594336,0.0015783085766662892,0.0033590914213412065,-0.000985411045188619,0.0,-0.0004047714453772445, ,0.4797680377960205
0.010039161561142016,0.02070881623158171,-0.08097148398446774, ,0.010238261760674583,0.020645854142895777,-0.08116492353639769, ,0.0002846471048798193, ,0.0008616956592538509,0.0007514809086410096,-0.003321844797578748,-0.0005822452635230362,-0.0031616734169285193,-0.0012136411149631936, ,0.003513103446303544, ,0.0032148387109974595, ,2.7580881329664068e-05, ,0.17307416644424548,-0.24270232603825367,0.09154659238000001,1.6976497824507093,0.46593046420015194,-1.280361482914355, ,0.0033900466461152653,0.0011082491396417916,0.003472598979725311,0.0009529186178498691,0.0,-0.00036831736381885016, ,0.5064420700073242
0.01005366739382391,0.020720518782315858,-0.0810245719463577, ,0.010263116941423069,0.020660239493041365,-0.08124463775246012, ,0.00030972837248213964, ,0.0006251269528515151,0.00040629224030103275,-0.0022935100567277487,-0.001594763119985212,-0.0025308042472247747,-0.001144922206804092, ,0.002411647874798801, ,0.0029913608079226188, ,2.791694931062124e-05, ,0.17313594830723927,-0.24267143510675676,0.09160492543000001,1.6978594723941938,0.46593046420015194,-1.280361482914355, ,0.00270150447968065,0.002075737431864572,0.0023834821966182856,0.0007131662444217991,0.0,-0.00034707111974743756, ,0.5343520641326904
0.010077321885538403,0.02073541919717534,-0.08110128027662537, ,0.010288168556066776,0.020674356744383615,-0.08132418932170513, ,0.0003128472214871169, ,0.0009012934635151219,0.000615471212292615,-0.0030374111550087054,-0.0014173457015157157,-0.004290223828197027,-0.001084826069837183, ,0.00322753795409246, ,0.0045182838639355625, ,2.8237754923597936e-05, ,0.17325951203322687,-0.24261737597663718,0.09168529541,1.6978594723941938,0.46593046420015194,-1.280361482914355, ,0.00445695205440795,0.001866320147124979,0.003184488508596562,0.0006965998774672682,0.0,-0.0003195365521767884, ,0.5592141151428223
0.010103119225145667,0.020755286953487658,-0.08120015485269505, ,0.01031341542625073,0.02068820756947976,-0.08140357911972793, ,0.00030017589572776043, ,0.0008506898216597659,0.0006545833983317847,-0.003146154497464632,-0.0013775345485236158,-0.0035453161456255773,-0.0010288694338525294, ,0.0033242203176029176, ,0.003803533580312075, ,2.8466790254022707e-05, ,0.17337535302634025,-0.2425555941136434,0.09178899861,1.6978594723941938,0.46606710069991736,-1.2804729008180513, ,0.0035963242579379003,0.0016992580887159273,0.0032924372715998347,0.0006743505982640992,-0.00011482611365395348,-0.00020249026415610386, ,0.5867969989776611
0.010120963068754074,0.020767394125217657,-0.08125810463870327, ,0.010338856376807086,0.020701793636712013,-0.08148280801924375, ,0.0003198007614324647, ,0.000927218744209426,0.0006154678739035379,-0.002993538282910979,-0.0013368810808696175,-0.004687118676582384,-0.0010181994841103037, ,0.0031937136306616877, ,0.004874046806541795, ,2.8907299533449902e-05, ,0.17346802582083093,-0.2425247031821465,0.09184992424,1.6978594723941938,0.46606710069991736,-1.2804729008180513, ,0.004845197421529394,0.0017429673251869505,0.0031454999052132706,0.0006605495401952285,0.0,-0.0002825805478964332, ,0.6095030307769775
0.01013959651508924,0.02077916970663897,-0.08131955318468334, ,0.010364490235751653,0.020715116610290428,-0.08156187689009146, ,0.0003367502976211637, ,0.0010379503245611268,0.0006329041201420184,-0.0033531977352460763,-0.0019288225376032707,-0.005302082097596835,-0.0012461070143144168, ,0.0035667693439874557, ,0.0056420236198806845, ,2.939343732770596e-05, ,0.17357614408107008,-0.24247836678490114,0.09191473874000002,1.6978594723941938,0.46620373719968283,-1.2804209612414668, ,0.005405898440304252,0.0025935166107798184,0.0035093217713152683,0.0006469363657073033,-5.239271493846898e-05,-0.0005474707334043722, ,0.631951093673706
0.010160635787936478,0.020794362592724984,-0.08139463367046706, ,0.010390315834280479,0.02072817815025737,-0.08164078659923729, ,0.000343110140414841, ,0.0010698643189778869,0.0007567313934127711,-0.0037372212041061298,0.0017449051974664975,-0.0014475464345162226,-0.0011422335352523276, ,0.0039603124108104045, ,0.0022671753569581997, ,2.9873271291231264e-05, ,0.17368426234130924,-0.24243203038765582,0.09199381243000002,1.6978594723941938,0.4663403736994482,-1.2805323791451633, ,0.005360146308654268,0.0023053443693119196,0.003928190263871764,0.0006339433953240564,0.00391275452423763,-0.0037592466042827353, ,0.6540911197662354
0.010183755150761663,0.020807657083874696,-0.08146776973028974, ,0.010416332006766445,0.020740979912492925,-0.0817195380107781, ,0.00034917775729935327, ,0.0010976961976258187,0.0006401991370444468,-0.003448686907703289,0.0009639343095883532,-0.0023821866785367443,-0.001139487480543944, ,0.0036753548488164664, ,0.002569821440639237, ,3.0346196557194797e-05, ,0.1738078260672968,-0.24237024852466202,0.09207029354000001,1.6978594723941938,0.4663403736994482,-1.2806140578853038, ,0.006292262430848052,0.002833840804513795,0.0036251277924442427,0.0006215663759483642,0.00391275452423763,-0.0034879111508313147, ,0.676915168762207
0.010209365785655691,0.02082164973106823,-0.08153906692392343, ,0.010442537590755696,0.020753523548717033,-0.08179813198594588, ,0.0003551407802210792, ,0.001055014821263755,0.00045610963553340716,-0.003025894333673581,0.007920372429716757,-0.004070648460228192,-0.0028513622210005634, ,0.003236839321200621, ,0.008905193881017171, ,3.081246712882767e-05, ,0.17403950805352356,-0.24226985299729709,0.09217788561000001,1.698278852281163,0.46647701019921367,-1.280398760828438, ,0.00655185403764373,0.003654391037274285,0.0031636169851042705,-0.000731630490020543,0.0027881483409459224,-0.011972826723939848, ,0.6989531517028809
0.010241560874248603,0.02083861170947956,-0.08163599560504504, ,0.010468931426964381,0.020765810706495715,-0.08187656938310975, ,0.00033892933919927557, ,0.0012102127102074443,0.000627532158109192,-0.0036861592436971857,0.008529609222045185,-0.0018622202811967423,-0.002161889037841903, ,0.003930163022484313, ,0.008730526741035298, ,3.118367035038852e-05, ,0.17417079451238537,-0.2422080711343033,0.09224788527000001,1.698278852281163,0.46661364669897915,-1.280591857472275, ,0.007311373150219603,0.0036309335781250585,0.0038718550121536223,-0.000731630490020543,0.005870989024747599,-0.012316315944199907, ,0.7222630977630615
0.01026669634715834,0.02085060373169424,-0.08170920137703838, ,0.010495512359275124,0.02077784302924339,-0.08195485105778132, ,0.0003435034976114138, ,0.0011813528347684925,0.0004592872153838802,-0.0032126200291816547,0.0027194032922997517,-0.0024888537511846666,-0.0005935948569438576, ,0.003453616469489594, ,0.0036864002656715766, ,3.154956192551811e-05, ,0.17431752643699563,-0.24213084380556105,0.09232436638000001,1.698278852281163,0.46661364669897915,-1.2804284999919937, ,0.00795075212675439,0.004210020869497529,0.0033711770412698412,-0.000731630490020543,0.005870989024747599,-0.006816986243146932, ,0.7440681457519531
0.010291296474740606,0.020864155107923152,-0.0817855863241832, ,0.010522279234733587,0.020789622156228777,-0.0820329778626173, ,0.00034657000676781465, ,0.0012950384418715499,0.0006299620155278437,-0.0037663058091273946,0.0013753131799578886,-0.003536670327666245,-0.0002691751578832738, ,0.004032249515444172, ,0.0037946702876165785, ,3.190493366651309e-05, ,0.1744642583616059,-0.24206133920969303,0.09240473636,1.698278852281163,0.46675028319874456,-1.2805399178956902, ,0.008030763501220136,0.0038340468570441295,0.00395648572280179,-0.000731630490020543,0.004861582411266405,-0.005106929478309067, ,0.7682540416717529
0.010326999036145744,0.020881967708935995,-0.08189178958958049, ,0.010549230903545048,0.020801149722577253,-0.08211095064742309, ,0.00032241296357552254, ,0.001117872416266544,0.0005536540851988877,-0.0034321088100227044,-0.0018527932629672243,-0.005072588547369576,-0.00013116311532642387, ,0.0036517862025237024, ,0.005400370077132153, ,3.215099042198349e-05, ,0.17468049488208418,-0.2419532209494539,0.09251621730000001,1.698278852281163,0.46688691969851004,-1.2806513357993867, ,0.006261571647307373,0.003659983818401307,0.0035819229862828882,-0.000731630490020543,0.0014212609296562469,-0.001842432431279671, ,0.7910041809082031
0.010349138234611236,0.020892710729016342,-0.08195491114032813, ,0.010576366219070975,0.020812427359277064,-0.08218877025915679, ,0.00033580956483942746, ,0.001108195292052824,0.00043327391297918474,-0.003104909794679077,-0.002453072658448693,-0.005635772726415791,-0.00015972822648116372, ,0.0033250996860380603, ,0.006146503022278177, ,3.2430711565981924e-05, ,0.174811781340946,-0.2418914390864601,0.09258232809000001,1.698278852281163,0.46688691969851004,-1.2806513357993867, ,0.006825164677514856,0.004109914978191268,0.003236247769199513,-0.000731630490020543,0.0014212609296562469,-0.0016774360852070446, ,0.8141121864318848
0.010370966274856664,0.020902190210864726,-0.08201517321904428, ,0.010603684037825542,0.020823456693181558,-0.08226643754193255, ,0.0003514118438022638, ,0.0011921412384308914,0.0004681343046626506,-0.00325467524262162,0.0007023533741590458,-0.0029500350648382673,-0.0001066987582150499, ,0.00349760795323084, ,0.003032491843478162, ,3.274893354270998e-05, ,0.17495851326555625,-0.24182193449059208,0.09264584630000001,1.698278852281163,0.46702355619827546,-1.280762753703083, ,0.007879458930278799,0.0041979484509338475,0.003413804440634377,-0.000731630490020543,0.005312441221421786,-0.004737209728588982, ,0.8372831344604492
0.010399264301994029,0.02091753689208269,-0.08210191393347081, ,0.010631183219472314,0.020834239347015074,-0.08234395333702442, ,0.00034540981192082086, ,0.001293250076405503,0.0007141957338558919,-0.004114786635821531,0.00033589833254106354,-0.0029880394617291524,-2.034066693417969e-05, ,0.004371960700271249, ,0.0030068598795170874, ,3.314139056001353e-05, ,0.17511296792304076,-0.24174470716184981,0.0927365866,1.698278852281163,0.46702355619827546,-1.280762753703083, ,0.007181441720532116,0.003814894881553832,0.004312076751488901,-0.000731630490020543,0.004546387686087827,-0.004024189164152779, ,0.8578650951385498
0.010422716978867493,0.0209310299663659,-0.08217844179460801, ,0.010658862626820621,0.02084477693937556,-0.08242131848286958, ,0.00034956177910794295, ,0.001228122173908769,0.0005551660207995083,-0.003765689517622072,-0.0036029785017254214,-0.006072737823959706,-0.00016971442493407524, ,0.003999613847338955, ,0.0070611329123042, ,3.352941711178861e-05, ,0.17524425438190258,-0.2416752025659818,0.09281695658000001,1.698278852281163,0.4671601926980409,-1.2808741716067795, ,0.006774402009466393,0.004582086537123144,0.003915637050147493,-0.000731630490020543,0.0009129335508621612,-0.0010034195606708901, ,0.87717604637146
0.010438734250823527,0.020939606707989663,-0.08222754654038227, ,0.010686721125822285,0.020855071084739846,-0.08249853381507206, ,0.00037693217534947725, ,0.001264684108106628,0.0007001054669043129,-0.0036790999966481806,0.002000714060969633,-0.002838977364788333,0.00019808799490549423, ,0.0039528913902893165, ,0.003473132384097605, ,3.398821148458524e-05, ,0.17534464990926749,-0.24162886616873647,0.09286880818000001,1.698278852281163,0.4672968291978063,-1.2809855895104758, ,0.007815782035208956,0.0027502175642276517,0.0038888700000000004,-0.000731630490020543,0.005360977483254385,-0.004599679408482509, ,0.898590087890625
0.010473307858986414,0.02095703313718028,-0.0823299243610881, ,0.010714757585568146,0.020865123393467532,-0.08257560016640676, ,0.00035651363616937313, ,0.0012980810171322416,0.0007405672002653707,-0.004058046170195115,0.0014076288474513528,-0.002377123067953739,0.00010729828605512455, ,0.004324487579422932, ,0.002762631345635536, ,3.436233184981325e-05, ,0.17555316369687154,-0.24152847064137153,0.09297640025000001,1.698278852281163,0.46743346569757177,-1.2810970074141723, ,0.007398862566338298,0.003348494457379315,0.004268170289389067,-0.000731630490020543,0.005407454174256453,-0.004591537542764332, ,0.9180891513824463
0.010514823782189417,0.02097685109108147,-0.08245017581764547, ,0.010742970878284509,0.020874935471804582,-0.08265251836682244, ,0.0003295302422224445, ,0.001369084722207808,0.0005411479673118176,-0.00349843182507266,0.0003456786847015671,-0.004692015406945129,-1.0581013911066973e-05, ,0.0037955578422400266, ,0.0047047318529353285, ,3.4637004440164335e-05, ,0.17579256841597252,-0.24140490691538394,0.09310214038,1.698278852281163,0.46743346569757177,-1.2810970074141723, ,0.009360952940001634,0.004068831502176685,0.0036880786107895353,-0.000731630490020543,0.005040289955956282,-0.00425362627488153, ,0.9426720142364502
0.010527147856978418,0.02098170478204051,-0.08248184379512613, ,0.010771359879329886,0.020884508921888464,-0.08272928924344546, ,0.0003609927935369925, ,0.0012710492205016777,0.00036922989842783023,-0.0029321182832291403,0.002873093786212734,-0.001780552253554218,-4.216025799876869e-05, ,0.0032170195003570537, ,0.0033800937879424316, ,3.499511248383757e-05, ,0.1759779140049539,-0.2413276795866417,0.09316565859,1.698278852281163,0.46770673869710266,-1.2813198432215651, ,0.009705784499100522,0.0044449499735603835,0.003101404112149533,-0.000731630490020543,0.008427852510629988,-0.006996896795092296, ,0.9623110294342041
0.010563956252832388,0.02099374405294463,-0.0825704801198316, ,0.010799923467191493,0.020893845341752305,-0.08280591362058427, ,0.00034797875226361206, ,0.0014903116187440766,0.0006981070318273742,-0.004041582744830993,0.003146146458052301,-0.002316562786825972,6.173013642601117e-05, ,0.004363802611503646, ,0.003907006475868428, ,3.5299884569271735e-05, ,0.17614781412818684,-0.24124272952502523,0.09322917680000001,1.698278852281163,0.46770673869710266,-1.2813198432215651, ,0.00991722268816151,0.0038586451752096683,0.0042761910120805375,-0.000731630490020543,0.008090166294598376,-0.006707262384779564, ,0.9834311008453369
0.010595346969583069,0.02100709361422208,-0.08265408388652816, ,0.010828660523481715,0.020902946325327767,-0.08288239231973143, ,0.00034264648384097943, ,0.0013275658472926154,0.0004273255344953721,-0.003146275089073722,-0.0020838421036257207,-0.0070367283570267,-6.517412632296651e-05, ,0.0034415236636489033, ,0.00733879714770206, ,3.557683324131834e-05, ,0.1763563279157909,-0.24115005673053455,0.09331732452000001,1.698278852281163,0.46784337519686814,-1.2814312611252616, ,0.009323240634303785,0.004322224121005755,0.003307477475083057,-0.000731630490020543,0.0025609746400144092,-0.0021841981719343687, ,1.003216028213501
0.010621858060507163,0.021014526057795944,-0.08271639780040196, ,0.010857569932934788,0.020911813462450152,-0.08295872615956844, ,0.0003533171347420343, ,0.0012422100211121443,0.0003819599770682486,-0.0028335829086915815,0.0053053330564727915,0.00046713522284153535,6.141873142232825e-05, ,0.003117398155684072, ,0.005325858989294303, ,3.5873081258513814e-05, ,0.17656484170339495,-0.24104966120316962,0.09338343531000001,1.698278852281163,0.468116648196399,-1.2816540969326544, ,0.009756725848906262,0.004025506173987794,0.003015678061340402,-0.000731630490020543,0.01081853168367232,-0.008906330646097395, ,1.0244519710540771
0.010652066221445438,0.021024439122266137,-0.08278673355912668, ,0.01088665058340331,0.020920448338863074,-0.083034915955969, ,0.0003569851649723897, ,0.0015240382382129987,0.0005770869663327058,-0.004106885755306294,0.002394476384969944,-0.0017094667899662142,-0.00019413974330568883, ,0.004418397053840252, ,0.0029420728569926054, ,3.616799378264415e-05, ,0.17677335549099904,-0.24095698840867893,0.09345732384000001,1.698278852281163,0.468116648196399,-1.2816540969326544, ,0.01020918037178709,0.005405259993756984,0.00431792125779344,-0.000731630490020543,0.009024814788597388,-0.007434522856693622, ,1.0440521240234375
0.010668108684651135,0.02103044747288654,-0.0828289157448892, ,0.010915901365854862,0.020928852536221842,-0.08311096252200241, ,0.0003889384636340144, ,0.0015718533845308453,0.0006376273270267863,-0.004266610979169837,0.001916041598067419,-0.0026410427602213534,-0.0001580940388434035, ,0.004591433427395522, ,0.0032628700331079146, ,3.663903625096785e-05, ,0.17687375101836394,-0.24090292927855936,0.0935013977,1.698278852281163,0.468116648196399,-1.2816540969326544, ,0.010346135355631558,0.005164515817583984,0.004489518466741827,-0.000731630490020543,0.008198120121644554,-0.006756321930282012, ,1.0620391368865967
0.010700615462093084,0.021043972330753995,-0.08292173436169101, ,0.010945321174368493,0.020937027632097843,-0.08318686666793762, ,0.0003763152853745348, ,0.0016367578304826247,0.0006077239514279094,-0.004432411805387499,-0.005852322457064619,-0.01012262966337534,-0.00035574360742541373, ,0.00476388276611881, ,0.011692617659553577, ,3.706081810506146e-05, ,0.17707454207309378,-0.24078708828544598,0.09359861945,1.698278852281163,0.4682532846961644,-1.2817655148363507, ,0.009947993921616926,0.005880137768871298,0.004619724918793504,-0.000731630490020543,0.0,-6.401947190980313e-05, ,1.078963041305542
0.010731037332239096,0.021054388478246828,-0.08300161388251351, ,0.010974908906131274,0.020944975199982542,-0.08326262920124604, ,0.00037359551205311655, ,0.0016332704613761322,0.0004469491850780296,-0.004105979900603254,-0.0010024731633623378,-0.004903700818882722,-0.00046846641380410276, ,0.0044414419863602434, ,0.0050051206775998105, ,3.746196028920667e-05, ,0.17729077859357206,-0.2406712472923326,0.09368287830000001,1.698278852281163,0.4685265576956953,-1.2819883506437437, ,0.011224756905678882,0.006856365507617605,0.004291166896551724,-0.000731630490020543,0.006757572857957077,-0.005568210879426597, ,1.0956170558929443
0.010765869884170866,0.021065985866443003,-0.08308975037681338, ,0.011004663461434982,0.020952696809292282,-0.08333825092660649, ,0.0003627799694858742, ,0.0016726317641581653,0.0006023492703209491,-0.004367276946864914,-0.00044327493043427456,-0.00525944460027083,-0.00029080221896008867, ,0.004715254987012342, ,0.0052780913764851065, ,3.7822295035291884e-05, ,0.1775147378469246,-0.24054768356634504,0.09377491489,1.698278852281163,0.4685265576956953,-1.2819883506437437, ,0.010490951121812609,0.0064873685590147,0.005001196709576139,-0.000731630490020543,0.005571801798170816,-0.004595963336190662, ,1.1136369705200195
0.010783269794857126,0.021073139558415707,-0.08314169687686905, ,0.01103458374367252,0.02096019402537162,-0.0834137326459069, ,0.0003871935613356898, ,0.0018360781319175393,0.0007252783961396261,-0.005108799648404607,-0.005161787264036126,-0.009692678668783521,-0.00044540840923596294, ,0.005476955861238221, ,0.010981441802210471, ,3.823427393278273e-05, ,0.17762285610716372,-0.24048590170335124,0.09382547020000001,1.698278852281163,0.46866319419546076,-1.28209976854744, ,0.01095674074844784,0.006617283564977198,0.0053488285829415725,-0.000731630490020543,0.001488491974889265,-0.001263950904760034, ,1.129777193069458
0.010815916760856524,0.02108501352486588,-0.08323085360836521, ,0.01106466865933456,0.02096746840949797,-0.0834890751582503, ,0.00037732311083253065, ,0.0017369072378424807,0.0004928838645634121,-0.004483905582877216,0.0024107011833980887,-0.0012550194443923632,-0.000529740342677924, ,0.004833755324069892, ,0.00271782122092716, ,3.860874853337978e-05, ,0.17783136989476778,-0.24035461524448942,0.09392269195000001,1.698278852281163,0.4687998306952262,-1.2822111864511365, ,0.01202902035219556,0.007428019244401129,0.004697378802713065,-0.000731630490020543,0.01138968179310345,-0.00933346453259892, ,1.1481010913848877
0.010855401018634556,0.02109550591017171,-0.08332484806439872, ,0.01109491711800614,0.020974521518886638,-0.08356427925995574, ,0.0003596282555621364, ,0.0018605089313286454,0.0004838164195298916,-0.0044996277750199674,-0.0027736736098351767,-0.007741420655346624,-0.0006009375815467377, ,0.004893078982102325, ,0.008223311815345764, ,3.892789009039189e-05, ,0.17810938827823986,-0.2402001605870049,0.09402120999000001,1.698278852281163,0.4689364671949916,-1.282322604354833, ,0.012849958234051563,0.0075369598424939325,0.004704315274660367,-0.000731630490020543,0.0054956390729975725,-0.0045229878121984405, ,1.1652710437774658
0.010873993077452654,0.02110077116894318,-0.0833695582131702, ,0.011125328032363083,0.02098135490669232,-0.08363934574456429, ,0.0003875755608207389, ,0.0019038560950218944,0.0006288731799586698,-0.004685932506891091,-0.0022168953052474566,-0.008386739348091492,-0.00040838146706434725, ,0.005096872861486931, ,0.008674792183558166, ,3.9306288666014465e-05, ,0.17823295200422745,-0.2401306559911369,0.09406787643,1.698278852281163,0.4689364671949916,-1.282322604354833, ,0.012890103444508392,0.006419048472294867,0.004922376860321385,-0.000731630490020543,0.004866067982235882,-0.004007867492768172, ,1.182185173034668
0.010907366670041777,0.0211109546153725,-0.0834587867119335, ,0.011155900318168713,0.02098797012201647,-0.08371427540284113, ,0.0003770525573961975, ,0.0017202280693814423,0.0005889595206024022,-0.0047438266518091965,0.007401309509137961,0.0042399631293718685,-0.0004269607188536758, ,0.005080349321652131, ,0.008529751894756136, ,3.964821318272176e-05, ,0.17848780218907687,-0.23998392406652663,0.09416250560000002,1.698278852281163,0.46948301319405333,-1.2827682759696186, ,0.011731068338076205,0.007073508214275264,0.004990229172932331,-0.000731630490020543,0.016794263735132424,-0.013731287684629456, ,1.200585126876831
0.01094592182821664,0.021121439736157786,-0.08354802344659917, ,0.011186632894270306,0.020994368709909908,-0.08378906902278002, ,0.0003635819478862202, ,0.0016021508428782734,0.00046874617614074796,-0.0041853369427947255,0.0075918711984735085,0.004469116246156124,-0.00037547208772869406, ,0.004505957792268414, ,0.00880962581677625, ,3.994819568580025e-05, ,0.1787503751068005,-0.2398449148747906,0.09425583848,1.698278852281163,0.46948301319405333,-1.2827682759696186, ,0.011501771616548698,0.0068448274064918145,0.004408749382784391,-0.000731630490020543,0.016794263735132424,-0.013694595973297655, ,1.216677188873291
0.010970578444652768,0.0211268416927292,-0.08360400874551349, ,0.011217524682595827,0.02100055221137676,-0.08386372738960607, ,0.00037998059374629305, ,0.001812312274874345,0.00047144559155495777,-0.0044609795390783,0.004357726726278052,0.00034372541585874996,-0.00045839244547498726, ,0.0048380858999745, ,0.004371261558837757, ,4.02782931437567e-05, ,0.17892027523003345,-0.2397445193474257,0.09431417153,1.698278852281163,0.46948301319405333,-1.282686597229478, ,0.013107312369954528,0.007600379230815832,0.004691844335787924,-0.000731630490020543,0.014172476093757498,-0.011310735908258903, ,1.2355120182037354
0.011008056406357587,0.021136636208950017,-0.08369301499639677, ,0.011248574608150144,0.021006522163378755,-0.08393825128578027, ,0.00036731390918264055, ,0.0018105992885785482,0.00027570880201966834,-0.004118496090689866,-0.0058964652325436875,-0.009537245387561467,-0.000754713209413445, ,0.004507360111677342, ,0.011212820815309025, ,4.066415929134706e-05, ,0.17918284814775706,-0.2395977874228154,0.09440750441000001,1.698278852281163,0.4696196496938188,-1.2827980151331744, ,0.012766977204153205,0.008729296433171364,0.004275043349436393,-0.000731630490020543,0.0035396359779554455,-0.0026486058477205748, ,1.2499029636383057
0.011025754682860822,0.021139899711798714,-0.08373726883191787, ,0.01127978159901203,0.021012280098840336,-0.08401264149100202, ,0.00039578597892296695, ,0.0019389329252658578,0.00043723506055570526,-0.00453267420823345,-0.00011910387072214764,-0.005607783309515798,-0.0008252030482052073, ,0.0049493202427044365, ,0.005609047821622796, ,4.110660798667173e-05, ,0.1793218573394931,-0.23950511462832472,0.09445417085,1.698278852281163,0.4698929226933497,-1.2829391722004269, ,0.013873821865273505,0.008140096584242366,0.004749198425760287,-0.000731630490020543,0.00878015853304677,-0.007643098874796184, ,1.2638320922851562
0.011048075657078339,0.021147495390056222,-0.08379597249427301, ,0.011311144586330481,0.021017827546652188,-0.08408689878221418, ,0.0004131066643932884, ,0.001908656976089431,0.0007020111660642759,-0.005098316030220011,0.02202563173772031,0.01707247844785009,-0.00041847516093619115, ,0.005488954132952115, ,0.027867507429862073, ,4.157836622408066e-05, ,0.17948403472985183,-0.23942016456670825,0.09451639277000001,1.698278852281163,0.4701661956928806,-1.2831620080078197, ,0.014628787044623214,0.006956826611648418,0.00544574752820513,-0.000731630490020543,0.03315557502819586,-0.02752424558484913, ,1.277914047241211
0.011065635638162635,0.021153381059732503,-0.08383794529238267, ,0.011342662504321126,0.021023166031674596,-0.08416102393360522, ,0.0004450613963487808, ,0.0019153951789057236,0.0006381101257035106,-0.005297707380205729,0.014357149317150908,0.010869314993271963,-0.0006875188414577026, ,0.005669358580138223, ,0.018007491240176008, ,4.211133153920061e-05, ,0.17976977584619813,-0.23925798717634952,0.09463176258000001,1.698278852281163,0.4701661956928806,-1.283080329267679, ,0.01300492552534888,0.007971487421348749,0.005652523605393897,-0.000731630490020543,0.018559413797646102,-0.015777597042163135, ,1.2919471263885498
0.011110570481679991,0.021166939234937954,-0.08395379393402544, ,0.011374334290263147,0.021028297074742658,-0.08423501771661371, ,0.00040973138907723873, ,0.0019820812536481516,0.0005827204358189159,-0.00534082194594654,0.005341006516405536,0.0016265063816132228,-0.0009271886449324909, ,0.005726481315842094, ,0.005583177345580874, ,4.2553942053381135e-05, ,0.17987789410643729,-0.2391884825804815,0.09468102160000001,1.698278852281163,0.4701661956928806,-1.283080329267679, ,0.013251911961802929,0.008752080790126905,0.005594946090621708,-0.000731630490020543,0.015658313616602842,-0.013401330749868596, ,1.3055150508880615
0.01113437491358707,0.021173456551516402,-0.0840165990165206, ,0.011406158884495638,0.021033222192670977,-0.08430888089993147, ,0.00042303770708273586, ,0.0020899363891858863,0.0005082256713041395,-0.0051661875379921795,-0.0011600406477910246,-0.006200626766734562,-0.0010406380024448956, ,0.005596036197302657, ,0.006308205998922907, ,4.3016069518910434e-05, ,0.1800477942296702,-0.23908036432024238,0.09474713239000002,1.698278852281163,0.47043946869241143,-1.283303165075072, ,0.014170067426977868,0.009059480526376076,0.005395938861788619,-0.000731630490020543,0.008471237983402494,-0.007526909755126051, ,1.3196370601654053
0.011176650555069233,0.021182929726789423,-0.08411740651911198, ,0.011438135230414169,0.02103794289825665,-0.08438261424950765, ,0.000399663053270949, ,0.0020287804979460446,0.00044919375262604506,-0.004643475888436943,0.0027346551813569897,-0.0033791359095010345,-0.0008774293248852259, ,0.005087198999718778, ,0.004347056049441311, ,4.341733627038086e-05, ,0.18036442627751342,-0.23889501873126098,0.09485342817,1.698278852281163,0.4708493781917078,-1.2836374187861612, ,0.017154183217366375,0.009905476845459834,0.005384993752535498,-0.000731630490020543,0.03239245850749483,-0.027010594378675788, ,1.3338830471038818
0.011201458395887577,0.02118672886555865,-0.08417373513523584, ,0.011470262274467324,0.021042460700282997,-0.08445621852855173, ,0.0004157712064955684, ,0.0021252420410031755,0.0005048347908567731,-0.005445906558842133,0.009885752087199082,0.006872445720181776,-0.0005856622899950864, ,0.005867657977979503, ,0.012039875402853463, ,4.384461481907691e-05, ,0.18053432640074638,-0.23878690047102183,0.09491176122000002,1.698069162337678,0.4708493781917078,-1.2837190975263018, ,0.015340598376733072,0.009974814780164707,0.005725669130122214,-0.0009965871224368865,0.023343696643043796,-0.018814668780449836, ,1.347728967666626
0.011225832667662262,0.021191477391952075,-0.08423122424220914, ,0.011502538966153419,0.02104677710352626,-0.08452969449753794, ,0.0004319595379329362, ,0.0022739675979805713,0.000543425936375622,-0.0056984908590216364,0.0057509730936871895,0.002059628095064908,-0.0030751618552641974, ,0.00615946738406369, ,0.006108662161663155, ,4.429724559319937e-05, ,0.18068878105823086,-0.23869422767653115,0.09496750169000001,1.6978594723941938,0.4708493781917078,-1.2837190975263018, ,0.01611974546602187,0.010199977730675023,0.006001812931424266,0.0014990492929709662,0.01871921620491463,-0.015045886654619875, ,1.3627541065216064
0.011270201552808234,0.021198238842901646,-0.084332935967347, ,0.011534964258016821,0.021050893608756463,-0.08460304291420753, ,0.00040591584206209976, ,0.0022663386932337973,0.0002886858292895601,-0.005027306281811108,-0.0037798377202554762,-0.008092574684531239,-0.0033651820135047147, ,0.005522086474478528, ,0.008931793493185606, ,4.4685518464980634e-05, ,0.1810208585718225,-0.23847026842317864,0.09507768634000001,1.6978594723941938,0.47112265119123864,-1.283860254593554, ,0.016350265602768914,0.011220639802417574,0.005232855295663601,0.0014990492929709662,0.008217093519857426,-0.0066247008679843865, ,1.376664161682129
0.011291600140895808,0.021201258091383162,-0.08438426373503523, ,0.011567537105644846,0.02105481171274459,-0.08467626453357432, ,0.00042761222699863783, ,0.002192298681693299,0.0002552330736873923,-0.004979975492031983,0.02248577277876929,0.019653891379170316,-0.0032451305965771893, ,0.0054471527730455, ,0.02986445078583808, ,4.511090312055092e-05, ,0.18119848142792966,-0.23835442743006527,0.09513213052000001,1.6978594723941938,0.471532560690535,-1.2841128295645028, ,0.018512864135480058,0.011757673320737747,0.005286694829074013,0.0014990492929709662,0.039310674597577436,-0.03203486574585011, ,1.3911089897155762
0.011316041443303178,0.0212042587499634,-0.08443624866127825, ,0.011600256467663904,0.021058532908264607,-0.08474936010792611, ,0.00044727282393759076, ,0.0022456490893783543,0.00031193790566085125,-0.005046363426249447,0.01161053481879413,0.009788037109655525,-0.0025711710826356255, ,0.005532271587639382, ,0.015185854798654794, ,4.5662203144219075e-05, ,0.18138382701691105,-0.2382385864369519,0.09518657470000001,1.6978594723941938,0.4716691971903004,-1.2841425687280585, ,0.01793893035131773,0.011196624120719907,0.005330927550200804,0.0014990492929709662,0.028451513005879638,-0.020990017073204425, ,1.4032461643218994
0.011367415541218059,0.02121047524164613,-0.08454491903353903, ,0.01163312130573641,0.02106205868409871,-0.08482233038683029, ,0.00041180588483823025, ,0.0025115112678401573,0.00046273260582968404,-0.0054060625830311265,0.00525771544349866,-0.005447972802939847,-0.004342662255358926, ,0.005978906502416239, ,0.007571259784797583, ,4.6131787308689064e-05, ,0.18174679546199962,-0.23799918171785095,0.09529935193000001,1.6978594723941938,0.4716691971903004,-1.284060889987918, ,0.018787753228760792,0.010395114474437226,0.005692927634024303,0.0014990492929709662,0.013511237675521613,-0.01479024285806668, ,1.4148931503295898
0.011394453523536258,0.021214564332460644,-0.08460703666030159, ,0.011666130584557155,0.021065390525041465,-0.08489517611713615, ,0.00042318506222432185, ,0.0028584134903704658,0.00047420772991047856,-0.006562829992257357,-0.00922927084848001,-0.018689280536666707,-0.004976004308422526, ,0.007173990393101417, ,0.020843911226019984, ,4.661686436761095e-05, ,0.1819398637838552,-0.23786789525898913,0.09536416643000001,1.6978594723941938,0.4718058336900659,-1.2841723078916143, ,0.019032679815176652,0.0133113959262829,0.0068042765997437,0.0014990492929709662,0.0,-0.003773442353710579, ,1.4256420135498047
0.011416637800841943,0.021220009528061988,-0.08466570449653793, ,0.011699283271850004,0.02106852991190292,-0.08496789804297847, ,0.0004406307704908684, ,0.0028614512537295644,0.0008947282069125183,-0.007355790184117355,0.008292439634210341,-0.0017565780123900833,-0.0044432674193117545, ,0.007943304795516323, ,0.008476443821883452, ,4.7129290401926324e-05, ,0.18210976390708816,-0.23775977699874998,0.09542638835000002,1.6978594723941938,0.47221574318936216,-1.2845065616027036, ,0.019013612814760723,0.010942535936147626,0.007736188207867897,0.0014990492929709662,0.017582680825432608,-0.01818576252858514, ,1.4379520416259766
0.011416637800841943,0.021220009528061988,-0.08466570449653793, ,0.011732578338364306,0.021071478321514847,-0.08504049690578229, ,0.0005122004418149793, ,0.0028614512537295644,0.0008947282069125183,-0.007355790184117355,0.008292439634210341,-0.0017565780123900833,-0.0044432674193117545, ,0.007943304795516323, ,0.008476443821883452, ,4.777665696234087e-05, ,0.18210976390708816,-0.23775977699874998,0.09542638835000002,1.6978594723941938,0.47221574318936216,-1.2845065616027036, ,0.019013612814760723,0.010942535936147626,0.007736188207867897,0.0014990492929709662,0.017582680825432608,-0.01818576252858514, ,1.4497401714324951
0.011486682529865119,0.02123858009944771,-0.08484303952279257, ,0.011766014757871573,0.021074237226732854,-0.08511297344426516, ,0.0004217812174300713, ,0.002734301741184679,0.0006325715518273235,-0.006627557572970246,0.00836321304258236,0.002306465134440597,-0.003622608019718459, ,0.007197296170303265, ,0.008675430884114215, ,4.823434464008036e-05, ,0.18256540514666741,-0.23746631314952946,0.09561175782,1.6978594723941938,0.4724890161888931,-1.2844843611896748, ,0.01945406756016211,0.011863600644889458,0.0069740856042031524,0.0014990492929709662,0.022255967369619496,-0.018805079432353763, ,1.4608290195465088
0.011514320953512448,0.021242543374507223,-0.08490777526336703, ,0.011799591507161977,0.021076808096441656,-0.0851853283944417, ,0.0004311417536545699, ,0.0029735690224468236,0.0003158024676827077,-0.006436602947253224,-0.013999598603801136,-0.020135285494122527,-0.004155152509021992, ,0.007097302405170484, ,0.024523834772510057, ,4.870325089026589e-05, ,0.18275847346852303,-0.23732730395779342,0.09567916490000002,1.6978594723941938,0.4726256526886585,-1.2845957790933713, ,0.02048724990467849,0.014680838731199068,0.006661987252195735,0.0014990492929709662,0.0,-0.000180268737115131, ,1.4719610214233398
0.011542768144002364,0.02124649143737543,-0.08497186479683458, ,0.01183330756604097,0.021079192395558763,-0.08525756248962646, ,0.00044048302670807475, ,0.0029726700431149406,0.0005266744440335691,-0.006678746113610211,0.007946346438248769,-0.009700568547484283,-0.007125132597185783, ,0.007329379428389183, ,0.012539754326646502, ,4.91830751542249e-05, ,0.1829747099890013,-0.23718829476605738,0.09574657198000001,1.6978594723941938,0.47289892568818936,-1.2847369361606233, ,0.02099954449180588,0.013098266605724053,0.006989386362439668,0.0014990492929709662,0.011409774079869522,-0.020575356026586684, ,1.4828331470489502
0.011570944748499203,0.021250728679876422,-0.08503672364279635, ,0.011867161917325706,0.02108139158503903,-0.08532967646043825, ,0.0004497121481124167, ,0.00255145478256761,0.0002591666001210361,-0.005654780010669743,0.04418098688037429,0.03052949740506983,-0.006805964563403079, ,0.006209156609651227, ,0.05370297764321792, ,4.967334617650303e-05, ,0.1831986692423538,-0.2370492855743213,0.09581527535,1.6978594723941938,0.47330883518748573,-1.2850711898717129, ,0.022360259556661353,0.01362874358156984,0.0060473847835990895,0.0014990492929709662,0.05463728506546336,-0.055393863653870876, ,1.4944751262664795
0.011597651077166333,0.021252256349135485,-0.08508871319937124, ,0.01190115354684192,0.021083407121879352,-0.0854016710348036, ,0.0004675108741010042, ,0.0028018006285111794,0.00017442296377219614,-0.005470386070037874,0.006893436483156814,-0.004161681423239067,-0.0051878460563633865, ,0.006148628618438515, ,0.008052270109543552, ,5.019030288687801e-05, ,0.18340718302995787,-0.23691799911545952,0.09586971953000001,1.6978594723941938,0.47344547168725115,-1.2852642865155497, ,0.022198114984437606,0.013765149631341858,0.005746324502164502,0.0014965996418967852,0.018394294870986445,-0.01955738140267497, ,1.5054571628570557
0.011630386929117045,0.021253851550088736,-0.08515250757327998, ,0.011935281443420116,0.021085240459120875,-0.08547354693795925, ,0.00047376854952935156, ,0.0029620071182839018,0.00013510162354227166,-0.006168481008388362,-0.0011538212552773665,-0.009889610263881238,-0.005468185264170271, ,0.006844114009007752, ,0.009956690500853113, ,5.08082716074683e-05, ,0.18364658774905884,-0.2367558217251008,0.09593583032000001,1.6978594723941938,0.47344547168725115,-1.2852642865155497, ,0.021931347713998333,0.016005556005813926,0.0064074060820595346,0.0014774809452072987,0.012167567175397066,-0.013967192143787537, ,1.51350998878479
0.011660819583742335,0.021255484526952643,-0.0852133711715145, ,0.011969544598892304,0.02108689304585555,-0.08554530489245776, ,0.0004836467901031747, ,0.0032100688077384473,0.0002529404665402408,-0.006216872747405784,-0.010932949614785878,-0.0231624134351425,-0.005148208831403515, ,0.007001287552119658, ,0.02561301962153719, ,5.1437971180245425e-05, ,0.18387826973528557,-0.2366013670676163,0.09599934853000001,1.6978594723941938,0.47358210818701657,-1.2853757044192462, ,0.023495157602988554,0.014776851690823852,0.006469866580016247,0.0014602234563514105,0.0,-0.003496821582256421, ,1.5216920375823975
0.011691971415261015,0.021258866731430216,-0.08528392680884384, ,0.012003942008088611,0.021088366327228707,-0.08561694561816936, ,0.00048713198004921823, ,0.003423711924016867,0.0004607469591345004,-0.007705273897936624,-0.0015605700118319886,-0.010706571701173628,-0.005250046248956805, ,0.008444248749369622, ,0.010819705596435414, ,5.20671168636263e-05, ,0.18409450625576387,-0.23645463514300605,0.09606675561000001,1.6978594723941938,0.47385538118654746,-1.2855985402266392, ,0.02373610344133836,0.016268976780125285,0.007901196190476193,0.0014442787998119287,0.013461906376248646,-0.014070408421832051, ,1.530992031097412
0.011691971415261015,0.021258866731430216,-0.08528392680884384, ,0.012038472668833712,0.021089661744443548,-0.08568846983228647, ,0.0005588814759541716, ,0.003423711924016867,0.0004607469591345004,-0.007705273897936624,-0.0015605700118319886,-0.010706571701173628,-0.005250046248956805, ,0.008444248749369622, ,0.010819705596435414, ,5.282403439250467e-05, ,0.18409450625576387,-0.23645463514300605,0.09606675561000001,1.6978594723941938,0.47385538118654746,-1.2855985402266392, ,0.02373610344133836,0.016268976780125285,0.007901196190476193,0.0014442787998119287,0.013461906376248646,-0.014070408421832051, ,1.5393941402435303
0.011703052778647343,0.021260543447532414,-0.08531188177349416, ,0.012073135581943572,0.021090780734766473,-0.0857598782493269, ,0.0006053771570680559, ,0.0031696209519516527,0.0005204610601953857,-0.008088173790989693,0.030635861107059285,0.026341398091863606,-0.005082726554987825, ,0.008702639367886227, ,0.04040328210171814, ,5.365937094183279e-05, ,0.184202624516003,-0.23637740781426378,0.09610305173000001,1.6978594723941938,0.47412865418607836,-1.2858213760340318, ,0.02383147703628096,0.01724771747700305,0.00852720102783726,0.001436988039181745,0.05180439280843615,-0.04517694414067071, ,1.547652006149292
0.01177535849766199,0.02127357798869392,-0.08547936652472826, ,0.01210792975122177,0.021091724731529198,-0.08583117158113772, ,0.0005171470231481607, ,0.003769181731236349,0.000740569602173653,-0.008716843808586843,0.00432953370529945,-0.006055423966426183,-0.004922061768785933, ,0.009525677941335632, ,0.007443988930139522, ,5.4321394938715056e-05, ,0.18469687941995339,-0.23605305303354637,0.09627805088000001,1.6978594723941938,0.4744019271856092,-1.2860442118414248, ,0.026338312949894745,0.016305316418981235,0.009149231200459506,0.0014054907557288006,0.020745535744859614,-0.01929785514803933, ,1.5558230876922607
0.011814662866917874,0.02128080713156388,-0.08556638423622497, ,0.012142854183456295,0.021092495164134493,-0.08590235053689872, ,0.0005060081941201717, ,0.004135000222905918,0.0005769916720274151,-0.009370378377041877,-0.004500853894498466,-0.013999600447399597,-0.005537083493907293, ,0.010258417868363276, ,0.01470531965736, ,5.495548737735466e-05, ,0.184959452337677,-0.23589087564318764,0.09636879118000001,1.6978594723941938,0.4744019271856092,-1.2860442118414248, ,0.028497580047588827,0.01983631721539941,0.00976628541998774,0.0013907069720175797,0.01473698161458881,-0.014195905035812466, ,1.563884973526001
0.01184531793514992,0.021284078453977763,-0.08563699755285356, ,0.012177907888415985,0.021093093458060336,-0.0859734158231261, ,0.0005101652656270062, ,0.004198998130518385,0.0004817519738936648,-0.00910380866447597,-0.007046066040118386,-0.01737069388854491,-0.005561730253569096, ,0.010037081371785082, ,0.018745345829760722, ,5.559022782495566e-05, ,0.18518341159102952,-0.23572869825282894,0.09644267971,1.6978594723941938,0.47467520018514014,-1.2862670476488176, ,0.02951693361072186,0.02014797060689401,0.009487082501488983,0.001378746515009222,0.01229499612681338,-0.01206005529510517, ,1.5722990036010742
0.011891646893328278,0.021291310769086844,-0.08574726071637462, ,0.012213089878847071,0.021093521034863175,-0.08604436814367614, ,0.00048033237998414336, ,0.0037591609262170025,0.0005338483904309862,-0.008883677959904355,0.03034778294498991,0.024357687803097956,-0.0050845302673383835, ,0.009661056829791077, ,0.03891381283630504, ,5.6163466758245015e-05, ,0.18553865730324384,-0.2354970162666022,0.09655934581000002,1.6978594723941938,0.4753583826839673,-1.2868241371672995, ,0.028870380760106718,0.01924887252707318,0.009391987924528302,0.0013600427891739114,0.054989291010816045,-0.046679371367103845, ,1.5808219909667969
0.011891646893328278,0.021291310769086844,-0.08574726071637462, ,0.012248399170469685,0.021093779312181947,-0.08611520819974819, ,0.0005492505932937119, ,0.0037591609262170025,0.0005338483904309862,-0.008883677959904355,0.03034778294498991,0.024357687803097956,-0.0050845302673383835, ,0.009661056829791077, ,0.03891381283630504, ,5.6855758018279524e-05, ,0.18553865730324384,-0.2354970162666022,0.09655934581000002,1.6978594723941938,0.4753583826839673,-1.2868241371672995, ,0.028870380760106718,0.01924887252707318,0.009391987924528302,0.0013600427891739114,0.054989291010816045,-0.046679371367103845, ,1.5894641876220703
0.01193569876700887,0.021294978116842514,-0.08583931646642712, ,0.012283834781974784,0.021093869703744692,-0.08618593668988962, ,0.0005308378830191643, ,0.00410438339735583,0.0002772756270193068,-0.008721606157567995,0.0032245637747213463,-0.005000766412576563,-0.005600699572852054, ,0.009643093840337607, ,0.0059502458593170314, ,5.750724194045732e-05, ,0.18585528935108706,-0.2352807797461239,0.09665527127000001,1.6978594723941938,0.47549501918373277,-1.286935555070996, ,0.03038646863863938,0.021406934707527806,0.009112592402745997,0.0013444977772521824,0.026059824762967577,-0.02294892204926851, ,1.5978059768676758
0.01197916095934068,0.021295516141826606,-0.08592198219938171, ,0.012319395735020186,0.021093793619369177,-0.08625655430999787, ,0.0005180638723655833, ,0.00416544693091094,7.409768583317098e-05,-0.007938748666256986,-0.005261373753634899,-0.015710204487938476,-0.005625254568480735, ,0.008965498814192008, ,0.016567816612204682, ,5.823345705484411e-05, ,0.18617192139893027,-0.2350568204927714,0.09674082641000001,1.6978594723941938,0.47549501918373277,-1.286935555070996, ,0.0317912702038428,0.021474754822011943,0.008283313322932919,0.001329931193488101,0.016394802510351286,-0.014951211505777747, ,1.6035141944885254
0.01197916095934068,0.021295516141826606,-0.08592198219938171, ,0.012355081054227505,0.021093552464969627,-0.086327061753325, ,0.0005883831145879344, ,0.00416544693091094,7.409768583317098e-05,-0.007938748666256986,-0.005261373753634899,-0.015710204487938476,-0.005625254568480735, ,0.008965498814192008, ,0.016567816612204682, ,5.908070337527184e-05, ,0.18617192139893027,-0.2350568204927714,0.09674082641000001,1.6978594723941938,0.47549501918373277,-1.286935555070996, ,0.0317912702038428,0.021474754822011943,0.008283313322932919,0.001329931193488101,0.016394802510351286,-0.014951211505777747, ,1.60899019241333
0.01197916095934068,0.021295516141826606,-0.08592198219938171, ,0.012390889767178576,0.021093147642560095,-0.08639745971048118, ,0.0006607211849640828, ,0.00416544693091094,7.409768583317098e-05,-0.007938748666256986,-0.005261373753634899,-0.015710204487938476,-0.005625254568480735, ,0.008965498814192008, ,0.016567816612204682, ,6.0051293318408765e-05, ,0.18617192139893027,-0.2350568204927714,0.09674082641000001,1.6978594723941938,0.47549501918373277,-1.286935555070996, ,0.0317912702038428,0.021474754822011943,0.008283313322932919,0.001329931193488101,0.016394802510351286,-0.014951211505777747, ,1.6171870231628418
0.012069737041069927,0.021297713122171685,-0.08611286168190478, ,0.012426820904411951,0.02109258055025786,-0.08646774886943803, ,0.0005436296288784369, ,0.003992173520324444,0.0003592387348110365,-0.009247529400925032,0.06056685399795509,0.056990532336490984,-0.005359880262880445, ,0.010078854196085047, ,0.08316408185976631, ,6.080624348283233e-05, ,0.18689785828910735,-0.2345548428559468,0.0969365662,1.6978594723941938,0.4768613841813871,-1.2880497341079602, ,0.03407430576605773,0.02276798022036247,0.009881396724565759,0.001299754269990339,0.10111130265192876,-0.08382753406861565, ,1.622892141342163
0.012069737041069927,0.021297713122171685,-0.08611286168190478, ,0.012462873499419758,0.021091852582289825,-0.08653792991553261, ,0.0006145061757246866, ,0.003992173520324444,0.0003592387348110365,-0.009247529400925032,0.06056685399795509,0.056990532336490984,-0.005359880262880445, ,0.010078854196085047, ,0.08316408185976631, ,6.168172072751976e-05, ,0.18689785828910735,-0.2345548428559468,0.0969365662,1.6978594723941938,0.4768613841813871,-1.2880497341079602, ,0.03407430576605773,0.02276798022036247,0.009881396724565759,0.001299754269990339,0.10111130265192876,-0.08382753406861565, ,1.6282951831817627
0.01211202073348994,0.02130219055633257,-0.08620462633595766, ,0.012499046588643859,0.02109096512899411,-0.08660800353147062, ,0.0005975938048305389, ,0.005005929139547004,0.0005236491620824762,-0.010913877755857629,0.02828873797335441,0.018106309225826418,-0.006261138295971145, ,0.012018579893852662, ,0.03358706559171221, ,6.252106650340559e-05, ,0.18726082673419592,-0.2343308836025943,0.0970402694,1.6978594723941938,0.47754456668021433,-1.288525144886302, ,0.03859168017831264,0.024855144462669142,0.01153425888486604,0.0012863492000623222,0.05859798651756089,-0.05001094385824755, ,1.6337721347808838
0.01211202073348994,0.02130219055633257,-0.08620462633595766, ,0.01253533921147261,0.02108991957682546,-0.08667797039732994, ,0.0006695611271414122, ,0.005005929139547004,0.0005236491620824762,-0.010913877755857629,0.02828873797335441,0.018106309225826418,-0.006261138295971145, ,0.012018579893852662, ,0.03358706559171221, ,6.348141746307862e-05, ,0.18726082673419592,-0.2343308836025943,0.0970402694,1.6978594723941938,0.47754456668021433,-1.288525144886302, ,0.03859168017831264,0.024855144462669142,0.01153425888486604,0.0012863492000623222,0.05859798651756089,-0.05001094385824755, ,1.6394681930541992
0.012170378717008675,0.02131073718277826,-0.08633591725101951, ,0.01257175041023755,0.021088717308359733,-0.08674783119056502, ,0.0006164942451914172, ,0.005984860244642947,0.000983768375522099,-0.013928818572289206,-0.01791976453669257,-0.02676572569286698,-0.0039399658464887655, ,0.015192048551276215, ,0.03221058069371779, ,6.434175386073284e-05, ,0.1876624088436556,-0.23405286521912222,0.09717767614000002,1.698069162337678,0.4778178396797452,-1.2886663019535542, ,0.03884442961869455,0.027316333206237994,0.014507114316939893,-0.0005318041113386714,0.012672299792693869,-0.008364529953256948, ,1.6457750797271729
0.012170378717008675,0.02131073718277826,-0.08633591725101951, ,0.012608279230209744,0.02108735970229725,-0.08681758658600941, ,0.0006882293996317042, ,0.005984860244642947,0.000983768375522099,-0.013928818572289206,-0.01791976453669257,-0.02676572569286698,-0.0039399658464887655, ,0.015192048551276215, ,0.03221058069371779, ,6.53216941267753e-05, ,0.1876624088436556,-0.23405286521912222,0.09717767614000002,1.698069162337678,0.4778178396797452,-1.2886663019535542, ,0.03884442961869455,0.027316333206237994,0.014507114316939893,-0.0005318041113386714,0.012672299792693869,-0.008364529953256948, ,1.651313066482544
0.012224904210148055,0.021319920723806042,-0.08646057152462132, ,0.012644924719596405,0.02108584813346787,-0.08688723725588049, ,0.0006428459007692251, ,0.006227644616308438,0.0010025117681731538,-0.013899724032171207,-0.020267174249732386,-0.03211873958579852,-0.003907557835384511, ,0.01526403994632086, ,0.037978563240496824, ,6.621559030917612e-05, ,0.1880099318229957,-0.23381346050002125,0.09730730514000001,1.698069162337678,0.4778178396797452,-1.2886663019535542, ,0.04124160867382476,0.027020769236466628,0.014507114316939893,-0.0005318041113386714,0.009601079020613239,-0.005860155347631412, ,1.6574501991271973
0.012257307895655904,0.02132513940660983,-0.08653438906750553, ,0.012681685929537561,0.02108418397283415,-0.08695678386978187, ,0.0006454251356256211, ,0.006379762777723893,0.0010645562654297744,-0.014085122935119368,-0.009410849624016475,-0.027344220306554486,-0.005373547197650964, ,0.015499204535708364, ,0.028918331909790092, ,6.710775370918876e-05, ,0.1882416138092224,-0.233666728575411,0.09738508254000001,1.698069162337678,0.4780911126792762,-1.2888074590208065, ,0.04311537553769685,0.026905852440734554,0.014748899555555556,-0.0005315926166664714,0.01652465361764108,-0.016530359064125, ,1.663074016571045
0.012257307895655904,0.02132513940660983,-0.08653438906750553, ,0.012718561914102498,0.02108236858749639,-0.0870262270947081, ,0.0007166572298865447, ,0.006379762777723893,0.0010645562654297744,-0.014085122935119368,-0.009410849624016475,-0.027344220306554486,-0.005373547197650964, ,0.015499204535708364, ,0.028918331909790092, ,6.811718477065872e-05, ,0.1882416138092224,-0.233666728575411,0.09738508254000001,1.698069162337678,0.4780911126792762,-1.2888074590208065, ,0.04311537553769685,0.026905852440734554,0.014748899555555556,-0.0005315926166664714,0.01652465361764108,-0.016530359064125, ,1.6687591075897217
0.012351941244811595,0.021335640632352253,-0.08674342452600392, ,0.01275555173028637,0.02108040334069645,-0.08709556759504755, ,0.0005933399026801083, ,0.0058066490676830776,2.5379172606282148e-05,-0.011369619986057723,0.005573929792123779,-0.00568128000252094,-0.005670441419331431, ,0.012766600022127667, ,0.007958985224575136, ,6.89066589211575e-05, ,0.18892893703502842,-0.23321108733583173,0.09760156297000001,1.698069162337678,0.47904756817763416,-1.2894240268664001, ,0.044448216186637364,0.030991816315633827,0.011949596039009755,-0.0005239041519127148,0.04183342070741704,-0.03569590275941161, ,1.6744370460510254
0.012351941244811595,0.021335640632352253,-0.08674342452600392, ,0.012792654438006748,0.021078289591821647,-0.0871648060325863, ,0.0006618308324701223, ,0.0058066490676830776,2.5379172606282148e-05,-0.011369619986057723,0.005573929792123779,-0.00568128000252094,-0.005670441419331431, ,0.012766600022127667, ,0.007958985224575136, ,6.980858235425184e-05, ,0.18892893703502842,-0.23321108733583173,0.09760156297000001,1.698069162337678,0.47904756817763416,-1.2894240268664001, ,0.044448216186637364,0.030991816315633827,0.011949596039009755,-0.0005239041519127148,0.04183342070741704,-0.03569590275941161, ,1.6798579692840576
0.012410240059974625,0.021333716613805145,-0.08685376377530098, ,0.01282986910010019,0.02107602869640962,-0.08723394306651175, ,0.0006221156544838503, ,0.0063585358564018065,-6.897679955215571e-06,-0.011632209420269508,-0.005674855510635808,-0.020701089890583765,-0.005639252543326753, ,0.013256670841962656, ,0.021464829250619176, ,7.063619554426099e-05, ,0.1894000237403561,-0.2328867325551143,0.09772082165000001,1.6978594723941938,0.47945747767693053,-1.289676601837349, ,0.04896643011273001,0.03215755389985455,0.012187307972456008,-0.0005458859210476548,0.029491488726263813,-0.024753320575269126, ,1.685577154159546
0.012410240059974625,0.021333716613805145,-0.08685376377530098, ,0.012867194782318816,0.021073622006151687,-0.08730297935341597, ,0.0006915572708201731, ,0.0063585358564018065,-6.897679955215571e-06,-0.011632209420269508,-0.005674855510635808,-0.020701089890583765,-0.005639252543326753, ,0.013256670841962656, ,0.021464829250619176, ,7.15768534583322e-05, ,0.1894000237403561,-0.2328867325551143,0.09772082165000001,1.6978594723941938,0.47945747767693053,-1.289676601837349, ,0.04896643011273001,0.03215755389985455,0.012187307972456008,-0.0005458859210476548,0.029491488726263813,-0.024753320575269126, ,1.6911170482635498
0.01247248046033774,0.021334445418315792,-0.08696769685204597, ,0.01290463055332689,0.021071070868897885,-0.08737191554730003, ,0.0006476979309404284, ,0.005990154940536037,4.3311040277268777e-05,-0.010948306634847513,0.032094415742437134,0.018372538941794983,-0.005138531033953093, ,0.012479953935351054, ,0.036981097221607445, ,7.255999522877947e-05, ,0.1899020013771807,-0.23257782324014534,0.09784137662,1.6978594723941938,0.48000402367599226,-1.2901222734521347, ,0.049972059799089405,0.030106897702560524,0.011652385896122898,-0.0005458859210476548,0.07111562443330395,-0.05869501222878134, ,1.6939761638641357
0.01247248046033774,0.021334445418315792,-0.08696769685204597, ,0.01294217548469724,0.021068376628660294,-0.08744075229957653, ,0.0007177656115858059, ,0.005990154940536037,4.3311040277268777e-05,-0.010948306634847513,0.032094415742437134,0.018372538941794983,-0.005138531033953093, ,0.012479953935351054, ,0.036981097221607445, ,7.365915300792261e-05, ,0.1899020013771807,-0.23257782324014534,0.09784137662,1.6978594723941938,0.48000402367599226,-1.2901222734521347, ,0.049972059799089405,0.030106897702560524,0.011652385896122898,-0.0005458859210476548,0.07111562443330395,-0.05869501222878134, ,1.6969571113586426
0.01247248046033774,0.021334445418315792,-0.08696769685204597, ,0.012979828650908003,0.021065540625617576,-0.08750949025907383, ,0.0007894631529779222, ,0.005990154940536037,4.3311040277268777e-05,-0.010948306634847513,0.032094415742437134,0.018372538941794983,-0.005138531033953093, ,0.012479953935351054, ,0.036981097221607445, ,7.487650674936818e-05, ,0.1899020013771807,-0.23257782324014534,0.09784137662,1.6978594723941938,0.48000402367599226,-1.2901222734521347, ,0.049972059799089405,0.030106897702560524,0.011652385896122898,-0.0005458859210476548,0.07111562443330395,-0.05869501222878134, ,1.7003381252288818
0.012527635588743565,0.021332500342612155,-0.0870679180858035, ,0.013017589129339193,0.021062564196119984,-0.08757813007204004, ,0.0007571236794769252, ,0.006561992439808933,-0.0002715398045897605,-0.012093614319142722,0.010588873731099565,0.007661521714928683,-0.003741769202034626, ,0.013761867095193156, ,0.01306992361075381, ,7.603482113430462e-05, ,0.19036536534963416,-0.23227663665805057,0.0979476724,1.6978594723941938,0.48068720617481947,-1.2907610417107573, ,0.0530446850522475,0.03644275789495806,0.012732862925659475,-0.0005458859210476548,0.06314910830884649,-0.043352612467450674, ,1.7045931816101074
0.012527635588743565,0.021332500342612155,-0.0870679180858035, ,0.013055456000269049,0.021059448672691723,-0.08764667238214584, ,0.0008295228368188455, ,0.006561992439808933,-0.0002715398045897605,-0.012093614319142722,0.010588873731099565,0.007661521714928683,-0.003741769202034626, ,0.013761867095193156, ,0.01306992361075381, ,7.731191946597332e-05, ,0.19036536534963416,-0.23227663665805057,0.0979476724,1.6978594723941938,0.48068720617481947,-1.2907610417107573, ,0.0530446850522475,0.03644275789495806,0.012732862925659475,-0.0005458859210476548,0.06314910830884649,-0.043352612467450674, ,1.7076029777526855
0.012527635588743565,0.021332500342612155,-0.0870679180858035, ,0.013093428346870759,0.02105619538403651,-0.08771511783048842, ,0.0009029581301493989, ,0.006561992439808933,-0.0002715398045897605,-0.012093614319142722,0.010588873731099565,0.007661521714928683,-0.003741769202034626, ,0.013761867095193156, ,0.01306992361075381, ,0.00043071287606549687, ,0.19036536534963416,-0.23227663665805057,0.0979476724,1.6978594723941938,0.48068720617481947,-1.2907610417107573, ,0.0530446850522475,0.03644275789495806,0.012732862925659475,-0.0005458859210476548,0.06314910830884649,-0.043352612467450674, ,1.710576057434082
0.012612635865104003,0.021332306439657733,-0.08723605926619243, ,0.013131505255209062,0.021052805655041525,-0.0877834670555952, ,0.000804363985076342, ,0.007702931199898809,0.000493370720706021,-0.016407321234831355,0.014168940704172638,0.010527690998125162,-0.004504081571452046, ,0.01813225727374759, ,0.017651911211322997, ,0.0004341408678912844, ,0.19101407491106903,-0.2318132726855971,0.09812396784,1.6978594723941938,0.4813703886736467,-1.2913181312292394, ,0.05689265081443092,0.03942540156147519,0.017257650617551468,-0.0005458859210476548,0.07011759904775547,-0.049585102423853826, ,1.7136759757995605
0.012612635865104003,0.021332306439657733,-0.08723605926619243, ,0.013169685814236776,0.021049280806781992,-0.08785172069342766, ,0.0008771813653280887, ,0.007702931199898809,0.000493370720706021,-0.016407321234831355,0.014168940704172638,0.010527690998125162,-0.004504081571452046, ,0.01813225727374759, ,0.017651911211322997, ,0.0004381685087770736, ,0.19101407491106903,-0.2318132726855971,0.09812396784,1.6978594723941938,0.4813703886736467,-1.2913181312292394, ,0.05689265081443092,0.03942540156147519,0.017257650617551468,-0.0005458859210476548,0.07011759904775547,-0.049585102423853826, ,1.716569185256958
0.012612635865104003,0.021332306439657733,-0.08723605926619243, ,0.013207969115791121,0.02104562215652313,-0.0879198793773836, ,0.0009509045704168188, ,0.007702931199898809,0.000493370720706021,-0.016407321234831355,0.014168940704172638,0.010527690998125162,-0.004504081571452046, ,0.01813225727374759, ,0.017651911211322997, ,0.00044278775257562984, ,0.19101407491106903,-0.2318132726855971,0.09812396784,1.6978594723941938,0.4813703886736467,-1.2913181312292394, ,0.05689265081443092,0.03942540156147519,0.017257650617551468,-0.0005458859210476548,0.07011759904775547,-0.049585102423853826, ,1.7193150520324707
0.012612635865104003,0.021332306439657733,-0.08723605926619243, ,0.01324635425459069,0.021041831017727483,-0.08798794373830301, ,0.0010253317645134011, ,0.007702931199898809,0.000493370720706021,-0.016407321234831355,0.014168940704172638,0.010527690998125162,-0.004504081571452046, ,0.01813225727374759, ,0.017651911211322997, ,0.0004479890383965028, ,0.19101407491106903,-0.2318132726855971,0.09812396784,1.6978594723941938,0.4813703886736467,-1.2913181312292394, ,0.05689265081443092,0.03942540156147519,0.017257650617551468,-0.0005458859210476548,0.07011759904775547,-0.049585102423853826, ,1.7221250534057617
0.012699274973811566,0.021341821277914057,-0.08743219674560725, ,0.013284840328231812,0.02103790870005729,-0.08805591440446961, ,0.0009078950144447323, ,0.009083738556699876,0.0012537903436409953,-0.02115046885901638,0.041128009899925815,0.03695334582776416,-0.005521109940996603, ,0.023052735832184975, ,0.05529067492502882, ,0.0004520590027863101, ,0.19160872534238432,-0.23141169057613745,0.09831581876,1.6978594723941938,0.4823268441720048,-1.2920980565551146, ,0.06477606932318823,0.043751471442356284,0.022031551203319507,-0.0005458859210476548,0.10355365625352053,-0.07737944342876615, ,1.7249221801757812
0.012699274973811566,0.021341821277914057,-0.08743219674560725, ,0.013323426437184994,0.021033856509378838,-0.08812379200161576, ,0.000981178549512584, ,0.009083738556699876,0.0012537903436409953,-0.02115046885901638,0.041128009899925815,0.03695334582776416,-0.005521109940996603, ,0.023052735832184975, ,0.05529067492502882, ,0.0004567004023189968, ,0.19160872534238432,-0.23141169057613745,0.09831581876,1.6978594723941938,0.4823268441720048,-1.2920980565551146, ,0.06477606932318823,0.043751471442356284,0.022031551203319507,-0.0005458859210476548,0.10355365625352053,-0.07737944342876615, ,1.727658987045288
0.012699274973811566,0.021341821277914057,-0.08743219674560725, ,0.013362111684791674,0.02102967574776683,-0.08819157715292539, ,0.0010551994789765999, ,0.009083738556699876,0.0012537903436409953,-0.02115046885901638,0.041128009899925815,0.03695334582776416,-0.005521109940996603, ,0.023052735832184975, ,0.05529067492502882, ,0.0004619047421160194, ,0.19160872534238432,-0.23141169057613745,0.09831581876,1.6978594723941938,0.4823268441720048,-1.2920980565551146, ,0.06477606932318823,0.043751471442356284,0.022031551203319507,-0.0005458859210476548,0.10355365625352053,-0.07737944342876615, ,1.7304151058197021
0.012699274973811566,0.021341821277914057,-0.08743219674560725, ,0.013400895177260636,0.02102536771350793,-0.08825927047903727, ,0.001129807385726936, ,0.009083738556699876,0.0012537903436409953,-0.02115046885901638,0.041128009899925815,0.03695334582776416,-0.005521109940996603, ,0.023052735832184975, ,0.05529067492502882, ,0.00046766252352645833, ,0.19160872534238432,-0.23141169057613745,0.09831581876,1.6978594723941938,0.4823268441720048,-1.2920980565551146, ,0.06477606932318823,0.043751471442356284,0.022031551203319507,-0.0005458859210476548,0.10355365625352053,-0.07737944342876615, ,1.733187198638916
0.012789329915126635,0.021356026506450958,-0.08765005803812723, ,0.013439776023664833,0.02102093370110693,-0.08832687259805029, ,0.000996717250191681, ,0.010054654493919835,0.001917264917098548,-0.02506206268353983,0.050253851592852165,0.046617342645963664,-0.0038388185467657125, ,0.02707173743423423, ,0.06854645394068958, ,0.00047218435879710125, ,0.1922728803695676,-0.2309560493365582,0.09856081757000001,1.6976497824507093,0.4834199361701283,-1.2929893997846857, ,0.0682711809773171,0.04667827917288282,0.026459819800664457,-0.0030724633476501353,0.11995627815301564,-0.09119500759086376, ,1.7360000610351562
0.012789329915126635,0.021356026506450958,-0.08765005803812723, ,0.01347875333593755,0.021016375001288067,-0.08839438412552517, ,0.001069901454575685, ,0.010054654493919835,0.001917264917098548,-0.02506206268353983,0.050253851592852165,0.046617342645963664,-0.0038388185467657125, ,0.02707173743423423, ,0.06854645394068958, ,0.00047724975791386894, ,0.1922728803695676,-0.2309560493365582,0.09856081757000001,1.6976497824507093,0.4834199361701283,-1.2929893997846857, ,0.0682711809773171,0.04667827917288282,0.026459819800664457,-0.0030724633476501353,0.11995627815301564,-0.09119500759086376, ,1.7387921810150146
0.012789329915126635,0.021356026506450958,-0.08765005803812723, ,0.013517826228869323,0.02101169290100127,-0.08846180567448851, ,0.0011437686549808927, ,0.010054654493919835,0.001917264917098548,-0.02506206268353983,0.050253851592852165,0.046617342645963664,-0.0038388185467657125, ,0.02707173743423423, ,0.06854645394068958, ,0.00048285075704888593, ,0.1922728803695676,-0.2309560493365582,0.09856081757000001,1.6976497824507093,0.4834199361701283,-1.2929893997846857, ,0.0682711809773171,0.04667827917288282,0.026459819800664457,-0.0030724633476501353,0.11995627815301564,-0.09119500759086376, ,1.741671085357666
0.01290052018806266,0.021375444175125404,-0.08792376349135303, ,0.013556993820104345,0.021006888683425935,-0.08852913785543802, ,0.0009660584354577865, ,0.011524777946857339,0.00202023600674431,-0.028091860124604903,0.05394385087710192,0.04770234061383911,-0.006128920653913769, ,0.03043114302006552, ,0.07200996356721333, ,0.00048687748770229346, ,0.19303743092411585,-0.23043862623398514,0.09884989024000002,1.6974400925072246,0.4847863011677827,-1.29410357882165, ,0.07855707082654866,0.053493202682339785,0.029662591284916204,-0.002297751574711584,0.13152447917299703,-0.10100030342932179, ,1.7448971271514893
0.01290052018806266,0.021375444175125404,-0.08792376349135303, ,0.013596255230136935,0.021001963627974338,-0.08859638127634335, ,0.0010372799296986532, ,0.011524777946857339,0.00202023600674431,-0.028091860124604903,0.05394385087710192,0.04770234061383911,-0.006128920653913769, ,0.03043114302006552, ,0.07200996356721333, ,0.0004914262682146601, ,0.19303743092411585,-0.23043862623398514,0.09884989024000002,1.6974400925072246,0.4847863011677827,-1.29410357882165, ,0.07855707082654866,0.053493202682339785,0.029662591284916204,-0.002297751574711584,0.13152447917299703,-0.10100030342932179, ,1.7477600574493408
0.01290052018806266,0.021375444175125404,-0.08792376349135303, ,0.013635609582308358,0.020996919010296558,-0.08866353654265205, ,0.0011094601774599548, ,0.011524777946857339,0.00202023600674431,-0.028091860124604903,0.05394385087710192,0.04770234061383911,-0.006128920653913769, ,0.03043114302006552, ,0.07200996356721333, ,0.0004964921199297855, ,0.19303743092411585,-0.23043862623398514,0.09884989024000002,1.6974400925072246,0.4847863011677827,-1.29410357882165, ,0.07855707082654866,0.053493202682339785,0.029662591284916204,-0.002297751574711584,0.13152447917299703,-0.10100030342932179, ,1.7507450580596924
0.013019462197780347,0.021394859365422104,-0.08820754590336757, ,0.013675056002803112,0.020991756102284445,-0.08873060425729219, ,0.0011824188289846196, ,0.012249900068435196,0.002027233749184648,-0.02800654127621741,0.03566617465471639,0.018591801731928703,0.0003661682625990678, ,0.03043114302006552, ,0.07200996540069413, ,0.0005020687598408004, ,0.19384831787590942,-0.22989803493278943,0.09914933323000001,1.6972304025637401,0.4860160296656717,-1.2949429824746366, ,0.08420314246536893,0.052574482857878545,0.02960745635687733,-0.009596463925357132,0.10887093997785868,-0.08426750796226384, ,1.7541241645812988
0.013019462197780347,0.021394859365422104,-0.08820754590336757, ,0.01371459362064571,0.020986476172075934,-0.08879758502067556, ,0.000999064906608187, ,0.012249900068435196,0.002027233749184648,-0.02800654127621741,0.03566617465471639,0.018591801731928703,0.0003661682625990678, ,0.030635536271084784, ,0.040220813960678524, ,0.0005060767932824729, ,0.19384831787590942,-0.22989803493278943,0.09914933323000001,1.6972304025637401,0.4860160296656717,-1.2949429824746366, ,0.08420314246536893,0.052574482857878545,0.02960745635687733,-0.009596463925357132,0.10887093997785868,-0.08426750796226384, ,1.7569820880889893
0.013019462197780347,0.021394859365422104,-0.08820754590336757, ,0.013754221567697164,0.020981080484058955,-0.08886447943070241, ,0.0010689461883927056, ,0.012249900068435196,0.002027233749184648,-0.02800654127621741,0.03566617465471639,0.018591801731928703,0.0003661682625990678, ,0.030635536271084784, ,0.040220813960678524, ,0.0005105797484433548, ,0.19384831787590942,-0.22989803493278943,0.09914933323000001,1.6972304025637401,0.4860160296656717,-1.2949429824746366, ,0.08420314246536893,0.052574482857878545,0.02960745635687733,-0.009596463925357132,0.10887093997785868,-0.08426750796226384, ,1.7597119808197021
0.013019462197780347,0.021394859365422104,-0.08820754590336757, ,0.013793938978651474,0.020975570298875826,-0.08893128808276453, ,0.001139921202396029, ,0.012249900068435196,0.002027233749184648,-0.02800654127621741,0.03566617465471639,0.018591801731928703,0.0003661682625990678, ,0.030635536271084784, ,0.040220813960678524, ,0.0005155745218874237, ,0.19384831787590942,-0.22989803493278943,0.09914933323000001,1.6972304025637401,0.4860160296656717,-1.2949429824746366, ,0.08420314246536893,0.052574482857878545,0.02960745635687733,-0.009596463925357132,0.10887093997785868,-0.08426750796226384, ,1.7624621391296387
0.013143779301335664,0.021407527587280997,-0.08847565875314584, ,0.013833744991032168,0.02096994687342674,-0.08899801156974799, ,0.0009697329524708198, ,0.012609419255209737,0.0005139085775235544,-0.025680177852858616,0.0025801207587405266,-0.007588691268645011,0.00022751088663983907, ,0.0286135123767453, ,0.008014617266075942, ,0.0005191505725219386, ,0.19469009575919988,-0.22934199816584527,0.09942285042000001,1.6972304025637401,0.4868358486642643,-1.295448132416534, ,0.09046419595659749,0.0621053282450725,0.027089815510204087,-0.009596463925357132,0.08667243285530124,-0.06315704665870495, ,1.765254020690918
0.013143779301335664,0.021407527587280997,-0.08847565875314584, ,0.01387363874518915,0.020964211460875314,-0.08906465048203825, ,0.0010373693905341228, ,0.012609419255209737,0.0005139085775235544,-0.025680177852858616,0.0025801207587405266,-0.007588691268645011,0.00022751088663983907, ,0.0286135123767453, ,0.008014617266075942, ,0.0005231991570376588, ,0.19469009575919988,-0.22934199816584527,0.09942285042000001,1.6972304025637401,0.4868358486642643,-1.295448132416534, ,0.09046419595659749,0.0621053282450725,0.027089815510204087,-0.009596463925357132,0.08667243285530124,-0.06315704665870495, ,1.7680110931396484
0.013143779301335664,0.021407527587280997,-0.08847565875314584, ,0.013913619384294872,0.020958365310651313,-0.08913120540752241, ,0.001106409472185646, ,0.012609419255209737,0.0005139085775235544,-0.025680177852858616,0.0025801207587405266,-0.007588691268645011,0.00022751088663983907, ,0.0286135123767453, ,0.008014617266075942, ,0.0005277201672326045, ,0.19469009575919988,-0.22934199816584527,0.09942285042000001,1.6972304025637401,0.4868358486642643,-1.295448132416534, ,0.09046419595659749,0.0621053282450725,0.027089815510204087,-0.009596463925357132,0.08667243285530124,-0.06315704665870495, ,1.770754098892212
0.013272327633610515,0.02140716158319207,-0.08872542157045396, ,0.013953686054341302,0.020952409668456438,-0.08919767693159444, ,0.0009455547195072334, ,0.012609419255209737,0.0005139085775235544,-0.025680177852858616,0.0025801207587405266,-0.007588691268645011,0.00022751088663983907, ,0.0286135123767453, ,0.008014617266075942, ,0.0005309342791731784, ,0.19469009575919988,-0.22934199816584527,0.09942285042000001,1.6972304025637401,0.4868358486642643,-1.295448132416534, ,0.09046419595659749,0.0621053282450725,0.027089815510204087,-0.009596463925357132,0.08667243285530124,-0.06315704665870495, ,1.7738800048828125
0.013272327633610515,0.02140716158319207,-0.08872542157045396, ,0.013993837904136096,0.020946345776266556,-0.08926406563715687, ,0.0010114671072163242, ,0.012626984253766734,-0.00037661159089439413,-0.023929682692914473,0.02403587392939771,0.016582090826813094,-0.0007694164987904654, ,0.027059421306059733, ,0.029200704188101743, ,0.0005346024687002253, ,0.19568632829997484,-0.22864695220716505,0.09969507132000001,1.6972304025637401,0.48806557716215326,-1.2962058573293802, ,0.09703163758534844,0.06763858984923077,0.02524375835182251,-0.009596463925357132,0.12003606101428801,-0.0866588095616263, ,1.7769181728363037
0.013272327633610515,0.02140716158319207,-0.08872542157045396, ,0.014034074085299254,0.02094017487233667,-0.08933037210462551, ,0.0010790270587758067, ,0.012626984253766734,-0.00037661159089439413,-0.023929682692914473,0.02403587392939771,0.016582090826813094,-0.0007694164987904654, ,0.027059421306059733, ,0.029200704188101743, ,0.0005387268974129192, ,0.19568632829997484,-0.22864695220716505,0.09969507132000001,1.6972304025637401,0.48806557716215326,-1.2962058573293802, ,0.09703163758534844,0.06763858984923077,0.02524375835182251,-0.009596463925357132,0.12003606101428801,-0.0866588095616263, ,1.7799530029296875
0.013272327633610515,0.02140716158319207,-0.08872542157045396, ,0.01407439375226004,0.02093389819120669,-0.08939659691193327, ,0.0011479392997405802, ,0.012626984253766734,-0.00037661159089439413,-0.023929682692914473,0.02403587392939771,0.016582090826813094,-0.0007694164987904654, ,0.027059421306059733, ,0.029200704188101743, ,0.0005433074417913226, ,0.19568632829997484,-0.22864695220716505,0.09969507132000001,1.6972304025637401,0.48806557716215326,-1.2962058573293802, ,0.09703163758534844,0.06763858984923077,0.02524375835182251,-0.009596463925357132,0.12003606101428801,-0.0866588095616263, ,1.7830471992492676
0.013272327633610515,0.02140716158319207,-0.08872542157045396, ,0.014114796062253049,0.020927516963702722,-0.08946274063453295, ,0.0012179702034609964, ,0.012626984253766734,-0.00037661159089439413,-0.023929682692914473,0.02403587392939771,0.016582090826813094,-0.0007694164987904654, ,0.027059421306059733, ,0.029200704188101743, ,0.0005483422385202007, ,0.19568632829997484,-0.22864695220716505,0.09969507132000001,1.6972304025637401,0.48806557716215326,-1.2962058573293802, ,0.09703163758534844,0.06763858984923077,0.02524375835182251,-0.009596463925357132,0.12003606101428801,-0.0866588095616263, ,1.7859289646148682
0.013353777969352037,0.021403006477594286,-0.08887804386477492, ,0.014155280175315133,0.020921032416944,-0.08952880384540168, ,0.0011393828740545375, ,0.01261107138250188,-0.0008782343139777246,-0.022680758403719567,0.013232959658473917,0.019216244568102673,0.0029422952896320203, ,0.025965885671255306, ,0.023331722498269848, ,0.0005527203173019365, ,0.19634276059428393,-0.22819131096758583,0.09985710757,1.6972304025637401,0.48915866916027684,-1.2969338430786705, ,0.09968166130091469,0.06972589387102922,0.02395310003007519,-0.009596463925357132,0.12546066080752546,-0.07703499518150617, ,1.7892839908599854
0.013353777969352037,0.021403006477594286,-0.08887804386477492, ,0.014195845254281683,0.020914445774344412,-0.08959478711504364, ,0.0012089209072203846, ,0.01261107138250188,-0.0008782343139777246,-0.022680758403719567,0.013232959658473917,0.019216244568102673,0.0029422952896320203, ,0.025965885671255306, ,0.023331722498269848, ,0.0005575453216395722, ,0.19634276059428393,-0.22819131096758583,0.09985710757,1.6972304025637401,0.48915866916027684,-1.2969338430786705, ,0.09968166130091469,0.06972589387102922,0.02395310003007519,-0.009596463925357132,0.12546066080752546,-0.07703499518150617, ,1.7921481132507324
0.013525088100885645,0.021381776690383276,-0.08915324875350865, ,0.014236490464783376,0.02090775825561904,-0.08966069101149446, ,0.0009941249645016243, ,0.012591223132911616,-0.0017101951786622168,-0.01914924744074063,-0.0005159245149897706,-0.0007711644014433052,0.0024781859165834046, ,0.022981674113923895, ,0.0009264436032297299, ,0.000560732034361193, ,0.19773285251164435,-0.22722596935830774,0.10014747653000002,1.6972304025637401,0.4905250341579312,-1.297802985895213, ,0.10509074369708835,0.06941985483428732,0.020317361632653064,-0.008850315703408903,0.11014363185971845,-0.0634389072884692, ,1.7949919700622559
0.013525088100885645,0.021381776690383276,-0.08915324875350865, ,0.01427721497524273,0.02090097107678706,-0.0897265161003244, ,0.001060897885812276, ,0.012591223132911616,-0.0017101951786622168,-0.01914924744074063,-0.0005159245149897706,-0.0007711644014433052,0.0024781859165834046, ,0.022981674113923895, ,0.0009264436032297299, ,0.0005643564245890995, ,0.19773285251164435,-0.22722596935830774,0.10014747653000002,1.6972304025637401,0.4905250341579312,-1.297802985895213, ,0.10509074369708835,0.06941985483428732,0.020317361632653064,-0.008850315703408903,0.11014363185971845,-0.0634389072884692, ,1.7978100776672363
0.013525088100885645,0.021381776690383276,-0.08915324875350865, ,0.014318017956870634,0.020894085450176247,-0.0897922629446422, ,0.001129123393946431, ,0.012591223132911616,-0.0017101951786622168,-0.01914924744074063,-0.0005159245149897706,-0.0007711644014433052,0.0024781859165834046, ,0.022981674113923895, ,0.0009264436032297299, ,0.0005684194963110946, ,0.19773285251164435,-0.22722596935830774,0.10014747653000002,1.6972304025637401,0.4905250341579312,-1.297802985895213, ,0.10509074369708835,0.06941985483428732,0.020317361632653064,-0.008850315703408903,0.11014363185971845,-0.0634389072884692, ,1.8006291389465332
0.013525088100885645,0.021381776690383276,-0.08915324875350865, ,0.014358898583662886,0.020887102584426838,-0.08985793210509856, ,0.001198549547703808, ,0.012591223132911616,-0.0017101951786622168,-0.01914924744074063,-0.0005159245149897706,-0.0007711644014433052,0.0024781859165834046, ,0.022981674113923895, ,0.0009264436032297299, ,0.0005729204252496139, ,0.19773285251164435,-0.22722596935830774,0.10014747653000002,1.6972304025637401,0.4905250341579312,-1.297802985895213, ,0.10509074369708835,0.06941985483428732,0.020317361632653064,-0.008850315703408903,0.11014363185971845,-0.0634389072884692, ,1.8034350872039795
0.013664050740190201,0.021353747601207597,-0.08935430257287556, ,0.014399856032396748,0.020880023684496513,-0.08992352413988963, ,0.0010439525705975361, ,0.013726298824382652,-0.0034222703567985953,-0.019647402423699268,-0.05419656348110653,-0.026736495542832205,0.012516409735880168, ,0.02421040346235591, ,0.06043264647009396, ,0.0005762610787627199, ,0.19884492604553267,-0.22643825060513684,0.10035099406,1.696811022676771,0.4914814896562893,-1.2982561962605255, ,0.11392189862961677,0.08786753848006552,0.020343309731800766,-0.0165328855312182,0.0946532576855,-0.029198337084270026, ,1.8066761493682861
0.013664050740190201,0.021353747601207597,-0.08935430257287556, ,0.01444088948262754,0.02087284995166314,-0.08998903960476046, ,0.0011124891373559811, ,0.013726298824382652,-0.0034222703567985953,-0.019647402423699268,-0.05419656348110653,-0.026736495542832205,0.012516409735880168, ,0.02421040346235591, ,0.06043264647009396, ,0.0005800373326964752, ,0.19884492604553267,-0.22643825060513684,0.10035099406,1.696811022676771,0.4914814896562893,-1.2982561962605255, ,0.11392189862961677,0.08786753848006552,0.020343309731800766,-0.0165328855312182,0.0946532576855,-0.029198337084270026, ,1.8094291687011719
0.013664050740190201,0.021353747601207597,-0.08935430257287556, ,0.014481998116685268,0.020865582583530738,-0.09005447905300977, ,0.0011821971487580819, ,0.013726298824382652,-0.0034222703567985953,-0.019647402423699268,-0.05419656348110653,-0.026736495542832205,0.012516409735880168, ,0.02421040346235591, ,0.06043264647009396, ,0.0005842482405011019, ,0.19884492604553267,-0.22643825060513684,0.10035099406,1.696811022676771,0.4914814896562893,-1.2982561962605255, ,0.11392189862961677,0.08786753848006552,0.020343309731800766,-0.0165328855312182,0.0946532576855,-0.029198337084270026, ,1.8121531009674072
0.013797912874853257,0.021320479523458263,-0.0895520325430603, ,0.014523181119671057,0.020858222774032376,-0.09011984303549175, ,0.0010305843413550085, ,0.01384730756176435,-0.0030444138332084347,-0.020780276308309507,0.053404151278164835,0.01962121441118249,-0.009868074951388884, ,0.02515623711423504, ,0.05689456523997342, ,0.0005873477967570318, ,0.2000187814424148,-0.22553469085885258,0.10056617820000001,1.6966013327332867,0.49271121815417823,-1.2990139211733718, ,0.1171567179734207,0.08722145363830036,0.021940511735537193,-0.01425841830517729,0.14502555162989963,-0.13660259266089878, ,1.8148419857025146
0.013797912874853257,0.021320479523458263,-0.0895520325430603, ,0.014564437679453797,0.020850771713434576,-0.0901851321006211, ,0.001099545702846783, ,0.01384730756176435,-0.0030444138332084347,-0.020780276308309507,0.053404151278164835,0.01962121441118249,-0.009868074951388884, ,0.02515623711423504, ,0.05689456523997342, ,0.000590880196109375, ,0.2000187814424148,-0.22553469085885258,0.10056617820000001,1.6966013327332867,0.49271121815417823,-1.2990139211733718, ,0.1171567179734207,0.08722145363830036,0.021940511735537193,-0.01425841830517729,0.14502555162989963,-0.13660259266089878, ,1.8176369667053223
0.013797912874853257,0.021320479523458263,-0.0895520325430603, ,0.014605766986666626,0.02084323058834171,-0.09025034679437594, ,0.001169631397336005, ,0.01384730756176435,-0.0030444138332084347,-0.020780276308309507,0.053404151278164835,0.01962121441118249,-0.009868074951388884, ,0.02515623711423504, ,0.05689456523997342, ,0.000594844245432845, ,0.2000187814424148,-0.22553469085885258,0.10056617820000001,1.6966013327332867,0.49271121815417823,-1.2990139211733718, ,0.1171567179734207,0.08722145363830036,0.021940511735537193,-0.01425841830517729,0.14502555162989963,-0.13660259266089878, ,1.8218770027160645
0.013797912874853257,0.021320479523458263,-0.0895520325430603, ,0.014647168234703656,0.020835600581700236,-0.09031548766030152, ,0.0012406473997219481, ,0.01384730756176435,-0.0030444138332084347,-0.020780276308309507,0.053404151278164835,0.01962121441118249,-0.009868074951388884, ,0.02515623711423504, ,0.05689456523997342, ,0.0005992374641695055, ,0.2000187814424148,-0.22553469085885258,0.10056617820000001,1.6966013327332867,0.49271121815417823,-1.2990139211733718, ,0.1171567179734207,0.08722145363830036,0.021940511735537193,-0.01425841830517729,0.14502555162989963,-0.13660259266089878, ,1.8250131607055664
0.013940309424194483,0.021289324570684297,-0.08976141799847305, ,0.014688640619716373,0.020827882872802538,-0.09038055523951424, ,0.0010752948163082168, ,0.014671122543506575,-0.003385842624160497,-0.02127438226328549,0.014541563887407065,0.015702854175265953,0.0020100103502859773, ,0.02606348226247915, ,0.021401690390378696, ,0.0006024540679001726, ,0.20123125050366805,-0.224654299311191,0.10078784379000001,1.696391642789802,0.49421421965159806,-1.2999128031534701, ,0.12470031742243204,0.09186538389009755,0.022498321355932206,-0.015523562072596218,0.1489323206772913,-0.1005933982257283, ,1.8278841972351074
0.013940309424194483,0.021289324570684297,-0.08976141799847305, ,0.01473018334061025,0.020820078637291312,-0.09044555007070465, ,0.0011454821002947783, ,0.014671122543506575,-0.003385842624160497,-0.02127438226328549,0.014541563887407065,0.015702854175265953,0.0020100103502859773, ,0.02606348226247915, ,0.021401690390378696, ,0.0006060985513390625, ,0.20123125050366805,-0.224654299311191,0.10078784379000001,1.696391642789802,0.49421421965159806,-1.2999128031534701, ,0.12470031742243204,0.09186538389009755,0.022498321355932206,-0.015523562072596218,0.1489323206772913,-0.1005933982257283, ,1.830761194229126
0.013940309424194483,0.021289324570684297,-0.08976141799847305, ,0.014771795599041383,0.020812189047164042,-0.09051047269014184, ,0.0012165979195599115, ,0.014671122543506575,-0.003385842624160497,-0.02127438226328549,0.014541563887407065,0.015702854175265953,0.0020100103502859773, ,0.02606348226247915, ,0.021401690390378696, ,0.0006101685471272015, ,0.20123125050366805,-0.224654299311191,0.10078784379000001,1.696391642789802,0.49421421965159806,-1.2999128031534701, ,0.12470031742243204,0.09186538389009755,0.022498321355932206,-0.015523562072596218,0.1489323206772913,-0.1005933982257283, ,1.83384108543396
0.013940309424194483,0.021289324570684297,-0.08976141799847305, ,0.0148134765994129,0.02080421527077631,-0.09057532363167563, ,0.0012884852845473312, ,0.014671122543506575,-0.003385842624160497,-0.02127438226328549,0.014541563887407065,0.015702854175265953,0.0020100103502859773, ,0.02606348226247915, ,0.021401690390378696, ,0.0006146607109511759, ,0.20123125050366805,-0.224654299311191,0.10078784379000001,1.696391642789802,0.49421421965159806,-1.2999128031534701, ,0.12470031742243204,0.09186538389009755,0.022498321355932206,-0.015523562072596218,0.1489323206772913,-0.1005933982257283, ,1.8370981216430664
0.014155733974938956,0.02124198047925885,-0.09007218534327317, ,0.01485522554887164,0.020796158472846746,-0.09064010342674166, ,0.0010052744266789298, ,0.015803688135728175,-0.0030902391968079604,-0.022583648584657418,-0.03701296003656374,-0.03138069608440561,-0.03788000289065442, ,0.027736750357245217, ,0.0485252658201387, ,0.0006172305380283321, ,0.20302292453048815,-0.2233414347225728,0.10111580516000002,1.6961819528463176,0.49599049414854884,-1.301116199681102, ,0.12789345223513582,0.09321899956627777,0.02380988269058296,0.02972189802156326,0.09303232443901814,-0.043197540761003704, ,1.839933156967163
0.014155733974938956,0.02124198047925885,-0.09007218534327317, ,0.014897041657304811,0.02078801981446115,-0.09070481260436493, ,0.001075097491669784, ,0.015803688135728175,-0.0030902391968079604,-0.022583648584657418,-0.03701296003656374,-0.03138069608440561,-0.03788000289065442, ,0.027736750357245217, ,0.0485252658201387, ,0.000620223132496577, ,0.20302292453048815,-0.2233414347225728,0.10111580516000002,1.6961819528463176,0.49599049414854884,-1.301116199681102, ,0.12789345223513582,0.09321899956627777,0.02380988269058296,0.02972189802156326,0.09303232443901814,-0.043197540761003704, ,1.8427181243896484
0.014155733974938956,0.02124198047925885,-0.09007218534327317, ,0.014938924137336248,0.020779800453076248,-0.09076945169116185, ,0.001145939600055806, ,0.015803688135728175,-0.0030902391968079604,-0.022583648584657418,-0.03701296003656374,-0.03138069608440561,-0.03788000289065442, ,0.027736750357245217, ,0.0485252658201387, ,0.0006236368757924161, ,0.20302292453048815,-0.2233414347225728,0.10111580516000002,1.6961819528463176,0.49599049414854884,-1.301116199681102, ,0.12789345223513582,0.09321899956627777,0.02380988269058296,0.02972189802156326,0.09303232443901814,-0.043197540761003704, ,1.845501184463501
0.014312784988033012,0.021208108303414165,-0.0902950388895695, ,0.014980872204323255,0.02077150154252408,-0.09083402121134579, ,0.0009630513669647865, ,0.01640592186361652,-0.0033479128976432065,-0.024070618991991654,-0.04843490718881035,-0.02838967082699158,0.0022834273467400275, ,0.02932162157219354, ,0.056141834344717804, ,0.0006258266467032056, ,0.2042971754547352,-0.2223915385790432,0.10135043365000002,1.696391642789802,0.49694694964690694,-1.3015694100464146, ,0.1319846196918926,0.09753025853902444,0.02536434955414013,-0.009078508596842809,0.10922150733031942,-0.042292626112283654, ,1.8482520580291748
0.014312784988033012,0.021208108303414165,-0.0902950388895695, ,0.015022885076353062,0.020763124233016256,-0.09089852168672947, ,0.0010326879706901149, ,0.01640592186361652,-0.0033479128976432065,-0.024070618991991654,-0.04843490718881035,-0.02838967082699158,0.0022834273467400275, ,0.02932162157219354, ,0.056141834344717804, ,0.0006284347321133781, ,0.2042971754547352,-0.2223915385790432,0.10135043365000002,1.696391642789802,0.49694694964690694,-1.3015694100464146, ,0.1319846196918926,0.09753025853902444,0.02536434955414013,-0.009078508596842809,0.10922150733031942,-0.042292626112283654, ,1.8510181903839111
0.014312784988033012,0.021208108303414165,-0.0902950388895695, ,0.015064961974239456,0.02075466967114815,-0.09096295363672859, ,0.0011033978979871565, ,0.01640592186361652,-0.0033479128976432065,-0.024070618991991654,-0.04843490718881035,-0.02838967082699158,0.0022834273467400275, ,0.02932162157219354, ,0.056141834344717804, ,0.0006314599752081156, ,0.2042971754547352,-0.2223915385790432,0.10135043365000002,1.696391642789802,0.49694694964690694,-1.3015694100464146, ,0.1319846196918926,0.09753025853902444,0.02536434955414013,-0.009078508596842809,0.10922150733031942,-0.042292626112283654, ,1.8537890911102295
0.014312784988033012,0.021208108303414165,-0.0902950388895695, ,0.015107102121519302,0.0207461389999033,-0.09102731757836663, ,0.001174984010105091, ,0.01640592186361652,-0.0033479128976432065,-0.024070618991991654,-0.04843490718881035,-0.02838967082699158,0.0022834273467400275, ,0.02932162157219354, ,0.056141834344717804, ,0.0006349000007454382, ,0.2042971754547352,-0.2223915385790432,0.10135043365000002,1.696391642789802,0.49694694964690694,-1.3015694100464146, ,0.1319846196918926,0.09753025853902444,0.02536434955414013,-0.009078508596842809,0.10922150733031942,-0.042292626112283654, ,1.8565239906311035
0.014479831847639046,0.021175047660998425,-0.09054511247444601, ,0.015149304744448873,0.020737533358656232,-0.09109161402627686, ,0.0009686468244259328, ,0.016299547020153758,-0.0032423518392528006,-0.024473671993741293,0.024875638110607296,0.008884648791313015,-0.011038042965318429, ,0.0295829122868075, ,0.026414495557012443, ,0.0006369990373723595, ,0.20564865370772448,-0.22140302877114246,0.10161487681,1.6961819528463176,0.4983133146445613,-1.3024385528629572, ,0.13253762787495918,0.09723047290826925,0.025942689771986976,-0.008712883134178489,0.14834874719509952,-0.11563542416578418, ,1.8592331409454346
0.014479831847639046,0.021175047660998425,-0.09054511247444601, ,0.01519156907200093,0.02072885388317868,-0.09115584349270689, ,0.0010385813114886034, ,0.016299547020153758,-0.0032423518392528006,-0.024473671993741293,0.024875638110607296,0.008884648791313015,-0.011038042965318429, ,0.0295829122868075, ,0.026414495557012443, ,0.0006395089265855861, ,0.20564865370772448,-0.22140302877114246,0.10161487681,1.6961819528463176,0.4983133146445613,-1.3024385528629572, ,0.13253762787495918,0.09723047290826925,0.025942689771986976,-0.008712883134178489,0.14834874719509952,-0.11563542416578418, ,1.861989974975586
0.014479831847639046,0.021175047660998425,-0.09054511247444601, ,0.01523389433586081,0.020720101705642213,-0.0912200064875219, ,0.0011095350320399363, ,0.016299547020153758,-0.0032423518392528006,-0.024473671993741293,0.024875638110607296,0.008884648791313015,-0.011038042965318429, ,0.0295829122868075, ,0.026414495557012443, ,0.0006424283433896504, ,0.20564865370772448,-0.22140302877114246,0.10161487681,1.6961819528463176,0.4983133146445613,-1.3024385528629572, ,0.13253762787495918,0.09723047290826925,0.025942689771986976,-0.008712883134178489,0.14834874719509952,-0.11563542416578418, ,1.864833116531372
