NicholasDascanio/dvrk_moveit_final/test/execution/third_experiment_notsharpbends/thirdexp_400vel3.0/thirdexp_400vel3.0_15.csv
Current Position (x),Current Position (y),Current Position (z), ,Planned Position (x),Planned Position (y),Planned Position (z), ,Position Error,,Cartesian linear Velocity(x),Cartesian linear Velocity(y),Cartesian linear Velocity(z),Cartesian Angular Velocity(x),Cartesian Angular Velocity(y),Cartesian Angular Velocity(z), ,Total Linear Velocity, ,Total Angular Velocity, ,MSE, ,Joint 1 Position,Joint 2 Position,Joint 3 Position,Joint 4 Position,Joint 5 Position,Joint 6 Position, ,Joint 1 Velocity,Joint 2 Velocity,Joint 3 Velocity,Joint 4 Velocity,Joint 5 Velocity,Joint 6 Velocity, ,Time Stamp
0.010099306652505653,0.019950138089629366,-0.08042931569102743, ,0.010263406127125441,0.01990150632538932,-0.08045285433388445, ,0.0001727650247334239, ,1.9718921862936885e-05,-2.193328991712153e-06,1.932009754837287e-06,0.13411765288391247,-0.0002569948384294169,6.091434629271059e-05, ,1.9934373157821686e-05, ,0.13411789910909214, ,1.4397085394451992e-05, ,0.14160402998178062,-0.2407948110183202,0.09007011807000001,1.6047571374870648,0.1493436942436264,-1.3041612110149674, ,0.00024517015937281894,0.0,0.0,-0.0016690402807370867,0.0,-0.13435584053321392, ,0.02721095085144043
0.010116734418766073,0.019953289410908733,-0.08043359980336405, ,0.010285452173909061,0.019935675015902606,-0.08048052811173005, ,0.00017600628948425632, ,0.0010314944793181804,-6.01158444835229e-05,0.00029431903275312554,0.20742708554146538,-0.1029838859750822,-0.025757682019469232, ,0.0010743456001969696, ,0.23158513895920682, ,1.58532415553491e-05, ,0.14164264364615173,-0.2408179792169429,0.09007530323000001,1.6047571374870648,0.14784069274620656,-1.3090615195848492, ,0.001489745737793284,-0.000131382026461721,-0.00029818759067436933,-0.0015719459953469855,-0.10472206097369526,-0.20751975446616933, ,0.055021047592163086
0.010149618168095093,0.019961131939072597,-0.08044600389441146, ,0.010307606931384982,0.019969434406420277,-0.08050872478959273, ,0.00017018604814222319, ,0.000842463810772087,0.00034924593311968865,-0.0005623998774516967,0.2590171657558943,-0.053087795674887805,-0.012340381583033909, ,0.001071453039763737, ,0.2644016002331207, ,1.621741757374698e-05, ,0.14168898004339708,-0.24087203834706244,0.09008956242,1.6047571374870648,0.14483468975136687,-1.3133079823950538, ,0.003640782740623621,-0.0023554335610519446,0.0006679473889431303,-0.0014857645570353717,-0.05105776099412732,-0.2568930618410381, ,0.08536291122436523
0.010185857014007933,0.019970283807817114,-0.08045133078281175, ,0.010329870046567564,0.020002786706245848,-0.08053744134792346, ,0.00017091290582383614, ,0.0014746442232023403,0.0004064605004356642,-0.0007893692354431427,-0.036985635946659934,-0.1322175647348398,-0.030402412947096936, ,0.0017213045963171468, ,0.1372931960833825, ,1.6425482575803322e-05, ,0.14174303917351666,-0.24096471114155316,0.09009734016000001,1.6045474475435806,0.14141877725723084,-1.3163217253526232, ,0.0020138827922052387,-0.004013539478237839,8.017072365425078e-05,0.00010602960044537143,-0.03979526574746902,0.0878106855501635, ,0.11261987686157227
0.01018865912991294,0.0199838971310368,-0.08046529362599841, ,0.010352241167256297,0.02003573411934561,-0.08056667477471266, ,0.0001993095422024524, ,-0.00015892972208776058,0.0005345502813832119,-0.000699036504467677,0.027373225627684353,0.07286306766718975,0.016691773231699104, ,0.0008942341385052085, ,0.07783521125517308, ,1.7099611738195998e-05, ,0.14185888016663,-0.24107282940179228,0.09011548822000001,1.6049668274305493,0.14237523275558894,-1.3127726774510484, ,0.0057397519437165576,-0.00397713200929324,0.0008743097879570514,0.0032165599254126535,0.08017504542759463,-0.022987895842885506, ,0.14070796966552734
0.010195217099003452,0.0199963707482162,-0.08047987549288496, ,0.010374719942036547,0.020068278844353676,-0.08059642206548157, ,0.00022577676703127738, ,0.0003583503040763326,0.0005433859965967371,-0.0006318461692517505,0.014395546051584687,0.010361478903089756,0.0011657620129589515, ,0.0009071454477244213, ,0.01773674127855421, ,1.798317060350757e-05, ,0.1419438302282465,-0.24117322492915721,0.09013363628000001,1.6049668274305493,0.1426485057551198,-1.3125054408175978, ,0.004932013681205165,-0.004297553159205889,0.0007997757975487671,0.0031292741233782616,0.014977203608223676,-0.009710688583517974, ,0.16852188110351562
0.010210575736845157,0.02001383470999321,-0.08050319217779925, ,0.010397306020278064,0.020100423074577517,-0.08062668022327533, ,0.0002400313333875857, ,0.0007804078735962007,0.0008171204229233656,-0.0012343743351664294,0.021523143666797338,-0.00015527154780264584,-0.0003275645531537524, ,0.0016734402391621183, ,0.021523703736863915, ,1.8819276538959094e-05, ,0.14209056215285676,-0.24130451138801903,0.09016215466000001,1.6049668274305493,0.1426485057551198,-1.3125871195577385, ,0.008201483013873868,-0.005640488631482052,0.0014888187888110515,0.0029898528971693296,0.007536720381701592,-0.01552855307683266, ,0.19637298583984375
0.010233352925805581,0.020043113098027414,-0.08054264627425693, ,0.010419999052136052,0.02013216899800284,-0.0806574462586541, ,0.00023653068767539296, ,0.0006947120636823957,0.0009058406262706781,-0.0013353018441691013,0.006665502196134215,-0.0060892791058350815,0.0007225381448144022, ,0.0017567592625825858, ,0.009028191377633981, ,1.9408763396103023e-05, ,0.14231452140620926,-0.2415207479084973,0.09021011739000001,1.605176517374034,0.14278514225488526,-1.3127802162015754, ,0.006138008943312823,-0.006475493822466628,0.0015883495490854268,0.00020278413664633809,0.0,-0.00022755133413551498, ,0.22394585609436035
0.01025718962012217,0.020072465539539633,-0.08058075696613787, ,0.010442798688545975,0.02016351879730037,-0.08068871718968752, ,0.00023323128413419868, ,0.00070417400445345,0.0009567660646189725,-0.000971605454309618,0.008033301651740984,-0.00683390370252313,0.0009539984123805029, ,0.0015346919853177973, ,0.010546856178139432, ,1.9834237854507026e-05, ,0.1425384806595618,-0.24174470716184981,0.09025678383,1.605176517374034,0.14278514225488526,-1.3128618949417161, ,0.00688245033241288,-0.00808735332280513,0.0012516730574811381,0.00020278413664633809,0.0,0.0, ,0.2536039352416992
0.01026872565847441,0.020089344896503367,-0.08059930864435458, ,0.010465704581227975,0.02019447464982963,-0.08072049004194512, ,0.0002540430911589473, ,0.0006646697898197194,0.0009926569199940876,-0.0009520808951579698,0.00669258099275061,-0.006385536009362634,0.0010309393553228148, ,0.001527616352765294, ,0.009250173537324114, ,2.05821086512237e-05, ,0.14264659891980092,-0.24188371635358588,0.09028011705000001,1.605176517374034,0.14278514225488526,-1.3126168587212943, ,0.006432198137743531,-0.008568953004284474,0.0012367938033266434,0.00020278413664633809,0.0,0.0018173413221774023, ,0.27854490280151367
0.010292723520713231,0.020125889670576016,-0.08063828261400044, ,0.010488716382682495,0.020225038727645656,-0.08075276184849026, ,0.0002476877723870848, ,0.0008071784748862357,0.0011557558582031687,-0.0012348107104866812,-0.0021545731996924305,-0.006171088985736444,-0.004618803363996504, ,0.001874050742328829, ,0.006536399998457847, ,2.1149824965097076e-05, ,0.14287055817315342,-0.24218490293568062,0.09032937607000001,1.6053862073175185,0.14278514225488526,-1.3122084650205914, ,0.007662812545934129,-0.009501269950025254,0.0015661182938012663,0.006266328964802502,0.0,0.012425351813416328, ,0.3033628463745117
0.010307884904758337,0.020148732618192083,-0.08066429634931163, ,0.010511833746190705,0.020255213197503587,-0.080785529649871, ,0.00026005914107494137, ,0.0006997811411740649,0.0011192291231244857,-0.001286082236962874,-0.005324632881346944,-0.004909466733551769,-0.004129306185516881, ,0.0018429256620450842, ,0.007242553342948477, ,2.1735629304501008e-05, ,0.14300956736488948,-0.24237024852466202,0.09036178332000001,1.6053862073175185,0.14278514225488526,-1.3119634288001698, ,0.006261004197046313,-0.008972768063260948,0.0015937272789000563,0.0056888077574085375,0.0,0.014993022003229012, ,0.3285520076751709
0.010320837905564194,0.0201668422738985,-0.08068385740882016, ,0.010535056325814241,0.020285000220864543,-0.08081879049411378, ,0.00027938820575055146, ,0.0008102383239935758,0.001124655421729764,-0.001236826164881634,-0.007072390013950543,-0.0072408354843023735,-0.00047366416562174727, ,0.0018577068986871646, ,0.010121679653953955, ,2.239006322645446e-05, ,0.14327986301548734,-0.2426868805725052,0.09041363492000001,1.6055958972610032,0.1426485057551198,-1.3114436171957706, ,0.009511917697566232,-0.008302583342591499,0.0013467510319350082,0.001792119865514274,0.0,0.014073042931584297, ,0.35410594940185547
0.010354523954571362,0.020209449588197,-0.08072795988085818, ,0.01055838377639148,0.020314401953901214,-0.08085254143671582, ,0.00026094901816130846, ,0.0009709245812091374,0.0010477292830329923,-0.0010748476382689248,-0.003842184361754962,-0.009578579295772468,-0.0003332064357860727, ,0.001787660101477138, ,0.010320443885496435, ,2.2823920519324667e-05, ,0.1434652086044687,-0.2428722261614866,0.09044344959,1.6055958972610032,0.14278514225488526,-1.3113099988790453, ,0.00991234838427899,-0.008690370844255871,0.001407164749158582,0.0016707957978124004,-5.977515301171633e-05,0.0126752204157955, ,0.37929797172546387
0.010373137494111749,0.020230714187964634,-0.08075121427655407, ,0.010581815753541942,0.02034342054750241,-0.08088677954063611, ,0.00027317994118292415, ,0.0010380896066896107,0.0010781897458506814,-0.0013298398597719745,-0.0011032096359062662,-0.010249635388726292,0.0009745386406793487, ,0.0020021481494167438, ,0.010308835875035926, ,2.328806200226304e-05, ,0.1436505541934501,-0.24304212628471955,0.09047326426,1.6058055872044876,0.14278514225488526,-1.3111466413987642, ,0.010279234190243746,-0.00830798722179541,0.0016686147319034386,0.0002496244044406129,-2.5459289989755368e-05,0.00936035446580507, ,0.40350794792175293
0.010404265609886776,0.02026425337485311,-0.08079923627108365, ,0.010605351913660858,0.0203720581472793,-0.08092150187628953, ,0.00025885603863874836, ,0.0011074934771917132,0.0010987033500480484,-0.0016784676678914215,-0.03537661277514352,-0.010173320279256137,0.0010568799821676128, ,0.0022914939593169045, ,0.03681034062506689, ,2.36058909094784e-05, ,0.1439594635084191,-0.2432815310038205,0.09053159731,1.6058055872044876,0.14292177875465073,-1.310441271901055, ,0.010537126226520463,-0.00751479046370294,0.002018604932201242,0.0002496244044406129,0.00034337456499197575,0.04284867975323305, ,0.4288010597229004
0.010435591806775618,0.02029902281122495,-0.08084792870562701, ,0.01062899191391865,0.020400316893571076,-0.0809567055215379, ,0.0002439190198426323, ,0.0008932191610275812,0.0008802541089440801,-0.0011016302633146636,0.016776321341052853,0.001439240038256615,-0.0010746641489023003, ,0.0016692144868142283, ,0.016837944340814405, ,2.379775677324259e-05, ,0.14429926375488497,-0.2435286584557957,0.09059122665000001,1.6060152771479719,0.14333168825394704,-1.3099587382107387, ,0.010077833675634251,-0.006595248909037152,0.0013964047370142838,0.004782123725711403,0.010679561453035252,-0.009580235751720243, ,0.45925307273864746
0.010454802108293153,0.020316603905252164,-0.08087066204972351, ,0.010652735412263123,0.020428198921449234,-0.08099238756168323, ,0.00025777536872701265, ,0.0008530597970008987,0.0008453839411793989,-0.000893914078403465,-0.0010573879498476,0.0011878724904727154,-0.0010699849213615007, ,0.0014971530999971726, ,0.0015903176819535047, ,2.4049754216987265e-05, ,0.1444923320767406,-0.2436599449146575,0.09061974503,1.6060152771479719,0.14333168825394704,-1.3097953807304574, ,0.00990476762440031,-0.006795749562187103,0.001182789954953204,0.004762871299088224,0.01025815067620547,0.008449218939940797, ,0.4838109016418457
0.01047884788953037,0.020337914490982347,-0.08089586778303931, ,0.010676582067416566,0.020455706360723847,-0.08102854508945972, ,0.00026566331572218344, ,0.000939302827989504,0.0008645654400535462,-0.0010701925071217038,0.005090800890210576,-0.0019040556684604497,-7.903694954358587e-05, ,0.0016658556975631172, ,0.005435226001829302, ,2.4454534780447407e-05, ,0.14473173679584153,-0.243814399572142,0.09065085599000001,1.6062249670914566,0.14333168825394704,-1.3094686657698953, ,0.010484753272684022,-0.006308767670102912,0.0013680534217852414,0.003090330049698879,0.008026101762917624,-0.0021105753647499793, ,0.5060639381408691
0.010496879330681073,0.020354249918090362,-0.08091889182011945, ,0.010700531538875417,0.02048284133594855,-0.08106517520502612, ,0.00028179567659736195, ,0.0009845293117216169,0.0009321001937374166,-0.001492167672437408,-0.0028106723924113,-0.006733157110792212,-0.0015448517459261792, ,0.0020161034446356274, ,0.007296251364137425, ,2.4910404613007104e-05, ,0.14493252785057137,-0.24393796329812958,0.09068067066,1.6062249670914566,0.14346832475371246,-1.3094984049334513, ,0.009531476306326666,-0.006086952341936546,0.0017869358736880973,0.003090330049698879,0.0021207449839366873,0.009267359641313446, ,0.5290079116821289
0.010516022264885853,0.020373421990505205,-0.08094509479449591, ,0.010724583486906733,0.020509605966427077,-0.08110227501595882, ,0.0002945326478471642, ,0.0009606848758532358,0.0010087636358744412,-0.0014121143832994973,0.0029722192124587033,-0.0029324517004816002,-0.0003625661253975749, ,0.0019835792233427654, ,0.004175327534092513, ,2.539390416094166e-05, ,0.1451333189053012,-0.24407697248986562,0.09071307791000001,1.6062249670914566,0.1436049612534779,-1.3094464653568663, ,0.009844476343456823,-0.007188139597060655,0.0017306401043024773,0.003090330049698879,0.006360183536072231,0.0045748224613477925, ,0.5511620044708252
0.010545532136093045,0.020403551620842817,-0.08099429324876041, ,0.010748737572553147,0.020536002366216565,-0.0811398416372426, ,0.0002828780351083545, ,0.0011233515259909067,0.001199647518913652,-0.0020480224192519656,0.004627754194304049,-0.004607860915323783,-0.001647339371334565, ,0.002625922437990211, ,0.006530581219297137, ,2.578281538933591e-05, ,0.14540361455589906,-0.24427004081172124,0.09077141096,1.606434657034941,0.1436049612534779,-1.3092831078765852, ,0.010533665521594175,-0.007494442135588025,0.0024079836009070297,0.004147923598347231,0.005077823008337437,0.003371970168772096, ,0.5749008655548096
0.010569080532475787,0.02042839977446308,-0.08103750702499889, ,0.010772993457626187,0.02056203264413497,-0.08117787219126488, ,0.0002813193999727275, ,0.0011120560662123418,0.0011773854589556352,-0.00180138435082424,0.00708178688581606,-0.0054806339676123726,-0.0017519670484316232, ,0.002422372967310011, ,0.008954834122645399, ,2.6135195092894784e-05, ,0.14561212834350312,-0.24442449546920572,0.09082196627000001,1.606434657034941,0.1436049612534779,-1.3091197503963041, ,0.010748480744312281,-0.007937836640602457,0.002163358891756078,0.004147923598347231,0.004398045842437247,0.0013567348988488882, ,0.597174882888794
0.01060159479354151,0.020462666619945863,-0.08108896298508235, ,0.010797350804709505,0.020587698903765352,-0.08121636380780692, ,0.00026492349374190784, ,0.001146819240297964,0.0011211994010731825,-0.0015685977243017676,0.00739906762595862,-0.0075927421746221245,-0.001899667090557208, ,0.0022433861209272795, ,0.010601694933089618, ,2.6387873522753378e-05, ,0.14594420585709478,-0.24465617745543247,0.09088418819,1.6066443469784255,0.14387823425300877,-1.309179228723416, ,0.011408974105259415,-0.007937010047163849,0.0019288945894889806,0.0039366758029209265,0.0029527593081571817,0.0010097778421156172, ,0.6193380355834961
0.010624776500030953,0.020485352920109466,-0.08112046232895748, ,0.01082180927715606,0.020613003243461558,-0.08125531362403651, ,0.00027074229831708764, ,0.0010561065944004462,0.0010341279454855958,-0.0014823619631977047,-0.0009071046616726731,-0.004341531262664828,-0.0013329569971780343, ,0.002093365409169102, ,0.004435282692767924, ,2.6648307191465434e-05, ,0.14618361057619575,-0.24481835484579118,0.09092307689000001,1.6066443469784255,0.14401487075277425,-1.308800574186269, ,0.01075006630042885,-0.007197777554896829,0.0018168032657902144,0.0039366758029209265,0.00562891841821912,0.008585449979571422, ,0.6440069675445557
0.010648222910977419,0.020507688027943255,-0.08114947928625062, ,0.01084636853908702,0.020637947756353723,-0.08129471878450062, ,0.00027807157106836644, ,0.0010872418790555723,0.0010781152375588172,-0.0015132602018458569,-0.004807987392586255,-0.0048148083886748495,-0.0011793928023390357, ,0.002152761902189687, ,0.0068043458597418964, ,2.6922084041831017e-05, ,0.14641529256242247,-0.2449805322361499,0.09095937301000001,1.6068540369219102,0.14401487075277425,-1.3086372167059879, ,0.011045924929854723,-0.007599077853357744,0.0018612672038180805,0.0038092482733420646,0.005476729126770037,0.012866591805870334, ,0.6657350063323975
0.010663512796854062,0.020522459817196644,-0.08117052587148701, ,0.010871028255391005,0.02066253453035409,-0.08133457644111743, ,0.0002993262103358158, ,0.0011813698752198354,0.0010645863630378196,-0.0016149993354010318,-0.004578204784200884,-0.007720315071254305,-0.0042645186180049095, ,0.0022665396003133933, ,0.008975701857488898, ,2.7264735217345987e-05, ,0.1465774699527812,-0.2450809277635148,0.09098529881,1.6070637268653947,0.1441515072525397,-1.3086669558695436, ,0.011669569793220706,-0.007086451597030459,0.0019644834802949383,0.00619318720399914,0.002524134214906972,0.012467362729998151, ,0.6910178661346436
0.010695316741362388,0.02055143192957998,-0.0812169690636216, ,0.010895788091725832,0.02068676564816117,-0.08137488375316879, ,0.0002888616050574067, ,0.0011283033566729132,0.0011338927307940657,-0.0019617512204687785,-5.007617442330742e-05,-0.010008551544631926,0.009784480626302067, ,0.002531254440122077, ,0.010008676816430034, ,2.754435467710345e-05, ,0.14687865653487595,-0.2452662733524962,0.09104103928000001,1.6072734168088794,0.1441515072525397,-1.308585277129403, ,0.010403919008030355,-0.007130574405219959,0.0023085234086956527,-0.008452261320989522,0.002524134214906972,0.0059052920491524325, ,0.7136130332946777
0.010722876904452066,0.020581417729097457,-0.08126893030938563, ,0.010920647714513513,0.020710643187266536,-0.08141563788729293, ,0.0002780928365974142, ,0.0010855385663005935,0.0011666049003968254,-0.0021018440052277764,0.003026100727080242,-0.006493576558956484,0.010557708730329372, ,0.0026376332563242707, ,0.007164064635138636, ,2.787236373040226e-05, ,0.14713350671972536,-0.2454516189414776,0.09110196491000001,1.6072734168088794,0.14428814375230511,-1.3083699800725372, ,0.00997327497406804,-0.007100991734903481,0.002449832593048293,-0.008452261320989522,0.005708163155522726,0.00279885234946583, ,0.7330920696258545
0.010745443308188421,0.0206035239588347,-0.08130887789484079, ,0.010945606790943615,0.020734169219958992,-0.08145683601747578, ,0.0002811142296942529, ,0.0010826978520006825,0.0011598548742065538,-0.002024547535332213,-0.0005250587906358144,-0.0071107547322225365,0.009827057418129975, ,0.002572215133064754, ,0.007130113572828734, ,2.819448988613798e-05, ,0.1473342977744552,-0.24558290540033942,0.09114863135000001,1.6072734168088794,0.14428814375230511,-1.308043265111975, ,0.009981322173699753,-0.007230374082281731,0.002372830555638314,-0.007862630991680363,0.004933047090911089,0.006559458769390406, ,0.7531740665435791
0.010771136939767927,0.020630117334460286,-0.08135637283691124, ,0.01097066498896787,0.020757345813331333,-0.08149847532504496, ,0.00027602834163753667, ,0.0011769282731712693,0.0011678410616685567,-0.0020703635902628603,-0.0007994903331312594,-0.003890747244027068,-0.0011832072186800705, ,0.002652436295445221, ,0.003972039636211503, ,2.8481595405972183e-05, ,0.1475891479593046,-0.24574508279069812,0.09120437182,1.6070637268653947,0.144561416751836,-1.3081027434390868, ,0.011190805981106973,-0.0069572846503081955,0.002432993969757141,0.003985627137649041,0.0065328722988685075,0.008250383448339272, ,0.7720999717712402
0.010795713157364842,0.020654678110623485,-0.08140081291304242, ,0.010995821977303533,0.02078017502928443,-0.08154055299866082, ,0.0002744454553081271, ,0.0011779771322627994,0.0012257887240568173,-0.0021990072073517558,0.002375539254001587,-0.001823066718987703,-0.00836966990336317, ,0.0027795360796621974, ,0.002994454701237416, ,2.874876368877048e-05, ,0.1478053844797829,-0.24588409198243416,0.09125622342,1.6074831067523636,0.144561416751836,-1.3079393859588058, ,0.010955953827190267,-0.0071286117481269735,0.002571236726392252,0.01150245779708398,0.0065328722988685075,0.006321347334117798, ,0.7917959690093994
0.010819790013626462,0.0206771381633305,-0.08144163516043909, ,0.011021077425430214,0.020802658924533507,-0.08158306623430943, ,0.00027617898598509026, ,0.0012115498088349048,0.0011679276701190779,-0.002183132102727516,0.002092414729174628,-0.004527499483294419,-0.007804505962490117, ,0.002756442228648578, ,0.00498762978984081, ,2.9008963828227764e-05, ,0.14803706646600961,-0.24601537844129598,0.09130418615000001,1.6074831067523636,0.14469805325160143,-1.3078057676420802, ,0.011125312223287779,-0.006517609287787977,0.002543725889492175,0.010232000660839494,0.004235665149945082,0.005819295041807143, ,0.8120930194854736
0.010843813591115867,0.020700557593110857,-0.08148626003319334, ,0.011046431003589164,0.020824799550613168,-0.08162601223529523, ,0.000275718258070999, ,0.0013041499452502005,0.0012231492200346417,-0.002312965449194212,-8.841416060130125e-06,-0.004608572421814857,-0.006108924562915364, ,0.0029234757162209567, ,0.0046085808956285315, ,2.925525369695117e-05, ,0.14826102571936214,-0.2461466649001578,0.09135603775000001,1.6074831067523636,0.14483468975136687,-1.307672149325355, ,0.012137590217783798,-0.0067526660611090744,0.0026956864985615164,0.008841355616261221,0.005545129023765841,0.007955813098991283, ,0.8323910236358643
0.010870794982654752,0.020723351549855506,-0.08153334086246708, ,0.01107188238278346,0.020846598953882738,-0.08166938821223192, ,0.0002722773337389871, ,0.0014241565968923153,0.0011720000105825122,-0.002394047711147461,0.01642936461694411,-0.0035441082887580073,-0.004508416100306667, ,0.0030221301230303945, ,0.01680728190994292, ,2.9478732365362858e-05, ,0.14851587590421156,-0.24626250589327117,0.09141048193000001,1.6074831067523636,0.1449713262511323,-1.3074568522684893, ,0.013751187010356585,-0.00588793392702887,0.00278038253098272,0.007800164024983296,0.00856948363443805,-0.009484925029930452, ,0.8511149883270264
0.01088505707274054,0.02073438640026896,-0.08155560296754581, ,0.011097431234775926,0.020868059175531944,-0.08171319138303727, ,0.00029631959814337285, ,0.0013869550236313916,0.0010659160005480717,-0.0023367444070917435,-0.006517791933643119,-0.005766538552059915,0.0026841158059830996, ,0.0029189374062962184, ,0.008702561605239283, ,2.9769892467582383e-05, ,0.14864716236307338,-0.24631656502339075,0.09143640773,1.607692796695848,0.1449713262511323,-1.3074568522684893, ,0.013318868990662563,-0.004972291365758796,0.0026938629325215634,-1.6997923734642915e-05,0.007794902504052374,0.01143587190359994, ,0.870168924331665
0.010912728444272787,0.020756562372040765,-0.08160273879746825, ,0.011123077232089704,0.020889182251585914,-0.08175741897292273, ,0.0002928491107468881, ,0.0013640193794657832,0.0010414942508175716,-0.002272277525583675,7.332612436667212e-05,-0.01061481718183821,0.0012285347557485496, ,0.002847543554595249, ,0.010615070440830123, ,3.003717051655014e-05, ,0.14890973528079698,-0.24642468328362988,0.09149085191,1.607692796695848,0.14510796275089774,-1.307486591432045, ,0.012504848823322126,-0.004898738377306625,0.0026164276478318005,-1.6997923734642915e-05,0.0019538999408049633,0.004769363459798835, ,0.8895599842071533
0.010938650969311188,0.020776795837639667,-0.08164655055127948, ,0.011148820048005709,0.020909970212911157,-0.08180206821438854, ,0.0002934147225467038, ,0.001497738929281965,0.0011889936744997344,-0.0026486205868412474,-0.0014691219576157398,-0.005274179194888188,-0.005419166579035226, ,0.0032668209120376253, ,0.005474968984002905, ,3.038869753346754e-05, ,0.14915686273277218,-0.2465173560781206,0.09154140722000001,1.6079024866393328,0.14524459925066321,-1.3074346518554605, ,0.013949278488677169,-0.005308002672561595,0.0030375308009153324,0.00824704024831986,0.006872727620690739,0.007909774409525835, ,0.9084839820861816
0.010975062238825188,0.020801851975734618,-0.08169581273351946, ,0.011174659356561915,0.020930425085220514,-0.08184713634721391, ,0.00028154731388032954, ,0.0013726898396010914,0.0008956228748492267,-0.0017615051841388916,-0.00022541234520173927,-0.005520136142447521,-0.004917426881985323, ,0.0024061002147552904, ,0.005524736531235222, ,3.0691182681880726e-05, ,0.14951983117786075,-0.2466486425369824,0.09159974027000001,1.6079024866393328,0.14538123575042863,-1.3072193547985944, ,0.013250061652955987,-0.0049705297334416,0.001989112327672328,0.007082152652075205,0.006408532841238668,-0.0011359552923295695, ,0.9251060485839844
0.010988405230489388,0.020811369275166705,-0.0817157064517077, ,0.011200594832555696,0.02095054888907826,-0.08189262061845017, ,0.0003093444917043274, ,0.0015087117072547594,0.0010389144902460473,-0.0022360328363965286,-0.0004732756856111679,-0.006946127455271621,-0.004108016731691987, ,0.002890570389922079, ,0.006962232145193926, ,3.106602518371619e-05, ,0.14965884036959679,-0.24669497893422773,0.09162307349000001,1.6079024866393328,0.14551787225019408,-1.3072490939621504, ,0.01474241751723952,-0.004779777267826672,0.0026057273875347625,0.0066686012058784485,0.0063635662860746815,0.006165721138680424, ,0.9420769214630127
0.0110193319201231,0.020836382036655304,-0.0817751444692853, ,0.01122662615153799,0.02097034363990638,-0.0819385182824139, ,0.000295985831315737, ,0.001553801753754533,0.001320617343721663,-0.003378205642968092,0.007434056900924473,-0.00444345999631229,0.002028436618901701, ,0.003945960393198414, ,0.008660804714634372, ,3.138834777257925e-05, ,0.14993685875306886,-0.24679537446159266,0.09169048057000001,1.6081121765828172,0.14565450874995953,-1.3071971543855656, ,0.013496933801517676,-0.004793148681140068,0.003781769116809118,0.000973643820123454,0.009098295798870101,-0.0025498272116604784, ,0.9590799808502197
0.011037808773472215,0.02085124654972589,-0.08181203082311173, ,0.01125275298981651,0.020989811347989065,-0.08198482660067793, ,0.000308641539981721, ,0.0016068061426042588,0.0013473730253987562,-0.003281702123429604,0.0013672092273184493,-0.0044632815869007,-0.0009209958456688673, ,0.0038944587398514505, ,0.004667991346886568, ,3.17360687360077e-05, ,0.15009131341055335,-0.24684943359171221,0.09173196185000002,1.608321866526302,0.14565450874995953,-1.3071154756454253, ,0.014291708066034756,-0.005297665600205363,0.0037026526080892615,0.004132434177031517,0.009098295798870101,0.004475389084405254, ,0.9760549068450928
0.011069700282977098,0.020874740030174463,-0.08186901604137213, ,0.011278975024451661,0.02100895401847898,-0.08203154284206483, ,0.0002970257110407369, ,0.0015981952824188524,0.001111041753011203,-0.0025322443761998303,-0.003759396238202392,-0.009248521822363196,-0.0020221541274474024, ,0.003193885332706193, ,0.00998339701055808, ,3.203893606164602e-05, ,0.15038477725977387,-0.24694210638620293,0.09179677635000001,1.608321866526302,0.14579114524972495,-1.3069818573287, ,0.015074970859169307,-0.00474802798220939,0.002918968576140737,0.004132434177031517,0.004965977172069023,0.009056645396050533, ,0.9922778606414795
0.011099627522838995,0.020896977477685954,-0.08192101501166008, ,0.011305291933259205,0.021027773651401547,-0.08207866428263835, ,0.0002902736319614895, ,0.0016123517951022101,0.0011741077562221678,-0.0027125722863017986,0.0039845899768868095,-0.005567853846512719,-0.0009866289298732123, ,0.0033669356606271733, ,0.006846747665364356, ,3.231279085380136e-05, ,0.15067824110899442,-0.2470347791806936,0.09185640569,1.608321866526302,0.14606441824925584,-1.3070413356558115, ,0.015340598376733072,-0.004925202851623969,0.003114746093077826,0.004132434177031517,0.009042319023251734,0.001490009247836448, ,1.0092098712921143
0.01110732510569497,0.020902379699672173,-0.08193343406506735, ,0.011331703394806,0.021046272241661553,-0.08212618820569684, ,0.00032894503947372374, ,0.001617147176221364,0.0011617151719595761,-0.002676771952807676,-0.0011642592712454343,-0.005683236989150714,-0.000992478318456993, ,0.003336143764537077, ,0.005801265567797222, ,3.268385759652366e-05, ,0.15074774570486243,-0.2470579473793163,0.09187066488000001,1.608321866526302,0.14606441824925584,-1.3069596569156712, ,0.015458045538112199,-0.004882272972151983,0.0030780312115942033,0.004132434177031517,0.009042319023251734,0.00659645047085576, ,1.0260088443756104
0.01114822188465159,0.020932525147888358,-0.08200620054461914, ,0.011358209088411241,0.021064451779047616,-0.08217411190176471, ,0.00029948870698291003, ,0.0014990614727302116,0.001230256890850184,-0.0029980571436595744,0.004887961487181265,0.001509547268172779,6.199056818622327e-05, ,0.0035705831390903976, ,0.005115750210164783, ,3.296327803275006e-05, ,0.15113388234857367,-0.24717378837242965,0.09195362744,1.6085315564697864,0.14633769124878673,-1.3069374565026424, ,0.014075488216919427,-0.004755960266949855,0.003395611068002559,0.0045378162519238005,0.014938879081025926,0.00048348198530070996, ,1.0423269271850586
0.011181737339551013,0.02095536622798301,-0.08206445251162002, ,0.011384808694145588,0.02108231424823776,-0.08222243266858505, ,0.00028689981683188763, ,0.001675362595965573,0.001079818986010762,-0.0027270627982863348,0.0006253510793105797,-0.005383626477976804,-0.002829611090498418, ,0.0033778277600119144, ,0.005419824524460364, ,3.3200299704652684e-05, ,0.15144279166354263,-0.2472510157011719,0.09201973823000001,1.6087412464132707,0.14647432774855218,-1.306803838185917, ,0.01605972949034875,-0.0037384295205960543,0.003115355274789752,0.005993426101489138,0.00950222447422813,0.003952748743441036, ,1.0599908828735352
0.011198845705351748,0.02096617924752521,-0.08209174306625033, ,0.011411501892829076,0.021099861628805255,-0.08227114781111218, ,0.00030867409288121346, ,0.0015958671813432758,0.0010377187770426875,-0.0026140272543782655,0.003980899139411966,-0.00581381385650856,-0.003186767767855599, ,0.0032336961526012115, ,0.007046132939013306, ,3.3574768456248356e-05, ,0.1515972463210271,-0.24728962936554302,0.09205084919,1.6087412464132707,0.14647432774855218,-1.3067221594457763, ,0.01515683462042338,-0.003613957506082804,0.002984600247329961,0.005993426101489138,0.008128589770338155,0.0004737603965327572, ,1.0735509395599365
0.011214719268744419,0.020976995361191294,-0.08211903011028214, ,0.01143828836603006,0.021117095895223738,-0.08232025464150398, ,0.00033181713768692445, ,0.0016852939130743057,0.0010895494171748216,-0.0028852354880380773,-0.008468653707757021,-0.012890237611970808,-0.005096175894584489, ,0.0035145294603041275, ,0.015423239643960363, ,3.3999492019475514e-05, ,0.15175170097851162,-0.24732824302991416,0.09208196015,1.6087412464132707,0.1466109642483176,-1.3066702198691917, ,0.014895140724920854,-0.003421410908054136,0.0032607597789150464,0.005993426101489138,0.0005466902123686965,0.012729504468198687, ,1.0871829986572266
0.011247392100529838,0.02100084585242727,-0.08218757926589498, ,0.01146516779606637,0.021134019016872417,-0.08236975047911427, ,0.0003136043625661806, ,0.00173122085083511,0.0012405429060242837,-0.003642609054678741,-0.0003994826635003164,-0.0003222845140896196,-0.0017976207594859936, ,0.004219558396477168, ,0.0005132767919524171, ,3.436677309995838e-05, ,0.15206061029348059,-0.24739002489290796,0.09215844126000002,1.6087412464132707,0.1470208737476139,-1.3067594373598592, ,0.015511105190989012,-0.002911339270035806,0.004047982597204575,0.005993426101489138,0.014160029768248771,0.0041635654888787016, ,1.1012389659881592
0.011266696561095324,0.02101420796611368,-0.08222470537139501, ,0.011492139866003856,0.02115063295804127,-0.08241963265048458, ,0.0003277698983796208, ,0.001789971951427351,0.0012984399753828994,-0.003578184239860195,0.002203038873546512,-0.001125750286863822,-0.0016732445696388523, ,0.004206346206739629, ,0.002474003516604139, ,3.476055096076603e-05, ,0.15222278768383932,-0.24742863855727906,0.09219992254,1.6087412464132707,0.1470208737476139,-1.3066777586197187, ,0.016313725555865702,-0.0037230921280612694,0.004008256547559135,0.005993426101489138,0.014160029768248771,0.0023636118343190746, ,1.1153018474578857
0.01128443756536496,0.021025656426270915,-0.08225966365747335, ,0.011519204259653124,0.021166939677937327,-0.08246989848933775, ,0.0003453621902835918, ,0.0017365835888614588,0.0010614992512437743,-0.0030090769253231153,0.007801530620591183,-0.0024584878492011765,-0.0018483720428740288, ,0.003632774031508986, ,0.008179733631481724, ,3.5188379976925036e-05, ,0.1525394197316825,-0.24748269768739864,0.09227121849000001,1.6087412464132707,0.14715751024737936,-1.3065441403029934, ,0.01651817955761023,-0.0026753888738253297,0.003404319623851251,0.005773207823255625,0.013269215195927952,-0.0044255247605258915, ,1.1291229724884033
0.011310441533184749,0.02104088283248015,-0.08230213598357144, ,0.011546360661571713,0.021182941130689168,-0.08252054533656877, ,0.0003514840546961103, ,0.001839378879899012,0.001106732478762227,-0.0030916525894146164,0.0071319466337237325,-0.004700198458621241,-0.0007351356924730634, ,0.0037638394196617673, ,0.008541459363261707, ,3.562074981636219e-05, ,0.15261664706042477,-0.24749042042027286,0.09228677397000001,1.6089509363567556,0.14715751024737936,-1.3065441403029934, ,0.017541024317647095,-0.00293683499990642,0.0034985309729848456,0.004376702398412848,0.01214980492078366,-0.003578238748802979, ,1.1439249515533447
0.011343629695025058,0.021061203320852095,-0.08236086699467984, ,0.011573608757061917,0.02119863926535255,-0.08257157054023853, ,0.0003408445275005721, ,0.0021190141024740746,0.0012921089271917992,-0.003968568144315963,0.0008438731923674651,-0.01161183254909984,-0.0034263787734322253, ,0.004680737053316731, ,0.011642455760222428, ,3.6016712780884726e-05, ,0.15293327910826796,-0.24753675681751822,0.09235288476,1.6091606263002398,0.14743078324691022,-1.306603618630105, ,0.018541801789462832,-0.0024417104114468715,0.00441608303853618,0.00545517808049719,0.005771505090939792,0.0023785651351862533, ,1.1573679447174072
0.011376289036102237,0.02108348216818555,-0.08242861005090474, ,0.01160094823216951,0.021214036025916143,-0.08262297145556531, ,0.0003244879347026093, ,0.0019382902869028488,0.0012235171512482504,-0.0036924949707431093,0.006512965498233891,0.0008097480664017584,-0.00032034475875020223, ,0.004346088191082151, ,0.006563109844105246, ,3.636383867222652e-05, ,0.1532267429574885,-0.24758309321476354,0.09242806958000001,1.6091606263002398,0.14770405624644115,-1.3066630969572168, ,0.01822137894747903,-0.002467435188086693,0.00412556630924631,0.00545517808049719,0.018266626963474617,-0.0032575485502932874, ,1.1719958782196045
0.01140526067604023,0.021099707303175747,-0.08248102747739644, ,0.011628378773682621,0.021229133351306703,-0.082674745444918, ,0.0003225824520506971, ,0.002007570298914467,0.0011896436555482693,-0.003735268756653792,0.007147140610295683,-8.228196342284391e-05,-0.00044889882855742133, ,0.004404295995582465, ,0.007147614182209132, ,3.669819320593094e-05, ,0.15348931587521214,-0.24760626141338624,0.09248640263,1.6091606263002398,0.14784069274620656,-1.3066111573806323, ,0.018918847998100233,-0.0019338863833036836,0.004167663924646782,0.00545517808049719,0.01806646565908921,-0.004419075322055875, ,1.1855120658874512
0.011427518898356286,0.021111168174787684,-0.0825155106266488, ,0.011655900069134152,0.021243933175393748,-0.0827268898778065, ,0.00033832778835293467, ,0.0021758237152142024,0.0011464033238091616,-0.0037105969455603497,0.006605343546243791,-0.004668747978454246,-0.0012581701122733897, ,0.004451626569348672, ,0.00808874343435359, ,3.7148863830705565e-05, ,0.15369010692994198,-0.2476294296120089,0.09252529133000001,1.6091606263002398,0.14784069274620656,-1.3065294786404915, ,0.02062080433691238,-0.001457746538149631,0.0041524534723670495,0.00545517808049719,0.015088919817964792,-0.004348993111651934, ,1.1967089176177979
0.011449564241754587,0.021122895052250387,-0.0825526513876447, ,0.011683511806796523,0.021258437426996027,-0.08277940213087658, ,0.00035287263721766005, ,0.0022140628982693636,0.001243359571649593,-0.003947952199203242,0.005768222392096893,-0.006907323176689211,-0.0023973388398146477, ,0.004694075426439088, ,0.008999083401815199, ,3.762503441787302e-05, ,0.1538831752517976,-0.24764487507775734,0.09256677261000001,1.6093703162437245,0.14784069274620656,-1.3064477999003512, ,0.020320544230935926,-0.0018645770500362677,0.004406310240663901,0.005995847968435156,0.012331234201001155,-0.003027723524827272, ,1.2108030319213867
0.01149318351485264,0.021149944091798465,-0.08264276214843255, ,0.011711213675681975,0.021272648029886747,-0.08283227958790138, ,0.0003138634532984968, ,0.002018059617657578,0.0013081355825009136,-0.004437998155712478,0.025987720830129294,0.021570121319939434,0.005025013970673949, ,0.005047733248967561, ,0.033773240383179526, ,3.800231690200005e-05, ,0.15430792555987993,-0.24767576600925426,0.09266658694,1.6093703162437245,0.14852387524503374,-1.3068415319385522, ,0.02021664711514077,-0.0011799563120859088,0.004902681292705448,0.005759665344333075,0.04169390492410749,-0.023944629249258415, ,1.2220489978790283
0.011516269627552957,0.02116234703383969,-0.0826863253496823, ,0.011739005365543972,0.02128656690279818,-0.08288551963977245, ,0.00032360492892875424, ,0.0021669588503905467,0.0013520040148400421,-0.0045822008555084,0.024174128484022263,0.011354016331499437,0.002850540677396243, ,0.005245968947263358, ,0.026707717476375306, ,3.8394984319210015e-05, ,0.15450099388173555,-0.24768348874212848,0.09271454967000001,1.6093703162437245,0.14852387524503374,-1.306678174458271, ,0.020607370588158695,-0.0012481980470993987,0.005059978246505719,0.005439052407888567,0.031631516557182694,-0.02211653473293607, ,1.2327499389648438
0.011543309499539588,0.02117633030064354,-0.0827383796138722, ,0.011766886566874453,0.02130019595942745,-0.08293911968449363, ,0.00032500151140745057, ,0.0023979760447780433,0.0014658332264612984,-0.005154644497976578,0.005848257424289861,0.0022621692603151116,0.0009402597619711159, ,0.005871057490746237, ,0.0062705279701137945, ,3.878369537166038e-05, ,0.1547095076693396,-0.24768348874212848,0.09276769756000001,1.6093703162437245,0.14852387524503374,-1.3063514594977086, ,0.02143110694635745,-0.000877199023143761,0.00562259495940699,0.005152595299295737,0.023484971375116053,-0.004569835839972117, ,1.2436048984527588
0.011560190745926461,0.021186828364761254,-0.08277501735195021, ,0.011794856970902287,0.02131353710844256,-0.08299307712717345, ,0.00034449007016184056, ,0.0025762966212440623,0.0013772086164628996,-0.005110822256504323,-0.036273146642459266,-0.019785371387557957,-0.004788085333980137, ,0.0058868083025926, ,0.0413183020561341, ,3.920921287430127e-05, ,0.1548716850596983,-0.2476912114750027,0.09281177142000001,1.6093703162437245,0.14866051174479922,-1.306299519921124, ,0.021022804953139296,0.0,0.005591018434538434,0.004947156685974783,0.0,0.03701303022358105, ,1.2553410530090332
0.011590186389155634,0.021204551775886912,-0.08283597843165652, ,0.01182291626959488,0.02132659225348647,-0.08304738938001571, ,0.00033727090670279745, ,0.002270065711730223,0.001194749009847117,-0.004254245293554263,-0.016021235218096657,-0.004410268501897429,-0.005796585613282094, ,0.004967819093911583, ,0.016617173188568837, ,3.961107045827809e-05, ,0.1551574261760446,-0.24769893420787692,0.0928791785,1.6097896961306934,0.14907042124409553,-1.306470416151932, ,0.020465158843750438,-0.0003528156186837707,0.004700150935379168,0.009737311236671231,0.014090824224159717,0.017837921264610097, ,1.2662849426269531
0.011612167272270027,0.021216313458087957,-0.08287950160494859, ,0.011851064155653648,0.021339363293184078,-0.08310205386231484, ,0.000348916164810983, ,0.002068139194397109,0.001271250742040075,-0.0045484791301353385,0.01920799634570055,0.03188653168155084,0.004082591535402021, ,0.0051557676997529365, ,0.03722496506846108, ,4.0031538191121074e-05, ,0.1553659399636487,-0.24769893420787692,0.09292714123000001,1.6097896961306934,0.1493436942436264,-1.306693251959325, ,0.02168577275102166,-0.0003243075549778162,0.005021693417402271,0.009512913075341049,0.0529094167214786,-0.01742857481966118, ,1.2776200771331787
0.011668098212706856,0.021245564438133163,-0.0829856846685631, ,0.011879300322517541,0.021351852121145813,-0.08315706800044503, ,0.0002920199465715247, ,0.0024798747760683237,0.001400643410965469,-0.005280038332715605,0.005413631515374778,0.0007156583652314453,-0.002796473987619641, ,0.005999198751884045, ,0.00546072971096285, ,4.0320146055031446e-05, ,0.15582930393610217,-0.24770665694075114,0.09304380733,1.6097896961306934,0.1493436942436264,-1.3064482157389032, ,0.021710579171464378,0.0003103115468364426,0.00577340033345415,0.008328291187668974,0.02104616207759065,-0.0044568266975286075, ,1.2923979759216309
0.011668098212706856,0.021245564438133163,-0.0829856846685631, ,0.01190762446435826,0.021364060625974585,-0.08321242922785504, ,0.0003504672123489172, ,0.0024798747760683237,0.001400643410965469,-0.005280038332715605,0.005413631515374778,0.0007156583652314453,-0.002796473987619641, ,0.005999198751884045, ,0.00546072971096285, ,4.081907382499628e-05, ,0.15605326318945467,-0.24770665694075114,0.09310084409000001,1.6097896961306934,0.14948033074339184,-1.306477954902459, ,0.02199233871575221,0.0002713352554364035,0.005771308521739132,0.00786860112494396,0.0,0.012527482226719035, ,1.3008089065551758
0.011694034250273662,0.021259550075263672,-0.08303769532691611, ,0.011936036276082291,0.021375990691270157,-0.08326813498505899, ,0.0003538726234062957, ,0.002696715984769843,0.001402616856075163,-0.005273027688413085,-0.011609857065491452,-0.02005231531035179,-0.0075981502741182235, ,0.006086413734723462, ,0.023170760158231548, ,4.131889110778528e-05, ,0.15605326318945467,-0.24770665694075114,0.09310084409000001,1.6097896961306934,0.14948033074339184,-1.306477954902459, ,0.02199233871575221,0.0002713352554364035,0.005771308521739132,0.00786860112494396,0.0,0.012527482226719035, ,1.3091809749603271
0.011718319640339455,0.021272900008978635,-0.08308739655431485, ,0.011964535453327657,0.021387644195635123,-0.08332418271962962, ,0.0003603555785906075, ,0.0026366760727209427,0.0014071704016526839,-0.0052848242263286195,-0.0009039109072390418,-0.015308363372415324,-0.006013992032119791, ,0.006071371867620728, ,0.015335026571470558, ,4.182618489591243e-05, ,0.15626177697705873,-0.24770665694075114,0.09315528827000001,1.6097896961306934,0.1496169672431573,-1.3065076940660147, ,0.021745403656844818,0.00024177358152144577,0.005781782765880218,0.007468633830971066,0.0047529443159374804,0.0017937556759415173, ,1.3173060417175293
0.011741645056657422,0.021285921273562707,-0.08313831757170163, ,0.011993121692465643,0.0213990230126796,-0.08338056988619004, ,0.0003670404414007752, ,0.0025317345726582202,0.0014805626814621542,-0.005467656385573128,0.020403752736396122,0.013118679760881786,0.0021499670666493354, ,0.006204596050576532, ,0.024257223244014754, ,4.234124222365878e-05, ,0.15648573623041123,-0.24769893420787692,0.09321102874000001,1.6097896961306934,0.15002687674245363,-1.3066785902968232, ,0.023489341969918507,0.0,0.0059995523615819215,0.007112270170876898,0.03600368103818733,-0.019317455864453076, ,1.3256919384002686
0.011747889353662751,0.021289736004678265,-0.0831524901525422, ,0.012021794690596593,0.021410129011027724,-0.08343729394640714, ,0.0004130760348635211, ,0.002420501962933797,0.0015256396867248782,-0.0056456031974649315,0.03179618570153431,0.026785073789491125,0.005720349562471696, ,0.006329237052718329, ,0.041574482526421146, ,4.2947285249490445e-05, ,0.15654751809340503,-0.24769893420787692,0.09322658422,1.6097896961306934,0.15016351324221905,-1.3067900082005195, ,0.02333913958644141,0.0,0.0061835448447204976,0.007022003342356619,0.04998630389403307,-0.030719347229135458, ,1.3354899883270264
0.011802790720707316,0.021319197054168477,-0.0832627698035034, ,0.0120505541455522,0.021420964054321773,-0.08349435236898252, ,0.0003540815183611776, ,0.0027344135487309532,0.0014800157816952108,-0.005544397275053412,0.01346719272115442,0.0025019100262781025,-0.0021342840782419856, ,0.006356713404989248, ,0.013697621265352036, ,4.342147401288561e-05, ,0.15698771386723584,-0.2476912114750027,0.09334713919000001,1.6102090760176624,0.15016351324221905,-1.3066266507202382, ,0.024552895616680667,0.0002945429208606231,0.006088995229357799,0.008863198052145742,0.025699056707257275,-0.012398862737731612, ,1.3436598777770996
0.011832803396570704,0.021335406765341375,-0.08332306394686885, ,0.012079399755892676,0.021431530001228428,-0.08355174262964575, ,0.0003497761868178381, ,0.0027344135487309532,0.0014800157816952108,-0.005544397275053412,0.01346719272115442,0.0025019100262781025,-0.0021342840782419856, ,0.006356713404989248, ,0.013697621265352036, ,4.388070364631486e-05, ,0.15698771386723584,-0.2476912114750027,0.09334713919000001,1.6102090760176624,0.15016351324221905,-1.3066266507202382, ,0.024552895616680667,0.0002945429208606231,0.006088995229357799,0.008863198052145742,0.025699056707257275,-0.012398862737731612, ,1.3518400192260742
0.011832803396570704,0.021335406765341375,-0.08332306394686885, ,0.01210833122090782,0.021441828705443537,-0.08360946221114625, ,0.0004114184938723089, ,0.0030851429991359787,0.001655117177223765,-0.006227150695057831,-0.01272896107160339,-0.02242899040805545,-0.008559122308911735, ,0.007143873317355098, ,0.02578926232607965, ,4.446235932808901e-05, ,0.15724256405208525,-0.2476912114750027,0.09341324998000002,1.6102090760176624,0.1503001497419845,-1.3065747111436536, ,0.024616586655893846,0.0002945429208606231,0.0068042765997437,0.008863198052145742,0.0,0.013783692513368887, ,1.3601939678192139
0.011857219612526757,0.02135001515249371,-0.08338015840161256, ,0.012137348240612975,0.02145186201569813,-0.08366750860324677, ,0.0004140229102323571, ,0.003075455355399471,0.0017163576614899097,-0.006460808166611589,0.0031822575823732525,-0.007014203497227937,-0.004259593269125243, ,0.007358420444019586, ,0.007702324503927168, ,4.5042185427775145e-05, ,0.15746652330543776,-0.24768348874212848,0.09347547190000001,1.6102090760176624,0.1507100592412808,-1.306908964854743, ,0.025871576215504573,0.0003241374481913651,0.007063774509977828,0.008863198052145742,0.017225154124254672,-0.002146291769968354, ,1.3687410354614258
0.011898753151348097,0.021376080313643745,-0.08347744726715357, ,0.012166450515751579,0.021461631775763247,-0.08372587930271383, ,0.0003750991973757976, ,0.0030294100616591827,0.001958435448027249,-0.007388731602261606,0.028686848302839872,0.01804507048158668,0.002328370358750313, ,0.008222295872566916, ,0.033890408852859065, ,4.5534942391004034e-05, ,0.15784493721627477,-0.24768348874212848,0.09358176768000001,1.6102090760176624,0.15139324174010801,-1.3073843756330845, ,0.02635294128255229,0.0002960646210671742,0.008040793296314994,0.008863198052145742,0.043610635932551337,-0.02761090400846491, ,1.3768579959869385
0.011898753151348097,0.021376080313643745,-0.08347744726715357, ,0.012195637747791917,0.021471139824455563,-0.08378457181331175, ,0.00043760971316260833, ,0.0030294100616591827,0.001958435448027249,-0.007388731602261606,0.028686848302839872,0.01804507048158668,0.002328370358750313, ,0.008222295872566916, ,0.033890408852859065, ,4.6243612796690335e-05, ,0.15784493721627477,-0.24768348874212848,0.09358176768000001,1.6102090760176624,0.15139324174010801,-1.3073843756330845, ,0.02635294128255229,0.0002960646210671742,0.008040793296314994,0.008863198052145742,0.043610635932551337,-0.02761090400846491, ,1.3823049068450928
0.011931322347895023,0.021395451975825687,-0.08355258146922848, ,0.012224909638926964,0.021480387995642863,-0.0838435836457942, ,0.00042200698061032525, ,0.003831375632527846,0.0020188514366756664,-0.007559372949393705,-0.021882960831477134,-0.050509242537205956,-0.01486873074218008, ,0.008712021564994019, ,0.055045867526541, ,4.6914732460675966e-05, ,0.15811523286687262,-0.24767576600925426,0.09366343395000001,1.6102090760176624,0.1516665147396389,-1.3074438539601962, ,0.028009723010174375,0.0001661383594813795,0.00824472645962733,0.008863198052145742,-0.025485973324992223,0.02306331207748309, ,1.3883459568023682
0.011931322347895023,0.021395451975825687,-0.08355258146922848, ,0.012254265892075013,0.021489378118248973,-0.08390291231789662, ,0.0004856401512298955, ,0.003831375632527846,0.0020188514366756664,-0.007559372949393705,-0.021882960831477134,-0.050509242537205956,-0.01486873074218008, ,0.008712021564994019, ,0.055045867526541, ,4.77094803030868e-05, ,0.15811523286687262,-0.24767576600925426,0.09366343395000001,1.6102090760176624,0.1516665147396389,-1.3074438539601962, ,0.028009723010174375,0.0001661383594813795,0.00824472645962733,0.008863198052145742,-0.025485973324992223,0.02306331207748309, ,1.3937568664550781
0.011969825193655904,0.02141476408369187,-0.08362875315112266, ,0.012283706210874754,0.021498112016259938,-0.08396255535432914, ,0.0004657167397670138, ,0.0038943251820272302,0.002069300290459741,-0.007967822865354341,-0.011950914147522904,-0.029074952330047536,-0.006224546827978904, ,0.009106809184842496, ,0.03143528542643931, ,4.845755662462385e-05, ,0.15840869671609314,-0.2476603205435058,0.09374639651000001,1.6104187659611469,0.15152987823987346,-1.307169078576219, ,0.030641569763794244,0.000821733613787039,0.008690022651391162,0.006343272577505565,0.0,0.012109618518950519, ,1.399406909942627
0.012013341848025452,0.021439795601326264,-0.08372669564888649, ,0.012313230299690718,0.02150659150872815,-0.0840225102867678, ,0.0004264986244675138, ,0.004338808218269225,0.0025360440646922605,-0.010133673576504066,-0.009002576885112554,-0.023653720749260358,-0.0026995590968501874, ,0.011311415314102746, ,0.02530898632880391, ,4.9120702522447324e-05, ,0.15874849696255902,-0.24764487507775734,0.09385269229000001,1.6106284559046316,0.1516665147396389,-1.3071171389996339, ,0.03256586875719657,0.0018389429987050656,0.010955166107290235,0.004581728780294598,0.008031335637582716,0.007893813775315811, ,1.4058749675750732
0.012013341848025452,0.021439795601326264,-0.08372669564888649, ,0.012342837863605455,0.02151481840977929,-0.0840827746538484, ,0.0004909055956555641, ,0.004338808218269225,0.0025360440646922605,-0.010133673576504066,-0.009002576885112554,-0.023653720749260358,-0.0026995590968501874, ,0.011311415314102746, ,0.02530898632880391, ,4.990760470803984e-05, ,0.15874849696255902,-0.24764487507775734,0.09385269229000001,1.6106284559046316,0.1516665147396389,-1.3071171389996339, ,0.03256586875719657,0.0018389429987050656,0.010955166107290235,0.004581728780294598,0.008031335637582716,0.007893813775315811, ,1.4112889766693115
0.012050858422794115,0.02146355863298048,-0.08382663826982173, ,0.012372528608423918,0.02152279452861629,-0.08414334600115721, ,0.0004552849511487871, ,0.004215402740515907,0.002670882744162321,-0.011024904707831322,0.03582239202147647,0.027359819081614414,0.010973592380966067, ,0.012101725443694974, ,0.04507552892020891, ,5.0617125150620105e-05, ,0.159057406277528,-0.24761398414626046,0.09396028436000001,1.6106284559046316,0.15221306073870067,-1.3075628106144197, ,0.034927103996492743,0.0029696126656506144,0.011887172776119406,0.004581728780294598,0.06352584388188996,-0.03794856000406182, ,1.4166998863220215
0.012050858422794115,0.02146355863298048,-0.08382663826982173, ,0.012402302240670023,0.021530521669525533,-0.08420422188122466, ,0.000520159772557054, ,0.004215402740515907,0.002670882744162321,-0.011024904707831322,0.03582239202147647,0.027359819081614414,0.010973592380966067, ,0.012101725443694974, ,0.04507552892020891, ,5.1449979071605814e-05, ,0.159057406277528,-0.24761398414626046,0.09396028436000001,1.6106284559046316,0.15221306073870067,-1.3075628106144197, ,0.034927103996492743,0.0029696126656506144,0.011887172776119406,0.004581728780294598,0.06352584388188996,-0.03794856000406182, ,1.422131061553955
0.012098281991383582,0.021492696833429463,-0.08394285774338499, ,0.012432158467584895,0.021538001631882287,-0.08426539985351729, ,0.00046643267352540225, ,0.004965912664749488,0.0029888238380643387,-0.011903298312917641,0.012702442136638766,-0.00890610926533297,-0.00549370907713947, ,0.013239405849780757, ,0.015513561148699695, ,5.216984583473886e-05, ,0.159435820188365,-0.2475908159476378,0.09408602449,1.610838145848116,0.15262297023799698,-1.3078153855853683, ,0.03841981439614202,0.0021695255420408335,0.01287696970088925,0.01248488814936016,0.027322661290436492,-0.012905120584080713, ,1.4275059700012207
0.012098281991383582,0.021492696833429463,-0.08394285774338499, ,0.012462096997130984,0.021545236210155045,-0.08432687748442977, ,0.0005315946820894612, ,0.004965912664749488,0.0029888238380643387,-0.011903298312917641,0.012702442136638766,-0.00890610926533297,-0.00549370907713947, ,0.013239405849780757, ,0.015513561148699695, ,5.301255784740155e-05, ,0.159435820188365,-0.2475908159476378,0.09408602449,1.610838145848116,0.15262297023799698,-1.3078153855853683, ,0.03841981439614202,0.0021695255420408335,0.01287696970088925,0.01248488814936016,0.027322661290436492,-0.012905120584080713, ,1.434424877166748
0.012145382015710589,0.02151769207006822,-0.08404989532176792, ,0.012492117537983873,0.021552227193912477,-0.08438865234727747, ,0.00048597790023533166, ,0.00520900355826728,0.002772405188321201,-0.012143193961255997,-0.0032917951858647916,-0.018948676011415307,-0.007719693120530706, ,0.013501003969296342, ,0.01923247186646447, ,5.3759026972235594e-05, ,0.1597833431677051,-0.24755220228326666,0.0942013943,1.610838145848116,0.15262297023799698,-1.3077337068452277, ,0.03975573588540879,0.005280229750085229,0.013077841970443352,0.011969912237978433,0.018450912005879134,-6.429120998577634e-05, ,1.4411399364471436
0.012145382015710589,0.02151769207006822,-0.08404989532176792, ,0.012522219799538605,0.021558976367827054,-0.08445072202228865, ,0.0005517002378213978, ,0.00520900355826728,0.002772405188321201,-0.012143193961255997,-0.0032917951858647916,-0.018948676011415307,-0.007719693120530706, ,0.013501003969296342, ,0.01923247186646447, ,5.4628268036574e-05, ,0.1597833431677051,-0.24755220228326666,0.0942013943,1.610838145848116,0.15262297023799698,-1.3077337068452277, ,0.03975573588540879,0.005280229750085229,0.013077841970443352,0.011969912237978433,0.018450912005879134,-6.429120998577634e-05, ,1.446660041809082
0.012228039008973082,0.021560698067899488,-0.0842342644445578, ,0.012552403491902073,0.02156548551168241,-0.08451308409659763, ,0.00042775651458204907, ,0.005131416854594207,0.002420811302762963,-0.01056927401631402,0.007913976118193071,-0.013253267649170892,-0.003820121603274173, ,0.011995887609140438, ,0.015436320464594628, ,5.524912569448609e-05, ,0.16045522092776263,-0.24748269768739864,0.09440102296000001,1.610838145848116,0.15316951623705874,-1.3079343422395917, ,0.04259288220757216,0.004778843723673025,0.011484363028118241,0.010389418397663606,0.027669937405321345,-0.011010778823974544, ,1.452272891998291
0.012228039008973082,0.021560698067899488,-0.0842342644445578, ,0.012582668325898438,0.02157175640037665,-0.08457573616423593, ,0.0004924298675751312, ,0.005131416854594207,0.002420811302762963,-0.01056927401631402,0.007913976118193071,-0.013253267649170892,-0.003820121603274173, ,0.011995887609140438, ,0.015436320464594628, ,5.599074048319708e-05, ,0.16045522092776263,-0.24748269768739864,0.09440102296000001,1.610838145848116,0.15316951623705874,-1.3079343422395917, ,0.04259288220757216,0.004778843723673025,0.011484363028118241,0.010389418397663606,0.027669937405321345,-0.011010778823974544, ,1.4576828479766846
0.012277095859527496,0.021581136702563522,-0.08433333264340882, ,0.012613014013063322,0.021577790803929447,-0.08463867582612529, ,0.000453967686233293, ,0.004952734389560116,0.002089410291920035,-0.010012396096193586,0.03515495531802643,0.016973987470064365,0.005034217216022335, ,0.011364122882501111, ,0.03903827651709273, ,5.676201363387556e-05, ,0.16089541670159344,-0.24741319309153062,0.09450861503,1.610838145848116,0.1537160622361205,-1.308298335114237, ,0.045038890155895,0.006929752750395643,0.010887772740943269,0.00963180844638459,0.06161289286482269,-0.0404800568297824, ,1.4610118865966797
0.012277095859527496,0.021581136702563522,-0.08433333264340882, ,0.012643440265645218,0.021583590487486207,-0.08470190069007053, ,0.0005196697508747415, ,0.004952734389560116,0.002089410291920035,-0.010012396096193586,0.03515495531802643,0.016973987470064365,0.005034217216022335, ,0.011364122882501111, ,0.03903827651709273, ,5.7657386433180906e-05, ,0.16089541670159344,-0.24741319309153062,0.09450861503,1.610838145848116,0.1537160622361205,-1.308298335114237, ,0.045038890155895,0.006929752750395643,0.010887772740943269,0.00963180844638459,0.06161289286482269,-0.0404800568297824, ,1.4637889862060547
0.012277095859527496,0.021581136702563522,-0.08433333264340882, ,0.01267394679660491,0.02158915721132417,-0.08476540837075028, ,0.0005867234689167027, ,0.004952734389560116,0.002089410291920035,-0.010012396096193586,0.03515495531802643,0.016973987470064365,0.005034217216022335, ,0.011364122882501111, ,0.03903827651709273, ,5.8678749526778435e-05, ,0.16089541670159344,-0.24741319309153062,0.09450861503,1.610838145848116,0.1537160622361205,-1.308298335114237, ,0.045038890155895,0.006929752750395643,0.010887772740943269,0.00963180844638459,0.06161289286482269,-0.0404800568297824, ,1.4665749073028564
0.012277095859527496,0.021581136702563522,-0.08433333264340882, ,0.012704533319614441,0.021594492730857222,-0.08482919648971092, ,0.0006547992973781132, ,0.004952734389560116,0.002089410291920035,-0.010012396096193586,0.03515495531802643,0.016973987470064365,0.005034217216022335, ,0.011364122882501111, ,0.03903827651709273, ,5.982734403130895e-05, ,0.16089541670159344,-0.24741319309153062,0.09450861503,1.610838145848116,0.1537160622361205,-1.308298335114237, ,0.045038890155895,0.006929752750395643,0.010887772740943269,0.00963180844638459,0.06161289286482269,-0.0404800568297824, ,1.4694690704345703
0.012277095859527496,0.021581136702563522,-0.08433333264340882, ,0.012735199549053944,0.021599598796641997,-0.08489326267535872, ,0.0007236860368660734, ,0.004952734389560116,0.002089410291920035,-0.010012396096193586,0.03515495531802643,0.016973987470064365,0.005034217216022335, ,0.011364122882501111, ,0.03903827651709273, ,0.0003344639746222675, ,0.16089541670159344,-0.24741319309153062,0.09450861503,1.610838145848116,0.1537160622361205,-1.308298335114237, ,0.045038890155895,0.006929752750395643,0.010887772740943269,0.00963180844638459,0.06161289286482269,-0.0404800568297824, ,1.4724390506744385
0.01232151463398393,0.021598091138738503,-0.0844167440918227, ,0.012765945200014332,0.021604477154382372,-0.08495760456295096, ,0.0007000638245524345, ,0.005614660948479452,0.00206190611419731,-0.010539473951299689,0.010099231178267947,-0.015691448185824856,-0.0022453314360861656, ,0.012118431646061675, ,0.018660543575020037, ,0.0003382723063923734, ,0.16128155334530467,-0.24735141122853682,0.09459935533000001,1.610838145848116,0.1539893352356514,-1.3083578134413485, ,0.04844152197982173,0.008819809151257432,0.011443111724137933,0.009073273036032723,0.03152654675389494,-0.01738483000423542, ,1.4754738807678223
0.01232151463398393,0.021598091138738503,-0.0844167440918227, ,0.012796769988293728,0.021609129544935796,-0.08502221979459008, ,0.0007697988859781239, ,0.005614660948479452,0.00206190611419731,-0.010539473951299689,0.010099231178267947,-0.015691448185824856,-0.0022453314360861656, ,0.012118431646061675, ,0.018660543575020037, ,0.0003427210340169688, ,0.16128155334530467,-0.24735141122853682,0.09459935533000001,1.610838145848116,0.1539893352356514,-1.3083578134413485, ,0.04844152197982173,0.008819809151257432,0.011443111724137933,0.009073273036032723,0.03152654675389494,-0.01738483000423542, ,1.4793949127197266
0.01239303874501351,0.021628407827215996,-0.08456500618669863, ,0.012827673630398108,0.021613557704317624,-0.0850871060192145, ,0.0006794970528681368, ,0.006149774045835166,0.003052870826877959,-0.014409329728526526,0.05195887250057285,0.0415005736410958,0.006329312829343703, ,0.015961469992636288, ,0.06649828135289476, ,0.000346157524005246, ,0.16191481744099107,-0.24723557023542345,0.09476009529000001,1.6114672156785694,0.15480915423424405,-1.3087812846431053, ,0.053735527496302816,0.009095873592881495,0.015555480000000002,0.01638155753707466,0.09423929129393147,-0.058308659038776994, ,1.482166051864624
0.01239303874501351,0.021628407827215996,-0.08456500618669863, ,0.012858655843538576,0.0216177633637075,-0.08515226089259197, ,0.0007495202976812285, ,0.006149774045835166,0.003052870826877959,-0.014409329728526526,0.05195887250057285,0.0415005736410958,0.006329312829343703, ,0.015961469992636288, ,0.06649828135289476, ,0.00035023189545651856, ,0.16191481744099107,-0.24723557023542345,0.09476009529000001,1.6114672156785694,0.15480915423424405,-1.3087812846431053, ,0.053735527496302816,0.009095873592881495,0.015555480000000002,0.01638155753707466,0.09423929129393147,-0.058308659038776994, ,1.4849269390106201
0.01239303874501351,0.021628407827215996,-0.08456500618669863, ,0.012889716345634052,0.021621748249453804,-0.08521768207731113, ,0.0008201943715491938, ,0.006149774045835166,0.003052870826877959,-0.014409329728526526,0.05195887250057285,0.0415005736410958,0.006329312829343703, ,0.015961469992636288, ,0.06649828135289476, ,0.0003549315202174453, ,0.16191481744099107,-0.24723557023542345,0.09476009529000001,1.6114672156785694,0.15480915423424405,-1.3087812846431053, ,0.053735527496302816,0.009095873592881495,0.015555480000000002,0.01638155753707466,0.09423929129393147,-0.058308659038776994, ,1.487623929977417
0.012459707009244182,0.02166187374949721,-0.0847303477428639, ,0.012920854855306132,0.02162551408307973,-0.08528336724277474, ,0.0008914262879937712, ,0.007255139209440416,0.00372709667134905,-0.019053972728544914,0.07128520364115157,0.06959800102786341,-0.021601211332953712, ,0.015961469992636288, ,0.06649828135289476, ,0.0003602433496013693, ,0.162463131475061,-0.2471197292423101,0.09493120557000001,1.6118865955655386,0.15590224623236756,-1.309427591652255, ,0.05979643450439242,0.015183510649355324,0.020137561972187107,0.051451274503924234,0.12119086060476322,-0.07839030401445947, ,1.4909589290618896
0.012459707009244182,0.02166187374949721,-0.0847303477428639, ,0.012952071091880811,0.021629062581288386,-0.08534931406519106, ,0.0007915922377114581, ,0.007255139209440416,0.00372709667134905,-0.019053972728544914,0.07128520364115157,0.06959800102786341,-0.021601211332953712, ,0.02072636415983455, ,0.09962660033227397, ,0.00036447226026911525, ,0.162463131475061,-0.2471197292423101,0.09493120557000001,1.6118865955655386,0.15590224623236756,-1.309427591652255, ,0.05979643450439242,0.015183510649355324,0.020137561972187107,0.051451274503924234,0.12119086060476322,-0.07839030401445947, ,1.4938600063323975
0.012459707009244182,0.02166187374949721,-0.0847303477428639, ,0.01298336477538702,0.02163239545596799,-0.08541552022756715, ,0.000862871809497519, ,0.007255139209440416,0.00372709667134905,-0.019053972728544914,0.07128520364115157,0.06959800102786341,-0.021601211332953712, ,0.02072636415983455, ,0.09962660033227397, ,0.00036931109084414827, ,0.162463131475061,-0.2471197292423101,0.09493120557000001,1.6118865955655386,0.15590224623236756,-1.309427591652255, ,0.05979643450439242,0.015183510649355324,0.020137561972187107,0.051451274503924234,0.12119086060476322,-0.07839030401445947, ,1.4966239929199219
0.012459707009244182,0.02166187374949721,-0.0847303477428639, ,0.013014735626556294,0.021635514414197535,-0.08548198341970041, ,0.0009347233661818372, ,0.007255139209440416,0.00372709667134905,-0.019053972728544914,0.07128520364115157,0.06959800102786341,-0.021601211332953712, ,0.02072636415983455, ,0.09962660033227397, ,0.0003747477473377799, ,0.162463131475061,-0.2471197292423101,0.09493120557000001,1.6118865955655386,0.15590224623236756,-1.309427591652255, ,0.05979643450439242,0.015183510649355324,0.020137561972187107,0.051451274503924234,0.12119086060476322,-0.07839030401445947, ,1.4993438720703125
0.012535178517232952,0.021700888106771732,-0.0849323116879081, ,0.013046183366820039,0.021638421158252135,-0.08554870133817165, ,0.0008030966796786601, ,0.008463018312833467,0.004414927484910993,-0.022905716410577735,0.01420715071755415,0.007687114904960057,0.05026485674926693, ,0.02481503793956776, ,0.016153283306352306, ,0.0003788272609791216, ,0.16307322737212473,-0.24694982911907715,0.09515287116000001,1.6120962855090233,0.15685870173072564,-1.3099624807577084, ,0.06247329924849953,0.0173867610037506,0.024355980917431196,-0.034438323103160924,0.08115803040744048,-0.03669671665459194, ,1.5021049976348877
0.012535178517232952,0.021700888106771732,-0.0849323116879081, ,0.013077707718310124,0.02164111738560831,-0.0856156716863367, ,0.0008745806770002204, ,0.008463018312833467,0.004414927484910993,-0.022905716410577735,0.01420715071755415,0.007687114904960057,0.05026485674926693, ,0.02481503793956776, ,0.016153283306352306, ,0.00038350417999818856, ,0.16307322737212473,-0.24694982911907715,0.09515287116000001,1.6120962855090233,0.15685870173072564,-1.3099624807577084, ,0.06247329924849953,0.0173867610037506,0.024355980917431196,-0.034438323103160924,0.08115803040744048,-0.03669671665459194, ,1.5048370361328125
0.012535178517232952,0.021700888106771732,-0.0849323116879081, ,0.013109308403859245,0.021643604788948983,-0.08568289217431937, ,0.0009467193733095807, ,0.008463018312833467,0.004414927484910993,-0.022905716410577735,0.01420715071755415,0.007687114904960057,0.05026485674926693, ,0.02481503793956776, ,0.016153283306352306, ,0.00038876787339362217, ,0.16307322737212473,-0.24694982911907715,0.09515287116000001,1.6120962855090233,0.15685870173072564,-1.3099624807577084, ,0.06247329924849953,0.0173867610037506,0.024355980917431196,-0.034438323103160924,0.08115803040744048,-0.03669671665459194, ,1.5076310634613037
0.012535178517232952,0.021700888106771732,-0.0849323116879081, ,0.013140985146996456,0.02164588505616976,-0.08575036051900398, ,0.0010194267498443745, ,0.008463018312833467,0.004414927484910993,-0.022905716410577735,0.01420715071755415,0.007687114904960057,0.05026485674926693, ,0.02481503793956776, ,0.016153283306352306, ,0.00039460730743483285, ,0.16307322737212473,-0.24694982911907715,0.09515287116000001,1.6120962855090233,0.15685870173072564,-1.3099624807577084, ,0.06247329924849953,0.0173867610037506,0.024355980917431196,-0.034438323103160924,0.08115803040744048,-0.03669671665459194, ,1.5114829540252686
0.012585768843129782,0.021727404000250892,-0.08507022251816888, ,0.013172737671950197,0.02164795987038335,-0.08581807444402641, ,0.0010926384278878575, ,0.009473716095705161,0.004938933769002582,-0.025649786200562807,-0.02175274923758047,-0.019297336765089424,0.036851696709708705, ,0.02745773621172239, ,0.02907848350877913, ,0.00040101126266834687, ,0.1634361958172133,-0.246841710858838,0.09529935193000001,1.6120962855090233,0.15726861123002195,-1.310051698248376, ,0.06594645000588659,0.019502043065859183,0.02722873764102564,-0.02757144216061717,0.05510424264963853,-0.00178380048930488, ,1.5150909423828125
0.012585768843129782,0.021727404000250892,-0.08507022251816888, ,0.013204565703644531,0.021649830909925512,-0.08588603167976798, ,0.0010268747377721198, ,0.009473716095705161,0.004938933769002582,-0.025649786200562807,-0.02175274923758047,-0.019297336765089424,0.036851696709708705, ,0.027785893823506908, ,0.02907848350877913, ,0.00040670093062383566, ,0.1634361958172133,-0.246841710858838,0.09529935193000001,1.6120962855090233,0.15726861123002195,-1.310051698248376, ,0.06594645000588659,0.019502043065859183,0.02722873764102564,-0.02757144216061717,0.05510424264963853,-0.00178380048930488, ,1.5179328918457031
0.012585768843129782,0.021727404000250892,-0.08507022251816888, ,0.013236468967700126,0.021651499848360196,-0.08595422996334708, ,0.0011002914411739199, ,0.009473716095705161,0.004938933769002582,-0.025649786200562807,-0.02175274923758047,-0.019297336765089424,0.036851696709708705, ,0.027785893823506908, ,0.02907848350877913, ,0.00041294949378194455, ,0.1634361958172133,-0.246841710858838,0.09529935193000001,1.6120962855090233,0.15726861123002195,-1.310051698248376, ,0.06594645000588659,0.019502043065859183,0.02722873764102564,-0.02757144216061717,0.05510424264963853,-0.00178380048930488, ,1.5207550525665283
0.012645661684419345,0.021758857963316162,-0.085235211365347, ,0.013268447190432145,0.02165296835448496,-0.08602266703861117, ,0.0010095349588369767, ,0.010152858470597291,0.0052587619436121474,-0.027981248394834058,-0.009455837831800698,-0.007753274860861198,0.03530185628880723, ,0.03022722901684781, ,0.01222738677531598, ,0.0004182761497199359, ,0.16385322339242142,-0.24671042439997617,0.09547435108,1.6120962855090233,0.15767852072931826,-1.3101409157390436, ,0.07066041813735724,0.02269176029614318,0.029662591284916204,-0.022485855156499913,0.07061481373730867,-0.016423181267244274, ,1.5235378742218018
0.012645661684419345,0.021758857963316162,-0.085235211365347, ,0.013300500098849291,0.021654238092336502,-0.0860913406561305, ,0.0010829201396937798, ,0.010152858470597291,0.0052587619436121474,-0.027981248394834058,-0.009455837831800698,-0.007753274860861198,0.03530185628880723, ,0.03022722901684781, ,0.01222738677531598, ,0.00042415795494094336, ,0.16385322339242142,-0.24671042439997617,0.09547435108,1.6120962855090233,0.15767852072931826,-1.3101409157390436, ,0.07066041813735724,0.02269176029614318,0.029662591284916204,-0.022485855156499913,0.07061481373730867,-0.016423181267244274, ,1.5262870788574219
0.012645661684419345,0.021758857963316162,-0.085235211365347, ,0.013332627420654792,0.02165531072119567,-0.08616024857318867, ,0.001156865502123647, ,0.010152858470597291,0.0052587619436121474,-0.027981248394834058,-0.009455837831800698,-0.007753274860861198,0.03530185628880723, ,0.03022722901684781, ,0.01222738677531598, ,0.00043058521412675657, ,0.16385322339242142,-0.24671042439997617,0.09547435108,1.6120962855090233,0.15767852072931826,-1.3101409157390436, ,0.07066041813735724,0.02269176029614318,0.029662591284916204,-0.022485855156499913,0.07061481373730867,-0.016423181267244274, ,1.5291249752044678
0.012645661684419345,0.021758857963316162,-0.085235211365347, ,0.013364828884242315,0.021656187895593294,-0.08622938855377635, ,0.0012313126678877005, ,0.010152858470597291,0.0052587619436121474,-0.027981248394834058,-0.009455837831800698,-0.007753274860861198,0.03530185628880723, ,0.03022722901684781, ,0.01222738677531598, ,0.00043754806155076476, ,0.16385322339242142,-0.24671042439997617,0.09547435108,1.6120962855090233,0.15767852072931826,-1.3101409157390436, ,0.07066041813735724,0.02269176029614318,0.029662591284916204,-0.022485855156499913,0.07061481373730867,-0.016423181267244274, ,1.5318620204925537
0.012855353724239627,0.021864601093546897,-0.08582275000263037, ,0.01339710421870036,0.021656871265314674,-0.0862987583685823, ,0.0007504860053605726, ,0.01040563300503958,0.0037814279317886705,-0.025734965764685702,0.0052124762064509654,0.01135328523573787,0.03197237817880835, ,0.02801543964224773, ,0.012492225815343674, ,0.00044024580244567693, ,0.1653591563028952,-0.24617755583165468,0.09609657028000002,1.6120962855090233,0.15986470472556533,-1.3115152084974835, ,0.07954479594171901,0.03267801017853677,0.02722873764102564,-0.013905098241015813,0.09733110466262467,-0.03960202163245108, ,1.5346050262451172
0.012855353724239627,0.021864601093546897,-0.08582275000263037, ,0.013429453153804286,0.02165736247540642,-0.08636835579498767, ,0.0008186719004149799, ,0.01040563300503958,0.0037814279317886705,-0.025734965764685702,0.0052124762064509654,0.01135328523573787,0.03197237817880835, ,0.02801543964224773, ,0.012492225815343674, ,0.00044348021353943164, ,0.1653591563028952,-0.24617755583165468,0.09609657028000002,1.6120962855090233,0.15986470472556533,-1.3115152084974835, ,0.07954479594171901,0.03267801017853677,0.02722873764102564,-0.013905098241015813,0.09733110466262467,-0.03960202163245108, ,1.5373749732971191
0.012855353724239627,0.021864601093546897,-0.08582275000263037, ,0.013461875420019845,0.021657663166180716,-0.0864381786170567, ,0.0008885067544422135, ,0.01040563300503958,0.0037814279317886705,-0.025734965764685702,0.0052124762064509654,0.01135328523573787,0.03197237817880835, ,0.02801543964224773, ,0.012492225815343674, ,0.00044725162490301455, ,0.1653591563028952,-0.24617755583165468,0.09609657028000002,1.6120962855090233,0.15986470472556533,-1.3115152084974835, ,0.07954479594171901,0.03267801017853677,0.02722873764102564,-0.013905098241015813,0.09733110466262467,-0.03960202163245108, ,1.5401298999786377
0.012958323554981218,0.021892353164819103,-0.08605995328135678, ,0.013494370748504195,0.021657774973220356,-0.0865082246255292, ,0.0007371029233857047, ,0.010514950925198219,0.0024440099192817315,-0.022753623362764396,-0.00722859557492397,-0.018131603973571078,0.01000257216467057, ,0.025184613429223252, ,0.01951926119815496, ,0.00044968735010034806, ,0.16616232052181454,-0.2457991419208177,0.09634675425000001,1.6118865955655386,0.16068452372415798,-1.3120203584393808, ,0.08280710432676333,0.039100511560968595,0.02402535674208145,0.0,0.0667489793007179,-0.03131342090448756, ,1.5428669452667236
0.012958323554981218,0.021892353164819103,-0.08605995328135678, ,0.013526938871098602,0.021657699527385582,-0.08657849161781413, ,0.000804529498315635, ,0.010514950925198219,0.0024440099192817315,-0.022753623362764396,-0.00722859557492397,-0.018131603973571078,0.01000257216467057, ,0.025184613429223252, ,0.01951926119815496, ,0.00045264436800214214, ,0.16616232052181454,-0.2457991419208177,0.09634675425000001,1.6118865955655386,0.16068452372415798,-1.3120203584393808, ,0.08280710432676333,0.039100511560968595,0.02402535674208145,0.0,0.0667489793007179,-0.03131342090448756, ,1.5456550121307373
0.012958323554981218,0.021892353164819103,-0.08605995328135678, ,0.013559579520334824,0.021657438454817917,-0.0866489773979803, ,0.0008738667328674096, ,0.010514950925198219,0.0024440099192817315,-0.022753623362764396,-0.00722859557492397,-0.018131603973571078,0.01000257216467057, ,0.025184613429223252, ,0.01951926119815496, ,0.00045612554457127657, ,0.16616232052181454,-0.2457991419208177,0.09634675425000001,1.6118865955655386,0.16068452372415798,-1.3120203584393808, ,0.08280710432676333,0.039100511560968595,0.02402535674208145,0.0,0.0667489793007179,-0.03131342090448756, ,1.5485448837280273
0.012958323554981218,0.021892353164819103,-0.08605995328135678, ,0.013592292429428447,0.02165699337694649,-0.08671967977674988, ,0.0009447485444492571, ,0.010514950925198219,0.0024440099192817315,-0.022753623362764396,-0.00722859557492397,-0.018131603973571078,0.01000257216467057, ,0.025184613429223252, ,0.01951926119815496, ,0.0004601306511276535, ,0.16616232052181454,-0.2457991419208177,0.09634675425000001,1.6118865955655386,0.16068452372415798,-1.3120203584393808, ,0.08280710432676333,0.039100511560968595,0.02402535674208145,0.0,0.0667489793007179,-0.03131342090448756, ,1.5515520572662354
0.012958323554981218,0.021892353164819103,-0.08605995328135678, ,0.013625077332281101,0.021656365910493074,-0.08679059657149057, ,0.0010169022574296595, ,0.010898210973613941,0.0019208302909863122,-0.021660740692578444,-0.02170678466119179,-0.019110063203912838,0.010931995776021986, ,0.024323821220838093, ,0.028920135678322096, ,0.00046465724955287304, ,0.1668728119462432,-0.24546706440722604,0.09653860517000001,1.6118865955655386,0.1612310697232197,-1.312220993833745, ,0.08944103822664541,0.041841684990507395,0.022919153266187053,0.0,0.07257213499047667,-0.0195408157279017, ,1.5553178787231445
0.013046610081147783,0.021910079453348382,-0.08624140760813785, ,0.013657933963479509,0.021655557667477267,-0.08686172560620732, ,0.000907354752740663, ,0.010898210973613941,0.0019208302909863122,-0.021660740692578444,-0.02170678466119179,-0.019110063203912838,0.010931995776021986, ,0.024323821220838093, ,0.028920135678322096, ,0.0004682273907076133, ,0.1668728119462432,-0.24546706440722604,0.09653860517000001,1.6118865955655386,0.1612310697232197,-1.312220993833745, ,0.08944103822664541,0.041841684990507395,0.022919153266187053,0.0,0.07257213499047667,-0.0195408157279017, ,1.5581128597259521
0.013046610081147783,0.021910079453348382,-0.08624140760813785, ,0.01369086205829207,0.021654570255222643,-0.08693306471153563, ,0.0009791501973965902, ,0.010898210973613941,0.0019208302909863122,-0.021660740692578444,-0.02170678466119179,-0.019110063203912838,0.010931995776021986, ,0.024323821220838093, ,0.028920135678322096, ,0.00047231477316112507, ,0.1668728119462432,-0.24546706440722604,0.09653860517000001,1.6118865955655386,0.1612310697232197,-1.312220993833745, ,0.08944103822664541,0.041841684990507395,0.022919153266187053,0.0,0.07257213499047667,-0.0195408157279017, ,1.5609290599822998
0.013174380118543275,0.021926084374497497,-0.08648541514873709, ,0.01372386135267162,0.021653405276360848,-0.08700461172473312, ,0.0008036470629236596, ,0.010807916620914855,0.0009006271266500685,-0.01997456965296343,0.019832461908286688,0.013139786696922,0.005594953018368982, ,0.022728960022996944, ,0.023790278688507582, ,0.0004749443945084468, ,0.16796171728150885,-0.24492647310603033,0.09679656688,1.6123059754525078,0.16232416172134326,-1.3129489795830351, ,0.09470752650545987,0.04841680691758713,0.02109776360264901,0.013457049719158556,0.10793100825644177,-0.06534107779264453, ,1.5638768672943115
0.013174380118543275,0.021926084374497497,-0.08648541514873709, ,0.013756931583252006,0.021652064328838205,-0.08707636448967214, ,0.0008738846136698936, ,0.010807916620914855,0.0009006271266500685,-0.01997456965296343,0.019832461908286688,0.013139786696922,0.005594953018368982, ,0.022728960022996944, ,0.023790278688507582, ,0.0004780856560766471, ,0.16796171728150885,-0.24492647310603033,0.09679656688,1.6123059754525078,0.16232416172134326,-1.3129489795830351, ,0.09470752650545987,0.04841680691758713,0.02109776360264901,0.013457049719158556,0.10793100825644177,-0.06534107779264453, ,1.5666649341583252
0.013174380118543275,0.021926084374497497,-0.08648541514873709, ,0.013790072487347513,0.021650549005920224,-0.08714832085683223, ,0.0009457488092331447, ,0.010807916620914855,0.0009006271266500685,-0.01997456965296343,0.019832461908286688,0.013139786696922,0.005594953018368982, ,0.022728960022996944, ,0.023790278688507582, ,0.0004817392744606822, ,0.16796171728150885,-0.24492647310603033,0.09679656688,1.6123059754525078,0.16232416172134326,-1.3129489795830351, ,0.09470752650545987,0.04841680691758713,0.02109776360264901,0.013457049719158556,0.10793100825644177,-0.06534107779264453, ,1.5694000720977783
0.013174380118543275,0.021926084374497497,-0.08648541514873709, ,0.013823283802952793,0.02164886089619758,-0.08722047868329262, ,0.0010189441831593255, ,0.010807916620914855,0.0009006271266500685,-0.01997456965296343,0.019832461908286688,0.013139786696922,0.005594953018368982, ,0.022728960022996944, ,0.023790278688507582, ,0.000485903653597881, ,0.16796171728150885,-0.24492647310603033,0.09679656688,1.6123059754525078,0.16232416172134326,-1.3129489795830351, ,0.09470752650545987,0.04841680691758713,0.02109776360264901,0.013457049719158556,0.10793100825644177,-0.06534107779264453, ,1.5721409320831299
0.013283497496008727,0.021932510581640845,-0.08668842981900057, ,0.013856565268741551,0.021647001583591046,-0.08729283583272379, ,0.0008804707204314926, ,0.010924218064604859,0.0003394128615209297,-0.020587649798771413,0.021453062880061564,0.02453576123020181,-0.01977420977904381, ,0.023308905286401966, ,0.03259192825702699, ,0.0004889387848812164, ,0.16892705889078694,-0.24440132727058306,0.09701045473000001,1.612725355339477,0.1635538902192322,-1.3137883832360218, ,0.09489694155847078,0.056352103063224926,0.021583755447154476,0.039846309521214054,0.11330596640205527,-0.07042664385793185, ,1.5748999118804932
0.013283497496008727,0.021932510581640845,-0.08668842981900057, ,0.013889916624066516,0.02164497264735675,-0.08736539017538064, ,0.0009532562859152638, ,0.010924218064604859,0.0003394128615209297,-0.020587649798771413,0.021453062880061564,0.02453576123020181,-0.01977420977904381, ,0.023308905286401966, ,0.03259192825702699, ,0.0004924831932860565, ,0.16892705889078694,-0.24440132727058306,0.09701045473000001,1.612725355339477,0.1635538902192322,-1.3137883832360218, ,0.09489694155847078,0.056352103063224926,0.021583755447154476,0.039846309521214054,0.11330596640205527,-0.07042664385793185, ,1.5776238441467285
0.013283497496008727,0.021932510581640845,-0.08668842981900057, ,0.013923337608956156,0.021642775662092363,-0.0874381395880947, ,0.0010273297579733132, ,0.010924218064604859,0.0003394128615209297,-0.020587649798771413,0.021453062880061564,0.02453576123020181,-0.01977420977904381, ,0.023308905286401966, ,0.03259192825702699, ,0.0004965350612003539, ,0.16892705889078694,-0.24440132727058306,0.09701045473000001,1.612725355339477,0.1635538902192322,-1.3137883832360218, ,0.09489694155847078,0.056352103063224926,0.021583755447154476,0.039846309521214054,0.11330596640205527,-0.07042664385793185, ,1.58036208152771
0.013393083804421725,0.02193481935772923,-0.08690466069767204, ,0.013956827964116474,0.021640412197741474,-0.08751108195426621, ,0.0008787660632336965, ,0.011742911266833094,0.00048730583981406096,-0.02398463712564453,-0.008382660917385893,0.020398443063458678,-0.02141579966504817, ,0.026709478655546206, ,0.02205351550881612, ,0.0004994089785088753, ,0.16985378683569385,-0.24380667683926777,0.09723600919000001,1.612725355339477,0.16464698221735574,-1.3144346902451716, ,0.09683361383517426,0.06377482631617659,0.025005983547880698,0.03955324456487179,0.1110909561568639,-0.04792572074575149, ,1.5833709239959717
0.013393083804421725,0.02193481935772923,-0.08690466069767204, ,0.013990387430927962,0.021637883819599763,-0.08758421516385692, ,0.0009522271832674994, ,0.011742911266833094,0.00048730583981406096,-0.02398463712564453,-0.008382660917385893,0.020398443063458678,-0.02141579966504817, ,0.026709478655546206, ,0.02205351550881612, ,0.0005027882188428949, ,0.16985378683569385,-0.24380667683926777,0.09723600919000001,1.612725355339477,0.16464698221735574,-1.3144346902451716, ,0.09683361383517426,0.06377482631617659,0.025005983547880698,0.03955324456487179,0.1110909561568639,-0.04792572074575149, ,1.586284875869751
0.013393083804421725,0.02193481935772923,-0.08690466069767204, ,0.014024015751447294,0.021635192088319564,-0.08765753711338164, ,0.0010269734756473065, ,0.011742911266833094,0.00048730583981406096,-0.02398463712564453,-0.008382660917385893,0.020398443063458678,-0.02141579966504817, ,0.026709478655546206, ,0.02205351550881612, ,0.0005066710725970015, ,0.16985378683569385,-0.24380667683926777,0.09723600919000001,1.612725355339477,0.16464698221735574,-1.3144346902451716, ,0.09683361383517426,0.06377482631617659,0.025005983547880698,0.03955324456487179,0.1110909561568639,-0.04792572074575149, ,1.5892798900604248
0.013393083804421725,0.02193481935772923,-0.08690466069767204, ,0.014057712668404075,0.021632338559915937,-0.08773104570590097, ,0.0011027866256487534, ,0.011742911266833094,0.00048730583981406096,-0.02398463712564453,-0.008382660917385893,0.020398443063458678,-0.02141579966504817, ,0.026709478655546206, ,0.02205351550881612, ,0.0005110542751929703, ,0.16985378683569385,-0.24380667683926777,0.09723600919000001,1.612725355339477,0.16464698221735574,-1.3144346902451716, ,0.09683361383517426,0.06377482631617659,0.025005983547880698,0.03955324456487179,0.1110909561568639,-0.04792572074575149, ,1.5922870635986328
0.013509150934167593,0.02194130799493293,-0.08714865293458167, ,0.014091477925200907,0.021629324785771682,-0.08780473885101456, ,0.0009310676543764412, ,0.012159321142069733,0.0005811339586242541,-0.02607006346190062,-0.006374189040166206,-0.003211820666398347,0.03810348633763879, ,0.028772122205728518, ,0.007136808501365387, ,0.0005141200662819007, ,0.1707805147806008,-0.2431811354764556,0.09749008203000001,1.6129350452829614,0.1656034377157138,-1.315132936830906, ,0.09604953599035504,0.06697031867217415,0.027089815510204087,-0.025656309368375593,0.10214971764742505,-0.06379008491984267, ,1.5950839519500732
0.013509150934167593,0.02194130799493293,-0.08714865293458167, ,0.014125311265911947,0.021626152312642966,-0.08787861446485197, ,0.0010058928840435868, ,0.012159321142069733,0.0005811339586242541,-0.02607006346190062,-0.006374189040166206,-0.003211820666398347,0.03810348633763879, ,0.028772122205728518, ,0.007136808501365387, ,0.0005176836374251013, ,0.1707805147806008,-0.2431811354764556,0.09749008203000001,1.6129350452829614,0.1656034377157138,-1.315132936830906, ,0.09604953599035504,0.06697031867217415,0.027089815510204087,-0.025656309368375593,0.10214971764742505,-0.06379008491984267, ,1.5978889465332031
0.013509150934167593,0.02194130799493293,-0.08714865293458167, ,0.014159212435282975,0.021622822682664293,-0.08795267047006582, ,0.0010818766319360253, ,0.012159321142069733,0.0005811339586242541,-0.02607006346190062,-0.006374189040166206,-0.003211820666398347,0.03810348633763879, ,0.028772122205728518, ,0.007136808501365387, ,0.0005217425798316548, ,0.1707805147806008,-0.2431811354764556,0.09749008203000001,1.6129350452829614,0.1656034377157138,-1.315132936830906, ,0.09604953599035504,0.06697031867217415,0.027089815510204087,-0.025656309368375593,0.10214971764742505,-0.06379008491984267, ,1.6007108688354492
0.013509150934167593,0.02194130799493293,-0.08714865293458167, ,0.014193181178729843,0.021619337433354206,-0.0880269047958242, ,0.001158830768393376, ,0.012775401673122116,2.041425081961433e-05,-0.026555287138226125,-0.009268395722269738,-0.016772070923426217,0.027528889067541855, ,0.02946853541737162, ,0.019162262831413934, ,0.0005262932097499527, ,0.17190031104736336,-0.24239341672328468,0.09780119163,1.6129350452829614,0.16669652971383736,-1.315697565099915, ,0.10010225902792276,0.07408036031106227,0.0275109007253886,-0.018955087122558105,0.0906414786381548,-0.06682399259905661, ,1.604099988937378
0.013651398031250796,0.02194652476943439,-0.08744804111263037, ,0.014227217242338705,0.021615698097620442,-0.08810131537780244, ,0.0009315478067053291, ,0.012775401673122116,2.041425081961433e-05,-0.026555287138226125,-0.009268395722269738,-0.016772070923426217,0.027528889067541855, ,0.02946853541737162, ,0.019162262831413934, ,0.0005291673558276504, ,0.17190031104736336,-0.24239341672328468,0.09780119163,1.6129350452829614,0.16669652971383736,-1.315697565099915, ,0.10010225902792276,0.07408036031106227,0.0275109007253886,-0.018955087122558105,0.0906414786381548,-0.06682399259905661, ,1.606956958770752
0.013651398031250796,0.02194652476943439,-0.08744804111263037, ,0.014261320372862523,0.021611906203765494,-0.08817590015817664, ,0.0010068533346376581, ,0.012775401673122116,2.041425081961433e-05,-0.026555287138226125,-0.009268395722269738,-0.016772070923426217,0.027528889067541855, ,0.02946853541737162, ,0.019162262831413934, ,0.0005325313415939181, ,0.17190031104736336,-0.24239341672328468,0.09780119163,1.6129350452829614,0.16669652971383736,-1.315697565099915, ,0.10010225902792276,0.07408036031106227,0.0275109007253886,-0.018955087122558105,0.0906414786381548,-0.06682399259905661, ,1.609684944152832
0.013651398031250796,0.02194652476943439,-0.08744804111263037, ,0.014295490317722322,0.021607963275492064,-0.0882506570856143, ,0.0010833610472790352, ,0.012775401673122116,2.041425081961433e-05,-0.026555287138226125,-0.009268395722269738,-0.016772070923426217,0.027528889067541855, ,0.02946853541737162, ,0.019162262831413934, ,0.00053638329757773, ,0.17190031104736336,-0.24239341672328468,0.09780119163,1.6129350452829614,0.16669652971383736,-1.315697565099915, ,0.10010225902792276,0.07408036031106227,0.0275109007253886,-0.018955087122558105,0.0906414786381548,-0.06682399259905661, ,1.6123900413513184
0.013783396744546993,0.02194343365932343,-0.08772140952975589, ,0.014329726825007372,0.02160387083190764,-0.08832558411526842, ,0.0008825000851884848, ,0.013243738326943897,-0.00035861703503720994,-0.027327248688292293,-0.032439751723560104,-0.016966934916564414,0.007723037816329611, ,0.030369453928613115, ,0.036608730277618316, ,0.0005387868863805825, ,0.17293515725250944,-0.24159797523723955,0.09808378285000001,1.612725355339477,0.16765298521219543,-1.31647749042579, ,0.10292509930419824,0.08014944388384355,0.028242573617021278,0.0,0.08861710852600849,-0.04650025208825823, ,1.6151058673858643
0.013783396744546993,0.02194343365932343,-0.08772140952975589, ,0.014364029643470739,0.021599630387531214,-0.08840067920876811, ,0.0009574667356273988, ,0.013243738326943897,-0.00035861703503720994,-0.027327248688292293,-0.032439751723560104,-0.016966934916564414,0.007723037816329611, ,0.030369453928613115, ,0.036608730277618316, ,0.0005416743336167675, ,0.17293515725250944,-0.24159797523723955,0.09808378285000001,1.612725355339477,0.16765298521219543,-1.31647749042579, ,0.10292509930419824,0.08014944388384355,0.028242573617021278,0.0,0.08861710852600849,-0.04650025208825823, ,1.617825984954834
0.013783396744546993,0.02194343365932343,-0.08772140952975589, ,0.014398398522532569,0.02159524345229723,-0.08847594033421263, ,0.0010338183312693307, ,0.013243738326943897,-0.00035861703503720994,-0.027327248688292293,-0.032439751723560104,-0.016966934916564414,0.007723037816329611, ,0.030369453928613115, ,0.036608730277618316, ,0.0005450451829157577, ,0.17293515725250944,-0.24159797523723955,0.09808378285000001,1.612725355339477,0.16765298521219543,-1.31647749042579, ,0.10292509930419824,0.08014944388384355,0.028242573617021278,0.0,0.08861710852600849,-0.04650025208825823, ,1.6205580234527588
0.013916937254499606,0.02193889341665556,-0.08799203570642197, ,0.014432833212274126,0.021590711531562307,-0.08855136546616285, ,0.0008367968956007014, ,0.013243738326943897,-0.00035861703503720994,-0.027327248688292293,-0.032439751723560104,-0.016966934916564414,0.007723037816329611, ,0.030369453928613115, ,0.036608730277618316, ,0.0005470298884442267, ,0.17398544892340398,-0.2407948110183202,0.09836378149000001,1.612725355339477,0.16860944071055353,-1.3171757370115245, ,0.10638670578303898,0.08042113691395829,0.02814277653710248,0.0005619508887676846,0.10567585145375367,-0.09032598210357422, ,1.6248810291290283
0.013916937254499606,0.02193889341665556,-0.08799203570642197, ,0.014467333463441494,0.021586036126109553,-0.08862695258563377, ,0.0009113526747736708, ,0.013243738326943897,-0.00035861703503720994,-0.027327248688292293,-0.032439751723560104,-0.016966934916564414,0.007723037816329611, ,0.030369453928613115, ,0.036608730277618316, ,0.0005494915288923987, ,0.17398544892340398,-0.2407948110183202,0.09836378149000001,1.612725355339477,0.16860944071055353,-1.3171757370115245, ,0.10638670578303898,0.08042113691395829,0.02814277653710248,0.0005619508887676846,0.10567585145375367,-0.09032598210357422, ,1.6283278465270996
0.013916937254499606,0.02193889341665556,-0.08799203570642197, ,0.014501899027443838,0.021581218732154288,-0.08870269968008634, ,0.0009874992350394904, ,0.013436269679227557,-0.00045095326001949127,-0.027175370704146863,0.011217377257081012,-0.0037260902456864886,0.011133235077120364, ,0.030318929312286996, ,0.011819411154995671, ,0.0005524311779269429, ,0.17398544892340398,-0.2407948110183202,0.09836378149000001,1.612725355339477,0.16860944071055353,-1.3171757370115245, ,0.10638670578303898,0.08042113691395829,0.02814277653710248,0.0005619508887676846,0.10567585145375367,-0.09032598210357422, ,1.6332290172576904
0.014055711453487777,0.021929613921973127,-0.0882680534206276, ,0.014536529656350996,0.02157626084134933,-0.08877860474342063, ,0.0007853070717857133, ,0.013034053320343861,-0.0010982907177863605,-0.02542150648615462,-0.00104405193666747,-0.013958975527046136,0.006652884537671062, ,0.028589259879960936, ,0.013997586402615479, ,0.0005539836838860014, ,0.17508979972441807,-0.23992986493640706,0.09864896529000002,1.612725355339477,0.16970253270867705,-1.3179854015009553, ,0.10326108983511509,0.08209077989487092,0.02624186411861615,0.001239901321726706,0.09171278947711634,-0.07958951941390277, ,1.6360149383544922
0.014055711453487777,0.021929613921973127,-0.0882680534206276, ,0.014571225102893126,0.021571163940790755,-0.08885466577596778, ,0.0008592757224375717, ,0.013034053320343861,-0.0010982907177863605,-0.02542150648615462,-0.00104405193666747,-0.013958975527046136,0.006652884537671062, ,0.028589259879960936, ,0.013997586402615479, ,0.0005560054854658131, ,0.17508979972441807,-0.23992986493640706,0.09864896529000002,1.612725355339477,0.16970253270867705,-1.3179854015009553, ,0.10326108983511509,0.08209077989487092,0.02624186411861615,0.001239901321726706,0.09171278947711634,-0.07958951941390277, ,1.6387450695037842
0.014055711453487777,0.021929613921973127,-0.0882680534206276, ,0.014605985120460303,0.02156592951302275,-0.08893088078448255, ,0.0009350976270699648, ,0.013034053320343861,-0.0010982907177863605,-0.02542150648615462,-0.00104405193666747,-0.013958975527046136,0.006652884537671062, ,0.028589259879960936, ,0.013997586402615479, ,0.0005584995127132089, ,0.17508979972441807,-0.23992986493640706,0.09864896529000002,1.612725355339477,0.16970253270867705,-1.3179854015009553, ,0.10326108983511509,0.08209077989487092,0.02624186411861615,0.001239901321726706,0.09171278947711634,-0.07958951941390277, ,1.6414680480957031
0.014179599573004928,0.021912256385649042,-0.08849887337734555, ,0.014640809463100684,0.021560559036043276,-0.08900724778213526, ,0.0007712652746540256, ,0.012256736394552843,-0.002589976114466101,-0.021972588723186273,-0.03161481382263528,-0.03663329571216339,-0.0002095795997834546, ,0.0252928886945986, ,0.048388941775668874, ,0.0005598901386082469, ,0.1760705867994446,-0.23910353251886504,0.09888618636,1.6129350452829614,0.17038571520750423,-1.3185424910194374, ,0.09803403053561031,0.08819418360452676,0.0224349458028169,0.0,0.06326500454718453,-0.055214141570289664, ,1.64438796043396
0.014179599573004928,0.021912256385649042,-0.08849887337734555, ,0.0146756978855213,0.021555053983309428,-0.08908376478850445, ,0.0008460526312034235, ,0.012256736394552843,-0.002589976114466101,-0.021972588723186273,-0.03161481382263528,-0.03663329571216339,-0.0002095795997834546, ,0.0252928886945986, ,0.048388941775668874, ,0.0005617483366121116, ,0.1760705867994446,-0.23910353251886504,0.09888618636,1.6129350452829614,0.17038571520750423,-1.3185424910194374, ,0.09803403053561031,0.08819418360452676,0.0224349458028169,0.0,0.06326500454718453,-0.055214141570289664, ,1.647817850112915
0.014179599573004928,0.021912256385649042,-0.08849887337734555, ,0.014710650143085193,0.02154941582374254,-0.08916042982956929, ,0.0009226727051485061, ,0.012256736394552843,-0.002589976114466101,-0.021972588723186273,-0.03161481382263528,-0.03663329571216339,-0.0002095795997834546, ,0.0252928886945986, ,0.048388941775668874, ,0.0005640768809252497, ,0.1760705867994446,-0.23910353251886504,0.09888618636,1.6129350452829614,0.17038571520750423,-1.3185424910194374, ,0.09803403053561031,0.08819418360452676,0.0224349458028169,0.0,0.06326500454718453,-0.055214141570289664, ,1.6505329608917236
0.014179599573004928,0.021912256385649042,-0.08849887337734555, ,0.014745665991812833,0.02154364602173384,-0.08923724093770179, ,0.0010007454446931679, ,0.012256736394552843,-0.002589976114466101,-0.021972588723186273,-0.03161481382263528,-0.03663329571216339,-0.0002095795997834546, ,0.0252928886945986, ,0.048388941775668874, ,0.0005668760383853005, ,0.1760705867994446,-0.23910353251886504,0.09888618636,1.6129350452829614,0.17038571520750423,-1.3185424910194374, ,0.09803403053561031,0.08819418360452676,0.0224349458028169,0.0,0.06326500454718453,-0.055214141570289664, ,1.6532728672027588
0.014298266437819786,0.021884590417734856,-0.08871651207725167, ,0.01478074518837696,0.021537746037150127,-0.08931419615165953, ,0.0008428007011643923, ,0.011718747634411067,-0.002712661888006227,-0.022371501049100313,-0.013185906938285785,-0.006801263546938574,0.0007939098153136322, ,0.025400229129430168, ,0.014836432317454686, ,0.0005686335203138297, ,0.17702820567584843,-0.238207695505455,0.09910785195,1.613144735226446,0.17120553420609688,-1.3192109984416158, ,0.09331066033281296,0.09003504891695518,0.02275544502857143,0.004683242245298804,0.08799094450398193,-0.07462679874376973, ,1.655945062637329
0.014298266437819786,0.021884590417734856,-0.08871651207725167, ,0.014815887490109609,0.021531717325337724,-0.08939129351657644, ,0.0009207502180117834, ,0.011718747634411067,-0.002712661888006227,-0.022371501049100313,-0.013185906938285785,-0.006801263546938574,0.0007939098153136322, ,0.025400229129430168, ,0.014836432317454686, ,0.0005708621070081206, ,0.17702820567584843,-0.238207695505455,0.09910785195,1.613144735226446,0.17120553420609688,-1.3192109984416158, ,0.09331066033281296,0.09003504891695518,0.02275544502857143,0.004683242245298804,0.08799094450398193,-0.07462679874376973, ,1.6587409973144531
0.014298266437819786,0.021884590417734856,-0.08871651207725167, ,0.01485109265499166,0.02152556133712978,-0.08946853108395765, ,0.0010000256464509955, ,0.011718747634411067,-0.002712661888006227,-0.022371501049100313,-0.013185906938285785,-0.006801263546938574,0.0007939098153136322, ,0.025400229129430168, ,0.014836432317454686, ,0.0005735612487656229, ,0.17702820567584843,-0.238207695505455,0.09910785195,1.613144735226446,0.17120553420609688,-1.3192109984416158, ,0.09331066033281296,0.09003504891695518,0.02275544502857143,0.004683242245298804,0.08799094450398193,-0.07462679874376973, ,1.6617019176483154
0.014415273329830634,0.021859560683575547,-0.08894807399633572, ,0.014886360441657882,0.0215192795188505,-0.08954590691167034, ,0.0008337376881572905, ,0.011548858189087106,-0.0024645486937382916,-0.023194575331691888,0.010958844512147603,0.022556329275362455,0.007748176408891219, ,0.02602764781060673, ,0.025077431092133767, ,0.0005751873515118209, ,0.1779626563536296,-0.23731185849204495,0.09934377673000001,1.613144735226446,0.1722986262042204,-1.3201023416711872, ,0.09222248936683264,0.0891051094445735,0.02363325151335312,0.004683242245298804,0.11708436131578771,-0.09784072006630114, ,1.665297031402588
0.014415273329830634,0.021859560683575547,-0.08894807399633572, ,0.014921690609395893,0.021512873312320373,-0.08962341906393566, ,0.0009125467411380409, ,0.011548858189087106,-0.0024645486937382916,-0.023194575331691888,0.010958844512147603,0.022556329275362455,0.007748176408891219, ,0.02602764781060673, ,0.025077431092133767, ,0.0005772827514473874, ,0.1779626563536296,-0.23731185849204495,0.09934377673000001,1.613144735226446,0.1722986262042204,-1.3201023416711872, ,0.09222248936683264,0.0891051094445735,0.02363325151335312,0.004683242245298804,0.11708436131578771,-0.09784072006630114, ,1.668065071105957
0.014415273329830634,0.021859560683575547,-0.08894807399633572, ,0.014957082918144076,0.02150634415486205,-0.08970106561132177, ,0.000992630806686999, ,0.011548858189087106,-0.0024645486937382916,-0.023194575331691888,0.010958844512147603,0.022556329275362455,0.007748176408891219, ,0.02602764781060673, ,0.025077431092133767, ,0.0005798466283315826, ,0.1779626563536296,-0.23731185849204495,0.09934377673000001,1.613144735226446,0.1722986262042204,-1.3201023416711872, ,0.09222248936683264,0.0891051094445735,0.02363325151335312,0.004683242245298804,0.11708436131578771,-0.09784072006630114, ,1.6708500385284424
