NicholasDascanio/dvrk_moveit_final/test/execution/third_experiment_notsharpbends/thirdexp_400vel3.0/thirdexp_400vel3.0_27.csv
Current Position (x),Current Position (y),Current Position (z), ,Planned Position (x),Planned Position (y),Planned Position (z), ,Position Error,,Cartesian linear Velocity(x),Cartesian linear Velocity(y),Cartesian linear Velocity(z),Cartesian Angular Velocity(x),Cartesian Angular Velocity(y),Cartesian Angular Velocity(z), ,Total Linear Velocity, ,Total Angular Velocity, ,MSE, ,Joint 1 Position,Joint 2 Position,Joint 3 Position,Joint 4 Position,Joint 5 Position,Joint 6 Position, ,Joint 1 Velocity,Joint 2 Velocity,Joint 3 Velocity,Joint 4 Velocity,Joint 5 Velocity,Joint 6 Velocity, ,Time Stamp
0.009691811136712393,0.02023208886684269,-0.07922616922940197, ,0.00984482272133178,0.020167556094025523,-0.07931559990216061, ,0.00018861301393401076, ,3.575437013079429e-05,1.638359250991368e-05,-0.0001110836530020461,0.08073097760576818,-0.0005025598063023561,-0.025290155788412604, ,0.0001178404644053125, ,0.08073254183748926, ,1.5717751161167564e-05, ,0.1732363438346042,-0.24219262566855485,0.08973697154000002,1.6976497824507093,0.4726256526886585,-1.2726706830328491, ,0.00034341297680540265,7.924277324256842e-05,0.00013263188255950228,-0.0011423110769285664,0.0,-0.2092065364975988, ,0.027064085006713867
0.009712013398212366,0.020236758281295186,-0.07925441458413544, ,0.009876036417205528,0.020185126437478787,-0.07942156832295957, ,0.0002398119481143459, ,0.001793553221771776,0.00037155108383138717,-0.0020454250568399984,-0.009259964635170159,-0.15605130649858134,-0.04152519327505035, ,0.0027456596712580944, ,0.1563258046674412, ,1.9473861911288938e-05, ,0.17325178930035265,-0.2421771802028064,0.08975900847000001,1.6976497824507093,0.4709860146914732,-1.2786847548011426, ,0.0015881137901628877,0.0003201516003690967,0.001677620239466309,-0.0010894669021831059,-0.16012066445356526,-0.004861879794819113, ,0.057633161544799805
0.00973679960962209,0.020245458521619856,-0.07929958929611665, ,0.009907298416132878,0.02020248019866689,-0.07952714107495719, ,0.00028757049799822443, ,0.0007804411223882856,0.0003980511577070028,-0.0019474876692949503,0.2762085228711088,-0.04981589032841837,-0.10262151056629115, ,0.002135472147259816, ,0.28066487317764727, ,2.2374858126455656e-05, ,0.1732672347661011,-0.24216173473705796,0.08980048975,1.6976497824507093,0.4690731036947571,-1.2816989135972643, ,0.00030793102168178083,0.0005962087108030657,0.0018779546710681445,-0.0010573649523935023,-0.05079286526549168,-0.29542923649267805, ,0.08748507499694824
0.009786137465261996,0.020266555529461754,-0.07940186230358626, ,0.009938608545681859,0.020219618513528458,-0.07963232006238108, ,0.0002802878741898323, ,0.0008545715663127305,0.0007464430825709665,-0.003273294560226893,-0.18627306521503312,-0.03050243955676059,0.0509435061191733, ,0.0034643797591313815, ,0.18875395000672712, ,2.3721031767533647e-05, ,0.17328268023184956,-0.24213856653843527,0.08989641521000001,1.6976497824507093,0.4653839182010902,-1.2842447845270193, ,0.00029319227530501095,0.0005696500726629127,0.0033219627778936396,-0.0010102710966951197,-0.03154703057990568,0.19192841827458543, ,0.11516213417053223
0.00979754566453124,0.020286177341972328,-0.0794895024207691, ,0.009969966633756221,0.020236542515509635,-0.0797371071844429, ,0.0003057788835423785, ,-0.00016793279543289303,0.00069559264337862,-0.003144580319909215,-0.018938730653620943,0.10197644014536124,0.03654682690031191, ,0.003224970687876822, ,0.1037201516735459, ,2.5039658034207533e-05, ,0.17334446209484333,-0.24209995287406416,0.08999104438000001,1.6976497824507093,0.46647701019921367,-1.280562118308719, ,0.0020662686409074716,0.00200757483811016,0.0035795082067415734,-0.0009758171540350211,0.10822628049053411,0.027128910748230373, ,0.14290618896484375
0.00981146440801534,0.020306412818020165,-0.07958578918359771, ,0.01000137250859549,0.020253253335565748,-0.07984150433534302, ,0.00032292608453469865, ,0.000676445260186261,0.0006960813719083803,-0.003672461937989026,0.015147612531000915,0.012314216508131925,-0.0010879828396717283, ,0.0037985634327103745, ,0.019521528959855303, ,2.6209488746991777e-05, ,0.1733907984920887,-0.24204589374394458,0.09009345129000002,1.6976497824507093,0.4672968291978063,-1.2807405532900542, ,0.0019295616129599497,0.0027718743815258427,0.0038447529616220132,-0.0009431633676272639,0.015055832865951186,-0.01761468983360688, ,0.17044401168823242
0.009833477131436532,0.020322900809469937,-0.07967119484598775, ,0.010032825998773958,0.020269752102164897,-0.07994551340427612, ,0.0003432425198286499, ,0.001139739265772433,0.0006837657128279277,-0.003849026585791059,0.024499430141449324,-0.005989277952120544,-0.008677974235932837, ,0.004072044548148871, ,0.02522089464707213, ,2.733653919641861e-05, ,0.17349119401945362,-0.2419841118809508,0.09018289530000001,1.6976497824507093,0.46743346569757177,-1.2818321160754373, ,0.005720928036489308,0.0034158774970360598,0.004011284694031731,-0.0009142750009996641,0.0,-0.02941594006517475, ,0.19997906684875488
0.009876715256194083,0.020355218266886934,-0.07983524075282292, ,0.010064326933201102,0.020286039941288636,-0.08004913627543683, ,0.00029280552705891733, ,0.0010339295380599573,0.0007025811449897059,-0.003844567914507533,-0.0024724615503532482,-0.00462197475945272,4.652755969379063e-05, ,0.004042688833465757, ,0.005241728336634176, ,2.7573614014647044e-05, ,0.17366881687556077,-0.24187599362071163,0.09035400558000001,1.6976497824507093,0.46743346569757177,-1.2818321160754373, ,0.004412231823911674,0.00313543464403387,0.003999199477780568,-0.000869892265957339,0.0,-0.0007997311125058783, ,0.2272779941558838
0.009904645325715285,0.020370430578755372,-0.07992614038989732, ,0.010095875141120625,0.020302117976435875,-0.08015237482802462, ,0.000304002425862688, ,0.0008362272964552497,0.0004137513480867176,-0.0024236118828456763,-0.002138379675590089,-0.005235275119882367,0.0002867784870630184, ,0.002596990725445741, ,0.005655154563247154, ,2.7880856250692884e-05, ,0.17381554880017103,-0.24178332082622095,0.09044863475,1.6976497824507093,0.46743346569757177,-1.2818321160754373, ,0.005034007823510769,0.0023641713349837577,0.0025360311288011466,-0.0008380173037577978,0.0,-0.00034736470230039944, ,0.25803208351135254
0.009921923755331505,0.020380976300137525,-0.07998859563800145, ,0.010127470452111112,0.02031798732862271,-0.08025523093624895, ,0.00034250757270611336, ,0.0009451185229996419,0.0007782085596224185,-0.003915761632679838,-0.002282203680561729,-0.0033454991371489945,0.0002867781470667993, ,0.00410268774692324, ,0.0040497922410430405, ,2.8505356350684887e-05, ,0.17391594432753596,-0.2417060934974787,0.09053807876000002,1.6976497824507093,0.46743346569757177,-1.2818321160754373, ,0.0031504317746082174,0.0024118773481745237,0.004075949723643808,-0.0008131248411983884,0.0,-0.00024134902735929297, ,0.28749513626098633
0.009951607503958345,0.020404537089146475,-0.08011078722484087, ,0.010159112696084419,0.020333649116387815,-0.08035770646933599, ,0.0003302311656145596, ,0.0008866636581381988,0.0005476429686056523,-0.0033404208567140003,-0.003343326169070901,-0.0038478135804995853,0.00010154985347169498, ,0.0034992137350690826, ,0.00509740118169593, ,2.890872779807516e-05, ,0.17403950805352356,-0.24160569797011378,0.09067807808000002,1.6976497824507093,0.46743346569757177,-1.2818321160754373, ,0.003660102563582888,0.0034305246737665537,0.0034582743204515853,-0.0007831738635588053,0.0,-0.00017536118183802594, ,0.31540799140930176
0.009980427717097775,0.020420939135408888,-0.08020717108578362, ,0.010190801703286605,0.020349104455791533,-0.08045980329153161, ,0.00033651220875593985, ,0.0009319722549925685,0.0004935046508317202,-0.0031763304853358217,-0.002959276590442926,-0.004743276307803971,-0.00012166652583557999, ,0.003346818560445452, ,0.005590705478524251, ,2.9539584480498827e-05, ,0.17412445811514002,-0.24154391610711998,0.09074030000000001,1.6976497824507093,0.4672968291978063,-1.2816390194316003, ,0.004558513855777326,0.0036053859897139237,0.0032924372715998347,-0.0007663431376645849,0.0,-0.0007562872459003694, ,0.3422720432281494
0.010006613091051289,0.02044198157215718,-0.08031914279834808, ,0.010222537304296682,0.020364354460421025,-0.0805615232621094, ,0.00033376267549756466, ,0.0010054936621195045,0.0009478597935995388,-0.004679568423616954,-0.0017218743743700406,-0.002399962624964089,-5.644161396899349e-05, ,0.004879325396424994, ,0.002953755189298011, ,3.0061941520291716e-05, ,0.1742171309096307,-0.24145896604550351,0.0908569661,1.6976497824507093,0.46743346569757177,-1.2816687585951563, ,0.002220463687228837,0.002616788216776055,0.00486079082087275,-0.0007423994915043182,0.0,-0.00102895348535843, ,0.36689209938049316
0.010033844049607448,0.020462694801358847,-0.08042971968025361, ,0.010254319330027194,0.0203794002413894,-0.08066286823537365, ,0.00033152010761223783, ,0.0011729612754654494,0.0007203279939999511,-0.004175896460886022,-0.002467418335847437,-0.004899314375486531,-0.00025897028201521025, ,0.004396910486321268, ,0.005485565907368743, ,3.0500521620504754e-05, ,0.17432524916986986,-0.24137401598388705,0.09097233591000001,1.6976497824507093,0.46757010219733725,-1.2817801764988528, ,0.005397053354803194,0.0038899011715501394,0.004342642181025082,-0.0007241019500136428,0.0006994410720870894,-0.001498003420583875, ,0.39319396018981934
0.010062860759500518,0.020479346745468478,-0.08052951745664942, ,0.010286147611723057,0.020394242907340873,-0.08076384006066628, ,0.0003346741167057013, ,0.0012384400425794375,0.0007081042448043024,-0.004282879452587547,-0.0030218174836365206,-0.005471348424555071,-0.00033051555515255135, ,0.004514222166217635, ,0.006250362633179129, ,3.0907071769972046e-05, ,0.1744642583616059,-0.24127362045652212,0.09107603911,1.6976497824507093,0.46757010219733725,-1.2817801764988528, ,0.005946362812922825,0.004349755407184141,0.004450631886001677,-0.0007066132137779428,0.0006712735865446826,-0.0013907638682359403, ,0.42427706718444824
0.010088349513019075,0.02049350384014023,-0.08061909590727, ,0.010318021980961906,0.020408883564451075,-0.08086444058237176, ,0.00034656030238538256, ,0.0010884369307657138,0.000359704456078228,-0.0031090763417512325,-0.0032928354652523306,-0.005701747338368541,-0.0004358906729194944, ,0.0033136743875665344, ,0.0065842758008234316, ,3.134271926332003e-05, ,0.1745955448204677,-0.24117322492915721,0.09116937199000001,1.6976497824507093,0.46770673869710266,-1.281891594402549, ,0.006675783269590705,0.0050075053312923085,0.003218591941806426,-0.0006895847532890342,0.0011857483642210933,-0.0017381307867673536, ,0.4490680694580078
0.01012217018119279,0.020506362318642373,-0.0807160305556462, ,0.010349942269653346,0.02042332331643044,-0.08096467163992146, ,0.0003472722116144828, ,0.0010171936132463489,0.00041615259282193215,-0.0029934673512741847,0.0010540187856636002,-0.0015915439783808643,-0.00023432086021966847, ,0.0031888418917353153, ,0.0019089179121393317, ,3.173541648166101e-05, ,0.174811781340946,-0.24103421573742118,0.09127048261000001,1.6976497824507093,0.46784337519686814,-1.2820030123062456, ,0.006441866165200629,0.004035769922695395,0.0031275891458865113,-0.0006678000151864271,0.005210946412914027,-0.004939968724054813, ,0.47777605056762695
0.01014384580884279,0.02051710157598432,-0.08078459619949145, ,0.010381908310039153,0.020437563264525126,-0.08106453506780084, ,0.0003759865256308925, ,0.0012376035576033252,0.0008766076026542348,-0.004452598998668556,0.002138042000702791,-0.0011249133696290081,-3.6634891846100336e-05, ,0.004703800728960341, ,0.002415916375998744, ,3.225180378049497e-05, ,0.17492762233405937,-0.24095698840867893,0.09134177856,1.6976497824507093,0.46784337519686814,-1.2820030123062456, ,0.0059779322522316115,0.002901435476319671,0.004672575981226167,-0.0006566795165816614,0.005210946412914027,-0.004903263663535323, ,0.5049731731414795
0.01019231304918614,0.020550032935077994,-0.08095666860971634, ,0.010413919934692258,0.020451604507521114,-0.08116403269555325, ,0.0003190574104295634, ,0.001231546934211407,0.0007312455069888204,-0.004365360424918227,-0.0014217082713784165,-0.00334792810492613,-0.0002995527861806034, ,0.004594322526999938, ,0.0036372895704631426, ,3.240827756530535e-05, ,0.1751593043202861,-0.24083342468269134,0.09152196287000001,1.6976497824507093,0.4679800116966335,-1.2821144302099419, ,0.005819780913231356,0.004294013093479309,0.0045433004905875655,-0.0006365994145954686,0.0027295868927300388,-0.0028199414738098996, ,0.5303499698638916
0.010211918513293932,0.020559207955707242,-0.08101593860658782, ,0.01044597697651719,0.020465448141744672,-0.08126316634778624, ,0.0003531229572525748, ,0.0010047063887449964,0.00029273872244963664,-0.0025592476186535873,-0.0009008128512680716,-0.004013169214016859,-0.0002795055937520063, ,0.002764937478640433, ,0.0041130269660619445, ,3.272666336408683e-05, ,0.17536781810789018,-0.24071758368957796,0.09161399946000001,1.6976497824507093,0.468116648196399,-1.2822258481136384, ,0.0074645644650460944,0.003174842386356656,0.002434853488229899,-0.0006201609716605097,0.0032442845530374115,-0.00319582153573646, ,0.5574221611022949
0.010243648315837139,0.0205716985675645,-0.08110378610372772, ,0.010478079268749212,0.02047909526106584,-0.08136193784417609, ,0.0003607985104657019, ,0.0010170804641269275,0.0006422891950109997,-0.003569804343453341,0.0014147795171424859,-0.0007857542236356501,-6.790588923320967e-05, ,0.003767026829088806, ,0.0016183356272300678, ,3.305467593927951e-05, ,0.17549138183387775,-0.24064807909370994,0.09167622138,1.6976497824507093,0.4682532846961644,-1.2823372660173349, ,0.005092755937257616,0.0030121582821769845,0.003736526277269529,-0.0006099481650380436,0.004630887449747206,-0.004301317936469598, ,0.5814640522003174
0.010283324075180138,0.020594019495501187,-0.08123710206454748, ,0.010510226644954547,0.020492546956899137,-0.08146034899947363, ,0.00033409676175397813, ,0.0012160443355906279,0.0006297270214003747,-0.0037147290604088255,0.0007651599388337779,-0.002864879860451099,-0.00017956771606658352, ,0.003959107467580247, ,0.0029653002612656625, ,3.322815782695942e-05, ,0.17568445015573336,-0.24051679263484813,0.09181492441000001,1.6976497824507093,0.4682532846961644,-1.2823372660173349, ,0.007159317781018062,0.003624346215502748,0.0038974336970883294,-0.0005938530533852307,0.0046137973519533694,-0.004250654076675046, ,0.6105890274047852
0.010308620031529263,0.020606844911460163,-0.08131355561638692, ,0.010542418939029621,0.020505804318207595,-0.0815584016235096, ,0.00035329972804561696, ,0.0013411504202436623,0.000655303074892905,-0.0037707690143849214,-0.00047590757088685935,-0.005575211254824579,-0.00017444190831362926, ,0.004055466129747514, ,0.005595486376501013, ,3.362758460974455e-05, ,0.17583890481321787,-0.24043956530610588,0.09189529439,1.6976497824507093,0.46838992119592987,-1.2824486839210312, ,0.008376952502656828,0.003508245752164257,0.0039673254097135745,-0.0005842487848134206,0.0030590720743169145,-0.0029624480616483578, ,0.6327700614929199
0.010339465082079322,0.020622063770086824,-0.08141022645653946, ,0.010574655985200885,0.020518868431504137,-0.08165609752120004, ,0.00035555114857592236, ,0.0012977034282689371,0.0006954771753496123,-0.004295399992227916,0.0016010748462432034,-0.0007960883170592842,-0.0003317122213950657, ,0.0045407250282752, ,0.0017880704151663044, ,3.400877611502193e-05, ,0.17601652766932502,-0.24033144704586673,0.09199640501,1.6976497824507093,0.4685265576956953,-1.2825601018247277, ,0.007069814262575655,0.004530319405434016,0.004490784189455879,-0.0005728958891210998,0.0066663609432382935,-0.005881117463624183, ,0.6546430587768555
0.010365156594228157,0.020635752795391288,-0.08149582329171524, ,0.010606937618024666,0.02053174038085359,-0.0817534384925513, ,0.00036829639904274514, ,0.001409860897416217,0.0006938512162553625,-0.004406704514301283,-0.0026786091622564203,-0.005861749503568608,-0.00042383762235083985, ,0.004678480729545181, ,0.006444769400447598, ,3.441824926447968e-05, ,0.17615553686106106,-0.24023877425137605,0.09208584902000001,1.6976497824507093,0.46866319419546076,-1.282671519728424, ,0.0077107785993199415,0.0048401628533532755,0.004594407706951255,-0.0005639436706154838,0.0020631162297841854,-0.002110402208814692, ,0.676800012588501
0.010395155222662295,0.020650332814855874,-0.08158737112925438, ,0.010639263672386491,0.02054442124787588,-0.08185042633266582, ,0.000374171398277236, ,0.0014825386413391426,0.000634133807461279,-0.004127311858893828,0.0005448336698588288,-0.003937332853598271,-0.0003449489720609942, ,0.004431111563636677, ,0.003974850000964589, ,3.482493817049366e-05, ,0.176325436984294,-0.24014610145688536,0.09217788561000001,1.6976497824507093,0.4687998306952262,-1.282864616372261, ,0.009540066240135753,0.004836953974049912,0.004377249661995055,-0.0005552136395518517,0.005965618158169613,-0.0051144834529258006, ,0.6988930702209473
0.010425262221105161,0.020661790739854757,-0.08166945143030788, ,0.010671633983501579,0.02055691211174618,-0.0819470628317466, ,0.00038570281584275205, ,0.0015413704492206201,0.0005944550459175369,-0.0043599649516803006,-0.0019147545141602598,-0.004120052453601125,-0.00011499979538654763, ,0.004662455795310879, ,0.004543249442242209, ,3.525164458674387e-05, ,0.17651850530614963,-0.240030260463772,0.09226732962,1.6976497824507093,0.4687998306952262,-1.28270125889198, ,0.009729943497092507,0.005918604413279761,0.004556296201372999,-0.0005466998639071979,0.005965618158169613,-0.00368235293867317, ,0.7217621803283691
0.010456207764239863,0.020676005592661143,-0.0817623060399736, ,0.010704048386913356,0.02056921404920044,-0.0820433497751043, ,0.00038963443002142356, ,0.001545355518809529,0.0007338793758908889,-0.0046930922780620676,0.0005255597838566032,-0.003120329433376632,-0.00046720201012064976, ,0.004995179451058678, ,0.0031642797889185046, ,3.5667170738587394e-05, ,0.176703850895131,-0.23992214220353283,0.09236455137,1.6976497824507093,0.4689364671949916,-1.282894355535817, ,0.009080293999734607,0.005243206118804934,0.004913266971005552,-0.0005383132260712065,0.0063309365167439425,-0.005512029959416638, ,0.7438600063323975
0.010502250299056071,0.020693418813237552,-0.08188874711742578, ,0.010736506718494434,0.020581328134533703,-0.08213928894316032, ,0.0003608484401279433, ,0.0015906309965969703,0.0005830255431503801,-0.004358342483795057,-0.001679421234638402,-0.006003809763859067,-0.0012247663580500893, ,0.0046760212742623115, ,0.006234275081467409, ,3.594998375064449e-05, ,0.17699731474435154,-0.2397522420802999,0.09249677295000001,1.6976497824507093,0.4690731036947571,-1.2829240946993727, ,0.010097908340656058,0.006040588571898853,0.004552389688482424,0.0,0.004258479444970638,-0.004105906059045038, ,0.7656381130218506
0.010530956109579702,0.020705124203363862,-0.08197121511946417, ,0.010769008814445351,0.020593255439605846,-0.08223488211145386, ,0.00037242985012413414, ,0.0014346222230920804,0.0005831462960293973,-0.00412446740104529,0.0032515063783602133,-0.0009868822553840471,-0.0012862432513611366, ,0.004405613676645713, ,0.0033979742672601955, ,3.625845640562259e-05, ,0.17719038306620716,-0.23964412382006076,0.09258362438,1.6976497824507093,0.46934637669428797,-1.283065251766625, ,0.009126063907078942,0.005370736379503207,0.004323781628664496,0.0,0.008465697164999524,-0.008221528334475899, ,0.7883000373840332
0.010563347848088066,0.020717992382042215,-0.08206420409351656, ,0.010801554511294591,0.020604997033841842,-0.08233013105064672, ,0.0003744696378071524, ,0.0014142912452771088,0.0006573861505702744,-0.0042213559131868625,0.006180285265308441,0.0018652767555731777,-0.0011681522596652572, ,0.004500246884697191, ,0.006455631804478298, ,3.655669664082462e-05, ,0.177391174120937,-0.23952056009407316,0.09268084613000001,1.6976497824507093,0.46948301319405333,-1.2831766696703215, ,0.008924258767890025,0.004803323053133868,0.004443183129707113,0.0,0.01122125981444604,-0.010468504906859834, ,0.8109421730041504
0.010596078005850879,0.020731165700745516,-0.08215624871042965, ,0.010834143645898483,0.020616553984234325,-0.08242503752652852, ,0.000376906516516698, ,0.001470668279707438,0.0006564992393939845,-0.004389771487043843,0.004013166924282815,-0.0001463688516389984,-0.0012639804873941284, ,0.0046758903054632955, ,0.004015835028086347, ,3.6846912941134236e-05, ,0.1775842424427926,-0.2394047191009598,0.09277677159000002,1.6976497824507093,0.46948301319405333,-1.2831766696703215, ,0.009021073221995274,0.005265883791156996,0.004605033686036427,0.0,0.00923059776160276,-0.008845253482265657, ,0.8327720165252686
0.010626991580786262,0.02074339836472811,-0.08224419314928405, ,0.010866776055440638,0.020627927355346076,-0.08251960330002195, ,0.0003829894246874872, ,0.001554660312767297,0.0006290637711669387,-0.004332457107318387,-0.0026865201557511563,-0.007892654521435448,-0.0013350512912572174, ,0.004645737239991311, ,0.008337348764180498, ,3.714194344668077e-05, ,0.1777773107646482,-0.23928887810784644,0.09286880818000001,1.6976497824507093,0.4696196496938188,-1.283288087574018, ,0.009373735747936525,0.005354740879372528,0.004525230545454546,0.0,0.001543134322122449,-0.002576642513453222, ,0.8544211387634277
0.01065742864409697,0.020758096015425633,-0.08233911768412785, ,0.010899451577431775,0.020639118209312173,-0.08261383012718845, ,0.0003849646022426973, ,0.0015104877581520852,0.0007023656315894328,-0.004510123515398901,0.0017163423820277532,-0.002856550104574964,-0.0012470955787390505, ,0.00480792105510474, ,0.0033325227390313063, ,3.7550345401307997e-05, ,0.1779626563536296,-0.23918075984760728,0.09296862251000002,1.6976497824507093,0.4698929226933497,-1.2835109233814108, ,0.008947539386100765,0.005035295513347393,0.004764825462159737,0.0,0.006296549914102973,-0.006452734198804708, ,0.8742661476135254
0.010689469418680816,0.020771177415002565,-0.08243394860038766, ,0.010932170049709204,0.020650127605842537,-0.08270771975923362, ,0.0003853664490003181, ,0.0016037944890543191,0.0006671906324034982,-0.004670657492631892,-0.00015600913391260825,-0.004643517055137868,-0.001406233809040832, ,0.004983205947637165, ,0.004646136811209184, ,3.794176403131171e-05, ,0.17814027920973677,-0.2390571961216197,0.09306714055000001,1.6976497824507093,0.4698929226933497,-1.2835109233814108, ,0.009536158239291074,0.005883772780749197,0.004880150588235295,0.0,0.005090143342259184,-0.005468990532425901, ,0.8947601318359375
0.010716737467533113,0.020783737211345465,-0.08251553796834317, ,0.010964931310437005,0.02066095660222328,-0.08280127394251209, ,0.0003978948461165074, ,0.0017901508620748869,0.0007416948892209231,-0.004888903831121383,-0.0034133255599345584,-0.009873368646548007,-0.0013936176404991884, ,0.005258909781279503, ,0.010446731403449903, ,3.835520933724085e-05, ,0.17830245660009547,-0.238964523327129,0.09315269569000001,1.6976497824507093,0.4700295591931152,-1.2836223412851073, ,0.010865186170286398,0.00564917254463947,0.0051168684612913585,0.0,0.0010344450676906597,-0.002161840535511886, ,0.9158360958099365
0.010754223165275755,0.020797610439520532,-0.08262103284617538, ,0.010997735198105166,0.020671606253319822,-0.08289449441853305, ,0.0003872420388195845, ,0.0014337151683763165,0.0005370381738219249,-0.004353578379295907,0.003490235533461225,0.0009711741330567071,-0.001477202544544649, ,0.004614931623420556, ,0.0036228333817292084, ,3.871837622855247e-05, ,0.17853413858632222,-0.23881779140251874,0.09326288034,1.6976497824507093,0.4701661956928806,-1.2837337591888036, ,0.008629451550944581,0.00645682637414405,0.00454071023945268,0.0,0.00998483817327243,-0.00946028596403753, ,0.9350690841674805
0.010768854926432371,0.020802585858959124,-0.08266228603713323, ,0.011030581551529719,0.020682077611578607,-0.08298738292396592, ,0.00043440885096861996, ,0.0013910258611003457,0.00042182495135356207,-0.0037123460474234203,0.0030723639710082376,-0.000782063643339227,-0.0013988275757796638, ,0.003986778450284727, ,0.003170338027323941, ,3.9207538556003815e-05, ,0.17871948417530362,-0.23869422767653115,0.09334843548,1.6976497824507093,0.470302832192646,-1.2838451770925001, ,0.008422941336344733,0.006600945451336113,0.004382066442916094,0.0,0.0010126193800703614,-0.002144043150731384, ,0.9549400806427002
0.010811504791886722,0.020815345715111948,-0.08277573512418435, ,0.011063470209852024,0.020692371727030315,-0.08307994119064539, ,0.0004137034015654607, ,0.001372600174922855,0.0002609074837874454,-0.0033610394209984055,0.004415418803002713,0.0009227747802343035,-0.0015399332942382974, ,0.003639874990270936, ,0.004510813238434345, ,3.961589817967958e-05, ,0.17892027523003345,-0.23857066395054355,0.09342491659,1.6976497824507093,0.4705761051921769,-1.284068012899893, ,0.010134998520449611,0.006839997619329182,0.003516293933774835,0.0,0.011499173190811993,-0.010695124630411336, ,0.9738731384277344
0.010847516273578415,0.02082726474942872,-0.082877038274947, ,0.01109640101253912,0.020702489647289837,-0.0831721709455764, ,0.00040572864413811096, ,0.0017890228431316796,0.0007871863279472866,-0.00550698186977744,0.0009075027231053893,-0.0009650601260635549,-0.0009493131820883717, ,0.005843553230887139, ,0.001324725320393745, ,3.9984913573013926e-05, ,0.1791287890176375,-0.23841620929305907,0.09352991608000001,1.6976497824507093,0.4705761051921769,-1.2841496916400335, ,0.01026501377133969,0.006858594502615953,0.005756708174918685,0.0,0.00966683036930587,-0.00719274687226489, ,0.9936549663543701
0.010884507950962886,0.020842856870689694,-0.08299073997695242, ,0.011129373799382536,0.020712432417561412,-0.08326407391094062, ,0.00038946278534098146, ,0.0016029048882644787,0.0004631229417487912,-0.004616601044780618,-0.001770089332672542,-0.00224244324867004,-0.0011699546921932898, ,0.0049088483523801905, ,0.0028568804441353093, ,4.029355692605585e-05, ,0.1793218573394931,-0.2382694773684488,0.09364787847000001,1.6976497824507093,0.4705761051921769,-1.2841496916400335, ,0.00976899144123333,0.00798749452020979,0.004790620006015038,0.0,0.007823301333451198,-0.005708729220510054, ,1.0142199993133545
0.01089977682092957,0.020846191212887995,-0.0830304336484808, ,0.011162388410498953,0.020722201080638478,-0.08335565180410026, ,0.00043601060608193515, ,0.0017157563116822962,0.00034233283300895526,-0.004165780191093382,-0.008081360274156865,-0.010818132777899756,-0.0012463749390925394, ,0.00451826693436096, ,0.01350334697126819, ,4.0718848935999344e-05, ,0.17942997559973226,-0.23819225003970657,0.09368935975,1.6976497824507093,0.4707127416919423,-1.28426110954373, ,0.011347658240057082,0.00807799394202846,0.004314412654387867,0.0,0.0005488269516746943,0.0001871956583433486, ,1.0340080261230469
0.010956523624417387,0.02086353274992741,-0.0831857799422083, ,0.011195444686328958,0.02073179667690766,-0.08344690633760495, ,0.0003776568033710811, ,0.001969023950775697,0.0008093715288837877,-0.005888707519135964,-0.0016480021458114827,-0.004662309063187759,-0.0013207562624104035, ,0.006261710136729778, ,0.004945000484549532, ,4.09698648189779e-05, ,0.17979294404482082,-0.2379528453206056,0.093851396,1.6974400925072246,0.4709860146914732,-1.2845656240912633, ,0.011203539929632592,0.007622416677512152,0.006143004828384112,0.0,0.006799183547627514,-0.005549877477727783, ,1.0538151264190674
0.010991261620655501,0.02087353771225419,-0.08328582145198758, ,0.01122854246763748,0.02074122024434962,-0.08353783921919578, ,0.00037057127201897997, ,0.0016532772510816141,0.0004644276931782157,-0.004436611998637712,-0.007349837186795607,-0.008400548480312452,-0.0008092039697550236, ,0.004757367420915787, ,0.011161958597108177, ,4.119268986761123e-05, ,0.18000145783242488,-0.2377906679302469,0.0939550992,1.6972304025637401,0.47112265119123864,-1.2847587207351001, ,0.010086262996657203,0.007385969362659265,0.0046023725859578165,0.0,0.001747917422077555,0.00023802110813867764, ,1.0760071277618408
0.0110136314012164,0.020880069749363704,-0.0833471724446246, ,0.011261681595513332,0.020750472818541792,-0.08362845215181178, ,0.00039679029353615816, ,0.001788002503062414,0.0005146979540177441,-0.0049146243353730135,-0.008068490370165276,-0.008944177482087864,-0.0009577384092747179, ,0.005255035612882956, ,0.012045698187211039, ,4.1584402313502574e-05, ,0.1801327442912867,-0.23769027240288196,0.09401861741,1.6972304025637401,0.47112265119123864,-1.2847587207351001, ,0.010629863294731985,0.008150233286570186,0.005092331048593351,0.0,0.001747917422077555,0.00020329579204910722, ,1.0929641723632812
0.01104851788413371,0.020889677950811106,-0.0834386744985539, ,0.011294861911368342,0.020759555432661628,-0.0837187468335942, ,0.00039504146913794816, ,0.0016676532198066053,0.0003911926436299769,-0.0041804558998217575,-0.0007281362334113125,-0.0033320391552426106,-0.001151225950797741, ,0.004517777160984823, ,0.003410669440108489, ,4.1959492662102916e-05, ,0.18037214901038764,-0.23753581774539748,0.09411454287000001,1.6972304025637401,0.47139592419076953,-1.2848998778023524, ,0.01139585190697363,0.007567541669396623,0.004365253910660455,0.0,0.008378817431812,-0.006322676484511164, ,1.1095170974731445
0.011083064973318615,0.020900476384368167,-0.08353529784541695, ,0.01132808325693806,0.020768469117486664,-0.08380872495789253, ,0.00039015671678708185, ,0.0015962649851415703,0.0006304232287979992,-0.004833885926537809,0.0032374120131022674,0.001966810532683089,-0.0009775135367208843, ,0.005129517375053661, ,0.003788030830760642, ,4.231076109056602e-05, ,0.18059610826374015,-0.23738136308791297,0.09421565349000001,1.6972304025637401,0.4716691971903004,-1.2851227136097454, ,0.009477156263898482,0.006641367855900479,0.005056765561904762,0.0,0.011891173042790406,-0.009223808300615123, ,1.127364158630371
0.011101641984943001,0.020907121074053413,-0.08358634502510064, ,0.011361345474280523,0.02077721490139894,-0.08389838821326981, ,0.00042625399394093636, ,0.00189350703326755,0.0007471577466687759,-0.005496004550677332,0.002691546431076736,-7.979115736002586e-05,-0.0010855945392682453, ,0.005860859971412624, ,0.0026927279485393445, ,4.2741734659059874e-05, ,0.1807042265239793,-0.23731185849204495,0.09426880138,1.6972304025637401,0.4716691971903004,-1.2851227136097454, ,0.01152361160394302,0.007212559524818029,0.005760872159132007,0.0,0.011891173042790406,-0.009240355449919609, ,1.1440150737762451
0.011141102121988322,0.02092499944352917,-0.08370447391913693, ,0.01139464840577639,0.020785793810386113,-0.08398773828350767, ,0.00040484889334646193, ,0.002071236259736585,0.001015202781469185,-0.006350083517577502,0.003158902107647285,-0.0005139008633605232,-0.0009769786700743307, ,0.0067560504002974866, ,0.0032004290802784144, ,4.310724816987786e-05, ,0.18091274031158336,-0.23718057203318313,0.09439194893000001,1.6972304025637401,0.4716691971903004,-1.2851227136097454, ,0.011719940869402014,0.006549035419482783,0.006670356582914574,0.0,0.011644350556529955,-0.009066708068628195, ,1.1621301174163818
0.011179114928487749,0.02094024591350698,-0.08382184914194496, ,0.011427991894128839,0.02079420686804325,-0.08407677684761171, ,0.00038503932519054024, ,0.0017619444303563281,0.0004370738561589472,-0.004600624491401942,-0.0033876809976730944,-0.005671371989255946,-0.0013092900632446754, ,0.004945829297730434, ,0.006606121458275205, ,4.3414034180002315e-05, ,0.1811444222978101,-0.23701839464282443,0.09451509648,1.6972304025637401,0.47207910668959674,-1.2854569673208347, ,0.011258497224936544,0.008128655421527508,0.0047848637789125875,0.0,0.005804814246870183,-0.004333307728622281, ,1.1787850856781006
0.011198396000301309,0.020945285659617296,-0.08386915574291849, ,0.011461375782362788,0.02080245509557653,-0.08416550557981745, ,0.0004211676170212323, ,0.0019002159304172537,0.0005544200055990743,-0.004783741859464298,-0.00260969743556937,-0.006876436646840941,-0.0011732591109763408, ,0.005177102307547236, ,0.007354991445138185, ,4.379844425641671e-05, ,0.18126798602379768,-0.23694116731408219,0.0945643555,1.6972304025637401,0.47207910668959674,-1.2854569673208347, ,0.012463480635470288,0.007349505846900566,0.005007485545425967,0.0,0.005804814246870183,-0.004345222547526214, ,1.1948840618133545
0.011238481018778643,0.020957386604257413,-0.08397679131594654, ,0.011494799913824896,0.020810539511804085,-0.08425392614959448, ,0.00040505204670609915, ,0.001821593690954011,0.0005569420928790414,-0.005118293843849465,0.004185530130106469,0.002525668973907699,-0.0012958764707744965, ,0.005461256260397535, ,0.004888523572942063, ,4.4133966381811995e-05, ,0.18153055894152131,-0.23677126719084923,0.09467713273000002,1.6972304025637401,0.47235237968912763,-1.2856798031282275, ,0.011651650508048157,0.008263638311103008,0.005354222359663867,0.0,0.014730964566396294,-0.011647008457084714, ,1.2133960723876953
0.011275128509063006,0.020965800589800593,-0.08407018051409391, ,0.011528264132183112,0.020818461133159227,-0.0843420402216534, ,0.00039961764196554784, ,0.0017433127701044055,0.0003283379876130046,-0.0044052430066993,-0.0012664164268786084,-0.0030458794549225263,-0.001435120690389107, ,0.0047490116020696286, ,0.003298664966494142, ,4.444748694849729e-05, ,0.18176996366062229,-0.2366013670676163,0.09477435448,1.6972304025637401,0.4724890161888931,-1.2857912210319238, ,0.011690200249518352,0.008801739956349535,0.004581193994823124,0.0,0.008981529946882982,-0.006978355353993859, ,1.229931116104126
0.01129334492413975,0.020969494116017083,-0.08411742027832975, ,0.011561768281426618,0.020826220973691852,-0.08442984945594942, ,0.00043610810939147227, ,0.00198525545340754,0.0004615333553430893,-0.005052408188028958,-0.003675547663591974,-0.006609663602288283,-0.0015064182720382338, ,0.005448034576968164, ,0.007562889677266613, ,4.4836072241388316e-05, ,0.18189352738660988,-0.2365086942731256,0.09482361350000001,1.6972304025637401,0.4726256526886585,-1.2859026389356203, ,0.012867381906233327,0.009092729969873209,0.0052587690723010895,0.0,0.006501497545997647,-0.004965061712567711, ,1.2464580535888672
0.011336545117641744,0.020983018327241337,-0.08423151770288025, ,0.0115953122058652,0.02083382004507136,-0.08451735550768898, ,0.0004134292974717593, ,0.002109594960698535,0.0006528966816076883,-0.005641383504553728,0.00031390596022806135,-0.0032403703557390244,-0.0014012760008237386, ,0.006058207063192037, ,0.0032555385545833026, ,4.516279817809291e-05, ,0.18216382303720774,-0.23633879414989267,0.09494287218000001,1.6972304025637401,0.47276228918842395,-1.2860140568393168, ,0.013399737582387853,0.008596174521802584,0.005903933106004449,0.0,0.010555668666934685,-0.008287943387083854, ,1.2634329795837402
0.01137735862179429,0.02098892777016299,-0.08433113834188373, ,0.011628895750129434,0.020841259356588048,-0.08460456002733471, ,0.0003997953293545179, ,0.001862892535821145,0.0002453371681054722,-0.004299710022948179,-0.0017506078423859361,-0.004477464280458314,-0.0015709541118496145, ,0.004692341122245183, ,0.004807526675018499, ,4.545033956265978e-05, ,0.18244956415355404,-0.2361225576294144,0.09504657538000001,1.6972304025637401,0.47303556218795484,-1.2862368926467096, ,0.013235277762687694,0.009438031434038104,0.004476900370994942,0.0,0.009099109735568134,-0.007116036159243518, ,1.2804710865020752
0.011398330273599294,0.020993529942056402,-0.084379645405766, ,0.011662518759169587,0.020848539915156734,-0.08469146466061049, ,0.00043364606708705286, ,0.002020973153956345,0.0004895699962698444,-0.005109464342723518,-0.0012334053941309418,-0.004561178409208173,-0.001479913895727157, ,0.005516397115855873, ,0.004725000938043554, ,4.590595627187337e-05, ,0.18254995968091897,-0.2360607757664206,0.09508287150000001,1.6972304025637401,0.47303556218795484,-1.2862368926467096, ,0.013556705936924398,0.007991011308552983,0.005040763139240507,0.0,0.009099109735568134,-0.007121300781078248, ,1.2969839572906494
0.011440389110344102,0.02100402264195538,-0.08449274108922351, ,0.011696181078256082,0.020855662725317737,-0.08477807104850782, ,0.00041091773066904123, ,0.00199991444760574,0.0005039405276250851,-0.005428970007271242,0.0015710758826706119,-8.797079080021165e-05,-0.0015930224442542897, ,0.005807523499132477, ,0.0015735353739263621, ,4.630199982931808e-05, ,0.18285886899588794,-0.23583681651306806,0.09521509308000001,1.6972304025637401,0.47330883518748573,-1.2864597284541024, ,0.012739554511809742,0.009616935966542636,0.005660558464818764,0.0,0.013144803319579308,-0.010436019165142679, ,1.3107140064239502
0.011460771836568958,0.021008797363014777,-0.0845474704662388, ,0.011729882552979135,0.020862628789238988,-0.08486438082728874, ,0.00044070172065383716, ,0.0022064771484921505,0.0004917600702121039,-0.005834553783897296,-0.0013528633631452,-0.0033090320077102282,-0.001834483055237867, ,0.006257186846392181, ,0.003574902144949744, ,4.675381780233589e-05, ,0.18299015545474975,-0.23573642098570316,0.09527212984000001,1.6972304025637401,0.47344547168725115,-1.286571146357799, ,0.014052560574333005,0.010863390989670318,0.006068118674285715,0.0,0.011162095017540669,-0.008825205660889745, ,1.3241980075836182
0.011508829125143045,0.0210228473376959,-0.08467553204953666, ,0.011763623029247787,0.02086943910671978,-0.08495039562849471, ,0.0004049740805752717, ,0.002504360556677236,0.0008016638179774284,-0.006992221904664264,-0.0011166277446021714,-0.00429887270532001,-0.0017869348076360615, ,0.007470318188602251, ,0.004441525339647346, ,4.711964043388203e-05, ,0.1832836193039703,-0.23553562993097332,0.09540564771000001,1.6972304025637401,0.47358210818701657,-1.2866825642614952, ,0.014960892567944313,0.01056099080475442,0.007296752872194229,0.0,0.011077432295343703,-0.008767787366889383, ,1.3441290855407715
0.011534902971551332,0.021032424485753466,-0.08474981689772385, ,0.011797402353290293,0.02087609467519143,-0.08503611707894894, ,0.0004187036288990351, ,0.002406614941401923,0.0009038334448524894,-0.006908833828598609,-2.0725817914179354e-06,-0.003599118847627777,-0.0015365940771354591, ,0.007371614154539114, ,0.003599117257641917, ,4.7506755500963685e-05, ,0.18343807396145478,-0.2354352344036084,0.09548342511,1.6972304025637401,0.47371874468678205,-1.2867939821651917, ,0.013957485153474154,0.009157284720493177,0.007227228457350273,0.0,0.010761781787438614,-0.00851621682813142, ,1.3575880527496338
0.011576745132552354,0.021042219678063113,-0.0848582278223533, ,0.011831220371653645,0.020882596489720264,-0.08512154680076293, ,0.00039946726269256055, ,0.0020620075899244403,0.000275583165866615,-0.004850215529220082,-0.0051052802177904,-0.007833790116459904,-0.001809242474488896, ,0.005277538447240599, ,0.009350516082375705, ,4.7845528482527996e-05, ,0.18370064687917842,-0.2352421660817528,0.09559620234,1.6972304025637401,0.47385538118654746,-1.286905400068888, ,0.013936986570490641,0.010493069544445668,0.0050327998483412325,0.0,0.006340604837144882,-0.004920795483245864, ,1.3720741271972656
0.01162207464940983,0.02105059802607035,-0.08496812177508266, ,0.011865076931203257,0.0208889455430091,-0.08520668641134198, ,0.00037695453294823576, ,0.0022352676146678136,0.0005215492151847649,-0.005461734538281612,0.006860390896291097,0.002677280406922616,-0.0015827933127493807, ,0.005924439134610198, ,0.007364291464018717, ,4.8130677324216606e-05, ,0.18402500165989585,-0.2350259295612745,0.09571157215000001,1.6972304025637401,0.4742652906858438,-1.2872396537799773, ,0.015784587750909976,0.009555634963338134,0.005752550205850488,0.0,0.0191803960982637,-0.015401132878489175, ,1.3891971111297607
0.011645519542901094,0.021056540187926368,-0.08502534348641183, ,0.011898971879122254,0.020895142825401482,-0.08529153752339051, ,0.0004014305178844289, ,0.0020548658900245887,0.0005703368167809979,-0.005670865725230885,0.006749692744284718,0.005028109519011418,-0.001573251560487742, ,0.006058586962663887, ,0.0084166639241869, ,4.8460138658772635e-05, ,0.18417173358450611,-0.2349332567667838,0.09577120149000001,1.6972304025637401,0.4742652906858438,-1.2872396537799773, ,0.0132278981821119,0.009486537972857924,0.005941369459157032,0.0,0.01896679701533378,-0.015231559048004727, ,1.402951955795288
0.01166736361918508,0.02106120921888457,-0.08507986938489177, ,0.011932905062912063,0.020901189324880748,-0.08537610174491651, ,0.0004288032601781759, ,0.002061971215617789,0.00027805635723508575,-0.00479597851620596,-0.0027803471220093313,-0.005732824195038618,-0.0017762007980480538, ,0.005227853341453284, ,0.006371467714169322, ,4.883844001147915e-05, ,0.18431846550911637,-0.23483286123941888,0.09582823825,1.6972304025637401,0.4744019271856092,-1.2873510716836738, ,0.014208255960244165,0.010302037308989978,0.0049917930178627395,0.0,0.008804936899238704,-0.006949793795047882, ,1.417268991470337
0.011709061757763041,0.021070272613140067,-0.08518521514678336, ,0.01196687633039105,0.02090708602707581,-0.08546038067923846, ,0.0004108701570836822, ,0.0023937341601372297,0.0006445903472920888,-0.006104400593572041,-0.0004774883737105559,-0.004875613588822416,-0.0016809514654475904, ,0.006588563314716852, ,0.004898938103106284, ,4.917313470430303e-05, ,0.18459648389258845,-0.2346397929175633,0.09593842290000001,1.6972304025637401,0.47467520018514014,-1.2875739074910666, ,0.015370414894472106,0.00980124265678846,0.006391978940609952,0.0,0.010902664314069515,-0.00866842234145819, ,1.4323651790618896
0.011733167455774147,0.02107677741609064,-0.0852443486084443, ,0.012000885529695166,0.0209128339152603,-0.08554437592498888, ,0.00043424282290145785, ,0.002440308160371938,0.0006933626574451194,-0.006021559065138118,-0.0007181162573069143,-0.006564758184610316,-0.0015499938722166463, ,0.0065341433460909225, ,0.006603918008629901, ,4.954764195953154e-05, ,0.18475866128294716,-0.23454712012307258,0.09600064482000001,1.6972304025637401,0.47481183668490556,-1.287685325394763, ,0.01594906580814635,0.009041221605339057,0.006325977569499604,0.0,0.00974880114123087,-0.007731405684255575, ,1.445803165435791
0.011758777401432677,0.021083807647347366,-0.08530906008445216, ,0.012034932509277103,0.020918433970356552,-0.08562808907612104, ,0.00045319928746115015, ,0.0023554360664565298,0.0006011807393328299,-0.006108228331143819,-0.0018877505532776495,-0.0053857956261476984,-0.001771805263967477, ,0.006574188215277761, ,0.005707047237841192, ,5.0050617737880695e-05, ,0.18491311594043167,-0.23444672459570767,0.0960680519,1.6972304025637401,0.47481183668490556,-1.287685325394763, ,0.014769951993536307,0.010235437802905725,0.006376625908726983,0.0,0.00974880114123087,-0.007735400005016265, ,1.4577791690826416
0.01178915448644,0.02109057668489589,-0.08538340327246187, ,0.01206901711790619,0.020923887170937374,-0.08571152172191364, ,0.0004623528992290841, ,0.0023917776008087204,0.0006259450473828928,-0.006153554020640244,-0.00015481054789904912,-0.0040650034885149205,-0.001741549092820933, ,0.006631638890878423, ,0.004067949218475907, ,5.056363227462739e-05, ,0.1851139069951615,-0.23431543813684585,0.09614582930000001,1.6972304025637401,0.47494847318467104,-1.2877967432984594, ,0.015232253861712806,0.010096502564990537,0.006438484850444625,0.0,0.011601201329815075,-0.009250422702377784, ,1.4725160598754883
0.011829963545917088,0.021104408063984847,-0.0854992342558449, ,0.012103139204667969,0.020929194493228283,-0.08579467544697682, ,0.00043887382392743897, ,0.002423121008908773,0.0007089551163087396,-0.006794663497662405,0.003835353912539452,0.0018077485981927849,-0.0018714499309198742, ,0.007248557430773472, ,0.004240033035994577, ,5.102308721604279e-05, ,0.18536875718001092,-0.23413781528073868,0.09626768056000001,1.6974400925072246,0.4753583826839673,-1.2881309970095487, ,0.01469447840793911,0.010893042775539152,0.007101565546143559,0.0,0.01714577413315006,-0.013777796418436166, ,1.4833040237426758
0.011856548796951617,0.021110957753516815,-0.08556741385139334, ,0.012137298618963952,0.0209343569111098,-0.08587755183125624, ,0.000454085770149502, ,0.0024381797898667744,0.0006605675213323003,-0.006682021489362487,0.01451591351192072,0.012582557389621921,-0.0018866852119063945, ,0.007143562229186217, ,0.019210218172306497, ,5.150477010869275e-05, ,0.18553865730324384,-0.2340219742876253,0.09633897651000001,1.6974400925072246,0.47549501918373277,-1.2882424149132452, ,0.01627455694708811,0.011254381114619398,0.00703258786754967,0.0,0.029982608622112522,-0.02424874509451645, ,1.4951691627502441
0.011879114787513117,0.021116417330541534,-0.08562618669894025, ,0.012171495210511474,0.02093937539611966,-0.08596015245004, ,0.00047787370842531377, ,0.002425802247028941,0.0006205961639005114,-0.006588445671235154,0.008272459514862263,0.006325786539304322,-0.001938125543486024, ,0.007048210588734983, ,0.010413892132713407, ,5.2024568632575246e-05, ,0.18566994376210566,-0.2339215787602604,0.09639990214000001,1.6974400925072246,0.47549501918373277,-1.2882424149132452, ,0.01564665153478496,0.011355436007557278,0.006904556358907673,0.0,0.02282962833203232,-0.018418787150142953, ,1.5070011615753174
0.01193189600312396,0.0211272074426319,-0.0857585722364223, ,0.01220572882934315,0.020944250917454735,-0.08604247887396219, ,0.00043481086193803103, ,0.0025723922853128473,0.00048693571967181013,-0.006178839859774502,-0.0015601818632540421,-0.005813299450696226,-0.002051393040042563, ,0.006710616251684159, ,0.006019020596727907, ,5.245476329558802e-05, ,0.18602518947431998,-0.2336744513082852,0.09653860517000001,1.6974400925072246,0.4759049286830291,-1.2885766686243345, ,0.01710471188869336,0.011660949021710549,0.006456753757600325,0.0,0.011731019189789011,-0.009375066370403662, ,1.5200941562652588
0.011959131650554074,0.02113121656072054,-0.08582538464008597, ,0.01223999932580661,0.020948984441974097,-0.0861245326690106, ,0.00044898189196678216, ,0.00280429619156465,0.0005305333262261147,-0.007065079806567349,0.0138449844186307,0.01115344141321705,-0.0023622321765661204, ,0.007619770036781048, ,0.017778718494516017, ,5.290516412192405e-05, ,0.1862182577961756,-0.2335431648494234,0.09660860483000001,1.6972304025637401,0.47617820168256,-1.2887995044317273, ,0.01969633490213175,0.01374521169734513,0.007429482985074627,0.0,0.032044961906461625,-0.02594271694382179, ,1.53090500831604
0.011987867861281958,0.021137850221649514,-0.08589940975922208, ,0.012274306550564443,0.02095357693420036,-0.08620631539652941, ,0.0004584701052371939, ,0.0028617558570404322,0.0006965037139392174,-0.007603393169861585,0.009048872563746103,0.006340547342564545,-0.0023030435698966774, ,0.008153916341509406, ,0.011049190462034456, ,5.336656496070816e-05, ,0.1864113261180312,-0.23341187839056157,0.09668638223,1.6972304025637401,0.47645147468209087,-1.28902234023912, ,0.01859266096365023,0.013253762787495918,0.00797237813813814,0.0,0.025898052831943852,-0.02093316009839625, ,1.5420019626617432
0.012009098472474495,0.021142110019302857,-0.08595057039711018, ,0.012308650354593503,0.020958029356322506,-0.08628782861322669, ,0.00048719618728230426, ,0.0030145649209080802,0.0006578911213314665,-0.007452078030906956,0.004801784201555612,2.3977855058646423e-05,-0.0023271804427688575, ,0.008065599132651114, ,0.004801841675220805, ,5.38744126925068e-05, ,0.18654261257689303,-0.2333192055960709,0.09673953012000001,1.6972304025637401,0.47645147468209087,-1.28902234023912, ,0.02016938184027009,0.013274156043988078,0.00781974055964654,0.0,0.020974989790051645,-0.016920599115992443, ,1.5536441802978516
0.01205352828932548,0.021150086723622574,-0.08605946871564829, ,0.012343030589185266,0.020962342668197007,-0.08636907387117802, ,0.0004635890036469093, ,0.003031882938483783,0.0005882481148381727,-0.008082051652900489,-0.004149107582059694,-0.00559105519329982,-0.0027818823700129333, ,0.008652046516138899, ,0.0069623959538930745, ,5.4331302845134575e-05, ,0.1868129082274909,-0.23311069180846683,0.09685230735000001,1.6972304025637401,0.47645147468209087,-1.28902234023912, ,0.018242395532193537,0.015539043975515109,0.008383585010526317,0.0,0.013141264536054615,-0.010536562612790047, ,1.5645971298217773
0.012082570265958704,0.02115688651036633,-0.08613688948674164, ,0.012377447105944506,0.02096651782735262,-0.08645005271783385, ,0.0004703868573211806, ,0.003097241155596321,0.0006697366232759469,-0.007500412612838352,-0.0004045539563876719,-0.00609559308767325,-0.002344353435542388, ,0.008142336230057154, ,0.006109001166894772, ,5.479393839530028e-05, ,0.18701369928222072,-0.2329716826167308,0.09693397362000002,1.6972304025637401,0.4768613841813871,-1.2893565939502094, ,0.02034232402110842,0.013178300452502538,0.007858318460779478,0.0,0.01479751472617968,-0.011889701741701621, ,1.5753090381622314
0.012112506978399792,0.02116306567978669,-0.08621163854355601, ,0.012411899756790136,0.020970555788989122,-0.08653076669602254, ,0.0004780573935249621, ,0.0029052162711004186,0.000541073297049067,-0.007483835808467323,0.030081814615281432,0.028619957025807257,-0.0025356053201827477, ,0.008046169293691497, ,0.04152128956609329, ,5.536425762864403e-05, ,0.187229935802699,-0.23283267342499475,0.09701304731,1.6972304025637401,0.4772712936806835,-1.2896908476612985, ,0.021616615389173297,0.014832282206700654,0.00792872649079144,0.0,0.05217660299089847,-0.042372439934567734, ,1.5835740566253662
0.012112506978399792,0.02116306567978669,-0.08621163854355601, ,0.012446388393953824,0.020974457505983125,-0.08661121734395774, ,0.000553816811417245, ,0.0029052162711004186,0.000541073297049067,-0.007483835808467323,0.030081814615281432,0.028619957025807257,-0.0025356053201827477, ,0.008046169293691497, ,0.04152128956609329, ,5.606538608891765e-05, ,0.187229935802699,-0.23283267342499475,0.09701304731,1.6972304025637401,0.4772712936806835,-1.2896908476612985, ,0.021616615389173297,0.014832282206700654,0.00792872649079144,0.0,0.05217660299089847,-0.042372439934567734, ,1.5923221111297607
0.012149007940555056,0.02117124578619793,-0.08630864746321128, ,0.01248091286998078,0.02097822392888669,-0.0866914061952421, ,0.0005421462593459618, ,0.003468887187158173,0.0008319354240766115,-0.008809694299637098,0.01782089518452819,0.01297161364522267,-0.0026468016980259147, ,0.009504525686225592, ,0.022041937588931533, ,5.673795821316083e-05, ,0.18748478598754842,-0.23265505056888758,0.09711545422000001,1.6972304025637401,0.4778178396797452,-1.2901365192760843, ,0.02380159055893423,0.015082158543940048,0.009298780805604204,0.0,0.038189669538170115,-0.030969863522540657, ,1.6018931865692139
0.012191857127099168,0.021179601820050485,-0.08641036464163211, ,0.012515473037728484,0.020981856005933018,-0.08677133477887355, ,0.0005235743544077835, ,0.0035965729806016816,0.000691426755802954,-0.008388277815548118,-0.016935200070382024,-0.024679253210952073,-0.0028299960859923135, ,0.009152956510016366, ,0.02993102903249327, ,5.737008787285368e-05, ,0.1877628043710205,-0.23246970497990618,0.09722175000000001,1.6972304025637401,0.4779544761795107,-1.2902479371797808, ,0.02234972716874017,0.015123018575055103,0.008723335991237677,0.0,-0.002419290190021309,0.0019727689297385624, ,1.6100120544433594
0.01223345147816719,0.021186496362051242,-0.0865042655017384, ,0.012550068750367117,0.02098535468303613,-0.08685100461925117, ,0.0005108155123974609, ,0.0039431143558501915,0.0007123727377367146,-0.00948619899313296,-0.015413769742487558,-0.02234875499306547,-0.0034507422556225996, ,0.010297747184607863, ,0.02714868450950837, ,5.797276625146383e-05, ,0.1880099318229957,-0.23229980485667326,0.09731508288000001,1.6972304025637401,0.4778178396797452,-1.2900548405359438, ,0.024345033750249045,0.0176749751459249,0.009802345550769233,0.0,0.0019172992911699715,-0.001980269228406837, ,1.6181039810180664
0.012270319654575052,0.02119341886868545,-0.086600692918184, ,0.012584699861378635,0.02098872090379456,-0.08693041723617875, ,0.0004994539990203743, ,0.0038291006655139675,0.0008521549123273753,-0.009861577873518918,0.011203774653246798,0.0065926740657748974,-0.0012782044805473873, ,0.010613147415197864, ,0.012999531705042677, ,5.854893563246558e-05, ,0.1882647820078451,-0.23211445926769186,0.09742008237000001,1.6970207126202554,0.47822774917904154,-1.2903074155068925, ,0.024992610365675735,0.01741547835538095,0.010350104951267057,-0.0020081485724907557,0.03327641722723021,-0.02724143252072834, ,1.626147985458374
0.012270319654575052,0.02119341886868545,-0.086600692918184, ,0.012619366224557069,0.0209919556094928,-0.08700957414487162, ,0.0005741121931803172, ,0.0038291006655139675,0.0008521549123273753,-0.009861577873518918,0.011203774653246798,0.0065926740657748974,-0.0012782044805473873, ,0.010613147415197864, ,0.012999531705042677, ,5.925045919986509e-05, ,0.1882647820078451,-0.23211445926769186,0.09742008237000001,1.6970207126202554,0.47822774917904154,-1.2903074155068925, ,0.024992610365675735,0.01741547835538095,0.010350104951267057,-0.0020081485724907557,0.03327641722723021,-0.02724143252072834, ,1.6344749927520752
0.01231595704407018,0.021204344029441886,-0.08672232435558407, ,0.012654067694007893,0.02099505973910383,-0.08708847685596173, ,0.0005405426711337612, ,0.0037298752906814547,0.0007382208551434561,-0.009203686715213315,0.04082436909708251,0.03629997119339452,-0.0012052333142651788, ,0.009958151880082913, ,0.05462890219266521, ,5.988582048451336e-05, ,0.18860458225431098,-0.23189822274721358,0.09754971137000001,1.6970207126202554,0.47918420467739964,-1.2910873408327674, ,0.028352835840594795,0.017253989374267416,0.009808381477832513,-0.0020026768615368203,0.06759830189443654,-0.05522862808776308, ,1.6458210945129395
0.01231595704407018,0.021204344029441886,-0.08672232435558407, ,0.012688804124147551,0.02099803422929168,-0.08716712687550271, ,0.0006159772402339347, ,0.0037298752906814547,0.0007382208551434561,-0.009203686715213315,0.04082436909708251,0.03629997119339452,-0.0012052333142651788, ,0.009958151880082913, ,0.05462890219266521, ,6.0645959471935645e-05, ,0.18860458225431098,-0.23189822274721358,0.09754971137000001,1.6970207126202554,0.47918420467739964,-1.2910873408327674, ,0.028352835840594795,0.017253989374267416,0.009808381477832513,-0.0020026768615368203,0.06759830189443654,-0.05522862808776308, ,1.6540980339050293
0.012383212671305995,0.021214726558529164,-0.0868819203854414, ,0.012723575369703801,0.021000880014412714,-0.08724552570497496, ,0.0005420202388142754, ,0.004022128871705304,0.0005221545328121404,-0.009099580626237029,-0.005331394483429273,-0.006394034961810121,0.00016305760795081275, ,0.009962556579017753, ,0.00832510587572036, ,6.127001902201965e-05, ,0.18902933256239332,-0.23158159069937037,0.09771563649000001,1.6970207126202554,0.4793208411771651,-1.2909537225160421, ,0.02762647498063196,0.018903773218818882,0.009526801148325359,-0.001950857450695517,0.02249021135360991,-0.01234501437189618, ,1.6624181270599365
0.012423738007127292,0.021218698072418208,-0.0869661304854624, ,0.012758381285714483,0.021003598026519365,-0.08732367484129211, ,0.0005348757986999914, ,0.004115659845220473,0.00036254855004697387,-0.008389033857868778,-0.024340283049392474,-0.02850738328146745,0.00013670804797886712, ,0.009351255877216177, ,0.037484933492432836, ,6.187530478345746e-05, ,0.18931507367873962,-0.23139624511038898,0.09780378421000001,1.6970207126202554,0.47945747767693053,-1.2910651404197386, ,0.028084327185105295,0.018603595678978783,0.008732901052631581,-0.0019211021448064364,0.0,0.005994244954933184, ,1.670863151550293
0.012465088583800923,0.02122217161844325,-0.08705436822276554, ,0.012793221727528396,0.02100618919536024,-0.0874015757768047, ,0.0005242831798514435, ,0.0042048575698438485,0.0002653190797628985,-0.008912452487939516,-0.011045686627242108,-0.02570788764329502,-0.004445215016846728, ,0.009858145400963542, ,0.027980397136480716, ,6.256350507604257e-05, ,0.18960081479508595,-0.23119545405565914,0.0978958208,1.6970207126202554,0.479594114176696,-1.2910948795832944, ,0.028176051531612463,0.020994898574882917,0.009239449837587009,-0.0018915909086425898,0.003036180114281821,-0.0101430369972291, ,1.676393985748291
0.012465088583800923,0.02122217161844325,-0.08705436822276554, ,0.012828096550803534,0.021008654448385115,-0.08747922999930756, ,0.00059822395069359, ,0.0042048575698438485,0.0002653190797628985,-0.008912452487939516,-0.011045686627242108,-0.02570788764329502,-0.004445215016846728, ,0.009858145400963542, ,0.027980397136480716, ,6.337360257696981e-05, ,0.18960081479508595,-0.23119545405565914,0.0978958208,1.6970207126202554,0.479594114176696,-1.2910948795832944, ,0.028176051531612463,0.020994898574882917,0.009239449837587009,-0.0018915909086425898,0.003036180114281821,-0.0101430369972291, ,1.6822330951690674
0.012465088583800923,0.02122217161844325,-0.08705436822276554, ,0.012863005611508299,0.021010994710744416,-0.08755663899204282, ,0.0006746922060874161, ,0.0042048575698438485,0.0002653190797628985,-0.008912452487939516,-0.011045686627242108,-0.02570788764329502,-0.004445215016846728, ,0.009858145400963542, ,0.027980397136480716, ,6.430866230552522e-05, ,0.18960081479508595,-0.23119545405565914,0.0978958208,1.6970207126202554,0.479594114176696,-1.2910948795832944, ,0.028176051531612463,0.020994898574882917,0.009239449837587009,-0.0018915909086425898,0.003036180114281821,-0.0101430369972291, ,1.6878530979156494
0.012506671262750449,0.021224769401915554,-0.08714652693666385, ,0.012897948765920104,0.021013210905293313,-0.0876338042337072, ,0.0006597683276678428, ,0.004057790570252006,0.00031726192353657,-0.009113206146074231,0.03202097470696482,0.021694416504616374,-0.004118528237924101, ,0.009980823898907212, ,0.038678035961027236, ,6.521198033793474e-05, ,0.18991744684292913,-0.23097149480230664,0.09799304255,1.6970207126202554,0.48014066017575774,-1.2916222299382205, ,0.030760759014091015,0.02137799990053408,0.009624659528700907,-0.001862810975955586,0.054916557546728084,-0.05129395347413483, ,1.6936790943145752
0.012551621687134397,0.021230751995137097,-0.08724786767830345, ,0.012932925870625618,0.02101530395259298,-0.0877107271984566, ,0.0006372202717902229, ,0.004796456018838066,0.0008257283513155725,-0.011280809125823766,0.015097508021973722,0.0010771816089077447,-0.004152432510638406, ,0.012285946124905602, ,0.015135880747674305, ,6.607095713643364e-05, ,0.19022635615789812,-0.23076298101470258,0.09809933833000001,1.6970207126202554,0.48041393317528863,-1.2918450657456135, ,0.03248782662049667,0.02135875344552572,0.011860619151154134,-0.0018354426805302295,0.03529866581583626,-0.03518614848892944, ,1.699315071105957
0.012551621687134397,0.021230751995137097,-0.08724786767830345, ,0.012967936782520388,0.02101727477091327,-0.08778740935591088, ,0.0007141400463382517, ,0.004796456018838066,0.0008257283513155725,-0.011280809125823766,0.015097508021973722,0.0010771816089077447,-0.004152432510638406, ,0.012285946124905602, ,0.015135880747674305, ,6.705406208924679e-05, ,0.19055071093861556,-0.23051585356272739,0.09823415249,1.6970207126202554,0.48068720617481947,-1.2920679015530063, ,0.03248782662049667,0.02135875344552572,0.011860619151154134,-0.0018354426805302295,0.03529866581583626,-0.03518614848892944, ,1.7049529552459717
0.012603400350251787,0.02123980283756381,-0.08737706653683201, ,0.013002981358808063,0.021019124276235653,-0.08786385217116081, ,0.0006673262048036249, ,0.005387073270877853,0.0011636905286416806,-0.01430499753157647,-0.0010586854491987218,-0.010300123667340764,-0.004615647916936173, ,0.015329960484315211, ,0.01035435963380404, ,6.795173562565275e-05, ,0.19055071093861556,-0.23051585356272739,0.09823415249,1.6970207126202554,0.48068720617481947,-1.2920679015530063, ,0.03128814426589871,0.02529910465435105,0.01488673973831776,-0.0018091414153478698,0.02223243382094862,-0.02340376439841208, ,1.711177110671997
0.012653564218046968,0.021251969462080328,-0.08751674567626924, ,0.013038059457000897,0.021020853382253568,-0.08794005710477142, ,0.0006168012618609648, ,0.005595233185462697,0.0015731623430293355,-0.01556756588425734,0.029334617962903008,0.022723197480517522,-0.005248692493301729, ,0.016617177308975238, ,0.03710609923498861, ,6.875861111325284e-05, ,0.19085962025358452,-0.23028417157650066,0.09838063326000002,1.696811022676771,0.48123375217388126,-1.2925952519079327, ,0.034111050164798984,0.024502179591652667,0.01637082376156218,-0.00021843983164262904,0.059042150789775545,-0.05104391768667086, ,1.7169129848480225
0.012653564218046968,0.021251969462080328,-0.08751674567626924, ,0.013073170934919208,0.021022463000375666,-0.08801602561278832, ,0.000691392412323845, ,0.005595233185462697,0.0015731623430293355,-0.01556756588425734,0.029334617962903008,0.022723197480517522,-0.005248692493301729, ,0.016617177308975238, ,0.03710609923498861, ,6.968482380572331e-05, ,0.19085962025358452,-0.23028417157650066,0.09838063326000002,1.696811022676771,0.48123375217388126,-1.2925952519079327, ,0.034111050164798984,0.024502179591652667,0.01637082376156218,-0.00021843983164262904,0.059042150789775545,-0.05104391768667086, ,1.723046064376831
0.012710152487546499,0.021268468559647306,-0.0876705717758414, ,0.013108315650690315,0.021023954039729346,-0.08809175914674383, ,0.0006290628397410764, ,0.0056411173005341455,0.0016182816565406804,-0.015362129707149598,0.03286431110643341,0.024721066403622524,-0.005004860607383291, ,0.01644494053067903, ,0.04112411960224344, ,7.050097912593936e-05, ,0.19120714323292465,-0.2300524895902739,0.09854266951000001,1.696811022676771,0.48178029817294304,-1.2930409235227183, ,0.03522529382274342,0.023477719336583564,0.016204284354018314,-0.00021843983164262904,0.06226597030729603,-0.0534225432024959, ,1.7288031578063965
0.012710152487546499,0.021268468559647306,-0.0876705717758414, ,0.013143493462749406,0.021025327407160607,-0.088167259153661, ,0.0007025669876301344, ,0.0056411173005341455,0.0016182816565406804,-0.015362129707149598,0.03286431110643341,0.024721066403622524,-0.005004860607383291, ,0.01644494053067903, ,0.04112411960224344, ,7.143381140065407e-05, ,0.19120714323292465,-0.2300524895902739,0.09854266951000001,1.696811022676771,0.48178029817294304,-1.2930409235227183, ,0.03522529382274342,0.023477719336583564,0.016204284354018314,-0.00021843983164262904,0.06226597030729603,-0.0534225432024959, ,1.7342610359191895
0.012781797692015758,0.021281720526407758,-0.08785097765635415, ,0.013178704229838283,0.021026584007238235,-0.08824252707605927, ,0.0006131397811687171, ,0.0059627903358524656,0.0008425542009704069,-0.013914526304706657,-0.008912586565244289,-0.015244632457955378,4.587565622389214e-05, ,0.015161754794722211, ,0.017658779585680812, ,7.221240768934183e-05, ,0.1916396162738812,-0.22972813480955648,0.09873063156,1.6966013327332867,0.48205357117247394,-1.2933454380702516, ,0.03841981439614202,0.0276103990568725,0.014533587153284672,-0.004706923300141372,0.025149308851325505,-0.017876405635638287, ,1.73990797996521
0.012781797692015758,0.021281720526407758,-0.08785097765635415, ,0.013213947811005789,0.021027724742254655,-0.08831756435196049, ,0.0006848143750152242, ,0.0059627903358524656,0.0008425542009704069,-0.013914526304706657,-0.008912586565244289,-0.015244632457955378,4.587565622389214e-05, ,0.015161754794722211, ,0.017658779585680812, ,7.310413963593679e-05, ,0.1916396162738812,-0.22972813480955648,0.09873063156,1.6966013327332867,0.48205357117247394,-1.2933454380702516, ,0.03841981439614202,0.0276103990568725,0.014533587153284672,-0.004706923300141372,0.025149308851325505,-0.017876405635638287, ,1.7461471557617188
0.012842734556734046,0.021287668777917285,-0.08798623767930296, ,0.013249224065606885,0.021028750512229258,-0.08839237241489344, ,0.0006302521817365863, ,0.006196177965113339,0.0005723460194303322,-0.013156188750194983,-0.023010035691744653,-0.035014167531882204,-0.010489229908952284, ,0.014553539218075817, ,0.04189812974759265, ,7.39002644755169e-05, ,0.1920489211162151,-0.22944239369321018,0.09887192717000001,1.696391642789802,0.4823268441720048,-1.2934865951375039, ,0.040588939930911366,0.028861600230678464,0.013696312570937234,0.005066185786887004,0.0045888078888466025,-0.004206961636717124, ,1.7519841194152832
0.012901199920998644,0.021293220361314365,-0.08811545245398554, ,0.01328453285330293,0.021029662214909536,-0.08846695269389965, ,0.0005830604189833391, ,0.005417154464524458,0.000401329767322535,-0.011909170513582893,0.045676609322239756,0.0400137375668937,-0.010403151865205842, ,0.013089498477644155, ,0.06072439043491896, ,7.461380527884855e-05, ,0.19246594869142322,-0.22915665257686388,0.09900803762000002,1.696391642789802,0.48287339017106656,-1.2939322667522895, ,0.04163972863469539,0.028051120768096596,0.012651955138999207,0.005066185786887004,0.0835027228069903,-0.06877778947246646, ,1.7574620246887207
0.012901199920998644,0.021293220361314365,-0.08811545245398554, ,0.013319874034060819,0.021030460745774762,-0.08854130661353868, ,0.0006524434026914736, ,0.005417154464524458,0.000401329767322535,-0.011909170513582893,0.045676609322239756,0.0400137375668937,-0.010403151865205842, ,0.013089498477644155, ,0.06072439043491896, ,7.543605330521094e-05, ,0.19246594869142322,-0.22915665257686388,0.09900803762000002,1.696391642789802,0.48287339017106656,-1.2939322667522895, ,0.04163972863469539,0.028051120768096596,0.012651955138999207,0.005066185786887004,0.0835027228069903,-0.06877778947246646, ,1.7641911506652832
0.012961117141966981,0.021295952371358066,-0.08824346462837897, ,0.013355247468153222,0.021031146998036404,-0.08861543559389307, ,0.0006031774191273972, ,0.005678897671899932,0.0001421361444811594,-0.011670680500098663,0.024827463074759765,0.018012023155285252,-0.010670530342387779, ,0.01297978677740361, ,0.030673044915098115, ,7.617270690865878e-05, ,0.19293703539675092,-0.22884002052902067,0.09914414807000001,1.696391642789802,0.4838298456694246,-1.294630513338024, ,0.042978687300032056,0.03002117733580221,0.012319266450116011,0.005066185786887004,0.06206095998260428,-0.0507462467398346, ,1.7700750827789307
0.012961117141966981,0.021295952371358066,-0.08824346462837897, ,0.013390653016157824,0.0210317218626422,-0.08868934105057451, ,0.0006731453133039198, ,0.005678897671899932,0.0001421361444811594,-0.011670680500098663,0.024827463074759765,0.018012023155285252,-0.010670530342387779, ,0.01297978677740361, ,0.030673044915098115, ,7.714339407352912e-05, ,0.19293703539675092,-0.22884002052902067,0.09914414807000001,1.696391642789802,0.4838298456694246,-1.294630513338024, ,0.042978687300032056,0.03002117733580221,0.012319266450116011,0.005066185786887004,0.06206095998260428,-0.0507462467398346, ,1.7729029655456543
0.012961117141966981,0.021295952371358066,-0.08824346462837897, ,0.013426090538957325,0.021032186228276968,-0.08876302439472819, ,0.000745463070147326, ,0.005678897671899932,0.0001421361444811594,-0.011670680500098663,0.024827463074759765,0.018012023155285252,-0.010670530342387779, ,0.01297978677740361, ,0.030673044915098115, ,7.822832861260995e-05, ,0.19293703539675092,-0.22884002052902067,0.09914414807000001,1.696391642789802,0.4838298456694246,-1.294630513338024, ,0.042978687300032056,0.03002117733580221,0.012319266450116011,0.005066185786887004,0.06206095998260428,-0.0507462467398346, ,1.7756171226501465
0.013023210898616846,0.02129573704015132,-0.08836784410554754, ,0.013461559897738949,0.0210325409813659,-0.08883648703303917, ,0.0006935763864776912, ,0.006242013969333206,-0.00011009575543371227,-0.012303002583902779,-0.0242222696658243,-0.024883869003312804,-0.008967488409723275, ,0.013796330383411158, ,0.03472643089152097, ,7.922565123475758e-05, ,0.19337723117058173,-0.228507943015429,0.09927377707000001,1.696391642789802,0.4841031186689555,-1.2948533491454168, ,0.043771652010364745,0.03392811639559198,0.012783957881219905,0.005066185786887004,0.018376727283947576,-0.006983108346402948, ,1.7790021896362305
0.013023210898616846,0.02129573704015132,-0.08836784410554754, ,0.013497060953994439,0.0210327870060756,-0.08890973036773665, ,0.0007663663070301653, ,0.006242013969333206,-0.00011009575543371227,-0.012303002583902779,-0.0242222696658243,-0.024883869003312804,-0.008967488409723275, ,0.013796330383411158, ,0.03472643089152097, ,8.033752931856892e-05, ,0.19337723117058173,-0.228507943015429,0.09927377707000001,1.696391642789802,0.4841031186689555,-1.2948533491454168, ,0.043771652010364745,0.03392811639559198,0.012783957881219905,0.005066185786887004,0.018376727283947576,-0.006983108346402948, ,1.7819771766662598
0.013023210898616846,0.02129573704015132,-0.08836784410554754, ,0.013532593569519212,0.021032925184318065,-0.08898275579660041, ,0.0008406290292249244, ,0.006242013969333206,-0.00011009575543371227,-0.012303002583902779,-0.0242222696658243,-0.024883869003312804,-0.008967488409723275, ,0.013796330383411158, ,0.03472643089152097, ,8.156578699208483e-05, ,0.19337723117058173,-0.228507943015429,0.09927377707000001,1.696391642789802,0.4841031186689555,-1.2948533491454168, ,0.043771652010364745,0.03392811639559198,0.012783957881219905,0.005066185786887004,0.018376727283947576,-0.006983108346402948, ,1.7847211360931396
0.013023210898616846,0.02129573704015132,-0.08836784410554754, ,0.013568157606412787,0.021032956395750865,-0.08905556471296489, ,0.0009159586318582458, ,0.006242013969333206,-0.00011009575543371227,-0.012303002583902779,-0.0242222696658243,-0.024883869003312804,-0.008967488409723275, ,0.013796330383411158, ,0.03472643089152097, ,0.00045491310424742264, ,0.19337723117058173,-0.228507943015429,0.09927377707000001,1.696391642789802,0.4841031186689555,-1.2948533491454168, ,0.043771652010364745,0.03392811639559198,0.012783957881219905,0.005066185786887004,0.018376727283947576,-0.006983108346402948, ,1.78743314743042
0.013093585695947381,0.021296576010047346,-0.08851438458830119, ,0.013603752927078019,0.021032881517780343,-0.08912815850572554, ,0.0008405497074426326, ,0.007496617703181878,0.0005973628825869791,-0.016545807179672505,-0.013856605571397958,-0.016090244742677885,-0.00984633126817016, ,0.018174703701245166, ,0.021234412018910805, ,0.0004582958814684333, ,0.19383287241016098,-0.2281526973032147,0.09941507268000001,1.696391642789802,0.4845130281682518,-1.2951876028565064, ,0.04981466748476156,0.037040180155531136,0.016855885206349206,0.005066185786887004,0.03354980028108113,-0.01996026917122246, ,1.7901921272277832
0.013093585695947381,0.021296576010047346,-0.08851438458830119, ,0.01363937939422057,0.021032701425565153,-0.08920053855934444, ,0.0009156024406852581, ,0.007496617703181878,0.0005973628825869791,-0.016545807179672505,-0.013856605571397958,-0.016090244742677885,-0.00984633126817016, ,0.018174703701245166, ,0.021234412018910805, ,0.0004622724602442318, ,0.19383287241016098,-0.2281526973032147,0.09941507268000001,1.696391642789802,0.4845130281682518,-1.2951876028565064, ,0.04981466748476156,0.037040180155531136,0.016855885206349206,0.005066185786887004,0.03354980028108113,-0.01996026917122246, ,1.793652057647705
0.013093585695947381,0.021296576010047346,-0.08851438458830119, ,0.013675036870849358,0.02103241699201584,-0.08927270625385403, ,0.0009914218093471086, ,0.007496617703181878,0.0005973628825869791,-0.016545807179672505,-0.013856605571397958,-0.016090244742677885,-0.00984633126817016, ,0.018174703701245166, ,0.021234412018910805, ,0.0004668340925640842, ,0.19383287241016098,-0.2281526973032147,0.09941507268000001,1.696391642789802,0.4845130281682518,-1.2951876028565064, ,0.04981466748476156,0.037040180155531136,0.016855885206349206,0.005066185786887004,0.03354980028108113,-0.01996026917122246, ,1.7965140342712402
0.013161028679967601,0.021306984036133726,-0.08868722098162835, ,0.013710725220275497,0.021032029087799248,-0.08934466296486411, ,0.0008999980396428996, ,0.007805924575291317,0.0014923157994631646,-0.020913471099684226,0.06810049123960236,0.07426973424848515,9.477238870836077e-05, ,0.02237258899541561, ,0.100765402454242, ,0.0004705363485220228, ,0.19433485004698556,-0.22777428339237768,0.09960951618000001,1.6966013327332867,0.48560612016637533,-1.2960789460860775, ,0.05228481628565883,0.03887625627139319,0.022123349333333337,-0.00608203536353268,0.13265011234875274,-0.10151422003272745, ,1.7993371486663818
0.013161028679967601,0.021306984036133726,-0.08868722098162835, ,0.013746444306112512,0.021031538581339763,-0.0894164100635665, ,0.0009748324836191607, ,0.007805924575291317,0.0014923157994631646,-0.020913471099684226,0.06810049123960236,0.07426973424848515,9.477238870836077e-05, ,0.02237258899541561, ,0.100765402454242, ,0.000474810044582168, ,0.19433485004698556,-0.22777428339237768,0.09960951618000001,1.6966013327332867,0.48560612016637533,-1.2960789460860775, ,0.05228481628565883,0.03887625627139319,0.022123349333333337,-0.00608203536353268,0.13265011234875274,-0.10151422003272745, ,1.803239107131958
0.013161028679967601,0.021306984036133726,-0.08868722098162835, ,0.013782193992275633,0.021030946338822198,-0.08948794891674089, ,0.0010503372704143102, ,0.007805924575291317,0.0014923157994631646,-0.020913471099684226,0.06810049123960236,0.07426973424848515,9.477238870836077e-05, ,0.02237258899541561, ,0.100765402454242, ,0.0004796464078244549, ,0.19433485004698556,-0.22777428339237768,0.09960951618000001,1.6966013327332867,0.48560612016637533,-1.2960789460860775, ,0.05228481628565883,0.03887625627139319,0.022123349333333337,-0.00608203536353268,0.13265011234875274,-0.10151422003272745, ,1.8063631057739258
0.013161028679967601,0.021306984036133726,-0.08868722098162835, ,0.013817974142982296,0.021030253224192014,-0.08955928088675807, ,0.001126341760651883, ,0.007805924575291317,0.0014923157994631646,-0.020913471099684226,0.06810049123960236,0.07426973424848515,9.477238870836077e-05, ,0.02237258899541561, ,0.100765402454242, ,0.00048503553576468347, ,0.19433485004698556,-0.22777428339237768,0.09960951618000001,1.6966013327332867,0.48560612016637533,-1.2960789460860775, ,0.05228481628565883,0.03887625627139319,0.022123349333333337,-0.00608203536353268,0.13265011234875274,-0.10151422003272745, ,1.8093760013580322
0.013161028679967601,0.021306984036133726,-0.08868722098162835, ,0.013853784622750387,0.021029460099161464,-0.08963040733158899, ,0.0012027180977292767, ,0.007805924575291317,0.0014923157994631646,-0.020913471099684226,0.06810049123960236,0.07426973424848515,9.477238870836077e-05, ,0.02237258899541561, ,0.100765402454242, ,0.000490966796607366, ,0.19433485004698556,-0.22777428339237768,0.09960951618000001,1.6966013327332867,0.48560612016637533,-1.2960789460860775, ,0.05228481628565883,0.03887625627139319,0.022123349333333337,-0.00608203536353268,0.13265011234875274,-0.10151422003272745, ,1.812272071838379
0.013185023734843364,0.021311833166765326,-0.08875081211188642, ,0.01388962529639949,0.02102856782320802,-0.08970132960480699, ,0.0012166289984033704, ,0.008359971132905937,0.0018405219114188418,-0.022160995643004073,0.06278240423977224,0.06479677640361761,0.00012099998842712194, ,0.023756817256077863, ,0.09022331832427481, ,0.0004969148474417596, ,0.1944970274373443,-0.22765844239926433,0.09967692326000001,1.6966013327332867,0.4860160296656717,-1.2964131997971666, ,0.05494901074607457,0.03829577948283728,0.023459221678939622,-0.00608203536353268,0.12558053411359726,-0.0959408783982715, ,1.815277099609375
0.013185023734843364,0.021311833166765326,-0.08875081211188642, ,0.013925496029049746,0.02102757725357808,-0.08977204905559395, ,0.0012930682649660418, ,0.008359971132905937,0.0018405219114188418,-0.022160995643004073,0.06278240423977224,0.06479677640361761,0.00012099998842712194, ,0.023756817256077863, ,0.09022331832427481, ,0.0005033876394541521, ,0.1944970274373443,-0.22765844239926433,0.09967692326000001,1.6966013327332867,0.4860160296656717,-1.2964131997971666, ,0.05494901074607457,0.03829577948283728,0.023459221678939622,-0.00608203536353268,0.12558053411359726,-0.0959408783982715, ,1.8180251121520996
0.013185023734843364,0.021311833166765326,-0.08875081211188642, ,0.013961396686121506,0.021026489245290127,-0.08984256702874688, ,0.001369709790973319, ,0.008359971132905937,0.0018405219114188418,-0.022160995643004073,0.06278240423977224,0.06479677640361761,0.00012099998842712194, ,0.023756817256077863, ,0.09022331832427481, ,0.0005103741084180163, ,0.1944970274373443,-0.22765844239926433,0.09967692326000001,1.6966013327332867,0.4860160296656717,-1.2964131997971666, ,0.05494901074607457,0.03829577948283728,0.023459221678939622,-0.00608203536353268,0.12558053411359726,-0.0959408783982715, ,1.8207721710205078
0.013389519058684664,0.02135496926983208,-0.08926283817166511, ,0.01399732713333574,0.021025304651134558,-0.08991288486468096, ,0.0009490364163365287, ,0.010386207056122913,0.0011878059526453243,-0.02383210363192553,-0.08351253720323967,-0.06458726565485629,0.014221160066055755, ,0.026024091598298587, ,0.1055739128142918, ,0.0005138834068813645, ,0.19572494196434598,-0.22682438724884807,0.10020710587000001,1.6961819528463176,0.4873823946633261,-1.296955627653147, ,0.060637023360045235,0.047118640297155304,0.024657602972136226,-0.013384445492534916,0.0,0.03475385775237114, ,1.823517084121704
0.013389519058684664,0.02135496926983208,-0.08926283817166511, ,0.014033287236712662,0.02102402432167916,-0.08998300389943749, ,0.0010210782052356947, ,0.010386207056122913,0.0011878059526453243,-0.02383210363192553,-0.08351253720323967,-0.06458726565485629,0.014221160066055755, ,0.026024091598298587, ,0.1055739128142918, ,0.0005179087624238592, ,0.19572494196434598,-0.22682438724884807,0.10020710587000001,1.6961819528463176,0.4873823946633261,-1.296955627653147, ,0.060637023360045235,0.047118640297155304,0.024657602972136226,-0.013384445492534916,0.0,0.03475385775237114, ,1.8262550830841064
0.013389519058684664,0.02135496926983208,-0.08926283817166511, ,0.01406927686257249,0.021022649105268135,-0.09005292546468667, ,0.0010939585432347722, ,0.010386207056122913,0.0011878059526453243,-0.02383210363192553,-0.08351253720323967,-0.06458726565485629,0.014221160066055755, ,0.026024091598298587, ,0.1055739128142918, ,0.0005224445874696144, ,0.19572494196434598,-0.22682438724884807,0.10020710587000001,1.6961819528463176,0.4873823946633261,-1.296955627653147, ,0.060637023360045235,0.047118640297155304,0.024657602972136226,-0.013384445492534916,0.0,0.03475385775237114, ,1.8289740085601807
0.013389519058684664,0.02135496926983208,-0.08926283817166511, ,0.014105295877534374,0.02102117984802685,-0.09012265088773543, ,0.0011674886462950695, ,0.010386207056122913,0.0011878059526453243,-0.02383210363192553,-0.08351253720323967,-0.06458726565485629,0.014221160066055755, ,0.026024091598298587, ,0.1055739128142918, ,0.0005274839941791882, ,0.19572494196434598,-0.22682438724884807,0.10020710587000001,1.6961819528463176,0.4873823946633261,-1.296955627653147, ,0.060637023360045235,0.047118640297155304,0.024657602972136226,-0.013384445492534916,0.0,0.03475385775237114, ,1.8317680358886719
0.013493671538307486,0.02136638571160847,-0.08951293383284717, ,0.01414134414851667,0.021019617393862072,-0.09019218149153045, ,0.0010005525763469732, ,0.010853170214107335,0.0015962364929731744,-0.028064475447570965,0.06693650196225819,0.0807711796439688,0.0059535382245115166, ,0.030132275997428397, ,0.10490215129628135, ,0.0005311511924905663, ,0.19641226519015195,-0.22628379594765236,0.10047673419000001,1.6961819528463176,0.48820221366191874,-1.2972157413746228, ,0.07140477167680269,0.05523686935883049,0.02960745635687733,-0.013384445492534916,0.1607871598299246,-0.11633788400366221, ,1.8344831466674805
0.013493671538307486,0.02136638571160847,-0.08951293383284717, ,0.014177421542736034,0.021017962584466008,-0.09026151859466576, ,0.001072050320512414, ,0.010853170214107335,0.0015962364929731744,-0.028064475447570965,0.06693650196225819,0.0807711796439688,0.0059535382245115166, ,0.030132275997428397, ,0.10490215129628135, ,0.0005353119550138113, ,0.19641226519015195,-0.22628379594765236,0.10047673419000001,1.6961819528463176,0.48820221366191874,-1.2972157413746228, ,0.07140477167680269,0.05523686935883049,0.02960745635687733,-0.013384445492534916,0.1607871598299246,-0.11633788400366221, ,1.8373069763183594
0.013493671538307486,0.02136638571160847,-0.08951293383284717, ,0.014213527927707791,0.02101621625931709,-0.09033066351138543, ,0.0011443311119779846, ,0.010853170214107335,0.0015962364929731744,-0.028064475447570965,0.06693650196225819,0.0807711796439688,0.0059535382245115166, ,0.030132275997428397, ,0.10490215129628135, ,0.0005399609562120112, ,0.19641226519015195,-0.22628379594765236,0.10047673419000001,1.6961819528463176,0.48820221366191874,-1.2972157413746228, ,0.07140477167680269,0.05523686935883049,0.02960745635687733,-0.013384445492534916,0.1607871598299246,-0.11633788400366221, ,1.8401319980621338
0.013493671538307486,0.02136638571160847,-0.08951293383284717, ,0.014249663171245158,0.021014379255682888,-0.09039961755159154, ,0.0012172263187967144, ,0.010853170214107335,0.0015962364929731744,-0.028064475447570965,0.06693650196225819,0.0807711796439688,0.0059535382245115166, ,0.030132275997428397, ,0.10490215129628135, ,0.0005450917544134104, ,0.19641226519015195,-0.22628379594765236,0.10047673419000001,1.6961819528463176,0.48820221366191874,-1.2972157413746228, ,0.07140477167680269,0.05523686935883049,0.02960745635687733,-0.013384445492534916,0.1607871598299246,-0.11633788400366221, ,1.843459129333496
0.01359128985890074,0.021385304823176216,-0.0897695887030225, ,0.01428582714145894,0.02101245240862286,-0.09046838202084823, ,0.001053429191231895, ,0.010996330304981964,0.0021791529700876553,-0.028538178577020373,0.11021423868135263,0.12023762154778418,0.0018927233549287307, ,0.030660978854844333, ,0.16310807801706848, ,0.0005489138404045268, ,0.19706097475158682,-0.2258281547080731,0.10074895509000001,1.6959722629028329,0.48984185165910404,-1.298471077478839, ,0.07531503298291331,0.050665745626519376,0.030398495267175574,-0.008771877571857177,0.2045799583134016,-0.15256999484987055, ,1.8469569683074951
0.01359128985890074,0.021385304823176216,-0.0897695887030225, ,0.014322019706757751,0.021010436550988883,-0.0905369582203869, ,0.0011239876815258819, ,0.010996330304981964,0.0021791529700876553,-0.028538178577020373,0.11021423868135263,0.12023762154778418,0.0018927233549287307, ,0.030660978854844333, ,0.16310807801706848, ,0.0005532054362337907, ,0.19706097475158682,-0.2258281547080731,0.10074895509000001,1.6959722629028329,0.48984185165910404,-1.298471077478839, ,0.07531503298291331,0.050665745626519376,0.030398495267175574,-0.008771877571857177,0.2045799583134016,-0.15256999484987055, ,1.8498420715332031
0.01359128985890074,0.021385304823176216,-0.0897695887030225, ,0.014358240735846963,0.0210083325134296,-0.09060534744711207, ,0.001195330267451829, ,0.010996330304981964,0.0021791529700876553,-0.028538178577020373,0.11021423868135263,0.12023762154778418,0.0018927233549287307, ,0.030660978854844333, ,0.16310807801706848, ,0.0005579619164650355, ,0.19706097475158682,-0.2258281547080731,0.10074895509000001,1.6959722629028329,0.48984185165910404,-1.298471077478839, ,0.07531503298291331,0.050665745626519376,0.030398495267175574,-0.008771877571857177,0.2045799583134016,-0.15256999484987055, ,1.8527390956878662
0.013734643559188256,0.02140920169200383,-0.0901057066484156, ,0.014394490097729041,0.021006141124391083,-0.09067355099360618, ,0.0009593239681950356, ,0.012352325214429315,0.0014892749109597409,-0.02704812386711668,0.0065425455697654825,0.009404715375125028,0.004710467138670377, ,0.029772451741405633, ,0.011455963363285412, ,0.0005609131080218737, ,0.19804948455948754,-0.22521033607813515,0.10110673113000002,1.6959722629028329,0.49175476265582013,-1.2999492493904485, ,0.08316997507315581,0.05340289339249904,0.02859750721723519,-0.008771877571857177,0.09785275155861692,-0.055484750665204835, ,1.8555669784545898
0.013734643559188256,0.02140920169200383,-0.0901057066484156, ,0.014430767661702959,0.021003863210119603,-0.09074157014813528, ,0.0010262604159149147, ,0.012352325214429315,0.0014892749109597409,-0.02704812386711668,0.0065425455697654825,0.009404715375125028,0.004710467138670377, ,0.029772451741405633, ,0.011455963363285412, ,0.0005643098036999251, ,0.19804948455948754,-0.22521033607813515,0.10110673113000002,1.6959722629028329,0.49175476265582013,-1.2999492493904485, ,0.08316997507315581,0.05340289339249904,0.02859750721723519,-0.008771877571857177,0.09785275155861692,-0.055484750665204835, ,1.858302116394043
0.013734643559188256,0.02140920169200383,-0.0901057066484156, ,0.01446707329736378,0.021001499594664186,-0.09080940619465491, ,0.0010944712755099673, ,0.012352325214429315,0.0014892749109597409,-0.02704812386711668,0.0065425455697654825,0.009404715375125028,0.004710467138670377, ,0.029772451741405633, ,0.011455963363285412, ,0.0005681515534956501, ,0.19804948455948754,-0.22521033607813515,0.10110673113000002,1.6959722629028329,0.49175476265582013,-1.2999492493904485, ,0.08316997507315581,0.05340289339249904,0.02859750721723519,-0.008771877571857177,0.09785275155861692,-0.055484750665204835, ,1.861025094985962
0.013734643559188256,0.02140920169200383,-0.0901057066484156, ,0.014503406874602678,0.02099905109987858,-0.09087706041281432, ,0.001163704074582423, ,0.013146965755058604,0.0003752794287193444,-0.02726771235216696,-0.07430102997864284,-0.06276870786663064,0.004955981416920607, ,0.030273943914442696, ,0.09726530043449536, ,0.0005724361040070656, ,0.1988835397099038,-0.22460024018107141,0.10139450751000001,1.6959722629028329,0.4921646721551165,-1.2999567881409755, ,0.08427792323132396,0.06473188373701963,0.028393603422459897,-0.008771877571857177,0.02423289345096645,0.011608539462720054, ,1.8637821674346924
0.013864244336822956,0.021417751856889666,-0.09038089618958983, ,0.014539768263606511,0.020996518545422983,-0.09094453407796255, ,0.0009754269565454471, ,0.013146965755058604,0.0003752794287193444,-0.02726771235216696,-0.07430102997864284,-0.06276870786663064,0.004955981416920607, ,0.030273943914442696, ,0.09726530043449536, ,0.0005753146100966255, ,0.1988835397099038,-0.22460024018107141,0.10139450751000001,1.6959722629028329,0.4921646721551165,-1.2999567881409755, ,0.08427792323132396,0.06473188373701963,0.028393603422459897,-0.008771877571857177,0.02423289345096645,0.011608539462720054, ,1.866779088973999
0.013864244336822956,0.021417751856889666,-0.09038089618958983, ,0.014576157334857183,0.020993902748767314,-0.09101182846115351, ,0.0010414142857320006, ,0.013146965755058604,0.0003752794287193444,-0.02726771235216696,-0.07430102997864284,-0.06276870786663064,0.004955981416920607, ,0.030273943914442696, ,0.09726530043449536, ,0.0005786202815550324, ,0.1988835397099038,-0.22460024018107141,0.10139450751000001,1.6959722629028329,0.4921646721551165,-1.2999567881409755, ,0.08427792323132396,0.06473188373701963,0.028393603422459897,-0.008771877571857177,0.02423289345096645,0.011608539462720054, ,1.8695659637451172
0.013864244336822956,0.021417751856889666,-0.09038089618958983, ,0.014612573959131972,0.02099120452519269,-0.09107894482915165, ,0.0011086982244944118, ,0.013146965755058604,0.0003752794287193444,-0.02726771235216696,-0.07430102997864284,-0.06276870786663064,0.004955981416920607, ,0.030273943914442696, ,0.09726530043449536, ,0.0005823532248151688, ,0.1988835397099038,-0.22460024018107141,0.10139450751000001,1.6959722629028329,0.4921646721551165,-1.2999567881409755, ,0.08427792323132396,0.06473188373701963,0.028393603422459897,-0.008771877571857177,0.02423289345096645,0.011608539462720054, ,1.8723421096801758
0.01399379591588908,0.021419956091837868,-0.09064267173530657, ,0.014649018007502833,0.020988424687793456,-0.0911458844444365, ,0.0009320720855411993, ,0.01310196896166386,-0.0001899332373570191,-0.025047441608186363,-0.06122216563610388,-0.06118913080842701,0.0021806705646058525, ,0.02826786154668516, ,0.08655780401343716, ,0.0005847988112538125, ,0.19974076305894273,-0.22395925335251077,0.10166802470000001,1.6959722629028329,0.4925745816544128,-1.2999643268915027, ,0.08860592115636862,0.06508706554078929,0.026155683940886704,-0.008771877571857177,0.030359216312520452,-0.0019726253583859654, ,1.8750991821289062
0.01399379591588908,0.021419956091837868,-0.09064267173530657, ,0.014685489351336092,0.020985564047480355,-0.09121264856520903, ,0.0009959969093663082, ,0.01310196896166386,-0.0001899332373570191,-0.025047441608186363,-0.06122216563610388,-0.06118913080842701,0.0021806705646058525, ,0.02826786154668516, ,0.08655780401343716, ,0.0005876543536018159, ,0.19974076305894273,-0.22395925335251077,0.10166802470000001,1.6959722629028329,0.4925745816544128,-1.2999643268915027, ,0.08860592115636862,0.06508706554078929,0.026155683940886704,-0.008771877571857177,0.030359216312520452,-0.0019726253583859654, ,1.8779170513153076
0.01399379591588908,0.021419956091837868,-0.09064267173530657, ,0.014721987862292238,0.02098262341298216,-0.09127923844539672, ,0.0010614803621341842, ,0.01310196896166386,-0.0001899332373570191,-0.025047441608186363,-0.06122216563610388,-0.06118913080842701,0.0021806705646058525, ,0.02826786154668516, ,0.08655780401343716, ,0.0005909221191779012, ,0.19974076305894273,-0.22395925335251077,0.10166802470000001,1.6959722629028329,0.4925745816544128,-1.2999643268915027, ,0.08860592115636862,0.06508706554078929,0.026155683940886704,-0.008771877571857177,0.030359216312520452,-0.0019726253583859654, ,1.880751132965088
0.01399379591588908,0.021419956091837868,-0.09064267173530657, ,0.014758513412325605,0.02097960359084784,-0.09134565533465802, ,0.0011282238764719693, ,0.01310196896166386,-0.0001899332373570191,-0.025047441608186363,-0.06122216563610388,-0.06118913080842701,0.0021806705646058525, ,0.02826786154668516, ,0.08655780401343716, ,0.0005946022682004634, ,0.2006134318737301,-0.22331054379107593,0.10190006061000001,1.695552883015864,0.4938043101523018,-1.3010487667649109, ,0.09433095582352961,0.06836955443693861,0.02167185240816327,-0.01634880936899281,0.15824994898276254,-0.10112667566592658, ,1.8837151527404785
0.014109938082888735,0.02141018260070249,-0.09086281242089041, ,0.014795065873684236,0.020976505385448728,-0.0914119004783889, ,0.0009792720314795338, ,0.01169621253976533,-0.0015459089149178606,-0.020394446509880995,0.038576813372397885,0.05497937107704589,0.009397500267269425, ,0.023561083816178392, ,0.06716322093038837, ,0.0005972190693112053, ,0.2006134318737301,-0.22331054379107593,0.10190006061000001,1.695552883015864,0.4938043101523018,-1.3010487667649109, ,0.09433095582352961,0.06836955443693861,0.02167185240816327,-0.01634880936899281,0.15824994898276254,-0.10112667566592658, ,1.8867230415344238
0.014109938082888735,0.02141018260070249,-0.09086281242089041, ,0.014831645118909111,0.02097332959898175,-0.09147797511772782, ,0.0010440913439608694, ,0.01169621253976533,-0.0015459089149178606,-0.020394446509880995,0.038576813372397885,0.05497937107704589,0.009397500267269425, ,0.023561083816178392, ,0.06716322093038837, ,0.0006002384765723517, ,0.2006134318737301,-0.22331054379107593,0.10190006061000001,1.695552883015864,0.4938043101523018,-1.3010487667649109, ,0.09433095582352961,0.06836955443693861,0.02167185240816327,-0.01634880936899281,0.15824994898276254,-0.10112667566592658, ,1.8897831439971924
0.014109938082888735,0.02141018260070249,-0.09086281242089041, ,0.014868251020834587,0.020970077031469542,-0.09154388048956007, ,0.0011102185091626548, ,0.01169621253976533,-0.0015459089149178606,-0.020394446509880995,0.038576813372397885,0.05497937107704589,0.009397500267269425, ,0.023561083816178392, ,0.06716322093038837, ,0.000603661161354837, ,0.2006134318737301,-0.22331054379107593,0.10190006061000001,1.695552883015864,0.4938043101523018,-1.3010487667649109, ,0.09433095582352961,0.06836955443693861,0.02167185240816327,-0.01634880936899281,0.15824994898276254,-0.10112667566592658, ,1.895056962966919
0.014109938082888735,0.02141018260070249,-0.09086281242089041, ,0.014904883452587371,0.020966748480765122,-0.09160961782652471, ,0.0011774082866255664, ,0.01169621253976533,-0.0015459089149178606,-0.020394446509880995,0.038576813372397885,0.05497937107704589,0.009397500267269425, ,0.023561083816178392, ,0.06716322093038837, ,0.0006074861421899751, ,0.2006134318737301,-0.22331054379107593,0.10190006061000001,1.695552883015864,0.4938043101523018,-1.3010487667649109, ,0.09433095582352961,0.06836955443693861,0.02167185240816327,-0.01634880936899281,0.15824994898276254,-0.10112667566592658, ,1.8978509902954102
0.014109938082888735,0.02141018260070249,-0.09086281242089041, ,0.014941542287586502,0.020963344742552955,-0.09167518835701954, ,0.0012454654898263386, ,0.01169621253976533,-0.0015459089149178606,-0.020394446509880995,0.038576813372397885,0.05497937107704589,0.009397500267269425, ,0.023561083816178392, ,0.06716322093038837, ,0.0006117111709822688, ,0.2006134318737301,-0.22331054379107593,0.10190006061000001,1.695552883015864,0.4938043101523018,-1.3010487667649109, ,0.09433095582352961,0.06836955443693861,0.02167185240816327,-0.01634880936899281,0.15824994898276254,-0.10112667566592658, ,1.9006969928741455
0.014109938082888735,0.02141018260070249,-0.09086281242089041, ,0.014978227399543352,0.020959866610350535,-0.09174059330520484, ,0.0013142336586205049, ,0.01169621253976533,-0.0015459089149178606,-0.020394446509880995,0.038576813372397885,0.05497937107704589,0.009397500267269425, ,0.023561083816178392, ,0.06716322093038837, ,0.0006163330294535731, ,0.2006134318737301,-0.22331054379107593,0.10190006061000001,1.695552883015864,0.4938043101523018,-1.3010487667649109, ,0.09433095582352961,0.06836955443693861,0.02167185240816327,-0.01634880936899281,0.15824994898276254,-0.10112667566592658, ,1.903454065322876
0.014360507900818598,0.021352697721471834,-0.09121196385587303, ,0.015014938662460705,0.02095631487551225,-0.09180583389101096, ,0.0009685456112074504, ,0.012215872520770742,-0.003836665594956926,-0.013459067059737399,-0.07092502015811197,-0.08006384344103745,0.002861010249728067, ,0.018576706663177848, ,0.10696063326912876, ,0.0006186350724715722, ,0.20267540155114802,-0.22181233361347638,0.10226820697000001,1.6953431930723792,0.49558058464925253,-1.3021704845524023, ,0.1027023177039727,0.07454590852982779,0.014058968684907327,-0.01297480152448559,0.026342810869605493,-0.0027221735828159795, ,1.9062089920043945
0.014360507900818598,0.021352697721471834,-0.09121196385587303, ,0.015051675950633054,0.0209526903272301,-0.09187091133014251, ,0.0010353409884567035, ,0.012215872520770742,-0.003836665594956926,-0.013459067059737399,-0.07092502015811197,-0.08006384344103745,0.002861010249728067, ,0.018576706663177848, ,0.10696063326912876, ,0.0006213409550429042, ,0.20267540155114802,-0.22181233361347638,0.10226820697000001,1.6953431930723792,0.49558058464925253,-1.3021704845524023, ,0.1027023177039727,0.07454590852982779,0.014058968684907327,-0.01297480152448559,0.026342810869605493,-0.0027221735828159795, ,1.9089491367340088
0.014360507900818598,0.021352697721471834,-0.09121196385587303, ,0.01508843913864604,0.020948993752536463,-0.09193582683408323, ,0.0011031039809385609, ,0.012215872520770742,-0.003836665594956926,-0.013459067059737399,-0.07092502015811197,-0.08006384344103745,0.002861010249728067, ,0.018576706663177848, ,0.10696063326912876, ,0.0006244491035970697, ,0.20267540155114802,-0.22181233361347638,0.10226820697000001,1.6953431930723792,0.49558058464925253,-1.3021704845524023, ,0.1027023177039727,0.07454590852982779,0.014058968684907327,-0.01297480152448559,0.026342810869605493,-0.0027221735828159795, ,1.9117631912231445
0.014360507900818598,0.021352697721471834,-0.09121196385587303, ,0.015125228101376075,0.020945225936306627,-0.09200058161010252, ,0.0011716433771128277, ,0.014034653032448096,-0.0029884808412299437,-0.020122671892002068,-0.04927546113918711,-0.08530634011044572,-0.00930300575828887, ,0.018576706663177848, ,0.10696063326912876, ,0.0006279567591965298, ,0.20374886142066523,-0.22100144666168278,0.10244579870000001,1.6953431930723792,0.49599049414854884,-1.3023413807832105, ,0.10686592517845808,0.08152658209490615,0.020958962526315794,-0.011539057400979788,0.024958530050308545,-0.03241428717288878, ,1.9153101444244385
0.014493413582350853,0.02131683668927447,-0.09138198635002392, ,0.015162042713990121,0.02094138766126114,-0.09206517686126031, ,0.0010270229612604927, ,0.014034653032448096,-0.0029884808412299437,-0.020122671892002068,-0.04927546113918711,-0.08530634011044572,-0.00930300575828887, ,0.02471486248298325, ,0.09851517362401482, ,0.0006304985821396123, ,0.20374886142066523,-0.22100144666168278,0.10244579870000001,1.6953431930723792,0.49599049414854884,-1.3023413807832105, ,0.10686592517845808,0.08152658209490615,0.020958962526315794,-0.011539057400979788,0.024958530050308545,-0.03241428717288878, ,1.9181411266326904
0.014493413582350853,0.02131683668927447,-0.09138198635002392, ,0.015198882851945417,0.020937479707967124,-0.09212961378641171, ,0.0010956940235525084, ,0.014034653032448096,-0.0029884808412299437,-0.020122671892002068,-0.04927546113918711,-0.08530634011044572,-0.00930300575828887, ,0.02471486248298325, ,0.09851517362401482, ,0.0006334428570852636, ,0.20374886142066523,-0.22100144666168278,0.10244579870000001,1.6953431930723792,0.49599049414854884,-1.3023413807832105, ,0.10686592517845808,0.08152658209490615,0.020958962526315794,-0.011539057400979788,0.024958530050308545,-0.03241428717288878, ,1.920863151550293
0.014493413582350853,0.02131683668927447,-0.09138198635002392, ,0.015235748390989325,0.020933502854841385,-0.0921938935802134, ,0.0011649889043125858, ,0.014034653032448096,-0.0029884808412299437,-0.020122671892002068,-0.04927546113918711,-0.08530634011044572,-0.00930300575828887, ,0.02471486248298325, ,0.09851517362401482, ,0.0006367859139860644, ,0.20374886142066523,-0.22100144666168278,0.10244579870000001,1.6953431930723792,0.49599049414854884,-1.3023413807832105, ,0.10686592517845808,0.08152658209490615,0.020958962526315794,-0.011539057400979788,0.024958530050308545,-0.03241428717288878, ,1.9235680103302002
0.014620587055918868,0.021295909004164497,-0.09159319492887388, ,0.01527263920715873,0.020929457878151907,-0.09225801743312809, ,0.0010007234372469039, ,0.012937684927200925,-0.0020330067195936667,-0.022557168875411388,0.0943082637000243,0.0783402815731177,-0.010880210293165334, ,0.02608337929163442, ,0.12260196767969415, ,0.0006390605235064446, ,0.20476053942718864,-0.2202446188400088,0.10267005687000001,1.6953431930723792,0.4974934956459687,-1.303566977723871, ,0.10359928117736984,0.07816881512229883,0.02402535674208145,-0.010289165314982925,0.19060928732909097,-0.1658486445769815, ,1.9263789653778076
0.014620587055918868,0.021295909004164497,-0.09159319492887388, ,0.015309555176779807,0.020925345552021562,-0.09232198653143095, ,0.0010691732991355703, ,0.012937684927200925,-0.0020330067195936667,-0.022557168875411388,0.0943082637000243,0.0783402815731177,-0.010880210293165334, ,0.02608337929163442, ,0.12260196767969415, ,0.0006417320314296069, ,0.20476053942718864,-0.2202446188400088,0.10267005687000001,1.6953431930723792,0.4974934956459687,-1.303566977723871, ,0.10359928117736984,0.07816881512229883,0.02402535674208145,-0.010289165314982925,0.19060928732909097,-0.1658486445769815, ,1.9292900562286377
0.014620587055918868,0.021295909004164497,-0.09159319492887388, ,0.015346496176467984,0.020921166648428195,-0.09238580205721357, ,0.001138245116121334, ,0.012937684927200925,-0.0020330067195936667,-0.022557168875411388,0.0943082637000243,0.0783402815731177,-0.010880210293165334, ,0.02608337929163442, ,0.12260196767969415, ,0.0006447969270141237, ,0.20476053942718864,-0.2202446188400088,0.10267005687000001,1.6953431930723792,0.4974934956459687,-1.303566977723871, ,0.10359928117736984,0.07816881512229883,0.02402535674208145,-0.010289165314982925,0.19060928732909097,-0.1658486445769815, ,1.9324870109558105
