NicholasDascanio/dvrk_moveit_final/test/execution/third_experiment_notsharpbends/thirdexp_400vel3.0/thirdexp_400vel3.0_22.csv
Current Position (x),Current Position (y),Current Position (z), ,Planned Position (x),Planned Position (y),Planned Position (z), ,Position Error,,Cartesian linear Velocity(x),Cartesian linear Velocity(y),Cartesian linear Velocity(z),Cartesian Angular Velocity(x),Cartesian Angular Velocity(y),Cartesian Angular Velocity(z), ,Total Linear Velocity, ,Total Angular Velocity, ,MSE, ,Joint 1 Position,Joint 2 Position,Joint 3 Position,Joint 4 Position,Joint 5 Position,Joint 6 Position, ,Joint 1 Velocity,Joint 2 Velocity,Joint 3 Velocity,Joint 4 Velocity,Joint 5 Velocity,Joint 6 Velocity, ,Time Stamp
0.009098774699035327,0.021087989831956616,-0.07896055239269312, ,0.009258684062664037,0.021015759099268134,-0.07902165646687222, ,0.0001858009451056129, ,5.862533357306469e-05,-2.1489455714121872e-05,-1.3152715502685555e-06,0.023139557994568585,-0.0010433330979132617,-0.006556472868940977, ,6.245363386299677e-05, ,0.02316306733006672, ,1.5483412092134407e-05, ,0.16566034288498996,-0.253205242747199,0.08959826851000001,1.7010048215464617,0.46511064520155926,-1.258701539276052, ,0.0007339493973933832,0.0002167800975250171,2.2415711860998806e-06,-0.001236113908311462,0.0,-0.024777856126906528, ,0.02858901023864746
0.009107339913389833,0.021088820501188328,-0.07897761281519042, ,0.00929251753148246,0.02101670000579423,-0.07911180216283745, ,0.00023978927649143206, ,0.0008244131491273538,-0.00014484635350440786,-0.00027174741015551423,0.3005020837847097,-0.08376114549500711,-0.1231434543506952, ,0.0008800478177371009, ,0.3119574199367414, ,1.9345010072592952e-05, ,0.1656757883507384,-0.2531666290828279,0.08961382399000001,1.7010048215464617,0.4645640992024975,-1.265035203092933, ,0.0009594919978518568,0.0017618000527416416,0.0,-0.001236113908311462,-0.0858813704187433,-0.3260088635512346, ,0.055893898010253906
0.009148672989120265,0.02109091913205822,-0.07900996500122887, ,0.009326563856147541,0.02101743721136489,-0.07920189320784653, ,0.0002718109448421252, ,0.001743115099762986,0.0003669941035797933,-0.002654057330730087,0.2172536008982846,-0.14849675082768088,-0.11519422264934723, ,0.0031964285128696646, ,0.26315473035747955, ,2.179378645122407e-05, ,0.16569123381648684,-0.25312801541845675,0.08963456463000001,1.7010048215464617,0.46032836770976887,-1.2689323346909944, ,0.0005217110775258389,0.0024861188823606085,0.002280757663230241,-0.001236113908311462,-0.15347984238697684,-0.245059478422319, ,0.08340096473693848
0.009195130937510409,0.021093667890116657,-0.07907388335906293, ,0.009360821448672821,0.0210179723291686,-0.07929192931994425, ,0.0002841253323678831, ,0.0015248600091328425,0.0004123566290001175,-0.002947765827827322,-0.10843757804603874,-0.08394997789407543,0.005531455120161586, ,0.003344332431538386, ,0.13713608978195319, ,2.3369678543025078e-05, ,0.16577618387810333,-0.2530121744253434,0.08968900881000001,1.7005854416594925,0.4567758187158674,-1.2746117369096466, ,0.004226092621813384,0.0037622208745948936,0.0028063445243128966,0.0027380485215811007,-0.08397752836839195,0.10271238579101648, ,0.1130678653717041
0.009216527444452671,0.021106404889615193,-0.07917195274670616, ,0.00939528872566208,0.02101830696802117,-0.07938191021792655, ,0.00028948053331800754, ,0.0005257449002379214,0.0005357859612634065,-0.004031890057897673,-0.06891569142215381,0.05956667550228478,0.035591142195523943, ,0.00410117199534319, ,0.09109095099691596, ,2.444244292548194e-05, ,0.16590747033696515,-0.2528499970349847,0.08979141572,1.7005854416594925,0.4574590012146946,-1.2703497807598356, ,0.004869448373650149,0.006967847234387661,0.004312076751488901,0.0027380485215811007,0.06625909030811937,0.07160161858039102, ,0.14399480819702148
0.00923681390513909,0.0211099789946253,-0.07925350925070851, ,0.009429964108304082,0.021018442732368515,-0.07947183562133778, ,0.0003055360738157919, ,0.000683586201537732,-0.00030170744315431236,-0.001341642856346354,0.02182824859220748,0.007586029781563039,-0.00904285342892173, ,0.0015356832453903703, ,0.02310887890932016, ,2.542811461194924e-05, ,0.16610053865882077,-0.2526260377816322,0.08987697086,1.7005854416594925,0.45855209321281815,-1.270506015328142, ,0.0071498358222220415,0.008132544315858766,0.0013424780042779114,0.0027380485215811007,0.01468847547550454,-0.029538348470408114, ,0.17150497436523438
0.009264630112304785,0.02110682484414153,-0.07932256522030559, ,0.009464846022367364,0.021018381222291226,-0.07956170525047246, ,0.0003241861177107942, ,0.0009221506308912708,5.090364754833509e-07,-0.002783314569460039,0.013023012617506956,0.0006588621378553897,-0.008988650970399997, ,0.002932098572309571, ,0.013039668584186035, ,2.6399016995161764e-05, ,0.1663013297135506,-0.25237118759678273,0.08994567423000001,1.7005854416594925,0.45855209321281815,-1.2709144090288447, ,0.006271576965588302,0.008904099592187008,0.0028033811193241822,0.0027380485215811007,0.006547824351166176,-0.021831995023452518, ,0.19936084747314453
0.009286932569135844,0.02111047800053542,-0.07939583916641876, ,0.00949993289819583,0.021018124033512584,-0.07965151882637256, ,0.00034535559054198824, ,0.0011653868353606166,0.0003331584890111295,-0.004085971882753536,-0.01498885227737548,-0.0010507996110572125,-0.0005837730782387691, ,0.004261958151071463, ,0.015025640461448057, ,2.73912782218736e-05, ,0.16642489343953817,-0.25218584200780136,0.09001956276,1.7005854416594925,0.45855209321281815,-1.2713228027295476, ,0.0063889218073673905,0.00896941507541129,0.004162218845048341,0.0027380485215811007,0.004832945698856049,0.0073491702761127225, ,0.22943592071533203
0.009330702428620186,0.02111632811771335,-0.07952885778882117, ,0.009535223170702585,0.0210176727573967,-0.07974127607082832, ,0.000310939126827118, ,0.0009693446446005968,-6.581738876262998e-05,-0.0026434060278243935,-0.007825681036241962,-0.005769461579292726,-0.004381089051678148, ,0.0028163019008298324, ,0.00972254958675263, ,2.779373848935601e-05, ,0.16670291182301025,-0.25183831902846127,0.09015437692000002,1.7005854416594925,0.45868872971258356,-1.2714342206332439, ,0.006450090726532512,0.00916309946140777,0.00263416760707789,0.0027380485215811007,0.0,-0.0008086103956369747, ,0.25757598876953125
0.009350236810640506,0.021116705915282707,-0.07959200882313844, ,0.009570715279365895,0.02101702898095964,-0.07983097670637739, ,0.0003400763085356588, ,0.0009173045526303241,0.00011080770003570124,-0.002881690727689391,-0.008522143430630598,-0.0039222183987376626,-0.0032612912636785143, ,0.0030261968605354364, ,0.009381403179744417, ,2.8402943623102074e-05, ,0.16682647554899785,-0.25164525070660565,0.09021789513,1.7005854416594925,0.45882536621234904,-1.271627317277081, ,0.005387168890989648,0.007787615438031161,0.0029056569719080635,0.0027380485215811007,0.0008123898278114517,0.001420544353229489, ,0.28676486015319824
0.009380157133686144,0.021123347037238727,-0.07969354720633719, ,0.00960640766822357,0.02101619428687035,-0.07992062045630408, ,0.00033798413740958875, ,0.0012053495378909508,0.00026981316237604906,-0.0036400404674967516,-0.008258032555045704,-0.005780945785280144,-0.0035483509999953795, ,0.003843899225538992, ,0.010080398564218506, ,2.9144904387081087e-05, ,0.16701182113797924,-0.2514058459875047,0.09032159833,1.7005854416594925,0.45909863921187993,-1.2718501530844737, ,0.00735608081749602,0.00827781437385003,0.0037086871990686847,0.0027380485215811007,0.0009293976475309834,0.0006473919194577293, ,0.3129918575286865
0.009404058411143067,0.021128269869397844,-0.07976305582128536, ,0.009642298785867934,0.0210151702534557,-0.08001020704463875, ,0.0003614328796338034, ,0.0012307323695083634,0.00017723895738234782,-0.003534924848342661,-0.0021105794506294305,-0.00027483396555433374,0.0008284611740810956, ,0.0037472402507445443, ,0.0021283981709468835, ,2.997097722166503e-05, ,0.16717399852833797,-0.2512359458642717,0.09039289428000001,1.7007951316029768,0.4592352757116453,-1.2719615709881702, ,0.00874918040004769,0.008913356956243968,0.0036177178105836934,-0.0018974442077462196,0.009330530184966027,-0.006481010543572679, ,0.3379979133605957
0.009446934596296218,0.021136230635013624,-0.07988208659039245, ,0.009678387085440741,0.021013958454705554,-0.08009973619615761, ,0.00034042927561861485, ,0.0013930403476981083,0.0002241862541452653,-0.0036863732781814147,-0.006787833606193642,-0.006956633385981372,0.000570116752041361, ,0.00394717225782617, ,0.009719538695409289, ,3.0518965443553636e-05, ,0.1674674623775585,-0.25095792748079965,0.09051474554000001,1.7007951316029768,0.45937191221141077,-1.2720729888918665, ,0.009806130532620484,0.008785624269252305,0.0037728118237801995,-0.0018020316895391592,0.003437585133491122,-0.0019601978965772364, ,0.3633599281311035
0.00947252880264339,0.02113728267681137,-0.07995053777416235, ,0.009714671024628656,0.02101256046027885,-0.08018920763638243, ,0.0003621488507463484, ,0.0013848706888542834,0.00013245687887033372,-0.0035134820912994134,-0.0019771734302872954,-0.0028735956448803198,-0.0009819131411717532, ,0.0037788844988289215, ,0.0034880891858288837, ,3.1152865166411354e-05, ,0.16766825343228833,-0.25076485915894403,0.09058474520000001,1.7005854416594925,0.45964518521094166,-1.272214145959119, ,0.010510238294215393,0.00943400731794284,0.0035997314169491533,-0.0006162448832287491,0.008126012604269216,-0.007054313829419308, ,0.38921284675598145
0.009517270512933749,0.02113750834108595,-0.08004927576529959, ,0.00975114906565696,0.021010977835503604,-0.08027862109157832, ,0.00035115299365479714, ,0.0015181359436705118,-0.00022429492634286005,-0.002797375232821859,-0.0019752553794962113,-0.003942632484627185,-0.0013041595338449798, ,0.0031906665683917295, ,0.004409760146739018, ,3.163434276611948e-05, ,0.1680389446102511,-0.25045594984397507,0.09068585582000001,1.7005854416594925,0.45991845821047256,-1.2725186605066523, ,0.013835390225757511,0.011516619121173638,0.0028449386533309527,-0.0006162448832287491,0.010478932774910498,-0.008997574713770108, ,0.4137239456176758
0.009552868749218188,0.021134002929473143,-0.0801168858205867, ,0.009787819675285928,0.021009212141387842,-0.0803679762887556, ,0.0003658156662259248, ,0.00164249612374066,2.9610994015556907e-05,-0.003516874712237915,-0.0007482131671252121,-0.0057136751566528735,-0.0019011083064410953, ,0.003881633427958931, ,0.005762456611655227, ,3.215425674900954e-05, ,0.1683478539252201,-0.2502010996591257,0.09075455919000001,1.7005854416594925,0.460055094710238,-1.2727934358906299, ,0.013630701171857338,0.010693147767948425,0.0036087022020842774,-0.0006162448832287491,0.008423873093969693,-0.009619326640333506, ,0.4444258213043213
0.009602108419002163,0.02113354411552452,-0.08022434851655696, ,0.009824681324804423,0.02100726493461751,-0.08045727295566743, ,0.00034603312596156544, ,0.0015336848151767382,-9.72557531568848e-06,-0.0034883600821344527,-0.0023675189654025408,-0.006678298978642504,-0.0022906313573224017, ,0.0038106350864059407, ,0.007085536167654157, ,3.249755865943669e-05, ,0.1687262678360571,-0.24986129941265978,0.09086344755,1.7005854416594925,0.460055094710238,-1.2730384721110515, ,0.012059532722743184,0.010970425747149602,0.003549991424114108,-0.0006162448832287491,0.005782078550359807,-0.008445213227712195, ,0.46944379806518555
0.00963335632348,0.02113259704177541,-0.08029529762075148, ,0.009861732490025981,0.021005137767567635,-0.08054651082080988, ,0.0003626425401292465, ,0.001510968783986439,-6.102651526629565e-05,-0.0034417122704444563,0.004999830590907655,-0.004987741922750376,-0.002373113158128916, ,0.0037592731018476085, ,0.007062285390921289, ,3.290080298239253e-05, ,0.16898884075378073,-0.24963734015930727,0.09093603979,1.700375751716008,0.46032836770976887,-1.273506344138866, ,0.012101556321214813,0.011335106004568921,0.0034985309729848456,-0.0025700690739764703,0.00810637136106014,-0.01667845962386162, ,0.4952869415283203
0.0096749788402864,0.02113131833088301,-0.08038985299436685, ,0.009898971651282697,0.021002832188300756,-0.08063568961342157, ,0.00035653486713356356, ,0.0015783264588661828,-2.8247802231291392e-05,-0.0036902530620252314,0.0031707395576413876,-0.00921915970833367,-0.003430629247921169, ,0.004013711500702879, ,0.009749179164719509, ,3.323100866704844e-05, ,0.16931319553449814,-0.24932843084433828,0.09103196525000001,1.700375751716008,0.4604650042095343,-1.2735360833024219, ,0.011909763870516425,0.011638084566896098,0.0037374029845143137,-0.002413402816490928,0.0034603727983729487,-0.015465133139856958, ,0.5222909450531006
0.009708463070124016,0.021132776900755525,-0.08048009006723415, ,0.009936397293420872,0.021000349740575994,-0.08072480906348271, ,0.00035969202107922685, ,0.0014451966955519773,-4.02105055925101e-05,-0.0036540511608087285,0.009142507221924924,0.0010935759326533253,-0.002542858618636158, ,0.003929669230279055, ,0.009207678641872224, ,3.354670107890152e-05, ,0.16956032298647333,-0.24906585792661468,0.09112400184000001,1.700375751716008,0.46073827720906524,-1.2737589191098149, ,0.011349425976758282,0.011721460172736016,0.00372168493457944,-0.00229263006613843,0.013591757141354056,-0.02088167105250988, ,0.5471999645233154
0.009751260789763423,0.021126841288128265,-0.08058056053187115, ,0.009974007905795723,0.020997691963851612,-0.08081386890171466, ,0.0003474602439141156, ,0.0012416261025467341,-0.00013254711580128949,-0.003045817638015073,0.004904111233116487,-0.00014461282417574882,-0.003921847495573836, ,0.0032918397896125433, ,0.004906242920358075, ,3.377326791573734e-05, ,0.1699001232329392,-0.24869516674865189,0.09122511246000001,1.7001660617725234,0.4610115502085961,-1.2739817549172074, ,0.00974286692927349,0.010980216548811594,0.0030774365378670792,-2.768711776779476e-05,0.010033885088164227,-0.015601617922089531, ,0.5751957893371582
0.009775868085607712,0.021123674130440133,-0.08064071151605325, ,0.010011801982266371,0.020994860393290828,-0.08090286885957992, ,0.0003754787014410726, ,0.001396733161692793,-8.503328711741438e-05,-0.003456834600370379,0.000963332064404116,-0.003527215163170066,-0.0037911218725912, ,0.003729316242853129, ,0.0036563991822537163, ,3.427706005982908e-05, ,0.17010091428766905,-0.24847120749529938,0.09128603809000001,1.7001660617725234,0.46128482320812697,-1.2742045907246005, ,0.010478741871682008,0.011637256662689943,0.0034931604210526324,-2.768711776779476e-05,0.007271760437866316,-0.012395024732188797, ,0.5976808071136475
0.009804241135314945,0.021124298718497726,-0.08071609489997765, ,0.010049778021190281,0.020991856559763867,-0.08099180866928057, ,0.00039223382097757506, ,0.0014584389380950633,0.00015570194725572062,-0.004275010360379514,-0.0006151114225278257,0.0016969808905068172,-0.0017042281089456393, ,0.00451962396819506, ,0.0018050220987591143, ,3.4820918771805776e-05, ,0.17030170534239888,-0.24824724824194686,0.0913625192,1.7001660617725234,0.4614214597078924,-1.274479366108578, ,0.00999051228916105,0.011296047276279744,0.0043664505263157904,-2.768711776779476e-05,0.012192511852678157,-0.009942175873585783, ,0.6208980083465576
0.009849864247513617,0.021129770355184808,-0.0808433511478278, ,0.010087934525418936,0.020988681989855634,-0.08108068806375857, ,0.0003645712491635919, ,0.0015778546820406298,0.00020062070363371088,-0.004349221470985821,-0.004006504301277959,-0.0011839512278505034,-0.001027165293851859, ,0.004630939588036977, ,0.00417777640257535, ,3.5203158322868645e-05, ,0.17060289192449365,-0.24792289346122942,0.09149214820000001,1.7001660617725234,0.46155809620765786,-1.2746724627524149, ,0.011061538822528357,0.010980950587224274,0.004456858287632905,-2.768711776779476e-05,0.01029952094394233,-0.006227748335759068, ,0.6431679725646973
0.009877092167310931,0.021132630330986828,-0.08091505273958732, ,0.010126270002292426,0.020985338205869123,-0.08116950677669472, ,0.0003853977433353882, ,0.0016368424170032972,0.00010310458055382091,-0.0043302981166273334,-0.00532610099053299,-0.003196717114130299,0.001940064264257863, ,0.004630482202913494, ,0.006211791251041762, ,3.5648533759574396e-05, ,0.1708114057120977,-0.24774527060512228,0.09156603673000001,1.699956371829039,0.4618313692071887,-1.2749769772999484, ,0.011767973903580208,0.01188142501045083,0.004419759023307436,-0.0034889332937576034,0.00982221207674133,-0.006417682652903902, ,0.6656498908996582
0.009906264516177373,0.021130605647347617,-0.0809823933115166, ,0.010164782963634107,0.020981826725828635,-0.0812582645425085, ,0.00040629040260972417, ,0.0014712710156535205,-0.00024362345512455398,-0.0032435501499993528,-0.0032001291756119645,0.0007926058969323401,0.002279069825811986, ,0.0035699591545212098, ,0.0032968243036970734, ,3.615103223481559e-05, ,0.17105081043119866,-0.24751358861889552,0.09163474010000001,1.699956371829039,0.4621046422067196,-1.2752814918474817, ,0.012499597149429767,0.012707559826717589,0.00328632381266763,-0.0034889332937576034,0.014738294611735243,-0.009061750466980547, ,0.6905138492584229
0.009952329395935261,0.02112416927676243,-0.08107140099746489, ,0.010203471925745715,0.020978149063485788,-0.08134696109635697, ,0.00040040959162633143, ,0.001558990059458984,-0.0003129655604788454,-0.00341544599326428,-0.000257379565074269,-0.0017874075574633207,4.111534348765103e-05, ,0.003767448577013731, ,0.0018058431693327795, ,3.659762393661401e-05, ,0.17142150160916145,-0.24716606563955543,0.09172418411000001,1.699956371829039,0.4621046422067196,-1.2755265280679033, ,0.01294991014717123,0.01398422363077966,0.003437378403107467,-0.0034404539357728876,0.012523012643665008,-0.01365908743848204, ,0.7123289108276367
0.009990736130151426,0.021121778946509885,-0.08115736348044476, ,0.010242335409402675,0.020974306728324708,-0.08143559617413498, ,0.0004030678408088644, ,0.0018837029793626464,-3.929499919513694e-05,-0.004312286572686309,0.004212919836056203,-0.007858467756865122,-0.0026908163931028744, ,0.00470592142905001, ,0.008916513194041555, ,3.702675564601461e-05, ,0.17174585638987888,-0.2468726017903349,0.09181233183000001,1.699956371829039,0.4625145517060159,-1.2758607817789926, ,0.014490294939451944,0.013466289422232268,0.004390521367144433,-0.003233304505576952,0.0077700868982228215,-0.01820496368964432, ,0.7355358600616455
0.010029156764705185,0.02112262061589113,-0.08125293966777745, ,0.01028137193984846,0.020970301225565365,-0.0815241695124737, ,0.0004004738691796422, ,0.002006940870940906,0.00011190621887082778,-0.005000361662420435,0.005300703315789315,-0.006789771558338863,-0.004380042069435503, ,0.005389244048684292, ,0.008613852235226515, ,3.742018894417131e-05, ,0.17202387477335096,-0.24660230613973705,0.09190955358000001,1.6997466818855542,0.4626511882057813,-1.2761355571629702, ,0.014570388693147671,0.01380519952843625,0.005108663091725466,-0.0016741489922899226,0.008568629552958191,-0.019354475569839116, ,0.7571618556976318
0.010086603481814796,0.021116322683806425,-0.08137846303664223, ,0.010320580046789932,0.020966134056168918,-0.08161268084874107, ,0.0003635376738847986, ,0.0017391883056421026,-0.0004493210512866089,-0.0032035451992569303,0.002346797169581218,-0.006554019311010073,-0.003770673246581551, ,0.0036727873901566473, ,0.006961510306452201, ,3.765526646186885e-05, ,0.1724795160129302,-0.2461466649001578,0.09203659000000002,1.6997466818855542,0.4629244612053123,-1.2765217504506443, ,0.01514474011466179,0.0149656113481266,0.0032121015366001213,-0.0016741489922899226,0.009406172189983504,-0.017379075364332235, ,0.781315803527832
0.010120113473521711,0.021106294638015582,-0.08144509241706199, ,0.010359958264391345,0.02096180671683934,-0.08170112992104014, ,0.00037941729865214604, ,0.001696299997318827,-0.0004307862809331416,-0.0035276466143237322,-0.004445109693951999,-0.009832295921706393,-0.0015649392116110815, ,0.003937931073075524, ,0.010790414391346495, ,3.7933469902997655e-05, ,0.1727575343964023,-0.2458377555851888,0.09210270079,1.69953699194207,0.4630610977050777,-1.2766331683543406, ,0.013473937463931673,0.015500970525722113,0.0035070038573315723,-0.0035189732807696535,0.004708624969861619,-0.011550374320729365, ,0.8027009963989258
0.01015142565390384,0.02109812191158175,-0.08151636510660486, ,0.010399505131270862,0.020957320700033862,-0.08178951646820944, ,0.0003949431283241717, ,0.0015311134299169984,-0.0003992290125473018,-0.0035255314337046323,0.004833597980484414,0.003505831506535808,-0.009548363117313195, ,0.0038643322877013474, ,0.005971140882989222, ,3.824999367151043e-05, ,0.17301238458125168,-0.24553656900309406,0.09217399674000001,1.6993273019985855,0.46333437070460853,-1.2768560041617336, ,0.012455301425183196,0.015592662102936375,0.0035326705522288762,0.0053721526562483446,0.015284812383558824,-0.018881119838407782, ,0.8262169361114502
0.010186385192046742,0.021090717921653013,-0.0815901849246519, ,0.010439219190494339,0.020952677493963352,-0.08187784022982231, ,0.0004070942950231799, ,0.001888648478632953,-0.0002347673622337685,-0.004220317851982236,-0.009523351876068478,-0.007699770835919475,-0.007847641385439572, ,0.004629599503409849, ,0.012246660791508105, ,3.8720751574627344e-05, ,0.17329040296472378,-0.24522765968812507,0.09224788527000001,1.6993273019985855,0.463471007204374,-1.277130779545711, ,0.014300322718274682,0.01568026132823377,0.004249949711846319,0.0053721526562483446,0.005518410995574925,-0.004778402316560613, ,0.8451178073883057
0.010227097033692973,0.021088922895150533,-0.08168823836503487, ,0.010479098989570144,0.020947878582596387,-0.08196610094618567, ,0.0004007569062082085, ,0.0020811843422860635,6.132020604905383e-05,-0.005402054142434138,0.0003140924062045557,0.002391226559900032,-0.007752052322901448, ,0.005789410798348688, ,0.0024117657224565943, ,3.9148842812864365e-05, ,0.17359931227969275,-0.2449110276402819,0.09234769960000001,1.6993273019985855,0.4637442802039049,-1.2773536153531038, ,0.015215158178366326,0.015813521339521876,0.005526999139486468,0.0053721526562483446,0.016985846426846266,-0.014212567426789459, ,0.8649280071258545
0.010267534332611551,0.021090538591860827,-0.08179268529047826, ,0.010519143080444769,0.020942925445666397,-0.08205429835834013, ,0.00039183925300015636, ,0.00190090971532071,-4.2588829676507496e-05,-0.004948273357607387,-0.0025652639010384434,-0.0003852609037313519,-0.008055797647512073, ,0.005301007524595769, ,0.0025940319734441388, ,3.952883427515503e-05, ,0.17387733066316483,-0.24461756379106134,0.09245399538000001,1.6993273019985855,0.4638809167036703,-1.2775467119969408, ,0.013516157464530804,0.015561977953176579,0.005026447308299148,0.0053721526562483446,0.012327936028569507,-0.011343999966728583, ,0.8837249279022217
0.01030671010687866,0.021087533988526752,-0.08189068314097452, ,0.010559350019497597,0.020937819558676258,-0.0821424322080594, ,0.00038680606087763665, ,0.0019045474035363729,-0.000242482214212258,-0.0044083774521235025,-0.0013522762956562763,-0.0041390207016760465,-0.0007938637169847593, ,0.00480831469403962, ,0.004354324503729005, ,3.987616620244699e-05, ,0.1741785172452596,-0.24427776354459546,0.09255380971,1.69953699194207,0.46429082620296663,-1.2780443231883112, ,0.014667224352159315,0.01585844611605461,0.004456858287632905,-0.003420508531134807,0.011847116456574203,-0.014511622908073785, ,0.9038548469543457
0.010348175235930387,0.021079818091953813,-0.08197581512788037, ,0.010599718367534983,0.02093256239289852,-0.08223050223784914, ,0.0003870706808141835, ,0.0021225037397241,-0.00040136066206514513,-0.004236953354482942,-0.006656366779217894,-0.011959022768937585,0.005103102732536423, ,0.004755826556368558, ,0.013686688530174728, ,4.020930668824037e-05, ,0.17451059475885125,-0.24395340876387803,0.09263936485,1.6991176120551008,0.4644274627027321,-1.2783190985722888, ,0.017260265834570892,0.016882572773255788,0.004265884177825389,-0.00986368317038855,0.008017734738776419,-0.011488671325255452, ,0.9233307838439941
0.010395032307511105,0.021074881631344744,-0.08207786055204708, ,0.010640246689786468,0.02092715541538606,-0.08231850819094715, ,0.0003739845107278332, ,0.002213926173114807,-0.00013551760918892655,-0.005052060379687148,0.0007924817857140177,-0.009221943217358877,0.003155006059917168, ,0.005517530987897368, ,0.009255931114359477, ,4.048882138283297e-05, ,0.174881285936814,-0.2435904403187895,0.09274306805000002,1.6991176120551008,0.464700735702263,-1.2787869706001034, ,0.016804841784747792,0.01619678128664803,0.005136669306675266,-0.009248194201532596,0.010251545258602368,-0.018287966514414958, ,0.9463589191436768
0.010436786442173215,0.02107120210496204,-0.0821699554345542, ,0.010680933555899002,0.02092160008897324,-0.08240644981132292, ,0.0003713733519946868, ,0.002028625555647033,-0.00034731005317766814,-0.004140176534062967,-0.008012579537874674,-0.009345193764030271,0.004818145162225497, ,0.0046235276198232185, ,0.01230991779507841, ,4.074903322400118e-05, ,0.17519791798465723,-0.24327380827094627,0.09283640093000001,1.6991176120551008,0.46483737220202836,-1.279061745984081, ,0.016389799923742794,0.015989375157282357,0.004181888033604621,-0.008175606975136012,0.009392029318048948,-0.008727571636363821, ,0.9657249450683594
0.010477702112019415,0.02106562784138076,-0.08224863079978821, ,0.010721777539931423,0.02091589787227938,-0.08249432684367569, ,0.000377304153355736, ,0.0019977437416237084,-0.0004732864756075038,-0.003579644535978718,-0.009512602867293291,-0.010045370626439771,0.004518836864934031, ,0.0041266009195404345, ,0.01383470577011366, ,4.101587647266126e-05, ,0.17554544096399732,-0.24297262168885153,0.09291677091000002,1.6991176120551008,0.46511064520155926,-1.2793662605316143, ,0.017147983657114344,0.015853147604154825,0.003607884828992073,-0.007306525404015096,0.00922651389468577,-0.0068762088461117536, ,0.9871068000793457
0.010518230574958303,0.021060956889881875,-0.08232845107985341, ,0.01076277722035042,0.020910050219716977,-0.08258213903343567, ,0.00038331900900626955, ,0.0020642003729190762,-0.00012933239408291643,-0.004559002697603487,-0.005228534475239049,-0.005496740893273507,0.004076774301904002, ,0.005006211705918392, ,0.007586285733946427, ,4.128919429566592e-05, ,0.1758852412104632,-0.24267915783963098,0.09299843718,1.6991176120551008,0.4653839182010902,-1.279589096339007, ,0.016177453385351308,0.014740127610821805,0.004641262097902099,-0.006624906039464961,0.012777431373696909,-0.009788321123321023, ,1.006821870803833
0.010560117722653157,0.021059146847691095,-0.08242350698701528, ,0.010803931180024734,0.020904058581493423,-0.08266988612676249, ,0.0003797368204562927, ,0.0020288369495690198,-4.709445988207939e-05,-0.004540568719920278,-7.777358202007842e-05,-0.0003529512937821564,-0.0021795824605935835, ,0.004973445642249102, ,0.0003614158489463242, ,4.1541875243818096e-05, ,0.17620959599118063,-0.24238569399041046,0.09309565893,1.6989079221116163,0.46565719120062105,-1.2798119321463999, ,0.01606516701514657,0.01407757625848847,0.004669836270888303,0.0,0.01636029672386702,-0.013009060902534089, ,1.0272858142852783
0.01059960044958563,0.021056885398813154,-0.08251036244163236, ,0.010845238006220064,0.020897924403615716,-0.08275756787054447, ,0.00038303646211179095, ,0.0019875628121006437,-9.29280984970791e-05,-0.004265299172299284,0.005665676854443345,0.0006944912960109669,-0.003501141725356462, ,0.004706571851438439, ,0.005708082950298947, ,4.190841006751367e-05, ,0.17653395077189807,-0.24209995287406416,0.09318510294000001,1.6989079221116163,0.46606710069991736,-1.2800645071173486, ,0.01624669432605218,0.013803191499413931,0.004394154902068966,0.0,0.017653725757606903,-0.018634351491230466, ,1.0438368320465088
0.01062266434758611,0.021056130251880967,-0.08256444340085659, ,0.010886696290594702,0.02089164912789813,-0.08284518401239936, ,0.00041902529523283157, ,0.0020552626921477727,-3.566250529574946e-05,-0.005029093010556259,0.01727013611126577,0.015102105844831673,-0.0035259985712203287, ,0.0054329690830009604, ,0.0229419092281607, ,4.2360094258424045e-05, ,0.17671929636087946,-0.2419300527508312,0.09324084341000001,1.6989079221116163,0.4663403736994482,-1.2802873429247414, ,0.01663107983849821,0.015432906417054932,0.005191920312907433,0.0,0.03336899906220591,-0.03114068152086683, ,1.0620808601379395
0.010666539668780355,0.02105259781618031,-0.08265611858418448, ,0.010928304629193267,0.020885234191961352,-0.0829327343006719, ,0.0004159900621643815, ,0.002112925550860771,-0.00036322195754693557,-0.004033255243621192,-0.0012015643216164863,-0.0057578635600626345,0.0022392222730196532, ,0.004567661593651872, ,0.005881900078035875, ,4.278935021761195e-05, ,0.17705909660734534,-0.24162886616873647,0.09333417629000001,1.6986982321681319,0.46647701019921367,-1.280398760828438, ,0.017861272644169163,0.015884991891273986,0.004108540500386898,-0.006197168122596531,0.01415478674793922,-0.015003579812655607, ,1.0785069465637207
0.01068921894800208,0.021049597864466044,-0.08270407035035578, ,0.010970061622442791,0.020878681029242424,-0.08302021848443465, ,0.0004561083369457566, ,0.0022504841342394196,-0.00028219892245390736,-0.004614890302874677,-0.0021584125034107915,-0.006144214288932793,0.0019403795078620318, ,0.005142132590459354, ,0.006512304635843161, ,4.3309904357664386e-05, ,0.17725216492920096,-0.2414512433126293,0.09338343531000001,1.6986982321681319,0.46675028319874456,-1.2806215966358308, ,0.018224878348083496,0.016619429344740942,0.004705705028064994,-0.0059613113103431595,0.014070146334313008,-0.014724694221120174, ,1.0951738357543945
0.010743957610679145,0.021044607508153602,-0.08282271757323482, ,0.011011965875146839,0.020871991068996027,-0.08310763631348722, ,0.0004275553220782533, ,0.002153798984570617,-0.00026620977131719024,-0.005095656993879719,0.0069170817623849185,0.009603768093692257,0.0021631731234760918, ,0.005538541135313294, ,0.01183547118915646, ,4.3740999205819313e-05, ,0.17770008343590596,-0.2410419384702954,0.09350528657000001,1.6986982321681319,0.4672968291978063,-1.2812306257308974, ,0.017498975024611983,0.01788820764532908,0.005219138768020971,-0.005252955732888306,0.02951767175925441,-0.024069682076611736, ,1.112828016281128
0.01076779433927023,0.02104154081974355,-0.08287156776491508, ,0.011054015996481106,0.02086516573630094,-0.08319498753835544, ,0.00046650976084980323, ,0.002444463557452357,-0.00022106874069709062,-0.005467606715293269,-0.001001235442310586,-0.00045942864762900344,0.0017626554659405705, ,0.005993245920613143, ,0.0011016089173709416, ,4.425761633395827e-05, ,0.17787770629201313,-0.24086431561418822,0.09355454559000001,1.6986982321681319,0.4672968291978063,-1.2812306257308974, ,0.019276242445352584,0.01840157873928074,0.0055929815730337085,-0.005034599456532562,0.020837979617296026,-0.01701875396027278, ,1.1292309761047363
0.0108089743405912,0.021037198798471088,-0.0829605081188711, ,0.01109621059998735,0.020858206452062187,-0.08328227191029071, ,0.0004669848672640054, ,0.0027094055591924356,-0.00037395795362584806,-0.005386978235687308,-0.014039496419537847,-0.015179725403239303,-0.002634630997533681, ,0.006041544301503685, ,0.02067683531141578, ,4.4759958401938957e-05, ,0.17820206107273057,-0.24056312903209348,0.09364528589000001,1.6984885422246472,0.46757010219733725,-1.281535140278431, ,0.021106970987204356,0.01999514149988849,0.005458811350239891,-0.0009781019842165061,0.006412330374383006,-0.005527871006101634, ,1.1461758613586426
0.01087247391768887,0.02103188347590379,-0.08310037457935682, ,0.011138548303569681,0.020851114633019294,-0.08336948918127003, ,0.00041939912057914307, ,0.0027377545974815553,-0.0002149562934069405,-0.006184268937360413,0.00508575578686015,0.004826057667681654,-0.002328457478730864, ,0.00676658619495145, ,0.007011115138811907, ,4.513057110505323e-05, ,0.17871948417530362,-0.24009976505964,0.09378917408000001,1.698278852281163,0.4682532846961644,-1.2822555872771941, ,0.02176036265958972,0.020544910491117296,0.00635120076555024,-0.0015718288473766265,0.0280561529774823,-0.024368191876305335, ,1.1630218029022217
0.010900190237266403,0.021029890282207836,-0.08315918087974965, ,0.011181027729487987,0.02084389169174693,-0.08345663910399474, ,0.00044938465467992685, ,0.0025835984200952736,-0.000333170413601963,-0.005657307272931217,-0.005829577506663344,-0.0022085989149634323,-0.0012744683533701725, ,0.00622825087012228, ,0.00623392952145228, ,4.5563019599120074e-05, ,0.17892027523003345,-0.2399066967377844,0.09384880342000002,1.698278852281163,0.4682532846961644,-1.2823372660173349, ,0.02017366954899464,0.020255483790495365,0.005762956410998553,-0.0015718288473766265,0.019074940851112807,-0.013407262392936506, ,1.1791579723358154
0.010949338480322701,0.021018309214179742,-0.08325802310261199, ,0.011223647504354138,0.020836539036662435,-0.08354372143189037, ,0.00043578592617501136, ,0.0023739964900351836,-0.0005496273687166759,-0.004665396271415825,0.024625167325480316,0.028488628783658158,-0.0010694987157320195, ,0.005263446774546359, ,0.03765635183565613, ,4.595062773415657e-05, ,0.17935274827099001,-0.23948194642970205,0.09394991404000001,1.698278852281163,0.4689364671949916,-1.2829760342759573, ,0.023128672083468384,0.020242521663496323,0.00486079082087275,-0.0015718288473766265,0.054085942220886134,-0.04227509885817336, ,1.1960439682006836
0.011000131385928832,0.021008491279188926,-0.08336318618475555, ,0.011266406259125897,0.020829058072028207,-0.08363073591910619, ,0.00041794909292782725, ,0.0028764850833353233,-0.00029038288990709685,-0.006081514395610899,-0.009660466852376762,-0.0029367104614755938,8.996028666384982e-05, ,0.006733743832477147, ,0.010096973795234316, ,4.628532262009278e-05, ,0.17980838951056927,-0.23906491885449394,0.09405620982000001,1.698278852281163,0.4698929226933497,-1.2839193170821135, ,0.0229385887257604,0.02101814873941767,0.006229492186155652,-0.0015718288473766265,0.02149300089965668,-0.010351130087549128, ,1.2121717929840088
0.011028774251795503,0.021005089790540547,-0.08342165430793637, ,0.011309302629102983,0.020821450197959515,-0.08371768232051446, ,0.00044727201418044547, ,0.002940966649737567,-0.0003460048509789625,-0.005741519770630094,-0.03046980022012367,-0.025873806803475334,-1.942036839490017e-05, ,0.006460189894136691, ,0.03997327354268771, ,4.678728866911599e-05, ,0.18003234876392177,-0.23885640506688985,0.09411713545000001,1.698278852281163,0.4700295591931152,-1.28403073498581, ,0.021865654736974834,0.02040794442117651,0.005813434861313869,-0.0015718288473766265,-0.0037866399940999743,0.010262721990159764, ,1.2259328365325928
0.011055946925777193,0.020999907414334242,-0.08347724762503432, ,0.011352335253920546,0.020813716810424373,-0.08380456039170966, ,0.00047921459626413924, ,0.0029693502005425053,-0.00039667630030062133,-0.006006686976664243,-0.03224042621373427,-0.02649093461340314,0.0027311717189478658, ,0.0067122783863834065, ,0.041727864686746385, ,4.7351146491917285e-05, ,0.18024086255152583,-0.23864016854641157,0.09417417221,1.698069162337678,0.4700295591931152,-1.28403073498581, ,0.021577294579006544,0.021503952313272328,0.006051980060790275,-0.004666932221824284,-0.003984894029691749,0.01042438486269317, ,1.2399868965148926
0.011113653251585545,0.020993554001909946,-0.0835993535909863, ,0.011395502777545159,0.02080585930125189,-0.08389136988900846, ,0.00044714871603230546, ,0.003054743212192275,-0.00015639528778966263,-0.0064641417728676836,-0.004429432673618932,-0.004907657787592075,0.00149974800180311, ,0.0071512966962789725, ,0.006610973262982085, ,4.782931236367346e-05, ,0.18068105832535664,-0.23821541823832923,0.09429861605,1.698069162337678,0.470302832192646,-1.2841718920530623, ,0.023909534280289944,0.0202901307587066,0.006656419356456332,-0.004666932221824284,0.020904092008141622,-0.015323028781674453, ,1.2539348602294922
0.0111407947700795,0.020991860829716658,-0.08366620109022109, ,0.011438803848269468,0.020797879058135495,-0.08397811056944886, ,0.00047299668246356493, ,0.002844027968617333,-0.00012336210931086617,-0.006845427777190274,0.01999881250354943,0.0235606567694673,0.001453764558868113, ,0.007413743639283694, ,0.030903997054252515, ,4.835481825276379e-05, ,0.18090501757870914,-0.2380146271835994,0.09436343055000002,1.698069162337678,0.4708493781917078,-1.284617563667848, ,0.02333913958644141,0.021315575372522634,0.007126985020134229,-0.004666932221824284,0.06815436577307904,-0.05414156239563978, ,1.2676939964294434
0.011210211592046729,0.020987736640037044,-0.08380954039584974, ,0.011482237118707515,0.020789777464639107,-0.08406478219079015, ,0.00042229621850510443, ,0.0030380588477347398,-0.0004980134318991849,-0.005640189694435532,-0.022805767534046204,-0.02433017161130132,0.00033496628845411814, ,0.006425695194285839, ,0.03334756779353677, ,4.875597853552221e-05, ,0.18143788614703063,-0.23755126321114592,0.09451509648,1.6978594723941938,0.47112265119123864,-1.2848403994752409, ,0.023356372522390048,0.021592023107729414,0.005703119054779808,-0.004149058035796465,0.0,0.0008812697156187241, ,1.2826759815216064
0.011238798662157188,0.020981585916301723,-0.08386541294987476, ,0.011525801245788276,0.020781555900197434,-0.08415138451151105, ,0.0004518431413868082, ,0.0030854733802669495,-0.0005665593433558981,-0.005707517693197204,-0.013552108509352092,-0.014463121141387262,0.00018128170326892073, ,0.0065128253230098965, ,0.019820229871093647, ,4.9213260400817145e-05, ,0.1816772908661316,-0.2373195812249192,0.09457213324000001,1.6978594723941938,0.47139592419076953,-1.2850632352826337, ,0.024855144462669142,0.022653841384213603,0.005802845726775957,-0.004149058035796465,0.011817733500513159,-0.008893845494315517, ,1.2961537837982178
0.01126680059610565,0.02097759165193047,-0.08392647967908792, ,0.011569494890751696,0.020773215740124105,-0.08423791729081, ,0.0004799861824397658, ,0.002504619194605958,-0.0003956811849806293,-0.0060100487067499975,0.041031083377061496,0.04776838517078734,0.0008545456733828668, ,0.00652306418546097, ,0.06297117131734754, ,4.972178188002515e-05, ,0.18192441831810677,-0.23709562197156667,0.09463565145000001,1.6978594723941938,0.47194247018983126,-1.2855905856375598, ,0.023425559505917248,0.021997436615315436,0.0062984624436536185,-0.004149058035796465,0.07503133480867863,-0.059985748466597766, ,1.3109610080718994
0.01128207632162988,0.02097536452653594,-0.08396025967130231, ,0.011613316719144234,0.02076475835561764,-0.0843243802886057, ,0.0005354054390083587, ,0.0028141276014013727,-0.0004002226521421337,-0.006029469823132699,0.02487006330814273,0.027912517865425684,0.0007027519130705486, ,0.006665883188019768, ,0.037384872536493766, ,5.0338548610365434e-05, ,0.18205570477696859,-0.23697205824557907,0.09467065128,1.6978594723941938,0.47221574318936216,-1.2858134214449526, ,0.02517160253540339,0.02199233871575221,0.0062860345382794005,-0.004149058035796465,0.056199432343574475,-0.04466561971408036, ,1.3245398998260498
0.011369693632347393,0.020956085590954965,-0.08412043047965796, ,0.011657265400812368,0.02075618511376208,-0.08441077326553478, ,0.0004549248906256169, ,0.00332432429158078,-0.000569182976502617,-0.005904968649662804,-0.02714462149857497,-0.02735122384190138,0.0027555639932524702, ,0.006800276171585606, ,0.03853465861755227, ,5.077095743499052e-05, ,0.18275847346852303,-0.23631562595127,0.09483268753000001,1.6974400925072246,0.4724890161888931,-1.2861179359924861, ,0.02593521223243257,0.022949683569158594,0.00598377592787378,-0.006091829608780391,0.0,0.0036703384978047657, ,1.3382518291473389
0.011400486408386245,0.020950073209415675,-0.08418561085454102, ,0.01170133960989823,0.020747497377533838,-0.08449709598295195, ,0.0004780926706652246, ,0.002989105030373252,-0.00034692980523104064,-0.006431347630657285,0.021439327892116448,0.027692515902424712,-0.012601930169125069, ,0.007100516989538255, ,0.03502171050175531, ,5.1243037189706884e-05, ,0.1830287691191209,-0.23606849849929482,0.09490009461000001,1.6972304025637401,0.47303556218795484,-1.286563607607272, ,0.025808251715656996,0.02305562234170816,0.006701224871687001,0.010221969128020014,0.053097554148851416,-0.0398009727848606, ,1.3543457984924316
0.011461906026814813,0.020941991443758537,-0.08431200482935337, ,0.011745538024834528,0.020738696505806165,-0.08458334820292962, ,0.0004420443060163232, ,0.003027381030657469,-0.0006925166781577566,-0.005349404444056981,-0.0030918136116962584,0.0005754500288255966,-0.012996979366522048, ,0.006185526910490966, ,0.003144908546303132, ,5.1630181189848104e-05, ,0.1835461922216939,-0.23561285725971556,0.09503101990000001,1.6972304025637401,0.47385538118654746,-1.2872321150294503, ,0.025829325410579963,0.02368279050623179,0.005477583053645117,0.010221969128020014,0.02494558709354512,-0.017134774468551252, ,1.368539810180664
0.011494666035487678,0.020933684497849638,-0.08436612912339438, ,0.011789859328338884,0.020729783853351842,-0.0846695296882568, ,0.00046985791014922347, ,0.003169913776250431,-0.0007309674421873417,-0.005610970250058865,-0.012442594942043646,-0.009023743129923769,-0.01328542564932542, ,0.006485804028603224, ,0.015370299392176575, ,5.217426628362875e-05, ,0.18380876513941755,-0.23536572980774037,0.09508546408000002,1.6972304025637401,0.47385538118654746,-1.2872321150294503, ,0.025949396105679735,0.024719182484623802,0.005703119054779808,0.010221969128020014,0.015100321769072281,-0.009237169204660521, ,1.3792669773101807
0.011527466114487647,0.020926913328687596,-0.08442389121165846, ,0.011834302207409853,0.020720760770851457,-0.08475564020243978, ,0.000496693726461866, ,0.003169913776250431,-0.0007309674421873417,-0.005610970250058865,-0.012442594942043646,-0.009023743129923769,-0.01328542564932542, ,0.006485804028603224, ,0.015370299392176575, ,5.2764423376512666e-05, ,0.18406361532426696,-0.23512632508863943,0.09514379713000001,1.6972304025637401,0.47385538118654746,-1.2872321150294503, ,0.025999162070813913,0.025078472927714267,0.006448911546558706,0.009935207396866682,0.011054355752101345,-0.0060495891438744984, ,1.3915729522705078
0.011527192482046034,0.02092656152497418,-0.08442482680820486, ,0.011878865353321267,0.02071162860489542,-0.08484167950970017, ,0.0005862048645895827, ,0.003448541723382164,-0.0005847215250836823,-0.006385030768076534,-0.025668968921358747,-0.023724604568000546,-0.013168548675023449, ,0.0072803129870279495, ,0.03495358088638759, ,5.3526917626682446e-05, ,0.18407133805714118,-0.2351186023557652,0.09514509342000001,1.6972304025637401,0.47399201768631294,-1.2873435329331469, ,0.026041970789920633,0.02503216606659741,0.006464615064935065,0.009912120214029015,0.0,0.002960944251476571, ,1.4037339687347412
0.01158052393498643,0.020922190464364946,-0.08454405243973208, ,0.011923547461616219,0.020702388697987094,-0.08492764737497477, ,0.0005595739724720979, ,0.002787270002529988,-0.0001317357056395258,-0.007047458051461556,0.04588611099899716,0.053194894598586014,0.002530237240622425, ,0.0075797686871206145, ,0.07025120622866522, ,5.422342226774165e-05, ,0.1845192565638462,-0.23471702024630553,0.09526953726000001,1.6974400925072246,0.47494847318467104,-1.2881234582590217, ,0.024764337567450622,0.02160185330263391,0.007436419943977593,-0.005529041466652147,0.08233014736732923,-0.06435588341307798, ,1.4148797988891602
0.01162586147579388,0.020916837549404953,-0.0846438527891418, ,0.011968347232103813,0.020693042388551314,-0.08501354356391591, ,0.000551409136893628, ,0.0037622225260487865,-0.00029066767080932105,-0.008719446396342376,-0.010682596526362673,-0.006385827419665843,0.006094811399743355, ,0.009500923717673491, ,0.012445746662100446, ,5.489245316338698e-05, ,0.1848667795431863,-0.23438494273271387,0.09537194417000001,1.6972304025637401,0.4753583826839673,-1.288457711970111, ,0.02686015894663764,0.027183311818525,0.00891870745800672,-0.010660000501511231,0.023833157946827502,-0.016776904335894155, ,1.4261248111724854
0.011658020746958452,0.02091576246679611,-0.0847123583686745, ,0.012013263368852728,0.020683591010936093,-0.08509936784288956, ,0.0005743494045080043, ,0.00408280833471611,1.7104169882185783e-05,-0.008852505638797883,-0.0146450641838204,-0.016978677012953008,0.007770838816320613, ,0.009748665166862744, ,0.02242216144112644, ,5.559638092500297e-05, ,0.1850907387965388,-0.23419187441085826,0.09544194383000001,1.6970207126202554,0.4753583826839673,-1.288457711970111, ,0.029471099862879126,0.024061090658841475,0.009133492844036696,-0.011875584395183141,0.015830523788443244,-0.010320678503554689, ,1.4376897811889648
0.011742114289311637,0.020913130743054915,-0.08491266669185643, ,0.012058294580186792,0.020674035895418538,-0.08518511997897589, ,0.0004810063577192696, ,0.003489217094395418,-0.0001708740706303367,-0.008722368428028012,0.04383722301227072,0.05093188526158463,0.007261320423999587, ,0.009395932357892687, ,0.06719939737260032, ,5.6105477054962135e-05, ,0.18575489382372212,-0.2336049467124172,0.09565064652000001,1.696811022676771,0.4767247476816217,-1.2895718910070753, ,0.029379858067638008,0.02622186834995048,0.009154489379310347,-0.011613745848064537,0.0861691747458401,-0.06786041621218375, ,1.4487578868865967
0.011777508566327161,0.020908998400909172,-0.0849927422527177, ,0.012103439578679277,0.020664378368207604,-0.08527079973996757, ,0.0004933416173682283, ,0.003767650970928616,-0.00026694584326445977,-0.008339507210486095,0.016763323701165643,0.02250042542765655,-0.02362792704432152, ,0.009154989592332975, ,0.028058476893779334, ,5.663071086189256e-05, ,0.18604063494006845,-0.23334237379469355,0.09573360908,1.6966013327332867,0.4772712936806835,-1.2900175626218608, ,0.029692409749208632,0.027450662874883073,0.00866167021207178,0.020282830393060395,0.04930180404118491,-0.03786524266608615, ,1.4605708122253418
0.011818577992400131,0.020904273459413664,-0.08507592791292778, ,0.012148697081148276,0.020654619751450887,-0.0853564068943704, ,0.0004999740450128987, ,0.003993904619903149,-0.000613290618687649,-0.007187038263920532,-0.011538175957920371,-0.010766325132240845,-0.02384830774724057, ,0.008245054184352693, ,0.015781103957373078, ,5.716065505097266e-05, ,0.18635726698791164,-0.23305663267834725,0.09581916422,1.6966013327332867,0.47754456668021433,-1.2902403984292536, ,0.03167454658159906,0.02796844726155932,0.007377865456229736,0.020282830393060395,0.016834454774007853,-0.011461768591327475, ,1.472099781036377
0.01185744741815444,0.020896583119563845,-0.08513833562606161, ,0.012194065808652151,0.02064476136323881,-0.08544194121140268, ,0.0005185580866500733, ,0.0038521094010678775,-0.0009167512558175023,-0.006386451119668286,-0.021765959594245668,-0.023467164436705094,0.007713223806914348, ,0.0075143820508908644, ,0.032007261568797934, ,5.77181847941384e-05, ,0.18666617630288063,-0.2327863370277494,0.09588268243,1.696811022676771,0.47754456668021433,-1.2902403984292536, ,0.03141242686477021,0.027538288322249208,0.006496252659053834,-0.012687723278880254,0.011281663994170011,-0.006995956708867311, ,1.4847209453582764
0.011897836446426103,0.020888310018813444,-0.08520200263209152, ,0.012239544486483516,0.020634804517608525,-0.08552740246099359, ,0.0005356439791788352, ,0.004018683420938864,-0.0009084296294347778,-0.0066459749799730565,-0.031710421007613905,-0.034288787796634225,0.0064278017407344516, ,0.007819465727515644, ,0.046704087145314245, ,5.84112812086631e-05, ,0.18699053108359806,-0.23251604137715154,0.09594749693000001,1.696811022676771,0.47754456668021433,-1.2902403984292536, ,0.03163231385282359,0.027869880046540608,0.006701224871687001,-0.011570690538072227,0.008309186039156508,-0.004632179857975884, ,1.492872953414917
0.011935038627863043,0.02087758941643295,-0.0852685760798314, ,0.01228513184416372,0.02062475052454658,-0.08561279041378313, ,0.0005522465690684797, ,0.004219082695096642,-0.0010585551512737226,-0.007076301186093014,-0.014930455546519738,-0.015474260017471105,0.004456593652167581, ,0.00830633711527852, ,0.02150281860993398, ,5.912803543954235e-05, ,0.18732260859718972,-0.23220713206218255,0.09601620030000001,1.696811022676771,0.4780911126792762,-1.2906860700440395, ,0.035056129131315394,0.03117507935560801,0.007223950802721089,-0.01002415948681841,0.022718446213805064,-0.016439490031654853, ,1.5017387866973877
0.011963676894827552,0.02087042772465195,-0.08532415741727743, ,0.012330826615439628,0.020614600689997844,-0.0856981048411224, ,0.0005831664126179851, ,0.0036735001988516566,-0.0008738436630743088,-0.007471490999519934,0.04155281069432812,0.04841342442222775,0.003730861958225272, ,0.008371462489575264, ,0.06380043665683303, ,5.9895109742565724e-05, ,0.18759290424778757,-0.2319677273430816,0.09607453335,1.696811022676771,0.4787742951781033,-1.2912431595625216, ,0.03396454601233743,0.030651466911650764,0.007823581296660118,-0.009081428412601658,0.08767485605472448,-0.06944947668276814, ,1.513016939163208
0.012016606527044315,0.02086075698130477,-0.08542723952161356, ,0.01237662753827682,0.020604356315866726,-0.08578334551507197, ,0.0005675983688691747, ,0.004379247431924233,-0.0005393628235783812,-0.008987834550408033,-0.0009998044569766182,0.0013212092572150273,-0.0051418321694069805, ,0.01001248671564571, ,0.0016568476702917257, ,6.062426959151587e-05, ,0.18802537728874413,-0.23158159069937037,0.09618082913,1.6966013327332867,0.4793208411771651,-1.2916888311773072, ,0.033819294924615384,0.030951383417635606,0.009266324328097734,0.0,0.03646418656524312,-0.027755145210378133, ,1.5219659805297852
0.012065717558078939,0.02085465436208581,-0.08552485422172064, ,0.012422533354855872,0.020594018700024176,-0.08586851220840233, ,0.0005597760918242017, ,0.005004683058415327,-0.00043813423541836944,-0.009984577988401903,-0.02400513495894091,-0.02701272939584231,0.00878809778966063, ,0.011177236318961625, ,0.03613770820872148, ,6.133063086824418e-05, ,0.1883883457338327,-0.23126495865152716,0.09628064346000001,1.6961819528463176,0.47945747767693053,-1.2918002490810037, ,0.03665389785958701,0.03162177326173635,0.010250200463320465,-0.01476005143399184,0.013507811737110622,-0.00908567129066195, ,1.5301709175109863
0.012065717558078939,0.02085465436208581,-0.08552485422172064, ,0.012468542811565727,0.02058358913630925,-0.08595360469459215, ,0.0006477433978509823, ,0.005004683058415327,-0.00043813423541836944,-0.009984577988401903,-0.02400513495894091,-0.02701272939584231,0.00878809778966063, ,0.011177236318961625, ,0.03613770820872148, ,6.21926225136833e-05, ,0.1883883457338327,-0.23126495865152716,0.09628064346000001,1.6961819528463176,0.47945747767693053,-1.2918002490810037, ,0.03665389785958701,0.03162177326173635,0.010250200463320465,-0.01476005143399184,0.013507811737110622,-0.00908567129066195, ,1.5382518768310547
0.012113175914318507,0.020850120212182376,-0.08562390338457468, ,0.012514654658999813,0.020573068914535916,-0.08603862274782871, ,0.0006402614733187486, ,0.005100179998219093,-0.0005796393815177489,-0.010265753638453244,-0.019135374165712097,-0.020174428801993823,0.008331645099535311, ,0.011477522188706778, ,0.027805934761046397, ,6.30312243727918e-05, ,0.18875131417892124,-0.23094060387080972,0.09638305037000001,1.6961819528463176,0.47986738717622685,-1.292134502792093, ,0.037807546437637764,0.03394025091504678,0.010534928253968255,-0.01476005143399184,0.021793591735554226,-0.015887639883084614, ,1.5466768741607666
0.012159960013784978,0.020844486312099536,-0.08572355237610516, ,0.012560867651950351,0.020562459320496666,-0.08612356614300681, ,0.0006326746178271716, ,0.004644733802183601,-0.0005727827433410946,-0.010253604305196123,0.04076342856251723,0.04627565063985929,0.008251569879064136, ,0.011271115003039973, ,0.061669221147780603, ,6.384663052115357e-05, ,0.18912972808975825,-0.23060080362434385,0.09648675357000001,1.6961819528463176,0.4805505696750541,-1.292691592310575, ,0.03906831682110777,0.03432077452385923,0.010733700485175203,-0.01476005143399184,0.0920253664004303,-0.07320027447908126, ,1.5553319454193115
0.012192097513755381,0.02084111345712073,-0.08579027719323902, ,0.012607180549404056,0.020551761635968717,-0.08620843465572868, ,0.0006564099834121188, ,0.004972834205854368,-0.0005830961661461952,-0.010232438967236834,0.022625693781865838,0.024054585618501052,0.008068841779538849, ,0.01139174650332935, ,0.03302340073665382, ,6.469648443678183e-05, ,0.1894000237403561,-0.23037684437099135,0.09655675323000001,1.6961819528463176,0.48109711567411584,-1.2931372639253607, ,0.040798341168732065,0.03423410590132423,0.010676147131367292,-0.014607593088251524,0.07072418854918885,-0.05585908424001155, ,1.5638079643249512
0.012261542687761685,0.02083329494718804,-0.08592458445802706, ,0.012653592114536401,0.02054097713871694,-0.08629322806230333, ,0.000612413717316594, ,0.004660048763314388,-0.000892431978478041,-0.007958795042183345,-0.0188240275533269,-0.022331229831308495,0.006606234454231356, ,0.009265792347994874, ,0.029206639778898938, ,6.545707400770228e-05, ,0.1899328923086776,-0.2299212031314121,0.09669545626,1.6961819528463176,0.4815070251734121,-1.29347151763645, ,0.037229086527450286,0.031195575791739243,0.008172812478193948,-0.012520139141389029,0.018407884275106572,-0.013254537414946942, ,1.57234787940979
0.012314367221433649,0.020818104011215154,-0.0860041097108545, ,0.012700101114705379,0.0205301071024962,-0.08637794613974495, ,0.0006094969494721089, ,0.005277209894189579,-0.0018990893563486993,-0.008077296836326808,-0.03550890022346341,-0.03449947028053373,0.0032717941003557586, ,0.009833524741051114, ,0.04950853876186797, ,6.620413680598256e-05, ,0.19035764261675994,-0.2295350664877009,0.09677582624000002,1.6961819528463176,0.4815070251734121,-1.29347151763645, ,0.04325293598836408,0.04263115074504527,0.008114524462557312,-0.011320453261623049,0.011747233313784688,-0.007862330640968307, ,1.5804648399353027
0.012314367221433649,0.020818104011215154,-0.0860041097108545, ,0.012746706321450002,0.0205191527970635,-0.08646258866577478, ,0.0006974896973794597, ,0.005277209894189579,-0.0018990893563486993,-0.008077296836326808,-0.03550890022346341,-0.03449947028053373,0.0032717941003557586, ,0.009833524741051114, ,0.04950853876186797, ,6.722230153349158e-05, ,0.19035764261675994,-0.2295350664877009,0.09677582624000002,1.6961819528463176,0.4815070251734121,-1.29347151763645, ,0.04325293598836408,0.04263115074504527,0.008114524462557312,-0.011320453261623049,0.011747233313784688,-0.007862330640968307, ,1.5858910083770752
0.012363146058982918,0.020806023008009752,-0.08609819697176262, ,0.012793406510481137,0.020508115488173887,-0.08654715541881797, ,0.0006895191322077725, ,0.005019725192595143,-0.0009190965819913848,-0.010516147749704073,0.0321405423237753,0.037500872643263995,0.0026264864182682568, ,0.011688958166997119, ,0.04938957158409185, ,6.821884467378024e-05, ,0.19076694745909384,-0.22914120711111544,0.09687304799000002,1.6961819528463176,0.4821902076722393,-1.2939469284147913, ,0.04162146559582052,0.03871764241471676,0.010940117802197802,-0.01036427578883783,0.08450768388311355,-0.0684902419017118, ,1.5913708209991455
0.012363146058982918,0.020806023008009752,-0.08609819697176262, ,0.012840200461678561,0.020496996437589458,-0.08663164617800417, ,0.0007795167605618071, ,0.005019725192595143,-0.0009190965819913848,-0.010516147749704073,0.0321405423237753,0.037500872643263995,0.0026264864182682568, ,0.011688958166997119, ,0.04938957158409185, ,6.936925446128336e-05, ,0.19076694745909384,-0.22914120711111544,0.09687304799000002,1.6961819528463176,0.4821902076722393,-1.2939469284147913, ,0.04162146559582052,0.03871764241471676,0.010940117802197802,-0.01036427578883783,0.08450768388311355,-0.0684902419017118, ,1.5977208614349365
0.012404129684752364,0.020799224894837848,-0.0861861742984672, ,0.012887086959085949,0.02048579690308415,-0.08671606072316736, ,0.0007824732953449573, ,0.005452307690516979,-0.0007037888236049162,-0.011721712893855636,0.06385470578942705,0.06952432272077623,-0.005146119206257982, ,0.012946873407363002, ,0.09439838282486722, ,7.051673179893468e-05, ,0.19111447043843394,-0.22883229779614644,0.09696508458000001,1.6959722629028329,0.483010026670832,-1.29461543583697, ,0.047142047470676005,0.04022761405615548,0.012357495360744767,-0.0026603490447964797,0.12159622745476,-0.09874082294723135, ,1.6037189960479736
0.012472745989081591,0.02079353652655859,-0.08634220412818501, ,0.012934064790905487,0.020474518138447723,-0.08680039883484528, ,0.0007242445430105628, ,0.0065051546845458705,-6.0405427599144164e-05,-0.015346374671677779,0.021828291523455,0.024113125671380894,0.002994795832307021, ,0.016668290309718805, ,0.03252562511746546, ,7.155263069664818e-05, ,0.19166278447250387,-0.22836121109081875,0.09712841712,1.695552883015864,0.484239755168721,-1.2956181969702376, ,0.04679336368760887,0.04167630283639472,0.01597674174523571,-0.01149211990590798,0.07617851097520709,-0.06171621132916843, ,1.6103458404541016
0.012472745989081591,0.02079353652655859,-0.08634220412818501, ,0.012981132749492036,0.020463161393488503,-0.08688466029427754, ,0.0008135499485855221, ,0.0065051546845458705,-6.0405427599144164e-05,-0.015346374671677779,0.021828291523455,0.024113125671380894,0.002994795832307021, ,0.016668290309718805, ,0.03252562511746546, ,7.273925846159017e-05, ,0.19166278447250387,-0.22836121109081875,0.09712841712,1.695552883015864,0.484239755168721,-1.2956181969702376, ,0.04679336368760887,0.04167630283639472,0.01597674174523571,-0.01149211990590798,0.07617851097520709,-0.06171621132916843, ,1.6161448955535889
0.012549456270723259,0.020791873876552423,-0.08652028984389484, ,0.01302828963134916,0.020451727914040735,-0.08696884488340653, ,0.0007390414646910083, ,0.0076411120318607565,-0.000282618398446238,-0.017661819515552537,-0.015974751155001653,-0.014144936750188587,0.0005036180538968153, ,0.01924594333470147, ,0.021337061454697697, ,7.378610669398493e-05, ,0.19218793030795114,-0.2278746789197426,0.09731249030000001,1.6953431930723792,0.4847863011677827,-1.295982189844883, ,0.051047305841027846,0.049788531772545004,0.01818357479452055,-0.010588782217029887,0.0407137273490042,-0.033199314682979465, ,1.6225237846374512
0.012549456270723259,0.020791873876552423,-0.08652028984389484, ,0.013075534237122927,0.020440218941966386,-0.08705295238487644, ,0.0008271327597882284, ,0.0076411120318607565,-0.000282618398446238,-0.017661819515552537,-0.015974751155001653,-0.014144936750188587,0.0005036180538968153, ,0.01924594333470147, ,0.021337061454697697, ,7.498041345391508e-05, ,0.19218793030795114,-0.2278746789197426,0.09731249030000001,1.6953431930723792,0.4847863011677827,-1.295982189844883, ,0.051047305841027846,0.049788531772545004,0.01818357479452055,-0.010588782217029887,0.0407137273490042,-0.033199314682979465, ,1.627990961074829
0.012621242928390996,0.020789996846663203,-0.08668564047022698, ,0.01312286537159853,0.020428635715163488,-0.08713698258203267, ,0.0007654519219242169, ,0.007383138909767213,-0.0001714843158759361,-0.01624184333110547,0.004404603921388818,0.0004238027341685577,0.0009046311654600725, ,0.017842018434686285, ,0.004424817985682301, ,7.605833130858476e-05, ,0.19268218521190153,-0.22741131494728914,0.09748360058000001,1.6953431930723792,0.48533284716684444,-1.2963461827195282, ,0.052574482857878545,0.04495354881973983,0.016873741016949155,-0.010588782217029887,0.05738661399445819,-0.04821973312956546, ,1.6354939937591553
0.012673107218723736,0.020787305581714526,-0.0867954244464678, ,0.013170281843693689,0.02041697946756738,-0.08722093525892127, ,0.0007519198694330069, ,0.007096145800734585,-0.0009610646452413048,-0.014694783946822375,0.017391787192791924,0.018373642945945585,-0.00010247026325232333, ,0.016346730734963625, ,0.025299492715597147, ,7.710510828383055e-05, ,0.1930605991227385,-0.2270869601665717,0.0975976741,1.6953431930723792,0.4857427566661408,-1.2966804364306173, ,0.054475856233335694,0.04965826350521757,0.015242881837320576,-0.010588782217029887,0.07794811385444461,-0.06498625755888483, ,1.6413259506225586
0.012673107218723736,0.020787305581714526,-0.0867954244464678, ,0.013217782466454026,0.020405251429156425,-0.08730481020028867, ,0.0008379202510815659, ,0.007096145800734585,-0.0009610646452413048,-0.014694783946822375,0.017391787192791924,0.018373642945945585,-0.00010247026325232333, ,0.016346730734963625, ,0.025299492715597147, ,7.829416921341995e-05, ,0.1930605991227385,-0.2270869601665717,0.0975976741,1.6953431930723792,0.4857427566661408,-1.2966804364306173, ,0.054475856233335694,0.04965826350521757,0.015242881837320576,-0.010588782217029887,0.07794811385444461,-0.06498625755888483, ,1.6468689441680908
0.012771395866541281,0.02076735901563248,-0.08698312859225142, ,0.013265366057047406,0.02039345282595539,-0.08738860719157988, ,0.0007404223675044327, ,0.0075685099848500845,-0.001609809622578649,-0.013381160167245106,0.007367630779927098,0.004487842983805636,-0.0007089498216355019, ,0.015457337346166361, ,0.008626835395741024, ,7.930601328461163e-05, ,0.19384831787590942,-0.2263610232763946,0.0977921176,1.6953431930723792,0.4868358486642643,-1.2976534584003292, ,0.06174166659627246,0.05331288851599482,0.01387527135888502,-0.010588782217029887,0.07107292432568686,-0.05881240174559631, ,1.6526539325714111
0.012771395866541281,0.02076735901563248,-0.08698312859225142, ,0.013313031436760868,0.020381584880043855,-0.08747232601894055, ,0.0008255330986069006, ,0.0075685099848500845,-0.001609809622578649,-0.013381160167245106,0.007367630779927098,0.004487842983805636,-0.0007089498216355019, ,0.015457337346166361, ,0.008626835395741024, ,8.045786314996168e-05, ,0.19384831787590942,-0.2263610232763946,0.0977921176,1.6953431930723792,0.4868358486642643,-1.2976534584003292, ,0.06174166659627246,0.05331288851599482,0.01387527135888502,-0.010588782217029887,0.07107292432568686,-0.05881240174559631, ,1.6580479145050049
0.012849333633311005,0.02074930603813736,-0.08711575495674058, ,0.01336077743099335,0.02036964880955655,-0.0875559664692136, ,0.0007742742053789352, ,0.00764808937364699,-0.0020895772311441043,-0.012758738492293765,-0.0025480472576500227,-0.00422399607923992,-0.0014064888948213839, ,0.01502148501270585, ,0.004932985871630366, ,8.151355760620782e-05, ,0.19448930470447004,-0.22580498650945044,0.09792952434,1.6953431930723792,0.48751903116309153,-1.2982105479188113, ,0.06309637071706833,0.056756543994300704,0.013153436432700248,-0.010588782217029887,0.06344244545696633,-0.05259025787326244, ,1.6635098457336426
0.012849333633311005,0.02074930603813736,-0.08711575495674058, ,0.013408602869250576,0.02035764582868813,-0.08763952832994025, ,0.0008605337555303734, ,0.00764808937364699,-0.0020895772311441043,-0.012758738492293765,-0.0025480472576500227,-0.00422399607923992,-0.0014064888948213839, ,0.01502148501270585, ,0.004932985871630366, ,8.27099669377995e-05, ,0.19448930470447004,-0.22580498650945044,0.09792952434,1.6953431930723792,0.48751903116309153,-1.2982105479188113, ,0.06309637071706833,0.056756543994300704,0.013153436432700248,-0.010588782217029887,0.06344244545696633,-0.05259025787326244, ,1.6691009998321533
0.012932017772628618,0.020725964474256377,-0.08724941429308282, ,0.013456506585142223,0.020345577147701573,-0.08772301138935922, ,0.0008025442307168346, ,0.007925699829379525,-0.002063057154484643,-0.012863060744430265,-0.004912179462778048,-0.009384917915130199,-0.001138088222782988, ,0.015248975517161794, ,0.010592725768337828, ,8.379906829992129e-05, ,0.19516890519740182,-0.22521033607813515,0.09806693108000002,1.6949238131854105,0.48806557716215326,-1.2986562195335971, ,0.06549133302862027,0.05662108684872958,0.013296169883138568,-0.0108925066081061,0.060618687488581444,-0.05028972597200923, ,1.6748449802398682
0.012932017772628618,0.020725964474256377,-0.08724941429308282, ,0.013504487416374677,0.020333443972929036,-0.08780641543640608, ,0.0008899686009272591, ,0.007925699829379525,-0.002063057154484643,-0.012863060744430265,-0.004912179462778048,-0.009384917915130199,-0.001138088222782988, ,0.015248975517161794, ,0.010592725768337828, ,8.51747842259065e-05, ,0.19516890519740182,-0.22521033607813515,0.09806693108000002,1.6949238131854105,0.48806557716215326,-1.2986562195335971, ,0.06549133302862027,0.05662108684872958,0.013296169883138568,-0.0108925066081061,0.060618687488581444,-0.05028972597200923, ,1.6778550148010254
0.012932017772628618,0.020725964474256377,-0.08724941429308282, ,0.013552544204747292,0.020321247506778686,-0.08788974026071311, ,0.0009792171472885573, ,0.007925699829379525,-0.002063057154484643,-0.012863060744430265,-0.004912179462778048,-0.009384917915130199,-0.001138088222782988, ,0.015248975517161794, ,0.010592725768337828, ,8.669785469108989e-05, ,0.19516890519740182,-0.22521033607813515,0.09806693108000002,1.6949238131854105,0.48806557716215326,-1.2986562195335971, ,0.06549133302862027,0.05662108684872958,0.013296169883138568,-0.0108925066081061,0.060618687488581444,-0.05028972597200923, ,1.6808979511260986
0.012932017772628618,0.020725964474256377,-0.08724941429308282, ,0.013600675796145597,0.020308988947736438,-0.08797298565260747, ,0.0010698259926056044, ,0.007925699829379525,-0.002063057154484643,-0.012863060744430265,-0.004912179462778048,-0.009384917915130199,-0.001138088222782988, ,0.015248975517161794, ,0.010592725768337828, ,8.83698413201962e-05, ,0.19516890519740182,-0.22521033607813515,0.09806693108000002,1.6949238131854105,0.48806557716215326,-1.2986562195335971, ,0.06549133302862027,0.05662108684872958,0.013296169883138568,-0.0108925066081061,0.060618687488581444,-0.05028972597200923, ,1.6837530136108398
0.012977331592831681,0.02071308803040701,-0.08732342509345369, ,0.01364888104053852,0.020296669490374283,-0.08805615140311238, ,0.0010776228032407225, ,0.008019321242039282,-0.0024718336338933598,-0.013316623990137114,-0.004379179855999637,-0.0031978618152702035,-0.0024301756390232724, ,0.0157401381566797, ,0.0054224641663600005, ,9.004938794484905e-05, ,0.1955473191082388,-0.22487053583166927,0.09814341219000002,1.6949238131854105,0.4884754866614496,-1.2989904732446864, ,0.06603823351320166,0.06214599971085185,0.013684545979381443,-0.010742890634368587,0.06755159933487263,-0.05593632285086013, ,1.6873149871826172
0.012977331592831681,0.02071308803040701,-0.08732342509345369, ,0.01369715879197144,0.02028429032535186,-0.08813923730394552, ,0.0011694307295729506, ,0.008019321242039282,-0.0024718336338933598,-0.013316623990137114,-0.004379179855999637,-0.0031978618152702035,-0.0024301756390232724, ,0.0157401381566797, ,0.0054224641663600005, ,9.187884784591364e-05, ,0.1955473191082388,-0.22487053583166927,0.09814341219000002,1.6949238131854105,0.4884754866614496,-1.2989904732446864, ,0.06603823351320166,0.06214599971085185,0.013684545979381443,-0.010742890634368587,0.06755159933487263,-0.05593632285086013, ,1.6902589797973633
0.012977331592831681,0.02071308803040701,-0.08732342509345369, ,0.01374550790856202,0.020271852639422543,-0.08822224314751864, ,0.0012620053156066214, ,0.008019321242039282,-0.0024718336338933598,-0.013316623990137114,-0.004379179855999637,-0.0031978618152702035,-0.0024301756390232724, ,0.0157401381566797, ,0.0054224641663600005, ,0.0005136159772657006, ,0.1955473191082388,-0.22487053583166927,0.09814341219000002,1.6949238131854105,0.4884754866614496,-1.2989904732446864, ,0.06603823351320166,0.06214599971085185,0.013684545979381443,-0.010742890634368587,0.06755159933487263,-0.05593632285086013, ,1.6930890083312988
0.013123100941434878,0.02066802576850011,-0.08756955250435, ,0.013793927252495123,0.020259357615437918,-0.08830516872693747, ,0.0010761732322780654, ,0.008514704006178216,-0.0025283538660722644,-0.013213456093321578,-0.023882383188469858,-0.02823875758690333,-0.004413698192323462, ,0.01592131211662679, ,0.036983716065582144, ,0.000518777052999759, ,0.1967366199708694,-0.2237430168320325,0.09839618874000002,1.6945044332984414,0.48970521515933857,-1.299993234377954, ,0.06926784055362831,0.06222750266129232,0.013567982555366271,-0.008660787926001383,0.04445734467268931,-0.03706322897363098, ,1.6959388256072998
0.013123100941434878,0.02066802576850011,-0.08756955250435, ,0.013842415690017644,0.020246806432352157,-0.08838801383600085, ,0.0011682116195626956, ,0.008514704006178216,-0.0025283538660722644,-0.013213456093321578,-0.023882383188469858,-0.02823875758690333,-0.004413698192323462, ,0.01592131211662679, ,0.036983716065582144, ,0.0005246810036048765, ,0.1967366199708694,-0.2237430168320325,0.09839618874000002,1.6945044332984414,0.48970521515933857,-1.299993234377954, ,0.06926784055362831,0.06222750266129232,0.013567982555366271,-0.008660787926001383,0.04445734467268931,-0.03706322897363098, ,1.6986768245697021
0.013123100941434878,0.02066802576850011,-0.08756955250435, ,0.013890972091432224,0.020234200265224902,-0.08847077826919932, ,0.001260967307077573, ,0.008514704006178216,-0.0025283538660722644,-0.013213456093321578,-0.023882383188469858,-0.02823875758690333,-0.004413698192323462, ,0.01592131211662679, ,0.036983716065582144, ,0.0005313142135460721, ,0.1967366199708694,-0.2237430168320325,0.09839618874000002,1.6945044332984414,0.48970521515933857,-1.299993234377954, ,0.06926784055362831,0.06222750266129232,0.013567982555366271,-0.008660787926001383,0.04445734467268931,-0.03706322897363098, ,1.701436996459961
0.013123100941434878,0.02066802576850011,-0.08756955250435, ,0.013939595331094703,0.02022154028522978,-0.08855346182171638, ,0.0013542857600659746, ,0.008514704006178216,-0.0025283538660722644,-0.013213456093321578,-0.023882383188469858,-0.02823875758690333,-0.004413698192323462, ,0.01592131211662679, ,0.036983716065582144, ,0.0005386621737828569, ,0.1967366199708694,-0.2237430168320325,0.09839618874000002,1.6945044332984414,0.48970521515933857,-1.299993234377954, ,0.06926784055362831,0.06222750266129232,0.013567982555366271,-0.008660787926001383,0.04445734467268931,-0.03706322897363098, ,1.7042229175567627
0.013225516759387067,0.02064251314890878,-0.0877622373411566, ,0.01398828428740651,0.020208827659654705,-0.08863606428942655, ,0.0012383339375601494, ,0.011175176491937479,-0.0019490127703936178,-0.024530624668599198,0.08483371880192768,0.10234704571425868,-0.010263947515098007, ,0.02702655669960191, ,0.13293482888070046, ,0.0005448539593030098, ,0.19755522965553718,-0.2229552980788616,0.09859581740000001,1.6945044332984414,0.4909349436572275,-1.3009959955112218, ,0.08714136047609806,0.08549274014276646,0.025609021736334413,-0.008660787926001383,0.19808869056554235,-0.16250731373410962, ,1.7076919078826904
0.013225516759387067,0.02064251314890878,-0.0877622373411566, ,0.014037037842811115,0.020196063551909133,-0.08871858546889545, ,0.0013313472322923512, ,0.011175176491937479,-0.0019490127703936178,-0.024530624668599198,0.08483371880192768,0.10234704571425868,-0.010263947515098007, ,0.02702655669960191, ,0.13293482888070046, ,0.000551753023101162, ,0.19755522965553718,-0.2229552980788616,0.09859581740000001,1.6945044332984414,0.4909349436572275,-1.3009959955112218, ,0.08714136047609806,0.08549274014276646,0.025609021736334413,-0.008660787926001383,0.19808869056554235,-0.16250731373410962, ,1.710519790649414
0.013225516759387067,0.02064251314890878,-0.0877622373411566, ,0.014085854883788697,0.02018324912152835,-0.08880102515737898, ,0.0014248456977078846, ,0.011175176491937479,-0.0019490127703936178,-0.024530624668599198,0.08483371880192768,0.10234704571425868,-0.010263947515098007, ,0.02702655669960191, ,0.13293482888070046, ,0.0005593451333151335, ,0.19755522965553718,-0.2229552980788616,0.09859581740000001,1.6945044332984414,0.4909349436572275,-1.3009959955112218, ,0.08714136047609806,0.08549274014276646,0.025609021736334413,-0.008660787926001383,0.19808869056554235,-0.16250731373410962, ,1.713303804397583
0.01334099708810769,0.02063786858502493,-0.0880410490393218, ,0.014134734300850453,0.020170385524176732,-0.08888338315282297, ,0.0012482331247969864, ,0.012754575108994175,0.0008894169246691337,-0.0317785383080871,0.15115002297071697,0.15645821705687574,0.006483550751000503, ,0.03425413472378803, ,0.21754418107448764, ,0.0005652838228968736, ,0.19843562120319877,-0.22219074752431336,0.09889007523000001,1.6940850534114722,0.49339440065300544,-1.3030015177777574, ,0.09395736787967403,0.0724957536733925,0.03374748203389831,-0.024591334431431983,0.2645744262713099,-0.21671745575350124, ,1.7160890102386475
0.01334099708810769,0.02063786858502493,-0.0880410490393218, ,0.014183674988534933,0.02015747391165477,-0.08896565925386286, ,0.0013400705708672773, ,0.012754575108994175,0.0008894169246691337,-0.0317785383080871,0.15115002297071697,0.15645821705687574,0.006483550751000503, ,0.03425413472378803, ,0.21754418107448764, ,0.0005719059318538857, ,0.19843562120319877,-0.22219074752431336,0.09889007523000001,1.6940850534114722,0.49339440065300544,-1.3030015177777574, ,0.09395736787967403,0.0724957536733925,0.03374748203389831,-0.024591334431431983,0.2645744262713099,-0.21671745575350124, ,1.718958854675293
0.01334099708810769,0.02063786858502493,-0.0880410490393218, ,0.014232675845400205,0.020144515431899334,-0.08904785325982204, ,0.0014325303062493189, ,0.012754575108994175,0.0008894169246691337,-0.0317785383080871,0.15115002297071697,0.15645821705687574,0.006483550751000503, ,0.03425413472378803, ,0.21754418107448764, ,0.0005791993587555418, ,0.19843562120319877,-0.22219074752431336,0.09889007523000001,1.6940850534114722,0.49339440065300544,-1.3030015177777574, ,0.09395736787967403,0.0724957536733925,0.03374748203389831,-0.024591334431431983,0.2645744262713099,-0.21671745575350124, ,1.723106861114502
0.013465871812610691,0.020644440067913137,-0.088335687933605, ,0.01428173577402158,0.020131511228992555,-0.08912996497071257, ,0.001248841867092017, ,0.01562433181192275,0.0008105212448857907,-0.03586685980056691,-0.0007947578830356512,-0.007709053736017905,0.017944902894548486, ,0.03913065705059136, ,0.007746082448802537, ,0.000584826606724756, ,0.1992928445522377,-0.22151886976425583,0.09919988854,1.6936656735245033,0.49489740215042527,-1.3044721509388397, ,0.10160272115467964,0.08152658209490615,0.03747955651764706,-0.035519872666649646,0.10511050337757344,-0.08177140136257718, ,1.7260220050811768
0.013465871812610691,0.020644440067913137,-0.088335687933605, ,0.014330853680986015,0.020118462443165574,-0.08921199418723433, ,0.0013389394103181188, ,0.01562433181192275,0.0008105212448857907,-0.03586685980056691,-0.0007947578830356512,-0.007709053736017905,0.017944902894548486, ,0.03913065705059136, ,0.007746082448802537, ,0.0005911108800880341, ,0.1992928445522377,-0.22151886976425583,0.09919988854,1.6936656735245033,0.49489740215042527,-1.3044721509388397, ,0.10160272115467964,0.08152658209490615,0.03747955651764706,-0.035519872666649646,0.10511050337757344,-0.08177140136257718, ,1.7289149761199951
0.013465871812610691,0.020644440067913137,-0.088335687933605, ,0.014380028476886532,0.020105370210802335,-0.08929394071077514, ,0.0014298696103630145, ,0.01562433181192275,0.0008105212448857907,-0.03586685980056691,-0.0007947578830356512,-0.007709053736017905,0.017944902894548486, ,0.03913065705059136, ,0.007746082448802537, ,0.0005980427704208851, ,0.1992928445522377,-0.22151886976425583,0.09919988854,1.6936656735245033,0.49489740215042527,-1.3044721509388397, ,0.10160272115467964,0.08152658209490615,0.03747955651764706,-0.035519872666649646,0.10511050337757344,-0.08177140136257718, ,1.7317109107971191
0.013647573347666347,0.020650354470571775,-0.08874361067522953, ,0.014429259076315811,0.020092235664442282,-0.08937580434340778, ,0.0011498686943361524, ,0.01623167661702171,0.000375574448748374,-0.036837102644798135,-0.07866384112207632,-0.0871128711661535,0.036766673326456424, ,0.040256434432640896, ,0.1173736954859583, ,0.000602565933731666, ,0.1992928445522377,-0.22151886976425583,0.09919988854,1.6936656735245033,0.49489740215042527,-1.3044721509388397, ,0.10160272115467964,0.08152658209490615,0.03747955651764706,-0.035519872666649646,0.10511050337757344,-0.08177140136257718, ,1.7349319458007812
0.013647573347666347,0.020650354470571775,-0.08874361067522953, ,0.014478544397863316,0.020079059932788006,-0.08945758488789173, ,0.0012355765907112487, ,0.01623167661702171,0.000375574448748374,-0.036837102644798135,-0.07866384112207632,-0.0871128711661535,0.036766673326456424, ,0.040256434432640896, ,0.1173736954859583, ,0.000607712361837191, ,0.20040491808612604,-0.22056897362072622,0.09962247908,1.693246293637534,0.49517067514995616,-1.3046949867462327, ,0.09803403053561031,0.08619159087962833,0.038107204593301434,-0.05540151801949332,0.023807120988166616,-0.015473944644884944, ,1.7380328178405762
0.013647573347666347,0.020650354470571775,-0.08874361067522953, ,0.01452788336411001,0.020065844140709794,-0.08953928214767297, ,0.0013227589133423827, ,0.01623167661702171,0.000375574448748374,-0.036837102644798135,-0.07866384112207632,-0.0871128711661535,0.036766673326456424, ,0.040256434432640896, ,0.1173736954859583, ,0.0006134788662848135, ,0.20040491808612604,-0.22056897362072622,0.09962247908,1.693246293637534,0.49517067514995616,-1.3046949867462327, ,0.09803403053561031,0.08619159087962833,0.038107204593301434,-0.05540151801949332,0.023807120988166616,-0.015473944644884944, ,1.740764856338501
0.013647573347666347,0.020650354470571775,-0.08874361067522953, ,0.014577274901620588,0.02005258940924601,-0.08962089592688073, ,0.001411133395796246, ,0.01623167661702171,0.000375574448748374,-0.036837102644798135,-0.07866384112207632,-0.0871128711661535,0.036766673326456424, ,0.040256434432640896, ,0.1173736954859583, ,0.000619860102520905, ,0.20040491808612604,-0.22056897362072622,0.09962247908,1.693246293637534,0.49517067514995616,-1.3046949867462327, ,0.09803403053561031,0.08619159087962833,0.038107204593301434,-0.05540151801949332,0.023807120988166616,-0.015473944644884944, ,1.7435238361358643
0.013810400305662364,0.020646648623328285,-0.08910771393597366, ,0.014626717940942516,0.020039296855613797,-0.08970242603033024, ,0.0011785300702948892, ,0.016290348339439542,-0.0010927091303905016,-0.0357113381729146,-0.026028938825347292,-0.03244823772188954,0.010408164284153157, ,0.039266641521324266, ,0.04159730408443685, ,0.0006242939911540319, ,0.2014320415583979,-0.2196113547443224,0.09999969947000001,1.693246293637534,0.49585385764878337,-1.3050887187844336, ,0.10544104617607865,0.09989151742996924,0.036957799350348035,-0.035260693301614805,0.08337774771322341,-0.07593220283953397, ,1.7462828159332275
0.013810400305662364,0.020646648623328285,-0.08910771393597366, ,0.014676211416597728,0.020025967593209005,-0.08978387226351968, ,0.0012617701474035925, ,0.016290348339439542,-0.0010927091303905016,-0.0357113381729146,-0.026028938825347292,-0.03244823772188954,0.010408164284153157, ,0.039266641521324266, ,0.04159730408443685, ,0.0006293134884473356, ,0.2014320415583979,-0.2196113547443224,0.09999969947000001,1.693246293637534,0.49585385764878337,-1.3050887187844336, ,0.10544104617607865,0.09989151742996924,0.036957799350348035,-0.035260693301614805,0.08337774771322341,-0.07593220283953397, ,1.7490589618682861
0.013810400305662364,0.020646648623328285,-0.08910771393597366, ,0.014725754267080133,0.02001260273161438,-0.08986523443263193, ,0.0013467458447457227, ,0.016290348339439542,-0.0010927091303905016,-0.0357113381729146,-0.026028938825347292,-0.03244823772188954,0.010408164284153157, ,0.039266641521324266, ,0.04159730408443685, ,0.0006349184287309168, ,0.2014320415583979,-0.2196113547443224,0.09999969947000001,1.693246293637534,0.49585385764878337,-1.3050887187844336, ,0.10544104617607865,0.09989151742996924,0.036957799350348035,-0.035260693301614805,0.08337774771322341,-0.07593220283953397, ,1.7517938613891602
0.013971425928510691,0.020630423881057198,-0.08944529851344804, ,0.014775345434846352,0.019999203376598156,-0.08994651234453042, ,0.0011383941331475586, ,0.01568072481445515,-0.002157605527049183,-0.030589234564221468,0.06388607606723595,0.046388007141469956,-0.028354248939388132, ,0.03444185917661798, ,0.07895094134855563, ,0.0006388213411682551, ,0.20257500602378312,-0.21859195400492476,0.10035229035000001,1.6930366036940496,0.4974934956459687,-1.306752448589353, ,0.11658100928559063,0.10073985303447004,0.03204992257545272,0.0,0.1683778094719164,-0.1571650916602577, ,1.7551169395446777
0.013971425928510691,0.020630423881057198,-0.08944529851344804, ,0.014824983866316052,0.019985770630126465,-0.0900277058067632, ,0.0012179233237083482, ,0.01568072481445515,-0.002157605527049183,-0.030589234564221468,0.06388607606723595,0.046388007141469956,-0.028354248939388132, ,0.03444185917661798, ,0.07895094134855563, ,0.000643275971803179, ,0.20257500602378312,-0.21859195400492476,0.10035229035000001,1.6930366036940496,0.4974934956459687,-1.306752448589353, ,0.11658100928559063,0.10073985303447004,0.03204992257545272,0.0,0.1683778094719164,-0.1571650916602577, ,1.7581508159637451
0.013971425928510691,0.020630423881057198,-0.08944529851344804, ,0.014874668511862584,0.019972305590361717,-0.0901088146275584, ,0.0012997001510395615, ,0.01568072481445515,-0.002157605527049183,-0.030589234564221468,0.06388607606723595,0.046388007141469956,-0.028354248939388132, ,0.03444185917661798, ,0.07895094134855563, ,0.0006482868434004032, ,0.20257500602378312,-0.21859195400492476,0.10035229035000001,1.6930366036940496,0.4974934956459687,-1.306752448589353, ,0.11658100928559063,0.10073985303447004,0.03204992257545272,0.0,0.1683778094719164,-0.1571650916602577, ,1.7618889808654785
0.014012402391263536,0.02062409222411653,-0.08952200167416415, ,0.014924398325811179,0.019958809351671835,-0.09018983861582702, ,0.0013116188721001693, ,0.01588178265964069,-0.002747011809633406,-0.028858357584386114,0.048764702825503665,0.027068456463992883,-0.028607700965126426, ,0.03305422661020258, ,0.05577344853861459, ,0.0006533120860420681, ,0.2028839153387521,-0.21832938108720112,0.10043266033,1.6930366036940496,0.49790340514526504,-1.3070867023004422, ,0.12104201729396784,0.1027023177039727,0.03022544880455408,0.0,0.15302321197038318,-0.14453989505300244, ,1.7659180164337158
0.014012402391263536,0.02062409222411653,-0.08952200167416415, ,0.014974172266429109,0.019945283004628167,-0.09027077758115847, ,0.0013951518226105611, ,0.01588178265964069,-0.002747011809633406,-0.028858357584386114,0.048764702825503665,0.027068456463992883,-0.028607700965126426, ,0.03305422661020258, ,0.05577344853861459, ,0.0006588898284222823, ,0.2028839153387521,-0.21832938108720112,0.10043266033,1.6930366036940496,0.49790340514526504,-1.3070867023004422, ,0.12104201729396784,0.1027023177039727,0.03022544880455408,0.0,0.15302321197038318,-0.14453989505300244, ,1.7688539028167725
0.014012402391263536,0.02062409222411653,-0.08952200167416415, ,0.015023989295927452,0.0199317276360195,-0.09035163133382451, ,0.0014801899069803407, ,0.01588178265964069,-0.002747011809633406,-0.028858357584386114,0.048764702825503665,0.027068456463992883,-0.028607700965126426, ,0.03305422661020258, ,0.05577344853861459, ,0.0006650189334861485, ,0.2028839153387521,-0.21832938108720112,0.10043266033,1.6930366036940496,0.49790340514526504,-1.3070867023004422, ,0.12104201729396784,0.1027023177039727,0.03022544880455408,0.0,0.15302321197038318,-0.14453989505300244, ,1.7716608047485352
0.014012402391263536,0.02062409222411653,-0.08952200167416415, ,0.015073848380449307,0.01991814432884755,-0.09043239968477523, ,0.0015664783932496141, ,0.01588178265964069,-0.002747011809633406,-0.028858357584386114,0.048764702825503665,0.027068456463992883,-0.028607700965126426, ,0.03305422661020258, ,0.05577344853861459, ,0.0006716964109658778, ,0.2028839153387521,-0.21832938108720112,0.10043266033,1.6930366036940496,0.49790340514526504,-1.3070867023004422, ,0.12104201729396784,0.1027023177039727,0.03022544880455408,0.0,0.15302321197038318,-0.14453989505300244, ,1.774493932723999
0.0142911190234111,0.020543646168394727,-0.08993095259607108, ,0.015123748490070078,0.01990453416233871,-0.0905130824456408, ,0.0012002546174849017, ,0.01508908337223095,-0.00613785184086101,-0.01734192414082944,-0.07737125810514174,-0.1176222814132652,0.05356420616715016, ,0.023792771909569098, ,0.14078817811566066, ,0.000675582868366753, ,0.2050926169407803,-0.21648364793026145,0.10085654716,1.691988153976627,0.499133133643154,-1.3081711421738504, ,0.12652925541129437,0.10555833321298196,0.01779755477094972,-0.08519045765133117,0.028099575912414305,-0.04282038832119791, ,1.7782549858093262
0.0142911190234111,0.020543646168394727,-0.08993095259607108, ,0.015173688598787666,0.01989089821194221,-0.09059367942872816, ,0.0012822697862606767, ,0.01508908337223095,-0.00613785184086101,-0.01734192414082944,-0.07737125810514174,-0.1176222814132652,0.05356420616715016, ,0.023792771909569098, ,0.14078817811566066, ,0.0006800112400302123, ,0.2050926169407803,-0.21648364793026145,0.10085654716,1.691988153976627,0.499133133643154,-1.3081711421738504, ,0.12652925541129437,0.10555833321298196,0.01779755477094972,-0.08519045765133117,0.028099575912414305,-0.04282038832119791, ,1.7810108661651611
0.0142911190234111,0.020543646168394727,-0.08993095259607108, ,0.015223667684521726,0.019877237549340707,-0.09067419044702434, ,0.0013660709922907843, ,0.01508908337223095,-0.00613785184086101,-0.01734192414082944,-0.07737125810514174,-0.1176222814132652,0.05356420616715016, ,0.023792771909569098, ,0.14078817811566066, ,0.0006849826875103614, ,0.2050926169407803,-0.21648364793026145,0.10085654716,1.691988153976627,0.499133133643154,-1.3081711421738504, ,0.12652925541129437,0.10555833321298196,0.01779755477094972,-0.08519045765133117,0.028099575912414305,-0.04282038832119791, ,1.7837398052215576
0.014451645796884906,0.020469182008508183,-0.09010359894815516, ,0.015273684729105234,0.019863553242450035,-0.09075461531419213, ,0.0012109320861266465, ,0.016358876455971658,-0.008157748435677209,-0.01864450969560412,-0.05133631277783742,-0.058808510305572985,0.025856023061686075, ,0.02611090653790124, ,0.0780631516210921, ,0.0006887664961335001, ,0.20649043159101493,-0.21524801067038554,0.10103413889000001,1.691988153976627,0.49981631614198113,-1.3088915891726138, ,0.1427021677570989,0.13161850424198443,0.019122222713085234,-0.05815241187342275,0.09943235123770336,-0.08568657947525615, ,1.7865209579467773
0.014451645796884906,0.020469182008508183,-0.09010359894815516, ,0.015323738718281835,0.01984984635542745,-0.09083495384457281, ,0.0012957633654497429, ,0.016358876455971658,-0.008157748435677209,-0.01864450969560412,-0.05133631277783742,-0.058808510305572985,0.025856023061686075, ,0.02611090653790124, ,0.0780631516210921, ,0.0006931021880571876, ,0.20649043159101493,-0.21524801067038554,0.10103413889000001,1.691988153976627,0.49981631614198113,-1.3088915891726138, ,0.1427021677570989,0.13161850424198443,0.019122222713085234,-0.05815241187342275,0.09943235123770336,-0.08568657947525615, ,1.789254903793335
0.014451645796884906,0.020469182008508183,-0.09010359894815516, ,0.015373828641698931,0.01983611794867329,-0.09091520585318237, ,0.0013819902573505268, ,0.016358876455971658,-0.008157748435677209,-0.01864450969560412,-0.05133631277783742,-0.058808510305572985,0.025856023061686075, ,0.02611090653790124, ,0.0780631516210921, ,0.0006979879190450836, ,0.20649043159101493,-0.21524801067038554,0.10103413889000001,1.691988153976627,0.49981631614198113,-1.3088915891726138, ,0.1427021677570989,0.13161850424198443,0.019122222713085234,-0.05815241187342275,0.09943235123770336,-0.08568657947525615, ,1.7920169830322266
0.014608616901319949,0.020399012914704393,-0.09031072729819513, ,0.015423953492903273,0.01982236907883693,-0.09099537115571366, ,0.0012107968791901073, ,0.016358876455971658,-0.008157748435677209,-0.01864450969560412,-0.05133631277783742,-0.058808510305572985,0.025856023061686075, ,0.02611090653790124, ,0.0780631516210921, ,0.0007015992497503302, ,0.20787280077550113,-0.2139737597461385,0.10125061932000001,1.691988153976627,0.5017292271386973,-1.3107781547849258, ,0.13873821865273506,0.12636077437878931,0.023563330650887577,-0.039561570670795264,0.2042167508792078,-0.18564673301640033, ,1.7952468395233154
0.014608616901319949,0.020399012914704393,-0.09031072729819513, ,0.015474112269337262,0.019808600798822698,-0.09107544956853496, ,0.0012971001693751444, ,0.01602928503608472,-0.0067086504552769976,-0.022503923550807825,0.06061736055641075,0.05068714567633812,0.0028509962795986734, ,0.028431857921700103, ,0.0790167410496456, ,0.0007057635918456087, ,0.20787280077550113,-0.2139737597461385,0.10125061932000001,1.691988153976627,0.5017292271386973,-1.3107781547849258, ,0.13873821865273506,0.12636077437878931,0.023563330650887577,-0.039561570670795264,0.2042167508792078,-0.18564673301640033, ,1.7981948852539062
0.014608616901319949,0.020399012914704393,-0.09031072729819513, ,0.015524303972330773,0.01979481415779074,-0.09115544090868835, ,0.0013845865930395547, ,0.01602928503608472,-0.0067086504552769976,-0.022503923550807825,0.06061736055641075,0.05068714567633812,0.0028509962795986734, ,0.028431857921700103, ,0.0790167410496456, ,0.0007104776404650112, ,0.20787280077550113,-0.2139737597461385,0.10125061932000001,1.691988153976627,0.5017292271386973,-1.3107781547849258, ,0.13873821865273506,0.12636077437878931,0.023563330650887577,-0.039561570670795264,0.2042167508792078,-0.18564673301640033, ,1.8010549545288086
0.014608616901319949,0.020399012914704393,-0.09031072729819513, ,0.01557452760709878,0.019781010201164982,-0.09123534499389067, ,0.0014730338518423721, ,0.01602928503608472,-0.0067086504552769976,-0.022503923550807825,0.06061736055641075,0.05068714567633812,0.0028509962795986734, ,0.028431857921700103, ,0.0790167410496456, ,0.0007157366488193378, ,0.20787280077550113,-0.2139737597461385,0.10125061932000001,1.691988153976627,0.5017292271386973,-1.3107781547849258, ,0.13873821865273506,0.12636077437878931,0.023563330650887577,-0.039561570670795264,0.2042167508792078,-0.18564673301640033, ,1.8039720058441162
0.014608616901319949,0.020399012914704393,-0.09031072729819513, ,0.015624782182736132,0.019767189970637377,-0.09131516164253291, ,0.0015622677311813128, ,0.01602928503608472,-0.0067086504552769976,-0.022503923550807825,0.06061736055641075,0.05068714567633812,0.0028509962795986734, ,0.028431857921700103, ,0.0790167410496456, ,0.0007215348069177075, ,0.20787280077550113,-0.2139737597461385,0.10125061932000001,1.691988153976627,0.5017292271386973,-1.3107781547849258, ,0.13873821865273506,0.12636077437878931,0.023563330650887577,-0.039561570670795264,0.2042167508792078,-0.18564673301640033, ,1.8069748878479004
0.014761154789326332,0.02033966874868285,-0.09052768545727923, ,0.015675066712210375,0.019753354504170168,-0.09139489067367848, ,0.0013896201939588265, ,0.01761893274413939,-0.006499084840570739,-0.02462386335229067,0.021191528336885413,-0.01233941075830808,-0.009732335824906723, ,0.0309677177266864, ,0.024522089600117668, ,0.0007260796054690076, ,0.2091547744326224,-0.21279990434925636,0.10147747007,1.691988153976627,0.5033688651358826,-1.3123602058497046, ,0.14488082680682562,0.1287611147333389,0.02569163148387097,-0.03058476796478128,0.14351141236351567,-0.14964262494489008, ,1.809865951538086
0.014761154789326332,0.02033966874868285,-0.09052768545727923, ,0.015725380212359454,0.01973950483600347,-0.09147453190706403, ,0.0014786634464867656, ,0.01761893274413939,-0.006499084840570739,-0.02462386335229067,0.021191528336885413,-0.01233941075830808,-0.009732335824906723, ,0.0309677177266864, ,0.024522089600117668, ,0.0007311646314218304, ,0.2091547744326224,-0.21279990434925636,0.10147747007,1.691988153976627,0.5033688651358826,-1.3123602058497046, ,0.14488082680682562,0.1287611147333389,0.02569163148387097,-0.03058476796478128,0.14351141236351567,-0.14964262494489008, ,1.8126239776611328
0.014761154789326332,0.02033966874868285,-0.09052768545727923, ,0.01577572170388346,0.019725641996656433,-0.09155408516309727, ,0.001568397663993875, ,0.01761893274413939,-0.006499084840570739,-0.02462386335229067,0.021191528336885413,-0.01233941075830808,-0.009732335824906723, ,0.0309677177266864, ,0.024522089600117668, ,0.0007367836450632534, ,0.2091547744326224,-0.21279990434925636,0.10147747007,1.691988153976627,0.5033688651358826,-1.3123602058497046, ,0.14488082680682562,0.1287611147333389,0.02569163148387097,-0.03058476796478128,0.14351141236351567,-0.14964262494489008, ,1.8153769969940186
0.014761154789326332,0.02033966874868285,-0.09052768545727923, ,0.015826090211344145,0.01971176701293685,-0.09163355026285898, ,0.0016586997953339964, ,0.021183912147229925,-0.004893150788204996,-0.03393842207052096,-0.10177220081168342,-0.12998264485191569,-0.014705278413965208, ,0.040305304255575235, ,0.16508489874996207, ,0.0007429297527317251, ,0.21117813044566922,-0.21103139852105895,0.10189357916000001,1.6913590841461734,0.5039154111349443,-1.3129692349447715, ,0.1499161793972682,0.13235277762687694,0.03516293933774835,-0.017525286196064752,0.024375160828467416,-0.030859461088063235, ,1.8185479640960693
0.01503214355178665,0.020262099399103898,-0.09092963846636916, ,0.01587648476315364,0.01969788090793876,-0.09171292702809944, ,0.0012824958315420883, ,0.021183912147229925,-0.004893150788204996,-0.03393842207052096,-0.10177220081168342,-0.12998264485191569,-0.014705278413965208, ,0.040305304255575235, ,0.16508489874996207, ,0.0007465030380218599, ,0.21117813044566922,-0.21103139852105895,0.10189357916000001,1.6913590841461734,0.5039154111349443,-1.3129692349447715, ,0.1499161793972682,0.13235277762687694,0.03516293933774835,-0.017525286196064752,0.024375160828467416,-0.030859461088063235, ,1.8213880062103271
0.01503214355178665,0.020262099399103898,-0.09092963846636916, ,0.015926904391575746,0.01968398470105433,-0.09179221528124037, ,0.0013707123425702424, ,0.021183912147229925,-0.004893150788204996,-0.03393842207052096,-0.10177220081168342,-0.12998264485191569,-0.014705278413965208, ,0.040305304255575235, ,0.16508489874996207, ,0.0007506096781833625, ,0.21117813044566922,-0.21103139852105895,0.10189357916000001,1.6913590841461734,0.5039154111349443,-1.3129692349447715, ,0.1499161793972682,0.13235277762687694,0.03516293933774835,-0.017525286196064752,0.024375160828467416,-0.030859461088063235, ,1.8241169452667236
0.01503214355178665,0.020262099399103898,-0.09092963846636916, ,0.015977348132715584,0.019670079407972378,-0.09187141484537263, ,0.001459740428212255, ,0.021183912147229925,-0.004893150788204996,-0.03393842207052096,-0.10177220081168342,-0.12998264485191569,-0.014705278413965208, ,0.040305304255575235, ,0.16508489874996207, ,0.0007552445196868194, ,0.21117813044566922,-0.21103139852105895,0.10189357916000001,1.6913590841461734,0.5039154111349443,-1.3129692349447715, ,0.1499161793972682,0.13235277762687694,0.03516293933774835,-0.017525286196064752,0.024375160828467416,-0.030859461088063235, ,1.826847791671753
0.015246578448780622,0.02020913509237013,-0.09129416097878483, ,0.016027815026518125,0.019656166040686936,-0.09195052554425708, ,0.0011605687421785856, ,0.02102533755489736,-0.005073033743117962,-0.03607143617637094,0.003279023628811599,-0.0156662170415431,0.039823257257147866, ,0.042058875382993695, ,0.016003789671908086, ,0.0007578764951575451, ,0.21270723155476567,-0.20964902933657276,0.10227209584000001,1.6903106344287508,0.5048718666333024,-1.3137491602706464, ,0.15405347655595905,0.13615056177685905,0.03774599886255925,-0.08022914903058992,0.1599096396334733,-0.14809841823175393, ,1.8296339511871338
0.015246578448780622,0.02020913509237013,-0.09129416097878483, ,0.016078304116762268,0.01964224560750108,-0.09202954720232341, ,0.0012465649492124132, ,0.02102533755489736,-0.005073033743117962,-0.03607143617637094,0.003279023628811599,-0.0156662170415431,0.039823257257147866, ,0.042058875382993695, ,0.016003789671908086, ,0.0007610293238933829, ,0.21270723155476567,-0.20964902933657276,0.10227209584000001,1.6903106344287508,0.5048718666333024,-1.3137491602706464, ,0.15405347655595905,0.13615056177685905,0.03774599886255925,-0.08022914903058992,0.1599096396334733,-0.14809841823175393, ,1.832399845123291
0.015246578448780622,0.02020913509237013,-0.09129416097878483, ,0.016128814451052742,0.01962831911302782,-0.09210847964466866, ,0.0013337175320026625, ,0.02102533755489736,-0.005073033743117962,-0.03607143617637094,0.003279023628811599,-0.0156662170415431,0.039823257257147866, ,0.042058875382993695, ,0.016003789671908086, ,0.0007647004021504937, ,0.21270723155476567,-0.20964902933657276,0.10227209584000001,1.6903106344287508,0.5048718666333024,-1.3137491602706464, ,0.15405347655595905,0.13615056177685905,0.03774599886255925,-0.08022914903058992,0.1599096396334733,-0.14809841823175393, ,1.8351998329162598
0.015246578448780622,0.02020913509237013,-0.09129416097878483, ,0.0161793450808212,0.01961438755820199,-0.0921873226970591, ,0.0014218002933738768, ,0.02102533755489736,-0.005073033743117962,-0.03607143617637094,0.003279023628811599,-0.0156662170415431,0.039823257257147866, ,0.042058875382993695, ,0.016003789671908086, ,0.0007688857517761203, ,0.21270723155476567,-0.20964902933657276,0.10227209584000001,1.6903106344287508,0.5048718666333024,-1.3137491602706464, ,0.15405347655595905,0.13615056177685905,0.03774599886255925,-0.08022914903058992,0.1599096396334733,-0.14809841823175393, ,1.8387489318847656
0.015458994218295113,0.020160235830730074,-0.09164962960721378, ,0.016229895061314694,0.01960045194027721,-0.09226607618592705, ,0.0011347477685310285, ,0.020267951745241125,-0.005328431443461768,-0.032881046674367594,0.03801037503219505,0.01457333124742249,0.003311565507955318, ,0.03899160525032324, ,0.04070788816214496, ,0.000771201334160645, ,0.21429811452685593,-0.20828210561783503,0.10264672365000001,1.6903106344287508,0.5067847776300186,-1.3154723684026774, ,0.15380379507045505,0.13253762787495918,0.03462785113043479,-0.04351363901352851,0.18288230177500342,-0.1711577742403456, ,1.8416268825531006
0.015458994218295113,0.020160235830730074,-0.09164962960721378, ,0.016280463451595176,0.01958651325283582,-0.09234473993837228, ,0.0012194866420455381, ,0.020267951745241125,-0.005328431443461768,-0.032881046674367594,0.03801037503219505,0.01457333124742249,0.003311565507955318, ,0.03899160525032324, ,0.04070788816214496, ,0.0007740207386127512, ,0.21429811452685593,-0.20828210561783503,0.10264672365000001,1.6903106344287508,0.5067847776300186,-1.3154723684026774, ,0.15380379507045505,0.13253762787495918,0.03462785113043479,-0.04351363901352851,0.18288230177500342,-0.1711577742403456, ,1.8447439670562744
0.015458994218295113,0.020160235830730074,-0.09164962960721378, ,0.01633104931453133,0.01957257248578993,-0.09242331378215993, ,0.0013055326500780826, ,0.020267951745241125,-0.005328431443461768,-0.032881046674367594,0.03801037503219505,0.01457333124742249,0.003311565507955318, ,0.03899160525032324, ,0.04070788816214496, ,0.0007773426880594096, ,0.21429811452685593,-0.20828210561783503,0.10264672365000001,1.6903106344287508,0.5067847776300186,-1.3154723684026774, ,0.15380379507045505,0.13253762787495918,0.03462785113043479,-0.04351363901352851,0.18288230177500342,-0.1711577742403456, ,1.8476078510284424
0.01568458821508183,0.02009351804632318,-0.0919926551707121, ,0.016381651716796636,0.019558630625389394,-0.09250179754572178, ,0.0010154939864551646, ,0.0198203329276248,-0.006183925473318933,-0.028418437387956328,-0.042531720732299536,-0.042337241730420215,-0.029910024659487857, ,0.03519508652063019, ,0.060011421999755, ,0.0007788218886705634, ,0.21602028395780798,-0.20677617270736123,0.10300709227000002,1.6901009444852664,0.508424415627204,-1.316891061987175, ,0.15183510649355325,0.13216844228199273,0.02982923505617978,0.0023877081642591203,0.11232976096951205,-0.08168340240473722, ,1.8504300117492676
