NicholasDascanio/dvrk_moveit_final/test/execution/third_experiment_notsharpbends/thirdexp_400vel3.0/thirdexp_400vel3.0_16.csv
Current Position (x),Current Position (y),Current Position (z), ,Planned Position (x),Planned Position (y),Planned Position (z), ,Position Error,,Cartesian linear Velocity(x),Cartesian linear Velocity(y),Cartesian linear Velocity(z),Cartesian Angular Velocity(x),Cartesian Angular Velocity(y),Cartesian Angular Velocity(z), ,Total Linear Velocity, ,Total Angular Velocity, ,MSE, ,Joint 1 Position,Joint 2 Position,Joint 3 Position,Joint 4 Position,Joint 5 Position,Joint 6 Position, ,Joint 1 Velocity,Joint 2 Velocity,Joint 3 Velocity,Joint 4 Velocity,Joint 5 Velocity,Joint 6 Velocity, ,Time Stamp
0.009059413641881188,0.02011346721073687,-0.07785560117301582, ,0.009259344113967831,0.02007320622981518,-0.07799215131145523, ,0.0002454365102452916, ,8.56231407107227e-05,8.739038457338543e-05,-0.0004895199479010912,0.2198626009149722,0.00011864263654508484,-0.0015091331097400427, ,0.0005045772299005766, ,0.21986263292604205, ,2.0453042520440963e-05, ,0.13203556395061644,-0.25070307729595026,0.08749957500000001,1.6037086877696423,0.14005241225957646,-1.2947878612805186, ,0.0002613160394148622,0.0004564161792297606,0.0005023488871264696,-0.001192827947632197,0.0,-0.22048347944031077, ,0.02725982666015625
0.00908122448827691,0.020121047031788415,-0.0778943012251658, ,0.009315234650549958,0.02009349139346383,-0.07813545339850969, ,0.00033715640281479825, ,0.0010752844188845559,0.000503176546988183,-0.0022227181329703507,0.22146032052020717,-0.059738335746039345,-0.01609737336124734, ,0.002519900616605752, ,0.22937598462473172, ,2.64814960481859e-05, ,0.13210506854648446,-0.2506721863644534,0.08753975999000001,1.6037086877696423,0.1388226837616875,-1.3004010780986361, ,0.0031009917495943085,0.000919239660815385,0.002318604296943232,-0.0011226487356753435,-0.05884155194603378,-0.22252569451960902, ,0.05508780479431152
0.009143656142458231,0.020162768646640152,-0.07806663971495888, ,0.009371090974912656,0.02011353739982114,-0.07827838251514475, ,0.0003146193447763236, ,0.0023090522858870443,0.0015879312442233081,-0.006584712703725893,0.0015469973146893864,-0.10342391301389837,-0.024114112092396358, ,0.007156234309044802, ,0.10343548216844697, ,2.803788305738792e-05, ,0.13229041413546586,-0.25063357270008224,0.0877199443,1.6037086877696423,0.1360899537663787,-1.3039719105746879, ,0.007756131750278027,0.0015222893310402141,0.007010920563380283,-0.0010600485559737304,-0.02925435366376856,-0.27026030616589924, ,0.0833888053894043
0.009193625925638169,0.02018845131549723,-0.07818206695568565, ,0.009426912802183864,0.020133345521859972,-0.07842093914768608, ,0.0003384070616460723, ,0.003879270277879029,0.001065380777898491,-0.005060090111867277,0.305753291025396,-0.2659630145079062,-0.06718365981974522, ,0.006464385974782773, ,0.4052423966660891, ,2.941950760672585e-05, ,0.13246031425869878,-0.25057951356996266,0.08784049927000001,1.6037086877696423,0.1337671332703662,-1.3117158975484347, ,0.01007387627716201,0.003149572069136571,0.005286694829074013,-0.001022786391284439,-0.2644910694892457,-0.30898030155202605, ,0.11035299301147461
0.009289616510669204,0.020215322668015887,-0.07831756726376722, ,0.009482699849147203,0.020152917029777655,-0.07856312378247729, ,0.00031854927901776674, ,0.0006335006188978911,0.0008477683812785459,-0.004148970543352793,-0.3831276569228795,0.0848159592484394,0.023741218527236346, ,0.004281820971508364, ,0.39240355304357166, ,2.9887857663466394e-05, ,0.13286189636815846,-0.2504713953097235,0.08798309117000001,1.6037086877696423,0.1287115827790449,-1.3089002949539164, ,0.01246511776677667,0.003022960553616149,0.004378452864211106,0.0009477867092034324,0.10030415691649448,0.38023276242008586, ,0.14152979850769043
0.009280701065014888,0.020236586610101855,-0.07844361928208696, ,0.009538451834239129,0.02017225319099929,-0.0787049369058804, ,0.00037264077655855957, ,0.0012255876104463133,0.00044889188131023294,-0.0038107382999951348,-0.12777958696873357,0.038066063493185705,0.03891614739794394, ,0.004028063468099225, ,0.13332909673047283, ,3.107757056546471e-05, ,0.1332557557447439,-0.25031694065223903,0.08811531275000001,1.6043377576000957,0.13499686176825518,-1.3016920287627267, ,0.016095139341667362,0.006439691123305775,0.003985191773830373,-0.024483762200471007,0.06233834711533593,0.11826882778253256, ,0.17069792747497559
0.009347340761034445,0.02025958317322897,-0.07859566265774319, ,0.009594168477545418,0.02019135527018143,-0.07884637900427582, ,0.00035838199565681016, ,0.0021537823454975593,0.0006473799092452345,-0.004776964386343959,0.10241769056541693,-0.03368624614685396,0.00963084606307429, ,0.0052798927912477405, ,0.10781533526234773, ,3.173876903771697e-05, ,0.13381951524456231,-0.25010842686463497,0.08827475642,1.6043377576000957,0.13486022526848973,-1.3059912628266208, ,0.017437879742460635,0.007198764525199244,0.004988666307547761,-0.015020372410253334,-0.013064792290476366,-0.11149833760084199, ,0.1981220245361328
0.009412950622592767,0.020280622050449275,-0.07874321911727224, ,0.009649849500800474,0.020210224529211895,-0.07898745056406083, ,0.00034745631249537707, ,0.0024068688492048565,0.0008451700918988888,-0.0056500725444757535,-0.032631865458341056,-0.03575580467722658,0.0057127882833975675, ,0.006199245913766594, ,0.04840781141147853, ,3.210545955135365e-05, ,0.13434466108000956,-0.2498921903441567,0.08842901493000001,1.6043377576000957,0.1344503157691934,-1.3062287602965155, ,0.018873695616243195,0.00760328070113416,0.0059061221802002226,-0.010718163328718455,-0.014672743743724381,0.023704413317832473, ,0.225510835647583
0.009459303243029467,0.020298464016691782,-0.07885718863386111, ,0.00970549462738281,0.02022886222721499,-0.0791281520716505, ,0.00037266042377321186, ,0.0019991954487706028,0.0006692391615119997,-0.005015072793682323,0.0003044397732202687,-0.017694466914958143,0.007904547556184345, ,0.005440185532095298, ,0.017697085630342623, ,3.266639246721968e-05, ,0.13471535225797235,-0.24974545841954643,0.08854827361,1.6043377576000957,0.13431367926942794,-1.3060356636526784, ,0.016601984177479143,0.00769264058682244,0.005222561154098361,-0.009039361825898526,0.0011705047906071494,-0.00910380717961095, ,0.25327396392822266
0.009499812439924227,0.020309350046889052,-0.07895042150956404, ,0.009761103582314409,0.020247269620551286,-0.07926848401347635, ,0.0004162821120596131, ,0.002122496495281116,0.000660645312951757,-0.004661258825002296,-0.0023494654176748992,-0.018551342376193512,-0.000943617279146996, ,0.00516418216522883, ,0.018699526451413956, ,3.3877130881622015e-05, ,0.13526366629204228,-0.2495214991661939,0.08869864325000001,1.6041280676566114,0.1344503157691934,-1.3060654028162344, ,0.019260592969042173,0.00724159416082735,0.005790189574700111,0.0,0.0,-0.003933133781245516, ,0.2781858444213867
0.009567511595973278,0.020337710478476552,-0.07911940418417752, ,0.00981667609225701,0.02026544796282169,-0.07940844687598665, ,0.0003883947670416796, ,0.0021190059881043256,0.0008289816139642831,-0.005222394557935285,-0.0032799613452738313,-0.016718098318687667,-0.0038689060488361826, ,0.005696560524796071, ,0.017036811730343774, ,3.463622714623185e-05, ,0.13564980293575352,-0.24938248997445786,0.08882308709,1.6045474475435806,0.13458695226895884,-1.3061768207199307, ,0.017482855850860495,0.006602451780487185,0.005475700075627365,0.003090347165090736,0.0,-0.0028568463152966826, ,0.30348896980285645
0.009634257579721818,0.020362034415530493,-0.07928007604212764, ,0.009872211885509576,0.020283398504869935,-0.07954804114564598, ,0.0003668939285296839, ,0.0023291929684806276,0.0011351096666708483,-0.006036115095722573,-0.001754275805775174,-0.016645418585895196,-0.0030335407607439005, ,0.0065687365062543895, ,0.016737605428780226, ,3.5099822811892334e-05, ,0.13622128516844612,-0.24916625345397958,0.08899160479000001,1.6045474475435806,0.13472358876872428,-1.3062065598834867, ,0.018802643463140634,0.005470805074362995,0.006361346453674121,0.0027703031391651317,0.0015194719027206243,-0.0033013165677059715, ,0.3333308696746826
0.009697403111155689,0.02038462711053519,-0.07942677770182452, ,0.009927710692006108,0.02030112249478446,-0.07968726730893472, ,0.0003575883639903215, ,0.002110239728769315,0.000571484430643975,-0.004404793617623843,-0.0021223321197329954,-0.014850601159694745,-0.002339857212823682, ,0.00491751085216948, ,0.015001488151933858, ,3.542552561410554e-05, ,0.13676959920251608,-0.24897318513212396,0.0891458633,1.6045474475435806,0.13486022526848973,-1.3063179777871832, ,0.019040317327141006,0.007153212962223321,0.004630468465116279,0.0023731520800135946,0.003718287261490731,-0.004651048867127892, ,0.35878896713256836
0.009742216740581023,0.02040155847744673,-0.07952998717718418, ,0.009983172243313373,0.02031862117790035,-0.07982612585234818, ,0.00039068691414089146, ,0.002358342911364832,0.0010496987503054317,-0.006033999628953992,0.0005766570915233664,-0.012798041510440485,-0.0013702006378420084, ,0.006562987145819688, ,0.012811026184710313, ,3.5950030603988324e-05, ,0.1371634585791015,-0.24884962140613637,0.08925475166,1.6045474475435806,0.13499686176825518,-1.3064293956908795, ,0.01958657204509201,0.006446445406415148,0.006348669398166602,0.0021652782814447274,0.006452633938661197,-0.006677100905279452, ,0.38362693786621094
0.009808289524086067,0.020431354529852334,-0.07970900264969107, ,0.010038596272627575,0.020335895796803175,-0.07996461726239779, ,0.00035706077685503123, ,0.002057126665325857,0.0006663182728658751,-0.004745083551580115,0.007460118927999635,-0.003385640256619084,0.003031249339129561, ,0.005214553487061553, ,0.008192431382780136, ,3.6179554586311174e-05, ,0.13773494081179413,-0.2486411076185323,0.08944271371000001,1.6047571374870648,0.1355434077673169,-1.3068750673056653, ,0.019078597016178284,0.0069941455926777136,0.004990229172932331,0.0,0.016190640550761633,-0.014390270721122624, ,0.4102299213409424
0.009876990062366326,0.020453444047510223,-0.07986061468482664, ,0.010093982514772237,0.02035294759133059,-0.08010274202560896, ,0.00034031002227398173, ,0.0022543282037696837,0.0007738710287314376,-0.005070467187347067,0.00029182519161985763,-0.012110137871875046,-0.005146100999078609, ,0.005602723401827416, ,0.01211365336580097, ,3.6274354786292994e-05, ,0.1383218685102352,-0.24842487109805403,0.08960215738,1.6049668274305493,0.1355434077673169,-1.3068750673056653, ,0.01988203259134104,0.006799806348499102,0.0053995971254237295,0.006021320268633883,0.012223900828873098,-0.010994097883031125, ,0.4388618469238281
0.00991721050087631,0.020465875104117646,-0.0799596306496245, ,0.010149330706196197,0.020369777798573817,-0.08024050062852146, ,0.0003768320937713678, ,0.002038339144328042,0.0005778058833254757,-0.004573319243172038,0.0028569060690043398,-0.006698030700815981,-0.004228145846483204, ,0.005040231642104673, ,0.0072818627806076905, ,3.658144564418769e-05, ,0.1387080051539464,-0.24826269370769533,0.08970586058,1.6049668274305493,0.1360899537663787,-1.3074024176605914, ,0.018383754660687868,0.007546068580832822,0.004796390099367661,0.006021320268633883,0.010529936534711746,-0.009524745834881733, ,0.4633657932281494
0.009985399196205806,0.020489508596590128,-0.08011878580806368, ,0.010204640584969156,0.020386387652883486,-0.08037789355769008, ,0.00035473587567976054, ,0.0021184737294865576,0.0008086125233660597,-0.0053126344230644724,0.003050862901848671,-0.004676945070848161,-0.0029061857874439754, ,0.005776319733930827, ,0.005584046508542744, ,3.67288610481303e-05, ,0.13928721011951326,-0.24804645718721702,0.08987308199,1.6049668274305493,0.13622659026614414,-1.3075138355642877, ,0.01826346065405519,0.00702286595585368,0.005577314957983194,0.005273439599465223,0.012682225032041444,-0.009298932573603121, ,0.4900379180908203
0.010005492571851118,0.020495350960438894,-0.08016314212137403, ,0.01025991189078243,0.020402778385866224,-0.08051492129968146, ,0.0004439002835087396, ,0.0020909583002731154,0.00052233878990451,-0.00436780093462592,0.0016666308423029233,-0.009579111724556067,-0.0037975167613396627, ,0.004870588201587053, ,0.009723015900755612, ,3.7557973728371724e-05, ,0.13947255570849465,-0.247976952591349,0.08991974843000002,1.6049668274305493,0.13636322676590956,-1.3076252534679842, ,0.019063266685108632,0.007556413063096574,0.004590435596541787,0.005046429534693127,0.008505837473955403,-0.008471859513385673, ,0.5132958889007568
0.010083371551378766,0.020526440484914383,-0.08036194348765825, ,0.010315144364942578,0.020418951226393846,-0.08065158434107741, ,0.00038621807541072055, ,0.0023013427791905945,0.0011351455825122068,-0.006930158769018111,0.009484972821548147,0.0007968048372152517,6.25369180360673e-07, ,0.007389982046299455, ,0.00951838176314629, ,3.801170010712171e-05, ,0.14012898800280374,-0.24772210240649958,0.09012845112000001,1.6053862073175185,0.13677313626520587,-1.3079595071790733, ,0.018270493176447977,0.007969102400376899,0.00724366144611187,0.003657531922121712,0.01875006991082227,-0.016880390970364294, ,0.5363268852233887
0.010140948945728123,0.020552093337150898,-0.08052303098032434, ,0.01037033775037166,0.020434907400600787,-0.08078788316847131, ,0.0003694569650001919, ,0.002385392499317228,0.0009771129999432456,-0.006102281719801554,0.004861344677266968,-0.006947016126214802,-0.0014628868678916212, ,0.0066244010580792274, ,0.008479015076487916, ,3.834349383373703e-05, ,0.14056918377663452,-0.24753675681751822,0.09029307995000001,1.6053862073175185,0.1370464092647368,-1.3081823429864663, ,0.020050061601198134,0.007148516391585561,0.006435883442424243,0.003657531922121712,0.012495032142775664,-0.011671635594613044, ,0.5590000152587891
0.010178390204714987,0.020567157995666132,-0.08062568715872148, ,0.010425491791603705,0.020450648131888117,-0.08092381826846937, ,0.00040437099450875473, ,0.0022842199646236115,0.0007733997745375676,-0.0058685855643863215,0.018928139934519216,0.010610687461034232,0.0030804661080482795, ,0.006344769860646119, ,0.02169933553857263, ,3.8819703803682674e-05, ,0.14092442948884884,-0.24739002489290796,0.09040456089000001,1.6053862073175185,0.13759295526379853,-1.3086280146012519, ,0.021224992520346854,0.009062244418602625,0.006147746630644541,0.003657531922121712,0.03192015952934627,-0.027406772424424793, ,0.580758810043335
0.010232078850284064,0.020583511668311426,-0.08075353263736412, ,0.01048060623478162,0.02046617464092729,-0.08105939012769009, ,0.00041119659924303856, ,0.0022696777274299135,0.0006260891169785,-0.005595814475820875,0.0037209252959699763,-0.005042492752028609,-0.001463796649862498, ,0.006070960732585642, ,0.0062667386035866425, ,3.929218722534266e-05, ,0.14135690252980543,-0.24718923383817812,0.09053807876000002,1.6053862073175185,0.13759295526379853,-1.3085463358611114, ,0.019268414529638737,0.009923548870200662,0.005858334505332844,0.003657531922121712,0.01422453020387581,-0.013233967100519696, ,0.602957010269165
0.010280013834343824,0.02059848088672427,-0.08087522787184698, ,0.010535680827655455,0.020481488145660733,-0.08119459923276393, ,0.00042550085676119697, ,0.0026930140816680916,0.0008804736687377002,-0.006566867427163854,0.002247495932365828,-0.010247872221077406,-0.0024198672210046577, ,0.007152014159056782, ,0.010491430351167844, ,3.9795188849589064e-05, ,0.14177393010501355,-0.24698844278344828,0.09066511518,1.6055958972610032,0.13800286476309484,-1.3087989108320601, ,0.022616048989149373,0.009878358206591201,0.006874756806214934,0.004076995486647684,0.0117318407813204,-0.011469100421572662, ,0.6266398429870605
0.010353297748460007,0.020615283650408073,-0.08104829721197476, ,0.010590715319579582,0.02049658986130492,-0.08132944607033167, ,0.00038665229755346795, ,0.00251902064285934,0.0005960040468615326,-0.0059572310331953895,-0.0007627188554005096,-0.007500448664851098,0.011800937877779298, ,0.006495328121495712, ,0.007539128777496111, ,4.009340189219498e-05, ,0.14242263966644841,-0.2466486425369824,0.09084529949,1.6060152771479719,0.13854941076215663,-1.3091629037067052, ,0.022099893236718855,0.011108699337419755,0.006205224589014414,-0.009460911146527369,0.017449148773803155,-0.0115319604188079, ,0.6491808891296387
0.010393171896419567,0.020623860422187834,-0.08113923311711793, ,0.010645709461510161,0.02051148100035291,-0.08146393112704621, ,0.0004264189886546127, ,0.0027027915891294986,0.0005484729213132328,-0.0059453136553537286,-0.015235914841629557,-0.02445643175388087,0.006553864622249315, ,0.0065538278418202705, ,0.02881406163257077, ,4.0539274354292254e-05, ,0.1427624399129143,-0.24647101968087523,0.09093992866,1.6060152771479719,0.13868604726192205,-1.3092743216104017, ,0.022370801876112865,0.011619559392490606,0.006185946221359225,-0.008549085686401238,0.0,0.0025549533036553934, ,0.6760199069976807
0.01047617052717536,0.02063932430090696,-0.08133288569743793, ,0.010700663006002272,0.020526162772576798,-0.08159805488956991, ,0.0003653999247397192, ,0.00229411098320079,0.00042127646743071197,-0.005646733006360741,0.0026930799166875823,-0.0008782736930242085,0.010340159957023592, ,0.006109501838151553, ,0.002832673362133602, ,4.0706971211048914e-05, ,0.1434883768030914,-0.24606171483854133,0.09114085361,1.6060152771479719,0.1392325932609838,-1.3097199932251873, ,0.020233889458096115,0.012116717399138366,0.005843291093176817,-0.007010117724679715,0.02173109438281219,-0.015656696109914946, ,0.6985938549041748
0.010527534242047162,0.020650043084768317,-0.081448706706435, ,0.010755575707207534,0.02054063638503053,-0.08173181784457621, ,0.00037963752754385934, ,0.0025007870359558706,0.0006032735311209535,-0.005923107179208985,-0.010186628186937203,-0.01491024680566983,-0.0001696277066902759, ,0.00645763682851189, ,0.01805776415657675, ,4.1082720135916045e-05, ,0.14392084984404796,-0.2458377555851888,0.09126140858000001,1.6058055872044876,0.13936922976074928,-1.3099130898690243, ,0.02041672580862108,0.010915978316707773,0.006162016061895551,0.0,0.005680536622518029,-0.0006178779390117067, ,0.7181270122528076
0.010548977171347895,0.020656566046479766,-0.08150341398651903, ,0.010810447320871724,0.020554903042051417,-0.08186522047874768, ,0.00045782741658862466, ,0.0025530495211027134,0.0007293118393098703,-0.006521176114760062,-0.004682541976906929,-0.007442957927189045,-0.008042359223105821, ,0.0070410010322309625, ,0.008793395833138441, ,4.174004977158095e-05, ,0.14409847270015513,-0.24574508279069812,0.09131844534000001,1.6060152771479719,0.1395058662605147,-1.3100245077727206, ,0.020567174156582307,0.0113431677693606,0.00678110324393359,0.00953530637724608,0.011145988077822858,-0.005215647058373744, ,0.7370548248291016
0.010632301699567998,0.020690011507440893,-0.08173953321634836, ,0.010865277604331711,0.02056896394526376,-0.08199826327877645, ,0.000368607555149838, ,0.002649893424365521,0.0011479521760313764,-0.00788411953266075,0.006857711760599321,0.00264367077034689,-0.005250776503093164, ,0.008396372440776645, ,0.007349637764605587, ,4.2027370097704154e-05, ,0.14474718226158997,-0.2454207280099807,0.09156474044000001,1.6062249670914566,0.14005241225957646,-1.310388500647366, ,0.020346685582862515,0.010441960455383889,0.008219200990712074,0.00936907486045103,0.021369017689735502,-0.015878968425704576, ,0.7591068744659424
0.0106857278276102,0.020705546047921533,-0.08187116547557778, ,0.01092006631651382,0.020582820293579506,-0.08213094673136309, ,0.00037075927367746873, ,0.002694435396177019,0.0006766683051534932,-0.006121327809875075,-0.0018283753903237758,-0.011158963966046178,-0.006906899959384586, ,0.00672224041933349, ,0.011307759493763954, ,4.230783780097719e-05, ,0.14518737803542078,-0.2452044914895024,0.09170214718000001,1.6062249670914566,0.14032568525910732,-1.3105296577146182, ,0.02263223027867178,0.01075048526545204,0.006402255434083603,0.008084999660212349,0.009810549900389123,-0.007674749143180361, ,0.7784318923950195
0.010710401380918453,0.0207123477353325,-0.08193311779954512, ,0.010974813217930557,0.020596473283202205,-0.08226327132321702, ,0.0004385679621239808, ,0.0023579457257047534,0.0006723743977756845,-0.005986483465348906,0.026342037193993164,0.02197123642411911,0.0020214964680783363, ,0.006469156023551246, ,0.034302159492449615, ,4.2816456006395545e-05, ,0.1454190600216475,-0.24509637322926325,0.09176696168000001,1.6062249670914566,0.14073559475840366,-1.3108639114257075, ,0.02253013807181168,0.010386279940213053,0.0062687176387249115,0.0075735248333925805,0.04400511757528979,-0.03555812623995289, ,0.7975289821624756
0.010765444635790815,0.020726169405403564,-0.08205685398107901, ,0.011029518070677308,0.02060992410763014,-0.08239523754105632, ,0.0004446922328196237, ,0.0027990457972487965,0.0007443035819788843,-0.006715013715500938,-0.0014315495065605258,-0.008360017928207331,0.0018957149127905417, ,0.007313005838682782, ,0.008481699127915323, ,4.332160248993162e-05, ,0.1458901467269752,-0.24488013670878497,0.09189659068000001,1.606434657034941,0.14100886775793453,-1.3110050684929597, ,0.023344881072194533,0.011549611466597227,0.007010920563380283,0.00021097235164266418,0.015404298506469493,-0.009965162769453431, ,0.8169000148773193
0.010847257985047922,0.02074920796661092,-0.08225896255218791, ,0.011084180638431269,0.020623173957656765,-0.08252684587160572, ,0.00037918120723680966, ,0.0025430092592220667,0.000466841634418633,-0.005979910796393776,0.018429014892696903,0.016812169806837078,0.00835489318095857, ,0.006514919058356955, ,0.02494549329803838, ,4.357986776138498e-05, ,0.14660063815140387,-0.2445403364623191,0.09210788595000001,1.606434657034941,0.14182868675652718,-1.3115918971749978, ,0.02440137350436379,0.012577460776470612,0.006236809522317934,0.00021097235164266418,0.04245167135220539,-0.030845769491450955, ,0.8399419784545898
0.010901000762093742,0.020758483079001817,-0.08236811563522467, ,0.011138800686448303,0.020636224021373925,-0.08265809680159766, ,0.000394442845094365, ,0.002813094000624531,0.0005859610715720377,-0.006228842444292077,0.00388453459335114,-0.00345320953269017,-0.0036711572106904685, ,0.0068596885082022555, ,0.0051975239977503675, ,4.387682381043704e-05, ,0.1470485566581089,-0.2443163772089666,0.09222195947,1.6066443469784255,0.14182868675652718,-1.3114285396947165, ,0.02468702954174578,0.012023750862395894,0.006514851337423314,0.00712533451691207,0.020123874252146685,-0.014764840434540603, ,0.8598330020904541
0.010946461324003382,0.02076562965424183,-0.08245985114025625, ,0.011193377981559357,0.02064907548417554,-0.08278899081777179, ,0.0004276513038136183, ,0.0027725172175612155,0.0003367131481972129,-0.00542568134572263,-0.015272047136923398,-0.02173890367503342,-0.008372178978487205, ,0.006102314768279722, ,0.026567185625182677, ,4.426810152842587e-05, ,0.14744241603469435,-0.24412330888711098,0.09231788493000001,1.6066443469784255,0.14196532325629263,-1.3113766001181317, ,0.023385150704403838,0.012486439678746155,0.005654530181043664,0.006807161138404492,0.0,0.0038914973121682286, ,0.8794798851013184
0.010994039699397875,0.020775734052846266,-0.0825844314408729, ,0.011247912292170077,0.020661729528757264,-0.08291952840687324, ,0.0004355896021443516, ,0.002408222071371008,0.0007083639630805911,-0.006837357851942276,0.04312079354699049,0.046578246497599805,0.009879513210864499, ,0.007283596326317542, ,0.06347389910798151, ,4.4809442270380635e-05, ,0.1479057800071478,-0.24386845870226156,0.09244751393,1.6066443469784255,0.14305841525441615,-1.3122679433477034, ,0.024220760989910866,0.01228280372229754,0.007139763119677276,0.006021473843293971,0.07150545663618446,-0.05441640793229949, ,0.8957309722900391
0.011026339704494322,0.020784752011101956,-0.08266528952173408, ,0.011302403388255717,0.02067418733512224,-0.08304971005565431, ,0.0004860193946396912, ,0.0028691018991514007,0.0009618223863612239,-0.008162895575674248,0.002773336382542377,0.005906149201176569,0.0028271474399564583, ,0.008705728699539285, ,0.006524872169976727, ,4.5488075836060036e-05, ,0.1481606301919972,-0.24372944951052553,0.09253177278000001,1.6068540369219102,0.1431950517541816,-1.3122160037711186, ,0.022697187648522073,0.01306220806035386,0.00848631407565264,0.002396396491341293,0.02890032544375121,-0.015347603886345693, ,0.9125328063964844
0.011096341218304905,0.020807815545939537,-0.08284925485663243, ,0.011356851041360807,0.020686450080580485,-0.08317953625087153, ,0.0004378135944337056, ,0.0033244133910277874,0.0011815453341417854,-0.008648731340875062,-0.02446488666332808,-0.018173533971497798,-0.0023699717632655335, ,0.009340681322993075, ,0.03047635096385324, ,4.599385847230956e-05, ,0.1486934987603187,-0.24345143112705345,0.09272362370000001,1.6068540369219102,0.14346832475371246,-1.311948767137668, ,0.024667777894065705,0.011969624981772072,0.009040188149829742,0.002172600217541421,0.006153768830822628,0.01293950079478242, ,0.9288759231567383
0.01114421357509031,0.020828656617890164,-0.08301079590737545, ,0.01141125502459417,0.020698518939754617,-0.083309007479288, ,0.00042092409368696025, ,0.0027637202264173457,0.0011249090504172577,-0.00866493165804349,0.01690703815302057,0.03899183623266157,0.013663887953916895, ,0.009164311785408837, ,0.04249954332762605, ,4.6430487818252645e-05, ,0.14914913999989796,-0.24321202640795248,0.0928921414,1.6070637268653947,0.14510796275089774,-1.3131224245017439, ,0.02425790939633711,0.012569131332247786,0.009040188149829742,0.000321709915007171,0.0651307352704847,-0.029284117074695963, ,0.9461469650268555
0.011181480501529305,0.020842622896496254,-0.08310975709946937, ,0.011465615112628853,0.020710395084578993,-0.0834381242276703, ,0.00045391810093016254, ,0.003384295005199112,0.001058360490962612,-0.008293627314032099,-0.0687674452013004,-0.025110175590931864,-0.0021161041498304395, ,0.009019857739183339, ,0.0732084858365604, ,4.6949230936656924e-05, ,0.14944260384911848,-0.24308073994909066,0.09299584460000002,1.6070637268653947,0.14538123575042863,-1.3128551878682935, ,0.02518496325861751,0.012274121418090035,0.008671100446379969,0.000321709915007171,0.0,0.056676630140883796, ,0.9621930122375488
0.011215061084159253,0.020851192607180227,-0.08318950065670909, ,0.011519931081698076,0.020722079684303927,-0.08356688698278997, ,0.0005020321716442149, ,0.003399205348344633,0.0009308080391806782,-0.008362257537943467,-0.08184057004946313,-0.023486451762673194,-0.008801311261782298, ,0.00907459926040321, ,0.08514395035192694, ,4.7589744849518186e-05, ,0.14968200856821945,-0.24294173075735462,0.09307880716000001,1.6072734168088794,0.14524459925066321,-1.3122536975237535, ,0.02518496325861751,0.013978044124093501,0.008709027621651176,0.007000744731699461,0.0,0.06903217380844577, ,0.98042893409729
0.011278475813425544,0.02086916572585912,-0.08336038037267776, ,0.011574202709592397,0.02073357390549853,-0.08369529623142244, ,0.00046691345162017486, ,0.0020524375746947343,0.0005342257766743778,-0.0062774259367595845,0.08118689649072447,0.08223229142635229,0.03335915884917406, ,0.0066260073626569485, ,0.11555718024110968, ,4.8107959085298375e-05, ,0.1502998271981574,-0.24264054417525988,0.09325769518,1.6074831067523636,0.1468842372478485,-1.313100639927267, ,0.024999194298859533,0.012285984147911804,0.006568582070103093,-0.008282486848290324,0.11259886870243373,-0.09450320607883307, ,0.997222900390625
0.01133614285674124,0.02087440327419409,-0.08347472248320811, ,0.011628429775658096,0.020744878912051973,-0.08382335246034632, ,0.0004730233232279547, ,0.0031339196077973313,0.00035272391812428503,-0.005899532853713049,-0.04100326749886067,-0.028253242711046792,0.005981390384967826, ,0.006689570551432517, ,0.0497947152027806, ,4.8625867986186475e-05, ,0.15081725030073045,-0.2423625257917878,0.09337695386000001,1.6074831067523636,0.1472941467471448,-1.3131081786777943, ,0.026265414214910264,0.013263024676236308,0.0061691756467854375,-0.008282486848290324,0.0,0.02668274517024591, ,1.0132508277893066
0.011369920165186747,0.0208807867985645,-0.08354147482794734, ,0.011682612060794458,0.02075599586517597,-0.08395105615634288, ,0.0005301941750009893, ,0.0032719139939864465,0.0007094566698131787,-0.007205926489525951,-0.02722118434692244,-0.0191209873843177,0.008364099547301917, ,0.007945698617669722, ,0.03326567324392264, ,4.928453916597617e-05, ,0.1510798232184541,-0.2422389620658002,0.09344695352000001,1.6074831067523636,0.14715751024737936,-1.3129150820339572, ,0.02654459903733448,0.012918178812751263,0.007542050909090911,-0.008282486848290324,0.009699277006140655,0.013241722801047996, ,1.0301768779754639
0.011450221032490797,0.020901678613156945,-0.08372979817691295, ,0.011736749347450233,0.020766925923408616,-0.08407840780619662, ,0.00047094101148360297, ,0.0037910395779033827,0.0011862983861447678,-0.00954008165053828,-0.020505000291716546,-0.020484193216075367,-0.005572020224727474, ,0.010334042908810508, ,0.02898373905576263, ,4.989630569364299e-05, ,0.1517130873141405,-0.2419300527508312,0.0936439896,1.6072734168088794,0.14743078324691022,-1.3131379178413503, ,0.02796844726155932,0.014302478004291,0.009967967158948689,0.005178645513470922,0.006436369751238453,0.007125827952295441, ,1.0437989234924316
0.01151461644574257,0.020924369212634415,-0.08391356717753745, ,0.011790841419621745,0.020777670242615873,-0.08420540789669417, ,0.0004277754426763706, ,0.0032593122996490568,0.0011710545682707813,-0.00941002195362946,0.025641312914447285,0.03119093762361756,0.0024395522980582046, ,0.010027113175600438, ,0.04037761067763338, ,5.037559040925631e-05, ,0.15223823314958776,-0.24165203436735913,0.09383584052,1.6074831067523636,0.14838723874526832,-1.313917843167225, ,0.02733206842121854,0.01410687402385473,0.009832599703703704,0.009800525876388733,0.0578915784245056,-0.03814271912503406, ,1.063309907913208
0.0115549198605828,0.020935398984197284,-0.08401157093761236, ,0.011844888062850906,0.02078822997599303,-0.08433205691462303, ,0.00045656493159561485, ,0.0033662551658566187,0.000724294247941656,-0.007814204297292099,-0.0010337949324916926,-0.0016759885802404904,-0.008044924387589839, ,0.008539207504158453, ,0.0019691725541335164, ,5.0918526694533056e-05, ,0.15254714246455675,-0.24148985697700043,0.09393824743000001,1.607692796695848,0.14852387524503374,-1.3140292610709214, ,0.027763879917633346,0.014671759671996099,0.008164434402870324,0.01207858504238088,0.023909268801003726,-0.011681966228234975, ,1.0775649547576904
0.011591731310737822,0.02094185654540905,-0.08408709831922527, ,0.011898889064221013,0.020798606274069608,-0.08445835534677272, ,0.0005026910644392169, ,0.003541258806545293,0.0006297690292540399,-0.007521532887024767,-0.007515528678180458,-0.011686744287293402,-0.010186244606004218, ,0.008337300518497417, ,0.013894716235895227, ,5.156799902690623e-05, ,0.15284060631377727,-0.24134312505239014,0.09401732112000001,1.607692796695848,0.14852387524503374,-1.3140292610709214, ,0.02935259559494921,0.014939694829734064,0.007873856411270391,0.01207858504238088,0.015230752431246814,-0.005462911623531247, ,1.0913128852844238
0.011645274029298734,0.02095067010411143,-0.08420132139141517, ,0.01195284421235615,0.02080880028470885,-0.08458430367993305, ,0.0005112747759098684, ,0.0036589524256794882,0.000508622099394632,-0.0073711205989756235,-0.020017815023650517,-0.026730814481721345,-0.012731884008456623, ,0.008245001405580302, ,0.03339534906864812, ,5.222286926146783e-05, ,0.15327307935473383,-0.24111144306616342,0.09413657980000001,1.607692796695848,0.14866051174479922,-1.314140678974618, ,0.02929822215451398,0.015810886630868173,0.0076987972547124224,0.010750445734005298,0.0,0.005986162139580728, ,1.1057260036468506
0.01171031013707846,0.020963944904554988,-0.0843624747989157, ,0.012006753297416364,0.02081881315311331,-0.08470990240089471, ,0.00047921572512234673, ,0.0034980212668049896,0.0008288646609100221,-0.009157070160221107,0.02200105691862554,0.019900391406520137,0.000254369960563232, ,0.009837433777583322, ,0.029666007808341797, ,5.277925032987346e-05, ,0.1538831752517976,-0.2407948110183202,0.0943050975,1.607692796695848,0.15002687674245363,-1.3151731792714414, ,0.02920804603215475,0.01710162940322054,0.009532502405745064,0.009130666962562699,0.04834959200664017,-0.03754514789912959, ,1.1192898750305176
0.01175023502731212,0.020974157526984442,-0.08446085155927824, ,0.012060616111097277,0.020828646021824354,-0.08483515199644774, ,0.0005075537730830928, ,0.0038413913388072687,0.0011341935311122986,-0.00993392750848362,0.003245611533993862,-0.005045146985532112,0.0015414934463210141, ,0.010711003600395626, ,0.005998950374480029, ,5.339299723524808e-05, ,0.1541689163681439,-0.24062491089508728,0.09440750441000001,1.6079024866393328,0.15002687674245363,-1.3150098217911603, ,0.029199058941067932,0.015714015823558664,0.01037032,0.001999942749267891,0.024396618343529002,-0.018472856878483355, ,1.1344108581542969
0.011796064656114682,0.020988072205054224,-0.08457482129444169, ,0.012114432446625745,0.02083830003072699,-0.08496005295338206, ,0.0005217213674822566, ,0.0039761233152169825,0.001078261494055246,-0.009476147739516173,-0.017430692553347255,-0.028455715158356605,-0.004232283388020537, ,0.01033293668075595, ,0.03336999687820292, ,5.402671957680533e-05, ,0.15450871661460977,-0.24045501077185433,0.09452676309000001,1.6079024866393328,0.15016351324221905,-1.3149578822145758, ,0.028931994377582555,0.015031988208216501,0.009905977313432835,0.001999942749267891,0.0,0.002876717505966589, ,1.149075984954834
0.01187030289950894,0.021006591879269582,-0.08475943032769084, ,0.012168202098758667,0.0208477763170502,-0.0850846057584864, ,0.00046872740106565855, ,0.003309889294971239,0.0007359637590050322,-0.008854866465458805,0.07597331869413813,0.06582907136115573,0.012454868045353526, ,0.009481860045404642, ,0.10052567699465755, ,5.451466503916806e-05, ,0.15513425797742195,-0.2401306559911369,0.09471991030000002,1.6081121765828172,0.15111996874057715,-1.315492771320029, ,0.03264428674182002,0.01727912264356715,0.009260936930232559,0.009070105307568441,0.09923248428689128,-0.09167021070158113, ,1.1632227897644043
0.011903881905932896,0.02101269385261263,-0.08484262667653124, ,0.012221924863778875,0.020857076015371716,-0.08520881089854804, ,0.0005093712975394342, ,0.0036285115230916772,0.0006042664627481819,-0.007788290915111824,0.005440492806121252,0.004733962481213191,-0.0027329971042680066, ,0.008613286783198656, ,0.007211749724671825, ,5.522345491114559e-05, ,0.15544316729239094,-0.23996075586790397,0.09480676173000001,1.6081121765828172,0.15180315123940433,-1.3160498608385112, ,0.031443651941176536,0.01575052971924826,0.008168621292307693,0.009070105307568441,0.035047560231054486,-0.019634062391340756, ,1.1760458946228027
0.011946329355582118,0.021019429167950777,-0.08492528671874307, ,0.01227560053949402,0.020866200257618213,-0.0853326688603527, ,0.0005457644371144993, ,0.003968830369857365,0.0007632298885940348,-0.008449932750987616,-0.015580842022209144,-0.012801708059546543,-0.0061486632509722495, ,0.009366722898845601, ,0.020165473569540408, ,5.6006275676133335e-05, ,0.15578296753885681,-0.23979857847754524,0.09489361316000001,1.6081121765828172,0.15180315123940433,-1.3158048246180893, ,0.03232184657986061,0.015795096797348664,0.008869048730512249,0.008375823070921547,0.01805990488803785,0.0012399438310432415, ,1.1873488426208496
0.01198653134646896,0.02102767495748668,-0.08501461464029836, ,0.012329228925232829,0.020875150173069533,-0.08545618013068348, ,0.0005793837438616765, ,0.004044510599678313,0.0009261441530072994,-0.009646242559617714,-0.03403300441914335,-0.016805862867649818,-0.007244309461819515, ,0.010500752568365752, ,0.03795632138392239, ,5.685438699154418e-05, ,0.15608415412095156,-0.23963640108718653,0.09498694604,1.6081121765828172,0.15180315123940433,-1.315723145877949, ,0.030328201201173147,0.017154183217366375,0.010062420416929882,0.00778351183680226,0.012027983640729859,0.018262551494865616, ,1.1983439922332764
0.012025575540174138,0.021037071554696387,-0.08511136887769527, ,0.012382809821843662,0.02088392688835958,-0.08557934519632042, ,0.0006083349863531602, ,0.004203759507283444,0.000882829473687618,-0.00952585819677087,-0.003182024832025182,-0.01701037486382171,-0.0062574417350903695, ,0.010449543351729504, ,0.01730543430840258, ,5.77549010302841e-05, ,0.15640078616879477,-0.2394665009639536,0.09508805666,1.6081121765828172,0.15221306073870067,-1.315730684628476, ,0.032532376262759954,0.01733277471387594,0.009961733283302064,0.007257677060966452,0.014214004048273441,-0.012841907827075347, ,1.2114930152893066
0.012114672595275511,0.021064407363372104,-0.08536479325946843, ,0.012436343031690474,0.020892531527480163,-0.08570216454404106, ,0.0004968224595176169, ,0.004470298460701607,0.0013623702907586248,-0.011883032260618993,-0.00035290460977725394,0.013681725886802845,0.003959154322609996, ,0.012768949715767725, ,0.013686267861119265, ,5.837739015299248e-05, ,0.1571344457918461,-0.23904947338874546,0.09535249982,1.6085315564697864,0.15385269873588595,-1.316904341992552, ,0.03470992741714366,0.01840157873928074,0.012424969984399377,0.0049924517123807405,0.04862481640763653,-0.017051564825220522, ,1.223052978515625
0.012163922620330241,0.021078792370212117,-0.08548748310760057, ,0.012489828358651662,0.02090096521178239,-0.08582463866061871, ,0.0005015086394838948, ,0.004626985755876306,0.0012864811523418409,-0.011468885475782823,-0.025638052431865458,-0.014187389668894415,-0.0029937368637684213, ,0.012433799298566597, ,0.029301733049202163, ,5.899919776058395e-05, ,0.15748969150406042,-0.2388641277997641,0.09548083253,1.6085315564697864,0.1539893352356514,-1.3168524024159671, ,0.0340987932297775,0.018048106040028676,0.011994586987951809,0.0049924517123807405,0.019291869020217678,0.008577521727809527, ,1.2344110012054443
0.012212682599527711,0.02109062400377327,-0.08560294952559255, ,0.01254326560811585,0.02090922905998074,-0.08594676803282306, ,0.0005102944415872978, ,0.004928404187636524,0.001077126783164907,-0.011541440437875123,-0.03112045782489421,-0.02325910025404046,-0.005016549438184812, ,0.012595801575316416, ,0.038851878140864875, ,5.9629767072181565e-05, ,0.15783721448340052,-0.23867105947790848,0.09560138750000001,1.6085315564697864,0.1539893352356514,-1.3168524024159671, ,0.03661147436669397,0.020567174156582307,0.012049025355521938,0.0049924517123807405,0.012536576788406688,0.01157299275579138, ,1.2451608180999756
0.012244092962442485,0.0210966761978431,-0.08567630602588529, ,0.012596654586981514,0.02091732418815233,-0.08606855314741826, ,0.0005570679014524379, ,0.004975515325940468,0.0009589619237281664,-0.011131413344459839,-0.019664997922245308,-0.035347302901959206,-0.008052398278709938, ,0.012230442501195428, ,0.040449274342329464, ,6.035539083793034e-05, ,0.1580766192025015,-0.23853205028617244,0.09567786861000001,1.6085315564697864,0.1541259717354168,-1.316882141579523, ,0.03652692130811038,0.02071985623547397,0.011618389146608317,0.0049924517123807405,0.0,-3.28369415724724e-05, ,1.2598118782043457
0.012313391369824187,0.02111263265313343,-0.08585355747376575, ,0.0126499951036523,0.0209252517097428,-0.08618999449116416, ,0.0005114719525535362, ,0.004102287435756637,0.000734768063585088,-0.009767961925534065,0.04973885406442047,0.03760958135897673,0.00847756876625818, ,0.010619874127856435, ,0.062357310114492935, ,6.096498539594798e-05, ,0.15867126963381678,-0.238207695505455,0.09586323808000001,1.6087412464132707,0.15535570023330578,-1.3178032239726503, ,0.03666806088039829,0.01946603929404529,0.010230450558766861,0.006516589180845412,0.07490134744652599,-0.06794471549316469, ,1.2705597877502441
0.012358241494922328,0.021115824175987948,-0.08594569642409937, ,0.012703286968034947,0.02093301273556751,-0.08631109255081526, ,0.0005347810118946654, ,0.004442216048318845,0.00036887555854833324,-0.009084283071034774,-0.015251603011856851,-0.02320262575929124,-0.0071355744916853266, ,0.010118969883951865, ,0.02776640370467208, ,6.175396758363144e-05, ,0.15904196081177954,-0.23798373625210248,0.09595916354,1.6087412464132707,0.15562897323283667,-1.318026059780043, ,0.03504318373651063,0.021523461455765655,0.009453300605341247,0.006516589180845412,0.01061017025572857,-0.004995667994045799, ,1.279310941696167
0.012401470528443483,0.021120681401051545,-0.08603647629232648, ,0.01275652999153739,0.02094060837381335,-0.08643184781311984, ,0.000561081239149656, ,0.004944379478587272,0.0006469690070516032,-0.01008372253261951,-0.03637839147758458,-0.04777318868424766,-0.012773697509050327, ,0.011249307420424544, ,0.06004718827139466, ,6.259098169587812e-05, ,0.15938176105824542,-0.23778294519737264,0.09605379271000002,1.6087412464132707,0.15576560973260212,-1.3179741202034583, ,0.03637291742371437,0.021172900838570007,0.010521011571994717,0.006516589180845412,-0.013317336028035174,0.016477726145467907, ,1.2874119281768799
0.012440034980092472,0.021125871045408622,-0.08611202350037263, ,0.012809723987066044,0.02094803973004112,-0.08655226076481941, ,0.0006017497715911709, ,0.005225984564907094,0.000687225899755048,-0.01064632655568756,-0.004873520936873456,-0.03682318017953721,-0.00940120073947333, ,0.01187970804524587, ,0.037144281768318854, ,6.350685963062046e-05, ,0.15966750217459175,-0.23762849053988816,0.0961328664,1.6087412464132707,0.15562897323283667,-1.3176993448194807, ,0.040024015840772156,0.022323439557391384,0.011131244947589101,0.006516589180845412,0.0017152058870893289,-0.016158887722027546, ,1.2977797985076904
0.012440034980092472,0.021125871045408622,-0.08611202350037263, ,0.012862868769022125,0.02095530790718951,-0.08667233189264896, ,0.0007223750353071778, ,0.005225984564907094,0.000687225899755048,-0.01064632655568756,-0.004873520936873456,-0.03682318017953721,-0.00940120073947333, ,0.01187970804524587, ,0.037144281768318854, ,6.467577052384094e-05, ,0.1601617570785421,-0.23733502669066764,0.09627805088000001,1.6087412464132707,0.15658542873119474,-1.318397591405215, ,0.03838873040391213,0.022605274311212665,0.01158459019636364,0.006062292052157064,0.09256843563585787,-0.08621796252283301, ,1.3062539100646973
0.012497384303908036,0.021134474562968873,-0.08625128557904412, ,0.012915964153300158,0.020962414005576205,-0.08679206168333643, ,0.0007051614855485106, ,0.004340633746910904,0.0007620482028996395,-0.011104787019245155,0.06483989068606186,0.052966319672033114,0.012529751950264007, ,0.01194730570175385, ,0.08372360643755722, ,6.579178400414003e-05, ,0.1601617570785421,-0.23733502669066764,0.09627805088000001,1.6087412464132707,0.15658542873119474,-1.318397591405215, ,0.03838873040391213,0.022605274311212665,0.01158459019636364,0.006062292052157064,0.09256843563585787,-0.08621796252283301, ,1.314706802368164
0.012546115901706428,0.021143384161810344,-0.08637588651281954, ,0.012969009957284946,0.02096935912290069,-0.08691145062360127, ,0.0007042393152676026, ,0.0056364654616210845,0.00120009259054952,-0.014333635162277402,0.017212569416218466,0.0022678003711236465,0.0007605475600364968, ,0.015448723639550757, ,0.01736130350505663, ,6.689127199384759e-05, ,0.16055561645512756,-0.23708789923869245,0.09640767988000001,1.6087412464132707,0.15726861123002195,-1.3188730021835569, ,0.04204560990627859,0.026477941283055466,0.01491461752808989,0.005702111025829327,0.044226742608221535,-0.042467199572138646, ,1.3226888179779053
0.012609064157384078,0.021159978804650308,-0.08653479824847495, ,0.013022005999849557,0.020976144354246024,-0.08703049920015503, ,0.0006708468557806398, ,0.0063148130173178345,0.0018641003805077235,-0.015855020529426236,-0.00902023441986366,-0.027601235701273878,-0.011107565013897895, ,0.017167801538368947, ,0.0290377657422927, ,6.790457595893185e-05, ,0.1610035349618326,-0.2368253263209688,0.096573605,1.6091606263002398,0.15754188422955284,-1.3190141592508091, ,0.043630777728032547,0.023379389396026306,0.016592512,0.011079183281157165,0.013826115198693194,-0.012326441764710736, ,1.3320457935333252
0.012635526060423606,0.021168225036354384,-0.08660420777753591, ,0.013074952101350741,0.02098277079208406,-0.08714920789970122, ,0.0007242331498371054, ,0.006436533905392177,0.0018991968440566285,-0.016339572046378023,-0.006548613462631809,-0.023882359736021336,-0.010130466581455392, ,0.01766401800345878, ,0.024763890650952986, ,6.901917857554922e-05, ,0.16118888055081396,-0.2367249307936039,0.09664619724000001,1.6091606263002398,0.15767852072931826,-1.3191255771545054, ,0.04453164784536405,0.024276526364407976,0.017090999484978543,0.011079183281157165,0.01858246243112209,-0.01568008881832332, ,1.340829849243164
0.012735505749381456,0.02119819235775693,-0.08687629612528168, ,0.013127848083629766,0.020989239526272782,-0.08726757720893247, ,0.0005921947985685031, ,0.006120937511670158,0.0019293449452030748,-0.017257130869704523,0.040129362934019155,0.034620450050968275,0.00482566985262209, ,0.018411866113826166, ,0.052999432078918406, ,6.983861956031912e-05, ,0.16189937197524262,-0.23630790321839576,0.09693008475,1.6091606263002398,0.15849833972791091,-1.3197940845766838, ,0.045275258377133004,0.02623636758597478,0.01801901755656109,0.010197322840995265,0.07977410932001333,-0.06441324428889122, ,1.3497428894042969
0.012735505749381456,0.02119819235775693,-0.08687629612528168, ,0.013180693770005993,0.02099555164406462,-0.08738560761453369, ,0.0007061542505978601, ,0.006120937511670158,0.0019293449452030748,-0.017257130869704523,0.040129362934019155,0.034620450050968275,0.00482566985262209, ,0.018411866113826166, ,0.052999432078918406, ,7.10387827202285e-05, ,0.16189937197524262,-0.23630790321839576,0.09693008475,1.6091606263002398,0.15849833972791091,-1.3197940845766838, ,0.045275258377133004,0.02623636758597478,0.01801901755656109,0.010197322840995265,0.07977410932001333,-0.06441324428889122, ,1.355172872543335
0.012799632254445146,0.02121644080754228,-0.08704227505483231, ,0.013233488985277488,0.021001708230103958,-0.08750329960317801, ,0.0006684948592765654, ,0.00650985242356697,0.001501869249968746,-0.015419709122464905,0.0021767022765728857,-0.009198034027816222,-0.004320223071266337, ,0.016804797506725568, ,0.009452036344083871, ,7.214936772832155e-05, ,0.16237045868057032,-0.23605305303354637,0.09710378761,1.6091606263002398,0.15904488572697267,-1.3203214349316101, ,0.04859034385994407,0.026027685561840586,0.016154981257606494,0.009524963808561127,0.038246995985933736,-0.026362238256724905, ,1.360663890838623
0.012799632254445146,0.02121644080754228,-0.08704227505483231, ,0.013286233555715598,0.021007710366433764,-0.08762065366152949, ,0.0007841371283955554, ,0.00650985242356697,0.001501869249968746,-0.015419709122464905,0.0021767022765728857,-0.009198034027816222,-0.004320223071266337, ,0.016804797506725568, ,0.009452036344083871, ,7.349356603281506e-05, ,0.16237045868057032,-0.23605305303354637,0.09710378761,1.6091606263002398,0.15904488572697267,-1.3203214349316101, ,0.04859034385994407,0.026027685561840586,0.016154981257606494,0.009524963808561127,0.038246995985933736,-0.026362238256724905, ,1.3663008213043213
0.012866872382860143,0.021230137676909136,-0.08719846509913945, ,0.013338927309065319,0.02101355913249378,-0.08773767027623991, ,0.0007486550222015392, ,0.007090655880336125,0.001275979182986569,-0.016058609891834243,-0.023185067526010426,-0.03767688575332546,-0.010721927237604833, ,0.017600695308619966, ,0.04423905523779066, ,7.475228546824584e-05, ,0.16286471358452068,-0.2357750346500743,0.09726712015000001,1.6091606263002398,0.15931815872650357,-1.3205442707390032, ,0.05101986105294128,0.030106897702560524,0.016767170021052633,0.008937463436622621,0.011582717766989454,-0.005114331150557158, ,1.37202787399292
0.012939625258907473,0.02124259226911416,-0.08736856444155688, ,0.01339157007454001,0.021019255605126623,-0.08785434993395005, ,0.0007000863707271296, ,0.006810791640753725,0.001213563335711448,-0.016251679511324144,0.024819105853889776,0.01729909914951225,0.011570700654743069, ,0.0176628623298246, ,0.03025302816395829, ,7.589933088447634e-05, ,0.16342075035146486,-0.23544295713648264,0.09744471188,1.6093703162437245,0.15986470472556533,-1.3209899423537887, ,0.05355357875760201,0.031123955906353157,0.016981675394456292,0.0005290880405051254,0.07278383542960261,-0.05543558064096126, ,1.3778948783874512
0.012939625258907473,0.02124259226911416,-0.08736856444155688, ,0.013444161682820114,0.021024800858578715,-0.08797069312128904, ,0.0008151987785280104, ,0.006810791640753725,0.001213563335711448,-0.016251679511324144,0.024819105853889776,0.01729909914951225,0.011570700654743069, ,0.0176628623298246, ,0.03025302816395829, ,7.727567967443289e-05, ,0.16342075035146486,-0.23544295713648264,0.09744471188,1.6093703162437245,0.15986470472556533,-1.3209899423537887, ,0.05355357875760201,0.031123955906353157,0.016981675394456292,0.0005290880405051254,0.07278383542960261,-0.05543558064096126, ,1.3834528923034668
0.013006158959971773,0.021254041014056868,-0.0875232501410626, ,0.013496701966050937,0.021030195964501737,-0.0880867003248728, ,0.0007798815016778294, ,0.007094498950096491,0.0011516000759982559,-0.01638352540418745,0.04202737448821935,0.03448025624064872,0.0070510862299821495, ,0.017890723930506974, ,0.05436163257641539, ,7.856768410073238e-05, ,0.16396134165266057,-0.23514177055438787,0.09760674813,1.609580006187209,0.16068452372415798,-1.3216584497759674, ,0.05832633162782469,0.032343879195116144,0.017164667586206897,0.009956131968322329,0.09311359048207546,-0.07233360391279858, ,1.3888390064239502
0.013006158959971773,0.021254041014056868,-0.0875232501410626, ,0.013549190757838357,0.021035441991957907,-0.0882023720313052, ,0.0008965911039952993, ,0.007094498950096491,0.0011516000759982559,-0.01638352540418745,0.04202737448821935,0.03448025624064872,0.0070510862299821495, ,0.017890723930506974, ,0.05436163257641539, ,8.008919796039048e-05, ,0.16396134165266057,-0.23514177055438787,0.09760674813,1.609580006187209,0.16068452372415798,-1.3216584497759674, ,0.05832633162782469,0.032343879195116144,0.017164667586206897,0.009956131968322329,0.09311359048207546,-0.07233360391279858, ,1.394345998764038
0.01308357707950594,0.02126904757331987,-0.08771314787950661, ,0.013601627893248666,0.02104054000741858,-0.0883177087271757, ,0.0008283031883483263, ,0.00799076166944722,0.0019516628337848774,-0.02091320534652967,0.027239341789030255,0.020686427746134953,-0.002694750372205232, ,0.022472726086098262, ,0.03420388915897495, ,8.145830614159447e-05, ,0.16455599208397587,-0.23478652484217355,0.09780508050000002,1.6097896961306934,0.16150434272275063,-1.3222452784580052, ,0.05807646362207514,0.03548875899718429,0.021820289753424663,0.015644483321554697,0.07730218558129018,-0.05972719106721652, ,1.4001069068908691
0.01308357707950594,0.02126904757331987,-0.08771314787950661, ,0.01365401320880323,0.0210454910747708,-0.08843271089906093, ,0.0009450639262829411, ,0.00799076166944722,0.0019516628337848774,-0.02091320534652967,0.027239341789030255,0.020686427746134953,-0.002694750372205232, ,0.022472726086098262, ,0.03420388915897495, ,8.305452514975724e-05, ,0.16455599208397587,-0.23478652484217355,0.09780508050000002,1.6097896961306934,0.16150434272275063,-1.3222452784580052, ,0.05807646362207514,0.03548875899718429,0.021820289753424663,0.015644483321554697,0.07730218558129018,-0.05972719106721652, ,1.4057509899139404
0.013161898522449813,0.021288085564723114,-0.08791304706399745, ,0.013706346542478128,0.021050296255316386,-0.08854737903352264, ,0.0008691055458013029, ,0.00889601254614855,0.002210414320547788,-0.022482182691412497,0.0033848630841572247,-0.006206441902373816,-0.007841986910596385, ,0.02427907554376325, ,0.00706905053581459, ,8.448337981541127e-05, ,0.16511202885092002,-0.2344544473285819,0.09801378319000001,1.6097896961306934,0.16205088872181236,-1.3223642351122287, ,0.06263824525311602,0.03678176029398092,0.02349382230088496,0.015168970960767051,0.05443509233275968,-0.03722516824441523, ,1.4144458770751953
0.013255552436258186,0.021312004765562522,-0.08815640026674297, ,0.01375862773370026,0.021054956607776478,-0.08866171361710795, ,0.0007579578434020659, ,0.008766493576227363,0.002309232205604036,-0.023018181050148176,0.003332238138218429,0.0005843857884675228,-0.005155761530031262, ,0.024739050544813457, ,0.0033821377762140417, ,8.56756694586729e-05, ,0.1657684611452291,-0.23406058795199644,0.09826785603,1.6097896961306934,0.1627340712206396,-1.3226762884102892, ,0.06036701116951067,0.03682457957255366,0.02402535674208145,0.01354808219060814,0.05946886306496049,-0.03746513006724519, ,1.420158863067627
0.013255552436258186,0.021312004765562522,-0.08815640026674297, ,0.013810856623345207,0.021059473188293026,-0.08877571513634858, ,0.0008693019299582883, ,0.008766493576227363,0.002309232205604036,-0.023018181050148176,0.003332238138218429,0.0005843857884675228,-0.005155761530031262, ,0.024739050544813457, ,0.0033821377762140417, ,8.708282790835222e-05, ,0.1657684611452291,-0.23406058795199644,0.09826785603,1.6097896961306934,0.1627340712206396,-1.3226762884102892, ,0.06036701116951067,0.03682457957255366,0.02402535674208145,0.01354808219060814,0.05946886306496049,-0.03746513006724519, ,1.4259300231933594
0.01334073690312097,0.021331882839599636,-0.08837230474193046, ,0.013863033053734842,0.021063847050431076,-0.08888938407776055, ,0.0007823090775158934, ,0.008883377800431679,0.0017980035594281757,-0.021960539841136512,0.025705245344682524,0.024378073696606384,0.002697166320872912, ,0.023757367868917273, ,0.03542661439947213, ,8.830399943786866e-05, ,0.16637855704229285,-0.2336976195069079,0.09849341049000002,1.6097896961306934,0.16341725371946678,-1.3232333779287713, ,0.06640793670991657,0.039556874347007415,0.02295217798270894,0.012375760790029052,0.0904290472429353,-0.0627110842968013, ,1.4314379692077637
0.01334073690312097,0.021331882839599636,-0.08837230474193046, ,0.01391515686863383,0.021068079245182388,-0.08900272092784395, ,0.0008927346754041565, ,0.008883377800431679,0.0017980035594281757,-0.021960539841136512,0.025705245344682524,0.024378073696606384,0.002697166320872912, ,0.023757367868917273, ,0.03542661439947213, ,8.991608496084719e-05, ,0.16637855704229285,-0.2336976195069079,0.09849341049000002,1.6097896961306934,0.16341725371946678,-1.3232333779287713, ,0.06640793670991657,0.039556874347007415,0.02295217798270894,0.012375760790029052,0.0904290472429353,-0.0627110842968013, ,1.4343039989471436
0.013437931646398837,0.021345485737675095,-0.08859440056748252, ,0.013967227913247959,0.02107217082096682,-0.08911572617308167, ,0.0007916034163954708, ,0.008883377800431679,0.0017980035594281757,-0.021960539841136512,0.025705245344682524,0.024378073696606384,0.002697166320872912, ,0.023757367868917273, ,0.03542661439947213, ,9.131945962371643e-05, ,0.1671199393982184,-0.23324970100020287,0.09872544640000001,1.6097896961306934,0.16423707271805943,-1.3238202066108091, ,0.06987992750991957,0.04206424714471222,0.020876555072083886,0.011283002893260102,0.06348680083773044,-0.039498053517620806, ,1.4373788833618164
0.013437931646398837,0.021345485737675095,-0.08859440056748252, ,0.014019246034221748,0.02107612282363412,-0.08922840029993953, ,0.0009013536806970555, ,0.009141304348012885,0.0010728317861997886,-0.019969672870695964,-0.0001528786407352887,-0.005536571207404823,-0.0030154774053385534, ,0.021988684539714747, ,0.005538394785648033, ,9.29362943963179e-05, ,0.1671199393982184,-0.23324970100020287,0.09872544640000001,1.6097896961306934,0.16423707271805943,-1.3238202066108091, ,0.06987992750991957,0.04206424714471222,0.020876555072083886,0.011283002893260102,0.06348680083773044,-0.039498053517620806, ,1.4403839111328125
0.013437931646398837,0.021345485737675095,-0.08859440056748252, ,0.014071211079633507,0.02107993629646983,-0.08934074379486677, ,0.0010141930582215533, ,0.009141304348012885,0.0010728317861997886,-0.019969672870695964,-0.0001528786407352887,-0.005536571207404823,-0.0030154774053385534, ,0.021988684539714747, ,0.005538394785648033, ,9.477146723262316e-05, ,0.1671199393982184,-0.23324970100020287,0.09872544640000001,1.6097896961306934,0.16423707271805943,-1.3238202066108091, ,0.06987992750991957,0.04206424714471222,0.020876555072083886,0.011283002893260102,0.06348680083773044,-0.039498053517620806, ,1.4431569576263428
0.013437931646398837,0.021345485737675095,-0.08859440056748252, ,0.014123122898996495,0.02108361228019237,-0.08945275714429278, ,0.0011290884701048568, ,0.009141304348012885,0.0010728317861997886,-0.019969672870695964,-0.0001528786407352887,-0.005536571207404823,-0.0030154774053385534, ,0.021988684539714747, ,0.005538394785648033, ,0.0005293952719661052, ,0.1671199393982184,-0.23324970100020287,0.09872544640000001,1.6097896961306934,0.16423707271805943,-1.3238202066108091, ,0.06987992750991957,0.04206424714471222,0.020876555072083886,0.011283002893260102,0.06348680083773044,-0.039498053517620806, ,1.4460208415985107
0.013533496795830062,0.021355598200450757,-0.08880153462525693, ,0.014174981343252926,0.021087151812960336,-0.08956444083462987, ,0.0010322750466027772, ,0.010570897325674431,0.0013148475442412173,-0.023011773646026863,0.0017159759834915662,-0.0026413718524334025,0.010945463917524392, ,0.02535772901248305, ,0.003148803900710323, ,0.0005348025813708007, ,0.16785359902126973,-0.23280178249349784,0.09894192683000001,1.6099993860741781,0.1649202552168866,-1.3242956173891507, ,0.08131700219234857,0.047259433047047196,0.024098050711043876,0.0,0.08090631014554539,-0.04830094119182266, ,1.4489209651947021
0.013533496795830062,0.021355598200450757,-0.08880153462525693, ,0.014226786264773524,0.0210905559303719,-0.08967579535227023, ,0.0011468345615101951, ,0.010570897325674431,0.0013148475442412173,-0.023011773646026863,0.0017159759834915662,-0.0026413718524334025,0.010945463917524392, ,0.02535772901248305, ,0.003148803900710323, ,0.0005413135598829218, ,0.16785359902126973,-0.23280178249349784,0.09894192683000001,1.6099993860741781,0.1649202552168866,-1.3242956173891507, ,0.08131700219234857,0.047259433047047196,0.024098050711043876,0.0,0.08090631014554539,-0.04830094119182266, ,1.4518439769744873
0.013533496795830062,0.021355598200450757,-0.08880153462525693, ,0.01427853751735322,0.021093825665469534,-0.08978682118358747, ,0.0012626955843848813, ,0.010570897325674431,0.0013148475442412173,-0.023011773646026863,0.0017159759834915662,-0.0026413718524334025,0.010945463917524392, ,0.02535772901248305, ,0.003148803900710323, ,0.0005489070548776793, ,0.16785359902126973,-0.23280178249349784,0.09894192683000001,1.6099993860741781,0.1649202552168866,-1.3242956173891507, ,0.08131700219234857,0.047259433047047196,0.024098050711043876,0.0,0.08090631014554539,-0.04830094119182266, ,1.4547088146209717
0.013652297518423227,0.02137687479455462,-0.08907070573368517, ,0.014330234956210768,0.021096962048739433,-0.08989751881493394, ,0.0011052466630340097, ,0.010570897325674431,0.0013148475442412173,-0.023011773646026863,0.0017159759834915662,-0.0026413718524334025,0.010945463917524392, ,0.02535772901248305, ,0.003148803900710323, ,0.0005547022591293078, ,0.16874943603467976,-0.23230752758954748,0.09922451805000002,1.6104187659611469,0.1658767107152447,-1.3250755427150256, ,0.08457837928562457,0.04759124451277371,0.02949779911111111,0.01732343288831097,0.09698369355671585,-0.06450604565841228, ,1.4574480056762695
0.013652297518423227,0.02137687479455462,-0.08907070573368517, ,0.014381878437982923,0.02109996610811822,-0.09000788873264308, ,0.001219540369297076, ,0.011642950157454163,0.00252861675974395,-0.028138230949308323,0.020462094351698244,0.013713943125249005,-0.0020851587823255127, ,0.030556705189585358, ,0.02463233447918917, ,0.0005615562602650579, ,0.16874943603467976,-0.23230752758954748,0.09922451805000002,1.6104187659611469,0.1658767107152447,-1.3250755427150256, ,0.08457837928562457,0.04759124451277371,0.02949779911111111,0.01732343288831097,0.09698369355671585,-0.06450604565841228, ,1.4603688716888428
0.013652297518423227,0.02137687479455462,-0.08907070573368517, ,0.014433467820725725,0.021102838868990535,-0.09011793142302608, ,0.0013349173660248412, ,0.011642950157454163,0.00252861675974395,-0.028138230949308323,0.020462094351698244,0.013713943125249005,-0.0020851587823255127, ,0.030556705189585358, ,0.02463233447918917, ,0.0005694477001197496, ,0.16874943603467976,-0.23230752758954748,0.09922451805000002,1.6104187659611469,0.1658767107152447,-1.3250755427150256, ,0.08457837928562457,0.04759124451277371,0.02949779911111111,0.01732343288831097,0.09698369355671585,-0.06450604565841228, ,1.4631569385528564
0.013652297518423227,0.02137687479455462,-0.08907070573368517, ,0.014485002963908143,0.021105581354195917,-0.09022764737237332, ,0.0014510384023354865, ,0.011642950157454163,0.00252861675974395,-0.028138230949308323,0.020462094351698244,0.013713943125249005,-0.0020851587823255127, ,0.030556705189585358, ,0.02463233447918917, ,0.0005783526567077873, ,0.16874943603467976,-0.23230752758954748,0.09922451805000002,1.6104187659611469,0.1658767107152447,-1.3250755427150256, ,0.08457837928562457,0.04759124451277371,0.02949779911111111,0.01732343288831097,0.09698369355671585,-0.06450604565841228, ,1.4658558368682861
0.013771666803036821,0.02140473078580258,-0.089369112696348, ,0.014536483728412175,0.021108194584028225,-0.09033703706695298, ,0.0012687616937449007, ,0.013440213113763297,0.0034741835153711824,-0.03475314987912755,0.03311630611451295,0.024958267772857843,-0.03921064980145958, ,0.0374231306301725, ,0.04146750734276001, ,0.0005852567470781585, ,0.16959121391797025,-0.2318132726855971,0.09953692394000001,1.610838145848116,0.16683316621360278,-1.3257737893007602, ,0.09222248936683264,0.05491721155004096,0.0363671495890411,0.057057369878563496,0.10703968369720025,-0.07779700475957876, ,1.4686038494110107
0.013771666803036821,0.02140473078580258,-0.089369112696348, ,0.01458790997652849,0.021110679576239844,-0.09044610099301119, ,0.0013829760747267278, ,0.013440213113763297,0.0034741835153711824,-0.03475314987912755,0.03311630611451295,0.024958267772857843,-0.03921064980145958, ,0.0374231306301725, ,0.04146750734276001, ,0.0005931549582429957, ,0.16959121391797025,-0.2318132726855971,0.09953692394000001,1.610838145848116,0.16683316621360278,-1.3257737893007602, ,0.09222248936683264,0.05491721155004096,0.0363671495890411,0.057057369878563496,0.10703968369720025,-0.07779700475957876, ,1.471343994140625
0.013771666803036821,0.02140473078580258,-0.089369112696348, ,0.014639281571955503,0.02111303734604243,-0.09055483963677079, ,0.0014979281782813633, ,0.013440213113763297,0.0034741835153711824,-0.03475314987912755,0.03311630611451295,0.024958267772857843,-0.03921064980145958, ,0.0374231306301725, ,0.04146750734276001, ,0.0006020252839296465, ,0.16959121391797025,-0.2318132726855971,0.09953692394000001,1.610838145848116,0.16683316621360278,-1.3257737893007602, ,0.09222248936683264,0.05491721155004096,0.0363671495890411,0.057057369878563496,0.10703968369720025,-0.07779700475957876, ,1.474031925201416
0.013771666803036821,0.02140473078580258,-0.089369112696348, ,0.01469059837979471,0.02111526890611155,-0.09066325348443162, ,0.001613388918376072, ,0.013440213113763297,0.0034741835153711824,-0.03475314987912755,0.03311630611451295,0.024958267772857843,-0.03921064980145958, ,0.0374231306301725, ,0.04146750734276001, ,0.0006118443483417478, ,0.16959121391797025,-0.2318132726855971,0.09953692394000001,1.610838145848116,0.16683316621360278,-1.3257737893007602, ,0.09222248936683264,0.05491721155004096,0.0363671495890411,0.057057369878563496,0.10703968369720025,-0.07779700475957876, ,1.476759910583496
0.013922055546952222,0.021450294327227167,-0.08978063770356084, ,0.014741860266549845,0.02111737526658747,-0.09077134302216956, ,0.0013283116755985226, ,0.015202504062809733,0.005313171567461367,-0.04405613834934256,0.04918109763780733,0.03656732339257194,-0.02268324188285324, ,0.046907240892440465, ,0.06128444773337564, ,0.0006187334572576782, ,0.17057972372587096,-0.23122634498715605,0.09996729222,1.610838145848116,0.16806289471149174,-1.3266948716938871, ,0.09489694155847078,0.05836220268048633,0.04603702751445087,0.04337801027503924,0.12495447216839634,-0.09945658362686656, ,1.4796719551086426
0.013922055546952222,0.021450294327227167,-0.08978063770356084, ,0.014793067100123245,0.021119357435078104,-0.09087910873613639, ,0.0014404231884242414, ,0.015202504062809733,0.005313171567461367,-0.04405613834934256,0.04918109763780733,0.03656732339257194,-0.02268324188285324, ,0.046907240892440465, ,0.06128444773337564, ,0.0006265590737449788, ,0.17057972372587096,-0.23122634498715605,0.09996729222,1.610838145848116,0.16806289471149174,-1.3266948716938871, ,0.09489694155847078,0.05836220268048633,0.04603702751445087,0.04337801027503924,0.12495447216839634,-0.09945658362686656, ,1.4826068878173828
0.013922055546952222,0.021450294327227167,-0.08978063770356084, ,0.014844218749814068,0.021121216416661114,-0.09098655111245815, ,0.0015533526301819759, ,0.015202504062809733,0.005313171567461367,-0.04405613834934256,0.04918109763780733,0.03656732339257194,-0.02268324188285324, ,0.046907240892440465, ,0.06128444773337564, ,0.0006353024091830636, ,0.17057972372587096,-0.23122634498715605,0.09996729222,1.610838145848116,0.16806289471149174,-1.3266948716938871, ,0.09489694155847078,0.05836220268048633,0.04603702751445087,0.04337801027503924,0.12495447216839634,-0.09945658362686656, ,1.4854748249053955
0.013922055546952222,0.021450294327227167,-0.08978063770356084, ,0.014895315086314233,0.021122953213887696,-0.09109367063723708, ,0.00166686586753701, ,0.015202504062809733,0.005313171567461367,-0.04405613834934256,0.04918109763780733,0.03656732339257194,-0.02268324188285324, ,0.046907240892440465, ,0.06128444773337564, ,0.0006449431891676799, ,0.17057972372587096,-0.23122634498715605,0.09996729222,1.610838145848116,0.16806289471149174,-1.3266948716938871, ,0.09489694155847078,0.05836220268048633,0.04603702751445087,0.04337801027503924,0.12495447216839634,-0.09945658362686656, ,1.4884648323059082
0.01405392109073252,0.021496790222808343,-0.09016794401454566, ,0.014946355981707692,0.021124568826783128,-0.09120046779654878, ,0.0014146003544078661, ,0.01656302657303632,0.005663427432327806,-0.04829421466554936,0.03487594815780441,0.01838684154356927,0.026348065202888894, ,0.05136866194191273, ,0.039422645681098954, ,0.0006520696444013854, ,0.17139061067766453,-0.23071664461745722,0.1003717347,1.6110478357916007,0.16915598670961526,-1.3275862149234587, ,0.10084690920135046,0.06411955510707486,0.05040763139240506,-0.008960803801725582,0.12469718301924464,-0.09945934551854482, ,1.4919829368591309
0.01405392109073252,0.021496790222808343,-0.09016794401454566, ,0.014997341309466415,0.021126064252850622,-0.09130694307644262, ,0.001524728932275886, ,0.01656302657303632,0.005663427432327806,-0.04829421466554936,0.03487594815780441,0.01838684154356927,0.026348065202888894, ,0.05136866194191273, ,0.039422645681098954, ,0.0006600756929139955, ,0.17139061067766453,-0.23071664461745722,0.1003717347,1.6110478357916007,0.16915598670961526,-1.3275862149234587, ,0.10084690920135046,0.06411955510707486,0.05040763139240506,-0.008960803801725582,0.12469718301924464,-0.09945934551854482, ,1.494830846786499
0.014238405359524194,0.02155440921334911,-0.09068037720478798, ,0.015048270944448272,0.02112744048707305,-0.09141309696294131, ,0.001172630718875506, ,0.016826605252179726,0.0048155184449381,-0.04397885090149775,-0.009514144361337629,-0.03874547493801077,-0.000594962669210525, ,0.04733353133691158, ,0.0398944388460324, ,0.0006647352840591001, ,0.17252585241017554,-0.2300138759259028,0.10090710247000001,1.610838145848116,0.1702490787077388,-1.3283958794128896, ,0.10485849895963623,0.06198363263126765,0.04603702751445087,0.005478926670081774,0.06666071179529828,-0.05061176073201269, ,1.498072862625122
0.014238405359524194,0.02155440921334911,-0.09068037720478798, ,0.015099144762894206,0.021128698521916175,-0.09151892994204075, ,0.0012748617989680985, ,0.016826605252179726,0.0048155184449381,-0.04397885090149775,-0.009514144361337629,-0.03874547493801077,-0.000594962669210525, ,0.04733353133691158, ,0.0398944388460324, ,0.0006702319193285505, ,0.17252585241017554,-0.2300138759259028,0.10090710247000001,1.610838145848116,0.1702490787077388,-1.3283958794128896, ,0.10485849895963623,0.06198363263126765,0.04603702751445087,0.005478926670081774,0.06666071179529828,-0.05061176073201269, ,1.5008277893066406
0.014238405359524194,0.02155440921334911,-0.09068037720478798, ,0.015149962642426204,0.021129839347329826,-0.09162444249970866, ,0.0013792953027604333, ,0.016826605252179726,0.0048155184449381,-0.04397885090149775,-0.009514144361337629,-0.03874547493801077,-0.000594962669210525, ,0.04733353133691158, ,0.0398944388460324, ,0.0006765628423949067, ,0.17252585241017554,-0.2300138759259028,0.10090710247000001,1.610838145848116,0.1702490787077388,-1.3283958794128896, ,0.10485849895963623,0.06198363263126765,0.04603702751445087,0.005478926670081774,0.06666071179529828,-0.05061176073201269, ,1.5035548210144043
0.014238405359524194,0.02155440921334911,-0.09068037720478798, ,0.015200724462043668,0.021130863950752008,-0.09172963512188502, ,0.0014853924805024229, ,0.016826605252179726,0.0048155184449381,-0.04397885090149775,-0.009514144361337629,-0.03874547493801077,-0.000594962669210525, ,0.04733353133691158, ,0.0398944388460324, ,0.0006837206268029378, ,0.17252585241017554,-0.2300138759259028,0.10090710247000001,1.610838145848116,0.1702490787077388,-1.3283958794128896, ,0.10485849895963623,0.06198363263126765,0.04603702751445087,0.005478926670081774,0.06666071179529828,-0.05061176073201269, ,1.506260871887207
0.014425547234381447,0.0215903298591184,-0.09113306462174493, ,0.015251430102121774,0.021131773317109796,-0.09183450829448078, ,0.0011765967191298098, ,0.017881823549251098,0.0023030837370531868,-0.04065258219408684,-0.008229990073359181,-0.033766145041076175,0.002002631355379595, ,0.04447129689129177, ,0.03475304673629179, ,0.0006880441012970331, ,0.17376148967005148,-0.22923387990560612,0.10138024832,1.610838145848116,0.17106889770633144,-1.3289827080949275, ,0.12356372598759216,0.07974532904073174,0.042476830720000004,0.005282907521166903,0.09103096463081393,-0.06940936766477648, ,1.509842872619629
0.014425547234381447,0.0215903298591184,-0.09113306462174493, ,0.015302079444408196,0.021132568428822992,-0.09193906250337838, ,0.0012757299194884795, ,0.017881823549251098,0.0023030837370531868,-0.04065258219408684,-0.008229990073359181,-0.033766145041076175,0.002002631355379595, ,0.04447129689129177, ,0.03475304673629179, ,0.0006931544127595674, ,0.17376148967005148,-0.22923387990560612,0.10138024832,1.610838145848116,0.17106889770633144,-1.3289827080949275, ,0.12356372598759216,0.07974532904073174,0.042476830720000004,0.005282907521166903,0.09103096463081393,-0.06940936766477648, ,1.5128059387207031
0.014425547234381447,0.0215903298591184,-0.09113306462174493, ,0.015352672372021184,0.021133250265805238,-0.0920432982344298, ,0.0013773191369933766, ,0.017881823549251098,0.0023030837370531868,-0.04065258219408684,-0.008229990073359181,-0.033766145041076175,0.002002631355379595, ,0.04447129689129177, ,0.03475304673629179, ,0.0006990523845202037, ,0.17376148967005148,-0.22923387990560612,0.10138024832,1.610838145848116,0.17106889770633144,-1.3289827080949275, ,0.12356372598759216,0.07974532904073174,0.042476830720000004,0.005282907521166903,0.09103096463081393,-0.06940936766477648, ,1.5155229568481445
0.014596539016536347,0.021607928215049723,-0.09150983489857784, ,0.01540320876944589,0.021133819805468353,-0.09214721597345774, ,0.0011321437668909264, ,0.01775102639079897,0.001455165684388532,-0.03712792033507993,0.03190086569308349,-0.007180679998904491,0.012993508676740375, ,0.0411788648884826, ,0.03269796394615322, ,0.000702754020266962, ,0.17498168146417895,-0.22845388388530943,0.10177432048000001,1.6110478357916007,0.17216198970445498,-1.3297923725843583, ,0.12981797750816795,0.07981239828298636,0.03972272199501248,0.0021485697737474298,0.12869840347980777,-0.11134025804140735, ,1.5182600021362305
0.014596539016536347,0.021607928215049723,-0.09150983489857784, ,0.015453688522533014,0.021134278022722705,-0.09225081620625353, ,0.0012280484838338138, ,0.01775102639079897,0.001455165684388532,-0.03712792033507993,0.03190086569308349,-0.007180679998904491,0.012993508676740375, ,0.0411788648884826, ,0.03269796394615322, ,0.0007072056682632913, ,0.17498168146417895,-0.22845388388530943,0.10177432048000001,1.6110478357916007,0.17216198970445498,-1.3297923725843583, ,0.12981797750816795,0.07981239828298636,0.03972272199501248,0.0021485697737474298,0.12869840347980777,-0.11134025804140735, ,1.521061897277832
0.014596539016536347,0.021607928215049723,-0.09150983489857784, ,0.015504111518494988,0.02113462588998135,-0.09235409941857799, ,0.0013268328896125841, ,0.01775102639079897,0.001455165684388532,-0.03712792033507993,0.03190086569308349,-0.007180679998904491,0.012993508676740375, ,0.0411788648884826, ,0.03269796394615322, ,0.0007124126197032012, ,0.17498168146417895,-0.22845388388530943,0.10177432048000001,1.6110478357916007,0.17216198970445498,-1.3297923725843583, ,0.12981797750816795,0.07981239828298636,0.03972272199501248,0.0021485697737474298,0.12869840347980777,-0.11134025804140735, ,1.524029016494751
0.014596539016536347,0.021607928215049723,-0.09150983489857784, ,0.0155544776459038,0.021134864377162096,-0.09245706609616117, ,0.0014278244829202629, ,0.01775102639079897,0.001455165684388532,-0.03712792033507993,0.03190086569308349,-0.007180679998904491,0.012993508676740375, ,0.0411788648884826, ,0.03269796394615322, ,0.0007183743852300101, ,0.17498168146417895,-0.22845388388530943,0.10177432048000001,1.6110478357916007,0.17216198970445498,-1.3297923725843583, ,0.12981797750816795,0.07981239828298636,0.03972272199501248,0.0021485697737474298,0.12869840347980777,-0.11134025804140735, ,1.527329921722412
0.014596539016536347,0.021607928215049723,-0.09150983489857784, ,0.015604786794689476,0.02113499445168844,-0.09255971672469926, ,0.0015305168328044753, ,0.01775102639079897,0.001455165684388532,-0.03712792033507993,0.03190086569308349,-0.007180679998904491,0.012993508676740375, ,0.0411788648884826, ,0.03269796394615322, ,0.0007250863062843446, ,0.17498168146417895,-0.22845388388530943,0.10177432048000001,1.6110478357916007,0.17216198970445498,-1.3297923725843583, ,0.12981797750816795,0.07981239828298636,0.03972272199501248,0.0021485697737474298,0.12869840347980777,-0.11134025804140735, ,1.530155897140503
0.014832503292531584,0.02161245925226609,-0.0919536803531935, ,0.015655038856135402,0.021135017078494262,-0.09266205178985701, ,0.0011858776812849392, ,0.017613385157961032,-0.0009100271667580788,-0.02924400699846929,0.012053171533371362,-0.027827730925472926,-0.021269941301020088, ,0.03415071641259434, ,0.03032556947153776, ,0.0007288632847679559, ,0.17680424642249593,-0.22735725581716956,0.10224098488000001,1.6116769056220543,0.17380162770164026,-1.3308843512082937, ,0.141426142412028,0.08488098529380213,0.03081008030947776,0.032512479439562626,0.10919031669007642,-0.0899720563743733, ,1.533984899520874
0.014832503292531584,0.02161245925226609,-0.0919536803531935, ,0.01570523372287717,0.021134933220025173,-0.09276407177726641, ,0.0012831304593570612, ,0.017613385157961032,-0.0009100271667580788,-0.02924400699846929,0.012053171533371362,-0.027827730925472926,-0.021269941301020088, ,0.03415071641259434, ,0.03032556947153776, ,0.0007333695219597373, ,0.17680424642249593,-0.22735725581716956,0.10224098488000001,1.6116769056220543,0.17380162770164026,-1.3308843512082937, ,0.141426142412028,0.08488098529380213,0.03081008030947776,0.032512479439562626,0.10919031669007642,-0.0899720563743733, ,1.5367789268493652
0.014832503292531584,0.02161245925226609,-0.0919536803531935, ,0.01575537128889966,0.02113474383624072,-0.09286577717252549, ,0.0013826850564261743, ,0.017613385157961032,-0.0009100271667580788,-0.02924400699846929,0.012053171533371362,-0.027827730925472926,-0.021269941301020088, ,0.03415071641259434, ,0.03032556947153776, ,0.000738605937560273, ,0.17680424642249593,-0.22735725581716956,0.10224098488000001,1.6116769056220543,0.17380162770164026,-1.3308843512082937, ,0.141426142412028,0.08488098529380213,0.03081008030947776,0.032512479439562626,0.10919031669007642,-0.0899720563743733, ,1.5395259857177734
0.01499977342227508,0.02159898205954894,-0.09222887710448055, ,0.01580545144953385,0.021134449884617882,-0.09296716846119871, ,0.001187426356688489, ,0.017290513309120126,-0.001866497759490238,-0.028294533946750293,-0.03528843577710324,-0.0542107820946879,-0.030095264765595403, ,0.033211839991828924, ,0.06468434478383775, ,0.0007421965009132988, ,0.17814027920973677,-0.2265154779338791,0.10253005755000001,1.6116769056220543,0.17475808319999833,-1.3316642765341684, ,0.13576100366018712,0.0916878662400684,0.02960745635687733,0.032512479439562626,0.07626715711720158,-0.04929936807620436, ,1.542240858078003
0.01499977342227508,0.02159898205954894,-0.09222887710448055, ,0.015855474101455096,0.021134052320152093,-0.09306824612881567, ,0.001285660792720249, ,0.017290513309120126,-0.001866497759490238,-0.028294533946750293,-0.03528843577710324,-0.0542107820946879,-0.030095264765595403, ,0.033211839991828924, ,0.06468434478383775, ,0.0007465097095784332, ,0.17814027920973677,-0.2265154779338791,0.10253005755000001,1.6116769056220543,0.17475808319999833,-1.3316642765341684, ,0.13576100366018712,0.0916878662400684,0.02960745635687733,0.032512479439562626,0.07626715711720158,-0.04929936807620436, ,1.5450007915496826
0.01499977342227508,0.02159898205954894,-0.09222887710448055, ,0.015905439142680194,0.021133552095360584,-0.09316901066087141, ,0.00138589557778839, ,0.017290513309120126,-0.001866497759490238,-0.028294533946750293,-0.03528843577710324,-0.0542107820946879,-0.030095264765595403, ,0.033211839991828924, ,0.06468434478383775, ,0.0007515442439737873, ,0.17814027920973677,-0.2265154779338791,0.10253005755000001,1.6116769056220543,0.17475808319999833,-1.3316642765341684, ,0.13576100366018712,0.0916878662400684,0.02960745635687733,0.032512479439562626,0.07626715711720158,-0.04929936807620436, ,1.5477688312530518
0.01499977342227508,0.02159898205954894,-0.09222887710448055, ,0.015955346472563803,0.02113295016028546,-0.09326946254282542, ,0.0014876570976083865, ,0.018107884674967895,-0.001794497195387238,-0.032002512240689014,-0.026238173510875366,-0.0386291445435895,0.03276721189576485, ,0.036814080150149614, ,0.04669709830118877, ,0.0007572951256428075, ,0.1795689847914683,-0.22550379992735567,0.10285413005,1.6118865955655386,0.17571453869835643,-1.3322808443797625, ,0.13955432582128055,0.09833879954245676,0.033393734842767295,-0.026550221562669608,0.10975622298976734,-0.0750849329854934, ,1.5508239269256592
0.015183133427520827,0.021577242577062283,-0.09253951511778256, ,0.016005195991798376,0.021132247462493457,-0.09336960226010065, ,0.001250140862230533, ,0.018107884674967895,-0.001794497195387238,-0.032002512240689014,-0.026238173510875366,-0.0386291445435895,0.03276721189576485, ,0.036814080150149614, ,0.04669709830118877, ,0.0007611156352287588, ,0.1795689847914683,-0.22550379992735567,0.10285413005,1.6118865955655386,0.17571453869835643,-1.3322808443797625, ,0.13955432582128055,0.09833879954245676,0.033393734842767295,-0.026550221562669608,0.10975622298976734,-0.0750849329854934, ,1.5537469387054443
0.015183133427520827,0.021577242577062283,-0.09253951511778256, ,0.016054987602407797,0.02113144494708274,-0.093469430298085, ,0.0013504101124177479, ,0.018107884674967895,-0.001794497195387238,-0.032002512240689014,-0.026238173510875366,-0.0386291445435895,0.03276721189576485, ,0.036814080150149614, ,0.04669709830118877, ,0.0007656486696686742, ,0.1795689847914683,-0.22550379992735567,0.10285413005,1.6118865955655386,0.17571453869835643,-1.3322808443797625, ,0.13955432582128055,0.09833879954245676,0.033393734842767295,-0.026550221562669608,0.10975622298976734,-0.0750849329854934, ,1.556440830230713
0.015183133427520827,0.021577242577062283,-0.09253951511778256, ,0.01610472120774756,0.021130543556682115,-0.09356894714212884, ,0.0014520999773505621, ,0.018107884674967895,-0.001794497195387238,-0.032002512240689014,-0.026238173510875366,-0.0386291445435895,0.03276721189576485, ,0.036814080150149614, ,0.04669709830118877, ,0.0007708887559868565, ,0.1795689847914683,-0.22550379992735567,0.10285413005,1.6118865955655386,0.17571453869835643,-1.3322808443797625, ,0.13955432582128055,0.09833879954245676,0.033393734842767295,-0.026550221562669608,0.10975622298976734,-0.0750849329854934, ,1.5594069957733154
0.015313604633907662,0.021568100985337808,-0.09277501452196088, ,0.01615439671250228,0.02112954423145286,-0.09366815327754449, ,0.001302674242675813, ,0.018107884674967895,-0.001794497195387238,-0.032002512240689014,-0.026238173510875366,-0.0386291445435895,0.03276721189576485, ,0.036814080150149614, ,0.04669709830118877, ,0.0007749174339163183, ,0.18056521733224326,-0.22482419943442392,0.10310042515000001,1.6116769056220543,0.17653435769694906,-1.3328676730618003, ,0.141426142412028,0.09414379122864167,0.03555538285714287,0.017382271100420853,0.1295716504130507,-0.09139681235889098, ,1.5623269081115723
0.015313604633907662,0.021568100985337808,-0.09277501452196088, ,0.016204014022680843,0.021128447909094808,-0.09376704918960753, ,0.0014036582521675847, ,0.018531033275994802,-0.0008972930886749624,-0.033921785447310344,0.0018527482890646969,-0.0113522416893418,-0.004285887805008812, ,0.03866383138149098, ,0.011500484875759404, ,0.0007796448084896362, ,0.18056521733224326,-0.22482419943442392,0.10310042515000001,1.6116769056220543,0.17653435769694906,-1.3328676730618003, ,0.141426142412028,0.09414379122864167,0.03555538285714287,0.017382271100420853,0.1295716504130507,-0.09139681235889098, ,1.565457820892334
0.015313604633907662,0.021568100985337808,-0.09277501452196088, ,0.01625357304561575,0.021127255524845377,-0.09386563536355462, ,0.0015057686260393553, ,0.018531033275994802,-0.0008972930886749624,-0.033921785447310344,0.0018527482890646969,-0.0113522416893418,-0.004285887805008812, ,0.03866383138149098, ,0.011500484875759404, ,0.0007850636429489623, ,0.18056521733224326,-0.22482419943442392,0.10310042515000001,1.6116769056220543,0.17653435769694906,-1.3328676730618003, ,0.141426142412028,0.09414379122864167,0.03555538285714287,0.017382271100420853,0.1295716504130507,-0.09139681235889098, ,1.5684168338775635
0.015552178578502582,0.021549442779978632,-0.09321146788730605, ,0.016303073689960316,0.02112596801148286,-0.09396391228458326, ,0.0011442669788810304, ,0.019074617950244115,-0.0018564040571118863,-0.03434895011695529,-0.00821914163999166,-0.015247737510902882,-0.0029846420244846006, ,0.0393336708191356, ,0.01732050730059392, ,0.000787724408400311, ,0.18238778229056024,-0.22354994851017687,0.10355671923000001,1.6116769056220543,0.17831063219389978,-1.334316105809854, ,0.14488082680682562,0.10405366398955129,0.035875701621621625,0.013892220944383915,0.12988185000666908,-0.09164975932773002, ,1.5712687969207764
0.015552178578502582,0.021549442779978632,-0.09321146788730605, ,0.016352515865684123,0.021124586299331137,-0.09406188043785287, ,0.0012426762685948485, ,0.019074617950244115,-0.0018564040571118863,-0.03434895011695529,-0.00821914163999166,-0.015247737510902882,-0.0029846420244846006, ,0.0393336708191356, ,0.01732050730059392, ,0.0007910696426664473, ,0.18238778229056024,-0.22354994851017687,0.10355671923000001,1.6116769056220543,0.17831063219389978,-1.334316105809854, ,0.14488082680682562,0.10405366398955129,0.035875701621621625,0.013892220944383915,0.12988185000666908,-0.09164975932773002, ,1.5740079879760742
0.015552178578502582,0.021549442779978632,-0.09321146788730605, ,0.016401899484073574,0.021123111316258197,-0.09415954030848186, ,0.0013426188774617162, ,0.019074617950244115,-0.0018564040571118863,-0.03434895011695529,-0.00821914163999166,-0.015247737510902882,-0.0029846420244846006, ,0.0393336708191356, ,0.01732050730059392, ,0.0007950955494897705, ,0.18238778229056024,-0.22354994851017687,0.10355671923000001,1.6116769056220543,0.17831063219389978,-1.334316105809854, ,0.14488082680682562,0.10405366398955129,0.035875701621621625,0.013892220944383915,0.12988185000666908,-0.09164975932773002, ,1.5767929553985596
0.015552178578502582,0.021549442779978632,-0.09321146788730605, ,0.01645122445772634,0.02112154398768214,-0.09425689238154893, ,0.0014437081569905255, ,0.019074617950244115,-0.0018564040571118863,-0.03434895011695529,-0.00821914163999166,-0.015247737510902882,-0.0029846420244846006, ,0.0393336708191356, ,0.01732050730059392, ,0.0007997956408484716, ,0.18238778229056024,-0.22354994851017687,0.10355671923000001,1.6116769056220543,0.17831063219389978,-1.334316105809854, ,0.14488082680682562,0.10405366398955129,0.035875701621621625,0.013892220944383915,0.12988185000666908,-0.09164975932773002, ,1.579545021057129
0.015751879160109002,0.021533630251973423,-0.0935631591130466, ,0.016500490700550586,0.021119885236571434,-0.094353937142092, ,0.0011648751295624932, ,0.020814594194226328,-0.0012519611553541102,-0.03631321541879464,-0.06377898425667466,-0.09061678764363351,-0.016267777363723694, ,0.041874387783663425, ,0.11081109101939689, ,0.0008024221119902991, ,0.18386282426953712,-0.22252282503790502,0.10392486559000001,1.6116769056220543,0.17913045119249243,-1.334902934491892, ,0.15135078398480187,0.10203972210588257,0.038107204593301434,0.011482432942530213,0.05971764346952873,-0.03450129953347318, ,1.5823018550872803
0.015751879160109002,0.021533630251973423,-0.0935631591130466, ,0.016549698127761168,0.021118135983448746,-0.09445067507510765, ,0.0012636594379956847, ,0.020814594194226328,-0.0012519611553541102,-0.03631321541879464,-0.06377898425667466,-0.09061678764363351,-0.016267777363723694, ,0.041874387783663425, ,0.11081109101939689, ,0.000805716664318909, ,0.18386282426953712,-0.22252282503790502,0.10392486559000001,1.6116769056220543,0.17913045119249243,-1.334902934491892, ,0.15135078398480187,0.10203972210588257,0.038107204593301434,0.011482432942530213,0.05971764346952873,-0.03450129953347318, ,1.584993839263916
0.015751879160109002,0.021533630251973423,-0.0935631591130466, ,0.01659884665587827,0.021116297146391908,-0.09454710666555069, ,0.001363698517262063, ,0.020814594194226328,-0.0012519611553541102,-0.03631321541879464,-0.06377898425667466,-0.09061678764363351,-0.016267777363723694, ,0.041874387783663425, ,0.11081109101939689, ,0.0008096739824248888, ,0.18386282426953712,-0.22252282503790502,0.10392486559000001,1.6116769056220543,0.17913045119249243,-1.334902934491892, ,0.15135078398480187,0.10203972210588257,0.038107204593301434,0.011482432942530213,0.05971764346952873,-0.03450129953347318, ,1.5877349376678467
0.015751879160109002,0.021533630251973423,-0.0935631591130466, ,0.016647936202723874,0.021114369641037488,-0.0946432323983333, ,0.0014646692408499895, ,0.021098401187226064,-0.0012388915254127775,-0.03728436249974361,-0.044008214585374364,-0.0841523597754272,-0.00341204440843489, ,0.041874387783663425, ,0.09496457527324446, ,0.0008142866250898543, ,0.18537647991288514,-0.2215034242985074,0.10431504888000001,1.6118865955655386,0.1798136336913196,-1.3353783452702332, ,0.1520784319847288,0.10326108983511509,0.039137129041769046,0.0,0.06969415655388554,-0.057489655917748704, ,1.5909919738769531
0.015961464945671758,0.021522968636827275,-0.09393479627934195, ,0.01669696668741888,0.021112354380583585,-0.09473905275832578, ,0.0011646438784156609, ,0.021098401187226064,-0.0012388915254127775,-0.03728436249974361,-0.044008214585374364,-0.0841523597754272,-0.00341204440843489, ,0.04285791726018857, ,0.09496457527324446, ,0.0008167366758124124, ,0.18537647991288514,-0.2215034242985074,0.10431504888000001,1.6118865955655386,0.1798136336913196,-1.3353783452702332, ,0.1520784319847288,0.10326108983511509,0.039137129041769046,0.0,0.06969415655388554,-0.057489655917748704, ,1.5940449237823486
0.015961464945671758,0.021522968636827275,-0.09393479627934195, ,0.016745938030381206,0.021110252275791375,-0.09483456823035503, ,0.00126306071870285, ,0.021098401187226064,-0.0012388915254127775,-0.03728436249974361,-0.044008214585374364,-0.0841523597754272,-0.00341204440843489, ,0.04285791726018857, ,0.09496457527324446, ,0.0008198361483324849, ,0.18537647991288514,-0.2215034242985074,0.10431504888000001,1.6118865955655386,0.1798136336913196,-1.3353783452702332, ,0.1520784319847288,0.10326108983511509,0.039137129041769046,0.0,0.06969415655388554,-0.057489655917748704, ,1.5967957973480225
0.015961464945671758,0.021522968636827275,-0.09393479627934195, ,0.016794850153323177,0.02110806423498744,-0.09492977929920365, ,0.001362595969761903, ,0.021098401187226064,-0.0012388915254127775,-0.03728436249974361,-0.044008214585374364,-0.0841523597754272,-0.00341204440843489, ,0.04285791726018857, ,0.09496457527324446, ,0.0008235793195147567, ,0.18537647991288514,-0.2215034242985074,0.10431504888000001,1.6118865955655386,0.1798136336913196,-1.3353783452702332, ,0.1520784319847288,0.10326108983511509,0.039137129041769046,0.0,0.06969415655388554,-0.057489655917748704, ,1.5996179580688477
0.016165949107685547,0.021508103021382733,-0.09429652061384479, ,0.016843702979248407,0.02110579116406705,-0.09502468644961054, ,0.0010730473546548048, ,0.020081791573099805,-0.001779603815349811,-0.03519570920847944,0.005524467428466509,-0.02183956964202871,-0.01319346271669236, ,0.04056085907883208, ,0.02252626324310021, ,0.0008252880046869488, ,0.1868824128233589,-0.2204685780933613,0.10469486185000001,1.6123059754525078,0.18090672568944316,-1.3362696884998049, ,0.1496797185464839,0.10348630486201829,0.036957799350348035,0.02307692978155198,0.12599932907366754,-0.10300266053369699, ,1.6025359630584717
0.016165949107685547,0.021508103021382733,-0.09429652061384479, ,0.01689249643244955,0.021103433966495964,-0.09511929016626963, ,0.0011698622976667188, ,0.020081791573099805,-0.001779603815349811,-0.03519570920847944,0.005524467428466509,-0.02183956964202871,-0.01319346271669236, ,0.04056085907883208, ,0.02252626324310021, ,0.000827632047496335, ,0.1868824128233589,-0.2204685780933613,0.10469486185000001,1.6123059754525078,0.18090672568944316,-1.3362696884998049, ,0.1496797185464839,0.10348630486201829,0.036957799350348035,0.02307692978155198,0.12599932907366754,-0.10300266053369699, ,1.6054649353027344
0.016165949107685547,0.021508103021382733,-0.09429652061384479, ,0.016941230438504627,0.021100993543314194,-0.09521359093383074, ,0.0012679973347168234, ,0.020081791573099805,-0.001779603815349811,-0.03519570920847944,0.005524467428466509,-0.02183956964202871,-0.01319346271669236, ,0.04056085907883208, ,0.02252626324310021, ,0.0008306074886262031, ,0.1868824128233589,-0.2204685780933613,0.10469486185000001,1.6123059754525078,0.18090672568944316,-1.3362696884998049, ,0.1496797185464839,0.10348630486201829,0.036957799350348035,0.02307692978155198,0.12599932907366754,-0.10300266053369699, ,1.6084389686584473
0.016165949107685547,0.021508103021382733,-0.09429652061384479, ,0.01698990492427679,0.021098470793135725,-0.09530758923689646, ,0.001367099671067458, ,0.020081791573099805,-0.001779603815349811,-0.03519570920847944,0.005524467428466509,-0.02183956964202871,-0.01319346271669236, ,0.04056085907883208, ,0.02252626324310021, ,0.0008342081073003055, ,0.1868824128233589,-0.2204685780933613,0.10469486185000001,1.6123059754525078,0.18090672568944316,-1.3362696884998049, ,0.1496797185464839,0.10348630486201829,0.036957799350348035,0.02307692978155198,0.12599932907366754,-0.10300266053369699, ,1.612426996231079
0.016311191099367683,0.02149378370610136,-0.09455232342440636, ,0.01703851981790915,0.021095866612153926,-0.09540128556002422, ,0.001186626220080939, ,0.019277207446423424,-0.002046144244178915,-0.03398534938921029,0.011864665944325087,-0.008780688341846702,-0.013135540922477972, ,0.039125457266428534, ,0.014758910803627661, ,0.0008365575613855097, ,0.18796359542575033,-0.21970402753881307,0.10496319388000001,1.6125156653959922,0.18186318118780123,-1.3370496138256796, ,0.14356572096591644,0.1027023177039727,0.03563492510067114,0.024556830978103034,0.13280496560654564,-0.10824217793651802, ,1.6152939796447754
0.016311191099367683,0.02149378370610136,-0.09455232342440636, ,0.017087075048823806,0.021093181894141853,-0.09549468038772435, ,0.001284723457045433, ,0.019277207446423424,-0.002046144244178915,-0.03398534938921029,0.011864665944325087,-0.008780688341846702,-0.013135540922477972, ,0.039125457266428534, ,0.014758910803627661, ,0.0008395255474494828, ,0.18796359542575033,-0.21970402753881307,0.10496319388000001,1.6125156653959922,0.18186318118780123,-1.3370496138256796, ,0.14356572096591644,0.1027023177039727,0.03563492510067114,0.024556830978103034,0.13280496560654564,-0.10824217793651802, ,1.6180739402770996
0.016311191099367683,0.02149378370610136,-0.09455232342440636, ,0.01713557054771808,0.021090417530456606,-0.09558777420446075, ,0.001383641595367825, ,0.019277207446423424,-0.002046144244178915,-0.03398534938921029,0.011864665944325087,-0.008780688341846702,-0.013135540922477972, ,0.039125457266428534, ,0.014758910803627661, ,0.0008431052582910509, ,0.18796359542575033,-0.21970402753881307,0.10496319388000001,1.6125156653959922,0.18186318118780123,-1.3370496138256796, ,0.14356572096591644,0.1027023177039727,0.03563492510067114,0.024556830978103034,0.13280496560654564,-0.10824217793651802, ,1.6208138465881348
0.016608321165564557,0.021464542841603793,-0.0950657290671079, ,0.017184006246562515,0.021087574410040257,-0.09568056749464951, ,0.0009227918524027682, ,0.01954378737194835,-0.0017848388616463,-0.03305674066301283,-0.0392278089702818,-0.07519620645366805,-0.02836722397587638, ,0.0384433788559702, ,0.084813035487653, ,0.0008436260857035457, ,0.19013368336340744,-0.21818264916259084,0.10550245052000001,1.6125156653959922,0.18336618268522106,-1.3381935320261997, ,0.13975985501983915,0.09693252457453604,0.034779064454148474,0.024556830978103034,0.06076964006826927,-0.05142192865147796, ,1.6237428188323975
0.016608321165564557,0.021464542841603793,-0.0950657290671079, ,0.01723238207859984,0.021084653419421114,-0.09577306074265689, ,0.0010169002387155053, ,0.01954378737194835,-0.0017848388616463,-0.03305674066301283,-0.0392278089702818,-0.07519620645366805,-0.02836722397587638, ,0.0384433788559702, ,0.084813035487653, ,0.0008447512425412858, ,0.19013368336340744,-0.21818264916259084,0.10550245052000001,1.6125156653959922,0.18336618268522106,-1.3381935320261997, ,0.13975985501983915,0.09693252457453604,0.034779064454148474,0.024556830978103034,0.06076964006826927,-0.05142192865147796, ,1.6265678405761719
0.016608321165564557,0.021464542841603793,-0.0950657290671079, ,0.017280697978336697,0.021081655442722662,-0.09586525443280457, ,0.0011126248914022922, ,0.01954378737194835,-0.0017848388616463,-0.03305674066301283,-0.0392278089702818,-0.07519620645366805,-0.02836722397587638, ,0.0384433788559702, ,0.084813035487653, ,0.0008464794596307117, ,0.19013368336340744,-0.21818264916259084,0.10550245052000001,1.6125156653959922,0.18336618268522106,-1.3381935320261997, ,0.13975985501983915,0.09693252457453604,0.034779064454148474,0.024556830978103034,0.06076964006826927,-0.05142192865147796, ,1.629361867904663
0.016608321165564557,0.021464542841603793,-0.0950657290671079, ,0.01732895388154994,0.021078581361655118,-0.09595714904936056, ,0.0012095070731963367, ,0.01954378737194835,-0.0017848388616463,-0.03305674066301283,-0.0392278089702818,-0.07519620645366805,-0.02836722397587638, ,0.0384433788559702, ,0.084813035487653, ,0.0008488065597176708, ,0.19013368336340744,-0.21818264916259084,0.10550245052000001,1.6125156653959922,0.18336618268522106,-1.3381935320261997, ,0.13975985501983915,0.09693252457453604,0.034779064454148474,0.024556830978103034,0.06076964006826927,-0.05142192865147796, ,1.632159948348999
0.01679459535768911,0.02144599089512714,-0.09538527207935729, ,0.017377149725275574,0.02107543205552836,-0.09604874507654622, ,0.0009575384393316628, ,0.018465509306540027,-0.001844406068374528,-0.03226436574536173,-0.014622868709330668,-0.04000159947452946,-0.021892388694082884, ,0.03722050731311227, ,0.04259015480424824, ,0.000849499119460435, ,0.19146199341777403,-0.21724047575193545,0.10583818963000001,1.6125156653959922,0.1840493651840483,-1.3387506215446818, ,0.1319846196918926,0.09489694155847078,0.03389108834042554,0.024556830978103034,0.08889906308181701,-0.07398018462776819, ,1.6348857879638672
0.01679459535768911,0.02144599089512714,-0.09538527207935729, ,0.017425285447810815,0.021072208401248665,-0.09614004299853232, ,0.0010522178875784502, ,0.018465509306540027,-0.001844406068374528,-0.03226436574536173,-0.014622868709330668,-0.04000159947452946,-0.021892388694082884, ,0.03722050731311227, ,0.04259015480424824, ,0.0008507821496383972, ,0.19146199341777403,-0.21724047575193545,0.10583818963000001,1.6125156653959922,0.1840493651840483,-1.3387506215446818, ,0.1319846196918926,0.09489694155847078,0.03389108834042554,0.024556830978103034,0.08889906308181701,-0.07398018462776819, ,1.6376328468322754
0.01679459535768911,0.02144599089512714,-0.09538527207935729, ,0.01747336098871035,0.02106891127332227,-0.09623104329943874, ,0.0011481466717080304, ,0.018465509306540027,-0.001844406068374528,-0.03226436574536173,-0.014622868709330668,-0.04000159947452946,-0.021892388694082884, ,0.03722050731311227, ,0.04259015480424824, ,0.000852652366758332, ,0.19146199341777403,-0.21724047575193545,0.10583818963000001,1.6125156653959922,0.1840493651840483,-1.3387506215446818, ,0.1319846196918926,0.09489694155847078,0.03389108834042554,0.024556830978103034,0.08889906308181701,-0.07398018462776819, ,1.6403658390045166
0.016948113756994503,0.021427957609781743,-0.09565702049974079, ,0.01752137628878361,0.02106554154385833,-0.09632174646333436, ,0.0009496504314051895, ,0.017165539131178794,-0.002348996967696212,-0.030396615256347383,0.022777362791301516,0.011030020969921107,-0.00936214126905255, ,0.03498753691617469, ,0.02530698854060804, ,0.0008532586046623748, ,0.1925817896845366,-0.21642186606726765,0.10612337343000001,1.6125156653959922,0.18514245718217182,-1.3396419647742532, ,0.12602515479212587,0.09499193349196275,0.031857623040000005,0.022063620376258676,0.13565402336899982,-0.11190667557581571, ,1.6475088596343994
0.016948113756994503,0.021427957609781743,-0.09565702049974079, ,0.017569331290092055,0.021062100082571065,-0.09641215297423641, ,0.001044024907596755, ,0.017165539131178794,-0.002348996967696212,-0.030396615256347383,0.022777362791301516,0.011030020969921107,-0.00936214126905255, ,0.03498753691617469, ,0.02530698854060804, ,0.0008544434885315325, ,0.1925817896845366,-0.21642186606726765,0.10612337343000001,1.6125156653959922,0.18514245718217182,-1.3396419647742532, ,0.12602515479212587,0.09499193349196275,0.031857623040000005,0.022063620376258676,0.13565402336899982,-0.11190667557581571, ,1.6503379344940186
0.016948113756994503,0.021427957609781743,-0.09565702049974079, ,0.01761722593594664,0.021058587756782564,-0.09650226331611084, ,0.0011395528135860523, ,0.017165539131178794,-0.002348996967696212,-0.030396615256347383,0.022777362791301516,0.011030020969921107,-0.00936214126905255, ,0.03498753691617469, ,0.02530698854060804, ,0.0008562034226368072, ,0.1925817896845366,-0.21642186606726765,0.10612337343000001,1.6125156653959922,0.18514245718217182,-1.3396419647742532, ,0.12602515479212587,0.09499193349196275,0.031857623040000005,0.022063620376258676,0.13565402336899982,-0.11190667557581571, ,1.6530919075012207
