NicholasDascanio/dvrk_moveit_final/test/execution/third_experiment_notsharpbends/thirdexp_400vel3.0/thirdexp_400vel3.0_2.csv
Current Position (x),Current Position (y),Current Position (z), ,Planned Position (x),Planned Position (y),Planned Position (z), ,Position Error,,Cartesian linear Velocity(x),Cartesian linear Velocity(y),Cartesian linear Velocity(z),Cartesian Angular Velocity(x),Cartesian Angular Velocity(y),Cartesian Angular Velocity(z), ,Total Linear Velocity, ,Total Angular Velocity, ,MSE, ,Joint 1 Position,Joint 2 Position,Joint 3 Position,Joint 4 Position,Joint 5 Position,Joint 6 Position, ,Joint 1 Velocity,Joint 2 Velocity,Joint 3 Velocity,Joint 4 Velocity,Joint 5 Velocity,Joint 6 Velocity, ,Time Stamp
0.010052403079454316,0.020259590056541783,-0.07961609908442079, ,0.010206316200102244,0.02021273080977121,-0.0796421642204452, ,0.0001629859780209956, ,-4.617555401619869e-05,-5.831015818955943e-06,-7.313963861451587e-06,0.15246314225021945,0.0015106907439556797,-0.0034928981114098812, ,4.711344395764777e-05, ,0.1524706264541945, ,1.3582164835082967e-05, ,0.14265432165267514,-0.2467490380643473,0.08935845486,1.6055958972610032,0.15111996874057715,-1.3156561288003101, ,-0.0005835956479217087,0.00010021651750928165,0.0,0.0016646249238259684,0.0,-0.1523453418647165, ,0.030852794647216797
0.010075575189891169,0.02026281250236823,-0.07962622570449424, ,0.010208971700507385,0.020245896186104125,-0.0797183325706681, ,0.00016298609019453047, ,0.0013187172306375432,5.6652177491188e-05,-0.00016446613834308858,0.16861656255347746,-0.13962119445583313,-0.03901726676736387, ,0.0013301404866615904, ,0.21891921594191852, ,1.4816912191614823e-05, ,0.14264659891980092,-0.24675676079722153,0.08936882518000001,1.6055958972610032,0.14866051174479922,-1.322145195508393, ,-0.00030924061578710535,-0.00015231871578484242,0.00015810311125845456,0.00160236566876388,-0.14528076997257822,-0.16821525878439558, ,0.05827784538269043
0.010113839509270478,0.020271416624892975,-0.07965489436198928, ,0.010212008884905512,0.020278604257860013,-0.07979447085898381, ,0.0001707936968787362, ,0.0013960465448595802,0.00043645616517073147,-0.0014172138244054988,0.18689074269217035,-0.1286928907130323,-0.03554129989294641, ,0.0020366479724331283, ,0.2269141023032764, ,1.5523930159195696e-05, ,0.1426388761869267,-0.24677220626296997,0.08939863985,1.6055958972610032,0.14483468975136687,-1.3274384044393712, ,-0.0003024323530194045,-0.000868024318460362,0.001484011057092971,0.0015535409851491185,-0.13385604767242093,-0.18578570673436862, ,0.08597993850708008
0.010147696425056543,0.020282529045655813,-0.07969601379099102, ,0.010215425777531673,0.020310857614376253,-0.07987057900494267, ,0.0001893747261765261, ,0.00020854480733484526,0.0005296598286152649,-0.001833090137118156,-0.13704706563476848,0.000891976762761417,-0.0008966192829898406, ,0.0019194400020617834, ,0.13704996833865066, ,1.63366783635902e-05, ,0.14263115345405247,-0.2467799289958442,0.08944141742,1.6055958972610032,0.14169205025676176,-1.3278162272994136, ,-0.0006749380475230441,-0.0007359236246627125,0.0019185109618758865,0.001507804064768853,0.0,0.13798416289407486, ,0.11381196975708008
0.010148909677148018,0.020310626630985627,-0.07979116579129758, ,0.010219220407608118,0.020342658838604744,-0.07994665692795075, ,0.00017362936019141916, ,-0.00022451108979026723,0.000982525769635136,-0.0031923633335196903,0.004186725959074773,0.06456248363370297,0.014924576727560116, ,0.0033476776682704805, ,0.06469809090596874, ,1.653403560504245e-05, ,0.14260026252255556,-0.24682626539308955,0.08954123175,1.6055958972610032,0.14278514225488526,-1.3248686697423788, ,-0.0011194872441197133,-0.0019990383943918593,0.0033590914213412065,0.0014648430325204362,0.06509338878602973,-0.0020233235214357492, ,0.14385485649108887
0.01015356674238754,0.020332723010731114,-0.07986278039884626, ,0.01022339080934538,0.020374010507119365,-0.08002270454727134, ,0.00017932035839254528, ,0.00016672687843884815,0.0006542522383303684,-0.0016261704921428433,0.031416490984257514,-0.000999372057243331,-0.0017335143528237015, ,0.0017607595840631839, ,0.03143238219195867, ,1.6759519513786336e-05, ,0.14256164885818445,-0.2468726017903349,0.08961641657000001,1.6055958972610032,0.14305841525441615,-1.325173184289912, ,-0.001109116629919921,-0.0028169315340084854,0.001741900668366162,0.001423618621198055,-0.0025771801346697325,-0.028431659993038292, ,0.17354178428649902
0.01015778910382546,0.02034503281318096,-0.0799010491038136, ,0.010227935021927852,0.020404915190121057,-0.08009872178202582, ,0.00021813032023543783, ,0.00015334354535788072,0.0006444989153454225,-0.002075515691682039,-0.0010598331917471785,0.0021147447646404902,-0.001132351836464828, ,0.0021786827399148147, ,0.002365458047691473, ,1.7461396251252646e-05, ,0.1425384806595618,-0.2469034927218318,0.08965400898,1.6055958972610032,0.14292177875465073,-1.3251434451263562, ,-0.001514864144972797,-0.0013860702791782006,0.00212639320784942,0.0013981305103629895,0.0,0.0026555347356044664, ,0.20145797729492188
0.010163962866023155,0.020368727837394053,-0.07997912957323064, ,0.010232851089515905,0.020435375451444738,-0.08017470855119321, ,0.00021780410559840477, ,0.0003533544845438491,0.0008700634980259716,-0.003107477950259913,-0.0044598734647311135,0.0014599896905151193,-0.0011482794424493483, ,0.003246273108303734, ,0.004692764742458534, ,1.7988105313275554e-05, ,0.14246897606369374,-0.24694982911907715,0.08973826783000001,1.6055958972610032,0.14292177875465073,-1.3253068026066375, ,-0.0011353330054293149,-0.0009303069316845855,0.0032454791198044015,0.0013605556873996032,0.0,0.005568144553733896, ,0.22875595092773438
0.010175075525565548,0.020397490568040934,-0.08007415803040134, ,0.010238137061237745,0.020465393848566094,-0.08025066477361148, ,0.000199354566504167, ,0.0003753552259998757,0.0009232216625090232,-0.003176421483239756,-0.0009828690697067256,0.001304737079510151,-0.0010708962586964978, ,0.0033290964574488368, ,0.001633514656032085, ,1.819977393687785e-05, ,0.14243808513219686,-0.24700388824919672,0.08983808216000001,1.6055958972610032,0.14292177875465073,-1.3252251238664967, ,-0.0009842018142622627,-0.0013377664783133343,0.003327514418216002,0.001325550724105245,0.0,0.0024895806523062562, ,0.25641393661499023
0.010183227471623995,0.020417706059755836,-0.08013551794966277, ,0.010243790991182992,0.02049497293260712,-0.08032659036797864, ,0.00021481801270532182, ,0.00018888886705634763,0.0005895544623743173,-0.0017934145666934542,0.0027827071025361355,0.0011548052987607148,-0.0010249332553352742, ,0.001897258357797264, ,0.003012811656575687, ,1.852154132253024e-05, ,0.1424149169335742,-0.2470579473793163,0.08990289666000001,1.6055958972610032,0.14278514225488526,-1.3249503484825191, ,-0.0008373788168387188,-0.0015485452408924782,0.0018926478722077727,0.0012918045022086001,0.0,-0.0010720637885462435, ,0.2875030040740967
0.010186147050423821,0.02043127788944077,-0.08017346589251283, ,0.010249810938401455,0.020524115248343293,-0.08040248525285215, ,0.0002551896025520208, ,0.00017394764039240014,0.0008005512861559476,-0.00228488451380457,0.0036583827662054974,0.00219468716558217,-0.0008589412229534372, ,0.0024273107309918055, ,0.004266194575563145, ,1.9318800157208155e-05, ,0.14238402600207728,-0.24710428377656163,0.08994308165,1.6055958972610032,0.14278514225488526,-1.3249503484825191, ,-0.0018823876301583846,-0.0025761819601553557,0.002415286053070508,0.0012713786639318133,0.0,-0.0009333451358035621, ,0.3134768009185791
0.010198207163727182,0.020463545298700016,-0.0802796090759955, ,0.010256194966894127,0.020552823334209467,-0.08047834934665045, ,0.0002254569762073382, ,0.0005335104221861484,0.0012616874138176315,-0.004037306749436889,0.00361109642561036,0.0008568723163427252,-0.0008101561967129703, ,0.00426337123528033, ,0.0037113671994183943, ,1.9748698280478695e-05, ,0.14234541233770617,-0.24716606563955543,0.09005456259000001,1.6055958972610032,0.14278514225488526,-1.3248686697423786, ,-0.000552554220160101,-0.0026990365491237453,0.004257902036888533,0.0012393666337108327,0.0,-0.0007688843284649509, ,0.3379688262939453
0.010210958741937363,0.02049265369753747,-0.08037299259345328, ,0.010262941145609468,0.020581099722306442,-0.08055418256765356, ,0.00020821785787886865, ,0.0004946534948299314,0.0012005915047333345,-0.0034512336302584953,-0.0009149020492132696,0.0002906246630934364,-0.0006196199703928295, ,0.003687426692398447, ,0.0009599520638128514, ,1.998497404291715e-05, ,0.14233768960483195,-0.24722784750254923,0.09015308063000001,1.6055958972610032,0.14278514225488526,-1.324786991002238, ,0.0,-0.0037014417685760884,0.0036744663252595154,0.0012153422952186751,0.0,0.004746131799208461, ,0.3645358085632324
0.01021634053964454,0.020511311283138017,-0.08042819807647637, ,0.010270047548438799,0.02060894693840732,-0.08062998483400324, ,0.000230510432489943, ,0.00019101093735322166,0.0008771794452942366,-0.0022861896036479447,-0.0040247116581390435,0.0019501528462940692,-0.0006254193928068292, ,0.002456133518614818, ,0.004472292476193284, ,2.035197162337866e-05, ,0.14230679867333504,-0.2472819066326688,0.09021141368,1.6055958972610032,0.14278514225488526,-1.3245419547818162, ,-0.0016681308364625933,-0.0034423714735207353,0.0024374615944912016,0.0011968560093754803,0.0,0.007596959857398776, ,0.3910977840423584
0.010223282924330739,0.02054008215088952,-0.08050757983804332, ,0.010277512254210978,0.0206363675019639,-0.08070575606370389, ,0.00022690417684089598, ,0.0003577725719892104,0.0009822677063983222,-0.002899840833388436,0.00876642954248272,0.000997107580539423,-0.0007491172175667871, ,0.0030825197354255067, ,0.008822953601001637, ,2.0649498373245926e-05, ,0.14225273954321546,-0.2473823021600337,0.09029567253000001,1.6055958972610032,0.14278514225488526,-1.324215239821254, ,-0.0007027653716133377,-0.002811089953565197,0.0030738733153222704,0.0011674494868750094,0.0,-0.005823326602079827, ,0.41575098037719727
0.01023165871677455,0.020562557860197027,-0.08057490761470121, ,0.01028533334668694,0.020663363926113284,-0.08078149617462299, ,0.00023605436219714505, ,0.0004252437486172999,0.0010949909180989117,-0.0033790277070173654,0.005895472353847451,0.0010018085456978147,-0.000735802388686417, ,0.00357738250698024, ,0.005979984464586822, ,2.0971350147848053e-05, ,0.14223729407746702,-0.2474440840230275,0.09036696848,1.6055958972610032,0.14278514225488526,-1.324215239821254, ,-0.0007156579790612766,-0.0026964126579584542,0.0035706818022864834,0.0011499634813388242,0.0,-0.0030682728707266856, ,0.440781831741333
0.010239811281488284,0.020590426199303125,-0.08065840802891834, ,0.01029350891455303,0.02068993871768367,-0.08085720508449232, ,0.00022870602619099798, ,0.0002796034781691357,0.0010207001091028672,-0.002759017182263137,0.008394688700782523,0.0016886244120634096,-0.0005821339327635443, ,0.0029550266715801573, ,0.008562841270757645, ,2.1213555450032088e-05, ,0.14219095768022166,-0.24752131135176977,0.0904551162,1.6055958972610032,0.14278514225488526,-1.324051882340973, ,-0.00140556326000031,-0.0036825371457118554,0.002938352982844494,0.0011276755730267034,0.0,-0.004594435580310629, ,0.4683690071105957
0.010250893764761234,0.020621774690792433,-0.08074469064939473, ,0.01030203705141885,0.0207160943772013,-0.08093288271090743, ,0.00021662892473261816, ,0.000363927418070285,0.0008813908902005682,-0.0025420182320876226,0.0020026225147313195,0.0002686945522775174,-0.000675425937666108, ,0.002714986143466986, ,0.0020205676412307838, ,2.136129640222938e-05, ,0.14217551221447322,-0.2476294296120089,0.09054715279000002,1.6055958972610032,0.14278514225488526,-1.3241335610811138, ,0.0,-0.0026639723696449363,0.0027057604076779346,0.0011009981808915103,0.0,0.0007857319584747799, ,0.49278783798217773
0.010258542414627134,0.020643012829627837,-0.08080719842351326, ,0.010310915855811788,0.02074183339889691,-0.08100852897132947, ,0.00023030951290852196, ,0.0003403793134811172,0.0011772020984839886,-0.003677985681114461,-0.0003748233816073357,0.002522440197807111,-0.0006305445761102069, ,0.003876756573245732, ,0.002550136554355145, ,2.156926276992587e-05, ,0.14214462128297634,-0.2476912114750027,0.09061326358,1.6055958972610032,0.1426485057551198,-1.3238587856971362, ,-0.0022611820263563095,-0.0027933001376212133,0.0038680941039339486,0.0010852832086908578,0.0,0.0032890487651896453, ,0.5179488658905029
0.010268995651054888,0.02067060244097705,-0.0808891285308723, ,0.010320143431166365,0.02076715827071125,-0.08108414378308505, ,0.0002235398672756095, ,0.00025815568867097884,0.0007251643983732534,-0.0021698368672253025,0.0048300744220980745,0.000901301795977028,-0.0007554998878029156, ,0.0023023248673094215, ,0.004913447242246378, ,2.1722473719646063e-05, ,0.14212917581722787,-0.24776843880374494,0.09070011501000001,1.6055958972610032,0.1426485057551198,-1.3234503919964333, ,-0.0006361389684859801,-0.0019700589078392007,0.0022965414532871977,0.0010647542213539326,0.0,-0.0027336925859443263, ,0.5470578670501709
0.010277868137836151,0.020690262604392873,-0.08094244820956913, ,0.010329717885828094,0.020792071474302756,-0.08115972706336713, ,0.00024548633906376627, ,0.00029808960683895666,0.0007795044718000038,-0.0023271113734314214,0.022127223266402183,0.000813157565699276,0.00031624625880437784, ,0.002472232185620008, ,0.022142159665209188, ,2.197115071261597e-05, ,0.14212917581722787,-0.24783794339961296,0.09075715177,1.6055958972610032,0.1425118692553544,-1.3231756166124555, ,-0.00037732990103549934,-0.002138235796440655,0.0024665239269123567,0.0,0.0004198209278974108,-0.020010895860171365, ,0.5714600086212158
0.01028333237262568,0.02070740106656643,-0.08099398509254585, ,0.010339637333041208,0.020816575485052946,-0.0812352787292355, ,0.0002707617427299868, ,0.00042968206571531613,0.0009775650696313917,-0.0032523950051486397,0.01623672545919671,0.0008073869829538985,0.00027551537141793335, ,0.0034232051373641968, ,0.0162567871061179, ,2.2425660459166493e-05, ,0.1421060076186052,-0.24788427979685831,0.09081159595,1.6055958972610032,0.1425118692553544,-1.3231756166124555, ,-0.00038687757279677257,-0.001692563735708095,0.003421136494845361,0.0,0.0004120873100580333,-0.014561508555136526, ,0.5936379432678223
0.010296974523168594,0.02074323782298279,-0.08110709835948104, ,0.0103498998909456,0.020840672772073104,-0.08131079869761784, ,0.00023192346068392678, ,0.0004681316972247672,0.0011942895605815548,-0.003967241620526383,0.0066612606189821125,0.0015423013918706501,0.00037234620946716726, ,0.004169470100156304, ,0.006837476554593634, ,2.2667679708063242e-05, ,0.14207511668710832,-0.24796150712560056,0.09093085463000002,1.6058055872044876,0.1425118692553544,-1.323257295352596, ,-0.0011603575524566884,-0.0021001636485218135,0.004166573769291133,0.0,0.0003882282422821128,-0.0045823436893046784, ,0.6152548789978027
0.01030904574634271,0.02076956731020292,-0.08119588348384875, ,0.0103605036825742,0.020864365798210903,-0.08138628688530923, ,0.00021883356190841691, ,0.0004960147330406065,0.0009880262284214225,-0.0034837180540060225,0.002591007577508376,0.00034887253428667194,0.00024276621157693213, ,0.0036549306317972046, ,0.0026143893739781934, ,2.2834311371369516e-05, ,0.14206739395423407,-0.2480001207899717,0.09102418751000001,1.6060152771479719,0.1425118692553544,-1.323093937872315, ,1.339764485287107e-05,-0.0011122921232803833,0.0036542352649690303,0.0,0.00037228289668313127,-0.0014898939436288824, ,0.6395659446716309
0.01031755693776376,0.02078927623442468,-0.08125985492483886, ,0.010371446835842154,0.020887657020056148,-0.08146174320897442, ,0.0002309583931524574, ,0.00037952069027132545,0.0008464474955453665,-0.002911626708258477,-0.0012830630175781723,0.0007521918825128354,0.0002672605458895765, ,0.003055827122941208, ,0.001487293893599628, ,2.3041538419358792e-05, ,0.14205967122135985,-0.2480387344543428,0.09109159459,1.6060152771479719,0.1425118692553544,-1.3231756166124558, ,-0.00040674965219688843,-0.0011773323827229116,0.0030550079631760647,0.0,0.0003593001951185115,0.0024486058465669875, ,0.6616859436035156
0.01032644551176565,0.020808993740732754,-0.08132647209584809, ,0.010382727483548947,0.02091054888794832,-0.08153716758514677, ,0.0002405695273400227, ,0.00041282158864767456,0.0009435721651741406,-0.003223995749253077,-0.0006899755290143566,0.0008773702522258817,0.0002901705929673261, ,0.0033845086328959063, ,0.0011161740195034322, ,2.3274887879878097e-05, ,0.14205194848848562,-0.2480696253858397,0.09116159425,1.6060152771479719,0.1425118692553544,-1.3231756166124558, ,-0.000545031120034233,-0.0013766012524650856,0.0033833499405267636,0.0,0.0003453458565856112,0.002052774321397027, ,0.6839599609375
0.010335711463346085,0.02082871850474186,-0.08139573539925765, ,0.010394343763365503,0.020933043845981426,-0.08161255993023016, ,0.00024765782980105136, ,0.0005549119292270388,0.0010204196524983952,-0.003482865914794727,-0.0003567308791340526,-0.00040048791190816843,0.0002977027267424189, ,0.0036714491004019557, ,0.0005363273023296789, ,2.352171007570953e-05, ,0.1420442257556114,-0.24809279358446237,0.09123418649000001,1.6060152771479719,0.1425118692553544,-1.323093937872315, ,0.0007223399972806819,-0.001457581496469467,0.0036685424965453716,0.0,0.00033424574849646814,0.0017996912102473215, ,0.7081649303436279
0.010346116249320242,0.020850035687966124,-0.08146849050868932, ,0.010406293817836795,0.020955144332012017,-0.08168792016049886, ,0.00025063626812372607, ,0.0005599023665964408,0.0010351041026199605,-0.0036244364283285076,-0.0003970900184726801,-0.00022468850727445791,0.00025968952030445795, ,0.0038107047361840667, ,0.0004562507891584307, ,2.37647551633284e-05, ,0.1420442257556114,-0.24812368451595926,0.0913106676,1.6060152771479719,0.1425118692553544,-1.323093937872315, ,0.0005366294592674568,-0.0012139843832100548,0.0038088980200860836,0.0,0.0003237996440190694,0.0015989017976872904, ,0.7300088405609131
0.010358299808826273,0.020874541366844638,-0.08155368363109748, ,0.01041857579436892,0.020976852777663865,-0.08176324819209833, ,0.00024086951746627878, ,0.0004745980058965407,0.0009071260075338301,-0.0031028950653713447,-0.00013324707763411208,-0.00010540203253414197,0.0002648120748153942, ,0.0032674269153955197, ,0.0001698943334238177, ,2.3956270167704444e-05, ,0.1420442257556114,-0.24815457544745617,0.09140011161000001,1.6060152771479719,0.1425118692553544,-1.323093937872315, ,0.00040564085267088347,-0.0012783058856473404,0.0032654390159901603,0.0,0.0003115034571410154,0.0013987275079653445, ,0.757476806640625
0.010370402027572143,0.020897778653225625,-0.08163381959005064, ,0.01043118784523135,0.020998171608336173,-0.08183854394104588, ,0.00023597822135686038, ,0.0004316086074385673,0.0008808446429743037,-0.003036881796425508,-6.188063054984657e-05,0.00028872834058391424,0.000247260475261653, ,0.0031913671553947236, ,0.0002952846233460942, ,2.4118644013914058e-05, ,0.14205194848848562,-0.24818546637895306,0.09148437046,1.6060152771479719,0.1425118692553544,-1.323093937872315, ,0.0,-0.0011809856850982317,0.003190228624073704,0.0,0.00029943996666249525,0.0012310146370532757, ,0.7792108058929443
0.010380370356678591,0.020917199312086396,-0.08169902720284522, ,0.010444128127546214,0.021019103243208374,-0.08191380732323102, ,0.0002461299750884852, ,0.0004799689739146205,0.0009827495368510534,-0.003408638755414834,0.0014589427625400135,0.00034108535341585857,0.0002491711971871841, ,0.003579802373458289, ,0.0014982832651160864, ,2.430789961169759e-05, ,0.14205967122135985,-0.24821635731044997,0.09155307383000001,1.6060152771479719,0.1425118692553544,-1.3230122591321745, ,-5.9057449118760886e-05,-0.0012573853656733492,0.003578704003594698,0.0,0.00029088089988083666,-0.0002141995476675807, ,0.8014838695526123
0.010390013863498306,0.020939171663702065,-0.08177963498250931, ,0.01045739480328483,0.021039650095247414,-0.08198903825441717, ,0.0002418384513224546, ,0.0004526236410333762,0.0008542955601970164,-0.003093328825610003,-0.0006638486383729774,-0.00012428486192851918,0.00010655898184187979, ,0.0032408906627568296, ,0.0006753824533921444, ,2.4471827827714456e-05, ,0.14205194848848562,-0.2482318027761984,0.09163733268,1.6060152771479719,0.1426485057551198,-1.32296031955559, ,0.00012272776414795088,-0.0007060652384541137,0.003240197624084622,0.0,0.0,0.0013628185707106554, ,0.823936939239502
0.010400895491213175,0.020959555480850975,-0.08185122007601996, ,0.010470986039264453,0.02105981457121387,-0.08206423665024037, ,0.0002456433003750084, ,0.0005666364969711614,0.0010710187174835907,-0.003875189114520401,-0.002620704423994007,-0.00015257090522969598,0.0001431985310405051, ,0.004060203035095333, ,0.002625141650494083, ,2.4722978184407045e-05, ,0.14205967122135985,-0.24825497097482108,0.09171251750000001,1.6060152771479719,0.1426485057551198,-1.3227969620753086, ,0.00014855597574562653,-0.000891824549220483,0.004059330152905199,0.0,0.0,0.003503587898588816, ,0.8453378677368164
0.010412357735546975,0.020979622891556055,-0.08192685654270565, ,0.010484900007140292,0.021079599071668433,-0.08213940242621148, ,0.0002458319961946699, ,0.00046733577117087866,0.0009504487574957399,-0.0034939243773340484,0.0048428196670465065,0.000393435615644622,7.118367207038203e-05, ,0.0036509263369958853, ,0.0048587748857622706, ,2.4963146992670482e-05, ,0.14206739395423407,-0.24826269370769533,0.09179159119000001,1.6060152771479719,0.1426485057551198,-1.3225519258548872, ,-0.0003886139448303192,-0.0006459429268850242,0.003650885060738025,0.0,0.0,-0.004203436375833448, ,0.8644938468933105
0.010416683544554172,0.020989179695482887,-0.08196160533240048, ,0.010499134883402459,0.021099005990978217,-0.08221453549771612, ,0.0002878084553773635, ,0.0005760389861118822,0.0010291756112355906,-0.003729278288848391,0.004209995121545684,-0.0005072081199490264,0.00010084490919507856, ,0.00391133479875591, ,0.004240438453635113, ,2.5327877400504898e-05, ,0.14205967122135985,-0.24827041644056955,0.09182788731000001,1.6060152771479719,0.1426485057551198,-1.3224702471147465, ,0.0005111010334294219,-0.0008279545047103563,0.00390987027982327,0.0,0.0,-0.0033904232731565695, ,0.8849937915802002
0.010435972914873762,0.02102103686397284,-0.08208327066106312, ,0.010513688849368702,0.021118037717323093,-0.08228963578001564, ,0.00024090557142869142, ,0.0005839660179932138,0.0009681720790935247,-0.0037427157001626425,0.004055379672473603,0.0002626900578619696,0.00023638840162590173, ,0.003909769084888655, ,0.00406387864238206, ,2.552854121635713e-05, ,0.14206739395423407,-0.24827813917344377,0.09195492373000001,1.6060152771479719,0.1425118692553544,-1.32235882921105, ,0.0006881394052403421,-8.914214387366875e-05,0.00390987027982327,0.0,0.000976948731472491,-0.0039671002645838335, ,0.9048609733581543
0.010440753708571223,0.021030276874434706,-0.08211669467164434, ,0.010528560091182903,0.0211366966327023,-0.08236470318824685, ,0.0002838016033859865, ,0.0005401051094589453,0.000869364306208291,-0.0034852151778674415,0.0030777505531451614,0.00034636524897619937,0.00018675063173213244, ,0.0036323866344609114, ,0.003097178851610745, ,2.5852929533861723e-05, ,0.14206739395423407,-0.248285861906318,0.09198992356,1.6060152771479719,0.1425118692553544,-1.32235882921105, ,0.0006037851473548624,0.0002817039289537982,0.0036325681915621443,0.0,0.000976948731472491,-0.003356574835197952, ,0.9241349697113037
0.01045635680138928,0.02105639577821917,-0.08222126068656167, ,0.010543746799803915,0.021154985112940308,-0.08243973763742385, ,0.00025512555105614145, ,0.0005097370157115072,0.0009545063803763029,-0.003539260723889754,0.002612328447612377,0.0008011262725178025,0.00030927151286332187, ,0.0037009837512523842, ,0.002732409681467672, ,2.6076962900384714e-05, ,0.14207511668710832,-0.24827813917344377,0.09209881192000001,1.6060152771479719,0.1425118692553544,-1.32235882921105, ,0.00014759448588286438,-0.0005410934562649011,0.003701792126423426,0.0,0.000976948731472491,-0.002076631601333234, ,0.9449238777160645
0.010467032466067087,0.021075508704838816,-0.0822958934553062, ,0.010559247171007133,0.02117290552769409,-0.0825147390424383, ,0.0002566770030927501, ,0.0005404593342603189,0.0010015971295647737,-0.0037607540079315546,0.001970949118068923,0.0008121302182325675,0.0002963009311029638, ,0.003929193786276614, ,0.002131711792225112, ,2.6296306873136362e-05, ,0.14207511668710832,-0.24827813917344377,0.09217658932000002,1.6060152771479719,0.1425118692553544,-1.32235882921105, ,0.00013599573418492453,-0.0004318550004535874,0.003930128675055515,0.0,0.000976948731472491,-0.001543383835048714, ,0.963796854019165
0.010474785508987691,0.02108825065591857,-0.08234556774295441, ,0.010575059405374995,0.021190460240458616,-0.08258970731805897, ,0.000283029654984724, ,0.0005917078800459413,0.0010815000436917555,-0.004088892787021353,0.0016592703376385172,0.0007608892869874763,0.0002906686013728687, ,0.004270691370676295, ,0.0018254121226357915, ,2.6583134429289314e-05, ,0.14208283941998254,-0.24827813917344377,0.09222844092000002,1.6060152771479719,0.1425118692553544,-1.32235882921105, ,0.00018694265360735273,-0.0003832695274033995,0.004271604054706356,0.0,0.000976948731472491,-0.0012798001588059807, ,0.9847159385681152
0.010487699781524966,0.021110230521531156,-0.08243131434095025, ,0.010591181708292633,0.021207651608573755,-0.08266464237893387, ,0.00027320569298130775, ,0.0005351374216878241,0.0009774428149681767,-0.0037040790318890074,0.0014418063082686189,0.0007794000684391075,0.0002826088373144947, ,0.0038680703187899015, ,0.0016389841975979148, ,2.6830645088312844e-05, ,0.14209056215285676,-0.24827813917344377,0.09231788493000001,1.6060152771479719,0.1425118692553544,-1.32235882921105, ,0.00016825792382382083,-0.00032112554225669193,0.0038690336458586357,0.0,0.000976948731472491,-0.0011238542502934928, ,1.0034840106964111
0.010499903552830248,0.021130936192035762,-0.08251208524295928, ,0.010607612289943459,0.021224481983230566,-0.08273954413958977, ,0.0002684949473586895, ,0.0005288079482363811,0.0009652799535994027,-0.0036711997271768847,0.001360749285149911,0.0007992173635378495,0.00027685457820820136, ,0.003832637560709657, ,0.0015780957969490008, ,2.705538166697719e-05, ,0.14209828488573098,-0.24827813917344377,0.09240214378000002,1.6060152771479719,0.1425118692553544,-1.32235882921105, ,0.00014839660158110318,-0.00027911747352082976,0.003833648981949459,0.0,0.000976948731472491,-0.0010843836046626088, ,1.024439811706543
0.010509795012105699,0.021147500728439458,-0.08257668559961906, ,0.010624349365304006,0.02124095370947753,-0.08281441251443326, ,0.0002799468619732401, ,0.0005192883481799632,0.0009122191839026719,-0.0034725785656652478,0.0013004387808180423,0.0005748853542758425,0.0002724915658665682, ,0.00362775497005424, ,0.0014218416537197087, ,2.737761337100836e-05, ,0.1421060076186052,-0.24827813917344377,0.09246955086000001,1.6060152771479719,0.1425118692553544,-1.32235882921105, ,0.0003726964820222159,-0.00024729166933244484,0.0036284308701594534,0.0,0.000976948731472491,-0.0010555798897375847, ,1.040442943572998
0.010515926835290706,0.021158018825280567,-0.0826150027357123, ,0.010641391154137692,0.021257069126227185,-0.08288924741775151, ,0.0003174309421719013, ,0.000631102853656155,0.0010660158396267703,-0.004156798827692196,0.0010436114731172932,0.0004099524799660696,0.00023753845164823178, ,0.0043374712766923685, ,0.0011212424811725293, ,2.7790457742830063e-05, ,0.14211373035147942,-0.248285861906318,0.09250973585000001,1.6060152771479719,0.1425118692553544,-1.32235882921105, ,0.0005376152679482912,0.0,0.004337911633986929,0.0,0.000976948731472491,-0.0010435541364947345, ,1.0578320026397705
0.010530555043985836,0.021184139211306196,-0.08271683159209825, ,0.01065873588099055,0.021272830566262193,-0.08296404876371231, ,0.00029225470630944066, ,0.0007343383119750445,0.0012399142628283844,-0.0048348658528955,0.0011455415883491022,0.0004679830363540147,0.0002744348441931813, ,0.00504505381052517, ,0.001237445356780417, ,2.812338071326099e-05, ,0.14212917581722787,-0.248285861906318,0.09261603163000001,1.6060152771479719,0.1426485057551198,-1.3224702471147465, ,0.0006261718427697219,0.0,0.005045553221412734,0.0,0.0011281095585670684,-0.0011454796976483744, ,1.0741138458251953
0.01054609695547465,0.021208979234394944,-0.08281634024855841, ,0.010676381775186459,0.021288240356242175,-0.08303881646636527, ,0.00026972602242546646, ,0.0007904199312462649,0.0013038952078493903,-0.005119274648949526,0.0010258679889288747,0.0002872507662525403,0.00025967889012200475, ,0.0053415240626754875, ,0.0010653237148754446, ,2.8387051047845585e-05, ,0.14214462128297634,-0.24827813917344377,0.09271973483000001,1.6060152771479719,0.1426485057551198,-1.3224702471147465, ,0.0008068866035917402,0.00010475809486032022,0.0053416537625754525,0.0,0.0011281095585670684,-0.0011295104471472344, ,1.0902328491210938
0.010551793409859957,0.02121917279525875,-0.0828561439960552, ,0.010694327070820067,0.02130330081670947,-0.08311355043964255, ,0.00030602523703151, ,0.0007937360137100695,0.0013096386269664142,-0.005141714440340615,0.0010140840079779577,0.00027958105018303963,0.0002577740409081667, ,0.005364922886557646, ,0.001051916510553515, ,2.873590176955365e-05, ,0.14214462128297634,-0.24827813917344377,0.09276121611,1.6060152771479719,0.1426485057551198,-1.3224702471147465, ,0.0008068866035917402,0.00010475809486032022,0.005365042613674639,0.0,0.0011202062899338305,-0.0011177268336489618, ,1.107085943222046
0.010572656018141263,0.0212484792827422,-0.08297000834275675, ,0.010712570006754575,0.021318014262096303,-0.08318825059735802, ,0.00026840402243056075, ,0.0007967665990758051,0.001070828158959185,-0.004189040979319694,0.0020957316520998767,-0.0014049614871430016,0.00024242982135867227, ,0.004396541172995249, ,0.002523094656967482, ,2.8978910913384635e-05, ,0.14219868041309588,-0.24827813917344377,0.09288047479000001,1.6060152771479719,0.1426485057551198,-1.322388568374606, ,0.0024477163397629786,9.664076704403104e-05,0.004390521367144433,0.0,0.0010738088952245305,-0.0021913679117179434, ,1.1239879131317139
0.010581013522562651,0.021259300829434887,-0.08301470461662772, ,0.010731108826613732,0.021332383000730596,-0.08326291685321004, ,0.00029913027003076716, ,0.0008195176409558138,0.0011063717166720514,-0.004323845376423975,0.0020385307735686768,-0.0014600765681809563,0.0002394794224641526, ,0.004537764469263762, ,0.002507474783210644, ,2.929127202198927e-05, ,0.14222184861171858,-0.24827041644056955,0.09292714123000001,1.6060152771479719,0.1426485057551198,-1.322388568374606, ,0.0024839073647792745,8.592624010095959e-05,0.004531667573257468,0.0,0.0010543549396360176,-0.002123565281096225, ,1.1405727863311768
0.010598400900065127,0.021283509798987185,-0.08310874665441627, ,0.010749941778778747,0.021346409334842362,-0.08333754912078012, ,0.00028155205228567185, ,0.000892114620354496,0.0012067186110415252,-0.004711123930644766,0.0019264818867022224,-0.001688379177313165,0.0002321545643550433, ,0.004944363153327032, ,0.002561631196221847, ,2.9551233742268717e-05, ,0.1422681850089639,-0.24827041644056955,0.09302565927,1.6060152771479719,0.1426485057551198,-1.322388568374606, ,0.0026770141689633677,7.903337740324438e-05,0.004946835875776399,0.0,0.001019403887408477,-0.002008423914868136, ,1.157141923904419
0.010616927216677032,0.021306752553621966,-0.08320154233140487, ,0.01076906711638052,0.02136009556057033,-0.08341214731353529, ,0.000265229115992637, ,0.0008531207886300409,0.0011022196949159939,-0.0042807823056109015,0.0018836603830870778,-0.0019772068066412824,0.0002327762303378863, ,0.004501977397087288, ,0.0027308463445449203, ,2.976411924720582e-05, ,0.1423299668719577,-0.24826269370769533,0.09312288102,1.6060152771479719,0.1426485057551198,-1.322388568374606, ,0.0029347612442908195,2.2480476447098027e-05,0.0044933177771509175,0.0,0.000986197972912184,-0.0019059144785548564, ,1.1732490062713623
0.010622603144762419,0.021315669928615045,-0.08323611798411748, ,0.010788483097299165,0.021373443967968527,-0.08348671134482677, ,0.00030602455899549443, ,0.0008725744597071085,0.0010698757015655772,-0.004150398535603685,0.0013556791006125138,-0.002953479619290421,8.293580899961192e-05, ,0.004373994536905002, ,0.0032497548298079464, ,3.0068271618356798e-05, ,0.1423531350705804,-0.24826269370769533,0.09315917714000001,1.6060152771479719,0.14278514225488526,-1.3224999862783022, ,0.0033165489727807005,2.2480476447098027e-05,0.004361667995618839,0.0,0.0003731057857518192,-0.001377942691660816, ,1.1905009746551514
0.010643789459234661,0.021339921993805105,-0.08333370754168422, ,0.010808187984153828,0.021386456841012105,-0.0835612411278925, ,0.000284541560853554, ,0.0009520440760349769,0.0011726807588313317,-0.0046453587955843974,0.0011041353009556745,-0.0028792744875279683,-0.0006024860161894803, ,0.004884764725609602, ,0.0030837208327194115, ,3.0313287926929534e-05, ,0.14243808513219686,-0.24825497097482108,0.09326158405000001,1.6058055872044876,0.14278514225488526,-1.3224999862783022, ,0.0034079758312195382,0.0003030681077047339,0.004872686301621292,0.0006733160306681121,0.0003731057857518192,-0.0013115743724037392, ,1.207075834274292
0.010652631776603446,0.02135042112662255,-0.08337707550214137, ,0.01082818004429914,0.02139913645760396,-0.08363573657585596, ,0.0003175448618213027, ,0.0008023168842797027,0.0009117603846509056,-0.0036249212774271786,0.0010831666203501957,-0.0028363703836323,-0.0006014704391456028, ,0.0038229666032236465, ,0.0030361564937770712, ,3.069928425759618e-05, ,0.14246897606369374,-0.24824724824194686,0.09330695420000001,1.6058055872044876,0.14278514225488526,-1.3224999862783022, ,0.003365028642498358,0.0002969841264263727,0.0037826671859415824,0.0006733160306681121,0.0003731057857518192,-0.001283703009359116, ,1.2249908447265625
0.010668803587348761,0.021368771166785157,-0.08344850431830048, ,0.010848457549821758,0.021411485089581347,-0.08371019760172839, ,0.00032028643434302707, ,0.0008574557477109266,0.0009182630922084994,-0.003672866550901315,0.0011388840819691393,-0.0030259208737429717,-0.0020689607928892116, ,0.003881801922628786, ,0.0032331491487298542, ,3.10827095749641e-05, ,0.1425384806595618,-0.24823952550907263,0.09338213902,1.6062249670914566,0.14278514225488526,-1.3224999862783022, ,0.003926048948495466,0.00040088113098771846,0.0038634032306572893,0.002187538179549665,0.0003731057857518192,-0.001234410466090962, ,1.2386608123779297
0.010677584462161896,0.021377994754118102,-0.08348681358582695, ,0.010869018777533964,0.02142350500272206,-0.08378462411840838, ,0.0003569445239058909, ,0.0009063581774458478,0.0009933792675604774,-0.004013124843566881,0.0009824739507164914,-0.003023020861190091,-0.00208780174335433, ,0.0042324293880814665, ,0.0031786646803518832, ,3.154073452048926e-05, ,0.1425770943239329,-0.2482318027761984,0.09342232401000002,1.6062249670914566,0.14278514225488526,-1.3224999862783022, ,0.003923108238905302,0.0005345002533693584,0.004176405747246986,0.002187538179549665,0.0003731057857518192,-0.001210976392266449, ,1.2523019313812256
0.010685723289830763,0.021387217738525463,-0.08352520497105236, ,0.010889862008967605,0.021435198456750817,-0.08385901603868247, ,0.00039421389478886597, ,0.0010824518473092262,0.0012423033356529596,-0.004996116190794978,-0.0003662490468166917,-0.0034364779456958357,-0.002070262886815061, ,0.005260817101120447, ,0.0034559392243883676, ,3.2072218165851996e-05, ,0.1426388761869267,-0.24820863457757575,0.09350269399000001,1.6062249670914566,0.14278514225488526,-1.3224999862783022, ,0.004404060652233034,0.0013444985620924776,0.005640513994334278,0.002147244484831712,0.0003731057857518192,-0.0003042427504864137, ,1.2667639255523682
0.010710161776912835,0.021417111008110643,-0.08364907848703398, ,0.010910985530369819,0.021446567705345594,-0.08393337327522654, ,0.0003493156216918933, ,0.0011871854932100367,0.0014605079005255886,-0.00599706642250333,9.95253607958425e-06,-0.001936662816921872,-0.0017710036230475911, ,0.006285483147595172, ,0.001936686387212235, ,3.2492117123324514e-05, ,0.1427006580499205,-0.24820091184470153,0.093592138,1.6062249670914566,0.14292177875465073,-1.3226930829221393, ,0.003989167288558813,0.0009882644350709118,0.0062736555809373784,0.0021055072164445124,0.0015840633570204036,-0.0006976798492269506, ,1.2810828685760498
0.010733589296947899,0.021441556090899205,-0.08375711364684911, ,0.010932387632699134,0.021457614996144358,-0.08400769574060551, ,0.0003202655967263381, ,0.0012102521748974231,0.0010745148639134052,-0.0051235396391812425,-0.0018073040464677884,-0.003680934127818106,-0.0019831364534020797, ,0.0053730764887423895, ,0.004100685362119208, ,3.283894132356565e-05, ,0.14279333084441118,-0.2481622981803304,0.09370491523,1.6062249670914566,0.14292177875465073,-1.3226930829221393, ,0.005720057360909337,0.0028436822264665614,0.0053416537625754525,0.0020511968711641156,0.0015840633570204036,-0.0007242733956681123, ,1.2945787906646729
0.01074668286603786,0.02145426088215232,-0.08381150453193341, ,0.010954066611618515,0.02146834257075116,-0.08408198334727433, ,0.00034112329359497904, ,0.0012962502344603221,0.0013227142683543134,-0.005388996017263737,0.00017213829997603962,-0.004240201144972965,-0.001673927442840804, ,0.005698343248711063, ,0.004243693297010506, ,3.3223568686559456e-05, ,0.14285511270740497,-0.24814685271458195,0.09376195199000001,1.6062249670914566,0.14292177875465073,-1.3226930829221393, ,0.006272648805813902,0.0008532659705305048,0.005668616199288257,0.002024072317805998,0.0015840633570204036,-0.0007371924431242206, ,1.308642864227295
0.010758205525301339,0.021465673088084176,-0.08386356564432387, ,0.010976020767488286,0.021478752664741984,-0.08415623600757904, ,0.0003650623187654672, ,0.0012898821121096703,0.001134220926133541,-0.00526087448478066,-0.0014727980180807006,-0.004314168879366095,-0.0018786618202289026, ,0.0055341714210020545, ,0.004558638293602129, ,3.3651406267920036e-05, ,0.14291689457039877,-0.24812368451595926,0.09381639617000001,1.6062249670914566,0.14305841525441615,-1.3228045008258356, ,0.0064140599113857765,0.0025859571174544193,0.0054983816085605805,0.0019993540547192643,0.0016598840585320754,-0.0008105774301429296, ,1.3223648071289062
0.01078179734179105,0.02148721817409257,-0.08396271627874081, ,0.010998248405367056,0.02148884750767254,-0.08423045363375599, ,0.00034429204016593335, ,0.001222476212169064,0.0009963696191543424,-0.004855604772042339,-0.0008066073736054568,-0.0031251463480121136,-0.0015802246854182613, ,0.005105300991084985, ,0.003227561378589508, ,3.4025948839890955e-05, ,0.14304045829638637,-0.24807734811871393,0.09392009937000001,1.6062249670914566,0.1431950517541816,-1.322915918729532, ,0.006425881311443176,0.0029592977130724427,0.005068027846007001,0.0019508298950372315,0.002910645463152021,-0.0018526697258837363, ,1.3365399837493896
0.010793149014007377,0.021496078251285432,-0.0840048307739389, ,0.01102074783500127,0.021498629323083503,-0.08430463613793446, ,0.0003764186333932436, ,0.0013010220551812675,0.0011213379411755557,-0.004993874030301137,0.00016571184350928683,-0.003808395059544508,-0.0014217941401567502, ,0.005280988070134608, ,0.00381199819500732, ,3.446024123819367e-05, ,0.14313313109087705,-0.24804645718721702,0.09398880274000002,1.6062249670914566,0.1431950517541816,-1.322915918729532, ,0.006806296152852237,0.0014300658001417945,0.005577314957983194,0.001919687036617212,0.002910645463152021,-0.0018665052312312705, ,1.3537278175354004
0.010824869237801701,0.02152620126852804,-0.08413714118721509, ,0.011043517370821172,0.02150810032850703,-0.08437878343213534, ,0.00032638263531113726, ,0.0014255933788375548,0.0012451815714198664,-0.005683823804173063,0.0007515613193134017,-0.0028687399305826864,-0.0011114544338455138, ,0.005990713368579194, ,0.0029655534515469176, ,3.4781244215527356e-05, ,0.14326441754973887,-0.2480078435228459,0.09410287626000001,1.6062249670914566,0.14333168825394704,-1.3230273366332286, ,0.007525555393853943,0.0025740916651795236,0.00595247067264574,0.0018794823576952693,0.004327204108328369,-0.003039035788115626, ,1.3674588203430176
0.010838977820979619,0.021537599680822216,-0.08418903586152104, ,0.011066555331935722,0.021517262735473407,-0.08445289542827285, ,0.0003490372269623188, ,0.0013107947975922224,0.0010472639988250848,-0.004797598215974599,0.0010721809682838362,-0.0030170611888531403,-0.0010451565984895754, ,0.00508250858597923, ,0.0032019100087858133, ,3.521494721160217e-05, ,0.1433416448784811,-0.24798467532422322,0.09415732044000001,1.6062249670914566,0.14333168825394704,-1.3230273366332286, ,0.007668478056448266,0.0022566105437691443,0.005037574800759013,0.0018575611844482654,0.004327204108328369,-0.003048365109009743, ,1.378201961517334
0.010851563312259428,0.02154639042666602,-0.08423893074865747, ,0.011089860042130724,0.021526118749517813,-0.08452697203815483, ,0.0003743849046329943, ,0.0013950163302395874,0.000996842516025232,-0.005171280284131262,0.001704969029736284,-0.001280042891235192,-0.000669906131246766, ,0.00544811025406382, ,0.002132000351210502, ,3.569348228493534e-05, ,0.14341887220722338,-0.2479383389269779,0.09420917204000001,1.6062249670914566,0.14346832475371246,-1.3232204332770654, ,0.008267883068121755,0.0038865776588804307,0.0053977673737716034,0.0018365177403952225,0.006741567149857481,-0.0052972063085110896, ,1.3920199871063232
0.01086752920265448,0.021558737030787315,-0.08429438694227848, ,0.011113429829856613,0.021534670570185478,-0.08460101317348344, ,0.0003937841523566698, ,0.0014632750418062629,0.0012092386979202369,-0.005302957759542178,0.002696363359401407,-0.0018484482254165241,-0.0003643391403912237, ,0.005632476637857413, ,0.0032691179260361507, ,3.6203665665457555e-05, ,0.14351154500171406,-0.2479151707283552,0.09426750509000001,1.6062249670914566,0.14346832475371246,-1.3233021120172062, ,0.008829890682945903,0.0019239502101969011,0.005585137279102384,0.0018147748756793289,0.006741567149857481,-0.004349070650030798, ,1.4029247760772705
0.01088264572714473,0.02157132355636704,-0.08435242096170967, ,0.011137263028230694,0.021542920391039496,-0.08467501874585556, ,0.0004119539296435531, ,0.0015350386394948025,0.0012807835572912043,-0.006076011888281282,0.0020290815321402705,-0.0008491288765298795,0.0014520779347799485, ,0.006396457661229772, ,0.002199587104852498, ,3.6742252897275544e-05, ,0.14369689059069546,-0.24784566613248718,0.09439843038000001,1.606434657034941,0.1436049612534779,-1.3234135299209024, ,0.009843899899208705,0.004044639004728963,0.007230509087607809,4.217855898733967e-06,0.007861589628293692,-0.00527890439812089, ,1.4140207767486572
0.010915762133904092,0.021597505509159745,-0.0844803227845253, ,0.011161357975026659,0.021550870399666307,-0.08474898866676361, ,0.0003669788916178373, ,0.0016245569123162996,0.001347706044682175,-0.006725262291937448,0.0007084504865917823,-0.0010538221389280202,0.0012171832722858104, ,0.007048733903303719, ,0.001269814724571057, ,3.718227265733301e-05, ,0.1437741179194377,-0.24780705246811607,0.09446194859000001,1.606434657034941,0.1436049612534779,-1.3234135299209024, ,0.008359450420219199,0.004357426279918081,0.007007836128464585,4.217855898733967e-06,0.007534814254869499,-0.005019314998511579, ,1.4265069961547852
0.01093115770544464,0.02161104096950692,-0.08454869542675905, ,0.011185713012673185,0.02155852277768251,-0.08482292284759581, ,0.0003778322951383377, ,0.0015570849129848798,0.0011398983748290203,-0.0059811853528062,0.0031011613018121923,0.001241612352239912,0.00196182284481321, ,0.006284780024456417, ,0.0033404782589097786, ,3.763684250754929e-05, ,0.14386679071392838,-0.24776071607087072,0.09453324454,1.606434657034941,0.14387823425300877,-1.3236363657282952, ,0.009149141992792726,0.004569434328073218,0.006236809522317934,4.217855898733967e-06,0.010716115278790133,-0.007621544080744877, ,1.4380559921264648
0.010949185139527768,0.021621687452139694,-0.08460819323362181, ,0.011210326488245718,0.02156587970074095,-0.08489682119963714, ,0.0003932116629660878, ,0.0017732770520511908,0.0010325938942989067,-0.005957350334022796,0.0038612933351048376,0.0007595580885247448,0.002368297623297947, ,0.006300855866956192, ,0.003935289977376132, ,3.8114528123564827e-05, ,0.14398263170704176,-0.24770665694075114,0.09459417017,1.606434657034941,0.14401487075277425,-1.3237477836319917, ,0.011914242505771598,0.005763970544203186,0.006207642837100547,4.217855898733967e-06,0.013088735570017685,-0.00956355191172297, ,1.449577808380127
0.010966754261837963,0.0216326450900991,-0.08466901750319836, ,0.011235196753462627,0.021572943338537105,-0.08497068363406979, ,0.00040820108398210677, ,0.001895585230170787,0.0011414953567288695,-0.006290781568063151,0.0036861606916367127,-0.0005283207722181617,0.0022751890516571113, ,0.006668597135182052, ,0.0037238278197247567, ,3.861402611475203e-05, ,0.14410619543302935,-0.24765259781063156,0.09465898467000002,1.606434657034941,0.1441515072525397,-1.3238592015356883, ,0.012717360165970353,0.005520037100380261,0.00657943474597274,4.217855898733967e-06,0.012569854300430408,-0.009147476868651805, ,1.4603219032287598
0.010985898301998894,0.021642302157066327,-0.0847274385811476, ,0.011260322164682259,0.021579715854816165,-0.08504451006197385, ,0.00042398092597751734, ,0.0018285796402713926,0.000960945984208253,-0.005770604413641638,0.0035883358213305745,-0.0006083991787418274,0.0021984607480699378, ,0.006129192115125889, ,0.003639546280571288, ,3.91363610401755e-05, ,0.14422975915901695,-0.2475908159476378,0.09471991030000002,1.606434657034941,0.1441515072525397,-1.3237775227955475, ,0.012797969191971783,0.006039609639427246,0.006026792099886493,4.217855898733967e-06,0.012569854300430408,-0.00956400633821629, ,1.471538782119751
0.011005735999041803,0.02165129164802494,-0.08478593820162175, ,0.011285701082891153,0.021586199407378104,-0.08511830039432793, ,0.0004394110548309568, ,0.0018924136424514093,0.0008439130025441534,-0.005982633410419264,0.0017225348414311712,-0.0009721650719996661,0.0019268748555512217, ,0.006331296950346283, ,0.001977934160442748, ,3.968033336838753e-05, ,0.14436104561787877,-0.24752131135176977,0.09478083593000002,1.606434657034941,0.1441515072525397,-1.3237775227955475, ,0.013161850424198443,0.007924855113695378,0.006210062970760234,4.217855898733967e-06,0.012569854300430408,-0.00956400633821629, ,1.4829277992248535
0.011030956213840346,0.021663633637691308,-0.08487086017915949, ,0.01131133187370676,0.021592396148085283,-0.08519205454200938, ,0.00043226277806150367, ,0.0021674872939022004,0.0010472077862485958,-0.006858371682367744,0.001176716363536747,-0.005014425361439556,0.0012120029744368285, ,0.007268556077400169, ,0.005150641506791983, ,4.027922778130596e-05, ,0.14453866847398592,-0.24741319309153062,0.09486898365000002,1.606434657034941,0.14442478025207056,-1.3241637160832216, ,0.014554745637802267,0.008176092742642348,0.0071333683475145555,4.217855898733967e-06,0.00983501400781142,-0.009266983374618929, ,1.491029977798462
0.011053960347339697,0.021675403962107855,-0.08494559358503673, ,0.01133721290736972,0.021598308222868748,-0.08526577241579505, ,0.00043438490931218616, ,0.0023627129087284613,0.001210986553850148,-0.007813256704925203,-0.0011179951844414815,-0.006945438862172785,0.0007151442493673742, ,0.00825202284653506, ,0.007034842223012996, ,4.0875325169078334e-05, ,0.14469312313147042,-0.24732824302991416,0.09494676105000001,1.606434657034941,0.144561416751836,-1.3243568127270586, ,0.015017715074928118,0.009054314061326072,0.008114524462557312,4.217855898733967e-06,0.008321108988794196,-0.007841347667721144, ,1.4997999668121338
0.011053960347339697,0.021675403962107855,-0.08494559358503673, ,0.011363342558733724,0.021603937771733424,-0.08533945392636284, ,0.0005059157415649545, ,0.0023627129087284613,0.001210986553850148,-0.007813256704925203,-0.0011179951844414815,-0.006945438862172785,0.0007151442493673742, ,0.00825202284653506, ,0.007034842223012996, ,4.159988049243887e-05, ,0.14469312313147042,-0.24732824302991416,0.09494676105000001,1.606434657034941,0.144561416751836,-1.3243568127270586, ,0.015017715074928118,0.009054314061326072,0.008114524462557312,4.217855898733967e-06,0.008321108988794196,-0.007841347667721144, ,1.50801682472229
0.011109366004617316,0.02169802283451915,-0.08510905906294514, ,0.011389719207268409,0.02160928692876603,-0.08541309898429032, ,0.00042298020400266734, ,0.0026970094286970616,0.0011680683212071392,-0.007919979911939894,-0.013022136776113562,-0.013004070568382408,-0.0038006554581387648, ,0.008447740838059603, ,0.01840331128904883, ,4.216037027162186e-05, ,0.1450715370423074,-0.24710428377656163,0.09511657504000001,1.6066443469784255,0.14469805325160143,-1.324468230630755, ,0.01822137894747903,0.009941360249482714,0.00824472645962733,0.003629996785855331,0.004471266559944491,0.0036946377470149956, ,1.518462896347046
0.011109366004617316,0.02169802283451915,-0.08510905906294514, ,0.011416341237046618,0.021614357822140263,-0.08548670750005763, ,0.0004938136993592749, ,0.0026970094286970616,0.0011680683212071392,-0.007919979911939894,-0.013022136776113562,-0.013004070568382408,-0.0038006554581387648, ,0.008447740838059603, ,0.01840331128904883, ,4.2846973240863743e-05, ,0.1450715370423074,-0.24710428377656163,0.09511657504000001,1.6066443469784255,0.14469805325160143,-1.324468230630755, ,0.01822137894747903,0.009941360249482714,0.00824472645962733,0.003629996785855331,0.004471266559944491,0.0036946377470149956, ,1.526573896408081
0.01113397963729325,0.02170902566334074,-0.08518899299368168, ,0.011443207036745395,0.02161915257412417,-0.08556027938404598, ,0.0004914797456732207, ,0.0027643400873031583,0.001170282846439317,-0.00869250289157738,-0.005866058127857513,-0.0031906508825472937,-0.0014115680364740896, ,0.00919623534817495, ,0.006677637410491447, ,4.352158072404335e-05, ,0.14524915989841458,-0.2469961655163225,0.09519953760000001,1.6066443469784255,0.1449713262511323,-1.324691066438148, ,0.018784034354408306,0.01207033090288359,0.009009508778280545,0.003537552760072391,0.015193860991853561,-0.005579249007305742, ,1.5346930027008057
0.01116310555469437,0.0217192551387498,-0.08527661873004401, ,0.011470314999637304,0.021623673301085694,-0.08563381454653944, ,0.0004807310912300462, ,0.0028302744537751097,0.0010250706105571952,-0.008760048922262155,0.010381785005110932,0.013264694935438671,0.003216516487706999, ,0.009262811687643577, ,0.01684439194617909, ,4.41688383008602e-05, ,0.14546539641889286,-0.24685715632458646,0.09529027790000001,1.6066443469784255,0.14524459925066321,-1.3249955809856813, ,0.02150882628251831,0.013943129820521713,0.009060757406143346,0.0034362334514617715,0.03493398500294701,-0.023619480563963173, ,1.54292893409729
0.01116310555469437,0.0217192551387498,-0.08527661873004401, ,0.011497663523586573,0.021627922113499756,-0.08570731289772562, ,0.000552963129083269, ,0.0028302744537751097,0.0010250706105571952,-0.008760048922262155,0.010381785005110932,0.013264694935438671,0.003216516487706999, ,0.009262811687643577, ,0.01684439194617909, ,4.494173648869235e-05, ,0.14546539641889286,-0.24685715632458646,0.09529027790000001,1.6066443469784255,0.14524459925066321,-1.3249955809856813, ,0.02150882628251831,0.013943129820521713,0.009060757406143346,0.0034362334514617715,0.03493398500294701,-0.023619480563963173, ,1.551604986190796
0.011228641251957468,0.02174344120564583,-0.08546679995218696, ,0.011525251011042735,0.021631901115954106,-0.0857807743476956, ,0.0004460924364165681, ,0.003188334548626408,0.0013643205136584183,-0.010295884795954996,-0.0030351402530231554,0.0006924283650569721,0.00019840915848757983, ,0.01086425751671651, ,0.003113104190394123, ,4.551078077927826e-05, ,0.14589786945984945,-0.24657913794111436,0.09548731398000002,1.6066443469784255,0.14524459925066321,-1.3251589384659623, ,0.021538116558890326,0.014411076926115533,0.010661855100401608,0.0032500123153812975,0.022109700041846314,-0.010764795784931223, ,1.5598669052124023
0.011264019758792983,0.021756325043173125,-0.08556925715864531, ,0.01155307586903604,0.02163561240715578,-0.08585419880644506, ,0.000423458047525294, ,0.003585473209166916,0.0011463579451788757,-0.010001340686457652,-0.02245524718384061,-0.02401358876640479,-0.003162784587325956, ,0.010686279530253813, ,0.03287689875067799, ,4.603246387961909e-05, ,0.14614499691182462,-0.24642468328362988,0.09559360976,1.6068540369219102,0.14538123575042863,-1.3252703563696588, ,0.024226944487738267,0.015986681529391977,0.010350104951267057,0.0008953302989991854,0.0,0.006765488000360245, ,1.5689218044281006
0.011264019758792983,0.021756325043173125,-0.08556925715864531, ,0.011581136509173912,0.021639058079938024,-0.08592758618387447, ,0.000492660394552089, ,0.003585473209166916,0.0011463579451788757,-0.010001340686457652,-0.02245524718384061,-0.02401358876640479,-0.003162784587325956, ,0.010686279530253813, ,0.03287689875067799, ,4.66736266335309e-05, ,0.14614499691182462,-0.24642468328362988,0.09559360976,1.6068540369219102,0.14538123575042863,-1.3252703563696588, ,0.024226944487738267,0.015986681529391977,0.010350104951267057,0.0008953302989991854,0.0,0.006765488000360245, ,1.5769867897033691
0.011296445185588568,0.021767011774345806,-0.08566439635420536, ,0.011609431347632967,0.021642240221266016,-0.08600093638979012, ,0.00047622208436885136, ,0.003422549244891792,0.0009792145046348157,-0.009299444454269076,-0.010935378577917695,-0.011606879023338465,0.00014832105704068433, ,0.009957528384987535, ,0.01594685159386439, ,4.7363491194074666e-05, ,0.1463844016309256,-0.2462702286261454,0.09569212780000001,1.6068540369219102,0.14565450874995953,-1.3254931921770516, ,0.024894265886272502,0.015853147604154825,0.009630478548972188,0.0008792385390149044,0.013484747640868065,-0.004622154406080776, ,1.5826637744903564
0.011329102525656366,0.0217747170865425,-0.08575620995857323, ,0.011637958805155198,0.021645160912243513,-0.08607424933390415, ,0.0005472281516082152, ,0.0030639549499168867,0.0006960383725710821,-0.008831789670550054,0.01578730284146636,0.017418366089011414,0.007094330473174611, ,0.009957528384987535, ,0.023508261409251118, ,4.817588108495449e-05, ,0.14663152908290075,-0.24609260577003822,0.09578675697000001,1.6068540369219102,0.1459277817494904,-1.3256343492443041, ,0.02461020268632541,0.017599581149568024,0.009102178011428572,0.0008604833932904343,0.04311771127489358,-0.03307238871972481, ,1.5888957977294922
0.011329102525656366,0.0217747170865425,-0.08575620995857323, ,0.011666717307043297,0.021647822228119333,-0.08614752492583587, ,0.0005321780240755325, ,0.0030639549499168867,0.0006960383725710821,-0.008831789670550054,0.01578730284146636,0.017418366089011414,0.007094330473174611, ,0.009374049185706581, ,0.023508261409251118, ,4.895553450517922e-05, ,0.14663152908290075,-0.24609260577003822,0.09578675697000001,1.6068540369219102,0.1459277817494904,-1.3256343492443041, ,0.02461020268632541,0.017599581149568024,0.009102178011428572,0.0008604833932904343,0.04311771127489358,-0.03307238871972481, ,1.594477891921997
0.011364143485946724,0.021780143606671395,-0.08584170623395418, ,0.011695705283155864,0.021650226238293803,-0.0862207630751118, ,0.0005200921426085054, ,0.003428713883270637,0.00045489900073532834,-0.008602321405492934,0.0029873257937191857,0.0014800424316993035,0.003594073868700048, ,0.009271620438607521, ,0.003333855709418588, ,4.970808543850925e-05, ,0.14690182473349864,-0.24590726018105682,0.09587490469000001,1.6068540369219102,0.14606441824925584,-1.3257457671480004, ,0.027739532756056937,0.01965146853561209,0.0088542587659811,0.0008424523020575192,0.029914615515680587,-0.022306149432858212, ,1.5999929904937744
0.011364143485946724,0.021780143606671395,-0.08584170623395418, ,0.011724921167899957,0.021652375006324807,-0.08629396369116629, ,0.0005924712302163208, ,0.003428713883270637,0.00045489900073532834,-0.008602321405492934,0.0029873257937191857,0.0014800424316993035,0.003594073868700048, ,0.009271620438607521, ,0.003333855709418588, ,5.05838493094494e-05, ,0.14690182473349864,-0.24590726018105682,0.09587490469000001,1.6068540369219102,0.14606441824925584,-1.3257457671480004, ,0.027739532756056937,0.01965146853561209,0.0088542587659811,0.0008424523020575192,0.029914615515680587,-0.022306149432858212, ,1.6054317951202393
0.011403091807767447,0.021788021644522735,-0.08593953444567727, ,0.011754363400228413,0.0216542705899345,-0.0863671266833427, ,0.0005693120392063217, ,0.004324305927249719,0.0011487474241758345,-0.011064761568931939,-0.017009225682773615,-0.026517198112047287,-0.0024700165615794576, ,0.011935166147746366, ,0.031503577387228046, ,5.141242336358643e-05, ,0.14719528858271916,-0.24571419185920124,0.09597601531000001,1.6068540369219102,0.14620105474902126,-1.3258571850516967, ,0.03109336224065229,0.01896421693814364,0.01147608899135447,0.0008254936787858353,0.004512368744701211,-0.0016324545408443723, ,1.6114959716796875
0.011431182396563665,0.02179664391314557,-0.08602613325924746, ,0.011784030423631214,0.021655915041015224,-0.08644025196089307, ,0.0005619614263534332, ,0.004205003882814552,0.0011582017669086273,-0.012530203607950936,-0.0008869178618382465,-0.004764826834122168,0.002487985775881588, ,0.013267610615482442, ,0.004846636892961206, ,5.222218805428531e-05, ,0.14741152510319744,-0.24555973720171673,0.09606545932,1.6070637268653947,0.1466109642483176,-1.3263547962430673, ,0.029343519343992198,0.022789851478979536,0.012897823093117412,0.00030508511805342817,0.025262986012107757,-0.021607828181688882, ,1.6200878620147705
0.011431182396563665,0.02179664391314557,-0.08602613325924746, ,0.011813920686136306,0.021657310405636756,-0.08651333943297934, ,0.0006350372275246218, ,0.004205003882814552,0.0011582017669086273,-0.012530203607950936,-0.0008869178618382465,-0.004764826834122168,0.002487985775881588, ,0.013267610615482442, ,0.004846636892961206, ,5.3154688671888206e-05, ,0.14741152510319744,-0.24555973720171673,0.09606545932,1.6070637268653947,0.1466109642483176,-1.3263547962430673, ,0.029343519343992198,0.022789851478979536,0.012897823093117412,0.00030508511805342817,0.025262986012107757,-0.021607828181688882, ,1.6262929439544678
0.011455096762985928,0.02180418866853096,-0.08609889466936005, ,0.01184403264029862,0.021658458724051966,-0.08658638900867391, ,0.0006404366200038072, ,0.00419918004896972,0.0013093823878279828,-0.013033541643704778,0.03705292149155435,0.029613427202957038,0.01183406343227591, ,0.013755755271863705, ,0.04743283341374865, ,5.4090112914725386e-05, ,0.1475891479593046,-0.24543617347572913,0.09614064414000001,1.6070637268653947,0.1468842372478485,-1.3265776320504599, ,0.032365941868509815,0.022594509894873993,0.013464760371935757,0.00030508511805342817,0.06381284495620235,-0.05934870775834822, ,1.6318237781524658
0.011455096762985928,0.02180418866853096,-0.08609889466936005, ,0.01187436474319848,0.021659362030703466,-0.08665940059696024, ,0.0007147917802625344, ,0.00419918004896972,0.0013093823878279828,-0.013033541643704778,0.03705292149155435,0.029613427202957038,0.01183406343227591, ,0.013755755271863705, ,0.04743283341374865, ,5.514877182298557e-05, ,0.1475891479593046,-0.24543617347572913,0.09614064414000001,1.6070637268653947,0.1468842372478485,-1.3265776320504599, ,0.032365941868509815,0.022594509894873993,0.013464760371935757,0.00030508511805342817,0.06381284495620235,-0.05934870775834822, ,1.6373279094696045
0.011534304434182465,0.02182600158063902,-0.08631991341515373, ,0.011904915456431818,0.0216600223542296,-0.08673237410673301, ,0.0005788138349333406, ,0.004573172756113019,0.00100577107254281,-0.013094476994815056,-0.019537007866495145,-0.007912088250394692,0.002017655319990457, ,0.013906502517720227, ,0.021078316628118272, ,5.596358276435491e-05, ,0.14812973926050033,-0.24505003683201793,0.09636879118000001,1.6070637268653947,0.1470208737476139,-1.3269340861745782, ,0.032343879195116144,0.02593521223243257,0.01345338810810811,0.00030508511805342817,0.025119764135392526,-0.006068541794693551, ,1.6427087783813477
0.011534304434182465,0.02182600158063902,-0.08631991341515373, ,0.011935683246111922,0.021660441717471595,-0.08680530944679928, ,0.0006512482832953674, ,0.004573172756113019,0.00100577107254281,-0.013094476994815056,-0.019537007866495145,-0.007912088250394692,0.002017655319990457, ,0.013906502517720227, ,0.021078316628118272, ,5.689828140866454e-05, ,0.14812973926050033,-0.24505003683201793,0.09636879118000001,1.6070637268653947,0.1470208737476139,-1.3269340861745782, ,0.032343879195116144,0.02593521223243257,0.01345338810810811,0.00030508511805342817,0.025119764135392526,-0.006068541794693551, ,1.6481118202209473
0.011584074207763036,0.021835044543736234,-0.08645639244955616, ,0.011966666582860068,0.021660622137479636,-0.08687820652587869, ,0.0005955898053782944, ,0.005156606800490149,0.0009311412246945136,-0.013280765884927524,-0.03512743596520205,-0.03587787965261568,-0.004304242517641251, ,0.014277127167796805, ,0.050211140125468956, ,5.773039409011698e-05, ,0.14847726223984042,-0.2447642957156716,0.09650879050000001,1.6070637268653947,0.14715751024737936,-1.3272088615585558, ,0.03594581119639045,0.027284917066840362,0.01366107334476844,0.00030508511805342817,0.0,0.00818656429818881, ,1.653669834136963
0.011584074207763036,0.021835044543736234,-0.08645639244955616, ,0.011997863941797752,0.021660565625518532,-0.08695106525260457, ,0.0006681062931680174, ,0.005156606800490149,0.0009311412246945136,-0.013280765884927524,-0.03512743596520205,-0.03587787965261568,-0.004304242517641251, ,0.014277127167796805, ,0.050211140125468956, ,5.868159117271214e-05, ,0.14847726223984042,-0.2447642957156716,0.09650879050000001,1.6070637268653947,0.14715751024737936,-1.3272088615585558, ,0.03594581119639045,0.027284917066840362,0.01366107334476844,0.00030508511805342817,0.0,0.00818656429818881, ,1.6592419147491455
0.011633157463001368,0.021844324660833008,-0.0865896756428522, ,0.012029273802549159,0.021660274187075515,-0.08702388553552386, ,0.0006158903816760124, ,0.0047920410185871235,0.0008082780121389752,-0.01316068122601187,0.04039031354100958,0.014428157942881365,0.0040611935984407365, ,0.014029272996183022, ,0.042889961235147135, ,5.9536697861100796e-05, ,0.14886339888355166,-0.24448627733219952,0.09664619724000001,1.6072734168088794,0.14770405624644115,-1.3278178906536227, ,0.03727295426491389,0.02831054342436479,0.013533399762107054,0.004462135719174775,0.052163734982194815,-0.06773619043517275, ,1.665174961090088
0.011640762762014279,0.021845657455685397,-0.08660853818445752, ,0.012060894649227336,0.021659749821865137,-0.08709666728309783, ,0.0006703301186022094, ,0.004863182120051874,0.0008089960529424743,-0.013283432652751096,0.04024296577958798,0.013848359632628827,0.004011375694847114, ,0.014168789573800676, ,0.04255905245278931, ,6.047901704551106e-05, ,0.14891745801367123,-0.2444476636678284,0.09666564159,1.6072734168088794,0.14770405624644115,-1.3278178906536227, ,0.037852788814707126,0.028643809706752423,0.01366107334476844,0.004462135719174775,0.052163734982194815,-0.06791834463169598, ,1.6710708141326904
0.011640762762014279,0.021845657455685397,-0.08660853818445752, ,0.01209272497043683,0.021658994523836936,-0.08716941040370342, ,0.0007441038464423347, ,0.004863182120051874,0.0008089960529424743,-0.013283432652751096,0.04024296577958798,0.013848359632628827,0.004011375694847114, ,0.014168789573800676, ,0.04255905245278931, ,6.164561231751929e-05, ,0.14891745801367123,-0.2444476636678284,0.09666564159,1.6072734168088794,0.14770405624644115,-1.3278178906536227, ,0.037852788814707126,0.028643809706752423,0.01366107334476844,0.004462135719174775,0.052163734982194815,-0.06791834463169598, ,1.6741108894348145
0.011640762762014279,0.021845657455685397,-0.08660853818445752, ,0.012124763259261127,0.02165801028118079,-0.08724211480563276, ,0.0008190770893723014, ,0.004863182120051874,0.0008089960529424743,-0.013283432652751096,0.04024296577958798,0.013848359632628827,0.004011375694847114, ,0.014168789573800676, ,0.04255905245278931, ,6.293595554929916e-05, ,0.14891745801367123,-0.2444476636678284,0.09666564159,1.6072734168088794,0.14770405624644115,-1.3278178906536227, ,0.037852788814707126,0.028643809706752423,0.01366107334476844,0.004462135719174775,0.052163734982194815,-0.06791834463169598, ,1.6769089698791504
0.011746334937841824,0.021853592854215207,-0.0868571786321848, ,0.012157008013263962,0.021656799076334037,-0.08731478039709481, ,0.0006455846506370625, ,0.005909756817158413,0.00033020405353567655,-0.013299275666454865,-0.0023632917965940243,-0.04235754478160692,-0.011761958940856647, ,0.014556956880037813, ,0.042423417259775706, ,6.392685469060488e-05, ,0.14974379043121325,-0.24382984503789046,0.09692101072,1.6074831067523636,0.14825060224550288,-1.328835313449392, ,0.044035703739429596,0.03390387336851403,0.013637681095890414,0.006894060041160982,0.0,-0.030163199275970012, ,1.6804718971252441
0.011746334937841824,0.021853592854215207,-0.0868571786321848, ,0.012189457734480979,0.021655362885987572,-0.0873874070862149, ,0.0007188846546338177, ,0.005909756817158413,0.00033020405353567655,-0.013299275666454865,-0.0023632917965940243,-0.04235754478160692,-0.011761958940856647, ,0.014556956880037813, ,0.042423417259775706, ,6.503883737302121e-05, ,0.14974379043121325,-0.24382984503789046,0.09692101072,1.6074831067523636,0.14825060224550288,-1.328835313449392, ,0.044035703739429596,0.03390387336851403,0.013637681095890414,0.006894060041160982,0.0,-0.030163199275970012, ,1.683283805847168
0.011746334937841824,0.021853592854215207,-0.0868571786321848, ,0.01222211092941338,0.021653703681092065,-0.08745999478103612, ,0.0007935400336490242, ,0.005909756817158413,0.00033020405353567655,-0.013299275666454865,-0.0023632917965940243,-0.04235754478160692,-0.011761958940856647, ,0.014556956880037813, ,0.042423417259775706, ,6.627358516331951e-05, ,0.14974379043121325,-0.24382984503789046,0.09692101072,1.6074831067523636,0.14825060224550288,-1.328835313449392, ,0.044035703739429596,0.03390387336851403,0.013637681095890414,0.006894060041160982,0.0,-0.030163199275970012, ,1.686060905456543
0.011746334937841824,0.021853592854215207,-0.0868571786321848, ,0.012254966109025907,0.021651823426864798,-0.08753254338951988, ,0.000869214660232832, ,0.005909756817158413,0.00033020405353567655,-0.013299275666454865,-0.0023632917965940243,-0.04235754478160692,-0.011761958940856647, ,0.014556956880037813, ,0.042423417259775706, ,0.000370098425061031, ,0.14974379043121325,-0.24382984503789046,0.09692101072,1.6074831067523636,0.14825060224550288,-1.328835313449392, ,0.044035703739429596,0.03390387336851403,0.013637681095890414,0.006894060041160982,0.0,-0.030163199275970012, ,1.6888229846954346
0.011805084011218752,0.02185777163699264,-0.08700031811398778, ,0.012288021788739528,0.021649724082795533,-0.08760505281954574, ,0.0008013842685443555, ,0.006776482111869032,0.0008087352565009132,-0.01719427424998562,-0.0222636470696042,-0.041476183722608216,-0.011445901734306235, ,0.018499130506899702, ,0.04707379625831072, ,0.00037405517591867615, ,0.1501762634721698,-0.2434745993256761,0.09706749149,1.6074831067523636,0.14838723874526832,-1.3291100888333696, ,0.04747220688267672,0.03927853541327433,0.01762036672566372,0.006894060041160982,0.004461733631924032,-0.015570808118348298, ,1.6915619373321533
0.011805084011218752,0.02185777163699264,-0.08700031811398778, ,0.01232127648842632,0.02164740760265328,-0.08767752297891314, ,0.000877105540712054, ,0.006776482111869032,0.0008087352565009132,-0.01719427424998562,-0.0222636470696042,-0.041476183722608216,-0.011445901734306235, ,0.018499130506899702, ,0.04707379625831072, ,0.00037862836105316143, ,0.1501762634721698,-0.2434745993256761,0.09706749149,1.6074831067523636,0.14838723874526832,-1.3291100888333696, ,0.04747220688267672,0.03927853541327433,0.01762036672566372,0.006894060041160982,0.004461733631924032,-0.015570808118348298, ,1.6943418979644775
0.011805084011218752,0.02185777163699264,-0.08700031811398778, ,0.012354728732405805,0.021644875934492634,-0.08774995377534082, ,0.0009536181229632619, ,0.006776482111869032,0.0008087352565009132,-0.01719427424998562,-0.0222636470696042,-0.041476183722608216,-0.011445901734306235, ,0.018499130506899702, ,0.04707379625831072, ,0.00038380844899829744, ,0.1501762634721698,-0.2434745993256761,0.09706749149,1.6074831067523636,0.14838723874526832,-1.3291100888333696, ,0.04747220688267672,0.03927853541327433,0.01762036672566372,0.006894060041160982,0.004461733631924032,-0.015570808118348298, ,1.6971468925476074
0.011805084011218752,0.02185777163699264,-0.08700031811398778, ,0.012388377049439197,0.02164213102066008,-0.08782234511646819, ,0.0010307570211527293, ,0.006776482111869032,0.0008087352565009132,-0.01719427424998562,-0.0222636470696042,-0.041476183722608216,-0.011445901734306235, ,0.018499130506899702, ,0.04707379625831072, ,0.00038958477553539063, ,0.15069368657474286,-0.24306529448334221,0.09727230531000002,1.6074831067523636,0.1493436942436264,-1.3302167291198068, ,0.052720523088039324,0.04100991424307294,0.022820646876790834,0.006894060041160982,0.1120616231932852,-0.13359735920856958, ,1.700333833694458
0.011875112038599055,0.02187164163052306,-0.08720716780804327, ,0.01242221997272003,0.02163917479779991,-0.08789469690985618, ,0.0009088807324033905, ,0.007055727713116247,0.0018981590784459543,-0.022252584078168793,0.09391763793576123,0.05768468884607133,0.014055321008273117, ,0.023421438888434988, ,0.11021814998606351, ,0.0003941803149767003, ,0.15069368657474286,-0.24306529448334221,0.09727230531000002,1.6074831067523636,0.1493436942436264,-1.3302167291198068, ,0.052720523088039324,0.04100991424307294,0.022820646876790834,0.006894060041160982,0.1120616231932852,-0.13359735920856958, ,1.7033119201660156
0.011875112038599055,0.02187164163052306,-0.08720716780804327, ,0.012456256039877501,0.02163600919686188,-0.0879670090629868, ,0.0009851952733997262, ,0.007055727713116247,0.0018981590784459543,-0.022252584078168793,0.09391763793576123,0.05768468884607133,0.014055321008273117, ,0.023421438888434988, ,0.11021814998606351, ,0.0003993646567172532, ,0.15069368657474286,-0.24306529448334221,0.09727230531000002,1.6074831067523636,0.1493436942436264,-1.3302167291198068, ,0.052720523088039324,0.04100991424307294,0.022820646876790834,0.006894060041160982,0.1120616231932852,-0.13359735920856958, ,1.7062327861785889
0.011875112038599055,0.02187164163052306,-0.08720716780804327, ,0.012490483792966522,0.02163263614310667,-0.08803928148326427, ,0.001062176627298041, ,0.007055727713116247,0.0018981590784459543,-0.022252584078168793,0.09391763793576123,0.05768468884607133,0.014055321008273117, ,0.023421438888434988, ,0.11021814998606351, ,0.00040512823907012957, ,0.15069368657474286,-0.24306529448334221,0.09727230531000002,1.6074831067523636,0.1493436942436264,-1.3302167291198068, ,0.052720523088039324,0.04100991424307294,0.022820646876790834,0.006894060041160982,0.1120616231932852,-0.13359735920856958, ,1.7091608047485352
0.011875112038599055,0.02187164163052306,-0.08720716780804327, ,0.012524901778457394,0.021629057556111633,-0.08811151407801625, ,0.0011396999233119437, ,0.007055727713116247,0.0018981590784459543,-0.022252584078168793,0.09391763793576123,0.05768468884607133,0.014055321008273117, ,0.023421438888434988, ,0.11021814998606351, ,0.00041146075358945553, ,0.15069368657474286,-0.24306529448334221,0.09727230531000002,1.6074831067523636,0.1493436942436264,-1.3302167291198068, ,0.052720523088039324,0.04100991424307294,0.022820646876790834,0.006894060041160982,0.1120616231932852,-0.13359735920856958, ,1.7121868133544922
0.011875112038599055,0.02187164163052306,-0.08720716780804327, ,0.012559508547240517,0.021625275349778695,-0.0881837067544933, ,0.0012176712361151377, ,0.007055727713116247,0.0018981590784459543,-0.022252584078168793,0.09391763793576123,0.05768468884607133,0.014055321008273117, ,0.023421438888434988, ,0.11021814998606351, ,0.00041835144147429047, ,0.15069368657474286,-0.24306529448334221,0.09727230531000002,1.6074831067523636,0.1493436942436264,-1.3302167291198068, ,0.052720523088039324,0.04100991424307294,0.022820646876790834,0.006894060041160982,0.1120616231932852,-0.13359735920856958, ,1.7152938842773438
0.01193571649210964,0.02188920467134809,-0.08739311828067012, ,0.01259430265461515,0.021621291432339894,-0.0882558594198704, ,0.0011179604243210883, ,0.008408865901981876,0.0024478498724287132,-0.02526782968115626,0.03405907965997167,0.003591393040112508,0.0014363203455589274, ,0.026742554319873484, ,0.03424775483435458, ,0.0004242803311594328, ,0.1511416050814479,-0.24272549423687634,0.09747193397000001,1.6074831067523636,0.15002687674245363,-1.3308554973784295, ,0.05733954172717268,0.043391377027192854,0.026070067954173493,0.006894060041160982,0.06104873465953737,-0.07594279277247389, ,1.7180559635162354
0.01193571649210964,0.02188920467134809,-0.08739311828067012, ,0.012629282660284583,0.021617107706363582,-0.08832797198124674, ,0.0011954171780062645, ,0.008408865901981876,0.0024478498724287132,-0.02526782968115626,0.03405907965997167,0.003591393040112508,0.0014363203455589274, ,0.026742554319873484, ,0.03424775483435458, ,0.00043076047272957427, ,0.1511416050814479,-0.24272549423687634,0.09747193397000001,1.6074831067523636,0.15002687674245363,-1.3308554973784295, ,0.05733954172717268,0.043391377027192854,0.026070067954173493,0.006894060041160982,0.06104873465953737,-0.07594279277247389, ,1.7208688259124756
0.012070169553915292,0.021924615683392875,-0.08777774820367032, ,0.012664447128354408,0.021612726068761547,-0.08840004434564712, ,0.0009152559508221322, ,0.008648166120129004,0.002129789945738341,-0.02359126187945965,-0.023583911771465398,-0.04683970437787336,-0.010475137462985843, ,0.025216550507941433, ,0.0524418868212138, ,0.0004347979350470122, ,0.1520297193619837,-0.24204589374394458,0.09786859871,1.607692796695848,0.15043678624174994,-1.3313531085697998, ,0.05706370508627226,0.041952670892338985,0.024355980917431196,0.0064985644079333296,0.008923679254433709,-0.016927743782953426, ,1.7237739562988281
0.012070169553915292,0.021924615683392875,-0.08777774820367032, ,0.012699794627323029,0.021608148410794663,-0.08847207642002189, ,0.0009892779890967962, ,0.008648166120129004,0.002129789945738341,-0.02359126187945965,-0.023583911771465398,-0.04683970437787336,-0.010475137462985843, ,0.025216550507941433, ,0.0524418868212138, ,0.0004393804148325476, ,0.1520297193619837,-0.24204589374394458,0.09786859871,1.607692796695848,0.15043678624174994,-1.3313531085697998, ,0.05706370508627226,0.041952670892338985,0.024355980917431196,0.0064985644079333296,0.008923679254433709,-0.016927743782953426, ,1.7265779972076416
0.012070169553915292,0.021924615683392875,-0.08777774820367032, ,0.012735323730078853,0.021603376618079668,-0.08854406811124813, ,0.001064364042938874, ,0.008648166120129004,0.002129789945738341,-0.02359126187945965,-0.023583911771465398,-0.04683970437787336,-0.010475137462985843, ,0.025216550507941433, ,0.0524418868212138, ,0.00044450323145637, ,0.1520297193619837,-0.24204589374394458,0.09786859871,1.607692796695848,0.15043678624174994,-1.3313531085697998, ,0.05706370508627226,0.041952670892338985,0.024355980917431196,0.0064985644079333296,0.008923679254433709,-0.016927743782953426, ,1.730078935623169
0.012070169553915292,0.021924615683392875,-0.08777774820367032, ,0.012771033013894597,0.021598412570595468,-0.0886160193261293, ,0.0011403142264663324, ,0.008648166120129004,0.002129789945738341,-0.02359126187945965,-0.023583911771465398,-0.04683970437787336,-0.010475137462985843, ,0.025216550507941433, ,0.0524418868212138, ,0.0004501602314158006, ,0.1520297193619837,-0.24204589374394458,0.09786859871,1.607692796695848,0.15043678624174994,-1.3313531085697998, ,0.05706370508627226,0.041952670892338985,0.024355980917431196,0.0064985644079333296,0.008923679254433709,-0.016927743782953426, ,1.732886791229248
0.012162947569822533,0.021936145630064807,-0.08802150257877181, ,0.012806921060422236,0.021593258142689427,-0.08868792997139731, ,0.0009881291187063494, ,0.010247627645245058,0.00032363009851299907,-0.02561531460190733,0.005182072558322422,-0.012077503439844768,-0.005324729432613443, ,0.027590994018899376, ,0.013141877236364417, ,0.0004544986901842727, ,0.15270159712204123,-0.24149757970987465,0.09811878268000002,1.6079024866393328,0.15098333224081167,-1.3317987801845854, ,0.07659155896567456,0.06692308995660845,0.026155683940886704,0.01081998915189113,0.06379521643860776,-0.0697086797015696, ,1.7363460063934326
0.012162947569822533,0.021936145630064807,-0.08802150257877181, ,0.012842986455686645,0.02158791520308383,-0.08875979995371183, ,0.001062450154315949, ,0.010247627645245058,0.00032363009851299907,-0.02561531460190733,0.005182072558322422,-0.012077503439844768,-0.005324729432613443, ,0.027590994018899376, ,0.013141877236364417, ,0.00045936230189732615, ,0.15270159712204123,-0.24149757970987465,0.09811878268000002,1.6079024866393328,0.15098333224081167,-1.3317987801845854, ,0.07659155896567456,0.06692308995660845,0.026155683940886704,0.01081998915189113,0.06379521643860776,-0.0697086797015696, ,1.739084005355835
0.012162947569822533,0.021936145630064807,-0.08802150257877181, ,0.012879227790083672,0.021582385614882568,-0.08883162917966102, ,0.0011377647435860303, ,0.010247627645245058,0.00032363009851299907,-0.02561531460190733,0.005182072558322422,-0.012077503439844768,-0.005324729432613443, ,0.027590994018899376, ,0.013141877236364417, ,0.0004647464482599349, ,0.15270159712204123,-0.24149757970987465,0.09811878268000002,1.6079024866393328,0.15098333224081167,-1.3317987801845854, ,0.07659155896567456,0.06692308995660845,0.026155683940886704,0.01081998915189113,0.06379521643860776,-0.0697086797015696, ,1.741837978363037
0.012261448946155669,0.02194594751871033,-0.08829323488774929, ,0.012915643658372243,0.021576671235576963,-0.08890341755576286, ,0.0009678112332067064, ,0.01014951456178058,0.0014991948758488213,-0.027760450004482493,0.08087587378036944,0.065148560122354,0.010158309350975805, ,0.02959565534950932, ,0.10385193960201593, ,0.00046870758829888585, ,0.15348159314233792,-0.240856592881314,0.09839748503000001,1.6081121765828172,0.15248633373823153,-1.3331060558653869, ,0.07954479594171901,0.05994753099082172,0.02859750721723519,0.015857323527770834,0.1451405069340869,-0.1377034191826088, ,1.744743824005127
0.012261448946155669,0.02194594751871033,-0.08829323488774929, ,0.012952232659667764,0.021570773917052463,-0.08897516498846539, ,0.0010406565391603345, ,0.01014951456178058,0.0014991948758488213,-0.027760450004482493,0.08087587378036944,0.065148560122354,0.010158309350975805, ,0.02959565534950932, ,0.10385193960201593, ,0.0004731759394774909, ,0.15348159314233792,-0.240856592881314,0.09839748503000001,1.6081121765828172,0.15248633373823153,-1.3331060558653869, ,0.07954479594171901,0.05994753099082172,0.02859750721723519,0.015857323527770834,0.1451405069340869,-0.1377034191826088, ,1.7477149963378906
0.012261448946155669,0.02194594751871033,-0.08829323488774929, ,0.012988993397442024,0.021564695505595227,-0.08904687138414684, ,0.0011147385320353182, ,0.01014951456178058,0.0014991948758488213,-0.027760450004482493,0.08087587378036944,0.065148560122354,0.010158309350975805, ,0.02959565534950932, ,0.10385193960201593, ,0.0004781492929081717, ,0.15348159314233792,-0.240856592881314,0.09839748503000001,1.6081121765828172,0.15248633373823153,-1.3331060558653869, ,0.07954479594171901,0.05994753099082172,0.02859750721723519,0.015857323527770834,0.1451405069340869,-0.1377034191826088, ,1.7506978511810303
0.012371814222953671,0.021956618670803514,-0.08855697208102975, ,0.013025924479511921,0.021558437841897867,-0.08911853664911673, ,0.000949612007281608, ,0.011540388927158137,0.00042629529600984504,-0.024524243865371564,-0.007492477676513458,-0.025627819143145273,-0.008183617975259114, ,0.027107210137483514, ,0.02670043940936985, ,0.0004817759291725828, ,0.15434653922425104,-0.24024649698425027,0.09866970593,1.608321866526302,0.15344278923658963,-1.3339676599314023, ,0.09186538389009755,0.06284565666123892,0.025324024674085854,0.014485996240892338,0.06467378010680752,-0.05240998219934946, ,1.7538888454437256
0.012371814222953671,0.021956618670803514,-0.08855697208102975, ,0.01306302451804125,0.0215520027610669,-0.0891901606896164, ,0.0010209865427570227, ,0.011540388927158137,0.00042629529600984504,-0.024524243865371564,-0.007492477676513458,-0.025627819143145273,-0.008183617975259114, ,0.027107210137483514, ,0.02670043940936985, ,0.00048589204072666247, ,0.15434653922425104,-0.24024649698425027,0.09866970593,1.608321866526302,0.15344278923658963,-1.3339676599314023, ,0.09186538389009755,0.06284565666123892,0.025324024674085854,0.014485996240892338,0.06467378010680752,-0.05240998219934946, ,1.7567508220672607
0.012371814222953671,0.021956618670803514,-0.08855697208102975, ,0.013100292129526769,0.02154539209262774,-0.08926174341181992, ,0.0010938418476484713, ,0.011540388927158137,0.00042629529600984504,-0.024524243865371564,-0.007492477676513458,-0.025627819143145273,-0.008183617975259114, ,0.027107210137483514, ,0.02670043940936985, ,0.0004904977210821307, ,0.15434653922425104,-0.24024649698425027,0.09866970593,1.608321866526302,0.15344278923658963,-1.3339676599314023, ,0.09186538389009755,0.06284565666123892,0.025324024674085854,0.014485996240892338,0.06467378010680752,-0.05240998219934946, ,1.7595059871673584
0.012371814222953671,0.021956618670803514,-0.08855697208102975, ,0.013137725934801163,0.021538607660532356,-0.08933328472183333, ,0.0011679106435530482, ,0.011540388927158137,0.00042629529600984504,-0.024524243865371564,-0.007492477676513458,-0.025627819143145273,-0.008183617975259114, ,0.027107210137483514, ,0.02670043940936985, ,0.0004955910513262731, ,0.15434653922425104,-0.24024649698425027,0.09866970593,1.608321866526302,0.15344278923658963,-1.3339676599314023, ,0.09186538389009755,0.06284565666123892,0.025324024674085854,0.014485996240892338,0.06467378010680752,-0.05240998219934946, ,1.7622969150543213
0.012492759371000164,0.02195596121739141,-0.08880763431991337, ,0.013175324559022681,0.021531651283164685,-0.08940478452569722, ,0.001001260467836117, ,0.012196067663196286,-0.0004287622494864547,-0.02513280414496829,-0.04467813365336939,-0.06339451406413867,0.025461637128732513, ,0.027938964685563814, ,0.07755636667868131, ,0.0004993647036882869, ,0.1553041581006549,-0.23955145102557007,0.09892766764000001,1.6085315564697864,0.1539893352356514,-1.334413331546188, ,0.09499193349196275,0.072551178561522,0.0257747759223301,-0.02844656556869372,0.039496621226935036,-0.031251003984464634, ,1.7650489807128906
0.012492759371000164,0.02195596121739141,-0.08880763431991337, ,0.013213086631674361,0.021524524773348222,-0.08947624272938597, ,0.0010733340453635569, ,0.012196067663196286,-0.0004287622494864547,-0.02513280414496829,-0.04467813365336939,-0.06339451406413867,0.025461637128732513, ,0.027938964685563814, ,0.07755636667868131, ,0.0005036163284414369, ,0.1553041581006549,-0.23955145102557007,0.09892766764000001,1.6085315564697864,0.1539893352356514,-1.334413331546188, ,0.09499193349196275,0.072551178561522,0.0257747759223301,-0.02844656556869372,0.039496621226935036,-0.031251003984464634, ,1.7677788734436035
0.012492759371000164,0.02195596121739141,-0.08880763431991337, ,0.01325101078655425,0.021517229938350917,-0.08954765923880839, ,0.0011467638052292482, ,0.012196067663196286,-0.0004287622494864547,-0.02513280414496829,-0.04467813365336939,-0.06339451406413867,0.025461637128732513, ,0.027938964685563814, ,0.07755636667868131, ,0.0005083453540060532, ,0.1553041581006549,-0.23955145102557007,0.09892766764000001,1.6085315564697864,0.1539893352356514,-1.334413331546188, ,0.09499193349196275,0.072551178561522,0.0257747759223301,-0.02844656556869372,0.039496621226935036,-0.031251003984464634, ,1.7705318927764893
0.012492759371000164,0.02195596121739141,-0.08880763431991337, ,0.013289095661772936,0.021509768579892775,-0.08961903395980889, ,0.001221314346670135, ,0.012196067663196286,-0.0004287622494864547,-0.02513280414496829,-0.04467813365336939,-0.06339451406413867,0.025461637128732513, ,0.027938964685563814, ,0.07755636667868131, ,0.0005135495072371779, ,0.1563081133743041,-0.23872511860802803,0.09920636999000002,1.6085315564697864,0.15494579073400946,-1.335193256872063, ,0.09989151742996924,0.08383122045801306,0.02677111179831933,-0.024751859282780998,0.11018320823658223,-0.09563511696278029, ,1.7737479209899902
0.012618184674377163,0.02194775822499332,-0.08908041238256864, ,0.013327339899746576,0.02150214249415127,-0.08969036679816805, ,0.0010361075727702497, ,0.012231551999269426,-0.0012448720790612185,-0.026256945730286356,0.00913440090088524,0.0012639123946796092,0.03677337200036861, ,0.028992891713095142, ,0.009220752364869382, ,0.0005173361598859684, ,0.1563081133743041,-0.23872511860802803,0.09920636999000002,1.6085315564697864,0.15494579073400946,-1.335193256872063, ,0.09989151742996924,0.08383122045801306,0.02677111179831933,-0.024751859282780998,0.11018320823658223,-0.09563511696278029, ,1.7768008708953857
0.012618184674377163,0.02194775822499332,-0.08908041238256864, ,0.01336574214719613,0.021494353471768913,-0.0897616576596022, ,0.00110838313452276, ,0.012231551999269426,-0.0012448720790612185,-0.026256945730286356,0.00913440090088524,0.0012639123946796092,0.03677337200036861, ,0.028992891713095142, ,0.009220752364869382, ,0.0005215882963941468, ,0.1563081133743041,-0.23872511860802803,0.09920636999000002,1.6085315564697864,0.15494579073400946,-1.335193256872063, ,0.09989151742996924,0.08383122045801306,0.02677111179831933,-0.024751859282780998,0.11018320823658223,-0.09563511696278029, ,1.7795658111572266
0.012618184674377163,0.02194775822499332,-0.08908041238256864, ,0.013404301055134791,0.02148640329785833,-0.08983290644976588, ,0.00118197912589616, ,0.012231551999269426,-0.0012448720790612185,-0.026256945730286356,0.00913440090088524,0.0012639123946796092,0.03677337200036861, ,0.028992891713095142, ,0.009220752364869382, ,0.0005263053737477324, ,0.1563081133743041,-0.23872511860802803,0.09920636999000002,1.6085315564697864,0.15494579073400946,-1.335193256872063, ,0.09989151742996924,0.08383122045801306,0.02677111179831933,-0.024751859282780998,0.11018320823658223,-0.09563511696278029, ,1.7825419902801514
0.012699584100113166,0.021937730040255076,-0.0892507967206668, ,0.013443015278870048,0.02147829375200968,-0.08990411307425031, ,0.0010911433812126657, ,0.01195911534627573,-0.0015499637525230403,-0.024929798734397452,0.050908603110073385,0.04447988056388518,0.014543405887958515, ,0.027693278831464285, ,0.06760278112855592, ,0.0005303113170630866, ,0.15698771386723584,-0.23816135910820965,0.09938007285000001,1.608321866526302,0.15576560973260212,-1.335943443034382, ,0.1027023177039727,0.08390534178467797,0.025445385814696485,0.007936372270999277,0.14955655440223606,-0.13254768412495138, ,1.7855498790740967
0.012699584100113166,0.021937730040255076,-0.0892507967206668, ,0.013481883477994462,0.021470026608296482,-0.08997527743858558, ,0.0011643071448442716, ,0.01195911534627573,-0.0015499637525230403,-0.024929798734397452,0.050908603110073385,0.04447988056388518,0.014543405887958515, ,0.027693278831464285, ,0.06760278112855592, ,0.0005347760764136583, ,0.15698771386723584,-0.23816135910820965,0.09938007285000001,1.608321866526302,0.15576560973260212,-1.335943443034382, ,0.1027023177039727,0.08390534178467797,0.025445385814696485,0.007936372270999277,0.14955655440223606,-0.13254768412495138, ,1.7885158061981201
0.012699584100113166,0.021937730040255076,-0.0892507967206668, ,0.013520904316381949,0.021461603635282246,-0.0900463994482405, ,0.0012386472263267157, ,0.01195911534627573,-0.0015499637525230403,-0.024929798734397452,0.050908603110073385,0.04447988056388518,0.014543405887958515, ,0.027693278831464285, ,0.06760278112855592, ,0.0005396982522871762, ,0.15698771386723584,-0.23816135910820965,0.09938007285000001,1.608321866526302,0.15576560973260212,-1.335943443034382, ,0.1027023177039727,0.08390534178467797,0.025445385814696485,0.007936372270999277,0.14955655440223606,-0.13254768412495138, ,1.7915167808532715
0.012857003539091203,0.021910311625291883,-0.08955197272618606, ,0.013560076462180085,0.021453026596026496,-0.09011747900862341, ,0.0010115426281907733, ,0.012494055155588272,-0.0024889922433433856,-0.021475561709128642,-0.0020281153526072486,-0.02441186371860255,-0.0007960186953805267, ,0.024969906834846175, ,0.02449587259387263, ,0.0005429749493420622, ,0.1583314693873509,-0.23708789923869245,0.09967951584000001,1.608321866526302,0.15754188422955284,-1.3376369120028573, ,0.10722818255194438,0.08397959429953167,0.021880235604395604,0.007337936545478695,0.08342449961622661,-0.08031898341275606, ,1.794475793838501
0.012857003539091203,0.021910311625291883,-0.08955197272618606, ,0.0135993985878096,0.021444297248091816,-0.09018851602508282, ,0.0010832853638303827, ,0.012494055155588272,-0.0024889922433433856,-0.021475561709128642,-0.0020281153526072486,-0.02441186371860255,-0.0007960186953805267, ,0.024969906834846175, ,0.02449587259387263, ,0.0005467012280626713, ,0.1583314693873509,-0.23708789923869245,0.09967951584000001,1.608321866526302,0.15754188422955284,-1.3376369120028573, ,0.10722818255194438,0.08397959429953167,0.021880235604395604,0.007337936545478695,0.08342449961622661,-0.08031898341275606, ,1.7972478866577148
0.012857003539091203,0.021910311625291883,-0.08955197272618606, ,0.013638869369954362,0.0214354173435495,-0.09025951040290772, ,0.0011564810073164346, ,0.012494055155588272,-0.0024889922433433856,-0.021475561709128642,-0.0020281153526072486,-0.02441186371860255,-0.0007960186953805267, ,0.024969906834846175, ,0.02449587259387263, ,0.0005508778018931766, ,0.1583314693873509,-0.23708789923869245,0.09967951584000001,1.608321866526302,0.15754188422955284,-1.3376369120028573, ,0.10722818255194438,0.08397959429953167,0.021880235604395604,0.007337936545478695,0.08342449961622661,-0.08031898341275606, ,1.8000187873840332
0.012857003539091203,0.021910311625291883,-0.08955197272618606, ,0.01367848748956231,0.021426388628986947,-0.09033046204732835, ,0.001230878942206317, ,0.012494055155588272,-0.0024889922433433856,-0.021475561709128642,-0.0020281153526072486,-0.02441186371860255,-0.0007960186953805267, ,0.024969906834846175, ,0.02449587259387263, ,0.0005555036599905449, ,0.1583314693873509,-0.23708789923869245,0.09967951584000001,1.608321866526302,0.15754188422955284,-1.3376369120028573, ,0.10722818255194438,0.08397959429953167,0.021880235604395604,0.007337936545478695,0.08342449961622661,-0.08031898341275606, ,1.8027689456939697
0.012988395599219126,0.021877695518847863,-0.08976507032434924, ,0.013718251631831466,0.021417212845512536,-0.09040137086351704, ,0.001072199840014868, ,0.014446018917275268,-0.003927776096156563,-0.022990823154920792,-0.04656241079029771,-0.06110956529687648,-0.023463290850046642, ,0.027435248075434928, ,0.07682727800634803, ,0.0005589948503961147, ,0.15948987931848457,-0.2361302803622886,0.09990377401000002,1.6087412464132707,0.15822506672838005,-1.33827568026148, ,0.12276447808340334,0.10371250443548719,0.02328773614035088,0.021485181812172245,0.058263119776487904,-0.05249747259701662, ,1.8055388927459717
0.012988395599219126,0.021877695518847863,-0.08976507032434924, ,0.013758160486211365,0.021407891728763225,-0.09047223675658857, ,0.001146009574702654, ,0.014446018917275268,-0.003927776096156563,-0.022990823154920792,-0.04656241079029771,-0.06110956529687648,-0.023463290850046642, ,0.027435248075434928, ,0.07682727800634803, ,0.0005629345465324001, ,0.15948987931848457,-0.2361302803622886,0.09990377401000002,1.6087412464132707,0.15822506672838005,-1.33827568026148, ,0.12276447808340334,0.10371250443548719,0.02328773614035088,0.021485181812172245,0.058263119776487904,-0.05249747259701662, ,1.8082659244537354
0.012988395599219126,0.021877695518847863,-0.08976507032434924, ,0.013798212746398333,0.02139842700891093,-0.09054305963160071, ,0.0012209707116390045, ,0.014446018917275268,-0.003927776096156563,-0.022990823154920792,-0.04656241079029771,-0.06110956529687648,-0.023463290850046642, ,0.027435248075434928, ,0.07682727800634803, ,0.0005673214542997775, ,0.15948987931848457,-0.2361302803622886,0.09990377401000002,1.6087412464132707,0.15822506672838005,-1.33827568026148, ,0.12276447808340334,0.10371250443548719,0.02328773614035088,0.021485181812172245,0.058263119776487904,-0.05249747259701662, ,1.8109920024871826
0.013138277227993498,0.02184390501267065,-0.09001541752218777, ,0.013838407110325463,0.021388820410668016,-0.0906138393935546, ,0.0010273230179667166, ,0.014349493162587492,-0.002925575329078493,-0.024390361366714526,0.026880222591302187,0.005179672312782743,-0.019430195719331272, ,0.02844919458663423, ,0.02737456374498753, ,0.0005703678222710817, ,0.16078729844135428,-0.2350954341571425,0.10015914314,1.6091606263002398,0.15931815872650357,-1.3391670234910513, ,0.1251938542987741,0.09663639669905374,0.024966789216300942,0.03467739425400199,0.12583257292828395,-0.1167967766516941, ,1.8143367767333984
0.013138277227993498,0.02184390501267065,-0.09001541752218777, ,0.013878742280161803,0.02137907365329455,-0.09068457594739612, ,0.00110096761267958, ,0.014349493162587492,-0.002925575329078493,-0.024390361366714526,0.026880222591302187,0.005179672312782743,-0.019430195719331272, ,0.02844919458663423, ,0.02737456374498753, ,0.0005738586103658745, ,0.16078729844135428,-0.2350954341571425,0.10015914314,1.6091606263002398,0.15931815872650357,-1.3391670234910513, ,0.1251938542987741,0.09663639669905374,0.024966789216300942,0.03467739425400199,0.12583257292828395,-0.1167967766516941, ,1.8170878887176514
0.013138277227993498,0.02184390501267065,-0.09001541752218777, ,0.01391921696230446,0.021369188450604423,-0.09075526919801567, ,0.001175841479601318, ,0.014349493162587492,-0.002925575329078493,-0.024390361366714526,0.026880222591302187,0.005179672312782743,-0.019430195719331272, ,0.02844919458663423, ,0.02737456374498753, ,0.0005777931389229689, ,0.16078729844135428,-0.2350954341571425,0.10015914314,1.6091606263002398,0.15931815872650357,-1.3391670234910513, ,0.1251938542987741,0.09663639669905374,0.024966789216300942,0.03467739425400199,0.12583257292828395,-0.1167967766516941, ,1.819894790649414
0.013138277227993498,0.02184390501267065,-0.09001541752218777, ,0.013959829867376154,0.021359166510971504,-0.09082591905024918, ,0.0012517319526544157, ,0.014349493162587492,-0.002925575329078493,-0.024390361366714526,0.026880222591302187,0.005179672312782743,-0.019430195719331272, ,0.02844919458663423, ,0.02737456374498753, ,0.0005821693649861601, ,0.16078729844135428,-0.2350954341571425,0.10015914314,1.6091606263002398,0.15931815872650357,-1.3391670234910513, ,0.1251938542987741,0.09663639669905374,0.024966789216300942,0.03467739425400199,0.12583257292828395,-0.1167967766516941, ,1.8230748176574707
0.013138277227993498,0.02184390501267065,-0.09001541752218777, ,0.014000579710215627,0.02134900953733619,-0.09089652540887883, ,0.0013284721338222153, ,0.014349493162587492,-0.002925575329078493,-0.024390361366714526,0.026880222591302187,0.005179672312782743,-0.019430195719331272, ,0.02844919458663423, ,0.02737456374498753, ,0.000586984221559296, ,0.16078729844135428,-0.2350954341571425,0.10015914314,1.6091606263002398,0.15931815872650357,-1.3391670234910513, ,0.1251938542987741,0.09663639669905374,0.024966789216300942,0.03467739425400199,0.12583257292828395,-0.1167967766516941, ,1.8269269466400146
0.013232548633654967,0.021824346892505276,-0.09017228356069266, ,0.014041465209878526,0.021338719227212085,-0.09096708817863274, ,0.0014059296734863147, ,0.01480826469803528,-0.0034194344966725627,-0.024410353512157746,0.030694900420370118,0.011702580586193487,-0.017468160862894586, ,0.02875487079144374, ,0.03284994120484685, ,0.0005922338718921614, ,0.16161363085889632,-0.23446989279433034,0.1003198831,1.6091606263002398,0.1601379777250962,-1.3398355309132297, ,0.13089233318409763,0.10171162010554209,0.024966789216300942,0.03467739425400199,0.1383970306951909,-0.12558540996934903, ,1.8312029838562012
0.013232548633654967,0.021824346892505276,-0.09017228356069266, ,0.014082485089626775,0.02132829727269186,-0.091037607264187, ,0.0013104359260704428, ,0.01480826469803528,-0.0034194344966725627,-0.024410353512157746,0.030694900420370118,0.011702580586193487,-0.017468160862894586, ,0.02875487079144374, ,0.03284994120484685, ,0.0005968084072690931, ,0.16161363085889632,-0.23446989279433034,0.1003198831,1.6091606263002398,0.1601379777250962,-1.3398355309132297, ,0.13089233318409763,0.10171162010554209,0.024966789216300942,0.03467739425400199,0.1383970306951909,-0.12558540996934903, ,1.8341028690338135
0.013232548633654967,0.021824346892505276,-0.09017228356069266, ,0.014123638076926116,0.021317745360454006,-0.09110808257016506, ,0.0013879500330759378, ,0.01480826469803528,-0.0034194344966725627,-0.024410353512157746,0.030694900420370118,0.011702580586193487,-0.017468160862894586, ,0.02875487079144374, ,0.03284994120484685, ,0.0006018156327488834, ,0.16161363085889632,-0.23446989279433034,0.1003198831,1.6091606263002398,0.1601379777250962,-1.3398355309132297, ,0.13089233318409763,0.10171162010554209,0.024966789216300942,0.03467739425400199,0.1383970306951909,-0.12558540996934903, ,1.8368809223175049
0.013496973822657547,0.021752687437641856,-0.09059734483540223, ,0.01416492290343924,0.02130706517176886,-0.09117851400113931, ,0.0009912077368354375, ,0.01495149123001637,-0.004103099049489483,-0.023204157002660975,-0.03314420474243391,-0.05758536649429129,0.027663159990614108, ,0.027907264538383516, ,0.06644250157221125, ,0.000604264639692824, ,0.16393045072116366,-0.23258554597301956,0.10075284396,1.6093703162437245,0.16232416172134326,-1.3416182173723725, ,0.12602515479212587,0.10382597544690457,0.02363325151335312,-0.027891725490549767,0.0793361472725825,-0.0745267465617863, ,1.8395788669586182
0.013496973822657547,0.021752687437641856,-0.09059734483540223, ,0.01420633830502403,0.021296258382505637,-0.09124890146163048, ,0.0010658571613483422, ,0.01495149123001637,-0.004103099049489483,-0.023204157002660975,-0.03314420474243391,-0.05758536649429129,0.027663159990614108, ,0.027907264538383516, ,0.06644250157221125, ,0.0006071495929531709, ,0.16393045072116366,-0.23258554597301956,0.10075284396,1.6093703162437245,0.16232416172134326,-1.3416182173723725, ,0.12602515479212587,0.10382597544690457,0.02363325151335312,-0.027891725490549767,0.0793361472725825,-0.0745267465617863, ,1.8423118591308594
0.013496973822657547,0.021752687437641856,-0.09059734483540223, ,0.014247883021724899,0.021285326663138204,-0.09131924485610939, ,0.001141678745832477, ,0.01495149123001637,-0.004103099049489483,-0.023204157002660975,-0.03314420474243391,-0.05758536649429129,0.027663159990614108, ,0.027907264538383516, ,0.06644250157221125, ,0.0006104696498033529, ,0.16393045072116366,-0.23258554597301956,0.10075284396,1.6093703162437245,0.16232416172134326,-1.3416182173723725, ,0.12602515479212587,0.10382597544690457,0.02363325151335312,-0.027891725490549767,0.0793361472725825,-0.0745267465617863, ,1.8450748920440674
0.013496973822657547,0.021752687437641856,-0.09059734483540223, ,0.014289555797768406,0.021274271678751656,-0.09138954408899662, ,0.0012184611126419354, ,0.01495149123001637,-0.004103099049489483,-0.023204157002660975,-0.03314420474243391,-0.05758536649429129,0.027663159990614108, ,0.027907264538383516, ,0.06644250157221125, ,0.0006142226835245787, ,0.16393045072116366,-0.23258554597301956,0.10075284396,1.6093703162437245,0.16232416172134326,-1.3416182173723725, ,0.12602515479212587,0.10382597544690457,0.02363325151335312,-0.027891725490549767,0.0793361472725825,-0.0745267465617863, ,1.8478288650512695
