NicholasDascanio/dvrk_moveit_final/test/execution/third_experiment_notsharpbends/thirdexp_400vel3.0/thirdexp_400vel3.0_18.csv
Current Position (x),Current Position (y),Current Position (z), ,Planned Position (x),Planned Position (y),Planned Position (z), ,Position Error,,Cartesian linear Velocity(x),Cartesian linear Velocity(y),Cartesian linear Velocity(z),Cartesian Angular Velocity(x),Cartesian Angular Velocity(y),Cartesian Angular Velocity(z), ,Total Linear Velocity, ,Total Angular Velocity, ,MSE, ,Joint 1 Position,Joint 2 Position,Joint 3 Position,Joint 4 Position,Joint 5 Position,Joint 6 Position, ,Joint 1 Velocity,Joint 2 Velocity,Joint 3 Velocity,Joint 4 Velocity,Joint 5 Velocity,Joint 6 Velocity, ,Time Stamp
0.009626053069242208,0.019939670605229904,-0.07931663982199195, ,0.009694047654255175,0.01987083432065984,-0.07934156648598992, ,9.991514521114311e-05, ,1.1611499803814918e-05,1.4846957862073394e-05,5.141624298504577e-06,-0.2245341719701938,0.0005974744649035969,0.07077515353440049, ,1.95370260244273e-05, ,0.22453496689397126, ,8.326262100928593e-06, ,0.17101991949970177,-0.2387405640737765,0.08969808284000001,1.695552883015864,0.46060164070929976,-1.285654276006781, ,0.00015435469105422165,-0.00018605731688616984,0.0,0.0,0.0,0.23559110314833132, ,0.027390003204345703
0.009587286973004065,0.019943162394039832,-0.07931118578000275, ,0.009730277724771915,0.019902958036022284,-0.07942260989523309, ,0.00018568273734949564, ,-0.0022756308640759703,0.0003494029813709757,-0.00045636930068153553,-0.24225877423994321,0.2856839294837823,0.16042581110930682, ,0.0023470942059343565, ,0.3745725847703412, ,1.298172193457449e-05, ,0.17105081043119866,-0.23875600953952494,0.08970715687000001,1.695552883015864,0.4655205547008556,-1.2718593551892097, ,0.0009297663153779047,-0.0003085532401473321,0.001351870755071966,0.0,0.2967460779635441,0.28043803476373075, ,0.05541682243347168
0.009564382653985161,0.019950570543284685,-0.07932588690127504, ,0.009766559061871335,0.019934700961824973,-0.07950375835606475, ,0.0002697506217795859, ,-2.1470902183507306e-05,0.00034697438528724634,-0.0012358139541388381,0.16398255525525762,0.04124606190791631,-0.04226623525485825, ,0.0012837789346029581, ,0.16909026007121877, ,1.7354640760632023e-05, ,0.17108170136269557,-0.2387714550052734,0.08973308267,1.695552883015864,0.4689364671949916,-1.2703975082943109, ,0.001542519960932935,0.0,0.0014371371700492,0.0016863948641601806,0.044137320343622374,-0.16822664561001366, ,0.08255600929260254
0.009615260658761185,0.019966484903340083,-0.07938735939020503, ,0.009802891332228052,0.019966065174421805,-0.07958501047998953, ,0.0002725277950796905, ,0.00406107310553387,0.00039864638699089235,-0.0031767551676114172,0.453293031135763,-0.3949856420850908,-0.22907330337767307, ,0.005171364143559923, ,0.601238912188238, ,1.9711340462378933e-05, ,0.17117437415718625,-0.2387791777381476,0.08978752685000001,1.6961819528463176,0.46497400870179384,-1.2852990693983195, ,0.0033351582128099662,-0.0001264805014955887,0.0021722093986090278,-0.02948588517081118,-0.39767629301699015,-0.5156107542909828, ,0.11011195182800293
0.00969137865154511,0.01999209044230506,-0.07950159704869217, ,0.009839274203682483,0.01999705274514882,-0.07966636488256512, ,0.00022146367167261656, ,0.00022920800351902324,0.0008261250520584978,-0.003021565501106216,-0.26581485541092775,0.08537823316992393,0.1282755288528108, ,0.003140840172309169, ,0.27918986381331695, ,2.0179614828702535e-05, ,0.1713442742804192,-0.23878690047102183,0.08989382263000001,1.6961819528463176,0.45978182171070714,-1.2851491260648835, ,0.006487365388608879,-0.0008455706609734105,0.003500068450889915,-0.018729027846812036,0.09873040623635024,0.28482500451746784, ,0.13733601570129395
0.009683960081530621,0.020015549543187433,-0.07957091957891774, ,0.009875707345237933,0.02002766574033325,-0.07974782018339845, ,0.00026116592281183633, ,0.0005010835983561852,0.0006138594388432453,-0.0021300827192555797,-0.06273997523623413,0.048678095239098315,0.04950815606921104, ,0.0022726989624826627, ,0.07940945440378083, ,2.1137191837167226e-05, ,0.1715605108008975,-0.23881779140251874,0.08998197035000001,1.6961819528463176,0.46429082620296663,-1.2785343956291546, ,0.00793456423868641,-0.0009384821935555692,0.0024884879737541014,-0.013102975691568947,0.061745700354949494,0.06991928076874701, ,0.1650238037109375
0.009702935251605071,0.020028232146965634,-0.07961867088688888, ,0.009912190427060994,0.020057906221293952,-0.07982937500614008, ,0.0002984367688669656, ,0.0010275830438914643,0.0008463795749671099,-0.0029801115778854323,0.026399834527559462,0.005199366581323509,-0.004201008390476039, ,0.0032639470451680972, ,0.02690696333097537, ,2.234642587182408e-05, ,0.17170724272550775,-0.23883323686826718,0.09003382195000001,1.6959722629028329,0.4644274627027321,-1.2788091710131322, ,0.00763030941174768,-0.0009674873706023327,0.0032487888068529476,0.0,0.01337470467291089,-0.02554037608049689, ,0.19404888153076172
0.00974397097100713,0.02005904037073176,-0.07972070471455522, ,0.009948723120477787,0.020087776244351978,-0.07991102797848197, ,0.00028101981769494797, ,0.0014047768340811277,0.0009198665548622699,-0.0030503953842701418,0.01325349553182171,-0.01217037305468738,-0.009199535017299913, ,0.003482020165464549, ,0.017993696780766625, ,2.304832293251563e-05, ,0.1719775383761056,-0.23887185053263832,0.0901440066,1.696391642789802,0.46429082620296663,-1.280903079093231, ,0.01040043356416104,-0.0014197224836279513,0.0033185024000000002,0.005315012842280388,-0.003105614942256607,-0.011783273586091873, ,0.22149896621704102
0.009785085353028675,0.020084218013962356,-0.07980882589373348, ,0.009985305097973046,0.020117277860833564,-0.07999277773215284, ,0.00027389629168464555, ,0.0013201566228751803,0.0007687331387912294,-0.002673818543359985,-0.014588145181154135,-0.01126765445159894,0.000519726487663564, ,0.0030794593276113795, ,0.018432960058829464, ,2.3520204045118775e-05, ,0.1722864476910746,-0.2389027414641352,0.09023733948000001,1.696391642789802,0.46429082620296663,-1.2804130066523876, ,0.010121055953474007,-0.0007989452152939742,0.0028966742171303876,0.00431624408691175,-0.0021839857211579006,0.017443479561614822, ,0.2506139278411865
0.009812597082217406,0.02010234159006316,-0.07986997936005612, ,0.010021936033191283,0.020146413117070633,-0.08007462290291115, ,0.00029604742106607184, ,0.0014446137007932739,0.0009895838918987578,-0.0033997120453490093,-0.0033431523138848273,-0.00950679723949424,-0.0017696200281268589, ,0.0038241635706277362, ,0.010077492778093514, ,2.4355506863534647e-05, ,0.17248723874580443,-0.23893363239563212,0.09030604285,1.696391642789802,0.4641541897032012,-1.2801382312684102, ,0.010423405040286325,-0.0012638825762076307,0.003688932728114868,0.0038062138674057494,0.0,0.0054794649469796335, ,0.27590084075927734
0.009857525234159819,0.020132648883498822,-0.07997514557377843, ,0.01005861560093052,0.0201751840544147,-0.08015656213054505, ,0.0002741505853392903, ,0.0013941014097117704,0.0008284220856877234,-0.002898603649312335,0.008405866047286022,-0.010894935258879045,-0.002181300503986255, ,0.0033214010610617814, ,0.013760748456950427, ,2.4855061623238998e-05, ,0.17280387079364762,-0.238964523327129,0.09041752379000001,1.6966013327332867,0.4641541897032012,-1.2800565525282694, ,0.010691737335140079,-0.0009963788270342052,0.003185125278944211,0.0,0.0,-0.007916478375573655, ,0.3011288642883301
0.009895805691650817,0.020158275262787854,-0.08005488494587823, ,0.010095343477146388,0.02020359270923129,-0.08023859405886427, ,0.00028529066945963736, ,0.0014635314326904817,0.0009288211601146065,-0.0031499262902847593,0.0072503524942686345,-0.011768899996791043,0.005938409230867555, ,0.0035953676635605437, ,0.013822974286148242, ,2.537266763038594e-05, ,0.17312050284149083,-0.23900313699150014,0.09050826409000001,1.6970207126202554,0.46429082620296663,-1.2800862916918252, ,0.011357469775273469,-0.0017895455058212382,0.0034418348141745897,-0.007691229642175271,0.0014865301282378366,-0.00697637953594536, ,0.32637882232666016
0.009927871472991765,0.020179801841409148,-0.08012617980835443, ,0.010132119338944194,0.02023164111291766,-0.08032071733569951, ,0.00028679147540014487, ,0.001450252770080597,0.0008998135922059442,-0.0031970704299178507,0.005588695463881838,-0.011319604236954986,0.005352249381547473, ,0.003624107742838245, ,0.012624062608181707, ,2.582921033918806e-05, ,0.1733599075605918,-0.23904175065587124,0.09058604149,1.6970207126202554,0.46429082620296663,-1.2800862916918252, ,0.011060446696017601,-0.0012730604323625107,0.0034786659794715006,-0.0067595538225146785,0.001411098901029779,-0.00561139668664305, ,0.3527050018310547
0.009973366632581974,0.020208808685830807,-0.08022753624420259, ,0.010168942864583348,0.02025933129189592,-0.08040293061289493, ,0.00026751781401702744, ,0.0013341839735339402,0.0007124402217221824,-0.002236413326544363,0.0035848444760650943,-0.010273524409085999,-0.0005339178084088553, ,0.002699844905157996, ,0.010881011609483529, ,2.6085085674694154e-05, ,0.17369970780705768,-0.2390880870531166,0.09069622614,1.696811022676771,0.46429082620296663,-1.2799229342115441, ,0.011611190680180312,-0.0014851309408566772,0.0024931619220535297,0.0005238342889548552,0.001265710270597427,-0.0020228970500348227, ,0.38138699531555176
0.009999047189131926,0.020224718658792613,-0.08027495132845847, ,0.010205813733473311,0.020286665267623512,-0.08048523254630507, ,0.00030134361911873824, ,0.0014725316628992045,0.0008507916160004084,-0.002732783395953959,0.0038257877624256016,-0.00944813323985677,-0.01050582265157455, ,0.0032187421396096547, ,0.010193324951594425, ,2.6541098332546833e-05, ,0.17392366706041018,-0.23911897798461348,0.09074937403000001,1.6970207126202554,0.4644274627027321,-1.2800343521152406, ,0.012028173815767925,-0.0011545308045360669,0.003017391839363516,0.01090549148761502,0.0,-0.0008968601793444457, ,0.40552687644958496
0.010045284468019233,0.02025475291087715,-0.08037862514074133, ,0.010242731626169066,0.02031364505660373,-0.08056762179579287, ,0.0002795950656045205, ,0.0015923941160390553,0.0011440130937352708,-0.003958083361061666,0.0035111280068373107,-0.008454778877910006,-0.009843769355618506, ,0.004417115447047627, ,0.009154851434255559, ,2.6803841433266827e-05, ,0.17426346730687606,-0.2391498689161104,0.09086215126000001,1.6972304025637401,0.4644274627027321,-1.2800343521152406, ,0.010832099104648076,-0.0010992360107245438,0.004284241936525013,0.010241077369555566,-4.777398389819171e-05,-0.0007418290801381839, ,0.432528018951416
0.01007594711899052,0.02027473468119076,-0.08045179942070387, ,0.010279696224376338,0.020340272670377618,-0.08065009702522045, ,0.0002917719416414053, ,0.0015236586738519699,0.0009161963581602932,-0.003269825008261233,0.004074722067042725,-0.009376533075224078,-0.008876166469440467, ,0.0037219225013104583, ,0.010223635951100296, ,2.7111996120718068e-05, ,0.17447970382735434,-0.23916531438185884,0.09094122495000001,1.6972304025637401,0.4644274627027321,-1.2799526733751, ,0.011469681656102983,-0.0004848270817359433,0.0035579208219790044,0.00867517846207449,4.74061211284262e-05,-0.002233684422874846, ,0.45778894424438477
0.010124815228451923,0.0203038627722312,-0.08055079210492588, ,0.010316707210943875,0.020366550115541764,-0.08073265690245, ,0.0002717113183776435, ,0.0014944327296931086,0.0008957522259454046,-0.0031440465042759645,0.0010331061819459457,-0.011363946783190216,2.3316413690160123e-05, ,0.003594541647402914, ,0.011410810425519193, ,2.7272131110840503e-05, ,0.1748735632039398,-0.23919620531335573,0.09105011331000001,1.6974400925072246,0.4645640992024975,-1.2801457700189371, ,0.011402182126467828,-0.0010214059076037645,0.0034285001119242365,0.0001613813858844518,0.0,0.0, ,0.4839658737182617
0.0101394520335519,0.02031370297135321,-0.08058682528217784, ,0.010353764269865836,0.020392479393744684,-0.08081530009933513, ,0.00032301114753788144, ,0.0014432577393583739,0.0010095368828427116,-0.0036624334036738414,0.000539627589535402,-0.009619440220279774,0.0001207222054733152, ,0.004063936030055539, ,0.009634564205400247, ,2.7851325026040267e-05, ,0.17497395873130472,-0.23920392804622997,0.09108900201,1.6974400925072246,0.4645640992024975,-1.2800640912787964, ,0.009659073526389303,-0.0009012209751898842,0.0039496185271510045,0.0001613813858844518,0.0,0.00039331765790463416, ,0.5087018013000488
0.010190138957967717,0.02034930818509527,-0.08070897205109037, ,0.010390867086277273,0.020418062501698846,-0.08089802529172084, ,0.00028418315456614333, ,0.0014248968299533985,0.0009471736989950232,-0.0031207805287530336,0.0030455276186745622,-0.005199011982460955,-0.005476948256333113, ,0.0035590364005898033, ,0.006025360053462821, ,2.8176047535870005e-05, ,0.1753523726421417,-0.23924254171060108,0.09122251988,1.6976497824507093,0.46483737220202836,-1.2800418908657676, ,0.010943412521203559,-0.0013230144405654023,0.003426287700580771,0.0070234679783484745,0.004234470949527483,-0.0002081722880499094, ,0.5323598384857178
0.01021913977049961,0.02036810075868416,-0.08077186757753416, ,0.010428015346454303,0.02044330143118138,-0.08098083115943572, ,0.0003048769029224237, ,0.0015522775161723975,0.001036876261063726,-0.003437701352947074,-0.0009197571025041316,-0.006213693800400428,-0.003469799807076944, ,0.0039118369674650275, ,0.006281396603672749, ,2.8579441051786065e-05, ,0.17556860916262002,-0.239273432642098,0.09129122325000001,1.6976497824507093,0.46483737220202836,-1.2798785333854865, ,0.011792185837349969,-0.0014612249851747685,0.003769240776147658,0.006258923176344348,0.004234470949527483,0.003956898827336021, ,0.557703971862793
0.010250667965951862,0.02039274865040041,-0.08085695451334807, ,0.010465208737814573,0.020468198169036087,-0.08106371638628845, ,0.0003073610983120996, ,0.0015573811206333224,0.0011851565324813103,-0.004067912192466855,0.01208329086983799,0.002143806486524329,-0.004583632913957845, ,0.004514193346214661, ,0.01227199345594855, ,2.896346822201929e-05, ,0.17580801388172096,-0.23930432357359488,0.09138455613,1.6976497824507093,0.46524728170132473,-1.2798860721360135, ,0.011314453357047664,-0.0013468192467192633,0.004444422857142858,0.005503836311362463,0.012644943467783581,-0.009191711302302357, ,0.5791590213775635
0.010301439562593427,0.02042890237143512,-0.08097592741169458, ,0.010502446948910896,0.020492754697187403,-0.08114667966006518, ,0.0002713621550286078, ,0.0015911613653502548,0.001072981018084353,-0.0037157623022293185,-0.0021152731382721368,-0.0025112579803262974,0.0010178619015419781, ,0.004182101414650432, ,0.003283412308089203, ,2.9149639157476818e-05, ,0.17616325959393528,-0.23935065997084023,0.09151418513000001,1.698069162337678,0.46524728170132473,-1.279967750876154, ,0.012116565571817004,-0.001173485212093894,0.004069701461420542,0.00309128211510797,0.00918818514698661,0.004787323015541852, ,0.6033868789672852
0.010333626068894129,0.02044862213060509,-0.0810443676558997, ,0.010539729669432271,0.02051697299264049,-0.0812297196725245, ,0.000285492389675536, ,0.0015943145723636386,0.0009143869895836008,-0.002927474519814501,-0.002227839236861546,-0.011771816938707306,-0.0011647886966432426, ,0.003456595085707025, ,0.011980773826791098, ,2.9386269367502705e-05, ,0.1764181097787847,-0.2393738281694629,0.09158936995000001,1.698069162337678,0.4653839182010902,-1.27999749003971, ,0.012964063054435898,-0.0016416928915473066,0.003240197624084622,0.00309128211510797,0.0004584382812892321,0.0046225911838421166, ,0.6251568794250488
0.010363893647744432,0.020466500930124944,-0.08110543747689387, ,0.010577056590204817,0.020540855027481632,-0.08131283511939069, ,0.0003065628058739922, ,0.0016715810820260475,0.0009689576476350507,-0.0034544206835513177,0.00607101610698544,-0.005094703881495371,-0.0008008544032573128, ,0.003958040486862783, ,0.007750559851165279, ,2.9698377013502576e-05, ,0.1767965236896217,-0.2394047191009598,0.09169566573000001,1.698069162337678,0.4655205547008556,-1.2798638717229847, ,0.01295344547617674,-0.0006908848148486253,0.0037934773803286505,0.00309128211510797,0.007392689201295986,0.0005241203888284867, ,0.6511168479919434
0.010410231602478868,0.020494418602860272,-0.08120444491128306, ,0.01061442740318412,0.02056440276889529,-0.08139602470035448, ,0.000288611372093902, ,0.001709282032469756,0.000984376527647344,-0.0033976647888438465,-0.00035290816024028575,-0.008626261099916224,-0.0025649798162663707, ,0.003928710759531208, ,0.008633476951998887, ,2.9913669654793216e-05, ,0.17703592840872265,-0.23941244183383403,0.09176566539000001,1.698278852281163,0.46579382770038646,-1.2800867075303775, ,0.0136248300873612,-0.0009676373316568252,0.0037382801032621454,0.004731760056754701,0.004012702409583857,0.002569269091205836, ,0.6738348007202148
0.010449181263040081,0.020516590578752946,-0.08128483094056357, ,0.010651841801460948,0.02058761817915472,-0.08147928711906283, ,0.00028970574590160135, ,0.0017313607041363301,0.0010981717289890278,-0.004031686803840015,0.004963834889155771,-0.0007497126561677051,-0.002313031662762473, ,0.004523061962701364, ,0.005020131951294837, ,3.0119369200357526e-05, ,0.17734483772369164,-0.23942788729958248,0.09185381311000002,1.698278852281163,0.46593046420015194,-1.280034767953793, ,0.013266733057244622,-0.00041030756464108725,0.004408749382784391,0.004731760056754701,0.01183687126162855,-0.0028919221080399306, ,0.6954038143157959
0.01047925791726826,0.020535264561334567,-0.08135160828349146, ,0.010689299479254401,0.020610503215637496,-0.08156262108311918, ,0.00030709072677243557, ,0.001796081334529204,0.0011273266181139232,-0.004165849857246389,0.004395708376096886,-0.002721056633178023,-0.0024242526546352826, ,0.004674513717732801, ,0.0051697582220074385, ,3.0501334051031863e-05, ,0.17756107424416992,-0.2394356100324567,0.09192640535,1.6984885422246472,0.46593046420015194,-1.2798714104735116, ,0.01356833593915796,-0.0003756182867124426,0.0045471914130745085,0.004514616500737941,0.01015671244845856,-0.0025158337667217515, ,0.7154548168182373
0.01052425496315636,0.020562970954379502,-0.08145514164316382, ,0.010726800131910387,0.020633059830830452,-0.08164602530407845, ,0.0002870079580637539, ,0.0017523922622609206,0.0009442376363351819,-0.0034871595479143754,0.0009718712768399883,-0.004093310287426457,-0.0015987049872334407, ,0.00401531381928165, ,0.004207103798605761, ,3.078511250549723e-05, ,0.1779317654221327,-0.23944333276533092,0.09204047887000001,1.6984885422246472,0.46647701019921367,-1.2801537246080161, ,0.014415455196486524,-0.00018184184876127355,0.0038419709406657026,0.004514616500737941,0.009598025898183407,0.0008246504599041388, ,0.7350549697875977
0.010542354062544957,0.020573754883878977,-0.08149396740936878, ,0.010764343455905335,0.020655289972324624,-0.08172949849743946, ,0.00033376961344632573, ,0.0018272485151794471,0.001227960508370767,-0.004431361268059692,0.011909348357058903,0.006387779560411992,-0.0021552582680235727, ,0.004948099315333443, ,0.013514299992726972, ,3.122975094875981e-05, ,0.178217506538479,-0.23945877823107936,0.09212862659000001,1.6986982321681319,0.46661364669897915,-1.2800201062912908, ,0.014293860755907632,-0.000644193004703828,0.004869706976459798,0.004900413355187116,0.020295858357235887,-0.009150596127726774, ,0.7553339004516602
0.010600614089129351,0.020610805292916624,-0.08162645786109556, ,0.01080192914883778,0.020677195582833575,-0.0818130393826451, ,0.00028239703972316826, ,0.0017106492868122867,0.0012031666045933702,-0.004389308539950739,0.0030735494207889597,0.0022434989364238773,-0.001709394443836397, ,0.004862094231888623, ,0.003805258452529099, ,3.1463409494847163e-05, ,0.17848780218907687,-0.2394665009639536,0.09222714463000001,1.6989079221116163,0.46661364669897915,-1.2798567488110097, ,0.012314530023720942,-0.0005640687154536984,0.0047848637789125875,0.005415802945271059,0.013778191764948076,-0.00044800504968105486, ,0.7750709056854248
0.010635394827701625,0.02063297862476023,-0.08170898010432306, ,0.010839556909432424,0.020698778600187488,-0.08189664668307445, ,0.0002850097141557284, ,0.0017080985155653965,0.0010538983742172346,-0.003778752619464548,0.0051412575413876905,-0.002446695407901945,-0.003452552276344253, ,0.004278699998967516, ,0.005693755066340497, ,3.1694716093746446e-05, ,0.17876582057254894,-0.23947422369682783,0.09231788493000001,1.6989079221116163,0.46702355619827546,-1.2801093237819585, ,0.013187457137085988,-0.0005924060801618891,0.00414596864133264,0.005415802945271059,0.009826650894683913,-0.0029330747136326963, ,0.7962958812713623
0.010673214081552737,0.020653584380484917,-0.08178850710408601, ,0.010877226437532883,0.020720040957349386,-0.0819803191260422, ,0.00028780092037384723, ,0.0018972652606511604,0.001118865502414323,-0.004065652922374635,0.005945734797569417,-0.0032716759396678795,-0.0035122083192791645, ,0.004623960333629602, ,0.006786429446062897, ,3.192446490112492e-05, ,0.1790592844217695,-0.23947422369682783,0.09240473636,1.6989079221116163,0.4671601926980409,-1.280057384205374, ,0.014888130147234196,-0.00045967761013389525,0.004465604575273339,0.005415802945271059,0.010739133141593688,-0.0038320236472202006, ,0.8156769275665283
0.010710827838643348,0.020674519465846513,-0.08186662258434696, ,0.010914937434106547,0.020740984582407324,-0.08206405544279025, ,0.000291647170863493, ,0.001853043083797306,0.0011365569140268463,-0.004218637378368244,0.0032974291159934064,0.00032722016371044584,-0.0018319871369274945, ,0.00474578040151427, ,0.003313624974913729, ,3.215635577376308e-05, ,0.17935274827099001,-0.23948194642970205,0.09249029150000002,1.6989079221116163,0.4672968291978063,-1.2800871233689297, ,0.014306790525926547,-0.00022143959310480724,0.0046237479013062415,0.0053244320033106725,0.013881864675032723,-0.001042048861062986, ,0.8369200229644775
0.010749652690947357,0.020698726623858528,-0.08195667938141489, ,0.010952689601238822,0.02076161139858829,-0.08214785436848579, ,0.000285878221477391, ,0.0018950374141645512,0.0011837914089428915,-0.004416117344426282,0.002533362509332853,-0.005042804774258583,-0.002213013626900291, ,0.004949204107804922, ,0.005643385855618009, ,3.235829507961374e-05, ,0.17964621212021054,-0.23948194642970205,0.09258880954000001,1.6991176120551008,0.46757010219733725,-1.280064922955901, ,0.013783143290990672,-0.0003139063094078761,0.004809423768115943,0.004243579282286488,0.008030549319533311,-0.0008534548847729645, ,0.856544017791748
0.010784952590946287,0.02072059125898997,-0.08203835816330642, ,0.010990482642132041,0.020781923324261594,-0.08223171464221685, ,0.00028877491599434596, ,0.0018494574597950873,0.0010827389409548192,-0.004308390055504053,0.00918150607589128,0.004859415468333903,-0.0016586346073904688, ,0.004811968555614, ,0.01038816495012612, ,3.2560460178435336e-05, ,0.1799165077708084,-0.23948966916257627,0.09267825355,1.6991176120551008,0.46784337519686814,-1.2802060800231532, ,0.014523560079349674,0.000648797380554825,0.0047168526858158135,0.004243579282286488,0.019105511321215685,-0.007840388087772527, ,0.8766629695892334
0.010809900602797096,0.02073473596216924,-0.08209343172369546, ,0.011028316261106164,0.02080192227294018,-0.08231563500698669, ,0.0003187376652593709, ,0.0019046655254505492,0.001196004222137809,-0.0047709129837873645,0.0038654002700477916,0.005209965984107909,0.00014470173113136013, ,0.005274446659326657, ,0.006487300080270708, ,3.295337388604285e-05, ,0.18009413062691557,-0.23948966916257627,0.09273788289000001,1.6991176120551008,0.46784337519686814,-1.2799610438027316, ,0.014159495905471617,0.000648797380554825,0.005197002127243068,0.004093444717389614,0.019105511321215685,-0.0022962764901044595, ,0.8941648006439209
0.010850400216074507,0.020760174781966855,-0.0821883182614207, ,0.011066190163593035,0.020821610153293393,-0.08239961420971238, ,0.00030819731352586387, ,0.002044888190217687,0.0011975201366678874,-0.0047793257952145575,-0.009999037920319734,-0.0074149481774999195,0.0013870511568263926, ,0.005334564391308826, ,0.012448381955634422, ,3.329861473044787e-05, ,0.1803953172090103,-0.23948966916257627,0.09284158609000001,1.6993273019985855,0.468116648196399,-1.2799388433897025, ,0.014543592576010848,0.0005452896737440446,0.005176734325641859,0.00365408025384897,0.006452067990250197,0.011151365645326278, ,0.9119658470153809
0.010886618389306643,0.020782329381300323,-0.08227329208275788, ,0.011104104056138289,0.02084098886914479,-0.08248365100121707, ,0.00030820743885685365, ,0.0016942617073594703,0.0009444549381861713,-0.0036648128897373788,0.007036314231825958,0.011989540858768345,0.0018261274636276069, ,0.004146489042560478, ,0.01390175554784303, ,3.363117838220912e-05, ,0.18068105832535664,-0.23948966916257627,0.09293491897000002,1.6993273019985855,0.4685265576956953,-1.2800280608803702, ,0.014749291507378111,0.00045058708022199416,0.0040738648388746815,0.00365408025384897,0.02687356940714886,-0.004809636004977678, ,0.9309389591217041
0.01092615029267509,0.020804689248202217,-0.0823561289661624, ,0.01114205764639986,0.020860060319478436,-0.0825677441362274, ,0.0003073482082725531, ,0.0020597780142350224,0.0012083246190397077,-0.004750300908386859,-0.006763560595900837,-0.008713110477514713,-0.0009760972483594474, ,0.0053167746400542915, ,0.01103014250628557, ,3.394913361708652e-05, ,0.18098224490745138,-0.23948966916257627,0.09302565927,1.69953699194207,0.46866319419546076,-1.280057800043926, ,0.014554745637802267,0.0003841304675245369,0.0051482907304460255,0.0047443903725375635,0.004861067268396379,0.007989167595239401, ,0.9471898078918457
0.010942085408911006,0.020814221548170857,-0.08239334683012486, ,0.011180050643142606,0.020878826398449884,-0.08265189237337034, ,0.0003572772555237365, ,0.0021610041381531515,0.0012917283130632292,-0.005075469869051596,-0.004957075938243564,-0.009257647462367244,-0.0014641299218583186, ,0.005665588699467589, ,0.010501268258020873, ,3.440351957513746e-05, ,0.18109036316769053,-0.23948966916257627,0.09306584426,1.69953699194207,0.46866319419546076,-1.2799761213037855, ,0.015031988208216501,0.0003645228322162002,0.005494588313211453,0.004655252948975226,0.004821272540706339,0.006096545592948597, ,0.9653539657592773
0.010990858184358255,0.02084712127971261,-0.08252267868024074, ,0.011218082756243622,0.02089728899537866,-0.08273609447516482, ,0.00031574373673394507, ,0.0019316730366690296,0.0013897438559609765,-0.005220705113819635,0.03859686391786969,0.030925304411407513,-0.002380167027714093, ,0.005737465519829982, ,0.04945798573895254, ,3.4721317887007e-05, ,0.18145333161277907,-0.23948194642970205,0.09320713987000001,1.69953699194207,0.46934637669428797,-1.280451532082127, ,0.016136191388959494,2.2596617285554908e-05,0.005790189574700111,0.004148247729906388,0.04797245300042041,-0.03549780717579235, ,0.9826469421386719
0.011030371974398387,0.020872543673042147,-0.08261929086217451, ,0.011256153696681943,0.020915449994770068,-0.08282034920802323, ,0.0003053568355170223, ,0.0021675935232159335,0.0010375859366198773,-0.004096759615787618,-0.03747253986964479,-0.02771213596206978,0.007461131634002394, ,0.004749577413550318, ,0.04660636997995412, ,3.4998543396135515e-05, ,0.18176224092774806,-0.23947422369682783,0.09331343565000001,1.6997466818855542,0.4698929226933497,-1.2802437737757881, ,0.015447980068121564,0.0001705293608754698,0.004425899283134204,0.0006178370131291664,-0.013039698290083392,0.038066669068249626, ,0.9993429183959961
0.011068479057459182,0.02089100193744991,-0.08268927296340482, ,0.011294263176544281,0.02093331127630583,-0.08290465534224231, ,0.0003148938197220692, ,0.0017047377683231907,0.0008168146565485621,-0.003047519414209366,0.0060093419714367215,0.016987233043077136,0.007317328346485293, ,0.003586180645461558, ,0.018018831180923414, ,3.529321350665589e-05, ,0.1820865957084655,-0.23947422369682783,0.09339121305,1.6997466818855542,0.4701661956928806,-1.2798948584021972, ,0.016873567133440747,0.00015494583918941756,0.0034824686313948408,0.0006178370131291664,0.035008470065044144,-0.0032667905719817453, ,1.020287036895752
0.011083215804510617,0.0208999424357779,-0.08272144318553515, ,0.01133241090902032,0.02095087471485555,-0.08298901165200039, ,0.00036916822914520223, ,0.0013531731319444754,0.0009237071052689368,-0.0033641061249163853,0.049468052852475165,0.057882357654994915,0.005389389189155554, ,0.003741860815295069, ,0.07614102429232977, ,3.572804485501299e-05, ,0.18225649583169842,-0.23947422369682783,0.09342880546000001,1.6997466818855542,0.4708493781917078,-1.2804519479206793, ,0.016051580101229836,0.00014617730521904513,0.003924319172209904,0.0006178370131291664,0.076765627724972,-0.04514687232225094, ,1.036374807357788
0.01112154172448046,0.020921352481659848,-0.08280328629654801, ,0.011370596608400538,0.020968142180482652,-0.08307341691535408, ,0.00037038920386118455, ,0.002231394252831029,0.0014294951925403181,-0.005435926112596899,0.009405782307879506,0.006317952232894439,-0.0014828448987172912, ,0.006047468025436435, ,0.01133072179933467, ,3.6152014786347516e-05, ,0.18254223694804472,-0.2394665009639536,0.09351824947000001,1.699956371829039,0.4709860146914732,-1.280154972123673, ,0.016604889161587186,5.3709923183120204e-05,0.00595247067264574,0.005361797001019707,0.022502209611932444,-0.006943206610901408, ,1.0568788051605225
0.011173573645775273,0.020951765766470638,-0.08292409821984839, ,0.011408819990074677,0.0209851155384492,-0.08315786991423385, ,0.00033332004874160343, ,0.002281010258561381,0.0012304252664940903,-0.00468624399415599,-0.03781877793929027,-0.015177126720990145,0.007041944039521371, ,0.0053551691764922235, ,0.04075052316309888, ,3.656102276170909e-05, ,0.1829052053931333,-0.23945877823107936,0.09364917476000001,1.699956371829039,0.47112265119123864,-1.2796946388463852, ,0.016604889161587186,2.163322062178468e-05,0.005105388307692308,0.005361797001019707,0.0,0.040610955632810614, ,1.0712378025054932
0.011192404154639193,0.02096377062602424,-0.08296945930698064, ,0.011447080770534482,0.021001796649213242,-0.08324236943443633, ,0.0003752147315755682, ,0.002240023035381334,0.0012557342880347238,-0.004755709338170165,-0.015548927446081601,-0.005979410913233131,0.002850932261334095, ,0.005404751900905719, ,0.01665900648778818, ,3.7070042914531896e-05, ,0.183067382783492,-0.23945877823107936,0.09369973007000001,1.699956371829039,0.471532560690535,-1.2800288925574745, ,0.016909647462307692,2.163322062178468e-05,0.005210602394504417,0.005361797001019707,0.009955422899040601,0.01814549907420937, ,1.0847289562225342
0.011214895329095967,0.02097666162283922,-0.08302136525665169, ,0.011485378667365658,0.021018187368445556,-0.08332691426562491, ,0.00041017779159067117, ,0.002226977505744388,0.0014190336096243244,-0.00543970018169415,0.032501417178479965,0.018965682227608714,-0.004770336577957513, ,0.0060467696552008905, ,0.0376302965202945, ,3.7657060086902687e-05, ,0.18324500563959917,-0.23945105549820514,0.09375676683,1.699956371829039,0.4718058336900659,-1.2800883708845865, ,0.017844479420547347,0.00034045438374857536,0.006008604873632592,0.005322952040841269,0.0370138715002245,-0.03018233032405897, ,1.0987279415130615
0.011268711080113855,0.02100832844973112,-0.08314481709155061, ,0.011523713399249553,0.021034289547028573,-0.083411503201323, ,0.0003698940963073107, ,0.0025788536528498253,0.0015863073033177356,-0.006219645009053785,-0.01643551442835272,-0.011057793520752342,0.0020672094285895657, ,0.006917430235428741, ,0.019809112114499004, ,3.8125123993791334e-05, ,0.1836079740846877,-0.23945105549820514,0.0938902847,1.699956371829039,0.4718058336900659,-1.2798433346641647, ,0.017160387261929616,0.00034045438374857536,0.006726694054054055,0.004838858807123724,0.005074039497095501,0.01822068563903141, ,1.1136109828948975
0.011293187392967205,0.021023057544055538,-0.08320459341387496, ,0.011562084685962383,0.02105010503106054,-0.08349613503890922, ,0.00039753470271290897, ,0.0025246170845345754,0.0015435637344619723,-0.006037474453404348,0.0097038799705183,-0.0123374523223813,-0.006377740967202162, ,0.006723643223831867, ,0.015696432979099777, ,3.86516102094248e-05, ,0.18377787420792066,-0.23944333276533092,0.0939550992,1.699956371829039,0.47194247018983126,-1.2797913950875799, ,0.016742579668043538,0.00027768300960736333,0.006528201442622951,0.004635306639005274,0.0034664686107999977,-0.009290637426920602, ,1.1272618770599365
0.011353508900239496,0.021063695183048698,-0.08336261863505237, ,0.01160049224837148,0.02106563566186351,-0.08358080857961436, ,0.0003295624244668689, ,0.0025687195011555404,0.0016830817653821126,-0.006571608570118514,0.024327910834410216,0.018463980824323344,-0.0034396059189100896, ,0.007253766146177697, ,0.030541215123038586, ,3.899408350947441e-05, ,0.184202624516003,-0.23942016456670825,0.09412750577000001,1.700375751716008,0.4726256526886585,-1.2802668058659215, ,0.019280158788799427,0.0006553897033822365,0.007210869859665008,0.006726273105597596,0.0376107298843901,-0.021612262006309627, ,1.14448881149292
0.011382898845684063,0.021079680296092574,-0.08342462336780121, ,0.011638935808435707,0.02108088327598575,-0.08366552262851572, ,0.00035155202640364125, ,0.00250227065074546,0.0014164774212315967,-0.005539802212862106,0.012759746679455727,0.004154734833088871,-0.003984310989043726, ,0.00624156833272479, ,0.013419126336671746, ,3.9382623481822475e-05, ,0.18441113830360706,-0.23942016456670825,0.09419491285,1.700375751716008,0.4726256526886585,-1.2802668058659215, ,0.019299764400746548,0.0006553897033822365,0.006088995229357799,0.006726273105597596,0.022734277764245688,-0.010794394662870495, ,1.1584618091583252
0.011410141909321273,0.02109156386431699,-0.08347852257588946, ,0.011677415089203,0.02109584970520775,-0.08375027599453366, ,0.00038118662314021645, ,0.0024306167166805556,0.0011950164860320379,-0.004917692254990767,0.0075752232619488375,-0.0019289204267829373,-0.004513216341276061, ,0.005614237182386535, ,0.007816952002226507, ,3.983427423116342e-05, ,0.1846119293583369,-0.23939699636808556,0.0942532459,1.700375751716008,0.4726256526886585,-1.280185127125781, ,0.019272327692622007,0.001350067814671314,0.005419806573664513,0.006726273105597596,0.016439695407751566,-0.006754414260574689, ,1.172027826309204
0.011461922669486858,0.021117596903625992,-0.08358585210918691, ,0.01171592981480738,0.021110536776550125,-0.0838350674904281, ,0.00035591822307293983, ,0.0027731309716541343,0.0014783455533711127,-0.005752863311635547,0.010081382052136973,-0.008273257661743031,-0.006232030759890984, ,0.0065552419668141815, ,0.013041512570157749, ,4.021380656026056e-05, ,0.1850212342006708,-0.2393738281694629,0.09437120829000001,1.700375751716008,0.47303556218795484,-1.2804377020967297, ,0.020833576631936506,0.0005144675528267459,0.0063034473763355775,0.006704465168823194,0.01142239348419736,-0.00883771151240615, ,1.1891238689422607
0.011485617046620829,0.021131679974670088,-0.08364426944584702, ,0.011754479710469817,0.021124946312273598,-0.08391989593279225, ,0.00038510055119022566, ,0.002376466853951558,0.0015846913804352751,-0.006185095171794131,0.05594028748168586,0.043784208625239476,-0.005453696114970959, ,0.006812799994371429, ,0.07103782569462848, ,4.075156513328018e-05, ,0.18522202525540063,-0.23935838270371446,0.09443602279,1.700375751716008,0.47358210818701657,-1.2808833737115153, ,0.020359781497204632,0.0009234051465162057,0.006895589402597403,0.0064040971760709305,0.0652048488155218,-0.052666107051635346, ,1.1999149322509766
0.011511970761623613,0.02114540733679633,-0.08370482274447252, ,0.011793064502495692,0.021139080129886727,-0.0840047601420494, ,0.0004111157588440562, ,0.0025464564799834977,0.0013349886045969836,-0.005797181738026309,0.02292184623011492,0.012020604215502353,-0.004913645787578401, ,0.006471008521286267, ,0.025882541485625975, ,4.134089885848431e-05, ,0.18542281631013047,-0.2393352145050918,0.09450213358000001,1.700375751716008,0.47385538118654746,-1.280942852038627, ,0.01997830348599385,0.0023450568098642858,0.006358806994011978,0.00611240992485892,0.0317945542928028,-0.022507504270789572, ,1.2114269733428955
0.011539738029647147,0.02116008676608133,-0.08376681877656293, ,0.011831683918270778,0.02115294004215455,-0.08408965894245007, ,0.00043532660182576114, ,0.00296720505689872,0.0015273881440801918,-0.006326553284659714,-0.01704834924609939,-0.02737072806107675,-0.003186585135192167, ,0.007152796436080136, ,0.032245975818311186, ,4.197610593234743e-05, ,0.1856236073648603,-0.23931976903934332,0.09456954066,1.700375751716008,0.47399201768631294,-1.280809233721902, ,0.019774315807141236,0.001318949178905987,0.006815922772785623,0.005847725965716977,-0.00938524688529414,0.016787926533581465, ,1.2223999500274658
0.011588966955673647,0.021185622596579606,-0.08387618857026582, ,0.011870337686265824,0.021166527857092932,-0.08417459116206323, ,0.0004105827613300982, ,0.003147890222164896,0.0016120213481014346,-0.007141222855997081,-0.022257212814636964,-0.01610757800606038,0.0050609293590985404, ,0.007968995517413173, ,0.027474307505834936, ,4.254178970297845e-05, ,0.18595568487845196,-0.23928115537497222,0.09468750305000001,1.7005854416594925,0.47399201768631294,-1.2804825187613396, ,0.021416597056752605,0.0026219373362573388,0.0076987972547124224,0.002230784615363519,0.004879844111751934,0.021475713625626672, ,1.2338390350341797
0.011618847257499926,0.021202727774145436,-0.08394913528001316, ,0.011909025536027861,0.021179845377985847,-0.08425955563277708, ,0.00042554416080298603, ,0.0027522143090108774,0.0017056671470892844,-0.0070595484569999645,0.036875870663273684,0.04173991364890204,0.004201771091154756, ,0.007766672932222297, ,0.05569605202398229, ,4.3131574926976304e-05, ,0.18619508959755293,-0.23925798717634952,0.09476787303,1.7005854416594925,0.47453856368537467,-1.2809281903761252, ,0.02281176479770932,0.001884253011211879,0.007823581296660118,0.002230784615363519,0.06658616367539895,-0.03433315231484721, ,1.2448530197143555
0.01164817595481626,0.021218520078429462,-0.08402248282877464, ,0.011947747198181924,0.021192894403385114,-0.08434455119029242, ,0.00044059917676259676, ,0.003224573864234053,0.0017200262331661467,-0.007798554225357938,0.017829731383432974,0.017705354768728684,0.0027532287490160353, ,0.008612422124729442, ,0.02512725372671917, ,4.374501400490467e-05, ,0.18642677158377965,-0.23921937351197842,0.09484824301000001,1.7005854416594925,0.4750851096844364,-1.281373861990911, ,0.024420211414943587,0.003629741242716335,0.00851352833778728,0.002230784615363519,0.0432443654914068,-0.01821770242689943, ,1.2557778358459473
0.011684743028004594,0.02123805581236597,-0.08410680007046459, ,0.011986502404430855,0.02120567672711246,-0.0844295766741176, ,0.0004430483746599167, ,0.0033521682332822065,0.0019285652390520778,-0.008228858390958322,0.0026296976499266735,-0.00045673445059860214,0.002459215760859215, ,0.009092332273072268, ,0.0026690594518342624, ,4.4352878673023255e-05, ,0.18666617630288063,-0.23919620531335573,0.09493898331000002,1.7005854416594925,0.4750851096844364,-1.2812921832507704, ,0.02297746768970237,0.0022892802760899073,0.00891870745800672,0.002230784615363519,0.02283834826521433,-0.002692111991603576, ,1.2670788764953613
0.011754432173480694,0.02127195758952454,-0.08426183863946478, ,0.012025290887552305,0.021218194138267556,-0.08451463092756437, ,0.00037437800763695246, ,0.0034181763039683776,0.001453602038820489,-0.0068439729701540025,-0.012362045364154285,-0.023643825801269606,-0.001101531866240072, ,0.007786966941529455, ,0.02668052940049418, ,4.479550000548361e-05, ,0.18714498574108254,-0.23911897798461348,0.09510620472,1.7007951316029768,0.4752217461842019,-1.281158564934045, ,0.024514838945613737,0.0036721533372198927,0.007394991420612815,0.0035269442295032087,0.0,0.009843577797534406, ,1.2815208435058594
0.01178690939672256,0.021286140118318097,-0.08433215982474357, ,0.012064112381395051,0.021230448421235854,-0.08459971279774593, ,0.0003892655304514406, ,0.003268344668468911,0.001338010395200764,-0.0066358910661053275,-0.0033026262240825766,-0.013722977292521872,-0.0015336591736389079, ,0.0075171403426297, ,0.014114794822437474, ,4.526339205543796e-05, ,0.18739211319305774,-0.23907264158736816,0.09518268583000002,1.7007951316029768,0.47549501918373277,-1.281381400741438, ,0.024134522268176698,0.00444291427923612,0.007184849580514209,0.0035269442295032087,0.009938995760836549,0.000426554000564476, ,1.292733907699585
0.011815128433890973,0.021300065194710307,-0.0843974792387743, ,0.012102966620878947,0.021242441355691904,-0.0846848211355712, ,0.00041077572270836727, ,0.0028752188702558857,0.0013469016226859136,-0.006681111415403424,0.04262637619778697,0.036644680575463155,-0.0013698299901260748, ,0.007397180359982, ,0.056212459018628404, ,4.587176715840711e-05, ,0.1876392406450329,-0.23903402792299702,0.09525527807,1.7007951316029768,0.47617820168256,-1.28193849025992, ,0.02442649718364756,0.004887859984141292,0.007377865456229736,0.0035269442295032087,0.06268055637500518,-0.04355716831368456, ,1.3008339405059814
0.011815128433890973,0.021300065194710307,-0.0843974792387743, ,0.01214185334199634,0.021254174716598455,-0.08476995479573811, ,0.0004975873210736908, ,0.0028752188702558857,0.0013469016226859136,-0.006681111415403424,0.04262637619778697,0.036644680575463155,-0.0013698299901260748, ,0.007397180359982, ,0.056212459018628404, ,4.666291445422792e-05, ,0.18790953629563076,-0.23897996879287745,0.09533046289000001,1.7007951316029768,0.47645147468209087,-1.2819162898468912, ,0.027474505373037285,0.0049034253717399326,0.007628741149425289,0.0035269442295032087,0.021997044188714922,-0.014154142990511737, ,1.3093698024749756
0.011849429018220031,0.021313269484553206,-0.08446643017026861, ,0.012180772281807892,0.0212656502742165,-0.08485511263673115, ,0.0005129619939659732, ,0.003535085696311699,0.0014029544914662376,-0.006994769361194844,0.01116227430352416,-0.005495621456033368,-0.002922762114212005, ,0.00796190370462385, ,0.012441792719332295, ,4.747726652978095e-05, ,0.18790953629563076,-0.23897996879287745,0.09533046289000001,1.7007951316029768,0.47645147468209087,-1.2819162898468912, ,0.027474505373037285,0.0049034253717399326,0.007628741149425289,0.0035269442295032087,0.021997044188714922,-0.014154142990511737, ,1.3193178176879883
0.011888261158474387,0.021329218488011472,-0.08454725034661975, ,0.012219723178437161,0.02127686979411622,-0.08494029352082064, ,0.0005168078881134155, ,0.00404110192527156,0.0018402914886911646,-0.00913656057445034,-0.009095302135586427,-0.013735517975430326,0.0006235401437745904, ,0.010158440661065209, ,0.016473885738467253, ,4.8289362166492615e-05, ,0.18817983194622862,-0.23892590966275787,0.09541731432000002,1.7007951316029768,0.47645147468209087,-1.2816712536264694, ,0.02777200513856329,0.0058786227712239155,0.009832599703703704,0.0035269442295032087,0.013684635854108002,0.005349303088567008, ,1.327908992767334
0.011926501368256391,0.021348275562881217,-0.08463760499829905, ,0.012258705771075894,0.02128783503717045,-0.08502549631405172, ,0.0005142688939039558, ,0.004402766003759823,0.0021749946405542034,-0.010453243977676555,-0.01957788275872547,-0.026812782866315537,0.00017118436175168645, ,0.011549253648055962, ,0.033199679118010236, ,4.908548459624364e-05, ,0.18843468213107803,-0.23887957326551254,0.09551453607,1.7007951316029768,0.4765881111818563,-1.2816193140498848, ,0.02769904890790157,0.005670729970150981,0.011178113347368422,0.0035269442295032087,0.0,0.015354657582159405, ,1.336042881011963
0.011973533991644383,0.02137425255849599,-0.08476189586601822, ,0.012297719799978513,0.02129854775956708,-0.08511071988624454, ,0.00048218860624549243, ,0.0038192203585940268,0.00229987251464418,-0.01105536987078473,0.050989452193219285,0.06309912932641053,0.003981566630331002, ,0.011920447169085965, ,0.08112597729192736, ,4.980268406617247e-05, ,0.18876675964466968,-0.23881006866964452,0.09564935023000001,1.7007951316029768,0.4772712936806835,-1.2820947248282264, ,0.02842928147347836,0.006685278775459044,0.012067281454545456,0.0035269442295032087,0.09430938718686536,-0.051422143209508546, ,1.34403395652771
0.012011829109586203,0.02139710442138327,-0.08487633329619944, ,0.012336765006460264,0.021309009712813548,-0.08519596311098934, ,0.00046422756624091483, ,0.004424144140640479,0.0025058998783845693,-0.012313276880857706,0.03095933190645131,0.0354241082146607,0.002123312634786644, ,0.013321763138650836, ,0.04704622611692147, ,5.0472512819454166e-05, ,0.18904477802814176,-0.23873284134090228,0.09577379407000002,1.7007951316029768,0.47822774917904154,-1.2827929714139608, ,0.029983235879453642,0.00767334790041524,0.01330727779448622,0.0035269442295032087,0.06712906789821636,-0.033826220371766774, ,1.3522648811340332
0.012011829109586203,0.02139710442138327,-0.08487633329619944, ,0.012375841132899794,0.02131922264373539,-0.08528122486563905, ,0.0005500068248755821, ,0.004424144140640479,0.0025058998783845693,-0.012313276880857706,0.03095933190645131,0.0354241082146607,0.002123312634786644, ,0.013321763138650836, ,0.04704622611692147, ,5.1315196300251674e-05, ,0.18904477802814176,-0.23873284134090228,0.09577379407000002,1.7007951316029768,0.47822774917904154,-1.2827929714139608, ,0.029983235879453642,0.00767334790041524,0.01330727779448622,0.0035269442295032087,0.06712906789821636,-0.033826220371766774, ,1.360940933227539
0.012021633708892514,0.021401605853494647,-0.08489942000815816, ,0.012414947922728849,0.021329188294495392,-0.08536650403131134, ,0.0006149047555045132, ,0.004593707087435005,0.002483013110125477,-0.012190777477747444,0.02195146006524732,0.023443846144848655,0.0018613181634533657, ,0.013262072025975425, ,0.03211666626237337, ,5.2283597910763774e-05, ,0.18910655989113556,-0.2387173958751538,0.09579842358000001,1.7007951316029768,0.47822774917904154,-1.2827929714139608, ,0.031123955906353157,0.007537789486238459,0.013164307041322315,0.0035269442295032087,0.05585144886457853,-0.02522667942412466, ,1.369431972503662
0.012109924230483154,0.021441000460522983,-0.08510367495142196, ,0.012454085120442238,0.021338908402580074,-0.08545179949287646, ,0.0005000601992114058, ,0.004589475302349339,0.001741227972624754,-0.00945163044122474,-0.018297954448814716,-0.030938898398166326,-0.0009195579298710782, ,0.010650280578511142, ,0.03594482571490327, ,5.311098913124468e-05, ,0.18969348758957663,-0.23856294121766933,0.09601749659000001,1.7010048215464617,0.47850102217857243,-1.2826074135206507, ,0.03171689223210922,0.007773492083327306,0.010139281680458308,0.003133429054228048,0.0,0.011781332661856962, ,1.3749058246612549
0.012109924230483154,0.021441000460522983,-0.08510367495142196, ,0.012493252471586364,0.021348384700820195,-0.08553711013895876, ,0.0005859900009109939, ,0.004589475302349339,0.001741227972624754,-0.00945163044122474,-0.018297954448814716,-0.030938898398166326,-0.0009195579298710782, ,0.010650280578511142, ,0.03594482571490327, ,5.411050584509574e-05, ,0.18969348758957663,-0.23856294121766933,0.09601749659000001,1.7010048215464617,0.47850102217857243,-1.2826074135206507, ,0.03171689223210922,0.007773492083327306,0.010139281680458308,0.003133429054228048,0.0,0.011781332661856962, ,1.380328893661499
0.012160634380271332,0.02145682079697903,-0.08520353833232593, ,0.012532449722762944,0.021357618917387942,-0.08562243486193016, ,0.0005688250735868044, ,0.005002457558835797,0.0014655817683998163,-0.009857645690961137,-0.037336992853185265,-0.034641050175875494,0.002981268310854909, ,0.011151039867041279, ,0.05093184955923222, ,5.5066115932018174e-05, ,0.19004101056891673,-0.23845482295743017,0.09612379237000002,1.7010048215464617,0.478364385678807,-1.2822509593965328, ,0.03546223526101299,0.012005045559673723,0.010521011571994717,0.0030971698366467474,0.0,0.027375113985489034, ,1.3857789039611816
0.012160634380271332,0.02145682079697903,-0.08520353833232593, ,0.012571676621623892,0.02136661277580672,-0.08570777255790675, ,0.0006567688828705674, ,0.005002457558835797,0.0014655817683998163,-0.009857645690961137,-0.037336992853185265,-0.034641050175875494,0.002981268310854909, ,0.011151039867041279, ,0.05093184955923222, ,5.619553050021349e-05, ,0.1903808108153826,-0.2383312592314426,0.09623397702000001,1.701214511489946,0.4789109316778688,-1.2826966310113184, ,0.03542252391133661,0.011490253578615902,0.012030824410876134,0.002093279532148728,0.05007479406362236,-0.016068717027605414, ,1.3915858268737793
0.012205677214930027,0.021473074622531323,-0.0853054254074871, ,0.0126109329168741,0.021375367994949934,-0.08579312212674255, ,0.0006415815295066039, ,0.004846771370646437,0.0018612771458005265,-0.01115052055199588,0.008607496116151744,0.013263657328498157,0.003750868436477786, ,0.012299985931426092, ,0.015811812759510574, ,5.7284399776975164e-05, ,0.1903808108153826,-0.2383312592314426,0.09623397702000001,1.701214511489946,0.4789109316778688,-1.2826966310113184, ,0.03542252391133661,0.011490253578615902,0.012030824410876134,0.002093279532148728,0.05007479406362236,-0.016068717027605414, ,1.3975110054016113
0.012205677214930027,0.021473074622531323,-0.0853054254074871, ,0.01265021835826703,0.0213838862890501,-0.08587848247202673, ,0.0007307296258995528, ,0.004846771370646437,0.0018612771458005265,-0.01115052055199588,0.008607496116151744,0.013263657328498157,0.003750868436477786, ,0.012299985931426092, ,0.015811812759510574, ,5.854702442112599e-05, ,0.1903808108153826,-0.2383312592314426,0.09623397702000001,1.701214511489946,0.4789109316778688,-1.2826966310113184, ,0.03542252391133661,0.011490253578615902,0.012030824410876134,0.002093279532148728,0.05007479406362236,-0.016068717027605414, ,1.4033238887786865
0.012254576391176782,0.021494584827516768,-0.08543075604764294, ,0.012689532696601443,0.021392169367706573,-0.0859638525010801, ,0.0006956060254943762, ,0.004654431042855514,0.0021637124581714642,-0.012690197718211622,0.05413308930690543,0.06073915513989474,0.0023263731940231297, ,0.013688918805429702, ,0.08136114549283917, ,5.972766110817114e-05, ,0.1907515019933454,-0.238207695505455,0.09637008747,1.701214511489946,0.47986738717622685,-1.2834765563371933, ,0.03420942377738672,0.01265123870930153,0.013743581984469372,0.002093279532148728,0.09823181016995515,-0.060792591629837245, ,1.409195899963379
0.012308661747902636,0.021515883407764377,-0.08556509312955016, ,0.012728875683724817,0.02140021893588246,-0.0860492311249477, ,0.0006514196961271873, ,0.005924323704824558,0.0021733889088006004,-0.013892364182968613,-0.020120969213654746,-0.02595579682659306,0.00019140216250290037, ,0.01525840795432711, ,0.03284138050593242, ,6.0808889510428955e-05, ,0.1910990249726855,-0.23806868631371897,0.09650360534,1.701214511489946,0.48041393317528863,-1.2837588704716978, ,0.03768742714792326,0.015024848251816146,0.014586823736263738,0.002093279532148728,0.011844110937476756,0.007037296541908058, ,1.4150469303131104
0.012308661747902636,0.021515883407764377,-0.08556509312955016, ,0.012768247072527267,0.021408036693917193,-0.0861346172583977, ,0.000739734626496232, ,0.005924323704824558,0.0021733889088006004,-0.013892364182968613,-0.020120969213654746,-0.02595579682659306,0.00019140216250290037, ,0.01525840795432711, ,0.03284138050593242, ,6.206013818952891e-05, ,0.1910990249726855,-0.23806868631371897,0.09650360534,1.701214511489946,0.48041393317528863,-1.2837588704716978, ,0.03768742714792326,0.015024848251816146,0.014586823736263738,0.002093279532148728,0.011844110937476756,0.007037296541908058, ,1.420461893081665
0.01237351170348276,0.021540008995318147,-0.0857208930811762, ,0.012807646616940666,0.021415624337530206,-0.08622000981991593, ,0.0006730989415132891, ,0.0069707476703585805,0.002833686677946609,-0.01770844920704382,-0.01409461564928522,-0.03099158210327529,-0.0038100547658488867, ,0.019240849165019527, ,0.034046066001061664, ,6.316695001439632e-05, ,0.19150060708214517,-0.23789878619048602,0.09667082675000001,1.701214511489946,0.48041393317528863,-1.2835955129914167, ,0.04100991424307294,0.01828457448140092,0.0185867112252042,0.002093279532148728,0.010062738269599626,-0.0028917001394973794, ,1.4258978366851807
0.012442212737615345,0.021568552538845404,-0.08589898659366621, ,0.012847074071938438,0.021422983557823117,-0.08630540773170121, ,0.0005918455623787424, ,0.0069707476703585805,0.002833686677946609,-0.01770844920704382,-0.01409461564928522,-0.03099158210327529,-0.0038100547658488867, ,0.019240849165019527, ,0.034046066001061664, ,6.4101712388593e-05, ,0.19150060708214517,-0.23789878619048602,0.09667082675000001,1.701214511489946,0.48082384267458494,-1.2838480879623655, ,0.043751471442356284,0.01789495409362074,0.01900812830548926,0.002093279532148728,0.02115454786165082,-0.009572132827505877, ,1.4320318698883057
0.012442212737615345,0.021568552538845404,-0.08589898659366621, ,0.012886529193534623,0.021430116041284992,-0.08639080991966039, ,0.0006771055758516819, ,0.007173118845999691,0.0029336705964520967,-0.017908840048766854,-0.0062892484254822995,-0.022903637988322338,-0.0029111369387312827, ,0.01951375435531664, ,0.02375140915094071, ,6.519951669074199e-05, ,0.19194080285597595,-0.2377057178686304,0.09686786283000001,1.701214511489946,0.48082384267458494,-1.2838480879623655, ,0.043751471442356284,0.01789495409362074,0.01900812830548926,0.002093279532148728,0.02115454786165082,-0.009572132827505877, ,1.4378390312194824
0.012495306599558413,0.02158965218153406,-0.08603561025954323, ,0.012926011738778734,0.021437023469801513,-0.08647621531340627, ,0.0006347718126111, ,0.00662778652877347,0.002567480064007892,-0.01708460109087754,0.06775052395758423,0.058752324713188225,-0.002646510814375594, ,0.018504137445027883, ,0.089677018796294, ,6.620424334259382e-05, ,0.19230377130106452,-0.23755126321114592,0.09701434360000001,1.701214511489946,0.4815070251734121,-1.2843234987407068, ,0.04742475840003537,0.020412334170460483,0.018393546789838337,0.002093279532148728,0.10992869035145632,-0.08205991514480429, ,1.4434819221496582
0.012495306599558413,0.02158965218153406,-0.08603561025954323, ,0.01296552146575808,0.02144370752065517,-0.0865616228462506, ,0.0007204797747395849, ,0.00662778652877347,0.002567480064007892,-0.01708460109087754,0.06775052395758423,0.058752324713188225,-0.002646510814375594, ,0.018504137445027883, ,0.089677018796294, ,6.737105145381287e-05, ,0.19230377130106452,-0.23755126321114592,0.09701434360000001,1.701214511489946,0.4815070251734121,-1.2843234987407068, ,0.04742475840003537,0.020412334170460483,0.018393546789838337,0.002093279532148728,0.10992869035145632,-0.08205991514480429, ,1.449110984802246
0.012556248702272621,0.02161241394672125,-0.08619113468385903, ,0.013005058133593244,0.021450169866533794,-0.08664703145520197, ,0.0006599961464426413, ,0.006819849218896466,0.0022469263011730134,-0.016801630309792995,0.030374126371293338,0.019078904123518273,0.0029553371160604795, ,0.018271666651905088, ,0.03586907855585379, ,6.85445664933947e-05, ,0.19273624434202108,-0.23735047215641608,0.09718156501000001,1.7014242014334306,0.4824634806717702,-1.2850217453264414, ,0.04633639724534706,0.022391916365849644,0.017917673250843646,-0.004894508604296276,0.06923304293766008,-0.04981347743401037, ,1.4522078037261963
0.012556248702272621,0.02161241394672125,-0.08619113468385903, ,0.013044621502439731,0.0214564121755309,-0.08673244008095864, ,0.0007455575614845284, ,0.006819849218896466,0.0022469263011730134,-0.016801630309792995,0.030374126371293338,0.019078904123518273,0.0029553371160604795, ,0.018271666651905088, ,0.03586907855585379, ,6.988253683922698e-05, ,0.19273624434202108,-0.23735047215641608,0.09718156501000001,1.7014242014334306,0.4824634806717702,-1.2850217453264414, ,0.04633639724534706,0.022391916365849644,0.017917673250843646,-0.004894508604296276,0.06923304293766008,-0.04981347743401037, ,1.455070972442627
0.012556248702272621,0.02161241394672125,-0.08619113468385903, ,0.013084211333480365,0.02146243611116027,-0.08681784766790977, ,0.0008330708586243731, ,0.006819849218896466,0.0022469263011730134,-0.016801630309792995,0.030374126371293338,0.019078904123518273,0.0029553371160604795, ,0.018271666651905088, ,0.03586907855585379, ,7.138783924905961e-05, ,0.19273624434202108,-0.23735047215641608,0.09718156501000001,1.7014242014334306,0.4824634806717702,-1.2850217453264414, ,0.04633639724534706,0.022391916365849644,0.017917673250843646,-0.004894508604296276,0.06923304293766008,-0.04981347743401037, ,1.4578900337219238
0.012556248702272621,0.02161241394672125,-0.08619113468385903, ,0.013123827388932984,0.02146824333234629,-0.08690325316412251, ,0.0009219780157536966, ,0.006819849218896466,0.0022469263011730134,-0.016801630309792995,0.030374126371293338,0.019078904123518273,0.0029553371160604795, ,0.018271666651905088, ,0.03586907855585379, ,7.306222936028921e-05, ,0.19273624434202108,-0.23735047215641608,0.09718156501000001,1.7014242014334306,0.4824634806717702,-1.2850217453264414, ,0.04633639724534706,0.022391916365849644,0.017917673250843646,-0.004894508604296276,0.06923304293766008,-0.04981347743401037, ,1.4607470035552979
0.012657722667413551,0.0216418574922076,-0.0864178097073608, ,0.013163469432038522,0.021473835493444785,-0.08698865552134673, ,0.0007809456609407223, ,0.008110663644659616,0.0020520811019451965,-0.017639766996182672,-0.03095979490290833,-0.0359114231791995,0.006489794267459862, ,0.019523198541360462, ,0.04741452844096085, ,0.0004074898728598671, ,0.19339267663633017,-0.2370415628414471,0.09742137866000002,1.7014242014334306,0.48260011717153567,-1.284724769529435, ,0.05425782822096671,0.02652234252612375,0.01867387048065651,-0.004894508604296276,0.020209332327765516,0.005972562719913737, ,1.463559865951538
0.012657722667413551,0.0216418574922076,-0.0864178097073608, ,0.013203137227066793,0.02147921424423715,-0.08707405369500443, ,0.0008686691195792188, ,0.008110663644659616,0.0020520811019451965,-0.017639766996182672,-0.03095979490290833,-0.0359114231791995,0.006489794267459862, ,0.019523198541360462, ,0.04741452844096085, ,0.0004123960350590091, ,0.19339267663633017,-0.2370415628414471,0.09742137866000002,1.7014242014334306,0.48260011717153567,-1.284724769529435, ,0.05425782822096671,0.02652234252612375,0.01867387048065651,-0.004894508604296276,0.020209332327765516,0.005972562719913737, ,1.4663870334625244
0.012657722667413551,0.0216418574922076,-0.0864178097073608, ,0.013242830539310945,0.02148438122994098,-0.08715944664418877, ,0.0009576927174210696, ,0.008110663644659616,0.0020520811019451965,-0.017639766996182672,-0.03095979490290833,-0.0359114231791995,0.006489794267459862, ,0.019523198541360462, ,0.04741452844096085, ,0.0004181360001365045, ,0.19339267663633017,-0.2370415628414471,0.09742137866000002,1.7014242014334306,0.48260011717153567,-1.284724769529435, ,0.05425782822096671,0.02652234252612375,0.01867387048065651,-0.004894508604296276,0.020209332327765516,0.005972562719913737, ,1.4691219329833984
0.012657722667413551,0.0216418574922076,-0.0864178097073608, ,0.013282549135089704,0.021489338091209072,-0.0872448333316566, ,0.0010476823743544505, ,0.008110663644659616,0.0020520811019451965,-0.017639766996182672,-0.03095979490290833,-0.0359114231791995,0.006489794267459862, ,0.019523198541360462, ,0.04741452844096085, ,0.0004246937748679414, ,0.19339267663633017,-0.2370415628414471,0.09742137866000002,1.7014242014334306,0.48260011717153567,-1.284724769529435, ,0.05425782822096671,0.02652234252612375,0.01867387048065651,-0.004894508604296276,0.020209332327765516,0.005972562719913737, ,1.4721100330352783
0.012740959728955397,0.021663768460094945,-0.08660555387278673, ,0.013322292781741315,0.02149408646414158,-0.08733021272382702, ,0.0009443889815129866, ,0.009176727524440667,0.002546867851843757,-0.020883502839370034,-0.018194791447844423,-0.027621183432013398,0.004835029168745304, ,0.022952550070843077, ,0.03307531160770815, ,0.0004300514574106739, ,0.1939641588690228,-0.2367558217251008,0.09762100732000001,1.7014242014334306,0.4831466631705974,-1.2850070836639393, ,0.06017561290962003,0.03000219461222598,0.022123349333333337,-0.004894508604296276,0.0349994048774113,-0.009705834781905735, ,1.4748690128326416
0.012740959728955397,0.021663768460094945,-0.08660555387278673, ,0.013362061247624724,0.021498627980287295,-0.08741558379077656, ,0.001034014962465752, ,0.009176727524440667,0.002546867851843757,-0.020883502839370034,-0.018194791447844423,-0.027621183432013398,0.004835029168745304, ,0.022952550070843077, ,0.03307531160770815, ,0.0004362143503193992, ,0.1939641588690228,-0.2367558217251008,0.09762100732000001,1.7014242014334306,0.4831466631705974,-1.2850070836639393, ,0.06017561290962003,0.03000219461222598,0.022123349333333337,-0.004894508604296276,0.0349994048774113,-0.009705834781905735, ,1.4776129722595215
0.012740959728955397,0.021663768460094945,-0.08660555387278673, ,0.013401854302116462,0.02150296426664963,-0.08750094550623369, ,0.0011244402174905314, ,0.009176727524440667,0.002546867851843757,-0.020883502839370034,-0.018194791447844423,-0.027621183432013398,0.004835029168745304, ,0.022952550070843077, ,0.03307531160770815, ,0.0004431661267554712, ,0.1939641588690228,-0.2367558217251008,0.09762100732000001,1.7014242014334306,0.4831466631705974,-1.2850070836639393, ,0.06017561290962003,0.03000219461222598,0.022123349333333337,-0.004894508604296276,0.0349994048774113,-0.009705834781905735, ,1.480402946472168
0.012828583695550191,0.02169479892542316,-0.08683637561650667, ,0.013441671715610764,0.021507096945689932,-0.08758629684757463, ,0.0009866563770351085, ,0.009632318429552068,0.003750104366164962,-0.02640852852883324,0.10398509857220446,0.10359682620957855,0.004520445999552286, ,0.028359393860652542, ,0.1467827996774688, ,0.00044860102925826754, ,0.19457425476608653,-0.23644691241013183,0.09786859871,1.7014242014334306,0.48464966466801723,-1.2862326806046, ,0.06571810357234818,0.03277959984748559,0.028343080996441283,-0.004894508604296276,0.17723460631587432,-0.12833728884313156, ,1.4833438396453857
0.012828583695550191,0.02169479892542316,-0.08683637561650667, ,0.013481513259517602,0.021511027635333115,-0.0876716367958196, ,0.001075987983311737, ,0.009632318429552068,0.003750104366164962,-0.02640852852883324,0.10398509857220446,0.10359682620957855,0.004520445999552286, ,0.028359393860652542, ,0.1467827996774688, ,0.0004548127812785989, ,0.19457425476608653,-0.23644691241013183,0.09786859871,1.7014242014334306,0.48464966466801723,-1.2862326806046, ,0.06571810357234818,0.03277959984748559,0.028343080996441283,-0.004894508604296276,0.17723460631587432,-0.12833728884313156, ,1.4863498210906982
0.012828583695550191,0.02169479892542316,-0.08683637561650667, ,0.013521378706257409,0.021514757948978003,-0.08775696433562992, ,0.0011661317549218526, ,0.009632318429552068,0.003750104366164962,-0.02640852852883324,0.10398509857220446,0.10359682620957855,0.004520445999552286, ,0.028359393860652542, ,0.1467827996774688, ,0.000461786496706474, ,0.19457425476608653,-0.23644691241013183,0.09786859871,1.7014242014334306,0.48464966466801723,-1.2862326806046, ,0.06571810357234818,0.03277959984748559,0.028343080996441283,-0.004894508604296276,0.17723460631587432,-0.12833728884313156, ,1.4892208576202393
0.012828583695550191,0.02169479892542316,-0.08683637561650667, ,0.013561267829265276,0.021518289495493094,-0.08784227845530022, ,0.0012569097579957706, ,0.009632318429552068,0.003750104366164962,-0.02640852852883324,0.10398509857220446,0.10359682620957855,0.004520445999552286, ,0.028359393860652542, ,0.1467827996774688, ,0.00046950614001996233, ,0.19457425476608653,-0.23644691241013183,0.09786859871,1.7014242014334306,0.48464966466801723,-1.2862326806046, ,0.06571810357234818,0.03277959984748559,0.028343080996441283,-0.004894508604296276,0.17723460631587432,-0.12833728884313156, ,1.4933500289916992
0.012828583695550191,0.02169479892542316,-0.08683637561650667, ,0.013601180402985767,0.021521623879227895,-0.08792757814675688, ,0.001348190725004987, ,0.009897510332097363,0.003923983869006317,-0.02730966222436616,0.10145811965914445,0.10062996930518456,0.004378609944311394, ,0.029311704334398024, ,0.14289900481212867, ,0.00047795503026020294, ,0.19457425476608653,-0.23644691241013183,0.09786859871,1.7014242014334306,0.48464966466801723,-1.2862326806046, ,0.06571810357234818,0.03277959984748559,0.028343080996441283,-0.004894508604296276,0.17723460631587432,-0.12833728884313156, ,1.49690580368042
0.012845124811450325,0.021700925325555672,-0.08688253820343796, ,0.01364111620287249,0.02152476270001567,-0.0880128624055519, ,0.0013936528863888072, ,0.009897510332097363,0.003923983869006317,-0.02730966222436616,0.10145811965914445,0.10062996930518456,0.004378609944311394, ,0.029311704334398024, ,0.14289900481212867, ,0.0004866759622233325, ,0.19468237302632566,-0.23638513054713803,0.09791785773000002,1.7014242014334306,0.4849229376675481,-1.2864555164119928, ,0.06640793670991657,0.03326215967699642,0.029280903529411772,-0.004894508604296276,0.17485787167028086,-0.12639922110640475, ,1.499931812286377
0.013062043730428283,0.021791892205275963,-0.08747465440349388, ,0.013681075005384024,0.02152770755318203,-0.0880981302308617, ,0.0009174504657404217, ,0.011724825289178328,0.004612808309699762,-0.03159435501650902,-0.023201387181776622,-0.025136882985612046,0.005043203641029684, ,0.034014008841549384, ,0.03420724736758528, ,0.000490739872633871, ,0.1959797921491954,-0.23574414371857738,0.09854785467,1.7014242014334306,0.48697248516402974,-1.2877183912667365, ,0.06433690953116662,0.035688958841094694,0.033323873472803356,-0.00457018694957344,0.04179521820758756,-0.009666098175459457, ,1.5031518936157227
0.013062043730428283,0.021791892205275963,-0.08747465440349388, ,0.013721056587987415,0.02153046002954272,-0.08818338062547759, ,0.0010024657533622687, ,0.011724825289178328,0.004612808309699762,-0.03159435501650902,-0.023201387181776622,-0.025136882985612046,0.005043203641029684, ,0.034014008841549384, ,0.03420724736758528, ,0.0004955223575004915, ,0.1959797921491954,-0.23574414371857738,0.09854785467,1.7014242014334306,0.48697248516402974,-1.2877183912667365, ,0.06433690953116662,0.035688958841094694,0.033323873472803356,-0.00457018694957344,0.04179521820758756,-0.009666098175459457, ,1.5062768459320068
0.013062043730428283,0.021791892205275963,-0.08747465440349388, ,0.013761060729151838,0.021533021715415174,-0.08826861259580619, ,0.0010890400847375144, ,0.011724825289178328,0.004612808309699762,-0.03159435501650902,-0.023201387181776622,-0.025136882985612046,0.005043203641029684, ,0.034014008841549384, ,0.03420724736758528, ,0.0005010178920119455, ,0.1959797921491954,-0.23574414371857738,0.09854785467,1.7014242014334306,0.48697248516402974,-1.2877183912667365, ,0.06433690953116662,0.035688958841094694,0.033323873472803356,-0.00457018694957344,0.04179521820758756,-0.009666098175459457, ,1.5091350078582764
0.013062043730428283,0.021791892205275963,-0.08747465440349388, ,0.013801087208346753,0.021535394192624385,-0.08835382515186427, ,0.0011768252621091174, ,0.011724825289178328,0.004612808309699762,-0.03159435501650902,-0.023201387181776622,-0.025136882985612046,0.005043203641029684, ,0.034014008841549384, ,0.03420724736758528, ,0.0005072179596275159, ,0.1959797921491954,-0.23574414371857738,0.09854785467,1.7014242014334306,0.48697248516402974,-1.2877183912667365, ,0.06433690953116662,0.035688958841094694,0.033323873472803356,-0.00457018694957344,0.04179521820758756,-0.009666098175459457, ,1.5119028091430664
0.013190757912123638,0.02182884974589783,-0.08779510458050352, ,0.013841135806047164,0.021537579038497626,-0.08843901730727002, ,0.0009604444958380946, ,0.013073119911271974,0.0029805793121892615,-0.0306153326626558,-0.06291534103918525,-0.059656053296248485,0.004092331689859411, ,0.03342288005686861, ,0.08670154517951119, ,0.0005113382008657939, ,0.1967366199708694,-0.2352730570132497,0.09888489007000001,1.7014242014334306,0.4873823946633261,-1.2877259300172637, ,0.07901493884968425,0.05061170216451775,0.03211453935483872,-0.004379772491865554,0.02109486943392366,0.014882660120974216, ,1.5146918296813965
0.013190757912123638,0.02182884974589783,-0.08779510458050352, ,0.013881206303721343,0.021539577825884792,-0.0885241880792465, ,0.001044968886286667, ,0.013073119911271974,0.0029805793121892615,-0.0306153326626558,-0.06291534103918525,-0.059656053296248485,0.004092331689859411, ,0.03342288005686861, ,0.08670154517951119, ,0.0005161456845182342, ,0.1967366199708694,-0.2352730570132497,0.09888489007000001,1.7014242014334306,0.4873823946633261,-1.2877259300172637, ,0.07901493884968425,0.05061170216451775,0.03211453935483872,-0.004379772491865554,0.02109486943392366,0.014882660120974216, ,1.517441987991333
0.013190757912123638,0.02182884974589783,-0.08779510458050352, ,0.013921298483838069,0.021541392123151173,-0.08860933648861025, ,0.001131059243353384, ,0.013073119911271974,0.0029805793121892615,-0.0306153326626558,-0.06291534103918525,-0.059656053296248485,0.004092331689859411, ,0.03342288005686861, ,0.08670154517951119, ,0.0005216359841506908, ,0.1967366199708694,-0.2352730570132497,0.09888489007000001,1.7014242014334306,0.4873823946633261,-1.2877259300172637, ,0.07901493884968425,0.05061170216451775,0.03211453935483872,-0.004379772491865554,0.02109486943392366,0.014882660120974216, ,1.5205919742584229
0.013317851976037623,0.021859100806023424,-0.08810516333010648, ,0.013961412129863028,0.021543023494184372,-0.08869446155976829, ,0.0009280877879455794, ,0.012446323778545824,0.0029440167571451537,-0.03032211011029401,0.07715724110398797,0.06003772789493449,-0.006712648867880426, ,0.03290909557869284, ,0.09776370999866436, ,0.0005252329027683447, ,0.19755522965553718,-0.23476335664355086,0.09921285144000001,1.701214511489946,0.4884754866614496,-1.2885355945066943, ,0.08368336998101479,0.05112981765003813,0.03224455773279353,-0.0022380431579415326,0.1498976633625948,-0.12103761377350764, ,1.5233449935913086
0.013317851976037623,0.021859100806023424,-0.08810516333010648, ,0.014001547026250668,0.02154447349841005,-0.08877956232072032, ,0.0010105658132565224, ,0.012446323778545824,0.0029440167571451537,-0.03032211011029401,0.07715724110398797,0.06003772789493449,-0.006712648867880426, ,0.03290909557869284, ,0.09776370999866436, ,0.0005294902090006971, ,0.19755522965553718,-0.23476335664355086,0.09921285144000001,1.701214511489946,0.4884754866614496,-1.2885355945066943, ,0.08368336998101479,0.05112981765003813,0.03224455773279353,-0.0022380431579415326,0.1498976633625948,-0.12103761377350764, ,1.5261878967285156
0.013317851976037623,0.021859100806023424,-0.08810516333010648, ,0.014041702958454368,0.021545743690778843,-0.08886463780304338, ,0.0010949677627505139, ,0.012446323778545824,0.0029440167571451537,-0.03032211011029401,0.07715724110398797,0.06003772789493449,-0.006712648867880426, ,0.03290909557869284, ,0.09776370999866436, ,0.0005344074051202608, ,0.19755522965553718,-0.23476335664355086,0.09921285144000001,1.701214511489946,0.4884754866614496,-1.2885355945066943, ,0.08368336998101479,0.05112981765003813,0.03224455773279353,-0.0022380431579415326,0.1498976633625948,-0.12103761377350764, ,1.5290608406066895
0.013317851976037623,0.021859100806023424,-0.08810516333010648, ,0.014081879712914268,0.021546835621787337,-0.08894968704189675, ,0.0011808760425120212, ,0.012446323778545824,0.0029440167571451537,-0.03032211011029401,0.07715724110398797,0.06003772789493449,-0.006712648867880426, ,0.03290909557869284, ,0.09776370999866436, ,0.0005399804106150174, ,0.19755522965553718,-0.23476335664355086,0.09921285144000001,1.701214511489946,0.4884754866614496,-1.2885355945066943, ,0.08368336998101479,0.05112981765003813,0.03224455773279353,-0.0022380431579415326,0.1498976633625948,-0.12103761377350764, ,1.531898021697998
0.013451808788721065,0.02188562998638898,-0.08840658382876407, ,0.014122077077060615,0.021547750837475215,-0.08903470907601348, ,0.0009787559572520883, ,0.013474211684349246,0.0021626645575467825,-0.02790374147484666,0.049294324110474304,0.02922822292452094,-0.0038501193932406613, ,0.03106203932130343, ,0.05730796182266783, ,0.0005437306289623428, ,0.19849740306619257,-0.23422276534235514,0.09953433136,1.701214511489946,0.48997848815886946,-1.2898428701874955, ,0.09813541009148995,0.05322318651624834,0.02982923505617978,-0.0022380431579415326,0.1328358821383846,-0.09546207964167287, ,1.5347378253936768
0.013451808788721065,0.02188562998638898,-0.08840658382876407, ,0.014162294839310818,0.02154849087943291,-0.08911970294769704, ,0.001061598833509863, ,0.013474211684349246,0.0021626645575467825,-0.02790374147484666,0.049294324110474304,0.02922822292452094,-0.0038501193932406613, ,0.03106203932130343, ,0.05730796182266783, ,0.0005481193425602032, ,0.19849740306619257,-0.23422276534235514,0.09953433136,1.701214511489946,0.48997848815886946,-1.2898428701874955, ,0.09813541009148995,0.05322318651624834,0.02982923505617978,-0.0022380431579415326,0.1328358821383846,-0.09546207964167287, ,1.5391039848327637
0.013451808788721065,0.02188562998638898,-0.08840658382876407, ,0.014202532789069843,0.021549057284803563,-0.08920466770281583, ,0.0011462135831395712, ,0.013474211684349246,0.0021626645575467825,-0.02790374147484666,0.049294324110474304,0.02922822292452094,-0.0038501193932406613, ,0.03106203932130343, ,0.05730796182266783, ,0.0005531453445818786, ,0.19849740306619257,-0.23422276534235514,0.09953433136,1.701214511489946,0.48997848815886946,-1.2898428701874955, ,0.09813541009148995,0.05322318651624834,0.02982923505617978,-0.0022380431579415326,0.1328358821383846,-0.09546207964167287, ,1.542099952697754
0.013586661064376398,0.0219040002761605,-0.08867691710219568, ,0.014242790716725809,0.021549451586291537,-0.08928960239079992, ,0.0009651912541315412, ,0.013969671204344393,0.0015477445138570047,-0.027373497923044183,-0.01612350608696406,-0.04316440060117206,-0.006426762914481616, ,0.030771019079331247, ,0.046077299818749064, ,0.0005565790604947924, ,0.19946274467547065,-0.23368217404115943,0.09982210774000001,1.701214511489946,0.4909349436572275,-1.2904594380330894, ,0.09733019647022642,0.057478462482417184,0.028961475490909095,-0.0022380431579415326,0.05678738243502258,-0.03775834309825404, ,1.544848918914795
0.013586661064376398,0.0219040002761605,-0.08867691710219568, ,0.014283068413647525,0.021549675312169312,-0.08937450606463887, ,0.0010474539306092494, ,0.013969671204344393,0.0015477445138570047,-0.027373497923044183,-0.01612350608696406,-0.04316440060117206,-0.006426762914481616, ,0.030771019079331247, ,0.046077299818749064, ,0.0005606358776031763, ,0.19946274467547065,-0.23368217404115943,0.09982210774000001,1.701214511489946,0.4909349436572275,-1.2904594380330894, ,0.09733019647022642,0.057478462482417184,0.028961475490909095,-0.0022380431579415326,0.05678738243502258,-0.03775834309825404, ,1.547609806060791
0.013586661064376398,0.0219040002761605,-0.08867691710219568, ,0.014323365672189697,0.021549729986272727,-0.08945937778087133, ,0.0011315855385891438, ,0.013969671204344393,0.0015477445138570047,-0.027373497923044183,-0.01612350608696406,-0.04316440060117206,-0.006426762914481616, ,0.030771019079331247, ,0.046077299818749064, ,0.0005653157928571596, ,0.19946274467547065,-0.23368217404115943,0.09982210774000001,1.701214511489946,0.4909349436572275,-1.2904594380330894, ,0.09733019647022642,0.057478462482417184,0.028961475490909095,-0.0022380431579415326,0.05678738243502258,-0.03775834309825404, ,1.5503499507904053
0.013586661064376398,0.0219040002761605,-0.08867691710219568, ,0.014363682285681675,0.02154961712801913,-0.08954421659958758, ,0.0012171925945476288, ,0.014414760296130192,0.0005308698890351838,-0.027445239616699667,-0.03234928504519025,-0.05017300132514674,-0.007723292335096656, ,0.031004972421404223, ,0.05969749352560959, ,0.0005706156042530171, ,0.20044353175049714,-0.23305663267834725,0.10010858783000001,1.701214511489946,0.4914814896562893,-1.2908234309077344, ,0.10106170560007538,0.06802648140392172,0.028961475490909095,-0.0022380431579415326,0.05337142508930499,-0.031928579181244324, ,1.553462028503418
0.013727108658586515,0.021914118159892113,-0.08894861293527839, ,0.014404018048434192,0.021549338252400838,-0.08962902158441957, ,0.0010267553909278592, ,0.014414760296130192,0.0005308698890351838,-0.027445239616699667,-0.03234928504519025,-0.05017300132514674,-0.007723292335096656, ,0.031004972421404223, ,0.05969749352560959, ,0.0005742941509197497, ,0.20044353175049714,-0.23305663267834725,0.10010858783000001,1.701214511489946,0.4914814896562893,-1.2908234309077344, ,0.10106170560007538,0.06802648140392172,0.028961475490909095,-0.0022380431579415326,0.05337142508930499,-0.031928579181244324, ,1.5562529563903809
0.013727108658586515,0.021914118159892113,-0.08894861293527839, ,0.014444372755732994,0.021548894869997497,-0.08971379180253994, ,0.0011105649622784174, ,0.014414760296130192,0.0005308698890351838,-0.027445239616699667,-0.03234928504519025,-0.05017300132514674,-0.007723292335096656, ,0.031004972421404223, ,0.05969749352560959, ,0.0005785843174106191, ,0.20044353175049714,-0.23305663267834725,0.10010858783000001,1.701214511489946,0.4914814896562893,-1.2908234309077344, ,0.10106170560007538,0.06802648140392172,0.028961475490909095,-0.0022380431579415326,0.05337142508930499,-0.031928579181244324, ,1.5590569972991943
0.013727108658586515,0.021914118159892113,-0.08894861293527839, ,0.01448474620383653,0.021548288486981104,-0.08979852632465891, ,0.0011959091809175695, ,0.014414760296130192,0.0005308698890351838,-0.027445239616699667,-0.03234928504519025,-0.05017300132514674,-0.007723292335096656, ,0.031004972421404223, ,0.05969749352560959, ,0.0005834837210892457, ,0.20044353175049714,-0.23305663267834725,0.10010858783000001,1.701214511489946,0.4914814896562893,-1.2908234309077344, ,0.10106170560007538,0.06802648140392172,0.028961475490909095,-0.0022380431579415326,0.05337142508930499,-0.031928579181244324, ,1.5618839263916016
0.013864104176550682,0.021919015429469366,-0.08922030547516693, ,0.014525138189980065,0.02154752060511362,-0.08988322422501402, ,0.0010071919580360474, ,0.01334933721925245,0.0006934136556724403,-0.026958665250704936,0.04396749326208382,0.019602780831117553,-0.011951169031750641, ,0.030090783618755387, ,0.04813933153520453, ,0.0005868200064195354, ,0.20141659609264945,-0.2323770321854155,0.10039506792000001,1.701214511489946,0.49243794515464734,-1.2914399987533283, ,0.09585549652370785,0.06513173751439313,0.028546257204301078,-0.0022380431579415326,0.12048011930240898,-0.1031829845502614, ,1.5646820068359375
0.013864104176550682,0.021919015429469366,-0.08922030547516693, ,0.014565548512366484,0.02154659272176226,-0.0899678845813728, ,0.0010906866412950687, ,0.01334933721925245,0.0006934136556724403,-0.026958665250704936,0.04396749326208382,0.019602780831117553,-0.011951169031750641, ,0.030090783618755387, ,0.04813933153520453, ,0.0005907564645045005, ,0.20141659609264945,-0.2323770321854155,0.10039506792000001,1.701214511489946,0.49243794515464734,-1.2914399987533283, ,0.09585549652370785,0.06513173751439313,0.028546257204301078,-0.0022380431579415326,0.12048011930240898,-0.1031829845502614, ,1.567518949508667
0.013864104176550682,0.021919015429469366,-0.08922030547516693, ,0.014605976970170551,0.021545506329896772,-0.09005250647502373, ,0.0011757732747173393, ,0.01334933721925245,0.0006934136556724403,-0.026958665250704936,0.04396749326208382,0.019602780831117553,-0.011951169031750641, ,0.030090783618755387, ,0.04813933153520453, ,0.0005952914785371582, ,0.20141659609264945,-0.2323770321854155,0.10039506792000001,1.701214511489946,0.49243794515464734,-1.2914399987533283, ,0.09585549652370785,0.06513173751439313,0.028546257204301078,-0.0022380431579415326,0.12048011930240898,-0.1031829845502614, ,1.5702829360961914
0.013864104176550682,0.021919015429469366,-0.08922030547516693, ,0.014646423363534078,0.021544262918098224,-0.09013708899077433, ,0.0012621231198226238, ,0.01334933721925245,0.0006934136556724403,-0.026958665250704936,0.04396749326208382,0.019602780831117553,-0.011951169031750641, ,0.030090783618755387, ,0.04813933153520453, ,0.0006004209527008925, ,0.2024437195649213,-0.2316510952952384,0.10069710349000001,1.7010048215464617,0.4935310371527709,-1.2921679845026186, ,0.10138562132315254,0.07513613741763323,0.029280903529411772,-0.005227942245566482,0.07757567003518519,-0.06915535511174714, ,1.5730059146881104
0.014008480576639382,0.02192203707860924,-0.08950677344742179, ,0.014686887493566397,0.021542863970561887,-0.09022163121694454, ,0.0010559497248674996, ,0.014461199789350062,-9.688885572507028e-05,-0.02790252597130468,-0.002378398952984075,-0.027896418281968257,-0.01167027248262177, ,0.03142748227868714, ,0.027997321687272505, ,0.0006038982715723933, ,0.2024437195649213,-0.2316510952952384,0.10069710349000001,1.7010048215464617,0.4935310371527709,-1.2921679845026186, ,0.10138562132315254,0.07513613741763323,0.029280903529411772,-0.005227942245566482,0.07757567003518519,-0.06915535511174714, ,1.575819969177246
0.014008480576639382,0.02192203707860924,-0.08950677344742179, ,0.014727369162341254,0.02154131096710384,-0.09030613224536484, ,0.0011404944798127736, ,0.014461199789350062,-9.688885572507028e-05,-0.02790252597130468,-0.002378398952984075,-0.027896418281968257,-0.01167027248262177, ,0.03142748227868714, ,0.027997321687272505, ,0.0006079633943620932, ,0.2024437195649213,-0.2316510952952384,0.10069710349000001,1.7010048215464617,0.4935310371527709,-1.2921679845026186, ,0.10138562132315254,0.07513613741763323,0.029280903529411772,-0.005227942245566482,0.07757567003518519,-0.06915535511174714, ,1.5786309242248535
0.014008480576639382,0.02192203707860924,-0.08950677344742179, ,0.014767868172895585,0.021539605383165628,-0.0903905911713703, ,0.001226400135434259, ,0.014461199789350062,-9.688885572507028e-05,-0.02790252597130468,-0.002378398952984075,-0.027896418281968257,-0.01167027248262177, ,0.03142748227868714, ,0.027997321687272505, ,0.0006126132946709065, ,0.2024437195649213,-0.2316510952952384,0.10069710349000001,1.7010048215464617,0.4935310371527709,-1.2921679845026186, ,0.10138562132315254,0.07513613741763323,0.029280903529411772,-0.005227942245566482,0.07757567003518519,-0.06915535511174714, ,1.5815680027008057
0.014118238514933415,0.021921099102279403,-0.08971812780342764, ,0.01480838432922791,0.02153774868981905,-0.09047500709379701, ,0.0010936750175037247, ,0.015195260276861343,-4.4318986540856445e-05,-0.028674282158606682,-0.015265461538073294,-0.04412848478739662,-0.011560198029268694, ,0.032451692657941865, ,0.046694090640436246, ,0.0006162033075278679, ,0.20320827011946951,-0.2310796130625458,0.10091876908000001,1.7010048215464617,0.49407758315183264,-1.2925319773772637, ,0.10603010229996734,0.07628371507915659,0.030111174896030254,-0.005227942245566482,0.06553505593105179,-0.057838231681564545, ,1.5844628810882568
0.014118238514933415,0.021921099102279403,-0.08971812780342764, ,0.014848917436296356,0.021535742353772213,-0.0905593791149779, ,0.0011790230188292235, ,0.015195260276861343,-4.4318986540856445e-05,-0.028674282158606682,-0.015265461538073294,-0.04412848478739662,-0.011560198029268694, ,0.032451692657941865, ,0.046694090640436246, ,0.0006203723424263964, ,0.20320827011946951,-0.2310796130625458,0.10091876908000001,1.7010048215464617,0.49407758315183264,-1.2925319773772637, ,0.10603010229996734,0.07628371507915659,0.030111174896030254,-0.005227942245566482,0.06553505593105179,-0.057838231681564545, ,1.587338924407959
0.014118238514933415,0.021921099102279403,-0.08971812780342764, ,0.014889467300020031,0.02153358783736987,-0.09064370634073562, ,0.0012655648731310278, ,0.015195260276861343,-4.4318986540856445e-05,-0.028674282158606682,-0.015265461538073294,-0.04412848478739662,-0.011560198029268694, ,0.032451692657941865, ,0.046694090640436246, ,0.0006251164051521657, ,0.20320827011946951,-0.2310796130625458,0.10091876908000001,1.7010048215464617,0.49407758315183264,-1.2925319773772637, ,0.10603010229996734,0.07628371507915659,0.030111174896030254,-0.005227942245566482,0.06553505593105179,-0.057838231681564545, ,1.590099811553955
0.014118238514933415,0.021921099102279403,-0.08971812780342764, ,0.014930033727269296,0.021531286598609572,-0.09072798788038546, ,0.0013530641632317538, ,0.015195260276861343,-4.4318986540856445e-05,-0.028674282158606682,-0.015265461538073294,-0.04412848478739662,-0.011560198029268694, ,0.032451692657941865, ,0.046694090640436246, ,0.0006304298924374182, ,0.20453658017383614,-0.23012199418614193,0.10129858205000002,1.7005854416594925,0.49489740215042527,-1.2932821635395828, ,0.11138138680571688,0.08035304111640201,0.03173070023904383,-0.0090277045405367,0.07720575759089078,-0.054298585534420636, ,1.5932378768920898
0.014309505761429116,0.02191912060333495,-0.09008010645276336, ,0.014970616525875204,0.021528840091132106,-0.09081222284672133, ,0.001060839636973386, ,0.015992984359726372,-0.00011897376100549275,-0.030179153239688086,-0.022445533633878814,-0.039041446386895697,-0.004928888414156776, ,0.034155102016402115, ,0.04503344847779283, ,0.0006335488036297078, ,0.20453658017383614,-0.23012199418614193,0.10129858205000002,1.7005854416594925,0.49489740215042527,-1.2932821635395828, ,0.11138138680571688,0.08035304111640201,0.03173070023904383,-0.0090277045405367,0.07720575759089078,-0.054298585534420636, ,1.5959830284118652
0.014309505761429116,0.02191912060333495,-0.09008010645276336, ,0.015011215504619011,0.021526249764238062,-0.09089641035601868, ,0.0011459040633361051, ,0.015992984359726372,-0.00011897376100549275,-0.030179153239688086,-0.022445533633878814,-0.039041446386895697,-0.004928888414156776, ,0.034155102016402115, ,0.04503344847779283, ,0.0006372348126923437, ,0.20453658017383614,-0.23012199418614193,0.10129858205000002,1.7005854416594925,0.49489740215042527,-1.2932821635395828, ,0.11138138680571688,0.08035304111640201,0.03173070023904383,-0.0090277045405367,0.07720575759089078,-0.054298585534420636, ,1.5986969470977783
0.014309505761429116,0.02191912060333495,-0.09008010645276336, ,0.015051830473236638,0.021523517062885206,-0.09098054952802596, ,0.0012322117799976051, ,0.015992984359726372,-0.00011897376100549275,-0.030179153239688086,-0.022445533633878814,-0.039041446386895697,-0.004928888414156776, ,0.034155102016402115, ,0.04503344847779283, ,0.0006414846481730956, ,0.20453658017383614,-0.23012199418614193,0.10129858205000002,1.7005854416594925,0.49489740215042527,-1.2932821635395828, ,0.11138138680571688,0.08035304111640201,0.03173070023904383,-0.0090277045405367,0.07720575759089078,-0.054298585534420636, ,1.6014339923858643
0.014466863696442794,0.021915984797812232,-0.09037951811757546, ,0.015092461242410307,0.021520643427701627,-0.09106463948596497, ,0.0010084931223689234, ,0.015907554684212236,-0.0005733024998539977,-0.030249418147002435,0.004119815182129084,-0.017513564801830986,-0.0037384913565465874, ,0.03418195825314491, ,0.017990900536731646, ,0.0006440875451532077, ,0.20564093097485026,-0.22931110723434836,0.10161358052000001,1.700375751716008,0.49585385764878337,-1.2939804101253172, ,0.11164346065702443,0.0846538283304824,0.031794034970059885,-0.015045884135228303,0.1012439748043997,-0.08580807363390544, ,1.604301929473877
0.014466863696442794,0.021915984797812232,-0.09037951811757546, ,0.01513310762377541,0.021517630294980532,-0.0911486793565198, ,0.001092783735296363, ,0.015907554684212236,-0.0005733024998539977,-0.030249418147002435,0.004119815182129084,-0.017513564801830986,-0.0037384913565465874, ,0.03418195825314491, ,0.017990900536731646, ,0.0006472473774781596, ,0.20564093097485026,-0.22931110723434836,0.10161358052000001,1.700375751716008,0.49585385764878337,-1.2939804101253172, ,0.11164346065702443,0.0846538283304824,0.031794034970059885,-0.015045884135228303,0.1012439748043997,-0.08580807363390544, ,1.6072759628295898
0.014466863696442794,0.021915984797812232,-0.09037951811757546, ,0.015173769429909813,0.021514479096696484,-0.09123266826984021, ,0.0011784683815641234, ,0.015907554684212236,-0.0005733024998539977,-0.030249418147002435,0.004119815182129084,-0.017513564801830986,-0.0037384913565465874, ,0.03418195825314491, ,0.017990900536731646, ,0.000650962209674565, ,0.20564093097485026,-0.22931110723434836,0.10161358052000001,1.700375751716008,0.49585385764878337,-1.2939804101253172, ,0.11164346065702443,0.0846538283304824,0.031794034970059885,-0.015045884135228303,0.1012439748043997,-0.08580807363390544, ,1.6100659370422363
0.014466863696442794,0.021915984797812232,-0.09037951811757546, ,0.01521444647433962,0.021511191260501054,-0.09131660535953093, ,0.001265255040176701, ,0.015907554684212236,-0.0005733024998539977,-0.030249418147002435,0.004119815182129084,-0.017513564801830986,-0.0037384913565465874, ,0.03418195825314491, ,0.017990900536731646, ,0.0006552281321086076, ,0.20564093097485026,-0.22931110723434836,0.10161358052000001,1.700375751716008,0.49585385764878337,-1.2939804101253172, ,0.11164346065702443,0.0846538283304824,0.031794034970059885,-0.015045884135228303,0.1012439748043997,-0.08580807363390544, ,1.6128900051116943
0.014636996076828465,0.021908458098328004,-0.09070469565041972, ,0.015255138571535758,0.021507768209730084,-0.09140048976264846, ,0.0010133025102109189, ,0.01561347784305859,-0.0009116782492238282,-0.030395423803725504,-0.006516490113931461,-0.0215757139691864,-0.004708362797069775, ,0.03418323618082221, ,0.02253774905445035, ,0.0006576976105782787, ,0.20681478637173237,-0.2283843792894414,0.10195450479000001,1.700375751716008,0.49681031314714147,-1.294760335451192, ,0.10650610724856428,0.08770512158823549,0.031794034970059885,-0.015045884135228303,0.09168128560310443,-0.07859447791637436, ,1.6168808937072754
0.014636996076828465,0.021908458098328004,-0.09070469565041972, ,0.015295845536908008,0.02150421136341459,-0.09148432061970145, ,0.0010978675359362817, ,0.01561347784305859,-0.0009116782492238282,-0.030395423803725504,-0.006516490113931461,-0.0215757139691864,-0.004708362797069775, ,0.03418323618082221, ,0.02253774905445035, ,0.0006607124730807309, ,0.20681478637173237,-0.2283843792894414,0.10195450479000001,1.700375751716008,0.49681031314714147,-1.294760335451192, ,0.10650610724856428,0.08770512158823549,0.031794034970059885,-0.015045884135228303,0.09168128560310443,-0.07859447791637436, ,1.6197309494018555
0.014636996076828465,0.021908458098328004,-0.09070469565041972, ,0.015336567186808866,0.02150052213627848,-0.09156809707464061, ,0.001183753988968633, ,0.01561347784305859,-0.0009116782492238282,-0.030395423803725504,-0.006516490113931461,-0.0215757139691864,-0.004708362797069775, ,0.03418323618082221, ,0.02253774905445035, ,0.0006642705786309887, ,0.20681478637173237,-0.2283843792894414,0.10195450479000001,1.700375751716008,0.49681031314714147,-1.294760335451192, ,0.10650610724856428,0.08770512158823549,0.031794034970059885,-0.015045884135228303,0.09168128560310443,-0.07859447791637436, ,1.622622013092041
0.014746484573067879,0.02190223811591717,-0.0909154590262974, ,0.01537730333852803,0.02149670193874853,-0.09165181827485819, ,0.001051007539835102, ,0.015538087344574314,-0.0011336217799911641,-0.029741738380700235,-0.0206582729436911,-0.03627960476303024,-0.004937115228780417, ,0.03357511367923731, ,0.04174866094718372, ,0.0006668836662066922, ,0.20755616872765792,-0.22777428339237768,0.10217487409,1.700375751716008,0.4973568591462032,-1.2952060070659777, ,0.10520725228211839,0.08786753848006552,0.031050314853801175,-0.015045884135228303,0.07506621985615028,-0.06533183356357555, ,1.6258800029754639
0.014746484573067879,0.02190223811591717,-0.0909154590262974, ,0.015418053810296452,0.021492752176952342,-0.09173548337117865, ,0.0011362763311798764, ,0.015538087344574314,-0.0011336217799911641,-0.029741738380700235,-0.0206582729436911,-0.03627960476303024,-0.004937115228780417, ,0.03357511367923731, ,0.04174866094718372, ,0.0006700339525487941, ,0.20755616872765792,-0.22777428339237768,0.10217487409,1.700375751716008,0.4973568591462032,-1.2952060070659777, ,0.10520725228211839,0.08786753848006552,0.031050314853801175,-0.015045884135228303,0.07506621985615028,-0.06533183356357555, ,1.6287729740142822
0.014746484573067879,0.02190223811591717,-0.0909154590262974, ,0.015458818421275559,0.021488674252734975,-0.09181909151786263, ,0.0012227044859838116, ,0.015538087344574314,-0.0011336217799911641,-0.029741738380700235,-0.0206582729436911,-0.03627960476303024,-0.004937115228780417, ,0.03357511367923731, ,0.04174866094718372, ,0.0006737184227716942, ,0.20755616872765792,-0.22777428339237768,0.10217487409,1.700375751716008,0.4973568591462032,-1.2952060070659777, ,0.10520725228211839,0.08786753848006552,0.031050314853801175,-0.015045884135228303,0.07506621985615028,-0.06533183356357555, ,1.6317188739776611
0.014958259741457612,0.021889321171578456,-0.09132101679599589, ,0.015499596991563705,0.02148446956365364,-0.09190264187259475, ,0.0008917614997971012, ,0.015643720611533123,-0.001107130157119203,-0.029915397005825524,-0.0417546176040279,-0.057734439060411306,-0.001023255558443286, ,0.03377695530643139, ,0.07125089182314802, ,0.0006751624166592797, ,0.20897715157651522,-0.2266081507283698,0.10259876092,1.7001660617725234,0.4983133146445613,-1.2959859323918528, ,0.10292509930419824,0.08690196113413075,0.031171842504892373,-0.01883591094870597,0.0512885204012908,-0.0450338865723879, ,1.6346018314361572
0.014958259741457612,0.021889321171578456,-0.09132101679599589, ,0.015540389342191017,0.021480139502987303,-0.09198613359648311, ,0.0009740045524798314, ,0.015643720611533123,-0.001107130157119203,-0.029915397005825524,-0.0417546176040279,-0.057734439060411306,-0.001023255558443286, ,0.03377695530643139, ,0.07125089182314802, ,0.0006771284833423096, ,0.20897715157651522,-0.2266081507283698,0.10259876092,1.7001660617725234,0.4983133146445613,-1.2959859323918528, ,0.10292509930419824,0.08690196113413075,0.031171842504892373,-0.01883591094870597,0.0512885204012908,-0.0450338865723879, ,1.6373248100280762
0.014958259741457612,0.021889321171578456,-0.09132101679599589, ,0.015581195295117813,0.021475685459741614,-0.09206956585405446, ,0.0010580495727710913, ,0.015643720611533123,-0.001107130157119203,-0.029915397005825524,-0.0417546176040279,-0.057734439060411306,-0.001023255558443286, ,0.03377695530643139, ,0.07125089182314802, ,0.0006796181636653735, ,0.20897715157651522,-0.2266081507283698,0.10259876092,1.7001660617725234,0.4983133146445613,-1.2959859323918528, ,0.10292509930419824,0.08690196113413075,0.031171842504892373,-0.01883591094870597,0.0512885204012908,-0.0450338865723879, ,1.6400609016418457
0.014958259741457612,0.021889321171578456,-0.09132101679599589, ,0.015622014673235976,0.02147110881865025,-0.09215293781324808, ,0.0011434879800626587, ,0.015643720611533123,-0.001107130157119203,-0.029915397005825524,-0.0417546176040279,-0.057734439060411306,-0.001023255558443286, ,0.03377695530643139, ,0.07125089182314802, ,0.0006826303053302909, ,0.20897715157651522,-0.2266081507283698,0.10259876092,1.7001660617725234,0.4983133146445613,-1.2959859323918528, ,0.10292509930419824,0.08690196113413075,0.031171842504892373,-0.01883591094870597,0.0512885204012908,-0.0450338865723879, ,1.6428298950195312
0.015108735224345304,0.02187249236553004,-0.09160895277711166, ,0.015662847300360033,0.02146641096018878,-0.0922362486454161, ,0.0009302915709287644, ,0.015211213469407504,-0.0018559057793591125,-0.029141661923670768,-0.01848860049710516,-0.02423409656014205,-0.004163152683247686, ,0.03292509470217611, ,0.030481121491614027, ,0.0006842281199470553, ,0.2099811068501644,-0.22572003644783398,0.10289820391000001,1.6997466818855542,0.4989964971433885,-1.2965430219103349, ,0.10225963530007626,0.09249214576849003,0.030340593371428574,-0.016745752229425814,0.08482347611404707,-0.07192921555267082, ,1.645596981048584
0.015108735224345304,0.02187249236553004,-0.09160895277711166, ,0.01570369300123701,0.021461593260565785,-0.09231949752531117, ,0.0010137488199441977, ,0.015211213469407504,-0.0018559057793591125,-0.029141661923670768,-0.01848860049710516,-0.02423409656014205,-0.004163152683247686, ,0.03292509470217611, ,0.030481121491614027, ,0.000686340432126524, ,0.2099811068501644,-0.22572003644783398,0.10289820391000001,1.6997466818855542,0.4989964971433885,-1.2965430219103349, ,0.10225963530007626,0.09249214576849003,0.030340593371428574,-0.016745752229425814,0.08482347611404707,-0.07192921555267082, ,1.6483259201049805
0.015108735224345304,0.02187249236553004,-0.09160895277711166, ,0.015744551601531688,0.021456657091743995,-0.09240268363109203, ,0.0010987220344489015, ,0.015211213469407504,-0.0018559057793591125,-0.029141661923670768,-0.01848860049710516,-0.02423409656014205,-0.004163152683247686, ,0.03292509470217611, ,0.030481121491614027, ,0.0006889670665362207, ,0.2099811068501644,-0.22572003644783398,0.10289820391000001,1.6997466818855542,0.4989964971433885,-1.2965430219103349, ,0.10225963530007626,0.09249214576849003,0.030340593371428574,-0.016745752229425814,0.08482347611404707,-0.07192921555267082, ,1.6510310173034668
0.015108735224345304,0.02187249236553004,-0.09160895277711166, ,0.01578542292783629,0.021451603821431395,-0.09248580614430996, ,0.0011848735131550427, ,0.015211213469407504,-0.0018559057793591125,-0.029141661923670768,-0.01848860049710516,-0.02423409656014205,-0.004163152683247686, ,0.03292509470217611, ,0.030481121491614027, ,0.0006921057149325424, ,0.2099811068501644,-0.22572003644783398,0.10289820391000001,1.6997466818855542,0.4989964971433885,-1.2965430219103349, ,0.10225963530007626,0.09249214576849003,0.030340593371428574,-0.016745752229425814,0.08482347611404707,-0.07192921555267082, ,1.6538150310516357
0.01526668622178986,0.021853017677465197,-0.09191112126772825, ,0.0158263068076608,0.021446434813095716,-0.09256886424991134, ,0.0009545211659992294, ,0.014653149782318175,-0.0019711230294821684,-0.02844750888012831,-0.0006859899199152418,-0.0018981294217884543,0.0010426860884808506, ,0.03206026958753443, ,0.0020136650947322064, ,0.0006937561265744712, ,0.2110468439868074,-0.22476241757143012,0.10321320238000001,1.69953699194207,0.4999529526417466,-1.2973229472362098, ,0.09905735026980249,0.09124705919083728,0.029662591284916204,-0.022003828737792924,0.10584530332784395,-0.0887071375339601, ,1.6567089557647705
0.01526668622178986,0.021853017677465197,-0.09191112126772825, ,0.015867203069435547,0.02144115142596517,-0.09265185713623014, ,0.0010387222536926038, ,0.014653149782318175,-0.0019711230294821684,-0.02844750888012831,-0.0006859899199152418,-0.0018981294217884543,0.0010426860884808506, ,0.03206026958753443, ,0.0020136650947322064, ,0.0006959121648689595, ,0.2110468439868074,-0.22476241757143012,0.10321320238000001,1.69953699194207,0.4999529526417466,-1.2973229472362098, ,0.09905735026980249,0.09124705919083728,0.029662591284916204,-0.022003828737792924,0.10584530332784395,-0.0887071375339601, ,1.6595869064331055
0.01526668622178986,0.021853017677465197,-0.09191112126772825, ,0.01590811154251207,0.021435755015029985,-0.09273478399498045, ,0.001124257470417977, ,0.014653149782318175,-0.0019711230294821684,-0.02844750888012831,-0.0006859899199152418,-0.0018981294217884543,0.0010426860884808506, ,0.03206026958753443, ,0.0020136650947322064, ,0.00069857269471709, ,0.2110468439868074,-0.22476241757143012,0.10321320238000001,1.69953699194207,0.4999529526417466,-1.2973229472362098, ,0.09905735026980249,0.09124705919083728,0.029662591284916204,-0.022003828737792924,0.10584530332784395,-0.0887071375339601, ,1.6626160144805908
