NicholasDascanio/dvrk_moveit_final/test/execution/third_experiment_notsharpbends/thirdexp_400vel3.0/thirdexp_400vel3.0_12.csv
Current Position (x),Current Position (y),Current Position (z), ,Planned Position (x),Planned Position (y),Planned Position (z), ,Position Error,,Cartesian linear Velocity(x),Cartesian linear Velocity(y),Cartesian linear Velocity(z),Cartesian Angular Velocity(x),Cartesian Angular Velocity(y),Cartesian Angular Velocity(z), ,Total Linear Velocity, ,Total Angular Velocity, ,MSE, ,Joint 1 Position,Joint 2 Position,Joint 3 Position,Joint 4 Position,Joint 5 Position,Joint 6 Position, ,Joint 1 Velocity,Joint 2 Velocity,Joint 3 Velocity,Joint 4 Velocity,Joint 5 Velocity,Joint 6 Velocity, ,Time Stamp
0.010086078949340384,0.020325577294726768,-0.0797722515669551, ,0.010249070541610396,0.020268227559009543,-0.0797983390232419, ,0.00017474497621695884, ,2.856515860150254e-05,4.9029871662251775e-06,4.860919453324996e-06,0.023647431145770535,-0.00044059001259190233,0.0003352769552078462, ,2.9387686316089543e-05, ,0.023651535243048263, ,1.4562081351413237e-05, ,0.14273154898141738,-0.24705022464644205,0.08952826885000001,1.6058055872044876,0.15057342274151536,-1.303367039865143, ,0.00036066838399850825,-7.134192371875153e-05,0.0,-0.0006294445470506104,0.0,-0.023665395579597792, ,0.02733302116394043
0.010094242868326374,0.020326864234999673,-0.07977714349639958, ,0.010265226735718105,0.020280548571724063,-0.07983934527092792, ,0.00018774899287976856, ,0.0009698616425868079,0.00039401064456752113,-0.0015003335014390385,0.23845479142734452,-0.07288581098472492,-0.020519366938243896, ,0.001829447077489267, ,0.24934520047025532, ,1.6476998595305793e-05, ,0.14274699444716585,-0.24705022464644205,0.08953345401000001,1.6058055872044876,0.14989024024268818,-1.3073839597945323, ,0.0009149065179199027,-0.00011870790615126664,0.0015672253100009967,-0.0006159580938234733,-0.07484259706140452,-0.23842877353845404, ,0.056060075759887695
0.010136758430233822,0.02033138327096892,-0.07979203220864044, ,0.010281561772147825,0.02029267815473064,-0.07988086022386152, ,0.00017423119738037762, ,0.0012198521811145715,7.096136688376091e-05,1.978453166701411e-05,0.24650078063626615,-0.12205291644397817,-0.031937922242002655, ,0.0012220745832612968, ,0.2750628096758435, ,1.6772661452409533e-05, ,0.1427701626457885,-0.2470579473793163,0.08954900949000001,1.6058055872044876,0.14565450874995953,-1.3142215260376542, ,0.001039283884827746,-0.0008647015601903975,0.0,-0.0005946552838731663,-0.12521504526278243,-0.245717038011657, ,0.08472704887390137
0.010166159666399594,0.020333961600621335,-0.07980205802553701, ,0.01029807493265407,0.02030461743479716,-0.07992288056346762, ,0.0001812754898239119, ,0.0009004941984166617,0.00027954629759068623,-0.000675303139501056,-0.06882328617254872,-0.08174253845981518,-0.019612589964069022, ,0.0011597716430826843, ,0.1068573222266156, ,1.7095253721452785e-05, ,0.14277788537866273,-0.2470579473793163,0.08955937981,1.6058055872044876,0.1426485057551198,-1.3169977715253287, ,0.0005339550730153024,-0.0012477638979434343,0.0007320191801887241,-0.0005826245917500422,-0.0835713616250931,0.06998964637408923, ,0.11191201210021973
0.010170033631859327,0.02033711899065594,-0.07981154154777614, ,0.01031476550055956,0.020316367536065104,-0.0799654029796896, ,0.00021225286079475076, ,0.00020836185916298311,0.00021159417380133618,-0.0011732331533236527,-0.307274426207006,0.009026584319456913,0.004516509487750354, ,0.00121023253583693, ,0.30740698141928857, ,1.788949071338015e-05, ,0.14280877631015965,-0.24706567011219052,0.08956975013000001,1.6058055872044876,0.1426485057551198,-1.3134039069591439, ,0.0017956525131108355,0.0010661797030527608,0.0012193425245245366,-0.0005720893059093921,0.011682968766549635,0.30614120201919093, ,0.14183306694030762
0.01016004365735205,0.020348515622642484,-0.07985848047852218, ,0.010331632760753384,0.02032792958005305,-0.08000842417098043, ,0.0002288006041591327, ,0.0003794953781839174,0.0003950281994155923,-0.0013311359152238626,-0.043548672011089515,-0.014901696701523241,-0.0026749662321203364, ,0.0014394397678247428, ,0.04602768078569091, ,1.8694421310562908e-05, ,0.14284738997453075,-0.2470579473793163,0.08961900915000001,1.6058055872044876,0.14483468975136687,-1.3129812674344916, ,0.0006981796837862638,-0.0006395653277975234,0.0014067380055457293,-0.0005518300120209362,-0.014440116829926788,0.044108593414946884, ,0.1708521842956543
0.010174078792126203,0.020359980673530564,-0.07990380308973713, ,0.010348675999689251,0.020339304685660246,-0.08005194084429522, ,0.00022990536246190628, ,0.0004917381849260583,0.0004674094056778174,-0.001470432684153945,0.0006579979334911857,-0.0032735629608094978,-0.0005252256680314808, ,0.0016193981208024912, ,0.0033390381447339383, ,1.9291103940511202e-05, ,0.142924617303273,-0.2470579473793163,0.08966697188000002,1.6055958972610032,0.14469805325160143,-1.313441600711779, ,0.0034423487495386963,-0.0009671827841488304,0.0015891369959755838,0.000693208171901548,0.0,0.0003950738552251816, ,0.19790911674499512
0.010181081602284014,0.020367843821592277,-0.07993055686017526, ,0.010365894505384369,0.020350493969167237,-0.08009594971508056, ,0.0002486194340458468, ,0.00039937161857613236,0.0003042836485040179,-0.0014698762978159236,-0.021241821011634143,-0.0021165040019338233,-0.0008893653039197844, ,0.0015532619094512303, ,0.02134700328087393, ,1.9970474606861627e-05, ,0.14296323096764413,-0.24706567011219052,0.08969549026000001,1.6058055872044876,0.14469805325160143,-1.313114885751217, ,0.0023065208350854472,0.0009042862824944566,0.0015373172076623466,0.0009175268118806905,0.0,0.020473901248265373, ,0.22704005241394043
0.010197769171031988,0.020380157393321684,-0.07997650534751663, ,0.010383287567417751,0.02036149854423956,-0.0801404475072682, ,0.0002482785930978046, ,0.0004957813857830117,0.0002948767113338798,-0.0012760928154190057,0.007208321981130746,-0.003418224760653868,-0.0016823539748349915, ,0.0014004157707409653, ,0.007977729394672149, ,2.0498451205004978e-05, ,0.14308679469363172,-0.24706567011219052,0.08974474928000001,1.6060152771479719,0.14469805325160143,-1.3130332070110764, ,0.0038289520727838792,0.000495244538725646,0.001360473985555328,0.0016342715593928919,0.0,-0.007472664140936069, ,0.25736212730407715
0.010213872770201703,0.02039158141929255,-0.08002275361878568, ,0.010400854476928964,0.02037231952192907,-0.08018543095326461, ,0.00024859021399453886, ,0.0005424310837164496,0.0003896813725524308,-0.001479569963558697,0.004543558768907003,-0.0036432453148320166,-0.0015451935276717971, ,0.0016233330926711351, ,0.00582384432342303, ,2.0925958086813695e-05, ,0.14320263568674507,-0.2470579473793163,0.0897940083,1.6060152771479719,0.14469805325160143,-1.3130332070110764, ,0.004037127342384945,0.0,0.0015347228184837297,0.001585039896369486,0.0,-0.004344473470820967, ,0.28466296195983887
0.010231365135612534,0.020404570137087345,-0.08006993836875262, ,0.010418594526616051,0.020382958010678506,-0.08023089679394356, ,0.0002478498406362348, ,0.00046674341770617394,0.0003297882250094441,-0.0013265587491167116,0.003089146108710658,-0.002994383977141501,-0.001525389988169466, ,0.001444426462712801, ,0.004302227223127102, ,2.1462140229650736e-05, ,0.14331847667985845,-0.24706567011219052,0.08984456361000001,1.6060152771479719,0.144561416751836,-1.31292178910738, ,0.003375178651072847,0.00022301782544405322,0.0014140850974024447,0.001538751210668142,0.0,-0.003096817359381488, ,0.30997419357299805
0.010241680074542398,0.0204118617126978,-0.08009776055886389, ,0.010436507010734794,0.020393415116321433,-0.08027684177863689, ,0.00026526947668243956, ,0.0004553116329660816,0.00028360408770479884,-0.0011323746573362913,0.0026195697299575406,-0.0032033171825181293,-0.0014897327332896613, ,0.0012530013273155756, ,0.004138041389360893, ,2.2063058684780592e-05, ,0.1433957040086007,-0.24706567011219052,0.08987437828000001,1.6060152771479719,0.144561416751836,-1.31292178910738, ,0.0035762372957954865,0.0001902968562820089,0.001214617799357379,0.0015094938178717631,0.0,-0.0025987845816617837, ,0.3370499610900879
0.010258014733918408,0.020422977873795573,-0.08014540197852756, ,0.01045459122509648,0.02040369194208677,-0.08032326266512622, ,0.00026579820895391535, ,0.0005984304711974949,0.00048019239433344513,-0.0017405829307278894,0.002569633257444043,-0.0038869661132555325,-0.0013804407935974663, ,0.001902191552702995, ,0.00465956227851749, ,2.2584226752927025e-05, ,0.14351154500171406,-0.24705022464644205,0.08992493359,1.6060152771479719,0.144561416751836,-1.31292178910738, ,0.004248953423313652,-0.0002740807057911872,0.0018654188452980444,0.0014678759501551401,0.0,-0.002094835426305299, ,0.3637251853942871
0.010275832397683876,0.020439769563174337,-0.08020757966568548, ,0.010472846467067205,0.020413789588599286,-0.08037015621963413, ,0.00025675014801888137, ,0.0005839796927384809,0.0005153206807649442,-0.0020912726571763866,0.00161935163367602,-0.0030937481577219396,-0.0014268839038124009, ,0.0022315933796748367, ,0.003491930316729947, ,2.2971850718452664e-05, ,0.14361966326195322,-0.2470579473793163,0.08999104438000001,1.6060152771479719,0.144561416751836,-1.31292178910738, ,0.003445495493970753,0.0003321765947788565,0.002209572967124428,0.001427984590862268,0.0,-0.0017499515622097742, ,0.3913571834564209
0.010286723220498813,0.020450229253423824,-0.08024783060099624, ,0.010491272035565198,0.020423709153885476,-0.08041751921681593, ,0.0002670912948101972, ,0.0006300793902890646,0.0004334162091436924,-0.0017490561774863222,0.0014708129407754228,-0.004266130235364335,-0.0013981455655986145, ,0.0019089387524010805, ,0.004512555581427593, ,2.3382358462290237e-05, ,0.14369689059069546,-0.2470579473793163,0.09003382195000001,1.6060152771479719,0.14469805325160143,-1.3130332070110764, ,0.004611526265354487,0.0003056710939857807,0.0018660744517338334,0.001402807358980426,0.0,-0.0015785652210642018, ,0.4163351058959961
0.01029822297876046,0.020458738271004497,-0.08027923141149482, ,0.010509867231060939,0.020433451733370838,-0.08046534843975019, ,0.00028297039902423874, ,0.0005936849799808701,0.0004248277456366869,-0.0017124274690553168,0.0011866692372832564,-0.0042110328397181925,-0.00010582000523058158, ,0.0018615446021228806, ,0.004375040735944558, ,2.3847289057569896e-05, ,0.14378184065231192,-0.2470579473793163,0.09006752549000001,1.6062249670914566,0.14469805325160143,-1.3130332070110764, ,0.00422829519633229,0.0002643465831078896,0.001824287370194743,6.307701314046228e-05,0.0,-0.0014395442921624876, ,0.4415769577026367
0.010316976820813794,0.020471427532840557,-0.08033020072474477, ,0.010528631355574088,0.020443018419887386,-0.08051364067993134, ,0.0002815225336313871, ,0.0005870205323971659,0.0004162030113388348,-0.001596035739893642,0.0012526896826149765,-0.004330136522210595,-7.028703818482241e-05, ,0.0017507564465456672, ,0.00450769494659472, ,2.4252725009771458e-05, ,0.14392084984404796,-0.24705022464644205,0.09012196967000001,1.6062249670914566,0.14469805325160143,-1.3130332070110764, ,0.004347177409415486,2.3765490139295335e-05,0.0017094667868641342,6.307701314046228e-05,0.0,-0.0012674540604730158, ,0.4681429862976074
0.01034089098342417,0.020487277813475376,-0.08039048222316283, ,0.010547563712672743,0.020452410303673847,-0.08056239273726032, ,0.0002710767144409029, ,0.00087139053656344,0.0005516303185053022,-0.0021007116418583238,0.0011099167507364254,-0.006901365292245846,-6.936606632332418e-05, ,0.002340215134927914, ,0.006990047070633405, ,2.45561858681218e-05, ,0.14410619543302935,-0.24705022464644205,0.09018678417,1.6062249670914566,0.14469805325160143,-1.3130332070110764, ,0.006918224181191283,2.3765490139295335e-05,0.002263258243819267,6.307701314046228e-05,0.0,-0.0011246663454007196, ,0.49305009841918945
0.010358773917261267,0.020498380793831164,-0.08043522406289831, ,0.010566663607472118,0.020461628472377626,-0.08061160142003602, ,0.0002750960351205966, ,0.0008049748717391051,0.0005577359254896917,-0.00218391563155936,0.0008925572169107485,-0.0059356607558958266,-8.982107975295902e-05, ,0.002393437150309686, ,0.006002393434694326, ,2.485176161843601e-05, ,0.1442452046247654,-0.24704250191356783,0.09023474690000001,1.6062249670914566,0.14469805325160143,-1.3130332070110764, ,0.005952424753715894,0.00016951790425825987,0.0023366307055889693,6.307701314046228e-05,0.0,-0.0010515349518163595, ,0.5185501575469971
0.010381947986372207,0.020513286889034678,-0.0804944881084152, ,0.01058593034663262,0.020470674011058225,-0.08066126354494674, ,0.0002669058015426628, ,0.0007933309189340572,0.0004948855071564855,-0.0018824022190127374,0.0009483979966387446,-0.006319025279830146,-6.764726157577502e-05, ,0.0021018381779467146, ,0.006389799623112253, ,2.5076969675606522e-05, ,0.14442282748087257,-0.2470347791806936,0.09029826511000001,1.6062249670914566,0.14469805325160143,-1.3130332070110764, ,0.006335669687177945,1.9455705511112356e-05,0.002029923731362305,6.307701314046228e-05,0.0,-0.0009588589137313555, ,0.5437049865722656
0.010397711273685552,0.02052306869920856,-0.08053292983795368, ,0.010605363238358305,0.020479548002190213,-0.08071137593706174, ,0.0002772298681388756, ,0.0008682688009678538,0.0005141385081291658,-0.0020191008801298017,0.0010600387210893296,-0.006262986504794337,-0.002923846769287852, ,0.0022572101099402287, ,0.006352061241509495, ,2.5333373362464317e-05, ,0.1445618366726086,-0.2470270564478194,0.09033974639,1.606434657034941,0.14483468975136687,-1.3131446249147727, ,0.0069982618105262785,0.000266565117613634,0.002175472756077575,0.003002859822689713,0.0,-0.0009043661857972131, ,0.568756103515625
0.010414129505779066,0.020531957293864943,-0.0805716795757907, ,0.010624961592395935,0.020488251525664095,-0.08076193542982227, ,0.0002873284756416089, ,0.0008293302448741771,0.0004369350574415033,-0.001834545049499634,0.00020924867794192285,-0.006131078105845726,-0.0028881308193511733, ,0.002060159323481581, ,0.0061346478080181125, ,2.57384522559662e-05, ,0.14469312313147042,-0.24701161098207094,0.09038122767000001,1.606434657034941,0.14483468975136687,-1.3132263036549134, ,0.00684464504063925,0.0006096111242169861,0.001974319722359941,0.0029165203776546785,0.0,-0.00040471813722844127, ,0.5948531627655029
0.010440073373625146,0.020545921702887795,-0.08063216587044565, ,0.010644724720032932,0.02049678565879009,-0.08081293886503364, ,0.00027744440882526597, ,0.0008017867115600581,0.0004685831612059409,-0.002040643780734467,-6.413237792632122e-05,-0.00547099515099779,-0.0027176897650509468, ,0.0022420212197145468, ,0.005471371022765084, ,2.606811488627743e-05, ,0.14490163691907448,-0.24698844278344828,0.09044604217,1.606434657034941,0.14483468975136687,-1.3132263036549134, ,0.006133130260553317,0.0008254286539716058,0.00217695934399344,0.0027065684120683295,0.0,-0.00037368461151767953, ,0.6179420948028564
0.01045672298066194,0.020554495908556167,-0.08067230962475126, ,0.010664651934095938,0.020505151476300502,-0.08086438309285574, ,0.0002873352394337867, ,0.0008008979409499931,0.0004681313228274754,-0.0020491824927850095,-0.00034644425038052995,-0.005466979584321399,-0.002609997732574199, ,0.0022493851017481923, ,0.005477945724254282, ,2.6418294087804395e-05, ,0.1450329233779363,-0.2469652745848256,0.09048881974,1.606434657034941,0.14483468975136687,-1.3131446249147727, ,0.006100601776459971,0.0008523864513584336,0.0021850221563786015,0.0025912628685689667,0.0,-0.00013384564529991108, ,0.6410911083221436
0.010473649537204924,0.02056527966327632,-0.08071842652895632, ,0.010684742548949742,0.020513350050351147,-0.08091626497179523, ,0.00029393365539009134, ,0.0008496031665975004,0.0005388776905040716,-0.0024080688532506296,-9.838995317524518e-05,-0.00490788292349486,-0.0023861043357204306, ,0.002609791238396532, ,0.0049088690441530915, ,2.6772746030669875e-05, ,0.14517193256967234,-0.24694982911907715,0.09053807876000002,1.606434657034941,0.1449713262511323,-1.3132560428184692, ,0.006116267754664981,0.0010896884961037654,0.002554331545862733,0.002479656911615038,0.0006207326010825532,-0.0006320547586114155, ,0.6631550788879395
0.010497755494508987,0.020578927717310076,-0.08078310065581396, ,0.010704995880495278,0.020521382450525278,-0.08096858136869645, ,0.0002840125528290561, ,0.0007566302610363944,0.0004099115504333887,-0.00206451799373978,0.0006281774432458262,-0.0031331935664090844,-0.001950127561881549, ,0.0022366831196148533, ,0.0031955451471204063, ,2.7062499493672768e-05, ,0.14536500089152796,-0.246911215454706,0.09060678213000001,1.606434657034941,0.14510796275089774,-1.3133674607221657, ,0.005751610966871598,0.0015531346055523826,0.0021826269553302277,0.0023335653352894495,0.0021112744089023896,-0.0018374343308275162, ,0.6864190101623535
0.010514285171113576,0.020586816310967867,-0.08082208108038338, ,0.010725411246168154,0.020529249743835583,-0.08102132915873285, ,0.00029595257381090893, ,0.0007494608906158591,0.0004225190142525232,-0.001975992813646057,0.0004183527256122917,-0.003783345033405817,0.0004076321176895463, ,0.002155170884999262, ,0.0038064049462319055, ,2.7381586151751188e-05, ,0.14549628735038977,-0.24688032452320913,0.09064826341000001,1.6066443469784255,0.14510796275089774,-1.3134491394623062, ,0.005817090553929022,0.0011110171872727613,0.0020997642393883473,-5.5828415891224875e-05,0.0021112744089023896,-0.001525382231244414, ,0.7086670398712158
0.010531974016285039,0.020596014973358227,-0.08086461957180613, ,0.01074598796493772,0.02053695299472578,-0.08107450522539877, ,0.0003055196804166695, ,0.0007447391972802886,0.000319440536422824,-0.0016652237089080858,0.000144727109966992,-0.004258795901211123,0.0003118065687100681, ,0.0018519310810571196, ,0.00426125432844926, ,2.7718033588337415e-05, ,0.14563529654212581,-0.24685715632458646,0.09069363356000001,1.6066443469784255,0.14510796275089774,-1.3134491394623062, ,0.006306197902364754,0.0014021405462015584,0.0017751798125345494,0.0,0.0021112744089023896,-0.0015319913827992907, ,0.7305030822753906
0.01054500808976813,0.020600780864475296,-0.08089271436460396, ,0.010766725357304796,0.02054449326507416,-0.08112810646050028, ,0.0003282320511173922, ,0.0008898868112162822,0.00043724098066577724,-0.002234853604452831,-0.00018533728540692148,-0.005004284830786917,0.00027750820183456717, ,0.0024449230755355196, ,0.0050077156989246085, ,2.811987427667965e-05, ,0.14574341480236494,-0.24682626539308955,0.09072344823,1.6066443469784255,0.14510796275089774,-1.3134491394623062, ,0.007047984897531008,0.0017383114616261167,0.0023700061776521356,-1.5205761970389489e-05,0.0021112744089023896,-0.0015366996996141744, ,0.7534379959106445
0.010566692503346749,0.020614412663331746,-0.08095753163640233, ,0.010787622745300898,0.020551871614195312,-0.0811821297641467, ,0.00032119444830706184, ,0.0010173403370979744,0.0006077680626218972,-0.0027405507195448543,0.0017961754379830952,-0.004029648481146382,0.0007770588710135082, ,0.002985796648438673, ,0.004411837817851685, ,2.8472385097535418e-05, ,0.1459210376584721,-0.24678765172871844,0.09079215160000001,1.6066443469784255,0.14538123575042863,-1.313671975269699, ,0.007886470538297592,0.001281783602664179,0.0029162965067740755,6.1357028162588656e-06,0.003975172420627848,-0.0030636527615981565, ,0.7748351097106934
0.010599357766325411,0.020630266701976076,-0.08104090206868458, ,0.010808679452485979,0.020559089098844137,-0.08123657204474295, ,0.00029524322010063763, ,0.0009744326475962777,0.00043040301976856986,-0.0024846358618156113,0.0005345774720903617,-0.003944089976803293,0.0005696967287549445, ,0.0027033647755986615, ,0.0039801531030972444, ,2.871247100259006e-05, ,0.1461681651104473,-0.24671814713285042,0.09088029932000001,1.6066443469784255,0.14538123575042863,-1.313671975269699, ,0.007806090478751329,0.0025680027080606615,0.002621595049374589,2.7161897363449908e-05,0.003975172420627848,-0.003071740868554529, ,0.7993040084838867
0.010619628389677145,0.020638144592250537,-0.08108747455120316, ,0.010829894803947637,0.02056614677321576,-0.08129143021897929, ,0.0003016513970362852, ,0.0009978126752514162,0.0003184191417942412,-0.002161258859293043,0.0001755751365086527,-0.004801055772218266,0.0005423832024834491, ,0.002401678734057916, ,0.004804265095657679, ,2.90619991276531e-05, ,0.146330342500806,-0.24666408800273085,0.09092955834000001,1.6068540369219102,0.14538123575042863,-1.313671975269699, ,0.00865580750900129,0.002932800054075828,0.0022863228821587487,0.0,0.003975172420627848,-0.003076714478968752, ,0.8184170722961426
0.010642371826830633,0.020645119423961293,-0.08114187157921517, ,0.010851268126299034,0.02057304568895081,-0.08134670121182383, ,0.0003013095843224263, ,0.0009590815875372141,0.00024984424885742906,-0.002274762275774146,-0.0014318712161302133,-0.00467928833054507,0.00022311985217789347, ,0.002481290601990264, ,0.0048934644577281515, ,2.9393780790123797e-05, ,0.14652341082266163,-0.24657913794111436,0.09098659510000001,1.6068540369219102,0.14551787225019408,-1.3137833931733955, ,0.007901911564304781,0.004025675449622269,0.0023731840762812872,0.0,0.003323187610439102,-0.002550519249121493, ,0.8414301872253418
0.01065983485379203,0.020651451090176038,-0.08118633636393235, ,0.010872798747677976,0.020579786895135215,-0.08140238195651403, ,0.00031171312937359775, ,0.0010882791706149715,0.00040194465924619897,-0.002760883248268191,-0.00015592885632324308,-0.004340120074740696,0.0005571072566173172, ,0.002994726594008019, ,0.004342920205459481, ,2.9744630670397743e-05, ,0.1466701427472719,-0.2465173560781206,0.09103326154000001,1.6068540369219102,0.14565450874995953,-1.3138948110770918, ,0.008717296934706603,0.003720961360121057,0.0028956210725322672,0.0,0.00451356045428537,-0.003525004738680764, ,0.8641011714935303
0.010685256541814727,0.020661888534015457,-0.0812544920633879, ,0.010894485997744927,0.02058637143830483,-0.08145846939454705, ,0.00030180548139526056, ,0.001074535558736932,0.0004406599424010627,-0.003035981566185189,-0.00048004929636957946,-0.0036688111430285006,0.0005080607423444228, ,0.0032505371743826086, ,0.003700084089886162, ,3.0047520853900905e-05, ,0.14685548833625328,-0.2464324060165041,0.09110455749000002,1.6068540369219102,0.14565450874995953,-1.3138948110770918, ,0.008046040582380527,0.004053321697115817,0.0031680213842482105,0.0,0.00451356045428537,-0.00352971583028208, ,0.8835980892181396
0.010704531304818243,0.020668836720413284,-0.08130664587835212, ,0.010916329207681706,0.02059280036244681,-0.08151496047567225, ,0.00030665102453246803, ,0.0009749130816171729,0.0003109649428374913,-0.002418657846011076,-0.000638080039622806,-0.004065760745389669,0.0004106022339037069, ,0.0026262255212477765, ,0.004115526271687104, ,3.035232584932863e-05, ,0.14700994299373776,-0.24635517868776186,0.09115900167,1.6068540369219102,0.14579114524972495,-1.3140062289807883, ,0.007871004319491953,0.003730676875982688,0.002529587346355408,0.0,0.003923627337711539,-0.003052525260968426, ,0.9086861610412598
0.010723453975321278,0.020675413459428343,-0.08135624154394057, ,0.010938327710190182,0.020599074709001783,-0.08157185215788217, ,0.00031382521185760904, ,0.0009324039693001314,0.00033431572904673375,-0.002370167973908573,-0.00016800960828193215,-0.0033386743647594217,-0.0017456111400479153, ,0.002568820817650885, ,0.003342898991530825, ,3.0666130588995225e-05, ,0.14716439765122225,-0.24627795135901961,0.09121085327,1.6070637268653947,0.1459277817494904,-1.3141176468844846, ,0.007401820056796799,0.003338149921324577,0.0024830571348402187,0.0022318489770668834,0.0036289842359299752,-0.0028161620711320947, ,0.92746901512146
0.010743895453413277,0.02068135150321477,-0.08140326824527581, ,0.010960480839490028,0.020605195516868534,-0.08162914140740393, ,0.00032206777095533494, ,0.000958582965014091,0.0002771938215346371,-0.0023916065457482718,-0.0015688999210581955,-0.004938798102865698,0.003389634912122439, ,0.002591428097628441, ,0.005182004784340001, ,3.099159985212361e-05, ,0.14732657504158098,-0.24620072403027737,0.09126011229000001,1.6072734168088794,0.1459277817494904,-1.3141176468844846, ,0.007672751317004652,0.003974591773859671,0.0024931619220535297,-0.003218850886303699,0.0036289842359299752,-0.0028197584480499104, ,0.9479501247406006
0.010763994804919299,0.020689226790665628,-0.08145658624851428, ,0.010982787931318199,0.020611163822403484,-0.08168682519869035, ,0.0003270691568330476, ,0.0010090832036639362,0.00042775599772933875,-0.0029579567326593857,-0.0014729631413712334,-0.004523927523382972,0.00340301053271755, ,0.0031544781086251155, ,0.004757682253599656, ,3.13183890446108e-05, ,0.14747330696619124,-0.24613121943440935,0.09131585276000001,1.6072734168088794,0.1459277817494904,-1.3141176468844846, ,0.007258131299007832,0.0038806508567525502,0.0030810080309477757,-0.003218850886303699,0.0036289842359299752,-0.002823243484579541, ,0.9670660495758057
0.010777689559216989,0.02069709994991057,-0.08150502015162453, ,0.011005248322926877,0.02061698065942481,-0.08174490051441191, ,0.000340212698322858, ,0.0010447516110002506,0.0005795262747448916,-0.003294917950709186,6.327834542062423e-05,-0.003520404845515604,0.0037468584354502683, ,0.0035048310849045113, ,0.0035209734501951548, ,3.1670086646385745e-05, ,0.1475814252264304,-0.24607716030428978,0.09136640807000002,1.6072734168088794,0.14620105474902126,-1.3143404826918776, ,0.007180567776011652,0.0031168423387295738,0.0034477947012987015,-0.003218850886303699,0.004583546028096177,-0.003604070118910459, ,0.9921150207519531
0.010809112031890155,0.02071252541004192,-0.08159536441640455, ,0.011027861353082204,0.020622647059214457,-0.08180336434544735, ,0.0003149497641708233, ,0.001066884209267847,0.0005088237333914274,-0.003018128998955619,4.476701747739679e-05,-0.004264207764962937,0.0037432703867658567, ,0.003241334009630034, ,0.004264442718362213, ,3.193578225221516e-05, ,0.14779766174690867,-0.2459844875097991,0.09146103724000001,1.6072734168088794,0.14620105474902126,-1.3143404826918776, ,0.007924715248951407,0.0031389417332374544,0.0031673914336846297,-0.003218850886303699,0.004583546028096177,-0.00360817751370507, ,1.0120220184326172
0.010831408111407924,0.02071941815037156,-0.08164981251835246, ,0.011050626362062306,0.0206281640505217,-0.08186221369087619, ,0.000318587837572046, ,0.0008876105372293623,0.00029899846818906686,-0.002211838667282627,0.00026270687109546456,-0.003279631612929998,0.003811785736797348, ,0.002401974779190363, ,0.0032901365266068557, ,3.2201249743294884e-05, ,0.14798300733589007,-0.2458995374481826,0.091518074,1.6072734168088794,0.14633769124878673,-1.314451900595574, ,0.007235955126395406,0.0031724211188688257,0.002318604296943232,-0.003218850886303699,0.004888160618312304,-0.0038598199601455156, ,1.0322439670562744
0.010850249554050794,0.020725360462298795,-0.08169821592697563, ,0.011073542691656498,0.020633532659563792,-0.08192144555796918, ,0.00032882159115614186, ,0.0009863427846612447,0.00038657954699109187,-0.0026501355550552197,0.000972983694212087,-0.0026286182187684384,0.0040642867555937285, ,0.002854038243467136, ,0.002802914711246926, ,3.257381593202118e-05, ,0.14813746199337455,-0.24582231011944036,0.09156862931000001,1.6072734168088794,0.14647432774855218,-1.3145633184992704, ,0.007759292281348739,0.0034548408344688333,0.00277553781495034,-0.003218850886303699,0.006098750508188951,-0.004849761703858095, ,1.0489881038665771
0.01087545922540938,0.02073190184397435,-0.08175926901695524, ,0.011096609685163088,0.020638753910030366,-0.08198105696217997, ,0.00032676284380926565, ,0.001201456529867731,0.0004928229625166547,-0.0032597765084056585,0.0003891077599191161,-0.004102969387769835,0.003976354078922969, ,0.00350891937073209, ,0.004121378686523269, ,3.292873471098641e-05, ,0.14832280758235594,-0.24571419185920124,0.09162955494000001,1.6072734168088794,0.14647432774855218,-1.3145633184992704, ,0.008931134509013033,0.004047330611264688,0.0033661900929839394,-0.003218850886303699,0.006098750508188951,-0.0048524800516869535, ,1.0658621788024902
0.010886583260857048,0.020735691365657442,-0.08179036470611999, ,0.011119826687388612,0.020643828823083573,-0.08204104492713642, ,0.0003545162844738839, ,0.0013565168107054811,0.0004606911790520679,-0.0035906698817123736,-0.0009982091707103258,-0.004815807925292997,-0.0016880841757972319, ,0.003865913141758271, ,0.004918173128808935, ,3.334613863707143e-05, ,0.14842320310972085,-0.24566785546195588,0.09166455477,1.6070637268653947,0.1466109642483176,-1.3146747364029667, ,0.01038974350912916,0.0054887106105884695,0.003744431480959098,0.0022313580343266033,0.0051872919500915,-0.004110520483308112, ,1.0820951461791992
0.010908119638154011,0.020745384476026734,-0.08185615690568915, ,0.011143193044645654,0.020648758417363133,-0.08210140648463211, ,0.0003531903985446786, ,0.0013068971472671637,0.000541921103943838,-0.003977082382414971,0.0034318625602641735,0.0013322503252484734,-0.0003438004262631956, ,0.004221237130623, ,0.003681381611116669, ,3.374695949236528e-05, ,0.1485931032329538,-0.24558290540033942,0.09173325814000001,1.6070637268653947,0.1468842372478485,-1.3148975722103597, ,0.009699242646062305,0.005650014148875778,0.004136279283303039,0.0022313580343266033,0.010813482904196576,-0.008700408079807742, ,1.0995831489562988
0.010941382431368158,0.020756811872588002,-0.08194454818384177, ,0.011166708104751745,0.020653543708987303,-0.08216213867461855, ,0.00032982054874690467, ,0.0013559340360350632,0.0004630617313039985,-0.003586726801400603,0.0027686384122860806,-0.00037572944925777225,-0.005035285611650553, ,0.003862329921816881, ,0.002794016944012477, ,3.407515225471763e-05, ,0.14883250795205474,-0.24544389620860338,0.09182529473,1.6074831067523636,0.1468842372478485,-1.3148975722103597, ,0.010767777318893524,0.005514525206662639,0.0037461927375352783,0.006691665041359693,0.009040227230196488,-0.0072572771849928755, ,1.1162681579589844
0.01095666345415186,0.020761152132649542,-0.08198185424015349, ,0.011190371217027581,0.020658185711555643,-0.08222323854519432, ,0.00035140828820804445, ,0.0014610291630266735,0.0004122965771202905,-0.003730921822368254,0.0010569087621247128,-0.0021112748864529195,-0.00539795353261328, ,0.004027948898303352, ,0.0023610457544737643, ,3.4448140515326106e-05, ,0.14894834894516812,-0.24538211434560958,0.09186418343000001,1.6074831067523636,0.1468842372478485,-1.3148975722103597, ,0.011660966030777927,0.006531069080350418,0.003885075980487805,0.006691665041359693,0.00817187646522222,-0.006550367747129089, ,1.1352391242980957
0.010985446939529736,0.020768810191647787,-0.08205661954248814, ,0.011214181732296023,0.020662685436151063,-0.08228470315259903, ,0.0003400061798736819, ,0.0012992359858133955,0.0002450228621621136,-0.0033005268703052027,0.001128885203273359,-0.001377449326800147,0.005574381668654617, ,0.0035554926482023945, ,0.0017809402175270421, ,3.478143385728042e-05, ,0.1491877536642691,-0.24524310515387354,0.09194196083,1.607692796695848,0.14715751024737936,-1.3151204080177525, ,0.010762439061350867,0.0069854410868122625,0.0034130729633597605,-0.004172030659802124,0.01072417252347515,-0.008633884340211957, ,1.1519169807434082
0.010999867461051213,0.02077028332277606,-0.08208802063795073, ,0.011238139002879882,0.020667043891343672,-0.08234652956120304, ,0.00036641311555260097, ,0.0012355249897366624,6.39442037157117e-05,-0.0028101019020880242,6.392277232703421e-05,-0.0019403955383977065,0.005350092579640703, ,0.003070388177669291, ,0.00194144811700569, ,3.5169917877992046e-05, ,0.1494194356504958,-0.24508865049638903,0.09200288646,1.607692796695848,0.1472941467471448,-1.3152318259214488, ,0.012000119064045368,0.007419209947039476,0.002928628703805847,-0.004172030659802124,0.005521945490932447,-0.004394016558274015, ,1.1682090759277344
0.011027372669033383,0.02077195664830407,-0.0821457561865893, ,0.011262242382601019,0.020671262083191658,-0.08240871484349971, ,0.0003666748328405529, ,0.0013917917229236947,0.00013808241797752633,-0.002990781192384799,-0.003899433896380298,-0.007962796140587028,0.00412091852977992, ,0.0033016545995721703, ,0.008866324314477677, ,3.5547722066275055e-05, ,0.1495429993764834,-0.2450114231676468,0.09203399742000001,1.607692796695848,0.1472941467471448,-1.3152318259214488, ,0.011772353499376104,0.007327089680146282,0.0030947758927530604,-0.004172030659802124,0.004972575569819215,-0.003947120082217458, ,1.184981107711792
0.01105675928747409,0.02077739466952257,-0.08221576232158491, ,0.011286491226778557,0.020675341015244993,-0.08247125608009634, ,0.0003584254077577301, ,0.0015946128006365233,0.00037643691045830354,-0.004142599958398117,-0.006954272378795736,-0.010900840578995962,0.0032930916196491277, ,0.004454843335834531, ,0.012930206047358714, ,3.589494473460061e-05, ,0.14978240409558435,-0.24486469124303653,0.09210658966000002,1.607692796695848,0.14743078324691022,-1.3153432438251453, ,0.011769433406730843,0.007914821219582244,0.004283089948910998,-0.004172030659802124,0.0019388166295697758,-0.0014753102331639106, ,1.2012910842895508
0.011082159378543593,0.02078377945170518,-0.08228454107484483, ,0.011310884892227575,0.020679281688546533,-0.08253415035970546, ,0.0003543161557194341, ,0.001517047839521704,0.00033099045981527096,-0.0039552938500686885,-0.0004923644716515227,-0.0034959099173870276,0.005213169956487467, ,0.004249157360263018, ,0.003530411867670487, ,3.622264871410964e-05, ,0.14999091788318844,-0.2447334047841747,0.09217788561000001,1.607692796695848,0.14770405624644115,-1.3155660796325384, ,0.012016608155250566,0.007889769262049467,0.004091654641664527,-0.004172030659802124,0.009828920713399521,-0.00791083921052798, ,1.2198810577392578
0.011102282135249346,0.020787675936227917,-0.0823361208453677, ,0.011335422737257295,0.020683085101636207,-0.08259739477913672, ,0.00036545567645386703, ,0.0013948065113548542,0.00029205312697623965,-0.003786857817448189,-0.0013949430476871377,-0.003377554737736699,0.0049297393868847645, ,0.00404611818446557, ,0.0036542771287839944, ,3.6652351354863295e-05, ,0.1501376498077987,-0.24462528652393556,0.0922310335,1.607692796695848,0.14770405624644115,-1.3155660796325384, ,0.010717973973172664,0.007798711381494412,0.003903163812790983,-0.004172030659802124,0.008611259707751654,-0.0069191815841175225, ,1.2334060668945312
0.011118745116646858,0.0207906622134734,-0.08237628769163971, ,0.011360104121669889,0.020686752250552234,-0.08266098644328826, ,0.0003874336444995807, ,0.0015539684331523733,0.0002918060955625095,-0.003974740504797765,-0.002873026757461925,-0.005878850348011204,0.004572030992217132, ,0.004277678198406405, ,0.0065433296700785305, ,3.7122793492479115e-05, ,0.1502612135337863,-0.2445403364623191,0.09227251478000001,1.607692796695848,0.14770405624644115,-1.3155660796325384, ,0.012141369186088892,0.008376774094994871,0.004103248717156105,-0.004172030659802124,0.0074993184976119166,-0.006013441615707766, ,1.2470409870147705
0.011149592276633069,0.02079724048622807,-0.08245909879650792, ,0.011384928406758763,0.020690284128834075,-0.0827249224651373, ,0.00037078966993850837, ,0.001587949155192056,0.0004248269991359295,-0.004462281664331704,0.001755605463033684,-0.0006197692281256363,0.005929128682045287, ,0.004755419871105066, ,0.00186179017849292, ,3.754460602659326e-05, ,0.15050834098576146,-0.24437043633908617,0.09235806992000001,1.607692796695848,0.147977329245972,-1.315788915439931, ,0.012238450033333863,0.008251093919477594,0.004615708930744713,-0.004172030659802124,0.013020711260105943,-0.010517599308653761, ,1.261260986328125
0.011165582151876997,0.020801756687285053,-0.0825080334155029, ,0.011409894955307205,0.020693681727525025,-0.08278919996573254, ,0.00038784477799126693, ,0.0017315349187398544,0.0003130369245701104,-0.004612851116085382,-0.0039396037965449176,-0.006266989108603628,0.004477098256225297, ,0.004937063976710237, ,0.007402406937783583, ,3.799533068393178e-05, ,0.15063962744462328,-0.24427776354459546,0.09240862523000001,1.607692796695848,0.14825060224550288,-1.316011751247324, ,0.013127257097588987,0.009963502117748156,0.0047463681525625745,-0.004172030659802124,0.008113439570329384,-0.006516991033041187, ,1.2746751308441162
0.011190215298315407,0.020807474844301573,-0.08257605604320908, ,0.011435003131587018,0.020696946035173976,-0.08285381607418502, ,0.00038637848771991127, ,0.0015886801160357536,0.0004177695074044183,-0.004630627580606153,-0.0017061224728274972,-0.002573032732867762,-0.003057871612026249, ,0.004913364189908447, ,0.003087288325955355, ,3.843275125030205e-05, ,0.15080952756785623,-0.24414647708573364,0.09247862489000001,1.6074831067523636,0.14825060224550288,-1.316011751247324, ,0.01137440606801158,0.008886224152363701,0.004770533548966757,0.0038495658415926147,0.008113439570329384,-0.006518290664890948, ,1.2890520095825195
0.011216670004489412,0.02081468317496613,-0.08265154050912658, ,0.011460252301356432,0.020700078037839242,-0.08291876792765972, ,0.00037931143670968834, ,0.001810848532453938,0.0006210016044056058,-0.005349710771376045,-0.0014841434092840867,-0.0038891607438572944,-0.003025912552401365, ,0.005681920514891229, ,0.004162721293708297, ,3.8844970810782623e-05, ,0.15098715042396338,-0.2440074678939976,0.09255640229,1.6074831067523636,0.14825060224550288,-1.316011751247324, ,0.012690149981073921,0.008663685968593203,0.005540456180869566,0.0038495658415926147,0.008113439570329384,-0.006519536266387517, ,1.30354905128479
0.011236367297722859,0.02082104155916475,-0.08270775943133983, ,0.011485641831859218,0.020703078719089916,-0.08298405267136659, ,0.000390372872382168, ,0.0018215655498688176,0.0004643872360133189,-0.005030577188521058,-0.00027251163155075865,-0.002379338547551869,-0.0024768343138790155, ,0.005370331778122224, ,0.0023948927515584292, ,3.927230854134527e-05, ,0.15113388234857367,-0.24391479509950692,0.09261473534,1.6074831067523636,0.14838723874526832,-1.3161231691510202, ,0.013650308049262193,0.009543083181808987,0.0052003955337904025,0.003785489500802233,0.010675392429816853,-0.008609537805879981, ,1.3173329830169678
0.011271546279125064,0.020827704578970433,-0.08280071627772861, ,0.01151117109182316,0.020705949060007882,-0.08304966745855198, ,0.00036636204455672974, ,0.001840368640635518,0.00030104484249509543,-0.004510747691494767,-0.004137128393812655,-0.00727928696698456,-0.0029628335071881537, ,0.004881027501146955, ,0.00837280408388846, ,3.963868893326337e-05, ,0.15141190073204575,-0.24371400404477708,0.09271066080000001,1.607692796695848,0.14866051174479922,-1.316346004958413, ,0.014326229100010687,0.009901780409189171,0.004658909482304768,0.0031690673200339588,0.006476119412010077,-0.0051868860712996215, ,1.3324179649353027
0.01128813617958764,0.020830259597580038,-0.08284482613909669, ,0.011536839451458114,0.02070869003919215,-0.08311560945049108, ,0.0003872416257266478, ,0.0016296585432995288,0.0001941972307903792,-0.004157087734269274,-0.002584090948729167,-0.003638058762530298,-0.00234499006969152, ,0.004469326343265597, ,0.004462398049191679, ,4.004177673936216e-05, ,0.15154318719090756,-0.24361360851741215,0.09275603095000001,1.607692796695848,0.14879714824456466,-1.3164574228621095, ,0.012683365618614112,0.010039363655342998,0.004268170289389067,0.0030306984439925078,0.008570539648929388,-0.006895554156176486, ,1.3462870121002197
0.01132219047132801,0.020835364382198525,-0.08293039638533044, ,0.011562646282454797,0.020711302632760005,-0.08318187581647789, ,0.0003693943950151812, ,0.0017318972092659143,0.00032356191957692675,-0.004569734502178769,0.0031584663594845797,0.0016934842613398346,-0.0004489451974796554, ,0.004897615101216756, ,0.0035838243113526375, ,4.0398708197839736e-05, ,0.1518057601086312,-0.24342054019555653,0.09284417867000001,1.607692796695848,0.14893378474433008,-1.316568840765806, ,0.01384346339292061,0.009765705664051601,0.004718249857819906,0.0027991084981660794,0.015319595704411867,-0.012400457772640755, ,1.3613321781158447
0.01134359916869773,0.0208388081786506,-0.08298052959622475, ,0.011588590957983314,0.02071378781434938,-0.08324846373381722, ,0.00038397886712003527, ,0.0018227461964312357,0.00028969822907266943,-0.004585059271940088,0.00045253680375928826,-0.001752602158816912,-0.0010758532460526298, ,0.004942580023402368, ,0.0018100833846671994, ,4.08639467633809e-05, ,0.1519679374989899,-0.2433124219353174,0.09289603027000001,1.607692796695848,0.14893378474433008,-1.316568840765806, ,0.01457262616069883,0.010200727686044273,0.004733673557206539,0.0026824690113314334,0.012548183098712098,-0.010141386585953389, ,1.3751401901245117
0.011361681629626396,0.02084257489140293,-0.08302934130531447, ,0.011614672852691538,0.0207161465551222,-0.08331537038781607, ,0.00040224534702021684, ,0.0018738020569031345,0.0003184949055358848,-0.004641406417687634,-0.0010895941732827707,-0.004052654091825595,-0.0014590830168388692, ,0.005015498647937081, ,0.004196572231766198, ,4.135936078820807e-05, ,0.15212239215647438,-0.24321202640795248,0.09294658558,1.607692796695848,0.14920705774386098,-1.3167916765731988, ,0.014832282206700654,0.01003242112625355,0.004799280361554686,0.0025797887867376,0.010470087549998413,-0.008447619713015242, ,1.3859891891479492
0.011381023094355076,0.020846607357391862,-0.08307808319622985, ,0.011640891342703819,0.020718379823765665,-0.08338259297177522, ,0.0004203570033702237, ,0.001995088452727079,0.0004318228749138934,-0.00514507458657744,-0.0002907868639249551,-0.0038209001479837575,0.0014778637967959379, ,0.005535218282141079, ,0.0038319487647478744, ,4.188388663227677e-05, ,0.1522768468139589,-0.24311163088058757,0.09299714089000001,1.6079024866393328,0.1493436942436264,-1.3169030944768951, ,0.015506036202364504,0.010148667122492086,0.0053291440347942465,-9.876810317835058e-05,0.012069861513482653,-0.009752855941049639, ,1.3975331783294678
0.011396613314673603,0.020850066419093847,-0.08312326364686129, ,0.011667245805619193,0.02072048858649627,-0.08345012868698046, ,0.0004437038587934582, ,0.001882480284820932,0.0004049674779167758,-0.00542544069967318,0.01024686902419628,0.010300208989128127,0.00475116372660531, ,0.005757007683387262, ,0.014529026991437282, ,4.244749543281626e-05, ,0.1524081332728207,-0.24301895808609686,0.09304380733,1.6079024866393328,0.1496169672431573,-1.3171259302842881, ,0.015178653480241647,0.0112193861509356,0.005594946090621708,-9.876810317835058e-05,0.02628701873809165,-0.021346615315446814, ,1.4085509777069092
0.011420473555516007,0.020855626108406942,-0.0831846500454089, ,0.011693735620509942,0.02072247380706099,-0.08351797474269357, ,0.000451117551574299, ,0.0020140187056705535,0.0006140974072019055,-0.005979268406250897,0.009388072484347022,0.008038876138097794,0.004383070791373141, ,0.006339166952077626, ,0.012359588459671597, ,4.301698444059568e-05, ,0.15257803339605364,-0.2429031170929835,0.09310732554000001,1.6079024866393328,0.1496169672431573,-1.3171259302842881, ,0.015485793335259594,0.010426294263031882,0.0061931615552099535,-9.876810317835058e-05,0.024272374853863205,-0.019704568441042788, ,1.419456958770752
0.011469791732766937,0.020869478549712592,-0.08332116186186897, ,0.011720360167920494,0.020724336446739877,-0.08358612835614455, ,0.000392502246922661, ,0.002483136220112564,0.0007396899764065458,-0.006840975427377995,-0.01107753871954221,-0.01645148978792062,-0.0015897881383483295, ,0.007315193199555345, ,0.019833390162609894, ,4.3459623615616325e-05, ,0.15292555637539373,-0.24266371237388254,0.09324862115000002,1.6079024866393328,0.1497536037429227,-1.3172373481879847, ,0.016834653460789564,0.011449920554834795,0.007085770249110321,-5.7658756063241056e-05,0.0004092223265718298,-0.00024724233109665124, ,1.431091070175171
0.011491041702634009,0.020874964173998464,-0.08338509118469643, ,0.011747118829865393,0.020726077464349252,-0.08365458675252174, ,0.0004004629926456786, ,0.0023028455419966134,0.00039985809475893774,-0.006061671310945882,0.002720863514636387,0.0005239996722590349,0.002673674072285064, ,0.006496679395520629, ,0.0027708601079586893, ,4.3911066839088856e-05, ,0.1531031792315009,-0.24254014864789494,0.09331473194,1.6079024866393328,0.15016351324221905,-1.3174899231589332, ,0.018110103350853203,0.013094651795014596,0.0062539503415783276,-3.0366903826897108e-05,0.01921150118393568,-0.01566569103021498, ,1.4418270587921143
0.01151240572048336,0.020878566802487154,-0.08344155702112556, ,0.01177401098982776,0.02072769781624439,-0.08372334716496559, ,0.0004130429192276001, ,0.0020373642477934254,0.000333812219701131,-0.005546309829374944,0.02232172390957311,0.022749165565300638,0.008347125783013396, ,0.005918093983676652, ,0.03187136468625629, ,4.438023413527709e-05, ,0.15327307935473383,-0.2424243076547816,0.09337176870000001,1.6079024866393328,0.15043678624174994,-1.317712758966326, ,0.018344662972834096,0.012370869711702618,0.005709251440860217,-7.284398753216289e-06,0.043401893837280735,-0.03539133420503179, ,1.4540221691131592
0.011536779036908217,0.020880543249962625,-0.0834970093127722, ,0.011801036032758557,0.020729198456320475,-0.08379240683455674, ,0.00042426018231137935, ,0.0021370272982342993,0.0001391683339038447,-0.005359424244982729,0.00657938543355573,0.006501658843352076,0.003948259633505868, ,0.005771454040037819, ,0.009249858159826518, ,4.486403657796389e-05, ,0.15346614767658945,-0.2422775757301713,0.09343010175000001,1.6079024866393328,0.15043678624174994,-1.3177944377064668, ,0.018034386461130897,0.01401106475099229,0.005502180145077721,1.4366554631503596e-05,0.025280750802787157,-0.020423382712839354, ,1.464799165725708
0.011561241028893629,0.020881571415227042,-0.08354863736513432, ,0.011828193345074223,0.020730580336016345,-0.08386176301031023, ,0.00043830299426563934, ,0.00229485656976752,6.916149471828406e-05,-0.005191198953731301,0.0004147444657133047,-0.0017997859716472092,0.0021505478950558064, ,0.005676239650100915, ,0.0018469539099836222, ,4.536762966736815e-05, ,0.15365921599844506,-0.24213856653843527,0.09348324964000002,1.6079024866393328,0.15043678624174994,-1.3177944377064668, ,0.019402359754338742,0.01435222951580018,0.005336285266331659,3.2161101840642316e-05,0.018131158871264836,-0.014593369892966548, ,1.4760949611663818
0.01158527647237417,0.020883175298913644,-0.08360539355390421, ,0.011855482314655628,0.020731844404316784,-0.0839314129491654, ,0.000449667524899214, ,0.0025439362462883804,0.00016954230650691301,-0.005907978484608998,-0.015207620690380426,-0.019048004049336306,-0.0023756571790662863, ,0.006434637984648269, ,0.02437412927938773, ,4.58853845056495e-05, ,0.15385228432030068,-0.241991834613825,0.09354158269000001,1.6079024866393328,0.15057342274151536,-1.317905855610163, ,0.01905943795108873,0.015202970451533286,0.006061191598173516,4.798204824799415e-05,0.0,0.00019137442126138468, ,1.489109992980957
0.011606152930181924,0.020885039882653673,-0.08366234365153034, ,0.011882902330846424,0.020732991607754866,-0.08400135391597796, ,0.0004632891840618625, ,0.0025131668389728433,0.0002097194801575256,-0.006306019510308107,-0.006961184145624749,-0.009262234862156722,-0.000907783226748607, ,0.006791603042379375, ,0.011586503759943292, ,4.6510399919363345e-05, ,0.15402218444353363,-0.24184510268921475,0.09359991574000001,1.6081121765828172,0.15084669574104626,-1.3180470126774153, ,0.01899458397887726,0.015855796417455437,0.006461992503042598,0.0008763535122466256,0.009813150091023466,-0.008574923776526223, ,1.497434139251709
0.01162500028529792,0.020885742913943586,-0.08371042532011082, ,0.011910452784451736,0.020734022890414015,-0.08407158318351077, ,0.00048470310202080365, ,0.0020906322952979573,4.663475951337934e-05,-0.005359033606732881,0.018122778904308197,0.019682288157645264,0.0063819753093067215, ,0.005752578499510468, ,0.02675495426860076, ,4.71691249236815e-05, ,0.15418436183389234,-0.24171381623035293,0.09364917476000001,1.6081121765828172,0.15111996874057715,-1.318269848484808, ,0.01891507704972509,0.015020092047874451,0.005492693627586208,0.0008763535122466256,0.039556914328487625,-0.0328289691089803, ,1.5065081119537354
0.011656820962362084,0.02088514082630341,-0.08378280931600643, ,0.011938133067736277,0.02073493919393168,-0.08414209803242627, ,0.00048040130385315264, ,0.0027017199048604405,3.214444857505721e-05,-0.006835340453349245,0.006384681919784143,0.007381282215188536,0.003508086872361659, ,0.007349979783855596, ,0.009759481309781791, ,4.781218740770828e-05, ,0.15443921201874175,-0.24149757970987465,0.09372306329,1.6081121765828172,0.1512566052403426,-1.3183812663885046, ,0.02236552947406806,0.019370675966211632,0.0069801978615249794,0.0008763535122466256,0.03043531414640958,-0.025390915789488825, ,1.514665126800537
0.011688009119831049,0.02088836125015073,-0.08385988580523542, ,0.011965942574423204,0.020735741457500505,-0.08421289575127645, ,0.00047450587803948694, ,0.0030673216566587586,0.0006334826727502162,-0.00859405022967784,0.0008536513775325049,-0.001439855244202214,0.001616466854515187, ,0.009146991953222015, ,0.001673874821610517, ,4.843684649415425e-05, ,0.15466317127209425,-0.24131223412089325,0.09380213698,1.6081121765828172,0.1512566052403426,-1.3183812663885046, ,0.02243426514384652,0.01752482761929285,0.0088542587659811,0.0008763535122466256,0.021416472249114995,-0.01803665496100573, ,1.5236790180206299
0.011688009119831049,0.02088836125015073,-0.08385988580523542, ,0.011993880699692592,0.02073643061787159,-0.08428397363649534, ,0.0005445097143435395, ,0.0030673216566587586,0.0006334826727502162,-0.00859405022967784,0.0008536513775325049,-0.001439855244202214,0.001616466854515187, ,0.009146991953222015, ,0.001673874821610517, ,4.918581305111686e-05, ,0.15466317127209425,-0.24131223412089325,0.09380213698,1.6081121765828172,0.1512566052403426,-1.3183812663885046, ,0.02243426514384652,0.01752482761929285,0.0088542587659811,0.0008763535122466256,0.021416472249114995,-0.01803665496100573, ,1.5323710441589355
0.011736101012470078,0.020899861386866704,-0.08399670591760589, ,0.012021946840179858,0.020737007609355654,-0.08435532899238939, ,0.00048666179204441437, ,0.0030961573631088897,0.0006137601927255134,-0.008374783244944282,-0.0054029411204207884,-0.009194138704559566,-0.0003014567474386446, ,0.00894985398713897, ,0.010664141694116655, ,4.9818470425913626e-05, ,0.15501841698430857,-0.24104966120316962,0.09394343259000001,1.6081121765828172,0.1516665147396389,-1.318715520099594, ,0.022224108093318682,0.017080083073878833,0.00863350217886179,0.0008763535122466256,0.013208707232605931,-0.01134058843933358, ,1.5405640602111816
0.011762705005467866,0.020903895656173704,-0.08408041504249167, ,0.012050140393973938,0.02073747336382859,-0.08442695913113107, ,0.00048000863255357693, ,0.002928933741019754,0.00048354234596627977,-0.00954123475489393,0.012518421974915843,0.018748719147039378,0.00559765605903163, ,0.009992378430965392, ,0.022543852362109353, ,5.043174170842909e-05, ,0.1552192080390384,-0.240856592881314,0.09402898773000001,1.6081121765828172,0.1520764242389352,-1.3190497738106832, ,0.021027463230328114,0.02167586604807464,0.009736437359413203,0.0008763535122466256,0.04076038937941302,-0.03380188437374284, ,1.5487329959869385
0.011798039066079454,0.020910833634825793,-0.08418678488295991, ,0.012078460760616359,0.020737828810730646,-0.08449886137274716, ,0.0004538267636500426, ,0.0032685448327976468,0.0006487257940079818,-0.009710931196386531,-0.0019401722162799466,-0.0015948276518063698,0.0011468670759646026, ,0.01026676264363663, ,0.0025115049491153743, ,5.0989917978769967e-05, ,0.15545089002526516,-0.2406326336279615,0.09413787609,1.6081121765828172,0.15221306073870067,-1.3191611917143797, ,0.02256227806906105,0.02031184536782337,0.009961733283302064,0.0008763535122466256,0.021383401005094456,-0.017995318711484916, ,1.5571370124816895
0.011798039066079454,0.020910833634825793,-0.08418678488295991, ,0.012106907341099444,0.02073807487707024,-0.08457103304511263, ,0.0005223905146658023, ,0.0032685448327976468,0.0006487257940079818,-0.009710931196386531,-0.0019401722162799466,-0.0015948276518063698,0.0011468670759646026, ,0.01026676264363663, ,0.0025115049491153743, ,5.1667754236989215e-05, ,0.15545089002526516,-0.2406326336279615,0.09413787609,1.6081121765828172,0.15221306073870067,-1.3191611917143797, ,0.02256227806906105,0.02031184536782337,0.009961733283302064,0.0008763535122466256,0.021383401005094456,-0.017995318711484916, ,1.5671031475067139
0.011824421207454685,0.020915275145738436,-0.08425745914170224, ,0.01213547953786487,0.020738212487426397,-0.08464347148394058, ,0.0005264161834959358, ,0.003296792063371291,0.000584583911066453,-0.009012223886084348,-0.005055795316024291,-0.007463148327917496,-0.0027755169526557447, ,0.009614091513559403, ,0.009014410118856115, ,5.234551504134135e-05, ,0.15562851288137233,-0.24047817897047702,0.09421046833,1.608321866526302,0.15221306073870067,-1.3191611917143797, ,0.023512621793476407,0.01914402694340746,0.009271717997671713,0.003708506516130694,0.015625264747762407,-0.013295882768195667, ,1.575270175933838
0.011868428764744756,0.020923777210544312,-0.08438341673401192, ,0.012164176754801994,0.020738242563951802,-0.08471617403277398, ,0.00048230425935142485, ,0.0035095091485020723,0.00044087895334519593,-0.009436931721175535,-0.006814988575985922,-0.008048259927510017,-0.002929091652067948, ,0.01007803100933171, ,0.01054601736714322, ,5.3032084549102694e-05, ,0.15595286766208974,-0.24021560605275338,0.09434009733000001,1.608321866526302,0.15262297023799698,-1.3194954454254688, ,0.025258701506114128,0.02190603452411606,0.009677285249088702,0.003708506516130694,0.016820422189193517,-0.014263467484301687, ,1.5809571743011475
0.011868428764744756,0.020923777210544312,-0.08438341673401192, ,0.012192998397246529,0.020738166026374523,-0.08478913804297837, ,0.0005517306757655361, ,0.0035095091485020723,0.00044087895334519593,-0.009436931721175535,-0.006814988575985922,-0.008048259927510017,-0.002929091652067948, ,0.01007803100933171, ,0.01054601736714322, ,5.3839451409007285e-05, ,0.15595286766208974,-0.24021560605275338,0.09434009733000001,1.608321866526302,0.15262297023799698,-1.3194954454254688, ,0.025258701506114128,0.02190603452411606,0.009677285249088702,0.003708506516130694,0.016820422189193517,-0.014263467484301687, ,1.5864081382751465
0.011902366206313655,0.020926220429725906,-0.08447454187787781, ,0.012221943871979215,0.020737983791999925,-0.08486236087373059, ,0.0005366250923306554, ,0.0031740468513428155,0.0002205240350880124,-0.008788611330394207,0.01710935650288325,0.02076767348199958,0.004168360307195693, ,0.009346811936767754, ,0.02690773660799277, ,5.461372250921061e-05, ,0.1562231633126876,-0.23998392406652663,0.09443343021000002,1.608321866526302,0.1530328797372933,-1.3198296991365581, ,0.025668634449140054,0.02253548837769432,0.00899424704686618,0.003708506516130694,0.0469233102429582,-0.038805112757037734, ,1.5918490886688232
0.011902366206313655,0.020926220429725906,-0.08447454187787781, ,0.012251012587223836,0.020737696775715006,-0.08493583989201285, ,0.0006081869160778779, ,0.0031740468513428155,0.0002205240350880124,-0.008788611330394207,0.01710935650288325,0.02076767348199958,0.004168360307195693, ,0.009346811936767754, ,0.02690773660799277, ,5.551113162982114e-05, ,0.1562231633126876,-0.23998392406652663,0.09443343021000002,1.608321866526302,0.1530328797372933,-1.3198296991365581, ,0.025668634449140054,0.02253548837769432,0.00899424704686618,0.003708506516130694,0.0469233102429582,-0.038805112757037734, ,1.5995030403137207
0.011939308058194965,0.02092818131933814,-0.0845722665504318, ,0.012280203952646312,0.020737305889988508,-0.08500957247260212, ,0.0005864127470889568, ,0.003752669036033755,0.00020961264827753777,-0.009786567910318799,-0.010716911524468865,-0.01058722286533229,-0.0035739658023013023, ,0.010483480997245434, ,0.015064574034774418, ,5.6363085901916686e-05, ,0.1565011816961597,-0.23972907388167722,0.09453324454,1.608321866526302,0.15330615273682416,-1.320052534943951, ,0.027253573106970352,0.025387089769521344,0.009992980878293603,0.0036559092589377755,0.016271408021907442,-0.013805156253860418, ,1.6052720546722412
0.011978336092501716,0.020931321673572482,-0.08467495990375376, ,0.012309517379352592,0.02073681204487593,-0.08508355599806293, ,0.0005607725106498892, ,0.0038151484075973473,0.0005954271522611326,-0.010476229927231248,-0.010237179931403747,-0.011659494984811647,-0.0035362235854476507, ,0.01116518178776584, ,0.01551591280133834, ,5.716316864985608e-05, ,0.15677920007963178,-0.23947422369682783,0.09463824403000001,1.608321866526302,0.15344278923658963,-1.320245631587788, ,0.026448422953865878,0.02292750460460758,0.0107554432950709,0.0035336495621746296,0.014367834176048623,-0.011872447485589193, ,1.6111111640930176
0.011978336092501716,0.020931321673572482,-0.08467495990375376, ,0.012338952279887594,0.020736216148019994,-0.08515778785873837, ,0.0006334295815798791, ,0.0038151484075973473,0.0005954271522611326,-0.010476229927231248,-0.010237179931403747,-0.011659494984811647,-0.0035362235854476507, ,0.01116518178776584, ,0.01551591280133834, ,5.8086839903023635e-05, ,0.15677920007963178,-0.23947422369682783,0.09463824403000001,1.608321866526302,0.15344278923658963,-1.320245631587788, ,0.026448422953865878,0.02292750460460758,0.0107554432950709,0.0035336495621746296,0.014367834176048623,-0.011872447485589193, ,1.6165671348571777
0.012017535864717094,0.020938140887903293,-0.08478982838324105, ,0.012368508068233414,0.020735519104654734,-0.08523226545274083, ,0.0005999896958744249, ,0.0042527007092522055,0.0007329879526557087,-0.012727582663586399,0.005473355108523506,0.009052959817811505,0.0017830798364689149, ,0.01343927435242088, ,0.01057891126817202, ,5.894466971874771e-05, ,0.15706494119597808,-0.23922709624485264,0.09475620642,1.608321866526302,0.15385269873588595,-1.3204982065587365, ,0.02992650317201854,0.02759434183148322,0.013045709680589684,0.0034216381578619534,0.0393055031119653,-0.032207444361862896, ,1.6220221519470215
0.012017535864717094,0.020938140887903293,-0.08478982838324105, ,0.01239818415980832,0.02073472181760536,-0.08530698618594362, ,0.0006735908517883011, ,0.0042527007092522055,0.0007329879526557087,-0.012727582663586399,0.005473355108523506,0.009052959817811505,0.0017830798364689149, ,0.01343927435242088, ,0.01057891126817202, ,5.992647451088694e-05, ,0.15706494119597808,-0.23922709624485264,0.09475620642,1.608321866526302,0.15385269873588595,-1.3204982065587365, ,0.02992650317201854,0.02759434183148322,0.013045709680589684,0.0034216381578619534,0.0393055031119653,-0.032207444361862896, ,1.6274709701538086
0.012061005111318674,0.020945886399029934,-0.0849227153841596, ,0.012427979971464578,0.020733825187294275,-0.08538194747197375, ,0.000624927688600884, ,0.004487565744158294,0.0009995640142888835,-0.014081476939404782,0.008478130020021955,0.015497419385097617,0.0035714762890327843, ,0.014813013445001424, ,0.01766488444843846, ,6.081569060169523e-05, ,0.1573584050451986,-0.23895680059425478,0.09488713171,1.608321866526302,0.15426260823518226,-1.3209141390099663, ,0.030860794002754727,0.02842928147347836,0.014454456914700545,0.00332201024923221,0.04717390884886492,-0.03611159770433896, ,1.6330859661102295
0.012061005111318674,0.020945886399029934,-0.0849227153841596, ,0.012457894921487316,0.02073283011174101,-0.085457146732201, ,0.0006989501904559385, ,0.004487565744158294,0.0009995640142888835,-0.014081476939404782,0.008478130020021955,0.015497419385097617,0.0035714762890327843, ,0.014813013445001424, ,0.01766488444843846, ,6.182853061792778e-05, ,0.1573584050451986,-0.23895680059425478,0.09488713171,1.608321866526302,0.15426260823518226,-1.3209141390099663, ,0.030860794002754727,0.02842928147347836,0.014454456914700545,0.00332201024923221,0.04717390884886492,-0.03611159770433896, ,1.6389219760894775
0.012110010604261735,0.020956006617976485,-0.08506517272133485, ,0.012487928429593188,0.020731737486565118,-0.08553258139573104, ,0.0006415523321663408, ,0.0049643551120606665,0.0009018005196965548,-0.014161752155957243,-0.011316327597767576,-0.009420386783210626,-0.0019621411788370694, ,0.015033738390125308, ,0.01472421094068049, ,6.273394193074331e-05, ,0.15769820529166448,-0.23865561401216,0.09503879764,1.608321866526302,0.15453588123471315,-1.3212186535574997, ,0.03371116929252958,0.029581340884810094,0.01454685983561644,0.0032189752083738544,0.024226681530936815,-0.017407929765658338, ,1.6460800170898438
0.012159253791448988,0.02096341753923258,-0.08520420245591974, ,0.012518079916928439,0.020730548204989596,-0.08560824889939599, ,0.0005884197852240945, ,0.004977688754066508,0.0005888568426933444,-0.013668656460323773,-0.016643183934548594,-0.014183930510043534,-0.0013775916202109718, ,0.014558719282405914, ,0.021867303882081357, ,6.3540478344267e-05, ,0.15803800553813036,-0.23834670469719105,0.09518138954000001,1.6085315564697864,0.15480915423424405,-1.3215231681050332, ,0.03424646032424063,0.031579681051071805,0.013997198172231988,0.0013021459569442068,0.02034163116057749,-0.014341275880013967, ,1.6521871089935303
0.012159253791448988,0.02096341753923258,-0.08520420245591974, ,0.01254834880606772,0.020729263157842882,-0.08568414668774671, ,0.0006607341904193579, ,0.004977688754066508,0.0005888568426933444,-0.013668656460323773,-0.016643183934548594,-0.014183930510043534,-0.0013775916202109718, ,0.014558719282405914, ,0.021867303882081357, ,6.446695965282746e-05, ,0.15803800553813036,-0.23834670469719105,0.09518138954000001,1.6085315564697864,0.15480915423424405,-1.3215231681050332, ,0.03424646032424063,0.031579681051071805,0.013997198172231988,0.0013021459569442068,0.02034163116057749,-0.014341275880013967, ,1.6575961112976074
0.012207491107020815,0.020967541470517177,-0.08533994254018432, ,0.012578734521012472,0.02072788323356096,-0.08576027221304323, ,0.0006098645561588473, ,0.004973537563575718,0.0002430648036654084,-0.013324876909516342,-0.008046762971402718,-0.0032666607284839097,0.0012758210492444563, ,0.014224890194614558, ,0.0086845291506454, ,6.529901957817902e-05, ,0.15838552851747048,-0.2380146271835994,0.09532009257000001,1.6085315564697864,0.15521906373354036,-1.3219391005562628, ,0.036082487284589654,0.0344078830886406,0.013602742544833478,0.0013021459569442068,0.03346971771456392,-0.025727776958779362, ,1.6629819869995117
0.012207491107020815,0.020967541470517177,-0.08533994254018432, ,0.012609236487189639,0.020726409318189615,-0.0858366229352461, ,0.0006828143819603166, ,0.004973537563575718,0.0002430648036654084,-0.013324876909516342,-0.008046762971402718,-0.0032666607284839097,0.0012758210492444563, ,0.014224890194614558, ,0.0086845291506454, ,6.625111672094446e-05, ,0.15838552851747048,-0.2380146271835994,0.09532009257000001,1.6085315564697864,0.15521906373354036,-1.3219391005562628, ,0.036082487284589654,0.0344078830886406,0.013602742544833478,0.0013021459569442068,0.03346971771456392,-0.025727776958779362, ,1.668442964553833
0.012257470713242095,0.020970334751310635,-0.08546900082843188, ,0.012639854131449819,0.020724842295387715,-0.08591319632200886, ,0.0006354472920308863, ,0.005123861464802105,0.0003002642422150223,-0.013091887282384623,-0.000492176597352499,-0.0015553971096134251,-0.0008348407769428031, ,0.014062063416878092, ,0.0016312919327322833, ,6.723080032732989e-05, ,0.15876394242830746,-0.23768254967000774,0.09545231415000001,1.6087412464132707,0.15562897323283667,-1.3221916755272116, ,0.0384665348838552,0.033192354515030005,0.013419386284751476,0.004521857430072066,0.036907661088853634,-0.03157834291728473, ,1.671260118484497
0.012257470713242095,0.020970334751310635,-0.08546900082843188, ,0.012670586882065795,0.02072318304643035,-0.08598998984866826, ,0.0007093507548284338, ,0.005123861464802105,0.0003002642422150223,-0.013091887282384623,-0.000492176597352499,-0.0015553971096134251,-0.0008348407769428031, ,0.014062063416878092, ,0.0016312919327322833, ,6.833409921822526e-05, ,0.15876394242830746,-0.23768254967000774,0.09545231415000001,1.6087412464132707,0.15562897323283667,-1.3221916755272116, ,0.0384665348838552,0.033192354515030005,0.013419386284751476,0.004521857430072066,0.036907661088853634,-0.03157834291728473, ,1.6762239933013916
0.012257470713242095,0.020970334751310635,-0.08546900082843188, ,0.012701434168731582,0.02072143245020871,-0.08606700099823655, ,0.0007852770901983681, ,0.005398740877104826,0.00022064809169222686,-0.014239638150018583,-0.0013014510143788576,-0.0009602459177744428,-0.0010552816069780376, ,0.015230311332404031, ,0.0016171770183713602, ,6.956384705867148e-05, ,0.15906512901040223,-0.23741225401940988,0.09555990622,1.6087412464132707,0.15590224623236756,-1.322496190074745, ,0.039589879665611505,0.03709810068743971,0.01454685983561644,0.004521857430072066,0.038674829227678016,-0.034623280990347664, ,1.680389165878296
0.012298187225787,0.02097230345412984,-0.08557414944611698, ,0.012732395422560105,0.020719591383235286,-0.0861442272613919, ,0.0007598610822968825, ,0.005398740877104826,0.00022064809169222686,-0.014239638150018583,-0.0013014510143788576,-0.0009602459177744428,-0.0010552816069780376, ,0.015230311332404031, ,0.0016171770183713602, ,7.074586287243555e-05, ,0.15906512901040223,-0.23741225401940988,0.09555990622,1.6087412464132707,0.15590224623236756,-1.322496190074745, ,0.039589879665611505,0.03709810068743971,0.01454685983561644,0.004521857430072066,0.038674829227678016,-0.034623280990347664, ,1.6832020282745361
0.012298187225787,0.02097230345412984,-0.08557414944611698, ,0.012763470076082306,0.020717660719644978,-0.0862216661364711, ,0.0008370238451155421, ,0.005398740877104826,0.00022064809169222686,-0.014239638150018583,-0.0013014510143788576,-0.0009602459177744428,-0.0010552816069780376, ,0.015230311332404031, ,0.0016171770183713602, ,7.20557397651588e-05, ,0.15906512901040223,-0.23741225401940988,0.09555990622,1.6087412464132707,0.15590224623236756,-1.322496190074745, ,0.039589879665611505,0.03709810068743971,0.01454685983561644,0.004521857430072066,0.038674829227678016,-0.034623280990347664, ,1.6859910488128662
0.012298187225787,0.02097230345412984,-0.08557414944611698, ,0.012794657563245536,0.020715641331197337,-0.08629931512945925, ,0.0009155454710835911, ,0.005398740877104826,0.00022064809169222686,-0.014239638150018583,-0.0013014510143788576,-0.0009602459177744428,-0.0010552816069780376, ,0.015230311332404031, ,0.0016171770183713602, ,0.00040250610498786433, ,0.15906512901040223,-0.23741225401940988,0.09555990622,1.6087412464132707,0.15590224623236756,-1.322496190074745, ,0.039589879665611505,0.03709810068743971,0.01454685983561644,0.004521857430072066,0.038674829227678016,-0.034623280990347664, ,1.688784122467041
0.012370099309974323,0.020976963786713106,-0.08577311007208713, ,0.012825957319411763,0.02071353408728052,-0.08637717175398327, ,0.0008013065872976471, ,0.0062011996661978964,0.0007226975355650472,-0.01787273113164171,0.057730171332970606,0.0313860571540118,0.01893077865464739, ,0.018931763973067048, ,0.06571039067076032, ,0.0004061987020462883, ,0.15960572031159795,-0.23691027638258527,0.09576342375,1.6089509363567556,0.1567220652309602,-1.3234914124574857, ,0.04633639724534706,0.04120579312135075,0.018330047779056387,-0.006519675931745927,0.08158873660188244,-0.09938813881288304, ,1.6924140453338623
0.012370099309974323,0.020976963786713106,-0.08577311007208713, ,0.01285736878135627,0.020711339854912397,-0.08645523353130123, ,0.0008793634200353832, ,0.0062011996661978964,0.0007226975355650472,-0.01787273113164171,0.057730171332970606,0.0313860571540118,0.01893077865464739, ,0.018931763973067048, ,0.06571039067076032, ,0.0004105396627617846, ,0.15960572031159795,-0.23691027638258527,0.09576342375,1.6089509363567556,0.1567220652309602,-1.3234914124574857, ,0.04633639724534706,0.04120579312135075,0.018330047779056387,-0.006519675931745927,0.08158873660188244,-0.09938813881288304, ,1.6954011917114258
0.012370099309974323,0.020976963786713106,-0.08577311007208713, ,0.012888891387266592,0.02070905949874239,-0.08653349799029468, ,0.0009587010551419769, ,0.0062011996661978964,0.0007226975355650472,-0.01787273113164171,0.057730171332970606,0.0313860571540118,0.01893077865464739, ,0.018931763973067048, ,0.06571039067076032, ,0.000415522948147059, ,0.15960572031159795,-0.23691027638258527,0.09576342375,1.6089509363567556,0.1567220652309602,-1.3234914124574857, ,0.04633639724534706,0.04120579312135075,0.018330047779056387,-0.006519675931745927,0.08158873660188244,-0.09938813881288304, ,1.698418140411377
0.012437583500593792,0.02098522032200653,-0.08596927113477736, ,0.012920524576739848,0.020706693881057198,-0.0866119626674607, ,0.0008508004863185475, ,0.007079302631585174,0.0010644705213776983,-0.021302698045183883,0.006793545389417992,0.0170651054237708,0.015130487421618606, ,0.022473419126709047, ,0.01836751738879569, ,0.0004194443674098652, ,0.16008452974979986,-0.23646235787588027,0.09596434870000001,1.6089509363567556,0.1574052477297874,-1.3243752169365304, ,0.04851581879267422,0.04649531678514002,0.021820289753424663,-0.006519675931745927,0.06907415819523516,-0.053681213385447686, ,1.7012741565704346
0.012437583500593792,0.02098522032200653,-0.08596927113477736, ,0.01295226779078265,0.020704243861779156,-0.0866906251069021, ,0.00092962317251092, ,0.007079302631585174,0.0010644705213776983,-0.021302698045183883,0.006793545389417992,0.0170651054237708,0.015130487421618606, ,0.022473419126709047, ,0.01836751738879569, ,0.0004239995353125532, ,0.16008452974979986,-0.23646235787588027,0.09596434870000001,1.6089509363567556,0.1574052477297874,-1.3243752169365304, ,0.04851581879267422,0.04649531678514002,0.021820289753424663,-0.006519675931745927,0.06907415819523516,-0.053681213385447686, ,1.7040159702301025
0.012437583500593792,0.02098522032200653,-0.08596927113477736, ,0.012984120471808589,0.020701710298471353,-0.08676948286031917, ,0.001009663013110895, ,0.007079302631585174,0.0010644705213776983,-0.021302698045183883,0.006793545389417992,0.0170651054237708,0.015130487421618606, ,0.022473419126709047, ,0.01836751738879569, ,0.00042918239794793677, ,0.16008452974979986,-0.23646235787588027,0.09596434870000001,1.6089509363567556,0.1574052477297874,-1.3243752169365304, ,0.04851581879267422,0.04649531678514002,0.021820289753424663,-0.006519675931745927,0.06907415819523516,-0.053681213385447686, ,1.706801176071167
0.012437583500593792,0.02098522032200653,-0.08596927113477736, ,0.013016082063637089,0.020699094046339614,-0.08684853348700164, ,0.0010907021211628584, ,0.007871613823895519,0.0014610703451596102,-0.023772563131914226,0.02304175403921746,0.00587714726621051,0.012801610309526808, ,0.025084492990827927, ,0.023779312369696947, ,0.0004349852025375413, ,0.1604706663935111,-0.23609166669791748,0.09614453301,1.6089509363567556,0.15795179372884915,-1.3250659247717378, ,0.0519414020571816,0.04866509823511321,0.024393279509954065,-0.006519675931745927,0.061068901858094556,-0.0720758278859743, ,1.7100141048431396
0.01249503924340232,0.02099516944168116,-0.08614506170108656, ,0.013048152011492087,0.02069639595823403,-0.08692777455381905, ,0.001003911718463175, ,0.007871613823895519,0.0014610703451596102,-0.023772563131914226,0.02304175403921746,0.00587714726621051,0.012801610309526808, ,0.025084492990827927, ,0.023779312369696947, ,0.0004399323896325468, ,0.1604706663935111,-0.23609166669791748,0.09614453301,1.6089509363567556,0.15795179372884915,-1.3250659247717378, ,0.0519414020571816,0.04866509823511321,0.024393279509954065,-0.006519675931745927,0.061068901858094556,-0.0720758278859743, ,1.7137091159820557
0.01249503924340232,0.02099516944168116,-0.08614506170108656, ,0.013080329761999977,0.02069361688465351,-0.08700720363521369, ,0.0010847984376789555, ,0.007871613823895519,0.0014610703451596102,-0.023772563131914226,0.02304175403921746,0.00587714726621051,0.012801610309526808, ,0.025084492990827927, ,0.023779312369696947, ,0.0004454915797019124, ,0.1604706663935111,-0.23609166669791748,0.09614453301,1.6089509363567556,0.15795179372884915,-1.3250659247717378, ,0.0519414020571816,0.04866509823511321,0.024393279509954065,-0.006519675931745927,0.061068901858094556,-0.0720758278859743, ,1.7167069911956787
0.01249503924340232,0.02099516944168116,-0.08614506170108656, ,0.01311261476318895,0.02069075767374533,-0.0870868183131899, ,0.0011666068590308852, ,0.007871613823895519,0.0014610703451596102,-0.023772563131914226,0.02304175403921746,0.00587714726621051,0.012801610309526808, ,0.025084492990827927, ,0.023779312369696947, ,0.0004516549581577156, ,0.16073323931123473,-0.23585226197881654,0.09626897685000001,1.6089509363567556,0.1583617032281455,-1.3254818572229676, ,0.05370511689783292,0.04927151690470964,0.026155683940886704,-0.006519675931745927,0.07341948813022428,-0.07820699205643064, ,1.7195689678192139
0.01253409734518449,0.02100341110021646,-0.08626616866923023, ,0.01314500646448659,0.020687819171310247,-0.08716661617730742, ,0.0011329668717308702, ,0.008200652839685303,0.0018081821693622484,-0.02545291835246828,0.0285765842921387,0.01612385909840675,0.015577419396472881, ,0.026802449186819753, ,0.03281142055994396, ,0.00045742878793375927, ,0.16073323931123473,-0.23585226197881654,0.09626897685000001,1.6089509363567556,0.1583617032281455,-1.3254818572229676, ,0.05370511689783292,0.04927151690470964,0.026155683940886704,-0.006519675931745927,0.07341948813022428,-0.07820699205643064, ,1.7223470211029053
0.01253409734518449,0.02100341110021646,-0.08626616866923023, ,0.013177504316719046,0.020684802220803416,-0.08724659482467155, ,0.0012152035201288512, ,0.008200652839685303,0.0018081821693622484,-0.02545291835246828,0.0285765842921387,0.01612385909840675,0.015577419396472881, ,0.026802449186819753, ,0.03281142055994396, ,0.00046379664282615503, ,0.16073323931123473,-0.23585226197881654,0.09626897685000001,1.6089509363567556,0.1583617032281455,-1.3254818572229676, ,0.05370511689783292,0.04927151690470964,0.026155683940886704,-0.006519675931745927,0.07341948813022428,-0.07820699205643064, ,1.7251591682434082
0.01253409734518449,0.02100341110021646,-0.08626616866923023, ,0.013210107772109306,0.020681707663337545,-0.08732675185992511, ,0.0012981987147564547, ,0.008200652839685303,0.0018081821693622484,-0.02545291835246828,0.0285765842921387,0.01612385909840675,0.015577419396472881, ,0.026802449186819753, ,0.03281142055994396, ,0.0004707499934255742, ,0.16073323931123473,-0.23585226197881654,0.09626897685000001,1.6089509363567556,0.1583617032281455,-1.3254818572229676, ,0.05370511689783292,0.04927151690470964,0.026155683940886704,-0.006519675931745927,0.07341948813022428,-0.07820699205643064, ,1.7278711795806885
0.012682604410434601,0.02103275398002135,-0.08671569101333092, ,0.013242816284275398,0.020678536337685724,-0.08740708489523977, ,0.0009577750162094512, ,0.009726456457287067,0.0014522395455111956,-0.02830923719996323,-0.0213400577856669,-0.015504416470295476,0.008260225724973017, ,0.02996874815131306, ,0.02637739210790492, ,0.0004747749936138707, ,0.16168313545476434,-0.23495642496540647,0.09673045609000001,1.6089509363567556,0.15931815872650357,-1.326343461288983, ,0.06267961793822377,0.06040543702003232,0.029014228633879785,-0.006519675931745927,0.05009285514695594,-0.03928843313708829, ,1.730679988861084
0.012682604410434601,0.02103275398002135,-0.08671569101333092, ,0.013275629308229394,0.020675289080282808,-0.08748759155030722, ,0.0010369619679303165, ,0.009726456457287067,0.0014522395455111956,-0.02830923719996323,-0.0213400577856669,-0.015504416470295476,0.008260225724973017, ,0.02996874815131306, ,0.02637739210790492, ,0.00047938308356728417, ,0.16168313545476434,-0.23495642496540647,0.09673045609000001,1.6089509363567556,0.15931815872650357,-1.326343461288983, ,0.06267961793822377,0.06040543702003232,0.029014228633879785,-0.006519675931745927,0.05009285514695594,-0.03928843313708829, ,1.733443021774292
0.012682604410434601,0.02103275398002135,-0.08671569101333092, ,0.013308546300375649,0.02067196672522849,-0.08756826945233051, ,0.0011175243565358756, ,0.009726456457287067,0.0014522395455111956,-0.02830923719996323,-0.0213400577856669,-0.015504416470295476,0.008260225724973017, ,0.02996874815131306, ,0.02637739210790492, ,0.0004845712239979232, ,0.16168313545476434,-0.23495642496540647,0.09673045609000001,1.6089509363567556,0.15931815872650357,-1.326343461288983, ,0.06267961793822377,0.06040543702003232,0.029014228633879785,-0.006519675931745927,0.05009285514695594,-0.03928843313708829, ,1.7362110614776611
0.012682604410434601,0.02103275398002135,-0.08671569101333092, ,0.013341566718509484,0.020668570104289675,-0.08764911623601593, ,0.001199226361097388, ,0.009726456457287067,0.0014522395455111956,-0.02830923719996323,-0.0213400577856669,-0.015504416470295476,0.008260225724973017, ,0.02996874815131306, ,0.02637739210790492, ,0.0004903345718777575, ,0.16168313545476434,-0.23495642496540647,0.09673045609000001,1.6089509363567556,0.15931815872650357,-1.326343461288983, ,0.06267961793822377,0.06040543702003232,0.029014228633879785,-0.006519675931745927,0.05009285514695594,-0.03928843313708829, ,1.7389600276947021
0.012787017894447862,0.021050085665802735,-0.08703281908758181, ,0.013374690021815095,0.020665100046903865,-0.08773012954356403, ,0.0009898557107303075, ,0.010111790992161978,0.0017986605622323962,-0.031283895531290025,0.05658475362251692,0.04927530530397439,0.024413686132730827, ,0.032926670291725, ,0.07503239361116606, ,0.000494330740988578, ,0.16238590414631876,-0.23429226993822316,0.09705582488000002,1.6089509363567556,0.16041125072462709,-1.327316483258695, ,0.06846821180264846,0.06420632040491935,0.03211453935483872,-0.006519675931745927,0.12263982569174527,-0.12095531193302973, ,1.7416839599609375
0.012787017894447862,0.021050085665802735,-0.08703281908758181, ,0.013407915670865024,0.020661557380179732,-0.08781130702466086, ,0.0010688834106985276, ,0.010111790992161978,0.0017986605622323962,-0.031283895531290025,0.05658475362251692,0.04927530530397439,0.024413686132730827, ,0.032926670291725, ,0.07503239361116606, ,0.0004988906828116728, ,0.16238590414631876,-0.23429226993822316,0.09705582488000002,1.6089509363567556,0.16041125072462709,-1.327316483258695, ,0.06846821180264846,0.06420632040491935,0.03211453935483872,-0.006519675931745927,0.12263982569174527,-0.12095531193302973, ,1.7444701194763184
0.012787017894447862,0.021050085665802735,-0.08703281908758181, ,0.013441243127617694,0.020657942928901676,-0.08789264633646975, ,0.0011493865667174658, ,0.010111790992161978,0.0017986605622323962,-0.031283895531290025,0.05658475362251692,0.04927530530397439,0.024413686132730827, ,0.032926670291725, ,0.07503239361116606, ,0.0005040126976455767, ,0.16238590414631876,-0.23429226993822316,0.09705582488000002,1.6089509363567556,0.16041125072462709,-1.327316483258695, ,0.06846821180264846,0.06420632040491935,0.03211453935483872,-0.006519675931745927,0.12263982569174527,-0.12095531193302973, ,1.7473411560058594
0.012787017894447862,0.021050085665802735,-0.08703281908758181, ,0.013474671855416566,0.020654257515530863,-0.08797414514362265, ,0.00123111438882217, ,0.010111790992161978,0.0017986605622323962,-0.031283895531290025,0.05658475362251692,0.04927530530397439,0.024413686132730827, ,0.032926670291725, ,0.07503239361116606, ,0.0005096931796078939, ,0.16311184103649587,-0.23362811491103988,0.09737989738000001,1.6087412464132707,0.16164097922251605,-1.3284009231321032, ,0.07555488977585254,0.06735056178741716,0.031794034970059885,0.005045922802814674,0.12182771446149407,-0.12233724909393713, ,1.7501909732818604
0.012787017894447862,0.021050085665802735,-0.08703281908758181, ,0.013508201318988456,0.020650501960207762,-0.08805580111821104, ,0.0013138740063641588, ,0.010111790992161978,0.0017986605622323962,-0.031283895531290025,0.05658475362251692,0.04927530530397439,0.024413686132730827, ,0.032926670291725, ,0.07503239361116606, ,0.0005159271395052293, ,0.16311184103649587,-0.23362811491103988,0.09737989738000001,1.6087412464132707,0.16164097922251605,-1.3284009231321032, ,0.07555488977585254,0.06735056178741716,0.031794034970059885,0.005045922802814674,0.12182771446149407,-0.12233724909393713, ,1.7530851364135742
0.012787017894447862,0.021050085665802735,-0.08703281908758181, ,0.01354183098444176,0.02064667708075636,-0.08813761193977812, ,0.00139751512821125, ,0.010111790992161978,0.0017986605622323962,-0.031283895531290025,0.05658475362251692,0.04927530530397439,0.024413686132730827, ,0.032926670291725, ,0.07503239361116606, ,0.0005227085855721987, ,0.16311184103649587,-0.23362811491103988,0.09737989738000001,1.6087412464132707,0.16164097922251605,-1.3284009231321032, ,0.07555488977585254,0.06735056178741716,0.031794034970059885,0.005045922802814674,0.12182771446149407,-0.12233724909393713, ,1.7567150592803955
0.012892468936965544,0.021066387889708566,-0.08734841862552137, ,0.01357556031926546,0.020642783692683596,-0.08821957529530938, ,0.001185313585354409, ,0.010895873781920891,0.0014210810580279267,-0.03094068064059759,0.05666065246613675,0.04414793853560971,0.012427914840569116, ,0.03283390405280017, ,0.07182925350126085, ,0.0005277666390056506, ,0.16388411432391833,-0.23293306895235966,0.09769230327000002,1.6087412464132707,0.16259743472087412,-1.3293442059382594, ,0.07634508572684696,0.07205538463057766,0.029443274528650653,0.005045922802814674,0.07888501450559682,-0.06499307711429556, ,1.7599091529846191
0.013003197720454801,0.021077129605318035,-0.0876527341743162, ,0.01360938879232723,0.02063882260918464,-0.08830168887922457, ,0.0009903145194836028, ,0.010895873781920891,0.00041902632060807814,-0.028765943120048477,-0.005312456364701206,0.0015802686591434316,0.001643551315336141, ,0.03076321069255902, ,0.005540735057671734, ,0.0005312707896153321, ,0.16388411432391833,-0.23293306895235966,0.09769230327000002,1.6087412464132707,0.16259743472087412,-1.3293442059382594, ,0.07634508572684696,0.07205538463057766,0.029443274528650653,0.005045922802814674,0.07888501450559682,-0.06499307711429556, ,1.7632901668548584
0.013003197720454801,0.021077129605318035,-0.0876527341743162, ,0.013643315873871957,0.02063479464114421,-0.08838395039336885, ,0.0010677493291360639, ,0.010895873781920891,0.00041902632060807814,-0.028765943120048477,-0.005312456364701206,0.0015802686591434316,0.001643551315336141, ,0.03076321069255902, ,0.005540735057671734, ,0.0005353044628448113, ,0.16388411432391833,-0.23293306895235966,0.09769230327000002,1.6087412464132707,0.16259743472087412,-1.3293442059382594, ,0.07634508572684696,0.07205538463057766,0.029443274528650653,0.005045922802814674,0.07888501450559682,-0.06499307711429556, ,1.766024112701416
0.013003197720454801,0.021077129605318035,-0.0876527341743162, ,0.01367734103552051,0.02063070059713881,-0.088466357547004, ,0.0011470619256062577, ,0.010895873781920891,0.00041902632060807814,-0.028765943120048477,-0.005312456364701206,0.0015802686591434316,0.001643551315336141, ,0.03076321069255902, ,0.005540735057671734, ,0.0005398698170445236, ,0.16388411432391833,-0.23293306895235966,0.09769230327000002,1.6087412464132707,0.16259743472087412,-1.3293442059382594, ,0.07634508572684696,0.07205538463057766,0.029443274528650653,0.005045922802814674,0.07888501450559682,-0.06499307711429556, ,1.7688159942626953
0.013112248552149645,0.021076169351638467,-0.0879255555030583, ,0.013711463750267931,0.02062654128343986,-0.08854890805680071, ,0.0009745730653086652, ,0.011205534746552894,-0.0007714225816195977,-0.02622131295381977,-0.027929780008220884,-0.03594959437175756,-0.013140212976532705, ,0.02852571392231566, ,0.04552398874296674, ,0.0005430898411057395, ,0.16464866487846655,-0.2321916865964341,0.09797100562000001,1.6091606263002398,0.1631439807199359,-1.3297081988129045, ,0.08035304111640201,0.07804024799216347,0.026726193825503362,0.010687897155519077,0.04310589512142156,-0.04734408485095796, ,1.7715611457824707
0.013112248552149645,0.021076169351638467,-0.0879255555030583, ,0.01374568349248222,0.02062231750401557,-0.08863159964682854, ,0.0010515320519019348, ,0.011205534746552894,-0.0007714225816195977,-0.02622131295381977,-0.027929780008220884,-0.03594959437175756,-0.013140212976532705, ,0.02852571392231566, ,0.04552398874296674, ,0.0005468283867733585, ,0.16464866487846655,-0.2321916865964341,0.09797100562000001,1.6091606263002398,0.1631439807199359,-1.3297081988129045, ,0.08035304111640201,0.07804024799216347,0.026726193825503362,0.010687897155519077,0.04310589512142156,-0.04734408485095796, ,1.7742810249328613
0.013112248552149645,0.021076169351638467,-0.0879255555030583, ,0.013779999737902619,0.020618030060533487,-0.08871443004854832, ,0.0011305336371160055, ,0.011205534746552894,-0.0007714225816195977,-0.02622131295381977,-0.027929780008220884,-0.03594959437175756,-0.013140212976532705, ,0.02852571392231566, ,0.04552398874296674, ,0.0005510890090386333, ,0.16464866487846655,-0.2321916865964341,0.09797100562000001,1.6091606263002398,0.1631439807199359,-1.3297081988129045, ,0.08035304111640201,0.07804024799216347,0.026726193825503362,0.010687897155519077,0.04310589512142156,-0.04734408485095796, ,1.7770071029663086
0.013112248552149645,0.021076169351638467,-0.0879255555030583, ,0.013814411963637977,0.020613679752364236,-0.08879739700080364, ,0.001211213310305245, ,0.011205534746552894,-0.0007714225816195977,-0.02622131295381977,-0.027929780008220884,-0.03594959437175756,-0.013140212976532705, ,0.02852571392231566, ,0.04552398874296674, ,0.0005558725184681015, ,0.165490442761757,-0.23132674051452096,0.09824841168000001,1.6091606263002398,0.16396379971852854,-1.330376706235083, ,0.08397959429953167,0.08642708702957265,0.027089815510204087,0.010687897155519077,0.10896322010070868,-0.0986974728309182, ,1.780083179473877
0.013226277497416792,0.02106287814905397,-0.08819874367846854, ,0.013848919648165713,0.020609267376581884,-0.08888049824981153, ,0.0010287056315287841, ,0.011059118037154212,-0.001481116278631756,-0.026686212250904538,0.015174256615909399,0.024511807168513908,0.0005305803821663753, ,0.028924932523531753, ,0.028828340573934557, ,0.0005592741955404805, ,0.165490442761757,-0.23132674051452096,0.09824841168000001,1.6091606263002398,0.16396379971852854,-1.330376706235083, ,0.08397959429953167,0.08642708702957265,0.027089815510204087,0.010687897155519077,0.10896322010070868,-0.0986974728309182, ,1.7836310863494873
0.013226277497416792,0.02106287814905397,-0.08819874367846854, ,0.013883522271330079,0.020604793727967818,-0.08896373154915438, ,0.0011077086584362404, ,0.011059118037154212,-0.001481116278631756,-0.026686212250904538,0.015174256615909399,0.024511807168513908,0.0005305803821663753, ,0.028924932523531753, ,0.028828340573934557, ,0.0005631915845611644, ,0.165490442761757,-0.23132674051452096,0.09824841168000001,1.6091606263002398,0.16396379971852854,-1.330376706235083, ,0.08397959429953167,0.08642708702957265,0.027089815510204087,0.010687897155519077,0.10896322010070868,-0.0986974728309182, ,1.7865080833435059
0.013226277497416792,0.02106287814905397,-0.08819874367846854, ,0.013918219314340396,0.020600259599012984,-0.08904709465977077, ,0.001188485922645289, ,0.011059118037154212,-0.001481116278631756,-0.026686212250904538,0.015174256615909399,0.024511807168513908,0.0005305803821663753, ,0.028924932523531753, ,0.028828340573934557, ,0.0005676262961787823, ,0.165490442761757,-0.23132674051452096,0.09824841168000001,1.6091606263002398,0.16396379971852854,-1.330376706235083, ,0.08397959429953167,0.08642708702957265,0.027089815510204087,0.010687897155519077,0.10896322010070868,-0.0986974728309182, ,1.7895970344543457
0.013329869816102563,0.021049593946533114,-0.08844990176006147, ,0.013953010259770113,0.020595665779919572,-0.0891305853499478, ,0.0010284381082592533, ,0.011235662428659678,-0.0015114443626428136,-0.026252128739664874,0.02453138867830436,0.03720443185164853,0.004762703740062659, ,0.02859543385990319, ,0.044563957534630404, ,0.0005708714497849828, ,0.16629360698067636,-0.2305235762956016,0.09850378081000001,1.6091606263002398,0.1651935282164175,-1.3314611461084913, ,0.08794897271406003,0.08533897622164638,0.026726193825503362,0.010379115014928985,0.12612954890826777,-0.1070171159557635, ,1.7925450801849365
0.013329869816102563,0.021049593946533114,-0.08844990176006147, ,0.013987894591554549,0.020591013058605834,-0.08921420139531204, ,0.0011079020571896075, ,0.011235662428659678,-0.0015114443626428136,-0.026252128739664874,0.02453138867830436,0.03720443185164853,0.004762703740062659, ,0.02859543385990319, ,0.044563957534630404, ,0.0005746269085780221, ,0.16629360698067636,-0.2305235762956016,0.09850378081000001,1.6091606263002398,0.1651935282164175,-1.3314611461084913, ,0.08794897271406003,0.08533897622164638,0.026726193825503362,0.010379115014928985,0.12612954890826777,-0.1070171159557635, ,1.7953791618347168
0.013329869816102563,0.021049593946533114,-0.08844990176006147, ,0.014022871794990345,0.02058630222070492,-0.08929794057882007, ,0.0011891428863196913, ,0.011235662428659678,-0.0015114443626428136,-0.026252128739664874,0.02453138867830436,0.03720443185164853,0.004762703740062659, ,0.02859543385990319, ,0.044563957534630404, ,0.0005788943806456726, ,0.16629360698067636,-0.2305235762956016,0.09850378081000001,1.6091606263002398,0.1651935282164175,-1.3314611461084913, ,0.08794897271406003,0.08533897622164638,0.026726193825503362,0.010379115014928985,0.12612954890826777,-0.1070171159557635, ,1.7983500957489014
0.013456518161248817,0.021028237517957515,-0.08872782562057131, ,0.014057941356732988,0.020581534049570884,-0.08938180069075113, ,0.0009944532372875758, ,0.011984982670657177,-0.0021132118938411385,-0.02527034098013067,-0.025677950890200554,-0.021684549717472783,-0.008009886089920124, ,0.02804809454091839, ,0.03360902487711903, ,0.0005817603037949271, ,0.1672821167885771,-0.22956595741919777,0.09878637203000001,1.6091606263002398,0.16628662021454105,-1.3323524893380627, ,0.09177653922482666,0.08885481419332471,0.02569163148387097,0.00947977851434975,0.06976487092848334,-0.06040277484539589, ,1.8012900352478027
0.013456518161248817,0.021028237517957515,-0.08872782562057131, ,0.014093102764795936,0.020576709326279384,-0.0894657795286985, ,0.0010741013154603018, ,0.011984982670657177,-0.0021132118938411385,-0.02527034098013067,-0.025677950890200554,-0.021684549717472783,-0.008009886089920124, ,0.02804809454091839, ,0.03360902487711903, ,0.0005851325025049639, ,0.1672821167885771,-0.22956595741919777,0.09878637203000001,1.6091606263002398,0.16628662021454105,-1.3323524893380627, ,0.09177653922482666,0.08885481419332471,0.02569163148387097,0.00947977851434975,0.06976487092848334,-0.06040277484539589, ,1.8040771484375
0.013456518161248817,0.021028237517957515,-0.08872782562057131, ,0.014128355508549042,0.020571828829629737,-0.08954987489755906, ,0.0011556121000597728, ,0.011984982670657177,-0.0021132118938411385,-0.02527034098013067,-0.025677950890200554,-0.021684549717472783,-0.008009886089920124, ,0.02804809454091839, ,0.03360902487711903, ,0.0005890133160937721, ,0.1672821167885771,-0.22956595741919777,0.09878637203000001,1.6091606263002398,0.16628662021454105,-1.3323524893380627, ,0.09177653922482666,0.08885481419332471,0.02569163148387097,0.00947977851434975,0.06976487092848334,-0.06040277484539589, ,1.8069579601287842
0.013456518161248817,0.021028237517957515,-0.08872782562057131, ,0.014163699078716951,0.020566893336148417,-0.08963408460952756, ,0.0012386479157469126, ,0.011984982670657177,-0.0021132118938411385,-0.02527034098013067,-0.025677950890200554,-0.021684549717472783,-0.008009886089920124, ,0.02804809454091839, ,0.03360902487711903, ,0.0005934027390644015, ,0.1672821167885771,-0.22956595741919777,0.09878637203000001,1.6091606263002398,0.16628662021454105,-1.3323524893380627, ,0.09177653922482666,0.08885481419332471,0.02569163148387097,0.00947977851434975,0.06976487092848334,-0.06040277484539589, ,1.8096911907196045
0.013584825905665681,0.02100161036756318,-0.088995222441967, ,0.014199132967377511,0.020561903620091297,-0.08971840648408523, ,0.0010458060760082546, ,0.012992076804835004,-0.002731523049535188,-0.02730581227543893,-0.05273318858649884,-0.04175959818488079,-0.01276344648673667, ,0.030362191322340113, ,0.06726542974613037, ,0.000596439003070736, ,0.16824745839785518,-0.22858517034417125,0.09905729664000001,1.6091606263002398,0.16683316621360278,-1.332879839692989, ,0.09693252457453604,0.10010225902792276,0.027654186666666667,0.008762459807256151,0.05461187214430532,-0.0445323198537797, ,1.8124310970306396
0.013584825905665681,0.02100161036756318,-0.088995222441967, ,0.014234656667960411,0.020556860453445992,-0.08980283834799306, ,0.001127974271602897, ,0.012992076804835004,-0.002731523049535188,-0.02730581227543893,-0.05273318858649884,-0.04175959818488079,-0.01276344648673667, ,0.030362191322340113, ,0.06726542974613037, ,0.0005999825715276171, ,0.16824745839785518,-0.22858517034417125,0.09905729664000001,1.6091606263002398,0.16683316621360278,-1.332879839692989, ,0.09693252457453604,0.10010225902792276,0.027654186666666667,0.008762459807256151,0.05461187214430532,-0.0445323198537797, ,1.8152170181274414
0.013584825905665681,0.02100161036756318,-0.088995222441967, ,0.014270269675245684,0.020551764605934386,-0.08988737803528248, ,0.0012116666097551408, ,0.012992076804835004,-0.002731523049535188,-0.02730581227543893,-0.05273318858649884,-0.04175959818488079,-0.01276344648673667, ,0.030362191322340113, ,0.06726542974613037, ,0.000604033459197998, ,0.16824745839785518,-0.22858517034417125,0.09905729664000001,1.6091606263002398,0.16683316621360278,-1.332879839692989, ,0.09693252457453604,0.10010225902792276,0.027654186666666667,0.008762459807256151,0.05461187214430532,-0.0445323198537797, ,1.8180110454559326
0.013712067850105944,0.020976851111231123,-0.08927908268821728, ,0.014305971485361923,0.020546616845015696,-0.08997202338724712, ,0.0010089548375265133, ,0.012940701709239208,-0.0022896028411279793,-0.029726339198934623,-0.008051277134990502,0.010622333256902386,-0.0003633590628832467, ,0.03250168124986344, ,0.013327933658846273, ,0.0006066974156343698, ,0.169205077274259,-0.2275889378033963,0.09934507302000001,1.6091606263002398,0.16778962171196088,-1.3337414437590045, ,0.09653808907270679,0.10084690920135046,0.030168203636363643,0.008171518270048172,0.1081063696777311,-0.0900326720444101, ,1.8207321166992188
0.013712067850105944,0.020976851111231123,-0.08927908268821728, ,0.014341761595785506,0.02054141793588653,-0.09005677225243264, ,0.0010912915842377312, ,0.012940701709239208,-0.0022896028411279793,-0.029726339198934623,-0.008051277134990502,0.010622333256902386,-0.0003633590628832467, ,0.03250168124986344, ,0.013327933658846273, ,0.0006098646977821042, ,0.169205077274259,-0.2275889378033963,0.09934507302000001,1.6091606263002398,0.16778962171196088,-1.3337414437590045, ,0.09653808907270679,0.10084690920135046,0.030168203636363643,0.008171518270048172,0.1081063696777311,-0.0900326720444101, ,1.8238379955291748
0.013712067850105944,0.020976851111231123,-0.08927908268821728, ,0.01437763950533815,0.020536168641487506,-0.09014162248663135, ,0.0011752283060052842, ,0.012940701709239208,-0.0022896028411279793,-0.029726339198934623,-0.008051277134990502,0.010622333256902386,-0.0003633590628832467, ,0.03250168124986344, ,0.013327933658846273, ,0.0006135358900432937, ,0.169205077274259,-0.2275889378033963,0.09934507302000001,1.6091606263002398,0.16778962171196088,-1.3337414437590045, ,0.09653808907270679,0.10084690920135046,0.030168203636363643,0.008171518270048172,0.1081063696777311,-0.0900326720444101, ,1.8266019821166992
0.013712067850105944,0.020976851111231123,-0.08927908268821728, ,0.014413604714186042,0.02053086972250202,-0.09022657195287012, ,0.0012604718471225175, ,0.012940701709239208,-0.0022896028411279793,-0.029726339198934623,-0.008051277134990502,0.010622333256902386,-0.0003633590628832467, ,0.03250168124986344, ,0.013327933658846273, ,0.0006177096704115468, ,0.169205077274259,-0.2275889378033963,0.09934507302000001,1.6091606263002398,0.16778962171196088,-1.3337414437590045, ,0.09653808907270679,0.10084690920135046,0.030168203636363643,0.008171518270048172,0.1081063696777311,-0.0900326720444101, ,1.8293800354003906
0.013829956463298999,0.020959000053666705,-0.08955047683652817, ,0.014449656723838331,0.020525521937359875,-0.09031161852140335, ,0.001072971739927971, ,0.012940701709239208,-0.0022896028411279793,-0.029726339198934623,-0.008051277134990502,0.010622333256902386,-0.0003633590628832467, ,0.03250168124986344, ,0.013327933658846273, ,0.0006206280170110111, ,0.17007774608904638,-0.22670082352286047,0.09962118279000001,1.6093703162437245,0.16874607721031895,-1.3346847265651607, ,0.09733019647022642,0.09926458322015773,0.030989905680933853,0.0015711408007354182,0.12359625546353596,-0.10818731682640957, ,1.8324601650238037
0.013829956463298999,0.020959000053666705,-0.08955047683652817, ,0.014485795037144993,0.020520126042241633,-0.0903967600697055, ,0.001157121404004676, ,0.013054607183019,-0.002026224633111323,-0.030461741854029323,0.01061260357554161,0.023443261735466986,0.009533887949452815, ,0.03320310334514351, ,0.02573300695481101, ,0.0006240451723421809, ,0.17007774608904638,-0.22670082352286047,0.09962118279000001,1.6093703162437245,0.16874607721031895,-1.3346847265651607, ,0.09733019647022642,0.09926458322015773,0.030989905680933853,0.0015711408007354182,0.12359625546353596,-0.10818731682640957, ,1.8354861736297607
0.013829956463298999,0.020959000053666705,-0.08955047683652817, ,0.014522019158296325,0.02051468279107769,-0.09048199448246008, ,0.0012426156800572285, ,0.013054607183019,-0.002026224633111323,-0.030461741854029323,0.01061260357554161,0.023443261735466986,0.009533887949452815, ,0.03320310334514351, ,0.02573300695481101, ,0.0006279601755555674, ,0.17007774608904638,-0.22670082352286047,0.09962118279000001,1.6093703162437245,0.16874607721031895,-1.3346847265651607, ,0.09733019647022642,0.09926458322015773,0.030989905680933853,0.0015711408007354182,0.12359625546353596,-0.10818731682640957, ,1.8384361267089844
0.013979765946539843,0.020934742829023665,-0.08990265980218197, ,0.014558328592820675,0.020509192935553328,-0.09056731965155265, ,0.0009785704690361103, ,0.013807552631915214,-0.001970530092496788,-0.032486172177261304,0.0004979956556286077,-0.0038577102758352824,0.0025217732562863907, ,0.03535368271141227, ,0.0038850670822642014, ,0.0006301652717409796, ,0.17116665142431203,-0.22555013632460102,0.09997895883,1.6093703162437245,0.16997580570820792,-1.3360958813991313, ,0.09823699954293041,0.10292509930419824,0.03304732680497926,0.0015711408007354182,0.09646137984601268,-0.10166496980160344, ,1.8412461280822754
0.013979765946539843,0.020934742829023665,-0.08990265980218197, ,0.01459472284758324,0.020503657225110113,-0.0906527334760616, ,0.0010614223025213418, ,0.013807552631915214,-0.001970530092496788,-0.032486172177261304,0.0004979956556286077,-0.0038577102758352824,0.0025217732562863907, ,0.03535368271141227, ,0.0038850670822642014, ,0.000632860628183357, ,0.17116665142431203,-0.22555013632460102,0.09997895883,1.6093703162437245,0.16997580570820792,-1.3360958813991313, ,0.09823699954293041,0.10292509930419824,0.03304732680497926,0.0015711408007354182,0.09646137984601268,-0.10166496980160344, ,1.844048023223877
0.013979765946539843,0.020934742829023665,-0.08990265980218197, ,0.014631201430784349,0.020498076406949436,-0.09073823386225056, ,0.001145962374670084, ,0.013807552631915214,-0.001970530092496788,-0.032486172177261304,0.0004979956556286077,-0.0038577102758352824,0.0025217732562863907, ,0.03535368271141227, ,0.0038850670822642014, ,0.0006360475955528397, ,0.17116665142431203,-0.22555013632460102,0.09997895883,1.6093703162437245,0.16997580570820792,-1.3360958813991313, ,0.09823699954293041,0.10292509930419824,0.03304732680497926,0.0015711408007354182,0.09646137984601268,-0.10166496980160344, ,1.8468739986419678
