NicholasDascanio/dvrk_moveit_final/test/execution/third_experiment_notsharpbends/thirdexp_400vel3.0/thirdexp_400vel3.0_9.csv
Current Position (x),Current Position (y),Current Position (z), ,Planned Position (x),Planned Position (y),Planned Position (z), ,Position Error,,Cartesian linear Velocity(x),Cartesian linear Velocity(y),Cartesian linear Velocity(z),Cartesian Angular Velocity(x),Cartesian Angular Velocity(y),Cartesian Angular Velocity(z), ,Total Linear Velocity, ,Total Angular Velocity, ,MSE, ,Joint 1 Position,Joint 2 Position,Joint 3 Position,Joint 4 Position,Joint 5 Position,Joint 6 Position, ,Joint 1 Velocity,Joint 2 Velocity,Joint 3 Velocity,Joint 4 Velocity,Joint 5 Velocity,Joint 6 Velocity, ,Time Stamp
0.009039219387996218,0.020467871718826747,-0.08037381022298602, ,0.009225575182309381,0.02040419323990191,-0.08041388709471926, ,0.00020097160595515393, ,7.174195729013791e-05,-1.1427252233047436e-06,7.777435662874288e-06,0.3202833930346524,-8.145364699904201e-05,-0.0030657694343469524, ,7.217134308190543e-05, ,0.320283403392193, ,1.674763382959616e-05, ,0.1272629150343457,-0.24742091582440484,0.09000530357000001,1.602031168221766,0.13622659026614414,-1.3048184371396494, ,0.000892602309432099,0.0,0.0,-0.0009541959184592989,0.0,-0.32596907162117406, ,0.0297698974609375
0.009072216417647192,0.020467971427167234,-0.08037885028558399, ,0.009272642520525532,0.02041481744156033,-0.08047468761943374, ,0.00022843109127333532, ,0.0014900476234436164,1.8864235616837003e-05,8.21344784798747e-06,0.11232468926913806,-0.14452608894749247,-0.03645374798374183, ,0.0014901896658616742, ,0.18304268957231512, ,1.9518304419476784e-05, ,0.1273246968973395,-0.2474054703586564,0.09001048873,1.602031168221766,0.13322058727130442,-1.310208402311822, ,0.0018740064854370375,-0.0002053555819579606,0.0,-0.0009541959184592989,-0.14725438751156128,-0.11222831368869379, ,0.06097292900085449
0.009118906001391917,0.020476276046825698,-0.0804072213361692, ,0.009319722315777379,0.020425261218506963,-0.080535484268863, ,0.0002436823439130647, ,0.0019194892811875656,0.0003300642200658233,-0.0012887186047120618,0.3881488682749258,-0.13109203106392325,-0.03318362965178754, ,0.002335417978027193, ,0.40968849697247633, ,2.103390753567356e-05, ,0.12750231975344664,-0.24741319309153062,0.09004159969000002,1.602031168221766,0.13007794777669932,-1.3163037369817037, ,0.007205003352480824,0.00016112260643769065,0.0013971332561730082,-0.0009541959184592989,-0.12829772109146742,-0.3884151808934212, ,0.08798694610595703
0.009160668979078931,0.020481164980403737,-0.0804302173724887, ,0.009366814151957614,0.020435525660677106,-0.08059627734938027, ,0.00026861626110777153, ,0.0008027066826683836,0.00010016715491913414,-0.0005081668152316737,-0.22080675976974615,-0.0006563915468847106,0.001995075158069251, ,0.0009553036111246397, ,0.22080773539411425, ,2.2421459577364894e-05, ,0.12776489267117028,-0.24739774762578218,0.09006752549000001,1.6018214782782818,0.12816503677998314,-1.3148255650700944, ,0.010125855234732157,0.0006312596685092685,0.0006123159897681967,0.0012830328793948186,0.009781551178033442,0.2203370928120526, ,0.11871695518493652
0.009177095973178654,0.020493949033063334,-0.08048252193272673, ,0.00941391761453619,0.020445611855446848,-0.08065706716547655, ,0.00029813924738432776, ,0.0008545920408901222,0.0005968471970732101,-0.0025422973939646107,-0.019286529689381278,0.03798225049000761,0.010306917807800438, ,0.0027476954293309407, ,0.04259837531689287, ,2.384308749295487e-05, ,0.12806607925326505,-0.24737457942715949,0.09012456225000001,1.6024505481087352,0.12980467477716842,-1.3132221452693913, ,0.012150696742441841,0.0009501579623136761,0.002743036252798347,0.0023897216834784236,0.05115349208637689,0.018647103224490327, ,0.14660286903381348
0.009215844492456724,0.02050952863725594,-0.08054814195311213, ,0.009461032290558356,0.020455520887635435,-0.08071785401976203, ,0.00030304468139793686, ,0.001439229851628623,0.0005752509469448775,-0.0023886092668438143,0.09066842059901654,-0.0026592710240625444,0.00013996257108817318, ,0.0028474111834141673, ,0.0907074099300704, ,2.488524566179984e-05, ,0.1284367704312278,-0.24735141122853682,0.0901958582,1.6024505481087352,0.12980467477716842,-1.3134671814898131, ,0.01519080223442785,0.0008290606084120727,0.002613422726825267,0.0023897216834784236,0.012208695329146894,-0.09119462706385215, ,0.17465591430664062
0.009274051993120674,0.020525763884667342,-0.08062211313487644, ,0.009508157768644067,0.020465253839507525,-0.08077863821296905, ,0.000288040066259103, ,0.0016488767855689969,0.00042761602406748343,-0.001956528324498515,0.0047707460789310424,-0.010361939280717035,-0.0007420548191373077, ,0.002594157513065195, ,0.011407445103011997, ,2.5429518017926294e-05, ,0.1290314208625431,-0.24730507483129147,0.09027752447000001,1.6024505481087352,0.12980467477716842,-1.3143656476313592, ,0.01694285691099282,0.0021015684397861977,0.002266156141698677,0.0023897216834784236,0.006062251408865803,0.03306954061675515, ,0.2019968032836914
0.009285976896392673,0.02052894501587799,-0.08063608037932636, ,0.009555293638984733,0.020474811790776138,-0.08083942004395625, ,0.00034177321883395326, ,0.001655188256911529,0.00040210908773375266,-0.0020045962753004127,-0.02300520887546747,-0.011773038885347782,-0.0010759451568259262, ,0.0026305410301312895, ,0.025842679427014313, ,2.6496323367373736e-05, ,0.1291549845885307,-0.24729735209841724,0.09029307995000001,1.6024505481087352,0.12980467477716842,-1.3143656476313592, ,0.017651960855370307,0.0017704813631576476,0.0022188064521521107,0.0023897216834784236,0.0054907381197566605,0.021547433281128334, ,0.23068881034851074
0.009356547660033554,0.020543534432436606,-0.08071154410902429, ,0.00960243949334009,0.020484195818604813,-0.08090019980971007, ,0.0003155548101036839, ,0.001915159678346428,0.0004045298024697479,-0.0019997945692851664,-0.0061433458206953066,-0.01843410259375519,-0.007111850586796382, ,0.0027983315160989503, ,0.019430821811692957, ,2.7046231806829674e-05, ,0.1299118124102047,-0.247220124769675,0.09037733880000001,1.6026602380522197,0.12994131127693384,-1.3143137080547747, ,0.020182250437786212,0.0018658887387382386,0.0022390794939555806,0.007166552207045376,0.0,0.00519342353213253, ,0.2597348690032959
0.00941510184069623,0.020556900168428524,-0.08077640985923874, ,0.009649594925041225,0.02049340699760981,-0.08096097780534878, ,0.0003050962406807398, ,0.0019349619146261806,0.0004074423554572472,-0.002064667781248237,-0.003847763623488194,-0.01814722148370582,-0.006363769211002779, ,0.0028588354151645183, ,0.018550658544736198, ,2.7385780067735978e-05, ,0.13055279923876534,-0.24716606563955543,0.09044993104000001,1.6026602380522197,0.13021458427646476,-1.3145365438621675, ,0.020355414319706302,0.0020199077356578116,0.002306183801940061,0.006518803332846702,0.0006359769316831792,0.0026677708514703065, ,0.28711485862731934
0.009470642362835222,0.0205698701972192,-0.08084169671830996, ,0.009696759528983207,0.020502446399862935,-0.08102175432412473, ,0.00029680916880797626, ,0.0018513288521944816,0.00045175783818281916,-0.002039158342886464,0.00924748753657676,-0.008448166294540378,0.00025035163567033777, ,0.0027909981029536407, ,0.012525475617480273, ,2.7839267889342754e-05, ,0.13115517240295485,-0.24710428377656163,0.09052252328,1.602869927995704,0.13048785727599563,-1.3145960221892792, ,0.020589486126810757,0.0013841247978051779,0.0022958794349956764,0.0025620015584028205,0.011870904546979328,-0.010297035948850041, ,0.3147249221801758
0.009508362545432325,0.020578063062339114,-0.08088214831127699, ,0.009743932901624107,0.02051131509489388,-0.08108252965742829, ,0.00031638800192137616, ,0.0019949587591096773,0.000403791064693572,-0.002115390048173073,-0.009041425426798855,-0.01741939232452208,-0.0005339985676858804, ,0.002935606024381417, ,0.019626069465423383, ,2.8387889480320183e-05, ,0.13155675451241453,-0.24706567011219052,0.09056789343,1.6030796179391889,0.13062449377576107,-1.3145440826126942, ,0.02135394724538046,0.0021635023183305645,0.002365782195158177,0.0012292150895741156,0.0036868887239459207,0.007052563214807446, ,0.3395719528198242
0.009549883368139268,0.020590134946453287,-0.08094104267255998, ,0.00979111464098453,0.02052001414969276,-0.08114330409478941, ,0.00032251997776749686, ,0.0019163010334974431,0.0005682858600912305,-0.002773977863425139,0.01896092587575651,-0.00671966016632164,0.00195458699983123, ,0.0034190805279395945, ,0.020116424698552397, ,2.8907493917875342e-05, ,0.132020118484868,-0.24701933371494517,0.09063270793000001,1.6030796179391889,0.1310344032750574,-1.3146333001033619, ,0.020351049015327208,0.0021709107694616856,0.003042752916905445,0.0011346853916709546,0.013759301672766972,-0.020970612624657145, ,0.36437487602233887
0.009604176902325777,0.020600873177677864,-0.08100054533558193, ,0.009838304346646499,0.020528544628712155,-0.08120407792388191, ,0.0003185476317283313, ,0.0016030474890525478,0.00010165622243744416,-0.0012465533334437297,0.015649902582404805,-0.005635173063379638,0.002947924839139322, ,0.0020332216929881512, ,0.016633539199159934, ,2.9330538747349638e-05, ,0.13258387798468638,-0.24694982911907715,0.09069881872,1.603289307882673,0.1310344032750574,-1.3145516213632211, ,0.018983184948683895,0.003017060036671076,0.0014228373290748198,0.0,0.013759301672766972,-0.018641876118129112, ,0.39141082763671875
0.009641731374348253,0.020605261087232395,-0.08103355746092926, ,0.009885501619748702,0.020536907593870054,-0.08126485143052592, ,0.0003429184057020147, ,0.001902123767839837,0.00024345791642692348,-0.0019573388027858667,0.009209421327823828,-0.011496097888503209,-0.005599552538601672, ,0.002740168201797723, ,0.014730027421111432, ,2.9867569747185473e-05, ,0.1330317964913914,-0.24688804725608335,0.09073641113000001,1.6034989978261578,0.13144431277435373,-1.3148858750743104, ,0.020774286680926176,0.0036196269996862794,0.002170433508652405,0.007279310487884209,0.007730512147519441,-0.011860761976489064, ,0.4158468246459961
0.009698883507982705,0.02061978929268466,-0.08111294644087985, ,0.009932706062986383,0.020545104104552084,-0.08132562489869077, ,0.00032478145108931126, ,0.0018378846843180607,0.0005281271976934629,-0.00303273128683833,-0.001601476744055979,-0.007973628984162765,0.012432853401375695, ,0.003585275095158323, ,0.00813286460493989, ,3.0226373102087025e-05, ,0.1336264469227067,-0.24680309719446689,0.09082326256,1.6037086877696423,0.1317175857738846,-1.3148636746612818, ,0.018873695616243195,0.003190738760042269,0.003275511314003702,-0.009864770689452605,0.013732162789566441,-0.0028341974189977854, ,0.44191479682922363
0.009734548519152918,0.020628991338337028,-0.08116931187796697, ,0.009979917280609396,0.020553135217613958,-0.08138639861049762, ,0.0003362835553378641, ,0.0020088344540332864,0.0004947043646195459,-0.003035839617968614,-0.023458807987931884,-0.013299056133720219,0.010758629765507713, ,0.0036737542729628316, ,0.026966285728750858, ,3.0615743995536e-05, ,0.13399713810066946,-0.24673359259859887,0.09088418819,1.6037086877696423,0.13199085877341546,-1.3147597955081123, ,0.020469573243846156,0.003636584668547009,0.00328632381266763,-0.009170489966572758,0.009719326269746293,0.018666775043698722, ,0.46689486503601074
0.0098011478661702,0.020639215919314925,-0.08125114904186144, ,0.010027134878418805,0.020561001987383892,-0.08144717284622341, ,0.0003092133256017651, ,0.0017956620429641595,7.643099967587084e-05,-0.0017989169974786208,0.005437922988783981,-0.008582426531726979,-0.0008961752191717006, ,0.0025429011451629747, ,0.01016016986007604, ,3.0809259108420716e-05, ,0.1346999067922239,-0.24660230613973705,0.09097233591000001,1.6034989978261578,0.1324007682727118,-1.3149306917389205, ,0.020088260279100503,0.004417878492936977,0.001926095709794438,0.0030388278936882202,0.011010196072527201,-0.010028923820737851, ,0.4920368194580078
0.009837080047264597,0.02064406753118471,-0.08128985597811368, ,0.01007435846376675,0.020568705465665117,-0.0815079478843031, ,0.0003309751764143084, ,0.0018785622508923638,0.00027380571638000047,-0.002356280078738019,-0.0033295026796463577,-0.01242201504537523,-0.013233346031898532, ,0.003025891853695005, ,0.012860483887034257, ,3.110265716546182e-05, ,0.13510148890168358,-0.2465173560781206,0.09101640977000001,1.6041280676566114,0.13253740477247725,-1.3151237883827576, ,0.019237166340658987,0.004479934847198395,0.0025580233691986512,0.014040325570040587,0.003496617823246695,0.0007249695117574322, ,0.5174269676208496
0.009895290510442807,0.020655766834787426,-0.08136958122277661, ,0.010121587645552214,0.020576246701738368,-0.0815687240013328, ,0.00031175581978520466, ,0.002001474887975673,0.00042177008119552195,-0.0026533326617781817,0.00705407410906072,-0.0052760533831469544,-0.010823596137848746, ,0.0033502187902654658, ,0.008808898949722792, ,3.126844833887874e-05, ,0.13571930753162154,-0.2464015150850072,0.09110326120000001,1.6041280676566114,0.13294731427177356,-1.3152946846135656, ,0.021229740840821205,0.003701258533457122,0.0029056569719080635,0.014040325570040587,0.01292364616541922,-0.008878500951948478, ,0.5441179275512695
0.0099348823677776,0.020663662215072712,-0.08142050288201712, ,0.010168822034222754,0.020583626742364063,-0.08162950147207233, ,0.00032374967964962414, ,0.001992571914068613,0.00041466727138883016,-0.002532194692084571,0.006390151026042572,-0.004774723145212058,-0.010553891338779224, ,0.003248738483983805, ,0.007976967540672855, ,3.1636458803571707e-05, ,0.13612861237395543,-0.2463320104891392,0.09115900167,1.6041280676566114,0.133083950771539,-1.3151610662968403, ,0.02136837233921882,0.003431395123504338,0.002787681400070004,0.013972964872908531,0.013601679514038264,-0.007951536861504429, ,0.5658419132232666
0.00997234477833694,0.020673448163906438,-0.08147342411269397, ,0.010216061241766772,0.02059084663178515,-0.0816902805694494, ,0.00033652258541150976, ,0.0018145659600266562,0.000480192256386113,-0.0026150238604830977,0.017378107344171015,0.008573750805407192,-0.0046443618593120795, ,0.0032189414435923763, ,0.019378024089583144, ,3.20375689717589e-05, ,0.13655336268203777,-0.24627795135901961,0.09121733472000002,1.6041280676566114,0.13363049677060077,-1.3155250591714855, ,0.020544910491117296,0.002859222389427391,0.0028778340596205968,0.011362386664924114,0.027174724711912214,-0.018714826457836356, ,0.5889999866485596
0.010027352571947834,0.020684098172573644,-0.08153788488150598, ,0.010263304881718454,0.020597907411729375,-0.08175106156456097, ,0.0003294641679140986, ,0.0020323067756071425,0.00039054087944725134,-0.00222114336257286,-0.04339961863834521,-0.015212233907109863,-0.0023769882808759315, ,0.0030358311622683504, ,0.04598846549238584, ,3.237628941685162e-05, ,0.1371248449147304,-0.24619300129740315,0.09128863067000001,1.6043377576000957,0.1337671332703662,-1.3148196896737763, ,0.021416597056752605,0.002654168005634453,0.0024799644278374593,0.0035418892864409936,0.005521789323267671,0.041239528854165604, ,0.6112759113311768
0.010065912498712297,0.020694425149976443,-0.08159645913987885, ,0.010310552569151197,0.02060481012141132,-0.08181184472667724, ,0.0003380393000962509, ,0.0020222682122011367,0.0005308072924789069,-0.0029625064056560927,0.011446127219003203,0.014543134946476684,0.0011835587187250425, ,0.0036259852878054192, ,0.018507204061036543, ,3.272909738453661e-05, ,0.13762682255155498,-0.24612349670153513,0.09135344517,1.6045474475435806,0.13499686176825518,-1.3154140571063413, ,0.023506797512625906,0.003322805615423415,0.003262095334835143,0.007813437842600995,0.037285499328251516,-0.013697232047809645, ,0.6339969635009766
0.010118667911564645,0.020707332457459142,-0.081671353580521, ,0.010357803920674287,0.020611555797535763,-0.08187263032324468, ,0.00032691210837230164, ,0.002381076680549193,0.0005921926959105849,-0.0033741148765107443,-0.032289246503092686,-0.027322211161431225,-0.008592986250177966, ,0.004171914374437247, ,0.04229773826163759, ,3.3009611734950444e-05, ,0.13815196838700225,-0.24603854663991864,0.09143511144000001,1.6045474475435806,0.1351334982680206,-1.3150354025691944, ,0.02225538029044812,0.003758837661704815,0.0036685424965453716,0.006676476050099802,-0.006893119138034822,0.029458711044210075, ,0.656937837600708
0.010166134557722584,0.020717385984965846,-0.08173563986087073, ,0.010405058554437374,0.020618145474299077,-0.08193341861988823, ,0.0003256528714476074, ,0.002323019807181916,0.0003711927574073455,-0.002936680278484627,-0.005244263403136253,-0.02139933188320723,-0.006325561051062021, ,0.0037627511405555003, ,0.022032560075277412, ,3.326617830815046e-05, ,0.13861533235945572,-0.24595359657830218,0.09150511110000001,1.6045474475435806,0.1351334982680206,-1.314708687608632, ,0.023027649007151364,0.005025141611786359,0.003195348349047142,0.005912751857147248,0.00019502171309182718,0.0010596944107546056, ,0.6793479919433594
0.010206772287226978,0.020724205179292323,-0.08178613958244299, ,0.010452316090120891,0.020624580183392624,-0.08199420988041523, ,0.00033691267094883027, ,0.0020160693369309026,0.00020431248082953426,-0.0022131166504148732,0.03968258252049583,0.013422742181599348,0.00898666599249698, ,0.0030006939979743477, ,0.041891256404129926, ,3.3551594616552175e-05, ,0.1390786963319092,-0.24586864651668572,0.09156085157,1.6047571374870648,0.13568004426708236,-1.3151543592234176, ,0.024816145805039432,0.004801059193540971,0.0024653786596502093,0.0,0.03943391355520399,-0.04444116373437732, ,0.7018020153045654
0.01027299326554514,0.020728695242695473,-0.08184524982786384, ,0.0104995761489402,0.020630860954004338,-0.08205500436681734, ,0.00032389553516977453, ,0.0022945849620237273,0.0002562728177218169,-0.0024102219645599473,0.0037043356859719962,-0.020927719263136284,-0.010731334935745481, ,0.0033376587338276096, ,0.021253035932536194, ,3.376832421904185e-05, ,0.13978918775633786,-0.24572191459207546,0.09162696236000001,1.605176517374034,0.1358166807668478,-1.3151840983869736, ,0.023471912332048178,0.00488744665857644,0.002659233976627713,0.010461588060412757,0.0,-0.0071301959203175355, ,0.7241888046264648
0.010316463359522009,0.020736490595561173,-0.081905878196917, ,0.01054683835363956,0.020636988812822,-0.08211580233927426, ,0.0003271718023109091, ,0.002040902675845999,0.0004920448900863437,-0.0032383849906197893,0.03256682485022123,0.01525765100734091,-0.0006766518439312642, ,0.003859343111671593, ,0.03596378726901048, ,3.3984328796915244e-05, ,0.14026799719453978,-0.24562151906471053,0.09169307315000001,1.605176517374034,0.13636322676590956,-1.3156297700017592, ,0.023044424856355213,0.004560862260215178,0.0035248531799070594,0.009514864285911872,0.03712311383702758,-0.03579034486328186, ,0.7462828159332275
0.010386206390054034,0.020746430293029215,-0.08198868651216264, ,0.010594102328491641,0.02064296478403486,-0.08217660405615661, ,0.0002987286998449259, ,0.0019900116196911862,0.00022445769285299116,-0.0021035082667280516,0.006060445958612336,-0.006049142045914306,-0.004665157879947105, ,0.0029043544085700147, ,0.00856277552360948, ,3.408305699349467e-05, ,0.14097848861896842,-0.24547478714010026,0.09178381345000002,1.605176517374034,0.136499863265675,-1.3156595091653152, ,0.021820405049085025,0.004272043784652496,0.0023373164372707264,0.007885057857489308,0.014291333762479342,-0.00921671327580931, ,0.7735638618469238
0.010407278927610317,0.02074827062270082,-0.08200963886655178, ,0.010641367699297057,0.020648789889336664,-0.08223740977402838, ,0.0003414286977293924, ,0.0021918791341892733,0.00019277505148516242,-0.0021875512698180328,-0.007398901887038847,-0.02071040681424645,-0.007861718194680343, ,0.0031027208893891684, ,0.02199237821372482, ,3.445168530451593e-05, ,0.14121017060519517,-0.2454284507428549,0.09180714667,1.605176517374034,0.13663649976544046,-1.3156892483288711, ,0.022524790305832133,0.004889107997406717,0.0024196888227252015,0.007468273624033333,0.0,0.003578083297538619, ,0.7923009395599365
0.010449446873302638,0.020754068283674532,-0.08206398928849074, ,0.010688634093378868,0.020654465147928056,-0.08229821974765085, ,0.00034927813973491674, ,0.0017753242520307667,0.00033827188582048686,-0.0027512657043498845,0.02627706098211672,0.02091543529597977,0.010012925153401483, ,0.0032917574401096165, ,0.03358480857948365, ,3.482971447445755e-05, ,0.1416967027762713,-0.24532033248261578,0.09186677601000001,1.6053862073175185,0.13731968226426766,-1.3160013016269314, ,0.021291662902955075,0.0047066512066310335,0.002995826879819448,0.0,0.043535448532608934,-0.03093840765666474, ,0.8121788501739502
0.01049441958845943,0.02076332595342777,-0.08212984574548604, ,0.010735901139584619,0.020659991576518575,-0.08235903422998418, ,0.0003485953161067909, ,0.0022825201265467706,0.00045861083135896504,-0.0033342153240321195,-0.014701403751470266,-0.01925465816734739,-0.009934356193242745, ,0.004066597330661281, ,0.024225464556806214, ,3.518735036109778e-05, ,0.14213689855010211,-0.24521993695525085,0.09193807196,1.6055958972610032,0.13745631876403308,-1.315867683310206, ,0.021582201855462994,0.00515877261219062,0.0036005450994575053,0.009579743283911035,0.0,0.010911147830742004, ,0.8314080238342285
0.010527949205799508,0.020770439891808753,-0.0821862806649094, ,0.010783168468280837,0.02066537018932964,-0.08241985347219163, ,0.00036156986962724636, ,0.0018285104130989795,0.00040189042221045016,-0.0032111233112539763,0.02714635349706038,0.035828906430756646,0.004398935953075952, ,0.003717025579997345, ,0.044951474323651056, ,3.5571545084762986e-05, ,0.1425153124609391,-0.24512726416076017,0.09199899759,1.6055958972610032,0.1381395012628603,-1.3162614153484071, ,0.022637629188566502,0.005474648395835017,0.003477906445414847,0.009399301501978997,0.05795241825904249,-0.03127090019448926, ,0.8519928455352783
0.010580880065482438,0.020777728633766555,-0.08225681046859559, ,0.010830435711353035,0.020670601998096626,-0.08248067772364188, ,0.00035195267343466805, ,0.0022872556934760303,0.0002469739478498149,-0.00290602296837231,-0.0020986066414109294,-0.008056073282098074,-0.0005988687940939721, ,0.0037064139314116618, ,0.008324930411400335, ,3.590689315590737e-05, ,0.14304045829638637,-0.24498825496902413,0.09207288612,1.6058055872044876,0.13841277426239118,-1.3162392149353783, ,0.02392158849469896,0.006308671300499172,0.0031405385488959,0.0036468874735283655,0.015907092232836706,-0.003876895774657096, ,0.8719809055328369
0.01062652669606986,0.020782554304844214,-0.0823167521003208, ,0.010877702502203272,0.020675688012071394,-0.0825415072319122, ,0.00035358812097473175, ,0.0022842541080505267,0.00027819907147959543,-0.003124014721687858,-0.002339075534629777,-0.013554853652364522,-0.0021433666583825024, ,0.003880036022363746, ,0.013755192895636531, ,3.623249783387992e-05, ,0.1435269904674625,-0.2448569685101623,0.09214029320000001,1.6058055872044876,0.13868604726192205,-1.3163803720026306, ,0.022795325860790482,0.006533898333627244,0.0033669016106531394,0.003469483465892418,0.008663404058480956,-0.0036462748322986407, ,0.8929479122161865
0.010670224469895429,0.020786664409880324,-0.08237543949158231, ,0.010924968475748625,0.02068062923802487,-0.0826023422427913, ,0.0003572433690003992, ,0.0022147408783172915,0.0001242434083523475,-0.002693545259442308,0.012281952150821963,0.00149235165934935,0.0032665892967403427, ,0.003489369520024038, ,0.01237228604456189, ,3.655528875027631e-05, ,0.14400579990566442,-0.24471795931842627,0.09220381141,1.6060152771479719,0.1392325932609838,-1.3167443648772756, ,0.02459107062930054,0.007078286016529121,0.002927552199963243,0.0022606978548360655,0.026340285312099542,-0.01896962517970706, ,0.9120349884033203
0.010722254255139762,0.02078917316264486,-0.08243002886849803, ,0.010972233268417233,0.02068542668024936,-0.0826631830002824, ,0.00035723058219690954, ,0.0025878514489310615,0.00016363179869166767,-0.0028087209350753746,-0.0011627927877227097,-0.012130813399197481,-0.006862985673667666, ,0.0038226514068651816, ,0.012186415413013315, ,3.6864263021450016e-05, ,0.1445309457411117,-0.244571227393816,0.09226344075000001,1.6062249670914566,0.1392325932609838,-1.3164176499167133, ,0.027387284721059387,0.007147730399522954,0.0030810080309477757,0.009485156926691475,0.013367623233273207,-0.0045822642449844, ,0.9321458339691162
0.010768522059259268,0.020792296033509527,-0.0824869188429531, ,0.011019496518149246,0.02069008134056098,-0.08272402974660584, ,0.0003600799954186553, ,0.0021379624263092533,0.0001550626217001537,-0.0028315509358726987,0.026380548887606933,0.023046234342768195,0.016216979132081907, ,0.003551423440734747, ,0.035029448708353755, ,3.716883064613212e-05, ,0.1450715370423074,-0.24442449546920572,0.09232566267,1.606434657034941,0.14005241225957646,-1.3170044785987516, ,0.02613520836091181,0.007056945680482998,0.0030893738401861917,-0.004714701114550437,0.05191282314246486,-0.0340094747201017, ,0.9510087966918945
0.010822030253669247,0.02079924810806788,-0.08255480631563378, ,0.011066757864393007,0.020694594218302248,-0.08278488272220257, ,0.0003518226725969258, ,0.0026650109748772677,0.0003448154451315788,-0.003205880428460718,-0.0028831531829620932,-0.013753095432294549,0.007478539700969341, ,0.00418316273996184, ,0.014052053440959686, ,3.7436786371494694e-05, ,0.1456044056106289,-0.2442932090103439,0.09239955120000001,1.606434657034941,0.1401890487593419,-1.3168708602820263, ,0.02778013511664835,0.0060209257022189105,0.0035217359097943846,-0.004714701114550437,0.015643158214846624,-0.003734984557095561, ,0.974327802658081
0.010871718204134113,0.020802772430053674,-0.08261276860831444, ,0.011114016948102767,0.020698966310344125,-0.08284574216573684, ,0.0003517969162400202, ,0.002560739911008853,0.00017799540246110946,-0.0027106107985496197,-0.0018373254461546563,-0.008132295115342188,-0.0038079026030538236, ,0.0037331598085729905, ,0.008337265048670038, ,3.769391935613526e-05, ,0.14615271964469884,-0.24415419981860786,0.09246306941000002,1.6062249670914566,0.14073559475840366,-1.3171531744165308, ,0.02763451996461001,0.006669031408713362,0.002995826879819448,0.0075927648287906655,0.018218643992207018,-0.0036901738717782535, ,0.9929509162902832
0.010921937812225311,0.020807389624396305,-0.08266884968985713, ,0.011161273411739085,0.020703198611089015,-0.08290660831409905, ,0.00035308137850929546, ,0.0023769239990644245,0.0003004519409464723,-0.0028155007176005413,0.01162759876874259,0.0047185548844092765,-0.007804234721883899, ,0.003696901859254054, ,0.012548538287271802, ,3.805143446140986e-05, ,0.14672420187739146,-0.24402291335974605,0.09252529133000001,1.6066443469784255,0.14141877725723084,-1.317465227714591, ,0.026323700848396886,0.005643529943367322,0.0031159646948356813,0.014506397299570099,0.02840223768952219,-0.015148097501295314, ,1.0130558013916016
0.010958200520581192,0.020811577955991332,-0.08271150856733225, ,0.011208526899264458,0.020707292112472683,-0.08296748140240874, ,0.00037290873591291554, ,0.0024266566517718454,0.00033637664031744234,-0.0031439483363396394,-0.005044211872871773,-0.006354310001726481,-0.010987684527856723, ,0.003985752487462384, ,0.008113034494521332, ,3.8451988835771235e-05, ,0.14707944758960578,-0.24393796329812958,0.09257195777,1.6066443469784255,0.14141877725723084,-1.3172201914941695, ,0.02492041532522867,0.006123152554324262,0.00343293351724138,0.014461445405882341,0.015542687982362791,0.0010450299611851682, ,1.0294849872589111
0.011002341900224234,0.02081973556481084,-0.08278179455012108, ,0.01125577705613956,0.020711247803967145,-0.08302836166401792, ,0.00036985715372576076, ,0.0018525426188418987,0.0004938515810584136,-0.003811102816519354,0.06767239943746993,0.07082721840026487,0.011365046512169212, ,0.004266181924955996, ,0.09795942277871642, ,3.883113112653727e-05, ,0.14759687069217883,-0.243814399572142,0.09264843888,1.6066443469784255,0.1425118692553544,-1.3179481772434598, ,0.025633965845075844,0.006216407788988202,0.004134132239813133,0.011789565620679645,0.0965408045827678,-0.07214152531341626, ,1.0456418991088867
0.011053203830996559,0.02083095129076602,-0.08286317927781119, ,0.011303023529326186,0.02071506667258289,-0.08308924933051347, ,0.000356295937576852, ,0.0025909466485341923,0.0005877644877207343,-0.004340210953950133,-0.004669934041235365,-0.005315882020118686,0.0016575338308524206, ,0.005088801701124235, ,0.007075795648631417, ,3.916171866224137e-05, ,0.14811429379475188,-0.2436908358461544,0.0927365866,1.6068540369219102,0.14305841525441615,-1.3179854551575425, ,0.025131605285611962,0.0064919018180009565,0.004672575981226167,0.002319507766950323,0.01985556671274947,-0.0014173131087786024, ,1.0629198551177979
0.011083708899837839,0.02083733661585048,-0.08291005800386116, ,0.011350265967282329,0.02071874970287123,-0.08315014463172025, ,0.00037783212543576457, ,0.0027764881273320795,0.0005593682034526149,-0.004353938688015052,-0.030655418651597287,-0.014976608717927992,-0.0005540540982126084, ,0.005194089064238698, ,0.03411822826334899, ,3.953866276108653e-05, ,0.14839231217822396,-0.24362133125028637,0.09278714191000001,1.6068540369219102,0.14305841525441615,-1.317740418937121, ,0.026331004871939727,0.006883085337148516,0.004693226729522688,0.002319507766950323,0.011124664524351232,0.024180939062489637, ,1.0793399810791016
0.011106209927841804,0.020841812647924975,-0.08294602176463277, ,0.011397504019962654,0.020722297876926678,-0.08321104779570417, ,0.0004115517291140239, ,0.0026755047714171,0.0004429516725043582,-0.0038737867615378763,-0.021467110224133466,-0.009864514129134994,-0.009107477546718899, ,0.004728716087894914, ,0.023625102317380006, ,3.999144133913199e-05, ,0.14862399416445068,-0.24355954938729257,0.09282603061000001,1.6070637268653947,0.14333168825394704,-1.3179632547445137, ,0.02625814652973735,0.006974242968180962,0.004193999873617694,0.011936172670622847,0.013928869766421664,0.01628750632738491, ,1.0979030132293701
0.011179249535853345,0.02085147524108073,-0.08305712780073443, ,0.011444737338809782,0.020725712174389916,-0.08327195904877574, ,0.0003639403626929835, ,0.0029984457108603885,0.0002130860012230279,-0.0033076722688863158,-0.02465274823996196,-0.03806429546609728,-0.01358548091469042, ,0.004469538920655444, ,0.04535028759244396, ,4.030855569887162e-05, ,0.14946577204774117,-0.24332786740106585,0.09294658558,1.6070637268653947,0.1449713262511323,-1.3189735546283083, ,0.028142627982939143,0.007973823856952073,0.003606251193117501,0.009709782847585315,-0.012641901905525232,0.01817115376295009, ,1.1143379211425781
0.011207648556103608,0.020853433996116163,-0.08308919783998762, ,0.011491965576761791,0.020728993572449426,-0.08333287861549124, ,0.00039459081036986415, ,0.0029135000482618163,0.00027904096545318597,-0.0033747220795202672,-0.030193298503627588,-0.03416179188407098,-0.011942936248172786, ,0.004467112658711917, ,0.04559236009269562, ,4.069328989579009e-05, ,0.14974379043121325,-0.2432506400723236,0.09298158541000001,1.6070637268653947,0.1449713262511323,-1.3188101971480273, ,0.027363593298290304,0.00738191978309065,0.0036804093160813316,0.008946795157788456,-0.009231489208029946,0.024189977258418354, ,1.1320428848266602
0.011269281429718177,0.020858781714042207,-0.08315920809955604, ,0.011539188388241209,0.020732143045844927,-0.08339380671865794, ,0.0003793726803902091, ,0.002907676271904016,0.00015346023461685967,-0.0033469366320260543,-0.005433268369969122,-0.027148897120001646,-0.0058313494719960165, ,0.004436227695306025, ,0.027687235679867934, ,4.102880587845875e-05, ,0.15033071812965432,-0.24308846268196488,0.09305806652000001,1.6074831067523636,0.14483468975136687,-1.3183720642837686, ,0.028285228482405594,0.008670529268234025,0.003635055116385213,0.004725814873391239,0.0,-0.002452498338750152, ,1.148629903793335
0.011322766206250862,0.020862900482199253,-0.08323195538722335, ,0.011586405429159823,0.02073516156686876,-0.0834547435793355, ,0.0003680454440560993, ,0.0024643904319993316,0.0003247032080062609,-0.0036168309281440305,0.0468304158315964,0.04202385198067453,0.012236581337296156, ,0.004388635133774351, ,0.06292131579707268, ,4.132678291705373e-05, ,0.15093309129384383,-0.24291083982585773,0.09313714021000001,1.6074831067523636,0.14579114524972495,-1.3192336683497843, ,0.030405940903066572,0.007567472759245896,0.003966337529880478,0.004725814873391239,0.07351449366028288,-0.053613431642502464, ,1.1650779247283936
0.011351466680714073,0.020866077669044546,-0.08326869660305844, ,0.01163361635691472,0.02073805010536902,-0.08351568941683907, ,0.00039623849749878195, ,0.0029158500847314196,0.0003540816148962057,-0.003930953968731264,0.011508566314680394,7.079740687393245e-05,0.0016327593244124046, ,0.004907133033749931, ,0.011508784034536245, ,4.1784765001385886e-05, ,0.15123427787593857,-0.2428336124971155,0.09317732520000001,1.6074831067523636,0.14606441824925584,-1.319456504157177, ,0.030503677775143293,0.008119047248987838,0.004284241936525013,0.004725814873391239,0.03035277306841431,-0.018842119115341394, ,1.1790859699249268
0.01138177041489802,0.02086987130071394,-0.0833080898342762, ,0.011680820830384032,0.020740809628751692,-0.08357664444874306, ,0.0004221488447496805, ,0.00300457691980264,0.0004073391944314455,-0.004152265799749697,0.004941257540538571,-0.011450794603637883,-0.0014349922787706526, ,0.005141470505419804, ,0.012471436240558563, ,4.229365526330176e-05, ,0.15152001899228487,-0.24275638516837325,0.09322010277000001,1.6074831067523636,0.14606441824925584,-1.319293146676896, ,0.02976692018772609,0.0081149647791875,0.0045073037691001705,0.004717723568836932,0.017716026936357255,-0.012272045598648175, ,1.1925718784332275
0.011445303168476298,0.020877559951937102,-0.08339535480324818, ,0.011728018509926672,0.02074344110198332,-0.08363760889088331, ,0.0003957308089854234, ,0.0030850933468681853,0.000257863079267383,-0.0037672502225291164,0.0011015599184162521,-0.011115679544468886,-0.0042804948156464, ,0.00487611203375038, ,0.011170128254876663, ,4.2728236708275615e-05, ,0.1521532830879713,-0.24257103957939186,0.09331473194,1.6079024866393328,0.14647432774855218,-1.319464042907704, ,0.03149583191452731,0.008674322533537173,0.004155703501174016,0.007898253432210033,0.014162669406673514,-0.004615537358764515, ,1.206561803817749
0.011501725862196046,0.02088094379104501,-0.08346761538543883, ,0.011775209057381808,0.02074594548759323,-0.08369858295736002, ,0.00038257498515067805, ,0.0028330550092884065,0.00018372916353237982,-0.0031838007183855013,0.009531142992133543,0.00346649469896839,-0.0006124616223932056, ,0.004265740745237394, ,0.010141956019789058, ,4.312202179361198e-05, ,0.15280199264940614,-0.24238569399041046,0.09339380563,1.6079024866393328,0.1475674197466757,-1.3201103499168538, ,0.031072999855425925,0.007975726293247188,0.0035217359097943846,0.007898253432210033,0.03365544916845668,-0.016241618790565758, ,1.2246549129486084
0.011534920989225985,0.02088153402262282,-0.08349928325004369, ,0.01182239213606316,0.02074832374567604,-0.08375956686054162, ,0.0004100392615859568, ,0.0031737325717278845,9.585630301461675e-05,-0.0034484018655753924,-0.013346045274960892,-0.012679326764257502,-0.0044642016979565555, ,0.00468756251096217, ,0.018408754743015447, ,4.3570015232823715e-05, ,0.1531340701629978,-0.24229302119591978,0.09342880546000001,1.6079024866393328,0.1475674197466757,-1.319701956216151, ,0.03299615492297315,0.009756061320074474,0.0037835656817102143,0.007898253432210033,0.01898741321114318,0.004875461626036233, ,1.2380878925323486
0.011567692868251737,0.02088299247400773,-0.08353987717942936, ,0.011869567410760926,0.02075057683389414,-0.0838205608110666, ,0.00043294969942349744, ,0.003395777676609383,0.00018585572840082245,-0.00402893018789735,-0.047675227601884355,-0.02534403968175992,-0.0077339532146599626, ,0.005272392895041928, ,0.053993033561937666, ,4.4059991595601344e-05, ,0.15347387040946367,-0.24218490293568062,0.09347287932000001,1.6079024866393328,0.14784069274620656,-1.3196797558031221, ,0.033134406968739795,0.010370507011284927,0.004378452864211106,0.007898253432210033,0.006065814515498148,0.038598997486438046, ,1.2528069019317627
0.011626587056456337,0.020888702910538372,-0.08362562212506086, ,0.011916734547737307,0.020752705707480116,-0.08388156501784706, ,0.0004101067791491359, ,0.003110255067441358,0.00026225770375085827,-0.00448386195701002,0.00982154769161455,0.018063746539738818,0.0048221028523268246, ,0.005463285068275593, ,0.020561170596494635, ,4.4487484436076854e-05, ,0.15415347090239545,-0.2419841118809508,0.09356621220000001,1.6081121765828172,0.14920705774386098,-1.3207939348400863, ,0.03377115357952697,0.010770204896728667,0.00485338559414991,0.006359060961503318,0.05186098444164574,-0.019511119160577465, ,1.2670228481292725
0.011661943283056336,0.02089068732551881,-0.0836699109011553, ,0.011963893214724864,0.02075471131923922,-0.08394257968807167, ,0.0004289656196909263, ,0.003565760026215703,0.00011900601395486212,-0.004353615479214779,-0.007239945219666478,-0.01795843543065151,-0.00471302112716611, ,0.005628745396336004, ,0.019362908054747406, ,4.49474581499088e-05, ,0.15450099388173555,-0.2418682708878374,0.09361417493000002,1.608321866526302,0.1493436942436264,-1.320823674003642, ,0.03551532243954745,0.012065726835152037,0.004712666130177515,0.007106765747208459,0.016342944894297284,-0.0036163704006082365, ,1.2805118560791016
0.011744333038776963,0.0208936964837617,-0.0837612746493282, ,0.012011043080925864,0.020756594619551597,-0.0840036050272081, ,0.000385558270299539, ,0.0037926890688129962,0.0001695920939314106,-0.004418717180504993,-0.018445104667689834,-0.034516614308944434,-0.008635172310543277, ,0.0058256599087406075, ,0.03913589845487033, ,4.530168938239777e-05, ,0.15531188083352912,-0.24162114343586225,0.09371398926,1.608321866526302,0.14948033074339184,-1.3205266982066357, ,0.036220206701706406,0.011688254903124865,0.004800726799276674,0.007106765747208459,0.0,0.007964973664451475, ,1.296137809753418
0.011778343885600064,0.02089599223802248,-0.08380798746672308, ,0.012058183817008291,0.02075835655637492,-0.08406464123900682, ,0.0004038875176340888, ,0.003611418617851505,0.00018957928672244605,-0.004456061487459174,-0.00246246652323234,-0.01663706060720748,-0.004214224747224095, ,0.005738882183782442, ,0.016818309227416388, ,4.56881361595701e-05, ,0.15566712654574344,-0.24150530244274887,0.09376454457000001,1.608321866526302,0.14989024024268818,-1.320860951917725, ,0.0359186001356816,0.011550859144369846,0.00484011288969918,0.007106765747208459,0.018122572955033105,-0.007878704625275606, ,1.3102660179138184
0.011807620739350655,0.02089793496670608,-0.08385222547245265, ,0.012105315095106544,0.020759998075246963,-0.08412568852550331, ,0.0004271189024827954, ,0.0028922086398112294,0.00017972844358770074,-0.004413623886462192,0.0507704314342948,0.04709081436604974,0.01131622298337759, ,0.005279890997055035, ,0.06924724907176698, ,4.621592526938547e-05, ,0.15601464952508354,-0.2413894614496355,0.09381250730000001,1.6085315564697864,0.1507100592412808,-1.3215294593399034, ,0.03437049676148887,0.011485096822256574,0.004779121368136814,0.007116567944899258,0.08222071801991351,-0.06103007730758629, ,1.3234319686889648
0.011879005657310938,0.020900508420172614,-0.08394210026602535, ,0.012152436588815475,0.020761520119287637,-0.0841867470870214, ,0.00039234460504740555, ,0.003288087438915092,3.1068556681125094e-05,-0.003705179905874313,-0.002394231886782525,-0.013408224037048644,-0.0031764976082716157, ,0.0049538714553428054, ,0.013620309007400239, ,4.6660209860327355e-05, ,0.15670197275088954,-0.24115005673053455,0.09390713647000001,1.6087412464132707,0.15111996874057715,-1.32145531935029, ,0.03341441604171506,0.011076408104516983,0.004011284694031731,0.006339555188953076,0.019764323886864055,-0.008106939811723512, ,1.3384559154510498
0.011913986074322763,0.02090093597831694,-0.08397883324888272, ,0.01219954797319244,0.020762923629201846,-0.08424781712217588, ,0.00041586696272499595, ,0.0035820330759936806,7.866860874039278e-05,-0.004143184144566234,-0.027378710221434725,-0.020988524370633747,-0.00472660161999605, ,0.005477510799925358, ,0.03449799889015457, ,4.714688952759633e-05, ,0.15706494119597808,-0.24103421573742118,0.09394991404000001,1.6087412464132707,0.15111996874057715,-1.321128604389728, ,0.03548875899718429,0.011859152906582203,0.0045073037691001705,0.006339555188953076,0.01337488398951591,0.016630629455265077, ,1.349586009979248
0.011948189940017413,0.020902520255358915,-0.08402563919571893, ,0.012246648924754041,0.020764209543281405,-0.08430889882787589, ,0.0004341009535293644, ,0.003724989658225698,0.0002454810812979618,-0.004887277567341358,-0.015187161597503598,-0.022508475896600214,-0.005100177262791826, ,0.006149901701279597, ,0.02715292547384627, ,4.766375983374154e-05, ,0.1574201869081924,-0.24091065201143358,0.09400046935,1.6087412464132707,0.15152987823987346,-1.321299500620536, ,0.03558190534625826,0.01205652922862035,0.005281436180371354,0.006339555188953076,0.011911484807053093,0.0042459559452871125, ,1.360407829284668
0.011972983272810827,0.020906106158695655,-0.08406618341635332, ,0.01229373912146995,0.020765378797408442,-0.08436999239932777, ,0.00046366841902362513, ,0.003724989658225698,0.0002454810812979618,-0.004887277567341358,-0.015187161597503598,-0.022508475896600214,-0.005100177262791826, ,0.006149901701279597, ,0.02715292547384627, ,4.823372513580555e-05, ,0.1577059280245387,-0.24082570194981712,0.09404454321000001,1.6089509363567556,0.15221306073870067,-1.3219382688791588, ,0.036881827267186466,0.01119092724183147,0.0059236933878765346,0.009086291418940034,0.1000522992929231,-0.06044285214704145, ,1.3716318607330322
0.012015581720605692,0.020911533894694023,-0.0841385992521485, ,0.012340818242768167,0.020766432325056598,-0.0844310980300377, ,0.000460856589327159, ,0.0036107900308945174,0.0004035884330006363,-0.005809070319641904,-0.00645910615777418,-0.0011161382337566497,-0.0026579027499682097, ,0.006851714110279531, ,0.006554831065649151, ,4.878842842521329e-05, ,0.15815384653124373,-0.2406712472923326,0.09412232061,1.6089509363567556,0.1530328797372933,-1.322443418821056, ,0.034608658482301526,0.01282990877852666,0.0062173347072599534,0.008803634404603019,0.032350761727629296,-0.004859048131758862, ,1.383193016052246
0.012054940516782162,0.020916822417130058,-0.08419772584861303, ,0.012387885969530249,0.020767371057294082,-0.08449221591181436, ,0.0004689485907717098, ,0.004001579520762328,0.0005120858041138873,-0.00608455918386681,-0.02706877469513563,-0.018237276858263686,-0.005562580714080752, ,0.007300461012411296, ,0.032639191509002914, ,4.9350635564989174e-05, ,0.15850136951058383,-0.24055540629921926,0.09418583882,1.6089509363567556,0.1530328797372933,-1.3222800613407748, ,0.03699685830739601,0.012440605867654797,0.006544293968775678,0.00809754594370153,0.017337083781459303,0.01602700511843142, ,1.3939847946166992
0.012097624215022139,0.020921976874759128,-0.08426430941472048, ,0.012434941984084019,0.02076819592278661,-0.08455334623477341, ,0.0004700788677028253, ,0.004119614667228837,0.0005933108549426515,-0.006228836465135862,-0.03325161535705211,-0.034425700878383224,-0.009050785965238383, ,0.007491438212148984, ,0.04786228991016718, ,4.9905984496644707e-05, ,0.15888750615429506,-0.24041639710748322,0.09425713477000001,1.6089509363567556,0.15316951623705874,-1.3221464430240495, ,0.03620638746984769,0.011885889473756359,0.00669840686291001,0.007451133526611348,0.0,0.022660497973593777, ,1.405695915222168
0.012141171887180531,0.020929263711647432,-0.08433355969083661, ,0.012481985970212117,0.020768907847798553,-0.08461448918733835, ,0.00046988256433719956, ,0.00361720646260754,0.00045236316335222753,-0.00591122929296147,0.04088028134605624,0.04169133622704137,0.005283616327704659, ,0.006944886376223411, ,0.0583897671866517, ,5.045196151957526e-05, ,0.1593354246610001,-0.2402851106486214,0.09433231959,1.6093703162437245,0.15385269873588595,-1.3226218538023913, ,0.0393926698042635,0.012751537430592687,0.006391978940609952,0.012638534897762366,0.08047453799005164,-0.05149491943175105, ,1.4168457984924316
0.01218128747926245,0.02093339241666769,-0.08439714919030926, ,0.012529017613137414,0.020769507756197035,-0.08467564495624515, ,0.00047469392200290354, ,0.0038922950952568437,0.0003970091161643663,-0.006018331237425631,0.03128594059917741,0.022715011726479304,0.0026845775851250513, ,0.0071782928492958005, ,0.03866240847404407, ,5.099882740319169e-05, ,0.15976789770195665,-0.24013837872401114,0.09440102296000001,1.609580006187209,0.1546725177344786,-1.3232086824844291, ,0.040416073917577,0.013646382162564103,0.0064989031089351295,0.010637919795108551,0.062463656937877685,-0.04308532744758565, ,1.4275729656219482
0.012223447570565133,0.020936332156637965,-0.08445469445877005, ,0.012576036599532983,0.02076999656945255,-0.08473681372654417, ,0.0004812253444720188, ,0.00422869248230725,0.0002331028831233738,-0.005247321648701507,-0.03316695279697456,-0.033310037921730075,-0.011425696808514694, ,0.006743186305373282, ,0.04700643977377587, ,5.154998055400531e-05, ,0.16015403434566788,-0.24001481499802355,0.09445935601000001,1.609580006187209,0.15494579073400946,-1.323268160811541, ,0.039722453561519794,0.013163676176788843,0.00577340033345415,0.010637919795108551,0.003768042049624097,0.012639579517236849, ,1.4384639263153076
0.012266734580195122,0.02093709762684041,-0.08450351836007394, ,0.012623042617511382,0.020770375206643012,-0.08479799568160357, ,0.0004913946232387002, ,0.004394856739510016,7.259775005225691e-05,-0.0048595380269778644,-0.030092676305411563,-0.03389891629675835,-0.011005726718535534, ,0.006552491589446962, ,0.04532886156310206, ,5.221548387727939e-05, ,0.16058650738662444,-0.23986036034053904,0.09451639277000001,1.609580006187209,0.15494579073400946,-1.3229414458509785, ,0.04234580167714001,0.01409430291971941,0.0053096038400000005,0.010637919795108551,0.00608858029895533,0.017833969586446438, ,1.4487428665161133
0.012307841555487845,0.020938158075309618,-0.08455337981414925, ,0.01267003535662713,0.020770644584455333,-0.08485919100311232, ,0.0005027579959552307, ,0.004466398210746447,0.00017116199781052542,-0.005512295423912121,0.012301993414834777,-0.01932753309354174,-0.007161318847735534, ,0.007096718273042552, ,0.02291053409179363, ,5.2895467264948143e-05, ,0.1610112576947068,-0.239721351148803,0.09457083695000001,1.609580006187209,0.15535570023330578,-1.3231123420817867, ,0.04361072681915018,0.014823014926346575,0.005992780857787812,0.010637919795108551,0.022427066315766218,-0.025271307823135733, ,1.457319974899292
0.012351101180266201,0.02094091524355883,-0.08461795145163756, ,0.012717014507874982,0.020770805617187627,-0.08492039987108263, ,0.0005042865204729392, ,0.004196302240108031,0.00040799016043161244,-0.006290046074292375,0.047817475856641735,0.04884344013113938,0.010856560471139393, ,0.007572323822847621, ,0.06835343905977594, ,5.3570467496741294e-05, ,0.16149006713290873,-0.2395591737584443,0.09464083661000001,1.609580006187209,0.15631215573166388,-1.3238105886675213, ,0.04667827917288282,0.01441764532945469,0.006854049707401034,0.010319020151910635,0.09589827792227926,-0.06042173304736677, ,1.4657177925109863
0.012397540638156663,0.020944308870389505,-0.084682240265429, ,0.012763979763681758,0.020770859216752823,-0.08498162246385373, ,0.0005039763047960697, ,0.004952818031046064,0.0002844942242793799,-0.00639036114963941,-0.020357246943840727,-0.01808946077282974,-0.004678524091455654, ,0.008089997468177852, ,0.027233179827692792, ,5.4237001287626434e-05, ,0.16197659930398486,-0.2394047191009598,0.09471083627000002,1.609580006187209,0.15699533823049108,-1.3241226419655816, ,0.04807342530824254,0.01606788715856261,0.006943684184829993,0.009338699622168373,0.028605491021446574,0.005964326232933607, ,1.4739480018615723
0.012446948287078633,0.020945418362801966,-0.08474196960050426, ,0.012810930817914866,0.020770806292679404,-0.08504285895809391, ,0.0005034948493253419, ,0.005229949689764012,0.00010789451472957611,-0.0062817245181018885,-0.05576787275763608,-0.041616997807812854,-0.0063748972593508, ,0.008174599556253126, ,0.06958469751796106, ,5.489488515917559e-05, ,0.16244768600931256,-0.23923481897772686,0.09477565077000001,1.6097896961306934,0.15713197473025653,-1.3239890236488563, ,0.04906770504574497,0.017668393513027514,0.006810094707139805,0.005241820436195117,0.0063823124618334545,0.03915687569090528, ,1.4819178581237793
0.012446948287078633,0.020945418362801966,-0.08474196960050426, ,0.012857867365872395,0.020770647752115314,-0.08510410952880364, ,0.0005749300682215004, ,0.005229949689764012,0.00010789451472957611,-0.0062817245181018885,-0.05576787275763608,-0.041616997807812854,-0.0063748972593508, ,0.008174599556253126, ,0.06958469751796106, ,5.5682304377494156e-05, ,0.16244768600931256,-0.23923481897772686,0.09477565077000001,1.6097896961306934,0.15713197473025653,-1.3239890236488563, ,0.04906770504574497,0.017668393513027514,0.006810094707139805,0.005241820436195117,0.0063823124618334545,0.03915687569090528, ,1.490454912185669
0.012500609091271965,0.020948543882030393,-0.08481367481761379, ,0.012904789104279932,0.020770384499829927,-0.08516537434931978, ,0.0005646191716399548, ,0.0053052993500036,0.00036866802928245293,-0.007253723007086632,-0.017680255826542524,-0.017515273321995692,-0.008260380448994298, ,0.008994365723746258, ,0.024887270351613557, ,5.644103006166872e-05, ,0.16297283184475983,-0.23904947338874546,0.09485342817,1.6102090760176624,0.15754188422955284,-1.324078241139524, ,0.05055777387238721,0.017602845772300275,0.007850572459339577,0.013336834121884553,0.03078153675802045,0.002428223014523105, ,1.4991769790649414
0.012548710775521115,0.02095364854803171,-0.08488667051090888, ,0.012951695731296774,0.020770017438216094,-0.08522665359131634, ,0.0005583061472319374, ,0.005029966173000722,0.0005789643054132333,-0.007974230141441007,0.03687884360367323,0.03944227253534771,0.0051457433757126185, ,0.009445851243648738, ,0.053997610466142036, ,5.717913832930996e-05, ,0.16345936401583597,-0.23888729599838676,0.09493250186,1.6104187659611469,0.15822506672838005,-1.3243086156974437, ,0.052227265579785784,0.017304329241150763,0.00863350217886179,0.014457443897465394,0.09093775753318721,-0.05161140516063487, ,1.5073258876800537
0.012605911728452462,0.020958492422174332,-0.08497301073558271, ,0.012998586946505079,0.020769547467293047,-0.08528794742480963, ,0.0005376608048472371, ,0.005418035615185988,0.0004026051095205142,-0.00813713347081223,0.017698157346556928,0.02169741335618092,0.0009103477343968085, ,0.009784178142462888, ,0.028000044359572405, ,5.78699371781011e-05, ,0.16403856898140282,-0.23868650494365692,0.09502583474000001,1.6104187659611469,0.15904488572697267,-1.3248954443794818, ,0.05460123219704877,0.01973730065691988,0.008785886111417542,0.014457443897465394,0.07508602431307095,-0.03483889789537039, ,1.5156359672546387
0.012660259645161088,0.020960898048351533,-0.08504741106125813, ,0.013045462450915117,0.020768975484708557,-0.0853492560181593, ,0.0005256670524226748, ,0.0056115895846595085,0.00021552544211181937,-0.00741449550856855,-0.044043405053032086,-0.019674555492525482,-0.009606286204441967, ,0.009301136088104494, ,0.04823805178575999, ,5.853045732986165e-05, ,0.1645637148168501,-0.2384934366218013,0.09510620472,1.6104187659611469,0.159454795226269,-1.3249029831300088, ,0.053523373693440936,0.019770196158014744,0.008020549607250755,0.014457443897465394,0.031330862473219374,0.02685445820557401, ,1.524026870727539
0.012660259645161088,0.020960898048351533,-0.08504741106125813, ,0.013092321946957156,0.0207683023857416,-0.08541057953807238, ,0.0005963742654081068, ,0.0056115895846595085,0.00021552544211181937,-0.00741449550856855,-0.044043405053032086,-0.019674555492525482,-0.009606286204441967, ,0.009301136088104494, ,0.04823805178575999, ,5.9426370134998805e-05, ,0.1645637148168501,-0.2384934366218013,0.09510620472,1.6104187659611469,0.159454795226269,-1.3249029831300088, ,0.053523373693440936,0.019770196158014744,0.008020549607250755,0.014457443897465394,0.031330862473219374,0.02685445820557401, ,1.529634952545166
0.012715617134718233,0.020961996063089402,-0.08511925854258616, ,0.013139165138483858,0.02076752906330454,-0.08547191814960653, ,0.0005844477084589629, ,0.006068961663924939,0.00014850941802768052,-0.007738167363903717,-0.025800984397796767,-0.024552511999036814,-0.009997515277124804, ,0.009835323323471276, ,0.03561624086863779, ,6.0293399870918665e-05, ,0.1651043061180458,-0.23829264556707147,0.09518398212000001,1.6104187659611469,0.15986470472556533,-1.3249922006206762, ,0.058005465500287755,0.02150882628251831,0.008383585010526317,0.014457443897465394,0.03093513220730222,0.006903234622422021, ,1.5353419780731201
0.012715617134718233,0.020961996063089402,-0.08511925854258616, ,0.013185991730764995,0.020766656407945863,-0.08553327201617178, ,0.0006563665117814754, ,0.005279559890116255,3.3949232977033563e-06,-0.0076037189965725395,-0.0001465087009800505,0.029056008955812812,0.0021412662195957667, ,0.009256905894394015, ,0.02905637788545547, ,6.128742531069537e-05, ,0.1651043061180458,-0.23829264556707147,0.09518398212000001,1.6104187659611469,0.15986470472556533,-1.3249922006206762, ,0.058005465500287755,0.02150882628251831,0.008383585010526317,0.014457443897465394,0.03093513220730222,0.006903234622422021, ,1.5409598350524902
0.012772347066255355,0.02096193139425766,-0.08519753110082634, ,0.013232801430490554,0.02076568530785219,-0.0855946412995342, ,0.0006389266451561567, ,0.005279559890116255,3.3949232977033563e-06,-0.0076037189965725395,-0.0001465087009800505,0.029056008955812812,0.0021412662195957667, ,0.009256905894394015, ,0.02905637788545547, ,6.224186485697034e-05, ,0.1656757883507384,-0.23806096358084475,0.09526824097000001,1.6104187659611469,0.16054788722439253,-1.3252225751785962, ,0.05425782822096671,0.02264843473949183,0.008093908292682929,0.014457443897465394,0.08251871037888685,-0.01942181077851065, ,1.546895980834961
0.012831637828440956,0.02096243812281607,-0.08527775668495838, ,0.013279593945760605,0.02076461664885133,-0.08565602615981933, ,0.0006187776775363349, ,0.006295627781450202,0.0001580035735562133,-0.0087414118513067,0.03668124536196572,0.028551440982131537,0.00426318694629384, ,0.010773679754196769, ,0.046483314129063515, ,6.315216678666167e-05, ,0.16628588424780213,-0.237829281594618,0.09535509240000001,1.6104187659611469,0.16136770622298516,-1.3257277251204935, ,0.06486462170777224,0.024282738372177783,0.009470161426872773,0.014457443897465394,0.09269846481695437,-0.05829412976299993, ,1.5523560047149658
0.012831637828440956,0.02096243812281607,-0.08527775668495838, ,0.01332636898609089,0.020763451314414153,-0.08571742675551393, ,0.0006911327218486669, ,0.006295627781450202,0.0001580035735562133,-0.0087414118513067,0.03668124536196572,0.028551440982131537,0.00426318694629384, ,0.010773679754196769, ,0.046483314129063515, ,6.418854915046965e-05, ,0.16628588424780213,-0.237829281594618,0.09535509240000001,1.6104187659611469,0.16136770622298516,-1.3257277251204935, ,0.06486462170777224,0.024282738372177783,0.009470161426872773,0.014457443897465394,0.09269846481695437,-0.05829412976299993, ,1.5578010082244873
0.012899776087572035,0.020967248437599565,-0.08538504075070782, ,0.013373126262407931,0.020762190185657056,-0.0857788432434699, ,0.0006489912773007966, ,0.006774232616258526,0.0007946599680202647,-0.011738751817097643,0.024879125531322214,0.02001617713117021,0.00566035238457679, ,0.013576450428126198, ,0.03193145801948149, ,6.514031181774543e-05, ,0.16695776200785967,-0.23756670867689436,0.09547046221000001,1.6106284559046316,0.16232416172134326,-1.3262626142259468, ,0.06343378446421843,0.025211727300337616,0.0125621541955836,0.010470245020301923,0.08340040278980144,-0.0480334313990996, ,1.5632529258728027
0.012899776087572035,0.020967248437599565,-0.08538504075070782, ,0.013419865487046875,0.02076083414134466,-0.0858402757789067, ,0.0007213451157689605, ,0.006774232616258526,0.0007946599680202647,-0.011738751817097643,0.024879125531322214,0.02001617713117021,0.00566035238457679, ,0.013576450428126198, ,0.03193145801948149, ,6.621693202199584e-05, ,0.16695776200785967,-0.23756670867689436,0.09547046221000001,1.6106284559046316,0.16232416172134326,-1.3262626142259468, ,0.06343378446421843,0.025211727300337616,0.0125621541955836,0.010470245020301923,0.08340040278980144,-0.0480334313990996, ,1.5689549446105957
0.012971277474412108,0.020976930396466417,-0.08550848876539688, ,0.013466586373747487,0.020759384057892585,-0.08590172451541489, ,0.0006687986769424206, ,0.007668683715686657,0.0009898293459254235,-0.013029196384845463,-0.0029446387283266723,-0.0019403269572774925,0.0012593788854250536, ,0.015150855767914992, ,0.003526384899630122, ,6.719037088388046e-05, ,0.16760647156929454,-0.23731185849204495,0.09560268379,1.6110478357916007,0.16300734422017046,-1.326411310043726, ,0.06921731696460305,0.026686429009693695,0.013960395723049959,0.010624706118220046,0.06671100569493703,-0.021612421354760925, ,1.5761590003967285
0.013052280944108914,0.020987528261419232,-0.08564622123830953, ,0.013513288637656445,0.020757840809368776,-0.0859631896049582, ,0.00060477546626444, ,0.007873313418429216,0.0009842508306325802,-0.01350940133425636,-0.019567100128214634,0.014280430257339802,-0.03526915632380541, ,0.015667218588263393, ,0.0242239890562119, ,6.804099425548386e-05, ,0.16827062659647785,-0.2370492855743213,0.09573620166,1.6114672156785694,0.16369052671899764,-1.326641684601646, ,0.07129747675317114,0.028523276693258423,0.014337364104410442,0.050637093964798714,0.07437514858445911,0.0016786528377065353, ,1.5821750164031982
0.013052280944108914,0.020987528261419232,-0.08564622123830953, ,0.01355997199532431,0.02075620526749695,-0.08602467119787675, ,0.0006741549546638308, ,0.007873313418429216,0.0009842508306325802,-0.01350940133425636,-0.019567100128214634,0.014280430257339802,-0.03526915632380541, ,0.015667218588263393, ,0.0242239890562119, ,6.901049509539893e-05, ,0.16827062659647785,-0.2370492855743213,0.09573620166,1.6114672156785694,0.16369052671899764,-1.326641684601646, ,0.07129747675317114,0.028523276693258423,0.014337364104410442,0.050637093964798714,0.07437514858445911,0.0016786528377065353, ,1.587662935256958
0.01312647416948841,0.020993425064257318,-0.08577144387828729, ,0.013606636164697346,0.020754478301658986,-0.08608616944289142, ,0.0006218547081229166, ,0.007719424994069401,0.000525886827889738,-0.012576871875235809,0.017781460694521578,0.016745267529890997,-0.023709735627316642, ,0.014766305745206171, ,0.02442506938378589, ,6.987913731789825e-05, ,0.16901973168527762,-0.23673265352647813,0.09588397872000001,1.6114672156785694,0.1645103457175903,-1.326983477063262, ,0.07172860284086982,0.030971586670519188,0.01345338810810811,0.03953336961894896,0.08156705110386778,-0.04179304806527081, ,1.593033790588379
0.01312647416948841,0.020993425064257318,-0.08577144387828729, ,0.013653280865126672,0.020752660778896426,-0.08614768448710397, ,0.0006906878682859497, ,0.007719424994069401,0.000525886827889738,-0.012576871875235809,0.017781460694521578,0.016745267529890997,-0.023709735627316642, ,0.014766305745206171, ,0.02442506938378589, ,7.086470009723663e-05, ,0.16901973168527762,-0.23673265352647813,0.09588397872000001,1.6114672156785694,0.1645103457175903,-1.326983477063262, ,0.07172860284086982,0.030971586670519188,0.01345338810810811,0.03953336961894896,0.08156705110386778,-0.04179304806527081, ,1.598660945892334
0.013210631647146484,0.020995648782970933,-0.08589078096096903, ,0.013699905817356802,0.02075075356391391,-0.0862092164760022, ,0.0006330592856805958, ,0.008203740439940734,-4.1034320405259535e-05,-0.010534092048759693,-0.051370791779343006,-0.04160206952634122,0.017566681996796455, ,0.013351784012374987, ,0.0661036330862195, ,7.174051094480548e-05, ,0.1697997277055743,-0.2364082987457607,0.09601231143000001,1.6116769056220543,0.16505689171665208,-1.3271024337174857, ,0.07665342613769853,0.03091105588223804,0.011377722514285715,-0.014000958235382168,0.03944664633555169,0.018633092795832674, ,1.6045010089874268
0.013210631647146484,0.020995648782970933,-0.08589078096096903, ,0.01374651074352695,0.020748757519081354,-0.08627076555346279, ,0.000701790561816835, ,0.008203740439940734,-4.1034320405259535e-05,-0.010534092048759693,-0.051370791779343006,-0.04160206952634122,0.017566681996796455, ,0.013351784012374987, ,0.0661036330862195, ,7.273217975462294e-05, ,0.1697997277055743,-0.2364082987457607,0.09601231143000001,1.6116769056220543,0.16505689171665208,-1.3271024337174857, ,0.07665342613769853,0.03091105588223804,0.011377722514285715,-0.014000958235382168,0.03944664633555169,0.018633092795832674, ,1.6102747917175293
0.013210631647146484,0.020995648782970933,-0.08589078096096903, ,0.013793095367170695,0.020746673504435778,-0.0863323318617526, ,0.0007721527520179434, ,0.008203740439940734,-4.1034320405259535e-05,-0.010534092048759693,-0.051370791779343006,-0.04160206952634122,0.017566681996796455, ,0.013351784012374987, ,0.0661036330862195, ,7.397228715225293e-05, ,0.1697997277055743,-0.2364082987457607,0.09601231143000001,1.6116769056220543,0.16505689171665208,-1.3271024337174857, ,0.07665342613769853,0.03091105588223804,0.011377722514285715,-0.014000958235382168,0.03944664633555169,0.018633092795832674, ,1.6131858825683594
0.013210631647146484,0.020995648782970933,-0.08589078096096903, ,0.0138396594132096,0.020744502377685138,-0.08639391554153394, ,0.0008437386168278452, ,0.008203740439940734,-4.1034320405259535e-05,-0.010534092048759693,-0.051370791779343006,-0.04160206952634122,0.017566681996796455, ,0.013351784012374987, ,0.0661036330862195, ,7.53347054348646e-05, ,0.17023220074653087,-0.23623067588965352,0.09607453335,1.6116769056220543,0.16533016471618295,-1.3271619120445974, ,0.07659155896567456,0.03195183217456929,0.010828559836845685,-0.012316494906196695,0.03513539018891646,0.01909753467678919, ,1.6162059307098389
0.013256169184614528,0.020994779544506327,-0.08594835333885874, ,0.013886202607956085,0.0207422449942091,-0.08645551673186548, ,0.0008473078076044241, ,0.0081603882602753,-0.00026161898504419836,-0.01002581360511285,-0.05259290739680817,-0.04533025786998605,0.01472950121453889, ,0.012929706860414137, ,0.06943231297970211, ,7.669861550936913e-05, ,0.17023220074653087,-0.23623067588965352,0.09607453335,1.6116769056220543,0.16533016471618295,-1.3271619120445974, ,0.07659155896567456,0.03195183217456929,0.010828559836845685,-0.012316494906196695,0.03513539018891646,0.01909753467678919, ,1.6190598011016846
0.013256169184614528,0.020994779544506327,-0.08594835333885874, ,0.013932724679109353,0.02073990220706245,-0.08651713557020602, ,0.0009198929399500815, ,0.007913944889075875,-0.0007391146274210616,-0.007781447530647282,0.022092688205094968,-0.022748683068304257,0.006464463396921143, ,0.01112329716460073, ,0.03171103002016305, ,7.818573072002294e-05, ,0.17132110608179651,-0.23579048011582274,0.09620675493000001,1.6114672156785694,0.16614998371477557,-1.3273403470259326, ,0.07994687578641177,0.0308006950855147,0.008508980512820515,0.0021612105387950535,0.058782301155492996,-0.053112779596793475, ,1.6219639778137207
0.013369141874000645,0.020986652287294422,-0.0860733587128288, ,0.013979225355752158,0.020737474866977443,-0.08657877219241773, ,0.0008305022738391911, ,0.007913944889075875,-0.0007391146274210616,-0.007781447530647282,0.022092688205094968,-0.022748683068304257,0.006464463396921143, ,0.01112329716460073, ,0.03171103002016305, ,7.951023167621866e-05, ,0.17132110608179651,-0.23579048011582274,0.09620675493000001,1.6114672156785694,0.16614998371477557,-1.3273403470259326, ,0.07994687578641177,0.0308006950855147,0.008508980512820515,0.0021612105387950535,0.058782301155492996,-0.053112779596793475, ,1.6249489784240723
0.013369141874000645,0.020986652287294422,-0.0860733587128288, ,0.014025704368350433,0.020734963822365997,-0.08664042673276875, ,0.0009033202818510528, ,0.007913944889075875,-0.0007391146274210616,-0.007781447530647282,0.022092688205094968,-0.022748683068304257,0.006464463396921143, ,0.01112329716460073, ,0.03171103002016305, ,0.00044293396032637746, ,0.17132110608179651,-0.23579048011582274,0.09620675493000001,1.6114672156785694,0.16614998371477557,-1.3273403470259326, ,0.07994687578641177,0.0308006950855147,0.008508980512820515,0.0021612105387950535,0.058782301155492996,-0.053112779596793475, ,1.6277239322662354
0.013369141874000645,0.020986652287294422,-0.0860733587128288, ,0.014072161448752,0.02073236991932209,-0.08670209932393583, ,0.0009768371415954822, ,0.007913944889075875,-0.0007391146274210616,-0.007781447530647282,0.022092688205094968,-0.022748683068304257,0.006464463396921143, ,0.01112329716460073, ,0.03171103002016305, ,0.0004480187525289403, ,0.17132110608179651,-0.23579048011582274,0.09620675493000001,1.6114672156785694,0.16614998371477557,-1.3273403470259326, ,0.07994687578641177,0.0308006950855147,0.008508980512820515,0.0021612105387950535,0.058782301155492996,-0.053112779596793475, ,1.6304669380187988
0.013453317774236499,0.020978123005745312,-0.08617161104528773, ,0.014118596330181647,0.020729694001624565,-0.08676379009700735, ,0.0009246559124260459, ,0.009515111484687658,-0.00045945191722495814,-0.013678105827276939,0.045222558691703475,0.0341495445493932,0.021327312085635125, ,0.016668503881646486, ,0.05666807504038226, ,0.0004525153295091017, ,0.17220922036233235,-0.23538889800636306,0.09631693958000001,1.6116769056220543,0.16710643921313365,-1.3279569148715265, ,0.09414379122864167,0.04446904477903973,0.014640451764705886,0.002286532139460189,0.13152931782488422,-0.0886091401489014, ,1.6332318782806396
0.013453317774236499,0.020978123005745312,-0.08617161104528773, ,0.014165008747240849,0.020726936910739492,-0.0868254991814876, ,0.0009985830912062844, ,0.009515111484687658,-0.00045945191722495814,-0.013678105827276939,0.045222558691703475,0.0341495445493932,0.021327312085635125, ,0.016668503881646486, ,0.05666807504038226, ,0.00045761876653430903, ,0.17220922036233235,-0.23538889800636306,0.09631693958000001,1.6116769056220543,0.16710643921313365,-1.3279569148715265, ,0.09414379122864167,0.04446904477903973,0.014640451764705886,0.002286532139460189,0.13152931782488422,-0.0886091401489014, ,1.6360418796539307
0.013453317774236499,0.020978123005745312,-0.08617161104528773, ,0.014211398435905114,0.020724099485822347,-0.08688722670529822, ,0.0010729958113255766, ,0.009515111484687658,-0.00045945191722495814,-0.013678105827276939,0.045222558691703475,0.0341495445493932,0.021327312085635125, ,0.016668503881646486, ,0.05666807504038226, ,0.00046331670213422817, ,0.17220922036233235,-0.23538889800636306,0.09631693958000001,1.6116769056220543,0.16710643921313365,-1.3279569148715265, ,0.09414379122864167,0.04446904477903973,0.014640451764705886,0.002286532139460189,0.13152931782488422,-0.0886091401489014, ,1.6387639045715332
0.013559269976819575,0.020983443229378368,-0.08634722666763318, ,0.01425776513352604,0.020721182563720252,-0.08694897279478044, ,0.0009585272777707173, ,0.010980528285325942,0.0012724377121898242,-0.0194520400735699,0.06637512313242881,0.051572046213196075,0.0037963441584180015, ,0.02237348793058461, ,0.08405551817969721, ,0.0004678599184244712, ,0.17321317563598151,-0.23494097949965803,0.09650490163000001,1.6120962855090233,0.16860944071055353,-1.3291825118121872, ,0.10084690920135046,0.04142162442534735,0.0208492297382199,0.025723410743064286,0.15075089505987316,-0.10277735670491642, ,1.6420948505401611
0.013559269976819575,0.020983443229378368,-0.08634722666763318, ,0.014304108578823124,0.020718186978974894,-0.08701073757470035, ,0.0010321783495161104, ,0.010980528285325942,0.0012724377121898242,-0.0194520400735699,0.06637512313242881,0.051572046213196075,0.0037963441584180015, ,0.02237348793058461, ,0.08405551817969721, ,0.0004729900859798497, ,0.17321317563598151,-0.23494097949965803,0.09650490163000001,1.6120962855090233,0.16860944071055353,-1.3291825118121872, ,0.10084690920135046,0.04142162442534735,0.0208492297382199,0.025723410743064286,0.15075089505987316,-0.10277735670491642, ,1.64481782913208
0.013559269976819575,0.020983443229378368,-0.08634722666763318, ,0.014350428511884379,0.020715113563825018,-0.08707252116825005, ,0.0011063384426326923, ,0.010980528285325942,0.0012724377121898242,-0.0194520400735699,0.06637512313242881,0.051572046213196075,0.0037963441584180015, ,0.02237348793058461, ,0.08405551817969721, ,0.0004786959270307762, ,0.17321317563598151,-0.23494097949965803,0.09650490163000001,1.6120962855090233,0.16860944071055353,-1.3291825118121872, ,0.10084690920135046,0.04142162442534735,0.0208492297382199,0.025723410743064286,0.15075089505987316,-0.10277735670491642, ,1.6476948261260986
0.013559269976819575,0.020983443229378368,-0.08634722666763318, ,0.014396724674164507,0.020711963148208567,-0.08713432369705179, ,0.0011809121636669883, ,0.010980528285325942,0.0012724377121898242,-0.0194520400735699,0.06637512313242881,0.051572046213196075,0.0037963441584180015, ,0.02237348793058461, ,0.08405551817969721, ,0.00048496571485788525, ,0.17321317563598151,-0.23494097949965803,0.09650490163000001,1.6120962855090233,0.16860944071055353,-1.3291825118121872, ,0.10084690920135046,0.04142162442534735,0.0208492297382199,0.025723410743064286,0.15075089505987316,-0.10277735670491642, ,1.6507878303527832
0.013659507592291214,0.02099754873018276,-0.086528646819167, ,0.014442996808484623,0.020708736559764705,-0.08719614528115918, ,0.0010690285395792195, ,0.012926868877590389,0.002103839008568434,-0.02384805381486554,0.05616013392805862,0.021591067866257113,-0.045902949485913856, ,0.02720771486746199, ,0.06016749239155473, ,0.0004901344124217909, ,0.17410901264939158,-0.2345780110545695,0.09669934513,1.6125156653959922,0.1698391692084425,-1.329940236725033, ,0.11034528088194276,0.04491099931778078,0.02552694153846154,0.06911698616993099,0.11930108665588247,-0.0886457499221502, ,1.6538310050964355
0.013659507592291214,0.02099754873018276,-0.086528646819167, ,0.014489244659027834,0.020705434623837067,-0.08725798603906217, ,0.0011426854110909632, ,0.012926868877590389,0.002103839008568434,-0.02384805381486554,0.05616013392805862,0.021591067866257113,-0.045902949485913856, ,0.02720771486746199, ,0.06016749239155473, ,0.0004958585439890644, ,0.17410901264939158,-0.2345780110545695,0.09669934513,1.6125156653959922,0.1698391692084425,-1.329940236725033, ,0.11034528088194276,0.04491099931778078,0.02552694153846154,0.06911698616993099,0.11930108665588247,-0.0886457499221502, ,1.6569349765777588
0.013659507592291214,0.02099754873018276,-0.086528646819167, ,0.014535467971335515,0.020702058163476013,-0.08731984608768867, ,0.0012168062882716112, ,0.012926868877590389,0.002103839008568434,-0.02384805381486554,0.05616013392805862,0.021591067866257113,-0.045902949485913856, ,0.02720771486746199, ,0.06016749239155473, ,0.0005021276548089126, ,0.17410901264939158,-0.2345780110545695,0.09669934513,1.6125156653959922,0.1698391692084425,-1.329940236725033, ,0.11034528088194276,0.04491099931778078,0.02552694153846154,0.06911698616993099,0.11930108665588247,-0.0886457499221502, ,1.6597418785095215
0.01380746024914858,0.021022739855452225,-0.08680806592596624, ,0.014581666492310607,0.020698607999440607,-0.08738172554240776, ,0.001016632737309022, ,0.013560028074880147,0.0025554308556630027,-0.026216767867280607,-0.044386015593460754,-0.030706677360573503,-0.03505861684154735, ,0.029626398796622065, ,0.053972270934220724, ,0.0005065630434511549, ,0.1753137589777706,-0.23407603341774488,0.09699749183,1.6125156653959922,0.17079562470680054,-1.3301484108699242, ,0.10674571603877478,0.0454487268000339,0.02794528336842106,0.04492688794807744,0.0675126074128348,0.00730009113938138, ,1.6625540256500244
0.01380746024914858,0.021022739855452225,-0.08680806592596624, ,0.014627839970210997,0.020695084950201493,-0.08744362451703301, ,0.0010882625355786606, ,0.013560028074880147,0.0025554308556630027,-0.026216767867280607,-0.044386015593460754,-0.030706677360573503,-0.03505861684154735, ,0.029626398796622065, ,0.053972270934220724, ,0.0005115348339821592, ,0.1753137589777706,-0.23407603341774488,0.09699749183,1.6125156653959922,0.17079562470680054,-1.3301484108699242, ,0.10674571603877478,0.0454487268000339,0.02794528336842106,0.04492688794807744,0.0675126074128348,0.00730009113938138, ,1.6654868125915527
0.01380746024914858,0.021022739855452225,-0.08680806592596624, ,0.01467398815465012,0.020691489831942998,-0.08750554312382473, ,0.0011606341502042262, ,0.013560028074880147,0.0025554308556630027,-0.026216767867280607,-0.044386015593460754,-0.030706677360573503,-0.03505861684154735, ,0.029626398796622065, ,0.053972270934220724, ,0.000517035675645058, ,0.1753137589777706,-0.23407603341774488,0.09699749183,1.6125156653959922,0.17079562470680054,-1.3301484108699242, ,0.10674571603877478,0.0454487268000339,0.02794528336842106,0.04492688794807744,0.0675126074128348,0.00730009113938138, ,1.6682639122009277
0.01380746024914858,0.021022739855452225,-0.08680806592596624, ,0.014720110796593622,0.020687823458565832,-0.08756748147349393, ,0.0012336174400850038, ,0.013560028074880147,0.0025554308556630027,-0.026216767867280607,-0.044386015593460754,-0.030706677360573503,-0.03505861684154735, ,0.029626398796622065, ,0.053972270934220724, ,0.0005230573711445534, ,0.1753137589777706,-0.23407603341774488,0.09699749183,1.6125156653959922,0.17079562470680054,-1.3301484108699242, ,0.10674571603877478,0.0454487268000339,0.02794528336842106,0.04492688794807744,0.0675126074128348,0.00730009113938138, ,1.6710669994354248
0.013960356348377544,0.02104480524709946,-0.08710174122705587, ,0.014766207648356431,0.020684086641689706,-0.0876294396752043, ,0.0010285814902790534, ,0.01470598661964483,0.0018699648112915435,-0.027903108485681526,0.03744420685985952,0.033337391010149264,-0.005687489330321412, ,0.03159661807878105, ,0.05013415354905833, ,0.0005272700721373408, ,0.17656484170339495,-0.23350455118505228,0.09730989772000001,1.6125156653959922,0.17202535320468954,-1.3306610995623487, ,0.124210656490145,0.05733954172717268,0.02971793194029851,0.03321253513872392,0.15421111433635112,-0.08814739299837204, ,1.673813819885254
0.013960356348377544,0.02104480524709946,-0.08710174122705587, ,0.014812278463604509,0.02068028019065499,-0.08769141783657501, ,0.0010983479917597236, ,0.01470598661964483,0.0018699648112915435,-0.027903108485681526,0.03744420685985952,0.033337391010149264,-0.005687489330321412, ,0.03159661807878105, ,0.05013415354905833, ,0.0005319897243656251, ,0.17656484170339495,-0.23350455118505228,0.09730989772000001,1.6125156653959922,0.17202535320468954,-1.3306610995623487, ,0.124210656490145,0.05733954172717268,0.02971793194029851,0.03321253513872392,0.15421111433635112,-0.08814739299837204, ,1.6765949726104736
0.013960356348377544,0.02104480524709946,-0.08710174122705587, ,0.014858322997347283,0.02067640491252619,-0.08775341606368547, ,0.0011690778425202748, ,0.01470598661964483,0.0018699648112915435,-0.027903108485681526,0.03744420685985952,0.033337391010149264,-0.005687489330321412, ,0.03159661807878105, ,0.05013415354905833, ,0.000537211758120991, ,0.17656484170339495,-0.23350455118505228,0.09730989772000001,1.6125156653959922,0.17202535320468954,-1.3306610995623487, ,0.124210656490145,0.05733954172717268,0.02971793194029851,0.03321253513872392,0.15421111433635112,-0.08814739299837204, ,1.6793417930603027
0.014093602823163057,0.021061230116781397,-0.08734944280180872, ,0.014904341005943034,0.0206724616120931,-0.087815434461075, ,0.0010127119915161928, ,0.01470598661964483,0.0018699648112915435,-0.027903108485681526,0.03744420685985952,0.033337391010149264,-0.005687489330321412, ,0.03159661807878105, ,0.05013415354905833, ,0.0005410776136770495, ,0.17770780616878018,-0.23299485081535345,0.09757434088000001,1.612725355339477,0.17352835470210937,-1.3316416602825876, ,0.12946376747403926,0.057548175596404356,0.02875236736462094,0.0,0.1618621588121286,-0.10119363606668713, ,1.6821868419647217
0.014093602823163057,0.021061230116781397,-0.08734944280180872, ,0.01495033224708896,0.020668451091874627,-0.08787747313174965, ,0.001080313240483822, ,0.015043213871344985,0.001318474177459745,-0.026060999949370414,0.033691582777208164,0.0229962235449472,0.026893672595041107, ,0.03011996640264957, ,0.04079138421227639, ,0.0005454262880867816, ,0.17770780616878018,-0.23299485081535345,0.09757434088000001,1.612725355339477,0.17352835470210937,-1.3316416602825876, ,0.12946376747403926,0.057548175596404356,0.02875236736462094,0.0,0.1618621588121286,-0.10119363606668713, ,1.6850647926330566
0.014093602823163057,0.021061230116781397,-0.08734944280180872, ,0.014996296479825168,0.020664374152120153,-0.08793953217718145, ,0.001149154456717201, ,0.015043213871344985,0.001318474177459745,-0.026060999949370414,0.033691582777208164,0.0229962235449472,0.026893672595041107, ,0.03011996640264957, ,0.04079138421227639, ,0.000550256113435825, ,0.17770780616878018,-0.23299485081535345,0.09757434088000001,1.612725355339477,0.17352835470210937,-1.3316416602825876, ,0.12946376747403926,0.057548175596404356,0.02875236736462094,0.0,0.1618621588121286,-0.10119363606668713, ,1.6879680156707764
0.014093602823163057,0.021061230116781397,-0.08734944280180872, ,0.015042233464527995,0.02066023159081273,-0.08800161169731441, ,0.0012190259143392364, ,0.015043213871344985,0.001318474177459745,-0.026060999949370414,0.033691582777208164,0.0229962235449472,0.026893672595041107, ,0.03011996640264957, ,0.04079138421227639, ,0.0005555638102683918, ,0.17770780616878018,-0.23299485081535345,0.09757434088000001,1.612725355339477,0.17352835470210937,-1.3316416602825876, ,0.12946376747403926,0.057548175596404356,0.02875236736462094,0.0,0.1618621588121286,-0.10119363606668713, ,1.6914818286895752
0.014266284454158572,0.021071348720597034,-0.0876190999818269, ,0.015088142962911432,0.020656024203671117,-0.08806371179056581, ,0.001022558322659056, ,0.015043213871344985,0.001318474177459745,-0.026060999949370414,0.033691582777208164,0.0229962235449472,0.026893672595041107, ,0.03011996640264957, ,0.04079138421227639, ,0.0005592409324132003, ,0.17923690727787664,-0.2323461412539186,0.09786470984000001,1.613144735226446,0.1750313561995292,-1.3322138273021236, ,0.1444397892822995,0.06032863417576019,0.02454362329738059,0.01600944314293897,0.12758494749959062,-0.055935188139774175, ,1.6945137977600098
0.014266284454158572,0.021071348720597034,-0.0876190999818269, ,0.015134024738023376,0.02065175278415216,-0.08812583255382947, ,0.0010889498839024491, ,0.015979423357894557,0.00032204773197575903,-0.022684823283898526,-0.0005675342787084688,-0.01673457474581206,0.0037155892032896035, ,0.027749718791623846, ,0.01674401623902557, ,0.00056337928359671, ,0.17923690727787664,-0.2323461412539186,0.09786470984000001,1.613144735226446,0.1750313561995292,-1.3322138273021236, ,0.1444397892822995,0.06032863417576019,0.02454362329738059,0.01600944314293897,0.12758494749959062,-0.055935188139774175, ,1.6981158256530762
0.014266284454158572,0.021071348720597034,-0.0876190999818269, ,0.015179878554246698,0.020647418123453175,-0.08818797408247792, ,0.001156714776123344, ,0.015979423357894557,0.00032204773197575903,-0.022684823283898526,-0.0005675342787084688,-0.01673457474581206,0.0037155892032896035, ,0.027749718791623846, ,0.01674401623902557, ,0.000567978783538777, ,0.17923690727787664,-0.2323461412539186,0.09786470984000001,1.613144735226446,0.1750313561995292,-1.3322138273021236, ,0.1444397892822995,0.06032863417576019,0.02454362329738059,0.01600944314293897,0.12758494749959062,-0.055935188139774175, ,1.7010159492492676
0.014423036904800028,0.021067526417959725,-0.08782874643717876, ,0.015225704177291105,0.020643021010514837,-0.08825013647036706, ,0.001001024051333756, ,0.016000295895545292,-0.000968805611372855,-0.02011045360162551,-0.012147087195029375,-0.010583561522763936,-0.06280473963517548, ,0.025717278182590855, ,0.01611087249299335, ,0.0005713099009833537, ,0.18067333559248241,-0.23170515442535797,0.09809156059000002,1.6137738050568995,0.17626108469741816,-1.3324814797741262, ,0.14850851574095583,0.06856715430525345,0.021790439835841315,0.0825361416555247,0.12238878331785061,-0.040741976479427656, ,1.7038137912750244
0.014423036904800028,0.021067526417959725,-0.08782874643717876, ,0.015271501374197822,0.020638562232023108,-0.08831231980983795, ,0.0010666515060654628, ,0.016000295895545292,-0.000968805611372855,-0.02011045360162551,-0.012147087195029375,-0.010583561522763936,-0.06280473963517548, ,0.025717278182590855, ,0.01611087249299335, ,0.0005750911346099348, ,0.18067333559248241,-0.23170515442535797,0.09809156059000002,1.6137738050568995,0.17626108469741816,-1.3324814797741262, ,0.14850851574095583,0.06856715430525345,0.021790439835841315,0.0825361416555247,0.12238878331785061,-0.040741976479427656, ,1.7065608501434326
0.014423036904800028,0.021067526417959725,-0.08782874643717876, ,0.015317269913333383,0.020634042572411894,-0.08837452419171954, ,0.0011337699392968221, ,0.016000295895545292,-0.000968805611372855,-0.02011045360162551,-0.012147087195029375,-0.010583561522763936,-0.06280473963517548, ,0.025717278182590855, ,0.01611087249299335, ,0.0005793235497969566, ,0.18067333559248241,-0.23170515442535797,0.09809156059000002,1.6137738050568995,0.17626108469741816,-1.3324814797741262, ,0.14850851574095583,0.06856715430525345,0.021790439835841315,0.0825361416555247,0.12238878331785061,-0.040741976479427656, ,1.7093009948730469
0.014423036904800028,0.021067526417959725,-0.08782874643717876, ,0.01536300956438756,0.020629462813865698,-0.08843674970533218, ,0.0012021298998399195, ,0.016000295895545292,-0.000968805611372855,-0.02011045360162551,-0.012147087195029375,-0.010583561522763936,-0.06280473963517548, ,0.025717278182590855, ,0.01611087249299335, ,0.0005840063043085579, ,0.18221788216732732,-0.23100238573380352,0.09829896699000001,1.6137738050568995,0.17762744969507258,-1.3331055863702472, ,0.1558242061715448,0.06993142340344198,0.019145206153846156,0.052220761405099,0.1332754908018503,-0.045049379553400645, ,1.7121379375457764
0.014585507049126529,0.02105247918775063,-0.08801946013770623, ,0.015408720098374408,0.020624823736321594,-0.08849899643849098, ,0.0010442815584694022, ,0.016146848506088846,-0.0017723029176373928,-0.017483050270658343,-0.01440571206609144,-0.014284458084372943,-0.03166680616543623, ,0.023864593461377388, ,0.02028715479114457, ,0.0005874411942649821, ,0.18221788216732732,-0.23100238573380352,0.09829896699000001,1.6137738050568995,0.17762744969507258,-1.3331055863702472, ,0.1558242061715448,0.06993142340344198,0.019145206153846156,0.052220761405099,0.1332754908018503,-0.045049379553400645, ,1.7155778408050537
0.014585507049126529,0.02105247918775063,-0.08801946013770623, ,0.015454401287629016,0.02062012611747157,-0.08856126447750651, ,0.0011115117263029491, ,0.016146848506088846,-0.0017723029176373928,-0.017483050270658343,-0.01440571206609144,-0.014284458084372943,-0.03166680616543623, ,0.023864593461377388, ,0.02028715479114457, ,0.0005913231982060041, ,0.18221788216732732,-0.23100238573380352,0.09829896699000001,1.6137738050568995,0.17762744969507258,-1.3331055863702472, ,0.1558242061715448,0.06993142340344198,0.019145206153846156,0.052220761405099,0.1332754908018503,-0.045049379553400645, ,1.718369960784912
0.014585507049126529,0.02105247918775063,-0.08801946013770623, ,0.015500052905800771,0.020615370732766435,-0.08862355390719195, ,0.0011799945795257566, ,0.016146848506088846,-0.0017723029176373928,-0.017483050270658343,-0.01440571206609144,-0.014284458084372943,-0.03166680616543623, ,0.023864593461377388, ,0.02028715479114457, ,0.0005956516642451198, ,0.18221788216732732,-0.23100238573380352,0.09829896699000001,1.6137738050568995,0.17762744969507258,-1.3331055863702472, ,0.1558242061715448,0.06993142340344198,0.019145206153846156,0.052220761405099,0.1332754908018503,-0.045049379553400645, ,1.7211308479309082
0.014746596675453846,0.021030627129974323,-0.0881915258560238, ,0.015545674727863274,0.020610558355415125,-0.08868586481086026, ,0.0010292494894197956, ,0.016473422823217263,-0.0025383319851143837,-0.017326694494629046,0.010454721764691794,-0.02204580834422976,-0.017982980948973323, ,0.024042277988771336, ,0.024399125211696137, ,0.000598816611874132, ,0.18377787420792066,-0.23027644884362644,0.09848692904,1.6137738050568995,0.178993814692727,-1.3336480142262275, ,0.15895635101921404,0.0772776397055951,0.01889538733096086,0.036092273142883324,0.1323264959760476,-0.07993428735108539, ,1.723841905593872
0.014746596675453846,0.021030627129974323,-0.0881915258560238, ,0.015591266530094896,0.02060568975639133,-0.08874819727033353, ,0.001097233793827251, ,0.016473422823217263,-0.0025383319851143837,-0.017326694494629046,0.010454721764691794,-0.02204580834422976,-0.017982980948973323, ,0.024042277988771336, ,0.024399125211696137, ,0.0006024283305839373, ,0.18377787420792066,-0.23027644884362644,0.09848692904,1.6137738050568995,0.178993814692727,-1.3336480142262275, ,0.15895635101921404,0.0772776397055951,0.01889538733096086,0.036092273142883324,0.1323264959760476,-0.07993428735108539, ,1.7265779972076416
0.014746596675453846,0.021030627129974323,-0.0881915258560238, ,0.015636828090093726,0.02060076570443209,-0.08881055136594071, ,0.0011663984733824083, ,0.016473422823217263,-0.0025383319851143837,-0.017326694494629046,0.010454721764691794,-0.02204580834422976,-0.017982980948973323, ,0.024042277988771336, ,0.024399125211696137, ,0.0006064856697407608, ,0.18377787420792066,-0.23027644884362644,0.09848692904,1.6137738050568995,0.178993814692727,-1.3336480142262275, ,0.15895635101921404,0.0772776397055951,0.01889538733096086,0.036092273142883324,0.1323264959760476,-0.07993428735108539, ,1.7292919158935547
0.014746596675453846,0.021030627129974323,-0.0881915258560238, ,0.01568235918676522,0.020595786966042542,-0.08887292717652268, ,0.0012365456745796332, ,0.016473422823217263,-0.0025383319851143837,-0.017326694494629046,0.010454721764691794,-0.02204580834422976,-0.017982980948973323, ,0.024042277988771336, ,0.024399125211696137, ,0.0006109860983467527, ,0.18539192537863358,-0.22948873009045553,0.09868137254,1.6137738050568995,0.17995027019108506,-1.33410122459154, ,0.16361541648012204,0.07888357569282692,0.019960916691729325,0.027458654557802678,0.07517457522553728,0.0018224568479768641, ,1.7345349788665771
0.014746596675453846,0.021030627129974323,-0.0881915258560238, ,0.015727859600324405,0.02059075430549741,-0.08893532477943564, ,0.0013075174445901006, ,0.016473422823217263,-0.0025383319851143837,-0.017326694494629046,0.010454721764691794,-0.02204580834422976,-0.017982980948973323, ,0.024042277988771336, ,0.024399125211696137, ,0.000615926036972592, ,0.18539192537863358,-0.22948873009045553,0.09868137254,1.6137738050568995,0.17995027019108506,-1.33410122459154, ,0.16361541648012204,0.07888357569282692,0.019960916691729325,0.027458654557802678,0.07517457522553728,0.0018224568479768641, ,1.7377879619598389
0.014746596675453846,0.021030627129974323,-0.0881915258560238, ,0.015773329112292216,0.02058566848484373,-0.08899774425055323, ,0.0013791866416153144, ,0.01766307620647118,-0.002483817015262569,-0.01828211432987698,-0.07440026965043497,-0.08423216368516327,-0.023434616305627286, ,0.025541912857333322, ,0.11238529922006028, ,0.0006213011116531747, ,0.18539192537863358,-0.22948873009045553,0.09868137254,1.6137738050568995,0.17995027019108506,-1.33410122459154, ,0.16361541648012204,0.07888357569282692,0.019960916691729325,0.027458654557802678,0.07517457522553728,0.0018224568479768641, ,1.741283893585205
0.015094672104210533,0.020980300982452946,-0.08856528667670388, ,0.01581876750549255,0.02058053026390343,-0.08906018566426965, ,0.000963875399344226, ,0.018041972959955386,-0.0023896703105707132,-0.020363306555236223,0.0048675574819098165,-0.040604151934487784,0.014984989363661773, ,0.02731094224561853, ,0.040894825696663945, ,0.0006236967360426225, ,0.18704459021371764,-0.22867784313866196,0.09889396410000001,1.613983495000384,0.18117999868897403,-1.3348589495043863, ,0.16825698857884888,0.08251907961606154,0.022154118942976357,0.0,0.13123269447038619,-0.0859074157252889, ,1.7442829608917236
0.015094672104210533,0.020980300982452946,-0.08856528667670388, ,0.015864174564054926,0.02057534040027515,-0.08912264909350263, ,0.0010328504114750106, ,0.018041972959955386,-0.0023896703105707132,-0.020363306555236223,0.0048675574819098165,-0.040604151934487784,0.014984989363661773, ,0.02731094224561853, ,0.040894825696663945, ,0.000626538081010903, ,0.18704459021371764,-0.22867784313866196,0.09889396410000001,1.613983495000384,0.18117999868897403,-1.3348589495043863, ,0.16825698857884888,0.08251907961606154,0.022154118942976357,0.0,0.13123269447038619,-0.0859074157252889, ,1.747262954711914
0.015094672104210533,0.020980300982452946,-0.08856528667670388, ,0.01590955007340481,0.020570099649337793,-0.0891851346096967, ,0.0011029518114600953, ,0.018041972959955386,-0.0023896703105707132,-0.020363306555236223,0.0048675574819098165,-0.040604151934487784,0.014984989363661773, ,0.02731094224561853, ,0.040894825696663945, ,0.0006298236929450354, ,0.18704459021371764,-0.22867784313866196,0.09889396410000001,1.613983495000384,0.18117999868897403,-1.3348589495043863, ,0.16825698857884888,0.08251907961606154,0.022154118942976357,0.0,0.13123269447038619,-0.0859074157252889, ,1.750065803527832
0.015282719712001708,0.020955228249464376,-0.08877359924185305, ,0.015954893820271012,0.020564808764251284,-0.08924764228282484, ,0.000910473619033232, ,0.018047870516652433,-0.0026725377056079766,-0.019296936920345575,-0.02495275169970509,-0.07492271050458879,0.006095887360785661, ,0.02655635258241509, ,0.07896866271511777, ,0.0006317459527127628, ,0.1887744823775439,-0.22782834252249726,0.09912081485000002,1.613983495000384,0.18227309068709754,-1.3354235777733954, ,0.1659037439833405,0.08244738623672526,0.021042023143989435,0.0,0.09350586824168726,-0.056024310791825266, ,1.7528460025787354
0.015282719712001708,0.020955228249464376,-0.08877359924185305, ,0.016000205592674257,0.020559468495960867,-0.08931017218139377, ,0.000979449994080858, ,0.018047870516652433,-0.0026725377056079766,-0.019296936920345575,-0.02495275169970509,-0.07492271050458879,0.006095887360785661, ,0.02655635258241509, ,0.07896866271511777, ,0.0006341112863275118, ,0.1887744823775439,-0.22782834252249726,0.09912081485000002,1.613983495000384,0.18227309068709754,-1.3354235777733954, ,0.1659037439833405,0.08244738623672526,0.021042023143989435,0.0,0.09350586824168726,-0.056024310791825266, ,1.755600929260254
0.015282719712001708,0.020955228249464376,-0.08877359924185305, ,0.016045485179932234,0.020554079593198205,-0.08937272437244428, ,0.00104961055901577, ,0.018047870516652433,-0.0026725377056079766,-0.019296936920345575,-0.02495275169970509,-0.07492271050458879,0.006095887360785661, ,0.02655635258241509, ,0.07896866271511777, ,0.0006369187138456756, ,0.1887744823775439,-0.22782834252249726,0.09912081485000002,1.613983495000384,0.18227309068709754,-1.3354235777733954, ,0.1659037439833405,0.08244738623672526,0.021042023143989435,0.0,0.09350586824168726,-0.056024310791825266, ,1.7583529949188232
0.015282719712001708,0.020955228249464376,-0.08877359924185305, ,0.016090732372654848,0.020548642802484144,-0.08943529892155583, ,0.0011207330866850704, ,0.018047870516652433,-0.0026725377056079766,-0.019296936920345575,-0.02495275169970509,-0.07492271050458879,0.006095887360785661, ,0.02655635258241509, ,0.07896866271511777, ,0.0006401657901734569, ,0.1887744823775439,-0.22782834252249726,0.09912081485000002,1.613983495000384,0.18227309068709754,-1.3354235777733954, ,0.1659037439833405,0.08244738623672526,0.021042023143989435,0.0,0.09350586824168726,-0.056024310791825266, ,1.7611019611358643
0.015458974771982706,0.0209270376901848,-0.08895756760369178, ,0.016135946962741083,0.020543158868131538,-0.08949789589284919, ,0.0009474222697113334, ,0.018391172674067795,-0.003140560220373191,-0.01933943111822141,-0.042733304043309155,-0.07139900828179986,-0.005737010312733533, ,0.026872140718625284, ,0.08321028153277381, ,0.0006422141667037094, ,0.1904039790140053,-0.22700201010495524,0.0993217398,1.6146125648308374,0.18322954618545564,-1.3359584668788487, ,0.16915675857124915,0.08754330402072949,0.02106985650793651,0.012150204266134482,0.09765921788558249,-0.04094281760508651, ,1.7638750076293945
0.015458974771982706,0.0209270376901848,-0.08895756760369178, ,0.016181128743379514,0.02053762853224724,-0.08956051534898896, ,0.0010181806491231166, ,0.018391172674067795,-0.003140560220373191,-0.01933943111822141,-0.042733304043309155,-0.07139900828179986,-0.005737010312733533, ,0.026872140718625284, ,0.08321028153277381, ,0.0006447040109581424, ,0.1904039790140053,-0.22700201010495524,0.0993217398,1.6146125648308374,0.18322954618545564,-1.3359584668788487, ,0.16915675857124915,0.08754330402072949,0.02106985650793651,0.012150204266134482,0.09765921788558249,-0.04094281760508651, ,1.7666878700256348
0.015458974771982706,0.0209270376901848,-0.08895756760369178, ,0.016226277509043704,0.020532052534734842,-0.08962315735118716, ,0.0010898515840691752, ,0.018391172674067795,-0.003140560220373191,-0.01933943111822141,-0.042733304043309155,-0.07139900828179986,-0.005737010312733533, ,0.026872140718625284, ,0.08321028153277381, ,0.0006476326134128203, ,0.1904039790140053,-0.22700201010495524,0.0993217398,1.6146125648308374,0.18322954618545564,-1.3359584668788487, ,0.16915675857124915,0.08754330402072949,0.02106985650793651,0.012150204266134482,0.09765921788558249,-0.04094281760508651, ,1.7694599628448486
0.015458974771982706,0.0209270376901848,-0.08895756760369178, ,0.016271393055491575,0.020526431613297022,-0.08968582195920541, ,0.0011622663647131357, ,0.018391172674067795,-0.003140560220373191,-0.01933943111822141,-0.042733304043309155,-0.07139900828179986,-0.005737010312733533, ,0.026872140718625284, ,0.08321028153277381, ,0.0006509962327023648, ,0.19207981204771202,-0.22611389582441943,0.09953951652000001,1.6150319447178065,0.1844592746833446,-1.3364711555712732, ,0.16418155978974183,0.08730169416602647,0.022278058069930072,0.057857348268833084,0.13231119447473758,-0.10335406750882192, ,1.7723758220672607
0.01564089838068391,0.020896371469166536,-0.08915795016082122, ,0.01631647517976568,0.02052076650343735,-0.08974850923135806, ,0.0009727502852897731, ,0.01792710942856194,-0.002811006258046088,-0.020515363865691458,0.028507619440512194,-0.022521845170765442,-0.041553008886609344, ,0.02738910665188128, ,0.03633062402391818, ,0.0006530855447321531, ,0.19207981204771202,-0.22611389582441943,0.09953951652000001,1.6150319447178065,0.1844592746833446,-1.3364711555712732, ,0.16418155978974183,0.08730169416602647,0.022278058069930072,0.057857348268833084,0.13231119447473758,-0.10335406750882192, ,1.7756919860839844
0.01564089838068391,0.020896371469166536,-0.08915795016082122, ,0.016361523680184616,0.02051505793846426,-0.08981121922451613, ,0.0010447302525331322, ,0.01792710942856194,-0.002811006258046088,-0.020515363865691458,0.028507619440512194,-0.022521845170765442,-0.041553008886609344, ,0.02738910665188128, ,0.03633062402391818, ,0.0006556122847824821, ,0.19207981204771202,-0.22611389582441943,0.09953951652000001,1.6150319447178065,0.1844592746833446,-1.3364711555712732, ,0.16418155978974183,0.08730169416602647,0.022278058069930072,0.057857348268833084,0.13231119447473758,-0.10335406750882192, ,1.7787549495697021
0.01564089838068391,0.020896371469166536,-0.08915795016082122, ,0.016406538356351405,0.020509306649491167,-0.08987395199410787, ,0.00111744457233471, ,0.01792710942856194,-0.002811006258046088,-0.020515363865691458,0.028507619440512194,-0.022521845170765442,-0.041553008886609344, ,0.02738910665188128, ,0.03633062402391818, ,0.0006585727481642271, ,0.19207981204771202,-0.22611389582441943,0.09953951652000001,1.6150319447178065,0.1844592746833446,-1.3364711555712732, ,0.16418155978974183,0.08730169416602647,0.022278058069930072,0.057857348268833084,0.13231119447473758,-0.10335406750882192, ,1.7817299365997314
0.015817805928156126,0.020870632223903087,-0.08936428460562654, ,0.01645151900913647,0.020503513365442032,-0.08993670759412552, ,0.000929535692163272, ,0.018154545987883644,-0.002318343902539085,-0.021820547452951287,0.0032466334968696236,-0.024845234358552567,0.05164225202050698, ,0.02847979195189321, ,0.02505636351409426, ,0.0006602986267884248, ,0.19369386321842494,-0.22527211794112895,0.09976377469000001,1.615241634661291,0.185825639680999,-1.3373402983878155, ,0.1650381592321231,0.08338922808301474,0.023738914336810735,-0.03436263509626517,0.15197315282847643,-0.0914260785444723, ,1.7846169471740723
0.015817805928156126,0.020870632223903087,-0.08936428460562654, ,0.016496465440693452,0.020497678813050355,-0.08999948607712394, ,0.0010015757035873772, ,0.018154545987883644,-0.002318343902539085,-0.021820547452951287,0.0032466334968696236,-0.024845234358552567,0.05164225202050698, ,0.02847979195189321, ,0.02505636351409426, ,0.0006624586082871524, ,0.19369386321842494,-0.22527211794112895,0.09976377469000001,1.615241634661291,0.185825639680999,-1.3373402983878155, ,0.1650381592321231,0.08338922808301474,0.023738914336810735,-0.03436263509626517,0.15197315282847643,-0.0914260785444723, ,1.787343978881836
0.015817805928156126,0.020870632223903087,-0.08936428460562654, ,0.016541377454443534,0.020491803716863922,-0.09006228749422615, ,0.0010743718275777795, ,0.018154545987883644,-0.002318343902539085,-0.021820547452951287,0.0032466334968696236,-0.024845234358552567,0.05164225202050698, ,0.02847979195189321, ,0.02505636351409426, ,0.0006650492574650809, ,0.19369386321842494,-0.22527211794112895,0.09976377469000001,1.615241634661291,0.185825639680999,-1.3373402983878155, ,0.1650381592321231,0.08338922808301474,0.023738914336810735,-0.03436263509626517,0.15197315282847643,-0.0914260785444723, ,1.790083885192871
0.01600574431644806,0.020846840009750286,-0.08959356105172035, ,0.016586254855077115,0.02048588879924707,-0.09012511189512669, ,0.0008659241080770993, ,0.018185924012818464,-0.002323277129616097,-0.022959930160594087,-0.04161155370337509,-0.0510954323225104,0.031666258912227435, ,0.029381692289593572, ,0.06589581341300081, ,0.0006663047252814058, ,0.19536969625213166,-0.22439944912634158,0.10001266237,1.615241634661291,0.18719200467865343,-1.338046083724077, ,0.15842561195070248,0.0858019363096481,0.024811232897196264,-0.0229977625398447,0.11550893315582052,-0.0468614257257883, ,1.7928948402404785
0.01600574431644806,0.020846840009750286,-0.08959356105172035, ,0.0166310974485576,0.020479934780381404,-0.09018795932809141, ,0.0009375474911332934, ,0.018185924012818464,-0.002323277129616097,-0.022959930160594087,-0.04161155370337509,-0.0510954323225104,0.031666258912227435, ,0.029381692289593572, ,0.06589581341300081, ,0.0006679894629575046, ,0.19536969625213166,-0.22439944912634158,0.10001266237,1.615241634661291,0.18719200467865343,-1.338046083724077, ,0.15842561195070248,0.0858019363096481,0.024811232897196264,-0.0229977625398447,0.11550893315582052,-0.0468614257257883, ,1.795665979385376
0.01600574431644806,0.020846840009750286,-0.08959356105172035, ,0.016675905042108474,0.020473942378270858,-0.09025082983996532, ,0.0010100348022626115, ,0.018185924012818464,-0.002323277129616097,-0.022959930160594087,-0.04161155370337509,-0.0510954323225104,0.031666258912227435, ,0.029381692289593572, ,0.06589581341300081, ,0.0006701008539408695, ,0.19536969625213166,-0.22439944912634158,0.10001266237,1.615241634661291,0.18719200467865343,-1.338046083724077, ,0.15842561195070248,0.0858019363096481,0.024811232897196264,-0.0229977625398447,0.11550893315582052,-0.0468614257257883, ,1.798537015914917
