NicholasDascanio/dvrk_moveit_final/test/execution/third_experiment_notsharpbends/thirdexp_400vel3.0/thirdexp_400vel3.0_17.csv
Current Position (x),Current Position (y),Current Position (z), ,Planned Position (x),Planned Position (y),Planned Position (z), ,Position Error,,Cartesian linear Velocity(x),Cartesian linear Velocity(y),Cartesian linear Velocity(z),Cartesian Angular Velocity(x),Cartesian Angular Velocity(y),Cartesian Angular Velocity(z), ,Total Linear Velocity, ,Total Angular Velocity, ,MSE, ,Joint 1 Position,Joint 2 Position,Joint 3 Position,Joint 4 Position,Joint 5 Position,Joint 6 Position, ,Joint 1 Velocity,Joint 2 Velocity,Joint 3 Velocity,Joint 4 Velocity,Joint 5 Velocity,Joint 6 Velocity, ,Time Stamp
0.00897777869818249,0.01957018301653409,-0.07778735268180907, ,0.009172865082677291,0.01953329834775492,-0.07789373527843033, ,0.00022524749292740897, ,0.00017074798163380794,0.00025997220589189644,-0.0008462284033519124,0.26118281580651115,-0.00010306787624171892,-0.0022442091428508193, ,0.0009015780230838842, ,0.2611828361428151, ,1.8770624410617414e-05, ,0.1310702223413384,-0.2444399409349542,0.08729087231,1.6024505481087352,0.13964250276028015,-1.3027848390637664, ,0.0007499544175403923,-0.0005590019785146485,0.0008977007119585993,-0.0008567866766864537,0.0,-0.2607575842606926, ,0.02805805206298828
0.009001492860516828,0.019577507522849903,-0.07781710761771066, ,0.00923386180560973,0.019570956541307766,-0.07803904109351054, ,0.00032139183201097214, ,0.0012464951550643516,0.00047549071086096283,-0.0016872040728238308,0.24063988778363574,-0.09258533938718136,-0.026181478195884962, ,0.002150929838713315, ,0.2578363835108356, ,2.484724204265369e-05, ,0.13111655873858372,-0.2444399409349542,0.08732198327000001,1.6022408581652505,0.1378662282633294,-1.3062371307241467, ,0.0021205220388071377,-0.0005373883131667309,0.0017757872374581942,0.0008398957657697292,-0.0942455118544742,-0.23997113104143009, ,0.05539393424987793
0.009055824827773559,0.019608375873441462,-0.07793393180963644, ,0.00929477257897309,0.019608279022920398,-0.07818398332167621, ,0.00034586384005373146, ,0.00229713321791824,0.0013800680939246458,-0.005455510414447286,0.22122750946338773,-0.10819438435490214,-0.0026017329568148026, ,0.006078157849782696, ,0.2462674069877641, ,2.789072390600352e-05, ,0.1312941815946909,-0.2444399409349542,0.08744513082000001,1.6030796179391889,0.1351334982680206,-1.3116048954832906, ,0.008798426140184994,-0.00021131376856164038,0.005744252261089074,-0.02363554073793377,-0.09695930655223117,-0.22405929180051776, ,0.08313488960266113
0.009130013228638633,0.019652955413151874,-0.07810812418784396, ,0.009355597430201347,0.01964526719340506,-0.0783285623181226, ,0.0003155000950844615, ,0.0020821328132520976,0.0014155325065363666,-0.005511935195496962,-0.1506084847685962,-0.04627770952421827,0.009351416863660365, ,0.0060597391799020826, ,0.15755805938768322, ,2.8761982382775572e-05, ,0.13162625910828255,-0.2444399409349542,0.087629204,1.6030796179391889,0.1324007682727118,-1.313705510636812, ,0.013691666651056237,-0.00021131376856164038,0.005858334505332844,-0.0164283914970391,-0.02936330683532339,0.14872014062421424, ,0.11034607887268066
0.009173856303980954,0.019690870320931086,-0.07824992111458892, ,0.009416336387376595,0.019681922451031092,-0.07847277843847254, ,0.00032945719301280015, ,0.001234697766043318,0.0010685806183339665,-0.004315618390903306,0.005653042834601575,0.045911722779077076,0.027441279053804953, ,0.004614206888215374, ,0.04625843901749915, ,2.9566547174795658e-05, ,0.13202784121774222,-0.24445538640070263,0.08777698106000001,1.6030796179391889,0.13322058727130442,-1.310208402311822, ,0.01588765135752064,0.00047910909610969125,0.004693226729522688,-0.011791386012892495,0.06671910097116764,0.015952439674436714, ,0.1399080753326416
0.009214277559371499,0.019716609715755385,-0.07835108316078443, ,0.009476989479228346,0.019718246191527428,-0.07861663203877785, ,0.00037354576358377637, ,0.0019817454468973876,0.0013076353015003053,-0.0051129377600113305,0.047849482829297255,-0.002517418319750429,0.013456472758389681, ,0.00563731830179723, ,0.04791565922048438, ,3.082268091408308e-05, ,0.13243714606007612,-0.2444476636678284,0.08788975829000001,1.6030796179391889,0.1337671332703662,-1.3100006440054832, ,0.01849482392486275,0.00011935675330367092,0.00548890817367333,-0.009503881557029071,0.018784580362318427,-0.04918522820065492, ,0.1686539649963379
0.00929714296728818,0.0197645439667262,-0.07853372526086755, ,0.009537556735132728,0.01975423980808396,-0.07876012347551721, ,0.00033039537988762985, ,0.0023050828089737274,0.0013285554532729994,-0.005077263984462175,0.011181030735777761,-0.012329441934528878,-0.005315434263925413, ,0.005732109203126224, ,0.016644235739657676, ,3.113057773001084e-05, ,0.13317080568312745,-0.2444476636678284,0.08808679437000001,1.603289307882673,0.1337671332703662,-1.3104907164463264, ,0.02119654714283466,9.514931479513898e-05,0.005485127933884298,0.007320393544082789,0.007305608759606366,-0.010331745775617525, ,0.1961350440979004
0.009362798275805852,0.019804697772307613,-0.07868757703647696, ,0.009598038185111521,0.01978990469135368,-0.0789032531055967, ,0.0003194883674959011, ,0.0021273473679848678,0.0011564806057721621,-0.004409258053146748,0.004518345006344905,-0.01586145585935635,-0.005427553614766024, ,0.005030368852762066, ,0.016492459546959222, ,3.123036541532538e-05, ,0.13378090158019118,-0.2444476636678284,0.08825271949,1.603289307882673,0.13417704276966252,-1.310824970157416, ,0.019426190697742228,8.063452190722915e-05,0.004774823597122303,0.006158128150844923,0.0021345477823637295,-0.003801455079436194, ,0.22597599029541016
0.009403258198724191,0.019825105354623857,-0.07876776482585053, ,0.009658433859831436,0.019825242229454487,-0.07904602128634898, ,0.00037754641378956845, ,0.0020799390009243798,0.0010646726331568622,-0.0040201238317584724,0.0021832515720202348,-0.016329967381347805,-0.004850063599254221, ,0.004649846200255649, ,0.016475266949357543, ,3.193952584615489e-05, ,0.13415159275815397,-0.2444399409349542,0.08833957092000001,1.603289307882673,0.13417704276966252,-1.310824970157416, ,0.019410296902939408,0.0,0.004372443458687895,0.005495736636574534,0.0018031258130672256,-0.001470328195890082, ,0.2541840076446533
0.009474517780538408,0.019867389446669645,-0.07892858750991066, ,0.00971874379060312,0.01986025380797101,-0.07918842837553255, ,0.00035667146897235767, ,0.0023550707793187796,0.0015714568510189148,-0.00604968495390618,0.009180946394728402,-0.009478781833248955,0.002716088246951743, ,0.006679410382042286, ,0.013196100698383286, ,3.2624830166520865e-05, ,0.1348003023195888,-0.2444399409349542,0.08851327378000001,1.6034989978261578,0.1344503157691934,-1.3110478059648085, ,0.02040794442117651,0.0,0.00649360437015899,0.0,0.01126055780677699,-0.009182229839298025, ,0.2822299003601074
0.009543216698607518,0.019910628851635595,-0.07909632707364167, ,0.009778968009380395,0.019894940809956456,-0.07933047473133172, ,0.00033264082849913474, ,0.0023540200316904997,0.0012857408478781206,-0.004921889817477174,0.004389092897363338,-0.015078461704928232,-0.008564341027339049, ,0.005605313480340594, ,0.0157042714240508, ,3.2979533411979473e-05, ,0.13538723001802988,-0.24443221820207994,0.08869345809000001,1.6037086877696423,0.13458695226895884,-1.3110775451283645, ,0.02139245751994382,0.0002018208857892792,0.005330927550200804,0.009894675213476593,0.004038833658758951,-0.0032933980335413168, ,0.3074359893798828
0.00958789781136524,0.01993816770626933,-0.0792006100669496, ,0.009839106548759156,0.01992930461593452,-0.07947216071235529, ,0.0003700326163104697, ,0.0022673181652345217,0.0013164364531466869,-0.005117699614162982,0.011339431464222102,-0.009927974824671447,0.008327641491374427, ,0.0057501813830852155, ,0.015071409573777762, ,3.359480076998497e-05, ,0.13581198032611222,-0.24443221820207994,0.08880623532000001,1.6039183777131267,0.13499686176825518,-1.3112484413591725, ,0.02091162220327695,0.00018207702764987878,0.005526999139486468,-0.005505466560132552,0.012691077599675294,-0.012242390592848701, ,0.33319687843322754
0.00965812511547498,0.01997903533758562,-0.07936348283738028, ,0.009899159441976689,0.019963346603901314,-0.07961348667763678, ,0.00034762854177950906, ,0.0023738607767701068,0.0015737823388559376,-0.006117167095689655,0.008525140734556312,-0.00977808192971042,0.0016846061262371752, ,0.006747721031146045, ,0.012972621254112082, ,3.394851432349782e-05, ,0.1364066307574275,-0.2444167727363315,0.08898123447,1.6037086877696423,0.13499686176825518,-1.311003405138751, ,0.0201994341333484,0.00019275685924244503,0.00656316914709518,0.0008693890328067853,0.01052120096948358,-0.008604472981987177, ,0.35781288146972656
0.009704017185248968,0.02001089990669763,-0.07948383627129778, ,0.009959126722910551,0.01999706814932694,-0.07975445298663325, ,0.00037216340542405404, ,0.0023717729358546757,0.001469266270251702,-0.005624019354814352,-0.0114693352718289,-0.005341683542329018,-0.010470893293756237, ,0.006278028666347303, ,0.012652242054970446, ,3.443484115935602e-05, ,0.13683138106550985,-0.2444167727363315,0.08911086347000001,1.6041280676566114,0.1355434077673169,-1.3112857192732554, ,0.02120128274317935,0.00019275685924244503,0.006065807890327494,0.014161939497036907,0.012829421919229372,0.013153108977874667, ,0.38251686096191406
0.009781184382231899,0.020052651229421133,-0.07965350425370285, ,0.010019008426077754,0.020030470625157778,-0.07989505999922532, ,0.00033970786454187057, ,0.002468283591940989,0.0014601118403795488,-0.005781845728949515,0.012144835449829403,-0.0018248454350875492,-0.007079701530716278, ,0.006453998025257941, ,0.012281167798866096, ,3.463891166694277e-05, ,0.13751098155844163,-0.24438588180483461,0.08929364036000001,1.6041280676566114,0.13568004426708236,-1.3112337796966709, ,0.022664662421416473,0.0007789469552307226,0.006234368500978474,0.011929517901957662,0.0185053382849233,-0.011332313825933122, ,0.4124898910522461
0.009851089845927122,0.020090237386767042,-0.07980053559575609, ,0.01007880458663369,0.020063555401817857,-0.08003530807571575, ,0.000328152477976776, ,0.0022004385112955474,0.0010422993953901893,-0.004165763310831637,0.0029891926561465385,-0.012922648164679312,-8.030678053217214e-06, ,0.0048251322918127625, ,0.013263864710903206, ,3.474473278290594e-05, ,0.1381674138527507,-0.24437043633908617,0.08945308403,1.6043377576000957,0.1360899537663787,-1.3114863546676194, ,0.020833576631936506,0.0007081904553815208,0.004534247514944492,0.0018540588483600658,0.007693089358472053,-0.0034435560484064012, ,0.4373970031738281
0.009901734702590885,0.020114962737801383,-0.07989827650550585, ,0.010138515240371225,0.020096323847211092,-0.08017519757682905, ,0.0003648255899149221, ,0.0025555998991637968,0.0013788421595224572,-0.00543304069976227,0.0034521601538789973,-0.012250981669486342,-0.00891998133143462, ,0.0061603756209143495, ,0.012728077500560209, ,3.506255592234965e-05, ,0.1386385005580784,-0.2443549908733377,0.08955937981,1.6045474475435806,0.13622659026614414,-1.3115160938311754, ,0.023038830191422863,0.0007107355350207789,0.0058799599557032125,0.011285922193849506,0.008307689222528778,-0.002642675399195132, ,0.4624910354614258
0.009952174850614448,0.0201444513764627,-0.08001636569287868, ,0.010198140423719814,0.020128777326722934,-0.08031472886371205, ,0.0003869952463507003, ,0.002435701812265563,0.0014609910280826322,-0.005884126645119303,0.0042865447738596315,-0.004167960411527206,-0.0059467109459264336, ,0.0065337649543134495, ,0.005978825389386603, ,3.547545906136441e-05, ,0.13907097359903497,-0.24433954540758926,0.08968641623000001,1.6045474475435806,0.13636322676590956,-1.3113007967743093, ,0.021518580852260945,0.0010154120895788396,0.006328490870083433,0.009950725129285593,0.015407760255004174,-0.0039552114461999886, ,0.4896690845489502
0.010022632272265214,0.02018679404346787,-0.08018612526095, ,0.010257680173744246,0.020160917203222307,-0.08045390229793105, ,0.0003572417506187428, ,0.002261317218918221,0.001266954703549844,-0.0051187985426789815,-0.015967915157766365,-0.00045960820309618204,-0.0030977211251753635, ,0.005737667496984778, ,0.015974528183069044, ,3.58811942996397e-05, ,0.13970423769472137,-0.2443163772089666,0.08986919312000001,1.6045474475435806,0.13690977276497132,-1.3112563959482517, ,0.02103212357235611,0.0009899770052376002,0.005528917570288095,0.007987432081186406,0.019231421090906115,0.01606204132114456, ,0.5110259056091309
0.010067330378149348,0.020210507423649424,-0.0802792640657913, ,0.010317134528143956,0.02019274483706329,-0.08059271824147313, ,0.0004012120924014236, ,0.00235134087979396,0.0012798168220047148,-0.0050183634740984485,-0.01935395634547769,-0.01630885007040539,-0.0036596480815094504, ,0.005687768190515673, ,0.025309172520230863, ,3.648522889225508e-05, ,0.1401212652699295,-0.24430093174321815,0.08997030374000001,1.6049668274305493,0.13718304576450221,-1.310989159314801, ,0.020465158843750438,0.0004804886528054364,0.005429042781186094,0.004564878373235804,0.0031522005679980305,0.019497030068859215, ,0.5351378917694092
0.010117474972579418,0.020244371679551062,-0.08041461300494487, ,0.010376503525251797,0.02022426158608726,-0.08073117705674435, ,0.00040952778397853544, ,0.0023488224810629507,0.0018082782974627207,-0.007256697392632833,0.010873509983086765,0.017607985492157946,0.00475907188649899, ,0.007838781442090699, ,0.020694790463332162, ,3.708241647012561e-05, ,0.1405614610437603,-0.24428548627746968,0.09011548822000001,1.6049668274305493,0.13772959176356397,-1.3113531521894464, ,0.02037726896252325,0.0008871297637011941,0.007751246481751827,0.004564878373235804,0.03802763737735639,-0.011132839077500255, ,0.5566349029541016
0.010195934827025207,0.02029447426079851,-0.0806193528072007, ,0.010435787204033074,0.02025546880562439,-0.08086927910656945, ,0.0003485882146685713, ,0.002639147897112564,0.0015911870282568558,-0.006544713423049441,0.013497084491498217,-0.011520608357019069,-0.004433692680301911, ,0.007233965134804707, ,0.017745300636476783, ,3.733572809406496e-05, ,0.1411947251394467,-0.24424687261309858,0.09033456123000001,1.605176517374034,0.13800286476309484,-1.3111675942961365, ,0.021810374984709443,0.0014009317144122622,0.007017097585903085,0.006668519351176011,0.008944518245685363,-0.013973308298012407, ,0.5807149410247803
0.010243557203182752,0.020322682116219574,-0.08073501937184725, ,0.010494985604084546,0.020286367848495766,-0.08100702475419116, ,0.00037218529638394845, ,0.0023357543666975315,0.0013476975489793042,-0.005499569943400621,0.02164434535278609,0.009986866743046094,0.0015703512594411827, ,0.006125137280700484, ,0.02383726469339879, ,3.768079603599656e-05, ,0.14161947544752906,-0.24422370441447588,0.09045900507000001,1.605176517374034,0.13841277426239118,-1.311420169267085, ,0.022397201217481892,0.0011857543896506924,0.005941369459157032,0.006256316350118496,0.031826792013924764,-0.021963962802997193, ,0.605557918548584
0.010326392763555816,0.020363668570416146,-0.08090523547752967, ,0.010554098765633329,0.020316960065014964,-0.0811444143632694, ,0.000333523983009667, ,0.002598839526370289,0.0013313794947488835,-0.005566379580644013,-0.003872204713032538,-0.021401603465100484,-0.0020353414641631753, ,0.006285787132784004, ,0.02174908262141329, ,3.7825943613922776e-05, ,0.14234541233770617,-0.24417736801723056,0.09064307825000001,1.6053862073175185,0.13854941076215663,-1.3113682296905003, ,0.021860617728281684,0.001488606172816702,0.0059995523615819215,0.0019002999518529806,0.0,0.002660251383922716, ,0.6279420852661133
0.010371218848016001,0.02038583870175141,-0.0810037242683295, ,0.01061312672953592,0.020347246802990257,-0.08128144829788084, ,0.0003703233646175734, ,0.002117647631822818,0.0009331945077507442,-0.00421709049756097,0.026315554829637773,0.014943054236852875,-0.0005930982194510589, ,0.004810315555811278, ,0.030262242061411756, ,3.812164586591488e-05, ,0.14277788537866273,-0.2441310316199852,0.09074937403000001,1.6055958972610032,0.13909595676121836,-1.311813901305286, ,0.02229197593574601,0.002289310756265456,0.004586470348401959,0.009421580385096282,0.036045594553837976,-0.027278368476724858, ,0.6511039733886719
0.01042746583225973,0.02041118980952073,-0.08111538656220865, ,0.010672069537277054,0.020377229407726107,-0.08141812692251767, ,0.00039068658430804363, ,0.002676814558350485,0.0014540288734241375,-0.00634943961833646,0.007013322243994782,-0.0005202827913419532,-0.0028870167319361983, ,0.007042366052077158, ,0.007032593601306915, ,3.848330585486308e-05, ,0.14326441754973887,-0.24408469522273984,0.090869929,1.6055958972610032,0.13909595676121836,-1.3114055076045832, ,0.023718305813164406,0.002493524705695072,0.006818840547945207,0.008193425841451555,0.021878689162029313,-0.008347193993754672, ,0.6736609935760498
0.010484459656545635,0.020445606433019847,-0.08126576477838579, ,0.010730927230968705,0.020406909222025035,-0.08155445060208746, ,0.00038155372385429836, ,0.00264794357908999,0.0015334487447613097,-0.006895731441727548,0.010986924008901236,-0.00479131253654782,-0.0035711656699680843, ,0.0075441488828948645, ,0.01198620704844762, ,3.8784070250844286e-05, ,0.14375094972081504,-0.2440306360926203,0.09103066896,1.6055958972610032,0.13964250276028015,-1.3113611067785256, ,0.02163632958469466,0.003078953411510227,0.007354021939058173,0.007212915211513016,0.01557014512785355,-0.013033900168512583, ,0.6961019039154053
0.010538008137924396,0.02047677969419704,-0.0813961548595025, ,0.010789699853348973,0.02043628758618981,-0.08169041970191199, ,0.000389332926815237, ,0.0025845083067234883,0.0015447664651281833,-0.006576907142576048,0.0027731049432706914,0.007173634429923973,-0.0024682362052477025, ,0.007233373637617178, ,0.007690977158646349, ,3.92517068979051e-05, ,0.14419886822752004,-0.24399202242824916,0.09117066828,1.6060152771479719,0.139915775759811,-1.311502263845778, ,0.022773444098505104,0.002095053340316303,0.007057515073105894,0.009501148464735636,0.028514013400004208,-0.003517184816548313, ,0.7157368659973145
0.010594824011472055,0.020507427167841395,-0.08152623561315489, ,0.010848387447780983,0.020465365838024687,-0.0818260345877266, ,0.00039489618490558715, ,0.0029025598802495988,0.0016177340959952595,-0.0063997682080023915,-0.0035539520954183464,-0.01643318330259057,-0.007826009837606583, ,0.00721102978637159, ,0.016813092464433663, ,3.971554564933465e-05, ,0.14468540039859618,-0.24395340876387803,0.0913106676,1.6060152771479719,0.1401890487593419,-1.31164342091303, ,0.024345033750249045,0.0007951832455794445,0.006919553223284102,0.009501148464735636,0.005791532121651879,0.004096656959964305, ,0.7357358932495117
0.010653609304512581,0.020540225768906316,-0.08167268778906132, ,0.010906990058251879,0.020494145312837886,-0.08196129562567964, ,0.0003868070554610809, ,0.0027313423921407716,0.001818644943250815,-0.007597900804655993,0.02147886033107754,0.01392940039713203,-0.0003931964873535803, ,0.008276218782155847, ,0.025600187718555933, ,4.012456157382991e-05, ,0.145195100768295,-0.24389162690088423,0.09146751869000001,1.6060152771479719,0.14073559475840366,-1.3120074137876752, ,0.023419778272080645,0.0019113823263913357,0.008135245924412667,0.009317609497300738,0.03619108695530368,-0.022064672084381867, ,0.7549469470977783
0.01071866916306026,0.02057766910648782,-0.08183125008530062, ,0.010965507729371621,0.020522627343442994,-0.08209620318233149, ,0.00036627724079442805, ,0.0029913348252056725,0.001671831300466929,-0.00694984194727355,0.011189785747604238,-0.007246518866638915,-0.00013373252828376077, ,0.007748768097303739, ,0.013331291180842928, ,4.0437401536385284e-05, ,0.1456970784051196,-0.2438452905036389,0.09163733268,1.6062249670914566,0.14073559475840366,-1.3119257350475348, ,0.025578690447027166,0.0017179097371655214,0.007488862961918196,0.004410258565302642,0.017807063621859107,-0.012267876466631923, ,0.7744529247283936
0.01076870663804373,0.020604146561479502,-0.0819467155173973, ,0.01102394050637196,0.020550813260160904,-0.0822307576246539, ,0.00038557578666989023, ,0.003118616439211707,0.0014634459306888906,-0.0067545524610435675,0.007614885880766688,-0.00906039756581111,-0.002827661934727356, ,0.00758230976919046, ,0.011835424663599284, ,4.0803522878939543e-05, ,0.14615271964469884,-0.24379895410639355,0.09176177652,1.606434657034941,0.14128214075746542,-1.3122080491820394, ,0.027292764325128206,0.0036197927695416055,0.007266793576642336,0.006750294038769319,0.017122268000558098,-0.010240060336196947, ,0.7970139980316162
0.010844849454594567,0.02063843188168896,-0.08210256641954715, ,0.011082288435105251,0.020578704390821555,-0.08236495932002907, ,0.0003588797526394971, ,0.0032354748337964957,0.001366763294437787,-0.006309362917774556,-0.01874401691984766,-0.03366782736886993,-0.009198812081567835, ,0.007221107929628358, ,0.03853389105752533, ,4.105876710363265e-05, ,0.14684776560337906,-0.2437217267776513,0.09193029422000001,1.606434657034941,0.14182868675652718,-1.3123270058362628, ,0.026514931980573,0.0034170554232435682,0.006801371272416739,0.006750294038769319,-0.0090570899803126,0.016322656518823107, ,0.8168749809265137
0.01089658065655062,0.020661426470074566,-0.08220716710536283, ,0.011140551562043462,0.020606302060766097,-0.08249880863624925, ,0.00038420734736127014, ,0.003129294565663031,0.001403206310889321,-0.006224418734851459,-0.008147144034416803,-0.020153249564356,-0.005843848196643604, ,0.007106677213464647, ,0.02173774170831883, ,4.138800512280218e-05, ,0.14728023864433562,-0.24366766764753173,0.09204307145000001,1.6066443469784255,0.14182868675652718,-1.3121636483559818, ,0.02687537285711435,0.0027716361114389887,0.006732380185967879,0.006975900609016567,0.005193625269614386,0.006399360835048757, ,0.8389780521392822
0.01094046480602808,0.020681631926754134,-0.08230459042997063, ,0.011198729934276886,0.02063360759284832,-0.08263230594151535, ,0.0004200055590387978, ,0.00250147015766547,0.0011374408868233246,-0.005646986165351453,0.027618909526443136,0.02433820506353421,0.005160630739793838, ,0.006280093747101157, ,0.03681239442636438, ,4.1820860681537e-05, ,0.14770498895241796,-0.24360588578453793,0.09214807094000001,1.6066443469784255,0.1425118692553544,-1.3127207378744636, ,0.0251449235714019,0.004076824321192299,0.006084343590527121,0.006564332106869792,0.04939426996528517,-0.0307150780614554, ,0.8579258918762207
0.01099542508626769,0.02070583718858386,-0.08241650988455179, ,0.011256823599513105,0.020660622307436708,-0.08276545160443684, ,0.00043833080211228383, ,0.0027219191905858546,0.0013166847382852765,-0.006198802996960752,0.002165135688412061,-0.0036690945936980793,0.0025655458977097566, ,0.0068969313013283315, ,0.004260288550585743, ,4.2293538530048446e-05, ,0.1481606301919972,-0.24354410392154413,0.09226862591000001,1.6068540369219102,0.1425118692553544,-1.3122306654336202, ,0.023541786543902453,0.003491219351317033,0.00665363889724311,0.0018804501238787207,0.020024864833482422,-0.005347116786987486, ,0.8772468566894531
0.011061081716916023,0.02073810076034681,-0.08256758387210275, ,0.01131483260607593,0.020687347522416202,-0.08289824599403028, ,0.0004198843219120027, ,0.003021543605448171,0.001584234371144932,-0.007353686154793283,-0.0032657213669871183,-0.010781128460620338,-0.00816163905736653, ,0.008106554407733295, ,0.011264885504384274, ,4.268664821957754e-05, ,0.1487166669589414,-0.24345915385992767,0.09243066216000001,1.6070637268653947,0.14292177875465073,-1.312483240404569, ,0.02396992714283172,0.0038850366211760938,0.007858318460779478,0.010680148572055764,0.010943430838515938,0.0009611965482206686, ,0.8969528675079346
0.01108926465770806,0.02075394501805253,-0.0826415372727813, ,0.011372757002904054,0.02071378455319004,-0.08303068947971884, ,0.0004831358120519059, ,0.002785773559418495,0.0017179504834824617,-0.007532692573885302,0.026592435695699166,0.02225605829498276,0.0010899074656816883, ,0.008212998575472882, ,0.03467693387263877, ,4.339386293214589e-05, ,0.14896379441091656,-0.24342054019555653,0.09250973585000001,1.6070637268653947,0.14333168825394704,-1.3128174941156583, ,0.024571968295823608,0.0028885475464663496,0.008073396614292957,0.01007270909704209,0.04579068618591816,-0.027993141668949468, ,0.9138388633728027
0.011180165214700917,0.020798960156559885,-0.08285099076283726, ,0.011430596839550085,0.020739934712681526,-0.08316278243133199, ,0.00040424503248939894, ,0.0030855068577126795,0.001432812302286825,-0.006365485906547555,-0.012903785925126688,-0.023174609725089,-0.008238808408085607, ,0.0072175282811383565, ,0.026524898051843448, ,4.383386860461232e-05, ,0.14968200856821945,-0.2433124219353174,0.09273399402000002,1.6070637268653947,0.14346832475371246,-1.3126021970587924, ,0.02513826266449557,0.0027790313369702928,0.006868827736093144,0.008132477793929139,0.0,0.011332899420261845, ,0.9311540126800537
0.011208440338273168,0.02081507186900108,-0.08292888781562852, ,0.01148835216617933,0.02076579931133597,-0.0832945252191035, ,0.00046310811605990414, ,0.0031666966583910245,0.0019057044924287274,-0.008452972685859454,0.00045388301722129045,-0.007220663729266467,-0.004103729902937302, ,0.009225639520738597, ,0.007234911977892731, ,4.4434784233537934e-05, ,0.1499214132873204,-0.24326608553807205,0.09281695658000001,1.6070637268653947,0.14387823425300877,-1.3129364507698817, ,0.023982042344824556,0.0033067300179818525,0.009019712072480182,0.007666707643472951,0.015378015849318397,-0.002613679116762163, ,0.947396993637085
0.011278963971541982,0.020859087876602622,-0.0831167030838845, ,0.011546023033568645,0.02079137965712253,-0.08342591821367162, ,0.0004141484541622673, ,0.003302308040584156,0.0022409858926430203,-0.009887128425457322,0.004317592760893004,0.0012668494236987775,-0.007286937862969878, ,0.010662202618006187, ,0.00449960223006993, ,4.487000473135811e-05, ,0.15046200458851614,-0.24320430367507825,0.09301788153000001,1.607692796695848,0.14428814375230511,-1.3128623107802682, ,0.023670975694305506,0.003644608039069891,0.010507131609498682,0.012755390177614255,0.02254949569787482,-0.00605631844569076, ,0.9647948741912842
0.011313847510206306,0.020882359133474485,-0.083216484387245, ,0.011603609493105198,0.020816677055535717,-0.08355696178607784, ,0.00045188604892365726, ,0.003643852355294446,0.002214076431838072,-0.00971114881481873,-0.021375685180535016,-0.028068646245573214,0.009624540221144107, ,0.010605951430058545, ,0.0352812802010987, ,4.539947145754799e-05, ,0.1507091320404913,-0.24317341274358137,0.09312417731000001,1.6079024866393328,0.14442478025207056,-1.3128103712036836, ,0.025544264214931566,0.003152192405566521,0.010350104951267057,-0.010551728182051542,0.0,0.016721600917910924, ,0.9809980392456055
0.011375668774243506,0.02091956730775654,-0.08338609985877943, ,0.01166111159678549,0.0208416928095977,-0.0836876563077664, ,0.00042246696241227577, ,0.0026466248082154397,0.0014563805649437354,-0.006734418164665526,0.05154404326345234,0.0478736892881254,0.02928430865794668, ,0.007380925093915006, ,0.07034684433682158, ,4.582702169591548e-05, ,0.15123427787593857,-0.24310390814771335,0.09330176904000001,1.6079024866393328,0.14551787225019408,-1.3136200356931143, ,0.027682888435959965,0.0031353094470825235,0.007384706314325453,-0.010551728182051542,0.08052653591795748,-0.0563498153091799, ,0.9981930255889893
0.011439963470416294,0.020943952929190206,-0.08350413964347406, ,0.011718529397213968,0.020866428219859713,-0.08381800215058298, ,0.0004267537105850671, ,0.003340832636522813,0.0013249652271873412,-0.00602732584916282,-0.006852552260385208,-0.015586053323280086,0.014002492578252403, ,0.007017503291805276, ,0.017025936764911025, ,4.625220819566219e-05, ,0.15183665104012808,-0.24301895808609686,0.09343399062,1.6079024866393328,0.1459277817494904,-1.3134642169633601, ,0.03027015679696038,0.002897700223432218,0.006576718216350124,-0.010551728182051542,0.01775529557914606,0.0024443496971449513, ,1.015014886856079
0.011514825805844982,0.020975164965340354,-0.08365521422399183, ,0.011775862947601967,0.02089088458440418,-0.08394799968677372, ,0.0004012068035362886, ,0.0033753800617347166,0.00164923706860362,-0.007685343548212743,-0.01270796768809124,-0.0062822945582230744,-0.005859741116855576, ,0.008554395298539094, ,0.014176023450412295, ,4.65929617889468e-05, ,0.1525008060673114,-0.24292628529160618,0.09359732316000001,1.607692796695848,0.14647432774855218,-1.3135831736175838, ,0.027763879917633346,0.004151702321883618,0.008257548740279938,0.010394510436570926,0.019565444161362664,0.010136039889927489, ,1.034203052520752
0.011542212528384364,0.020990242530559335,-0.0837315756151268, ,0.011833112301766535,0.020915063198846385,-0.08407764928898558, ,0.00045830295417847295, ,0.0032302648383194404,0.0016665708824134338,-0.008294522093912305,0.028646435985954895,0.03244368641824262,0.005068297085882428, ,0.009056001667302773, ,0.04328060817320016, ,4.70773660801251e-05, ,0.15277110171790925,-0.2428722261614866,0.09367898943000001,1.607692796695848,0.1472941467471448,-1.3141700022996217, ,0.029370764951553937,0.005691759185758852,0.008878936187290971,0.009408555908853857,0.06139836876443633,-0.032889224195618745, ,1.0502829551696777
0.011607279707207577,0.02101879168512844,-0.08387047236326652, ,0.011890277514129225,0.020938965356336256,-0.08420695133026394, ,0.0004468535517622702, ,0.0038325452544215994,0.001653589624393143,-0.008486373199215752,-5.1604431967175655e-05,-0.009832597506391611,-0.005919213517800546, ,0.009457340633045716, ,0.009832730685017827, ,4.764278512119902e-05, ,0.15328080208760808,-0.24277955336699591,0.09382806278000001,1.6081121765828172,0.1472941467471448,-1.3138432873390595, ,0.03153770075057188,0.006442442250380009,0.009091787397260276,0.010183853050142681,0.01985515957604102,-0.004802231825208172, ,1.064573049545288
0.011632708374040982,0.02102950409625629,-0.08392358766613985, ,0.011947358639714861,0.02096259234756022,-0.08433590618405272, ,0.0005229613102477824, ,0.003951161066813867,0.0016379222423815686,-0.008483960817035088,-0.006053589676373955,-0.014519220924877068,-0.008269536088697963, ,0.00950116067609535, ,0.015730660516386746, ,4.839409748173144e-05, ,0.15348159314233792,-0.24274093970262478,0.09388509954,1.608321866526302,0.1472941467471448,-1.3136799298587782, ,0.03243231085388612,0.006654283715837947,0.009096979737292977,0.011515013163597241,0.015612768860266251,0.0011918912607162616, ,1.0786819458007812
0.011705167415544055,0.021060867614957325,-0.08407790261995292, ,0.01200435573415044,0.020985945460743314,-0.08446451422419324, ,0.0004945659831770248, ,0.00421331205806535,0.00190124980740712,-0.009212249248017518,0.0054096715410066635,-0.02762645172144579,-0.011347319307313966, ,0.010306904750525437, ,0.0281511156892736, ,4.905189825196156e-05, ,0.15407624357365318,-0.24264054417525988,0.09405102466000001,1.608321866526302,0.1475674197466757,-1.313576050705609, ,0.032633061058621314,0.005748410600844336,0.009881396724565759,0.011515013163597241,0.0023158348870297813,-0.009374030386403444, ,1.0922250747680664
0.011787044609720613,0.02110348092607455,-0.08429544690359184, ,0.01206126885366377,0.02100902598165043,-0.0845927758249234, ,0.0004153614810650506, ,0.00385221561327057,0.0021436679289786654,-0.010162186478773675,0.033837299279512734,0.015422799915956431,-0.0009132463222336054, ,0.01107722489390857, ,0.037186361362766714, ,4.9489178431409486e-05, ,0.15477901226520763,-0.24248608951777537,0.09428306057000001,1.608321866526302,0.14893378474433008,-1.3143635147820107, ,0.031072999855425925,0.005626238511401571,0.010858085562372189,0.011515013163597241,0.045095557788269604,-0.03766959927404415, ,1.106900930404663
0.0118296650589379,0.02112529718964162,-0.0844009845664131, ,0.012118098055082564,0.021031835193588585,-0.08472069136087643, ,0.00044061453947552006, ,0.004563479113893358,0.0019550652265262337,-0.00986234009284319,-0.022122045813079232,-0.04474910574444537,-0.015649775129146667, ,0.011041438935655769, ,0.049918606576902905, ,4.99794541860249e-05, ,0.15511108977879928,-0.2424243076547816,0.09439583780000001,1.608321866526302,0.14920705774386098,-1.3146680293295443, ,0.033496979018168296,0.006951451027182991,0.010548881801324505,0.011515013163597241,-0.014454587546394185,0.016980976325846622, ,1.120671033859253
0.011873732121106068,0.02114325571849564,-0.08449565616724472, ,0.012174843395832885,0.021054374377408584,-0.08484826120708121, ,0.0004721209661507667, ,0.004213517910548726,0.0016994149952598578,-0.00901282168274637,-0.012714022101527389,-0.0303581171832936,-0.009420935095528118, ,0.01009320064169994, ,0.03291293936192721, ,5.053640580311924e-05, ,0.15543544455951672,-0.24234708032603933,0.09449694842,1.6085315564697864,0.14907042124409553,-1.3144749326857073, ,0.03243231085388612,0.007335940122546091,0.009642137723970946,0.008626765354439197,0.0,0.00676305191658396, ,1.1356799602508545
0.01193349145477022,0.021166336599556086,-0.08462001798719944, ,0.01223150493393825,0.021076644811506926,-0.08497548573895938, ,0.00047245526047506165, ,0.003827337434735271,0.0013776121772367984,-0.007459459296265304,0.002251740334529581,-0.011098827198469007,-0.00568516382470636, ,0.008496461624866903, ,0.011324940468701116, ,5.108039895029613e-05, ,0.15592969946346708,-0.2422389620658002,0.09463046629,1.6087412464132707,0.1493436942436264,-1.3146160897529593, ,0.03277959984748559,0.006616249809448197,0.008044854303030305,0.00990799413684748,0.019904411507736853,-0.007288979633168825, ,1.1499249935150146
0.011982391189694231,0.021180724451320188,-0.08471113616702496, ,0.012288082728018176,0.021098647771827524,-0.08510236533232694, ,0.0005032337008809037, ,0.0033084065714910817,0.000715244737516498,-0.005608101241938084,0.0236457030870221,0.015195264530339855,0.0015842597248420897, ,0.0065504143851101435, ,0.028107211407027592, ,5.168634444205512e-05, ,0.15640078616879477,-0.24213084380556105,0.09472898433000002,1.6087412464132707,0.15002687674245363,-1.315091500531301, ,0.03297322500294329,0.008795406433872353,0.006070431219512196,0.00897746839736151,0.047451214304938996,-0.030969057986271538, ,1.163416862487793
0.012066489297754394,0.021209717137956104,-0.08487772235955858, ,0.012344576837287116,0.0211203845318635,-0.085228900363391, ,0.0004567701659810749, ,0.0044564224099328765,0.0020138686685834753,-0.009936706333176473,-0.015149626905363986,-0.028628631740531898,-0.007405496062965543, ,0.011074904083640794, ,0.032389962238810875, ,5.216542280865125e-05, ,0.15709583212747497,-0.24196866641520234,0.09490787235,1.6087412464132707,0.1503001497419845,-1.3149059426379912, ,0.033544341307342095,0.006385659695307243,0.01064760128342246,0.0074718947713287255,0.003215884967623611,0.009977601785132236, ,1.1776940822601318
0.01210709879497455,0.02123105556115217,-0.08498324731300053, ,0.012400987321553201,0.021141856362659067,-0.08535509120875036, ,0.0004822808786099595, ,0.004165481113598161,0.002185570370127002,-0.010894142486227531,0.024988447735331584,0.014685703447678564,0.01093393818002372, ,0.011866351219340671, ,0.02898434495594362, ,5.282001416600856e-05, ,0.15742790964106662,-0.24189916181933432,0.09502064958,1.6089509363567556,0.15084669574104626,-1.3151882567724957, ,0.033203968354958285,0.006989698891112825,0.011626869722627739,0.0,0.0493820351933208,-0.03188467101003175, ,1.1908318996429443
0.012159384955575548,0.02126054851458535,-0.08513443322696701, ,0.01245731424121695,0.021163064532811502,-0.08548093824539467, ,0.0004672587224876946, ,0.004039920771670111,0.002234048504911677,-0.011459657468272032,0.019320812262031754,0.020141087067911758,0.006882533415512836, ,0.012354581411516647, ,0.0279098007357534, ,5.3426598682178376e-05, ,0.157852659949149,-0.24179104355909517,0.09518138954000001,1.6091606263002398,0.15180315123940433,-1.31588650335823, ,0.030820702032630976,0.007978384346005583,0.012168687181054242,0.004546115028917434,0.05142181489670671,-0.026492557983460206, ,1.2016799449920654
0.012201872027539315,0.021281183374235946,-0.0852405445680255, ,0.012513557657270235,0.02118401030847263,-0.08560644185070233, ,0.0004903787902845004, ,0.004430160911047579,0.0021753349626258776,-0.011375356007635597,-0.016595236716749718,-0.005378156577669617,-0.009004149599745714, ,0.012399884362277243, ,0.017444949394870377, ,5.407606439944548e-05, ,0.1581461237983695,-0.24171381623035293,0.09529416677000001,1.6093703162437245,0.15180315123940433,-1.3154781096575272, ,0.03255469693258002,0.0085818049921902,0.012094769567198179,0.014157785845935585,0.024509417409852317,0.010295560332933936, ,1.212467908859253
0.012237711515790568,0.021298510774773717,-0.08532936721616666, ,0.01256971763129486,0.021204694953350797,-0.08573160240244088, ,0.0005299269894603988, ,0.0048298701028150585,0.00219184066714705,-0.011278119146812279,-0.054363587480368285,-0.03125806593295861,-0.014948854695402351, ,0.012463056696088649, ,0.06270937846238182, ,5.480541958982366e-05, ,0.15840869671609314,-0.24165203436735913,0.09538879594,1.6093703162437245,0.15193978773916977,-1.315344491340802, ,0.034684554663183764,0.008193171823953165,0.012030824410876134,0.014157785845935585,0.0,0.04844159156552176, ,1.224905014038086
0.012298651819575727,0.021327645369063872,-0.0854798881516321, ,0.01262579422546139,0.021225119728712872,-0.08585642027876562, ,0.0005092250027460742, ,0.004645056938583359,0.002431304597979341,-0.012034635647727856,0.005218564066112487,0.01743383354084057,-0.0013829592522566461, ,0.01312708083255371, ,0.018198123815329002, ,5.547363001467799e-05, ,0.15888750615429506,-0.24154391610711998,0.09554953590000001,1.6093703162437245,0.15248633373823153,-1.3157084842154472, ,0.03649882367633492,0.007669562549919797,0.01285618363196126,0.013400437315286853,0.05229026356446209,-0.01071928658813574, ,1.2362020015716553
0.012341839911697846,0.021351049508950053,-0.0855976035899829, ,0.012681787502528005,0.021245285893385764,-0.08598089585821853, ,0.0005231283492391401, ,0.004560346239955161,0.0023283215039242035,-0.011889244391268322,0.036020312442831444,0.03257791650786305,0.0037634607697950096, ,0.012944959291137778, ,0.048567307058489585, ,5.616137848312645e-05, ,0.1592504745993836,-0.24146668877837774,0.09567527603,1.6093703162437245,0.15330615273682416,-1.316295312897485, ,0.03744946391415579,0.008395565883140001,0.01270240153110048,0.012206847817100604,0.06918640652696381,-0.04241740163183247, ,1.246964931488037
0.012392754136083648,0.0213733548356282,-0.08571922180431923, ,0.012737697525839118,0.021265194703758424,-0.0861050295197272, ,0.0005287080002519337, ,0.004727120802700166,0.0019207153885072588,-0.011074134532264976,0.0014315984232395225,-0.009348067761643276,-0.00634531017596607, ,0.01219308305252092, ,0.009457043849429499, ,5.684930266031972e-05, ,0.15963661124309483,-0.24136629325101283,0.09580490503000001,1.6093703162437245,0.15357942573635508,-1.3161914337443157, ,0.03613744918449001,0.010539945513112567,0.011790386025166546,0.011160652398655409,0.02486482386969469,-0.010112223426043367, ,1.2608959674835205
0.01242322851318821,0.021385302865042206,-0.08578989214740444, ,0.012793524359324335,0.021284847413783597,-0.08622882164260531, ,0.0005829832013965159, ,0.004727652572962082,0.0017383995031136858,-0.010368875281806429,-0.03986589836623075,-0.0322552226182908,-0.011875500772996246, ,0.011527632293438112, ,0.05128049452615058, ,5.7646580666497385e-05, ,0.15986829322932158,-0.2412967886551448,0.09588008985,1.6093703162437245,0.1537160622361205,-1.316139494167731, ,0.03479902514062001,0.010542806074806213,0.011038677422037424,0.010590650533199259,0.0,0.031094671808579933, ,1.2731249332427979
0.012500329197475043,0.021411465638584128,-0.08594566240552078, ,0.012849268067496934,0.02130424527497963,-0.08635227260654935, ,0.0005464305966581025, ,0.004281870421722241,0.0011532571429755454,-0.007589528368966444,-0.03339706702882763,-0.016441164345311843,0.0029379789270964638, ,0.00879007151333767, ,0.03722466851399086, ,5.8348456830924303e-05, ,0.16050155732500798,-0.24113461126478608,0.09604731126,1.609580006187209,0.1541259717354168,-1.3159836754379768, ,0.036867498662964564,0.009263570428005288,0.008193833086419754,0.000616910099504918,0.02088525211743777,0.02435123653576212, ,1.2839720249176025
0.012543401407169603,0.021422734976400425,-0.08602741981187859, ,0.012904928715453021,0.021323389536432355,-0.08647538279164026, ,0.0005841595178665311, ,0.004207582416794387,0.0012546397286799143,-0.008569073872588972,0.03333421320408991,0.03941933754318487,0.00503207565624959, ,0.009628442120965688, ,0.05162416000359081, ,5.912106848410235e-05, ,0.160879971235845,-0.24102649300454695,0.09612897753,1.6097896961306934,0.15480915423424405,-1.3163774074761778, ,0.04017652055820101,0.011151284425346214,0.009065914354012522,0.012831984988407453,0.07884456556541924,-0.041692039259045986, ,1.2948729991912842
0.012588686061465073,0.02143780336936115,-0.08611886447468142, ,0.012960506368869867,0.021342281444796815,-0.0865981525783402, ,0.0006140780613080914, ,0.004853426812805173,0.0016144793132700157,-0.009767038608824549,-0.027171708438913582,-0.0021378385007466754,-0.0026630865895034476, ,0.01102530446139708, ,0.027255678381989657, ,6.0076680860154395e-05, ,0.16131244427680155,-0.2409183747443078,0.09623397702000001,1.6099993860741781,0.15535570023330578,-1.3164963641304013, ,0.04086862254886769,0.010403332950222284,0.010500205352669746,0.010424774013276206,0.03733696194340032,0.01854408526202758, ,1.3046560287475586
0.012610185847706176,0.021444904293278902,-0.0861623384297043, ,0.013016001094004928,0.02136092224429911,-0.08672058234749355, ,0.000695251947446427, ,0.005123987090803941,0.0016674554061514512,-0.010045339761406008,-0.030160411806575,-0.018184575411442,-0.006473623535450076, ,0.011399320249923399, ,0.03521830661671528, ,6.119629369681954e-05, ,0.16149006713290873,-0.24087203834706244,0.09628064346000001,1.6099993860741781,0.15549233673307122,-1.316526103293957, ,0.041768020052143834,0.010602102622913272,0.010799194250847459,0.010424774013276206,0.021725969999661324,0.021331825799981628, ,1.3133940696716309
0.012692576687781704,0.021475483477186422,-0.08634312061867466, ,0.013071412957694576,0.0213793131767383,-0.08684267248032493, ,0.0006342851949778007, ,0.005638948646580523,0.0022726647607007977,-0.013232461962625409,-0.02759381922633687,-0.016545946073961187,-0.0050235897580654595, ,0.014562307390850937, ,0.03217431872285429, ,6.216971986072308e-05, ,0.16213105396146935,-0.2406944154909553,0.09647379067,1.6099993860741781,0.15590224623236756,-1.316533642044484, ,0.04173128476625804,0.01257412767437005,0.01408382981432361,0.009071897747783391,0.023714331230714022,0.016612243040617328, ,1.321547031402588
0.012748811448306955,0.021501400828149463,-0.08649074008280505, ,0.013126742027352712,0.021397455481488085,-0.08696442335843851, ,0.0006148268075525522, ,0.005544025642544689,0.002891368697019242,-0.015457138667278419,0.04026441911666742,0.043649917190435046,0.011225041475793951, ,0.016673912829530128, ,0.05938465993145951, ,6.308885644435051e-05, ,0.16256352700242593,-0.24056312903209348,0.09663064176000001,1.6099993860741781,0.15658542873119474,-1.316927374082685, ,0.042920371577779635,0.011862117694808848,0.01643840198142415,0.008297795263865463,0.08719176427735814,-0.050653269348792794, ,1.3297350406646729
0.012805354204914134,0.02153084898781489,-0.08664434589452796, ,0.013181988370969714,0.021415350395498696,-0.08708583536381703, ,0.0005916977026831763, ,0.006201853094662614,0.0031216218727160455,-0.016422348104694576,0.011408943441029613,0.004165074480594489,0.002327173326943456, ,0.017829779084322973, ,0.012145395892958877, ,6.394691856236784e-05, ,0.16297283184475983,-0.24045501077185433,0.09679397430000002,1.6099993860741781,0.15713197473025653,-1.3172913669573303, ,0.044385847314532635,0.011973797194539828,0.017465802105263162,0.007685789315739796,0.048149073174552914,-0.02200989631594959, ,1.3392009735107422
0.012805354204914134,0.02153084898781489,-0.08664434589452796, ,0.013237152057110959,0.02143299915329863,-0.08720690887882117, ,0.0007158918120592857, ,0.006201853094662614,0.0031216218727160455,-0.016422348104694576,0.011408943441029613,0.004165074480594489,0.002327173326943456, ,0.017829779084322973, ,0.012145395892958877, ,6.50571962241733e-05, ,0.16297283184475983,-0.24045501077185433,0.09679397430000002,1.6099993860741781,0.15713197473025653,-1.3172913669573303, ,0.044385847314532635,0.011973797194539828,0.017465802105263162,0.007685789315739796,0.048149073174552914,-0.02200989631594959, ,1.3476860523223877
0.012937001714529132,0.021589600808985168,-0.08696202665897936, ,0.013292233154915744,0.021450402986996634,-0.08732764428618822, ,0.000528433211684637, ,0.006404426803855896,0.002406229349995845,-0.014033023858707014,-0.03671161727864792,-0.04219989269775181,-0.016740681449420515, ,0.015611930725882996, ,0.05593365036110613, ,6.575879964104093e-05, ,0.16389183705679256,-0.2402001605870049,0.09713230599000001,1.6104187659611469,0.1574052477297874,-1.3170241303238797, ,0.04582179698622442,0.013380843423360234,0.014970687518796997,0.015147368746870999,0.0,0.025910657602313494, ,1.3563039302825928
0.012937001714529132,0.021589600808985168,-0.08696202665897936, ,0.013347231734096006,0.021467563126283395,-0.08744804196903175, ,0.0006476053941702303, ,0.006404426803855896,0.002406229349995845,-0.014033023858707014,-0.03671161727864792,-0.04219989269775181,-0.016740681449420515, ,0.015611930725882996, ,0.05593365036110613, ,6.670091050975872e-05, ,0.16389183705679256,-0.2402001605870049,0.09713230599000001,1.6104187659611469,0.1574052477297874,-1.3170241303238797, ,0.04582179698622442,0.013380843423360234,0.014970687518796997,0.015147368746870999,0.0,0.025910657602313494, ,1.3648159503936768
0.012996221894807487,0.02161182431837418,-0.0870992477844559, ,0.013402147864934932,0.021484480798433247,-0.08756810231083972, ,0.0006331009652539315, ,0.005573602381153272,0.0021907130139529663,-0.013746414727025195,0.04121544987985764,0.05089165524475517,0.011997768424213287, ,0.014994271734901815, ,0.06548796371473053, ,6.76011147378765e-05, ,0.16437064649499447,-0.24005342866239465,0.09727878676000001,1.6106284559046316,0.1580884302286146,-1.3172545048817994, ,0.046932216398848065,0.014850851574095584,0.01465392044158234,0.009768601348548745,0.09844169770320005,-0.05427317217320954, ,1.3730320930480957
0.013036033726639994,0.02162726199962821,-0.08719785135326534, ,0.013456981618285945,0.02150115722830629,-0.08768782569547476, ,0.0006581598566115046, ,0.0054813174789047105,0.0021641980584365807,-0.01363376921214151,0.053984586834443495,0.06455569201102841,0.015700044599445337, ,0.014852887176257169, ,0.08415326800335547, ,6.868384274436874e-05, ,0.16470272400858613,-0.23994531040215553,0.09738378625,1.6106284559046316,0.1587716127274418,-1.3178115944002817, ,0.047495966745981374,0.014825330660595342,0.01454685983561644,0.009583711465238585,0.11314443531273013,-0.06704367886098762, ,1.3787639141082764
0.013036033726639994,0.02162726199962821,-0.08719785135326534, ,0.01351173306557112,0.021517593638349864,-0.08780721250717177, ,0.0007807932033612779, ,0.0054813174789047105,0.0021641980584365807,-0.01363376921214151,0.053984586834443495,0.06455569201102841,0.015700044599445337, ,0.014852887176257169, ,0.08415326800335547, ,7.001049329668326e-05, ,0.16470272400858613,-0.23994531040215553,0.09738378625,1.6106284559046316,0.1587716127274418,-1.3178115944002817, ,0.047495966745981374,0.014825330660595342,0.01454685983561644,0.009583711465238585,0.11314443531273013,-0.06704367886098762, ,1.3845798969268799
0.01311453292298974,0.021652726037459685,-0.08736470251199412, ,0.013566402278780202,0.021533791248600602,-0.08792626313053895, ,0.0007305352332392277, ,0.005818380253756243,0.0015934510228339056,-0.01108624502159461,-0.026274658097405885,-0.011779642044008262,-0.0017651532115077714, ,0.012621309901048395, ,0.028794399756831103, ,7.122304821792734e-05, ,0.16536687903576944,-0.2397522420802999,0.09756267427000001,1.6106284559046316,0.15972806822579988,-1.3182648047655943, ,0.04787938524645347,0.014121568684296247,0.011913845564697085,0.008236398070435311,0.035171250405805286,0.013670501488145885, ,1.3900458812713623
0.01311453292298974,0.021652726037459685,-0.08736470251199412, ,0.013620989330469208,0.021549751276686194,-0.08804497795055471, ,0.0008543281373934613, ,0.005818380253756243,0.0015934510228339056,-0.01108624502159461,-0.026274658097405885,-0.011779642044008262,-0.0017651532115077714, ,0.012621309901048395, ,0.028794399756831103, ,7.267883971272815e-05, ,0.16536687903576944,-0.2397522420802999,0.09756267427000001,1.6106284559046316,0.15972806822579988,-1.3182648047655943, ,0.04787938524645347,0.014121568684296247,0.011913845564697085,0.008236398070435311,0.035171250405805286,0.013670501488145885, ,1.3954570293426514
0.01318322057380201,0.021673401484691372,-0.08750560287889787, ,0.013675494293759216,0.021565474937827046,-0.08816335735256867, ,0.000828626877739617, ,0.007765145518636669,0.00259694714838856,-0.016882034360640504,-0.04674961625346653,-0.05326831111879409,-0.010283052112821642, ,0.018762854355640384, ,0.07087339569981183, ,7.407042667467147e-05, ,0.16588430213834246,-0.23958234195706696,0.09771304391,1.6106284559046316,0.15986470472556533,-1.3180495077087286, ,0.05504462967428699,0.01893016987003207,0.01795807386696731,0.007434065176804202,0.0,0.029271850157188358, ,1.400904893875122
0.01318322057380201,0.021673401484691372,-0.08750560287889787, ,0.013729917242335032,0.021580963444838328,-0.08828140172229905, ,0.0009535648294791396, ,0.007940733356735674,0.003930689262661662,-0.02218227271425778,0.05815907341536254,0.04181639935011739,0.02114980294859601, ,0.023886372413828006, ,0.07163158314912905, ,7.570414670738911e-05, ,0.1664635071039093,-0.23938155090233712,0.09792563547000001,1.610838145848116,0.16054788722439253,-1.3182798822666482, ,0.057166832264139024,0.01859266096365023,0.023528525140324965,0.0003535082617500019,0.10192241402635106,-0.0764153349383843, ,1.406743049621582
0.013262627700419551,0.021706339801524522,-0.08770585220276275, ,0.013784258250443944,0.021596218008131666,-0.08839911144583291, ,0.0008745476649108523, ,0.007940733356735674,0.003930689262661662,-0.02218227271425778,0.05815907341536254,0.04181639935011739,0.02114980294859601, ,0.023886372413828006, ,0.07163158314912905, ,7.716503432657309e-05, ,0.1664635071039093,-0.23938155090233712,0.09792563547000001,1.610838145848116,0.16054788722439253,-1.3182798822666482, ,0.057166832264139024,0.01859266096365023,0.023528525140324965,0.0003535082617500019,0.10192241402635106,-0.0764153349383843, ,1.4124939441680908
0.013319603577834845,0.02173776855307746,-0.0878730286290127, ,0.01383851739289447,0.021611239835716955,-0.08851648690962488, ,0.000836253324456782, ,0.008005813360855646,0.004391192046235687,-0.023391626739447068,0.06498261182931109,0.07318255560778421,0.0107676937944743, ,0.025110631546685427, ,0.0978693991100134, ,7.853711331209348e-05, ,0.16688053467911743,-0.23925798717634952,0.0981032272,1.6110478357916007,0.16150434272275063,-1.3188964501122422, ,0.05832633162782469,0.017160387261929616,0.024849939968798754,0.01865813959228082,0.13095854565719373,-0.07884805355384576, ,1.4183800220489502
0.013319603577834845,0.02173776855307746,-0.0878730286290127, ,0.013892694745055166,0.021626030133204095,-0.08863352850049594, ,0.0009587903915599995, ,0.008005813360855646,0.004391192046235687,-0.023391626739447068,0.06498261182931109,0.07318255560778421,0.0107676937944743, ,0.025110631546685427, ,0.0978693991100134, ,8.014375893320734e-05, ,0.16688053467911743,-0.23925798717634952,0.0981032272,1.6110478357916007,0.16150434272275063,-1.3188964501122422, ,0.05832633162782469,0.017160387261929616,0.024849939968798754,0.01865813959228082,0.13095854565719373,-0.07884805355384576, ,1.424462080001831
0.01343463161521922,0.021796051919279004,-0.08819592703421786, ,0.013946790382853153,0.021640590103804962,-0.0887502366056327, ,0.0010827283932906974, ,0.00921062548269444,0.0043752464673442095,-0.02532230371855645,-0.00950043613202812,-0.008422081624415696,-0.009894253492014716, ,0.02691829639428536, ,0.012695642324073532, ,8.198495828535162e-05, ,0.1676605306994141,-0.2389954142586259,0.09844544776000001,1.6114672156785694,0.16259743472087412,-1.3194610783812513, ,0.059236542795549796,0.02229721371204671,0.02677111179831933,0.01843488800096773,0.04785534322236902,-0.009465635439489795, ,1.4307479858398438
0.01343463161521922,0.021796051919279004,-0.08819592703421786, ,0.014000804382772989,0.021654920948335155,-0.08886661161258688, ,0.0008889810781681933, ,0.00921062548269444,0.0043752464673442095,-0.02532230371855645,-0.00950043613202812,-0.008422081624415696,-0.009894253492014716, ,0.027298305241301814, ,0.012695642324073532, ,8.342633236407426e-05, ,0.16826290386360362,-0.2387791777381476,0.09869563173000001,1.6114672156785694,0.16287070772040502,-1.3192755204879414, ,0.06292900633850848,0.021567486717834268,0.024244766392694066,0.01843488800096773,0.0,0.039165039198910796, ,1.436398983001709
0.013526768622891691,0.02183593807692343,-0.08843211647436543, ,0.014054736821855368,0.021669023865215867,-0.0889826539092733, ,0.0007808343232862213, ,0.009588983580050609,0.0038316046444799036,-0.02283070119915989,-0.05742814769700869,-0.05854403275301074,-0.02128818747743081, ,0.025057348572732133, ,0.08200847344009049, ,8.464213762854568e-05, ,0.16826290386360362,-0.2387791777381476,0.09869563173000001,1.6114672156785694,0.16287070772040502,-1.3192755204879414, ,0.06292900633850848,0.021567486717834268,0.024244766392694066,0.01843488800096773,0.0,0.039165039198910796, ,1.4422459602355957
0.013621238335926504,0.021869352576141084,-0.08865041789522952, ,0.014108587777695905,0.0216829000504754,-0.08909836388397001, ,0.0006876987942033549, ,0.009622844610631636,0.0032317678606576454,-0.021601125452964543,-0.032156621591453535,-0.025612308632997263,-0.012130859944404318, ,0.02386738533522796, ,0.041110022654006595, ,8.566465147262115e-05, ,0.1688884452264158,-0.2385552184847951,0.09891211216000001,1.6114672156785694,0.16328061721970133,-1.319364737978609, ,0.0686167328694655,0.02459107062930054,0.023018513757225436,0.01843488800096773,0.04052412399409071,0.011289861446298437, ,1.4476869106292725
0.013621238335926504,0.021869352576141084,-0.08865041789522952, ,0.01416235732844374,0.021696550697751546,-0.08921374192531668, ,0.000800002635065322, ,0.009622844610631636,0.0032317678606576454,-0.021601125452964543,-0.032156621591453535,-0.025612308632997263,-0.012130859944404318, ,0.02386738533522796, ,0.041110022654006595, ,8.689976607403585e-05, ,0.1688884452264158,-0.2385552184847951,0.09891211216000001,1.6114672156785694,0.16328061721970133,-1.319364737978609, ,0.0686167328694655,0.02459107062930054,0.023018513757225436,0.01843488800096773,0.04052412399409071,0.011289861446298437, ,1.4534180164337158
0.013621238335926504,0.021869352576141084,-0.08865041789522952, ,0.014216045552800203,0.02170997699829269,-0.08932878842231429, ,0.0009161783516743905, ,0.009622844610631636,0.0032317678606576454,-0.021601125452964543,-0.032156621591453535,-0.025612308632997263,-0.012130859944404318, ,0.02386738533522796, ,0.041110022654006595, ,8.852580251638948e-05, ,0.1688884452264158,-0.2385552184847951,0.09891211216000001,1.6114672156785694,0.16328061721970133,-1.319364737978609, ,0.0686167328694655,0.02459107062930054,0.023018513757225436,0.01843488800096773,0.04052412399409071,0.011289861446298437, ,1.4563779830932617
0.013695558969700934,0.021893195983351342,-0.08881938325914718, ,0.014269652530017789,0.021723180140960252,-0.08944350376432307, ,0.0008648787242395584, ,0.009071450134008506,0.0027377834935636077,-0.01996193848193419,0.04895122620971191,0.047112000480715115,0.006805310584530226, ,0.022096734010888516, ,0.06793938450606414, ,9.004508416359724e-05, ,0.16952943205497645,-0.2383312592314426,0.09910785195,1.6114672156785694,0.16423707271805943,-1.3199813058242027, ,0.07402257531861994,0.025857477263888495,0.021323710200803217,0.01843488800096773,0.12030694180883356,-0.0713822426451314, ,1.4592900276184082
0.013695558969700934,0.021893195983351342,-0.08881938325914718, ,0.014323178339898655,0.021736161312230207,-0.08955788834106296, ,0.0009818124656964485, ,0.009071450134008506,0.0027377834935636077,-0.01996193848193419,0.04895122620971191,0.047112000480715115,0.006805310584530226, ,0.022096734010888516, ,0.06793938450606414, ,9.178681733065359e-05, ,0.16952943205497645,-0.2383312592314426,0.09910785195,1.6114672156785694,0.16423707271805943,-1.3199813058242027, ,0.07402257531861994,0.025857477263888495,0.021323710200803217,0.01843488800096773,0.12030694180883356,-0.0713822426451314, ,1.4622039794921875
0.013695558969700934,0.021893195983351342,-0.08881938325914718, ,0.014376623062793508,0.021748921696194818,-0.08967194254261152, ,0.001100691010527368, ,0.009071450134008506,0.0027377834935636077,-0.01996193848193419,0.04895122620971191,0.047112000480715115,0.006805310584530226, ,0.022096734010888516, ,0.06793938450606414, ,9.375349217119298e-05, ,0.16952943205497645,-0.2383312592314426,0.09910785195,1.6114672156785694,0.16423707271805943,-1.3199813058242027, ,0.07402257531861994,0.025857477263888495,0.021323710200803217,0.01843488800096773,0.12030694180883356,-0.0713822426451314, ,1.4650330543518066
0.013815656587783009,0.021925008337822016,-0.08906661196488859, ,0.014429986779600067,0.021761462474564643,-0.08978566675940372, ,0.0009597857216492546, ,0.0102317976333763,0.002765405858079243,-0.020960507169375593,-0.014992179529398022,-0.006144079091659106,-0.0031587639451513315, ,0.023487869489753843, ,0.016202194576171423, ,0.0005218651830369282, ,0.17050249639712872,-0.23799145898497673,0.09937229511000001,1.6114672156785694,0.1654668012159484,-1.3206573519969083, ,0.07954479594171901,0.028184419827285645,0.022403391729957808,0.016193015692181352,0.07166214217334738,-0.010106170754200394, ,1.468000888824463
0.013815656587783009,0.021925008337822016,-0.08906661196488859, ,0.014483269571762072,0.021773784826670254,-0.08989906138223042, ,0.0010777512139335508, ,0.0102317976333763,0.002765405858079243,-0.020960507169375593,-0.014992179529398022,-0.006144079091659106,-0.0031587639451513315, ,0.023487869489753843, ,0.016202194576171423, ,0.0005277166149411033, ,0.17050249639712872,-0.23799145898497673,0.09937229511000001,1.6114672156785694,0.1654668012159484,-1.3206573519969083, ,0.07954479594171901,0.028184419827285645,0.022403391729957808,0.016193015692181352,0.07166214217334738,-0.010106170754200394, ,1.4708139896392822
0.013815656587783009,0.021925008337822016,-0.08906661196488859, ,0.014536471521267766,0.02178588992946411,-0.0900121268022377, ,0.0011970490414038998, ,0.0102317976333763,0.002765405858079243,-0.020960507169375593,-0.014992179529398022,-0.006144079091659106,-0.0031587639451513315, ,0.023487869489753843, ,0.016202194576171423, ,0.0005346888277167574, ,0.17050249639712872,-0.23799145898497673,0.09937229511000001,1.6114672156785694,0.1654668012159484,-1.3206573519969083, ,0.07954479594171901,0.028184419827285645,0.022403391729957808,0.016193015692181352,0.07166214217334738,-0.010106170754200394, ,1.4735829830169678
0.013815656587783009,0.021925008337822016,-0.08906661196488859, ,0.014589592710648762,0.021797778957522138,-0.09012486341092607, ,0.0013172169754935535, ,0.0102317976333763,0.002765405858079243,-0.020960507169375593,-0.014992179529398022,-0.006144079091659106,-0.0031587639451513315, ,0.023487869489753843, ,0.016202194576171423, ,0.0005427561282093016, ,0.17050249639712872,-0.23799145898497673,0.09937229511000001,1.6114672156785694,0.1654668012159484,-1.3206573519969083, ,0.07954479594171901,0.028184419827285645,0.022403391729957808,0.016193015692181352,0.07166214217334738,-0.010106170754200394, ,1.4763870239257812
0.013924896132562965,0.02196083257735312,-0.08931233175204431, ,0.014642633222978721,0.021809453083045948,-0.0902372716001493, ,0.0011804982019756106, ,0.012314054198602289,0.004895294273970239,-0.030721328672429587,0.02191630888576175,0.017171055237060397,0.006939272430033525, ,0.033457433736530436, ,0.027841378698718264, ,0.0005492637003905905, ,0.1713133833489223,-0.23769799513575618,0.09963414569000001,1.6118865955655386,0.16628662021454105,-1.320917465718384, ,0.08658480069203538,0.03109336224065229,0.03264100721311476,0.013083584906237553,0.10369595680146335,-0.05034853234409789, ,1.4791200160980225
0.013924896132562965,0.02196083257735312,-0.08931233175204431, ,0.014695593141871948,0.021820913475864234,-0.09034935176211317, ,0.0012996006064951227, ,0.012314054198602289,0.004895294273970239,-0.030721328672429587,0.02191630888576175,0.017171055237060397,0.006939272430033525, ,0.033457433736530436, ,0.027841378698718264, ,0.0005568428610583131, ,0.1713133833489223,-0.23769799513575618,0.09963414569000001,1.6118865955655386,0.16628662021454105,-1.320917465718384, ,0.08658480069203538,0.03109336224065229,0.03264100721311476,0.013083584906237553,0.10369595680146335,-0.05034853234409789, ,1.4818639755249023
0.013924896132562965,0.02196083257735312,-0.08931233175204431, ,0.014748472551482358,0.021832161303434867,-0.09046110428937536, ,0.0014193353222751311, ,0.012314054198602289,0.004895294273970239,-0.030721328672429587,0.02191630888576175,0.017171055237060397,0.006939272430033525, ,0.033457433736530436, ,0.027841378698718264, ,0.0005654677856704812, ,0.1713133833489223,-0.23769799513575618,0.09963414569000001,1.6118865955655386,0.16628662021454105,-1.320917465718384, ,0.08658480069203538,0.03109336224065229,0.03264100721311476,0.013083584906237553,0.10369595680146335,-0.05034853234409789, ,1.4845759868621826
0.013924896132562965,0.02196083257735312,-0.08931233175204431, ,0.01480127153650184,0.02184319773084657,-0.09057252957484353, ,0.001539470804636953, ,0.012314054198602289,0.004895294273970239,-0.030721328672429587,0.02191630888576175,0.017171055237060397,0.006939272430033525, ,0.033457433736530436, ,0.027841378698718264, ,0.000575111379917674, ,0.1713133833489223,-0.23769799513575618,0.09963414569000001,1.6118865955655386,0.16628662021454105,-1.320917465718384, ,0.08658480069203538,0.03109336224065229,0.03264100721311476,0.013083584906237553,0.10369595680146335,-0.05034853234409789, ,1.4874110221862793
0.014056818469373759,0.022019355150893233,-0.08966957344794672, ,0.014853990182159327,0.021854023920820823,-0.09068362801177514, ,0.0013004321642146384, ,0.013544123946824606,0.006383898140777331,-0.03906175733262772,0.03395941775883069,0.07763799786858795,-0.027942659807416986, ,0.04183322046976378, ,0.08473965911388205, ,0.0005822223679990169, ,0.17220922036233235,-0.23735047215641608,0.10001266237,1.6125156653959922,0.16765298521219543,-1.3215415723145048, ,0.08868873042847737,0.03758294715186961,0.04126635108808291,0.06140564096375097,0.15645149693805,-0.060628583954448284, ,1.49080491065979
0.014056818469373759,0.022019355150893233,-0.08966957344794672, ,0.014906628574219196,0.02186464103371355,-0.09079439999377592, ,0.001418220162934565, ,0.013544123946824606,0.006383898140777331,-0.03906175733262772,0.03395941775883069,0.07763799786858795,-0.027942659807416986, ,0.04183322046976378, ,0.08473965911388205, ,0.000590338851444993, ,0.17220922036233235,-0.23735047215641608,0.10001266237,1.6125156653959922,0.16765298521219543,-1.3215415723145048, ,0.08868873042847737,0.03758294715186961,0.04126635108808291,0.06140564096375097,0.15645149693805,-0.060628583954448284, ,1.4935939311981201
0.014056818469373759,0.022019355150893233,-0.08966957344794672, ,0.01495918679898023,0.02187505022751701,-0.09090484591479936, ,0.0015365515222574171, ,0.013544123946824606,0.006383898140777331,-0.03906175733262772,0.03395941775883069,0.07763799786858795,-0.027942659807416986, ,0.04183322046976378, ,0.08473965911388205, ,0.0005994370502028048, ,0.17220922036233235,-0.23735047215641608,0.10001266237,1.6125156653959922,0.16765298521219543,-1.3215415723145048, ,0.08868873042847737,0.03758294715186961,0.04126635108808291,0.06140564096375097,0.15645149693805,-0.060628583954448284, ,1.4964919090270996
0.014146927312603901,0.02206261651333243,-0.0899359946043793, ,0.015011664943274126,0.02188525265786161,-0.09101496616914508, ,0.0013940619587011658, ,0.014611563619203516,0.00720187704663466,-0.042674737659623076,0.08486400527451485,0.09262409768338924,-0.028453359811166784, ,0.04567820113260292, ,0.12562237591690006, ,0.0006070049064742178, ,0.17280387079364762,-0.23709562197156667,0.10029395730000001,1.612725355339477,0.1688827137100844,-1.3222992972273508, ,0.09489694155847078,0.03841981439614202,0.04512411195467422,0.06675326388610658,0.17702184237825955,-0.11138828574943754, ,1.4995760917663574
0.014146927312603901,0.02206261651333243,-0.0899359946043793, ,0.015064063094464307,0.021895249478017683,-0.09112476115145905, ,0.0015107334875267239, ,0.014611563619203516,0.00720187704663466,-0.042674737659623076,0.08486400527451485,0.09262409768338924,-0.028453359811166784, ,0.04567820113260292, ,0.12562237591690006, ,0.0006155306478049018, ,0.17280387079364762,-0.23709562197156667,0.10029395730000001,1.612725355339477,0.1688827137100844,-1.3222992972273508, ,0.09489694155847078,0.03841981439614202,0.04512411195467422,0.06675326388610658,0.17702184237825955,-0.11138828574943754, ,1.5023350715637207
0.014146927312603901,0.02206261651333243,-0.0899359946043793, ,0.015116381340444582,0.021905041838897417,-0.09123423125673111, ,0.0016279094863134876, ,0.014611563619203516,0.00720187704663466,-0.042674737659623076,0.08486400527451485,0.09262409768338924,-0.028453359811166784, ,0.04567820113260292, ,0.12562237591690006, ,0.0006249921322769447, ,0.17280387079364762,-0.23709562197156667,0.10029395730000001,1.612725355339477,0.1688827137100844,-1.3222992972273508, ,0.09489694155847078,0.03841981439614202,0.04512411195467422,0.06675326388610658,0.17702184237825955,-0.11138828574943754, ,1.5051040649414062
0.014363977325984606,0.022164713207678932,-0.0905455034873037, ,0.015168619769637933,0.021914630889056437,-0.09134337688029547, ,0.001160427757105197, ,0.01716158361388318,0.0072967380362518215,-0.045681166577885964,-0.07051905837732547,-0.050013605525607394,0.016774035415547825, ,0.04934096997448017, ,0.08645287391793041, ,0.000629949869543873, ,0.17413990358088846,-0.23655503067037095,0.10093821343,1.6129350452829614,0.17038571520750423,-1.3225447492863247, ,0.10371250443548719,0.043630777728032547,0.048269125818181824,-0.010987366405050469,0.05792092249982569,0.025750739869502878, ,1.5082190036773682
0.014363977325984606,0.022164713207678932,-0.0905455034873037, ,0.015220778470995192,0.02192401777469576,-0.09145219841782866, ,0.0012704873830896842, ,0.01716158361388318,0.0072967380362518215,-0.045681166577885964,-0.07051905837732547,-0.050013605525607394,0.016774035415547825, ,0.04934096997448017, ,0.08645287391793041, ,0.0006358263604938346, ,0.17413990358088846,-0.23655503067037095,0.10093821343,1.6129350452829614,0.17038571520750423,-1.3225447492863247, ,0.10371250443548719,0.043630777728032547,0.048269125818181824,-0.010987366405050469,0.05792092249982569,0.025750739869502878, ,1.5113129615783691
0.014363977325984606,0.022164713207678932,-0.0905455034873037, ,0.015272857533993576,0.021933203639663616,-0.09156069626534914, ,0.0013821274504142867, ,0.01716158361388318,0.0072967380362518215,-0.045681166577885964,-0.07051905837732547,-0.050013605525607394,0.016774035415547825, ,0.04934096997448017, ,0.08645287391793041, ,0.0006426109158567478, ,0.17413990358088846,-0.23655503067037095,0.10093821343,1.6129350452829614,0.17038571520750423,-1.3225447492863247, ,0.10371250443548719,0.043630777728032547,0.048269125818181824,-0.010987366405050469,0.05792092249982569,0.025750739869502878, ,1.514206886291504
0.01449394125188273,0.022217484889936457,-0.09088897321249284, ,0.015324857048635659,0.021942189625457298,-0.09166887081921632, ,0.0011723688928452574, ,0.018177522619953087,0.0069761629483373775,-0.04677588932048987,-0.04501148390885103,-0.017828460220458937,0.010091250328101329, ,0.05066629056683921, ,0.04841140101822812, ,0.0006473835102440317, ,0.17495079053268203,-0.23620750769103085,0.10130117463,1.612725355339477,0.17106889770633144,-1.322530087623823, ,0.11572797751033022,0.05007754171950965,0.04946835875776398,0.005055126437145601,0.099567505976812,-0.0033885467329364746, ,1.5192949771881104
0.01449394125188273,0.022217484889936457,-0.09088897321249284, ,0.015376777105447907,0.021950976871224832,-0.09177672247612913, ,0.0012800486019931116, ,0.018177522619953087,0.0069761629483373775,-0.04677588932048987,-0.04501148390885103,-0.017828460220458937,0.010091250328101329, ,0.05066629056683921, ,0.04841140101822812, ,0.0006530323057060771, ,0.17495079053268203,-0.23620750769103085,0.10130117463,1.612725355339477,0.17106889770633144,-1.322530087623823, ,0.11572797751033022,0.05007754171950965,0.04946835875776398,0.005055126437145601,0.099567505976812,-0.0033885467329364746, ,1.5220530033111572
0.01449394125188273,0.022217484889936457,-0.09088897321249284, ,0.01542861779547937,0.021959566513766838,-0.09188425163312554, ,0.0013895039634678457, ,0.018177522619953087,0.0069761629483373775,-0.04677588932048987,-0.04501148390885103,-0.017828460220458937,0.010091250328101329, ,0.05066629056683921, ,0.04841140101822812, ,0.0006595497540048538, ,0.17495079053268203,-0.23620750769103085,0.10130117463,1.612725355339477,0.17106889770633144,-1.322530087623823, ,0.11572797751033022,0.05007754171950965,0.04946835875776398,0.005055126437145601,0.099567505976812,-0.0033885467329364746, ,1.524780035018921
0.01449394125188273,0.022217484889936457,-0.09088897321249284, ,0.015480379210300552,0.021967959687538396,-0.09199145868758138, ,0.0015002656082242617, ,0.018177522619953087,0.0069761629483373775,-0.04677588932048987,-0.04501148390885103,-0.017828460220458937,0.010091250328101329, ,0.05066629056683921, ,0.04841140101822812, ,0.0006669244544804626, ,0.17641038704591047,-0.23560513452684134,0.10187543110000001,1.612725355339477,0.1725718992037513,-1.3232656121236404, ,0.12308293327946923,0.049502838580318606,0.04293480194070081,0.005339966788446886,0.12569836941269788,-0.07582867832271173, ,1.5284218788146973
0.014713253396782432,0.02229610280733041,-0.09143059930510446, ,0.015532061442001852,0.02197615752465087,-0.09209834403720957, ,0.0011039450285585156, ,0.017630298091203606,0.005447020218922672,-0.04037302583578795,0.028047394564264454,0.0002765364573408798,0.015901316717392675, ,0.044390073836244645, ,0.028046845627196695, ,0.0006707246333854892, ,0.17641038704591047,-0.23560513452684134,0.10187543110000001,1.612725355339477,0.1725718992037513,-1.3232656121236404, ,0.12308293327946923,0.049502838580318606,0.04293480194070081,0.005339966788446886,0.12569836941269788,-0.07582867832271173, ,1.531440019607544
0.014713253396782432,0.02229610280733041,-0.09143059930510446, ,0.01558366458319254,0.021984161154873595,-0.09220490808005895, ,0.0012060171254741215, ,0.017630298091203606,0.005447020218922672,-0.04037302583578795,0.028047394564264454,0.0002765364573408798,0.015901316717392675, ,0.044390073836244645, ,0.028046845627196695, ,0.0006753392238345291, ,0.17641038704591047,-0.23560513452684134,0.10187543110000001,1.612725355339477,0.1725718992037513,-1.3232656121236404, ,0.12308293327946923,0.049502838580318606,0.04293480194070081,0.005339966788446886,0.12569836941269788,-0.07582867832271173, ,1.5344960689544678
0.014713253396782432,0.02229610280733041,-0.09143059930510446, ,0.015635188726999174,0.02199197170563582,-0.09231115121451329, ,0.0013106609574117017, ,0.017630298091203606,0.005447020218922672,-0.04037302583578795,0.028047394564264454,0.0002765364573408798,0.015901316717392675, ,0.044390073836244645, ,0.028046845627196695, ,0.0006807693241215135, ,0.17641038704591047,-0.23560513452684134,0.10187543110000001,1.612725355339477,0.1725718992037513,-1.3232656121236404, ,0.12308293327946923,0.049502838580318606,0.04293480194070081,0.005339966788446886,0.12569836941269788,-0.07582867832271173, ,1.5372869968414307
0.014897931698123507,0.022338541613276305,-0.09180606076143474, ,0.01568663396706466,0.021999590302028433,-0.0924170738392906, ,0.0010536964656581412, ,0.017462261893261923,0.0026013725766925355,-0.03164270066779887,-0.04351227582815374,-0.049519619286514896,-0.00438587247523385, ,0.03623476556104033, ,0.06592024817538361, ,0.0006839297236260612, ,0.17776186529889976,-0.23504909775989719,0.10227598471,1.613144735226446,0.1736649912018748,-1.3236668829123683, ,0.13253762787495918,0.056960949314808385,0.03381913273885351,0.014313784013295796,0.08201426276798543,-0.010046665528413662, ,1.5400309562683105
0.014897931698123507,0.022338541613276305,-0.09180606076143474, ,0.015738000397546536,0.022007018066805776,-0.09252267635344145, ,0.00115289253112414, ,0.017462261893261923,0.0026013725766925355,-0.03164270066779887,-0.04351227582815374,-0.049519619286514896,-0.00438587247523385, ,0.03623476556104033, ,0.06592024817538361, ,0.0006878705875546164, ,0.17776186529889976,-0.23504909775989719,0.10227598471,1.613144735226446,0.1736649912018748,-1.3236668829123683, ,0.13253762787495918,0.056960949314808385,0.03381913273885351,0.014313784013295796,0.08201426276798543,-0.010046665528413662, ,1.5427749156951904
0.014897931698123507,0.022338541613276305,-0.09180606076143474, ,0.015789288113115987,0.022014256120387644,-0.09262795915634911, ,0.0012550674527725995, ,0.017462261893261923,0.0026013725766925355,-0.03164270066779887,-0.04351227582815374,-0.049519619286514896,-0.00438587247523385, ,0.03623476556104033, ,0.06592024817538361, ,0.0006925972280980995, ,0.17776186529889976,-0.23504909775989719,0.10227598471,1.613144735226446,0.1736649912018748,-1.3236668829123683, ,0.13253762787495918,0.056960949314808385,0.03381913273885351,0.014313784013295796,0.08201426276798543,-0.010046665528413662, ,1.5455329418182373
0.015077899233609568,0.022361044104788747,-0.09212230879140577, ,0.0158404972089564,0.022021305580860656,-0.09273292264772795, ,0.0010343245226603513, ,0.017332970439997347,0.0018956227892060616,-0.03035703197723058,0.002194673382196109,-0.031151651235452455,-0.024506512253766228, ,0.035008208187500535, ,0.031228451532870422, ,0.000695421420615143, ,0.17915195721626018,-0.23443900186283345,0.10261431640000002,1.6135641151134148,0.1746214467002329,-1.3241200932776809, ,0.1340352281899305,0.0610662429591189,0.032441571323828924,0.03807274186067793,0.09680666459821646,-0.055615641877408625, ,1.5483980178833008
0.015077899233609568,0.022361044104788747,-0.09212230879140577, ,0.015891627780762124,0.0220281675639806,-0.09283756722762193, ,0.001133382358451811, ,0.017332970439997347,0.0018956227892060616,-0.03035703197723058,0.002194673382196109,-0.031151651235452455,-0.024506512253766228, ,0.035008208187500535, ,0.031228451532870422, ,0.0006990112643679025, ,0.17915195721626018,-0.23443900186283345,0.10261431640000002,1.6135641151134148,0.1746214467002329,-1.3241200932776809, ,0.1340352281899305,0.0610662429591189,0.032441571323828924,0.03807274186067793,0.09680666459821646,-0.055615641877408625, ,1.551123857498169
0.015077899233609568,0.022361044104788747,-0.09212230879140577, ,0.01594267992473712,0.022034843183173742,-0.09294189329640483, ,0.0012353021678294235, ,0.017332970439997347,0.0018956227892060616,-0.03035703197723058,0.002194673382196109,-0.031151651235452455,-0.024506512253766228, ,0.035008208187500535, ,0.031228451532870422, ,0.0007033713530139312, ,0.17915195721626018,-0.23443900186283345,0.10261431640000002,1.6135641151134148,0.1746214467002329,-1.3241200932776809, ,0.1340352281899305,0.0610662429591189,0.032441571323828924,0.03807274186067793,0.09680666459821646,-0.055615641877408625, ,1.553839921951294
0.015077899233609568,0.022361044104788747,-0.09212230879140577, ,0.015993653737593646,0.022041333549539088,-0.09304590125477846, ,0.0013393446864433372, ,0.017332970439997347,0.0018956227892060616,-0.03035703197723058,0.002194673382196109,-0.031151651235452455,-0.024506512253766228, ,0.035008208187500535, ,0.031228451532870422, ,0.000708500170219007, ,0.17915195721626018,-0.23443900186283345,0.10261431640000002,1.6135641151134148,0.1746214467002329,-1.3241200932776809, ,0.1340352281899305,0.0610662429591189,0.032441571323828924,0.03807274186067793,0.09680666459821646,-0.055615641877408625, ,1.5565578937530518
0.01518561171973585,0.022371026304233495,-0.09230667806113672, ,0.01604454931655105,0.022047639771849897,-0.09314959150377167, ,0.0012461363153060145, ,0.01766166425810131,0.0016233023806207514,-0.030343510935692226,-0.0031465128165098005,-0.024150010615033513,-0.03370204529638089, ,0.035146808544863586, ,0.024353599983669046, ,0.000712801259379703, ,0.1799860123666764,-0.23405286521912222,0.10281135248,1.6137738050568995,0.17516799269929464,-1.324320728672045, ,0.13773141009937706,0.06390366434913858,0.032441571323828924,0.04914564678933644,0.10518330528113869,-0.051083674223706736, ,1.559311866760254
0.01518561171973585,0.022371026304233495,-0.09230667806113672, ,0.01609536675933434,0.02205376295655556,-0.09325296444473972, ,0.0013504696159659059, ,0.01766166425810131,0.0016233023806207514,-0.030343510935692226,-0.0031465128165098005,-0.024150010615033513,-0.03370204529638089, ,0.035146808544863586, ,0.024353599983669046, ,0.0007178621193526095, ,0.1799860123666764,-0.23405286521912222,0.10281135248,1.6137738050568995,0.17516799269929464,-1.324320728672045, ,0.13773141009937706,0.06390366434913858,0.032441571323828924,0.04914564678933644,0.10518330528113869,-0.051083674223706736, ,1.5630650520324707
0.01518561171973585,0.022371026304233495,-0.09230667806113672, ,0.01614610616417299,0.022059704207783484,-0.09335602047936338, ,0.001456224754707325, ,0.01766166425810131,0.0016233023806207514,-0.030343510935692226,-0.0031465128165098005,-0.024150010615033513,-0.03370204529638089, ,0.035146808544863586, ,0.024353599983669046, ,0.0007236759983711506, ,0.1799860123666764,-0.23405286521912222,0.10281135248,1.6137738050568995,0.17516799269929464,-1.324320728672045, ,0.13773141009937706,0.06390366434913858,0.032441571323828924,0.04914564678933644,0.10518330528113869,-0.051083674223706736, ,1.5659449100494385
0.015401733635285115,0.022389792952510437,-0.09267649363303383, ,0.0161967676297995,0.022065464627340735,-0.09345876000964734, ,0.0011615543891359166, ,0.017731572882331816,0.0013871816462005357,-0.030502079120025696,-0.0032663904275477074,-0.04206675803964705,0.03882189217345059, ,0.03530877766852469, ,0.04219306857482356, ,0.0007270969232990003, ,0.18166184540038313,-0.23327286919882553,0.10320672093000001,1.613983495000384,0.1763977211971836,-1.3249967748447506, ,0.13693642360529693,0.06495341653557206,0.03257425668711657,-0.027256858169375633,0.10413708148525341,-0.06533240428730946, ,1.5690670013427734
0.015401733635285115,0.022389792952510437,-0.09267649363303383, ,0.016247351255448357,0.022071045314716084,-0.09356118343792041, ,0.0012646522316432623, ,0.017731572882331816,0.0013871816462005357,-0.030502079120025696,-0.0032663904275477074,-0.04206675803964705,0.03882189217345059, ,0.03530877766852469, ,0.04219306857482356, ,0.0007312640187125217, ,0.18166184540038313,-0.23327286919882553,0.10320672093000001,1.613983495000384,0.1763977211971836,-1.3249967748447506, ,0.13693642360529693,0.06495341653557206,0.03257425668711657,-0.027256858169375633,0.10413708148525341,-0.06533240428730946, ,1.5719220638275146
0.015401733635285115,0.022389792952510437,-0.09267649363303383, ,0.01629785714085431,0.0220764473670816,-0.09366329116683272, ,0.001369303533133884, ,0.017731572882331816,0.0013871816462005357,-0.030502079120025696,-0.0032663904275477074,-0.04206675803964705,0.03882189217345059, ,0.03530877766852469, ,0.04219306857482356, ,0.0007361720149773014, ,0.18166184540038313,-0.23327286919882553,0.10320672093000001,1.613983495000384,0.1763977211971836,-1.3249967748447506, ,0.13693642360529693,0.06495341653557206,0.03257425668711657,-0.027256858169375633,0.10413708148525341,-0.06533240428730946, ,1.5750479698181152
0.015401733635285115,0.022389792952510437,-0.09267649363303383, ,0.016348285386251486,0.022081671879294565,-0.09376508359935665, ,0.0014751023448547258, ,0.017731572882331816,0.0013871816462005357,-0.030502079120025696,-0.0032663904275477074,-0.04206675803964705,0.03882189217345059, ,0.03530877766852469, ,0.04219306857482356, ,0.0007418127045183505, ,0.1832604511053476,-0.23246970497990618,0.10359690422000001,1.6137738050568995,0.17776408619483802,-1.325539202700731, ,0.14291708066034756,0.07277372818901133,0.03611975401360545,0.0052899695051042295,0.11977193980838038,-0.0516453707181428, ,1.5779039859771729
0.015609898853121097,0.02240391526642751,-0.09304282673486647, ,0.016398636092371837,0.02208671994389928,-0.0938665611387848, ,0.0011837473013330856, ,0.018910007104834856,0.001465467814961699,-0.03393020292429071,-0.018935880751747784,-0.025277212960326177,0.009743086128282412, ,0.03887151444316441, ,0.03158259178587152, ,0.000745160693888159, ,0.1832604511053476,-0.23246970497990618,0.10359690422000001,1.6137738050568995,0.17776408619483802,-1.325539202700731, ,0.14291708066034756,0.07277372818901133,0.03611975401360545,0.0052899695051042295,0.11977193980838038,-0.0516453707181428, ,1.5812928676605225
0.015609898853121097,0.02240391526642751,-0.09304282673486647, ,0.01644890936044392,0.022091592651128932,-0.09396772418872905, ,0.0012872137924938986, ,0.018910007104834856,0.001465467814961699,-0.03393020292429071,-0.018935880751747784,-0.025277212960326177,0.009743086128282412, ,0.03887151444316441, ,0.03158259178587152, ,0.0007492362810957209, ,0.1832604511053476,-0.23246970497990618,0.10359690422000001,1.6137738050568995,0.17776408619483802,-1.325539202700731, ,0.14291708066034756,0.07277372818901133,0.03611975401360545,0.0052899695051042295,0.11977193980838038,-0.0516453707181428, ,1.5839910507202148
0.015609898853121097,0.02240391526642751,-0.09304282673486647, ,0.01649910529219147,0.02209629108890718,-0.09406857315312003, ,0.0013919326278377436, ,0.018910007104834856,0.001465467814961699,-0.03393020292429071,-0.018935880751747784,-0.025277212960326177,0.009743086128282412, ,0.03887151444316441, ,0.03158259178587152, ,0.0007540325224893182, ,0.1832604511053476,-0.23246970497990618,0.10359690422000001,1.6137738050568995,0.17776408619483802,-1.325539202700731, ,0.14291708066034756,0.07277372818901133,0.03611975401360545,0.0052899695051042295,0.11977193980838038,-0.0516453707181428, ,1.5867509841918945
0.015803438661860115,0.0224228074689493,-0.09339688449713393, ,0.016549223989832395,0.022100816342850268,-0.09416910843620566, ,0.0011208050021215537, ,0.019800140491373554,0.0019822553259843116,-0.03555028568302041,-0.01831051480108068,-0.05182302522372297,0.004040148255468988, ,0.04074061501499321, ,0.054962206223849334, ,0.0007567493556717792, ,0.1847046021528276,-0.23175149082260332,0.10397412461000001,1.6137738050568995,0.178993814692727,-1.3263786063537175, ,0.14554745637802266,0.07113713760005305,0.03792574171428572,0.005371794904410978,0.09513241161051109,-0.05064798065523979, ,1.5894920825958252
0.015803438661860115,0.0224228074689493,-0.09339688449713393, ,0.01659926555607708,0.022105169496268593,-0.09426933044255048, ,0.0012228639560153472, ,0.019800140491373554,0.0019822553259843116,-0.03555028568302041,-0.01831051480108068,-0.05182302522372297,0.004040148255468988, ,0.04074061501499321, ,0.054962206223849334, ,0.0007601766689095995, ,0.1847046021528276,-0.23175149082260332,0.10397412461000001,1.6137738050568995,0.178993814692727,-1.3263786063537175, ,0.14554745637802266,0.07113713760005305,0.03792574171428572,0.005371794904410978,0.09513241161051109,-0.05064798065523979, ,1.5922858715057373
0.015803438661860115,0.0224228074689493,-0.09339688449713393, ,0.01664923009412732,0.02210935163016864,-0.09436923957703487, ,0.0013263076985268033, ,0.019800140491373554,0.0019822553259843116,-0.03555028568302041,-0.01831051480108068,-0.05182302522372297,0.004040148255468988, ,0.04074061501499321, ,0.054962206223849334, ,0.0007643090121914769, ,0.1847046021528276,-0.23175149082260332,0.10397412461000001,1.6137738050568995,0.178993814692727,-1.3263786063537175, ,0.14554745637802266,0.07113713760005305,0.03792574171428572,0.005371794904410978,0.09513241161051109,-0.05064798065523979, ,1.5950000286102295
0.016011540086076196,0.022442446144779797,-0.09376529098993498, ,0.016699117707674994,0.0221133638232547,-0.09446883624485342, ,0.0010373206282447344, ,0.019800140491373554,0.0019822553259843116,-0.03555028568302041,-0.01831051480108068,-0.05182302522372297,0.004040148255468988, ,0.04074061501499321, ,0.054962206223849334, ,0.000766287357235341, ,0.18619508959755293,-0.23100238573380352,0.10436690048000001,1.6141931849438687,0.17954036069178875,-1.3264158842678004, ,0.1508695414284114,0.07519567476899429,0.03847539014492755,0.021669145275814542,0.03892500161153461,0.018128508194340538, ,1.598435878753662
0.016011540086076196,0.022442446144779797,-0.09376529098993498, ,0.016748928500900668,0.02211720715193087,-0.09456812085151443, ,0.0011375666413139993, ,0.021038072026827056,0.001691927739707699,-0.036041072514273416,-0.08810826997895126,-0.10804081508884368,-0.02561509555817318, ,0.04176627828836884, ,0.13941242466814519, ,0.0007689584312215184, ,0.18619508959755293,-0.23100238573380352,0.10436690048000001,1.6141931849438687,0.17954036069178875,-1.3264158842678004, ,0.1508695414284114,0.07519567476899429,0.03847539014492755,0.021669145275814542,0.03892500161153461,0.018128508194340538, ,1.601423978805542
0.016011540086076196,0.022442446144779797,-0.09376529098993498, ,0.016798662578472404,0.02212088269030262,-0.09466709380283893, ,0.0012394406749226784, ,0.021038072026827056,0.001691927739707699,-0.036041072514273416,-0.08810826997895126,-0.10804081508884368,-0.02561509555817318, ,0.04176627828836884, ,0.13941242466814519, ,0.0007723190186765266, ,0.18619508959755293,-0.23100238573380352,0.10436690048000001,1.6141931849438687,0.17954036069178875,-1.3264158842678004, ,0.1508695414284114,0.07519567476899429,0.03847539014492755,0.021669145275814542,0.03892500161153461,0.018128508194340538, ,1.6042490005493164
0.01613666494859344,0.02245295225492621,-0.09398639445608084, ,0.016848320045544315,0.02212439151017874,-0.09476575550495964, ,0.0011053545967311263, ,0.020030091864414207,0.0014800476489911219,-0.03568104585975671,-0.020269990348777387,-0.043835225549763386,-0.02789095849432314, ,0.040945477830722866, ,0.04829432340471543, ,0.0007746809731308146, ,0.1871063720767114,-0.23053902176135008,0.10460282526,1.6146125648308374,0.1800869066908505,-1.3267798771424455, ,0.14577103157983223,0.07622244301885203,0.03801625661097852,0.037752102828015985,0.09598745994180992,-0.047730430870325184, ,1.6109318733215332
0.01613666494859344,0.02245295225492621,-0.09398639445608084, ,0.016897901007755373,0.02212773468107304,-0.09486410636431994, ,0.0012064928520202896, ,0.020030091864414207,0.0014800476489911219,-0.03568104585975671,-0.020269990348777387,-0.043835225549763386,-0.02789095849432314, ,0.040945477830722866, ,0.04829432340471543, ,0.0007777219018553884, ,0.1871063720767114,-0.23053902176135008,0.10460282526,1.6146125648308374,0.1800869066908505,-1.3267798771424455, ,0.14577103157983223,0.07622244301885203,0.03801625661097852,0.037752102828015985,0.09598745994180992,-0.047730430870325184, ,1.6153459548950195
0.016415574377381954,0.02246617845390676,-0.09446912105234341, ,0.016947405571227994,0.022130913270206432,-0.09496214678767277, ,0.0007989502724490274, ,0.0192642498782754,0.0008174320825301854,-0.03224781901119559,0.00825828315103122,-0.04215998738658686,-0.02788517070939657, ,0.0375726143562171, ,0.04296078331503923, ,0.0007778703519993998, ,0.18916834175412936,-0.2294501164260844,0.10511745239,1.6146125648308374,0.18158990818827037,-1.327678759122544, ,0.14291708066034756,0.07390727535706447,0.034477947012987016,0.037752102828015985,0.09480894757540713,-0.07390660816820246, ,1.6188280582427979
0.016415574377381954,0.02246617845390676,-0.09446912105234341, ,0.016996833842566922,0.0221339283425084,-0.09505987718207985, ,0.0008928860549994695, ,0.0192642498782754,0.0008174320825301854,-0.03224781901119559,0.00825828315103122,-0.04215998738658686,-0.02788517070939657, ,0.0375726143562171, ,0.04296078331503923, ,0.0007786690721591226, ,0.18916834175412936,-0.2294501164260844,0.10511745239,1.6146125648308374,0.18158990818827037,-1.327678759122544, ,0.14291708066034756,0.07390727535706447,0.034477947012987016,0.037752102828015985,0.09480894757540713,-0.07390660816820246, ,1.6217620372772217
0.016415574377381954,0.02246617845390676,-0.09446912105234341, ,0.017046185928857628,0.022136780960618985,-0.09515729795491099, ,0.0009898288168498264, ,0.0192642498782754,0.0008174320825301854,-0.03224781901119559,0.00825828315103122,-0.04215998738658686,-0.02788517070939657, ,0.0375726143562171, ,0.04296078331503923, ,0.0007801253462604378, ,0.18916834175412936,-0.2294501164260844,0.10511745239,1.6146125648308374,0.18158990818827037,-1.327678759122544, ,0.14291708066034756,0.07390727535706447,0.034477947012987016,0.037752102828015985,0.09480894757540713,-0.07390660816820246, ,1.6245100498199463
0.016415574377381954,0.02246617845390676,-0.09446912105234341, ,0.017095461937665247,0.022139472184890572,-0.09525440951384218, ,0.0010888810993885155, ,0.0192642498782754,0.0008174320825301854,-0.03224781901119559,0.00825828315103122,-0.04215998738658686,-0.02788517070939657, ,0.0375726143562171, ,0.04296078331503923, ,0.0007822401116928218, ,0.18916834175412936,-0.2294501164260844,0.10511745239,1.6146125648308374,0.18158990818827037,-1.327678759122544, ,0.14291708066034756,0.07390727535706447,0.034477947012987016,0.037752102828015985,0.09480894757540713,-0.07390660816820246, ,1.627258062362671
0.016607415101918814,0.02247123772589426,-0.0947765856890517, ,0.017144661977033154,0.022142003073389736,-0.0953512122668557, ,0.0008527750964636734, ,0.01855344899600378,-3.334835256375157e-05,-0.02808608152176471,-0.0703457103536211,-0.09377173853395006,-0.03484211752510613, ,0.03366095003126242, ,0.11722474327667676, ,0.000782719941521195, ,0.19058932460298667,-0.2287241795359073,0.10544671005000002,1.6146125648308374,0.18227309068709754,-1.3280724911607447, ,0.1375317993601026,0.0718372002713632,0.030111174896030254,0.031275063216399446,0.03768060725882025,0.00558348247258229, ,1.6299998760223389
0.016607415101918814,0.02247123772589426,-0.0947765856890517, ,0.017193786155481686,0.022144374681898893,-0.09544770662223856, ,0.000949249055278934, ,0.01855344899600378,-3.334835256375157e-05,-0.02808608152176471,-0.0703457103536211,-0.09377173853395006,-0.03484211752510613, ,0.03366095003126242, ,0.11722474327667676, ,0.0007838451382357742, ,0.19058932460298667,-0.2287241795359073,0.10544671005000002,1.6146125648308374,0.18227309068709754,-1.3280724911607447, ,0.1375317993601026,0.0718372002713632,0.030111174896030254,0.031275063216399446,0.03768060725882025,0.00558348247258229, ,1.632767915725708
0.016607415101918814,0.02247123772589426,-0.0947765856890517, ,0.017242834582006816,0.02214658806391842,-0.09554389298858142, ,0.0010478147787695675, ,0.01855344899600378,-3.334835256375157e-05,-0.02808608152176471,-0.0703457103536211,-0.09377173853395006,-0.03484211752510613, ,0.03366095003126242, ,0.11722474327667676, ,0.0007856167465615044, ,0.19058932460298667,-0.2287241795359073,0.10544671005000002,1.6146125648308374,0.18227309068709754,-1.3280724911607447, ,0.1375317993601026,0.0718372002713632,0.030111174896030254,0.031275063216399446,0.03768060725882025,0.00558348247258229, ,1.6354758739471436
0.016607415101918814,0.02247123772589426,-0.0947765856890517, ,0.0172918073660788,0.02214864427066805,-0.09563977177477799, ,0.001147845602504225, ,0.01784296401642572,-0.000689202251384115,-0.028228083386092236,-0.03579310445317307,-0.05511663449594655,-0.02211812871367069, ,0.03366095003126242, ,0.06571888466574988, ,0.0007880316056011225, ,0.1918635755272337,-0.22801368811147865,0.10572930127,1.6146125648308374,0.18281963668615933,-1.32843648403539, ,0.13253762787495918,0.0779761228911017,0.03005436135849057,0.025452109693559283,0.07367453451680502,-0.03602937329153296, ,1.6386849880218506
0.016778730239416218,0.022466761561593693,-0.09504124183206829, ,0.017340704617641083,0.022150544351089055,-0.09573534339002375, ,0.0009474098895181312, ,0.01784296401642572,-0.000689202251384115,-0.028228083386092236,-0.03579310445317307,-0.05511663449594655,-0.02211812871367069, ,0.03340166247789102, ,0.06571888466574988, ,0.0007890870909250762, ,0.1918635755272337,-0.22801368811147865,0.10572930127,1.6146125648308374,0.18281963668615933,-1.32843648403539, ,0.13253762787495918,0.0779761228911017,0.03005436135849057,0.025452109693559283,0.07367453451680502,-0.03602937329153296, ,1.6425459384918213
0.016778730239416218,0.022466761561593693,-0.09504124183206829, ,0.017389526447108592,0.02215228935184582,-0.09583060824381497, ,0.0010464531093311938, ,0.01784296401642572,-0.000689202251384115,-0.028228083386092236,-0.03579310445317307,-0.05511663449594655,-0.02211812871367069, ,0.03340166247789102, ,0.06571888466574988, ,0.0007907802884145902, ,0.1918635755272337,-0.22801368811147865,0.10572930127,1.6146125648308374,0.18281963668615933,-1.32843648403539, ,0.13253762787495918,0.0779761228911017,0.03005436135849057,0.025452109693559283,0.07367453451680502,-0.03602937329153296, ,1.6453678607940674
0.016778730239416218,0.022466761561593693,-0.09504124183206829, ,0.017438272965366774,0.022153880317327734,-0.0959255667459484, ,0.0011467004114749325, ,0.01784296401642572,-0.000689202251384115,-0.028228083386092236,-0.03579310445317307,-0.05511663449594655,-0.02211812871367069, ,0.03340166247789102, ,0.06571888466574988, ,0.0007931065637287102, ,0.1918635755272337,-0.22801368811147865,0.10572930127,1.6146125648308374,0.18281963668615933,-1.32843648403539, ,0.13253762787495918,0.0779761228911017,0.03005436135849057,0.025452109693559283,0.07367453451680502,-0.03602937329153296, ,1.6482188701629639
0.016919535326626878,0.022461632894444392,-0.09527163971477391, ,0.017486944283770227,0.022155318289651133,-0.09602021930651884, ,0.0009880045379112182, ,0.016984757231779925,-0.0003039060062354129,-0.02844154359365746,1.9085628970771073e-06,-0.008270155261680226,-0.008135902101152682, ,0.0331284732378817, ,0.008269030224989935, ,0.0007943721349896356, ,0.19291386719812825,-0.22738814674866648,0.10597430008000001,1.6146125648308374,0.18363945568475198,-1.3289416339772873, ,0.12669818632639623,0.07408036031106227,0.030282911634980987,0.021945344018046847,0.11664685782347092,-0.06863171991860965, ,1.6513590812683105
0.016919535326626878,0.022461632894444392,-0.09527163971477391, ,0.01753554051414113,0.022156604308660767,-0.09611456633591993, ,0.0010876718796706433, ,0.016984757231779925,-0.0003039060062354129,-0.02844154359365746,1.9085628970771073e-06,-0.008270155261680226,-0.008135902101152682, ,0.0331284732378817, ,0.008269030224989935, ,0.0007962643914069323, ,0.19291386719812825,-0.22738814674866648,0.10597430008000001,1.6146125648308374,0.18363945568475198,-1.3289416339772873, ,0.12669818632639623,0.07408036031106227,0.030282911634980987,0.021945344018046847,0.11664685782347092,-0.06863171991860965, ,1.6543869972229004
0.016919535326626878,0.022461632894444392,-0.09527163971477391, ,0.01758406176876829,0.02215773941193199,-0.09620860824484172, ,0.0011882157494984078, ,0.016984757231779925,-0.0003039060062354129,-0.02844154359365746,1.9085628970771073e-06,-0.008270155261680226,-0.008135902101152682, ,0.0331284732378817, ,0.008269030224989935, ,0.0007987769001126469, ,0.19291386719812825,-0.22738814674866648,0.10597430008000001,1.6146125648308374,0.18363945568475198,-1.3289416339772873, ,0.12669818632639623,0.07408036031106227,0.030282911634980987,0.021945344018046847,0.11664685782347092,-0.06863171991860965, ,1.6572060585021973
0.01712899276128141,0.022454389262045432,-0.09560951757857016, ,0.017632508160405663,0.02215872463477223,-0.09630234544427053, ,0.0009060661015989959, ,0.01564160031381327,-0.000992567279421781,-0.024377145621271436,-0.008074889060779175,-0.025150337839562262,-0.009700537263665413, ,0.028980857109856765, ,0.02641466862465166, ,0.000799460270822751, ,0.1944429683072247,-0.22650003246813064,0.10632559467000001,1.6146125648308374,0.18500582068240637,-1.3298107767938299, ,0.11803102183889398,0.07034613903518962,0.025942689771986976,0.018022951858900575,0.09115775723159548,-0.0578593792337503, ,1.660032033920288
0.01712899276128141,0.022454389262045432,-0.09560951757857016, ,0.01768087980227094,0.022159561010223164,-0.09639577834548778, ,0.0010048427726160178, ,0.01564160031381327,-0.000992567279421781,-0.024377145621271436,-0.008074889060779175,-0.025150337839562262,-0.009700537263665413, ,0.028980857109856765, ,0.02641466862465166, ,0.0008007601600746071, ,0.1944429683072247,-0.22650003246813064,0.10632559467000001,1.6146125648308374,0.18500582068240637,-1.3298107767938299, ,0.11803102183889398,0.07034613903518962,0.025942689771986976,0.018022951858900575,0.09115775723159548,-0.0578593792337503, ,1.6628389358520508
0.01712899276128141,0.022454389262045432,-0.09560951757857016, ,0.017729176808044384,0.022160249569062165,-0.09648890736006856, ,0.0011045657231604099, ,0.01564160031381327,-0.000992567279421781,-0.024377145621271436,-0.008074889060779175,-0.025150337839562262,-0.009700537263665413, ,0.028980857109856765, ,0.02641466862465166, ,0.0008026708868864676, ,0.1944429683072247,-0.22650003246813064,0.10632559467000001,1.6146125648308374,0.18500582068240637,-1.3298107767938299, ,0.11803102183889398,0.07034613903518962,0.025942689771986976,0.018022951858900575,0.09115775723159548,-0.0578593792337503, ,1.6656100749969482
0.01712899276128141,0.022454389262045432,-0.09560951757857016, ,0.017777399291867484,0.022160791339804274,-0.09658173289988127, ,0.001204920495237371, ,0.01564160031381327,-0.000992567279421781,-0.024377145621271436,-0.008074889060779175,-0.025150337839562262,-0.009700537263665413, ,0.028980857109856765, ,0.02641466862465166, ,0.0008051849469386608, ,0.1944429683072247,-0.22650003246813064,0.10632559467000001,1.6146125648308374,0.18500582068240637,-1.3298107767938299, ,0.11803102183889398,0.07034613903518962,0.025942689771986976,0.018022951858900575,0.09115775723159548,-0.0578593792337503, ,1.668381929397583
0.01728600959675525,0.022448067757241986,-0.09587858463364463, ,0.01782554736834163,0.022161187348704182,-0.0966742553770866, ,0.0010032414005316534, ,0.016235960622167353,-0.00020788703820418824,-0.03024554897055884,0.012564166884342538,-0.016385459292147134,0.008159468661947654, ,0.034328455643615766, ,0.020647427317359336, ,0.0008064151112466918, ,0.19562454643698104,-0.22575092737933086,0.10661985250000001,1.614822254774322,0.18596227618076444,-1.3303456658992832, ,0.1121713257192326,0.07549478246497278,0.03192146597194389,0.0,0.09844347496986812,-0.08664908277215783, ,1.6711440086364746
0.01728600959675525,0.022448067757241986,-0.09587858463364463, ,0.01787362115252674,0.02216143861975763,-0.09676647520413598, ,0.0011026301592549851, ,0.016235960622167353,-0.00020788703820418824,-0.03024554897055884,0.012564166884342538,-0.016385459292147134,0.008159468661947654, ,0.034328455643615766, ,0.020647427317359336, ,0.0008082435991973603, ,0.19562454643698104,-0.22575092737933086,0.10661985250000001,1.614822254774322,0.18596227618076444,-1.3303456658992832, ,0.1121713257192326,0.07549478246497278,0.03192146597194389,0.0,0.09844347496986812,-0.08664908277215783, ,1.6739308834075928
