NicholasDascanio/dvrk_moveit_final/test/execution/third_experiment_notsharpbends/thirdexp_400vel3.0/thirdexp_400vel3.0_19.csv
Current Position (x),Current Position (y),Current Position (z), ,Planned Position (x),Planned Position (y),Planned Position (z), ,Position Error,,Cartesian linear Velocity(x),Cartesian linear Velocity(y),Cartesian linear Velocity(z),Cartesian Angular Velocity(x),Cartesian Angular Velocity(y),Cartesian Angular Velocity(z), ,Total Linear Velocity, ,Total Angular Velocity, ,MSE, ,Joint 1 Position,Joint 2 Position,Joint 3 Position,Joint 4 Position,Joint 5 Position,Joint 6 Position, ,Joint 1 Velocity,Joint 2 Velocity,Joint 3 Velocity,Joint 4 Velocity,Joint 5 Velocity,Joint 6 Velocity, ,Time Stamp
0.009419710488350882,0.020269949941831282,-0.0755455697873816, ,0.00958479342998789,0.020214216809747422,-0.0757330293347188, ,0.00025592897749038583, ,0.0002525623395048098,0.00034101384830881147,-0.0013450516581263081,0.22358910825438688,-0.0004611634404202077,-0.07184733050909635, ,0.0014104049571321204, ,0.22358958383991484, ,2.1327414790865485e-05, ,0.17845691125757998,-0.25347553839779685,0.08618772952,1.7049889304726675,0.4769980206811526,-1.2579400181596487, ,0.0001386839699017325,9.297527384588778e-05,0.0014097026115087242,-0.0013558800801735866,0.0,-0.23555086007513992, ,0.027875900268554688
0.009448020219637213,0.02028058691222279,-0.07562252030455559, ,0.009623778343000952,0.020217995169452427,-0.07592180611792408, ,0.00035267639880635004, ,0.0018673195584982716,0.0006767636251009617,-0.004448679782325767,0.188210941989309,-0.12241632113609374,-0.10021401882593889, ,0.004871923967334056, ,0.22451974158914365, ,2.766388074076072e-05, ,0.17847235672332842,-0.25338286560330614,0.08626161805,1.704779240529183,0.4753583826839673,-1.2646891985892073, ,0.00041305897915205387,0.004870730700618678,0.004196209567966281,-0.0010536840906175068,-0.126835132827277,-0.21476641542344121, ,0.0581049919128418
0.009516895992866916,0.020317819939230337,-0.07583421574626759, ,0.009662842056371372,0.02022176272280172,-0.076110056187874, ,0.0003265198179377242, ,0.0027368288004207264,0.0016305493010139466,-0.008881602181159236,0.19452493678205413,-0.13175776416332008,-0.10549115913688656, ,0.00943566532949436, ,0.23494692888419166, ,2.9222662319826878e-05, ,0.17848007945620264,-0.2531897972814505,0.08646902445000001,1.704779240529183,0.4716691971903004,-1.2709106128252874, ,0.00027455001468285826,0.007347853354791774,0.008771371982378857,-0.0010464179253882849,-0.136444179670716,-0.22459667171929426, ,0.0867609977722168
0.009581207116656984,0.020339726042579734,-0.0760518904775545, ,0.009701984075584265,0.020225519410305315,-0.07629777991252484, ,0.00029680270027952554, ,0.0009253935813133671,0.00011844716456866872,-0.004360904482842083,-0.06468203437525,-0.020617623343241732,0.008652085668517424, ,0.004459581922064277, ,0.06788852599421807, ,2.933161653604728e-05, ,0.17848780218907687,-0.2527959379048651,0.08668031972000001,1.7045695505856984,0.46866319419546076,-1.2715632110693076, ,0.0007699315059386732,0.015237145401167433,0.0062221920000000005,-0.0007146281968560633,0.027088414875912126,0.13232700488946048, ,0.11639404296875
0.009594225543929706,0.020342000664285008,-0.07615500621990756, ,0.009741203907338505,0.02022926517298539,-0.07648497766097709, ,0.0003784086180709884, ,0.0003777234038454638,-0.00020336105888635566,-0.004659616718422302,-0.06819524737171047,0.04557253862410281,0.027340381464199624, ,0.004679322456583282, ,0.08202102193058512, ,3.0968009857403345e-05, ,0.17848780218907687,-0.25248702858989613,0.08678402292000001,1.7045695505856984,0.46934637669428797,-1.2693432234230104, ,-0.0010657722711424759,0.017751017874760713,0.004639910142732305,-0.0007146281968560633,0.04643371825379742,0.0573592608572111, ,0.14415192604064941
0.009619577196970562,0.020345727063253046,-0.07634014515304967, ,0.009780501059555208,0.020232999952388593,-0.07667164980347267, ,0.0003853559709218044, ,0.001188643905069684,0.00028621298028674424,-0.0071534059231697115,0.027717796786262506,0.012675737870115255,-0.012328729266672948, ,0.0072571350066526555, ,0.030478690432911845, ,3.218858844365772e-05, ,0.17848780218907687,-0.2519541600215746,0.08696939239000001,1.7041501706987296,0.470302832192646,-1.269878112528464, ,0.00017782118884316885,0.01933515516676259,0.007139763119677276,-0.002108015059426383,0.01402990525703428,-0.048169104126895776, ,0.17262887954711914
0.009659002337784477,0.020347495204302415,-0.0765487518856672, ,0.009819875041368652,0.02023672369057472,-0.07685779671139391, ,0.00036559411827934987, ,0.001249698046184385,-0.00016070971818067455,-0.006201920033386163,-0.0030823568726611205,-0.003930737976385738,-0.0016401413949810979, ,0.0063286163511996375, ,0.004995159232088568, ,3.279564724702956e-05, ,0.178526415853448,-0.25132089592588824,0.08717550250000002,1.7039404807552447,0.47043946869241143,-1.270806317833566, ,0.0017293395536758219,0.021224992520346854,0.006068118674285715,-0.008698147210725586,0.0,-0.020261162421346585, ,0.20070886611938477
0.009691044556255132,0.020349214208277438,-0.07670617328411108, ,0.009859325363129019,0.02024043633012139,-0.07704341875726062, ,0.00039228250776463544, ,0.0012869099291932004,0.00012774054911801304,-0.006814140528855347,0.0002091092919026305,-0.0029874788190804116,-0.0018888205400689644, ,0.0069357743591277575, ,0.002994785751815381, ,3.358011109208248e-05, ,0.17857275225069333,-0.2508420864876863,0.08733105730000001,1.7039404807552447,0.47043946869241143,-1.2712147115342687, ,0.0007875835584647095,0.019554284269208896,0.0067352268583509515,-0.008675344294203084,0.0,-0.02198637484110509, ,0.23052000999450684
0.009727546717208794,0.0203503419282577,-0.07689742140875833, ,0.009898851536399945,0.020244137814121443,-0.07722851631472867, ,0.0003876190032713716, ,0.0011360918305180787,8.460893200524163e-05,-0.006319778782434884,-0.0171723555219077,-0.0021180525163340975,0.004093833643483236, ,0.006421640536316178, ,0.017302483363714274, ,3.414334905241451e-05, ,0.1785881977164418,-0.25028604972074214,0.08751901935,1.7033114109247913,0.470302832192646,-1.271511687331275, ,0.0,0.01841228978627683,0.006231929389671363,-0.008532226841023874,0.0,-0.0025353835606522733, ,0.258404016494751
0.009766257961325563,0.020362758202458257,-0.07710455835805922, ,0.009938453073960277,0.02024782808618564,-0.07741308975858778, ,0.0003715531100042507, ,0.0014809603603707262,0.0006666518656617406,-0.0075789184415039085,-0.0116926562710543,-0.0033638076605927106,0.0029996303723157005, ,0.0077509788441168966, ,0.012166897206969066, ,3.443863943947437e-05, ,0.17861908864793868,-0.24978407208391754,0.08772642575,1.7033114109247913,0.47043946869241143,-1.2717864627152526, ,0.0014810131247938129,0.015333162313535433,0.00763239651173934,-0.00757520275273804,0.0,-0.004934041499023705, ,0.2874588966369629
0.009803729610667193,0.020376502369639428,-0.07730878178227207, ,0.009978129489795613,0.020251507090433572,-0.07759713946475981, ,0.0003594291177874369, ,0.0011784261158637598,0.00039452486841524823,-0.006181511921233601,-0.005902819753936304,-0.001097517275595558,-0.0026771228253896304, ,0.006305190529611373, ,0.006003983360415305, ,3.457294946976627e-05, ,0.17864225684656135,-0.24932070811146406,0.08793123957000001,1.7031017209813069,0.4705761051921769,-1.2722245955795113, ,0.000851759409393281,0.014408888788106708,0.006185946221359225,-0.002662901057247179,0.00044785034368965683,-0.009128509577174284, ,0.31758689880371094
0.009826579456495343,0.02037976015371863,-0.07741967151233328, ,0.01001788029910675,0.0202551747715042,-0.07778066581029634, ,0.00042712341659898676, ,0.0010982662314579362,6.0590511134496125e-05,-0.005383980176125312,0.0010434025798216693,-0.0037790029045125296,0.0011589449959192005, ,0.005495189028787882, ,0.003920401429949263, ,3.5531353365395114e-05, ,0.1786885932438067,-0.24895773966637552,0.08806864631000001,1.7026823410943377,0.4707127416919423,-1.2728260859240512, ,0.0013447509474193782,0.01584520647160975,0.005272694975173785,-0.009524125174030772,0.003473594527592966,-0.03122426820040697, ,0.34268689155578613
0.00986278229648185,0.020388012979591363,-0.0776025386194703, ,0.010057705018301956,0.02025883107454706,-0.07796366917337726, ,0.0004302302976753072, ,0.0013414537283998745,0.0003745986912075688,-0.006802625656614783,0.016707398481420013,-0.00040340998458864377,-0.0055844367655481925, ,0.006943740930429796, ,0.01671226762187568, ,3.638095426837013e-05, ,0.17873492964105206,-0.24856388028979007,0.08822420111000001,1.7026823410943377,0.4707127416919423,-1.273234479624754, ,0.0018260214992829806,0.016271766385197322,0.006810094707139805,-0.0074923371928124856,0.003473594527592966,-0.03538551955325359, ,0.3684239387512207
0.009900552220125897,0.020398888901104806,-0.07778502537173931, ,0.01009760316499699,0.0202624759452234,-0.07814614993330798, ,0.0004334149494134431, ,0.0013856750223672823,0.0004214761062992684,-0.006892234008674729,0.01015271512254315,0.00103100564992423,-0.01028839850286417, ,0.007042771258966621, ,0.01020492927252301, ,3.7143446074111934e-05, ,0.17879671150404586,-0.24813912998170773,0.08840697800000001,1.7024726511508534,0.4707127416919423,-1.2737245520655973, ,0.0021003642142557633,0.016302515299513966,0.006913546666666667,0.0,0.0033164551209750163,-0.027195577918297485, ,0.3991820812225342
0.00994874069524166,0.020407486107654235,-0.07801477416290892, ,0.010137574258015068,0.02026610932970673,-0.07832810847051877, ,0.00039220389607685165, ,0.001302301093521141,-2.0323988234169967e-06,-0.005970449956854631,-0.0013501607754275412,-0.0027204442818994094,-0.0005974051863210582, ,0.0061108317728552144, ,0.003037061676033221, ,3.7534749326881154e-05, ,0.17889710703141076,-0.24755220228326666,0.08863642133,1.7020532712638843,0.4708493781917078,-1.2742443636699965, ,0.003095060159192755,0.018058409430727073,0.00590831287833828,-0.00794174129035825,0.002451315485030191,-0.018451961612939854, ,0.4242570400238037
0.009977941320970195,0.020411412338020535,-0.07815510678539332, ,0.010177617817385194,0.02026973117468105,-0.07850954516656126, ,0.00043077931857361844, ,0.0015585038878595354,0.0003773481166328116,-0.007517819487668863,0.002239536272026259,-0.0010739150926998883,-0.0027531906313994726, ,0.007686932796556332, ,0.0024837053622216317, ,3.812689311434413e-05, ,0.17895888889440456,-0.24716606563955543,0.08877642065,1.7020532712638843,0.4709860146914732,-1.274519139053974, ,0.002897651488692736,0.018281052120684028,0.007527793724007564,-0.0065669897207102255,0.0036161831156061907,-0.022096633966030246, ,0.44966602325439453
0.010022078410619003,0.020420405577740632,-0.07838468342482145, ,0.010217733364341943,0.020273341427342006,-0.07869046040410783, ,0.00039167369877271606, ,0.0014870997227567247,0.0003787648501126409,-0.007557708353272063,-0.005526650312678178,0.0035284439452162434,-0.005696933910007868, ,0.007711931272400079, ,0.006556962383266203, ,3.841925251641412e-05, ,0.17902067075739836,-0.24657913794111436,0.08900586398,1.7018435813203996,0.4712592876910041,-1.2749870110817887, ,0.002087164334528748,0.018607243442837408,0.007567131363420429,0.0,0.005868850460630873,-0.012891214954612939, ,0.4792208671569824
0.010058132456529171,0.02041682765458338,-0.07855705514214222, ,0.010257920421319771,0.020276940035390014,-0.0788708545669484, ,0.00039743408999159485, ,0.0011697512312074262,-0.0003028278501116509,-0.0056611621975106545,-0.00900880045957692,0.0037738535842716386,-0.0006030884391936199, ,0.005788676884767209, ,0.009767315433694367, ,3.871445718695052e-05, ,0.1790978980861406,-0.24603082390704442,0.08917567797,1.7014242014334306,0.47139592419076953,-1.2753434652059066, ,0.0026418287856305785,0.02065221796702302,0.005542383966597078,-0.004891716491108641,0.00793512166516419,-0.012052441685376936, ,0.5059490203857422
0.010086069495383414,0.020415401878308474,-0.07869349011899364, ,0.010298178511960484,0.02028052694704045,-0.07905072803998918, ,0.00043680706747380106, ,0.0013359343476976582,6.892509620952302e-05,-0.007006088406122375,-0.0009489897301670645,0.0055698274780482376,-0.0035120616718150085, ,0.007132653503756384, ,0.005650092279154844, ,3.9194766712989895e-05, ,0.17915195721626018,-0.24559835086608786,0.08931049213,1.7014242014334306,0.471532560690535,-1.2757815980701652, ,0.0017417817698082436,0.02026413443486457,0.00695277674378001,-0.00407217159491293,0.008675826810775805,-0.019896643862136337, ,0.5306570529937744
0.010130273484694474,0.02041925308007717,-0.07891809052501024, ,0.010338507161102834,0.020284102111011632,-0.07923008120925085, ,0.00039870444627921735, ,0.0016437710611868074,0.0002601884313118772,-0.007757538097476149,-0.015210907215603729,-0.005352126048231208,0.009389032605501392, ,0.007934045541536651, ,0.016125040262382973, ,3.9432857624193563e-05, ,0.17921373907925398,-0.24499597770189835,0.08953345401000001,1.7007951316029768,0.4716691971903004,-1.276056373454143, ,0.003220804113733867,0.01957849010903049,0.007736188207867897,-0.015233947313993895,0.001638621770518496,-0.00687478845149371, ,0.5574619770050049
0.010160155404688693,0.020423541381812203,-0.0790683963586104, ,0.01037890589478807,0.020287665476532133,-0.07940891446186618, ,0.00042692694597472834, ,0.0013221674325862498,0.0001096806073666114,-0.006599144154621666,0.002439748998651134,0.010372363873147697,-0.02193118221816412, ,0.0067311856406506365, ,0.010655434997135995, ,3.978944785863409e-05, ,0.17927552094224777,-0.2446021183253129,0.08968382365000001,1.7005854416594925,0.47194247018983126,-1.276605924222098, ,0.002393723252281374,0.019414267912944105,0.0065740039290136205,0.01585552025228399,0.009312591450772659,-0.01890727864363954, ,0.5816850662231445
0.010204646013103839,0.020427735954703537,-0.07927178286935295, ,0.010419374240254622,0.020291216993335012,-0.07958722818607783, ,0.0004052793927553178, ,0.001323786843047994,1.3036549519392611e-05,-0.0062022213315688236,-0.0034818593870503435,0.00019152926423003105,0.007702052396920347, ,0.006341934326624464, ,0.0034871218895380523, ,4.00130230341204e-05, ,0.17936819373673846,-0.2440306360926203,0.08988604489,1.7007951316029768,0.47194247018983126,-1.276769281702379, ,0.003294882061590311,0.017757661219773724,0.006162016061895551,-0.014708133444548698,0.0073550407550504165,-0.01670379967025223, ,0.6130459308624268
0.010239408018505598,0.02042137380000634,-0.07943897948813017, ,0.010459911725939465,0.0202947566116605,-0.07976502277123748, ,0.0004134707000938296, ,0.0013789806977718595,6.197307719738017e-05,-0.00639034699281827,-0.0023105530740507216,0.0018108007965283942,0.0060622606486471975, ,0.0065377337905229965, ,0.002935582459415211, ,4.0439354156590105e-05, ,0.17945314379835492,-0.2434745993256761,0.09005067372000002,1.700375751716008,0.47221574318936216,-1.277400511210475, ,0.003688619422980692,0.017784284400013263,0.006368977017193124,-0.012813533871252385,0.00896111552521652,-0.017478230083885257, ,0.6372768878936768
0.010271535560246787,0.020429882724556665,-0.07959511743281673, ,0.010500517881473869,0.02029828428225133,-0.07994229860780191, ,0.0004362176311382016, ,0.0016746730933710704,0.0005789973861750253,-0.008295939009802527,-0.006194504645885951,-2.494213229200494e-05,0.006813504608010713, ,0.008483063833145538, ,0.00619455168868007, ,4.0935842253001914e-05, ,0.17951492566134872,-0.2431193536134618,0.09020752481000001,1.7001660617725234,0.47235237968912763,-1.2776752865944523, ,0.0027750159102660353,0.017238318175925665,0.008357193871983212,-0.012880709954865068,0.006105884953350086,-0.013104692539243986, ,0.6587798595428467
0.010306174514236297,0.020443784963760557,-0.07976435162736357, ,0.010541192237687411,0.020301799956357985,-0.0801190560873335, ,0.00044856251134686427, ,0.0018887693407470313,0.0007705841409942892,-0.00893952054669217,-0.0021768466564322467,-0.003579133177876113,0.004393334663881149, ,0.00916931170511884, ,0.004189128618118065, ,4.145105830969489e-05, ,0.17957670752434252,-0.24277955336699591,0.09037863509,1.7001660617725234,0.4724890161888931,-1.2780317407185706, ,0.003659553197611158,0.01685259129079573,0.009040188149829742,-0.012327665885049579,0.003199672375451563,-0.01708120689099881, ,0.6815290451049805
0.010344692444203043,0.020456431411409532,-0.07994767793795887, ,0.01058193432660218,0.020305303585732813,-0.08029529560249572, ,0.00044717040505394946, ,0.0015278911843497102,0.00044158199807067496,-0.007378365678212666,0.01123109209618933,0.005897324532943528,-0.0023344717124733085, ,0.007547829238506944, ,0.012685260913846287, ,4.1926621842931055e-05, ,0.17966938031883323,-0.24239341672328468,0.09056400456000001,1.699956371829039,0.47276228918842395,-1.278662970226666, ,0.0034854086640233647,0.016375658595076927,0.00744336986915888,-0.006736086320765719,0.011486845831991587,-0.02891523083494807, ,0.7030839920043945
0.010377320062314444,0.020461168684740426,-0.08009308391181025, ,0.010622743681432428,0.020308795122630535,-0.08047101754705345, ,0.00047569348103497055, ,0.0012522718012054743,-3.224169025471316e-05,-0.006214025148772927,-0.01046412928177475,0.002864822311322369,0.008358664632977736, ,0.006339032476669233, ,0.010849202700462733, ,4.248550832218015e-05, ,0.17974660764757547,-0.24203044827819614,0.09070918904000001,1.6997466818855542,0.47276228918842395,-1.2789896851872284, ,0.002453881816904709,0.018082496485989096,0.006162016061895551,-0.012734522094878109,0.008713740514650136,-0.009242959463518101, ,0.725761890411377
0.010422269636958383,0.020467244583761403,-0.08031492406764688, ,0.0106636198365841,0.020312274519807473,-0.08064622231586902, ,0.00043820562394418337, ,0.0016764167157226131,0.0005203472009232883,-0.008470115646696974,0.014495771758292118,0.007171088858753273,-0.008700988161975424, ,0.008650086316487471, ,0.016172565371413063, ,4.286512823479305e-05, ,0.17983155770919193,-0.24145896604550351,0.09093085463000002,1.69953699194207,0.47303556218795484,-1.2795392359551834, ,0.002763698226308893,0.018680500306785586,0.008531768355650778,-0.0022659231081980278,0.010951279296802244,-0.03395941608421011, ,0.7479770183563232
0.010460210059233498,0.020473938905605827,-0.08048550427659762, ,0.010704562327655757,0.020315741730524254,-0.08082091030490182, ,0.0004441076233411149, ,0.0018949298773243697,0.00020233464219872953,-0.008066206204367144,0.005301691496081113,-0.0026443968051288805,0.005820328955155996, ,0.008288267676588471, ,0.005924587161656309, ,4.324410425525287e-05, ,0.17993195323655686,-0.24105738393604384,0.09110196491000001,1.6991176120551008,0.47317219868772026,-1.2799773688194422, ,0.0060818802817366345,0.020465158843750438,0.008081588797564689,-0.01709386529403376,0.007861536437734852,-0.029130677301015755, ,0.7712399959564209
0.010495177815440682,0.02047784574488254,-0.08063831118531206, ,0.010745570691430922,0.02031919670853684,-0.08099508191120494, ,0.00046384421946836307, ,0.0017117541133909288,8.339191517972908e-05,-0.007716583119991249,-0.028186276418738294,-0.005212843693787724,0.01208485872353023, ,0.007904600647974696, ,0.028664261552825872, ,4.3672800202257746e-05, ,0.18002462603104755,-0.24067897002520686,0.09124844568000001,1.6991176120551008,0.47330883518748573,-1.2803338229435601, ,0.0037865651054623177,0.020760652277066454,0.00763239651173934,-0.014254051920508421,0.002262033654260895,-0.025651429492553002, ,0.7941708564758301
0.010533378029655044,0.020482308948671018,-0.0808031871036278, ,0.010786644465887101,0.020322639408108176,-0.08116873753292478, ,0.00047250964674220333, ,0.001997109376376217,0.0003287677170491295,-0.00840046356450464,0.0058164253265353995,-0.0040067320574412426,-0.010398992138056635, ,0.008640851935518482, ,0.007062907583039331, ,4.410787880693668e-05, ,0.1801327442912867,-0.24023877425137605,0.09141955596000001,1.6989079221116163,0.47330883518748573,-1.280742216644263, ,0.005879229339707868,0.0205493593673605,0.008427942603174603,-0.0010598221088212543,0.002262033654260895,-0.027322498073718945, ,0.8172450065612793
0.010584758633094915,0.0204870377769969,-0.08102846015729195, ,0.010827783190184495,0.020326069783995235,-0.08134187756929766, ,0.00042802114932316603, ,0.001702277037721509,-0.00011876648948056339,-0.006811766862595236,0.0058548925365574074,-0.006492285544201201,0.0009616776951493957, ,0.007022251802842732, ,0.008742398042671807, ,4.436615412950601e-05, ,0.18028719894877118,-0.2396595692858092,0.09164511042000001,1.6984885422246472,0.47358210818701657,-1.2812917674122182, ,0.005914025018702993,0.02044311537235476,0.006755221170483461,-0.013481501326595315,0.0027772132381977776,-0.029479996668851087, ,0.8408830165863037
0.01062275333025368,0.020484572612218623,-0.08117352908152442, ,0.010868986404668225,0.02032948779145275,-0.08151450242064788, ,0.0004482687213721508, ,0.0017834422043548292,-6.409051316592924e-05,-0.006899989585197735,0.0022004577545633904,-0.00698186838965829,-0.0003397083843184209, ,0.007127035145555906, ,0.007320415623441906, ,4.4678326331298994e-05, ,0.18042620814050722,-0.2392116507791042,0.09178899861,1.6984885422246472,0.47358210818701657,-1.2816184823727803, ,0.006609980247446986,0.02014797060689401,0.006862908884101682,-0.010725298356661922,0.0023039626535739147,-0.02487644236971529, ,0.8629589080810547
0.010663086789111023,0.020490320092451046,-0.08134339997050669, ,0.010910253650870918,0.02033289338623642,-0.08168661248838735, ,0.0004512975269285294, ,0.00203682286505582,0.0004670819759489083,-0.008793746217835954,-0.0020439205429096914,-0.0006587222861801178,0.0011333678532710692, ,0.009038627412366032, ,0.002147434201576105, ,4.513110163394421e-05, ,0.18056521733224326,-0.23878690047102183,0.09196010889,1.6984885422246472,0.47385538118654746,-1.282086354400595, ,0.005995789172927129,0.019474028639128005,0.008869048730512249,-0.008802233626214179,0.007740886335269621,-0.018900551880069345, ,0.8826968669891357
0.01068426695158099,0.020494861939940122,-0.08143854185459377, ,0.010951584471507847,0.02033628652459809,-0.08185820817501144, ,0.0005222304465498394, ,0.001976346795855534,0.0005209456415117952,-0.009046667455481397,-0.001685966088600648,0.0024682889650130663,0.008266300286643907, ,0.009274671049097365, ,0.0029891255361445914, ,4.5790247752513634e-05, ,0.18068105832535664,-0.2383930410944364,0.09214677465000001,1.6978594723941938,0.47399201768631294,-1.2823611297845725, ,0.00582004096700415,0.019082433452336775,0.009096979737292977,-0.013675833079624554,0.011367772034661288,-0.013168587494030697, ,0.9015190601348877
0.010747787370195806,0.02051158366664982,-0.08171427408446955, ,0.010992978410475997,0.020339667163285356,-0.08202928988409863, ,0.0004346364968323514, ,0.0022101902144225096,0.0005054326958617438,-0.008880641309893482,0.0143466106487938,0.0024017196480032805,-6.117376279277537e-05, ,0.009165489243295293, ,0.014546251721311637, ,4.6146825135528495e-05, ,0.18081234478421845,-0.23799918171785095,0.0923347367,1.6978594723941938,0.4742652906858438,-1.2829923592926682, ,0.00845401277191587,0.01912473630763216,0.009009508778280545,-0.011148038086524599,0.014057743939845704,-0.03563345666925667, ,0.922065019607544
0.010768932489916788,0.020516815275563316,-0.0817971163125765, ,0.01103443501285201,0.020343035259540003,-0.08219985802030767, ,0.0005127299160379234, ,0.0020207281034515796,0.0003815746008106473,-0.008263929725980612,-0.013407140129738912,0.0015465642737211786,0.007357888482011733, ,0.008515954189637754, ,0.013496044938029441, ,4.672695400430289e-05, ,0.18089729484583492,-0.23782155886174378,0.09241899555000001,1.6978594723941938,0.4744019271856092,-1.283348813416786, ,0.00727793714444218,0.01876175198862609,0.008352811494493972,-0.010106619208160077,0.011636107185087483,-0.006145362754363476, ,0.9409210681915283
0.010810434192025709,0.020519736712755105,-0.08196853901063077, ,0.011075953824894774,0.020346390771100998,-0.08236991298937596, ,0.0005115178997265085, ,0.0019456135798238666,0.00027508843521047177,-0.008681213808495757,-0.018622722696635646,-0.0011065132440972016,0.014123917443055302, ,0.00890081788590234, ,0.018655565466875242, ,4.727913730279507e-05, ,0.1810208585718225,-0.23738908582078722,0.09259010583,1.6974400925072246,0.4744019271856092,-1.283593849637208, ,0.005196102834195504,0.020611846559181315,0.008709027621651176,-0.017743224205996753,0.008577137049487345,-0.004252870611391355, ,0.961677074432373
0.010853799372216949,0.020528193187187356,-0.082161461243214, ,0.011117534394038713,0.020349733656198278,-0.08253945519811721, ,0.000494250337257897, ,0.002088648373550299,0.00039016079723367276,-0.009043871229354421,0.0046066062863443875,0.0033431548308968497,-0.0017706976885636838, ,0.009290117560568164, ,0.005691875367437465, ,4.775801230613328e-05, ,0.1811444222978101,-0.2369488900469564,0.09278454933000001,1.6972304025637401,0.47467520018514014,-1.2840617216650225, ,0.0063362583909528005,0.020787939005141462,0.009117808540354896,-0.0074014662435568125,0.011887450417755765,-0.026634969244057026, ,0.9806139469146729
0.010895899645427466,0.020533706508081406,-0.08233696140897968, ,0.011159176268900946,0.020353063873560662,-0.08270848505442085, ,0.0004898736173709389, ,0.0020324004082006874,0.00021253982751654458,-0.00832813503612562,0.005716961627428716,-0.00024694213366961487,-0.0044137412780874226, ,0.008575176836513529, ,0.005722288930515913, ,4.8205045441845934e-05, ,0.18127570875667193,-0.23651641700599985,0.09296084477000001,1.6972304025637401,0.47481183668490556,-1.2843364970489999, ,0.006844224501168035,0.020783386237072005,0.008365972436974792,-0.005957129484190006,0.00834313597353167,-0.027835652644196143, ,1.0006780624389648
0.01094000659538687,0.020535084344967085,-0.0825172395763829, ,0.01120087899926661,0.020356381382400715,-0.08287700296724686, ,0.0004789768860205254, ,0.0019676458071244958,8.958814726719522e-05,-0.007617240382722587,-0.006910036671873259,-0.008737738032248836,0.007923045539133219, ,0.007867782858379172, ,0.011139867462528052, ,4.860375408389553e-05, ,0.1814224406812822,-0.23604533030067215,0.09314102908,1.696811022676771,0.47494847318467104,-1.2846929511731182, ,0.007070071435800377,0.019570414839857865,0.007621440918660288,-0.016392783945021427,0.0022738471383089843,-0.015774811976962844, ,1.020068883895874
0.010978393375282183,0.02053740327583546,-0.08267865055297129, ,0.011242642136104061,0.02035968614243156,-0.08304500934662767, ,0.00048541688556390494, ,0.002067844820576217,0.00012365181909429747,-0.008822371831547778,0.005817971675527814,0.0005778978025791089,0.0007782995627815088, ,0.009062312988880758, ,0.0058465978859542226, ,4.9004833108692866e-05, ,0.181553727140144,-0.235628302725464,0.09330306533,1.6966013327332867,0.4752217461842019,-1.2853241806812137, ,0.0063524358013169295,0.0226863355387212,0.008834615374376041,-0.012248006491370334,0.010201729395025694,-0.030911616242539422, ,1.0394880771636963
0.011016418384759108,0.020539377832932887,-0.08282510371974489, ,0.011284465231550689,0.020362978113852508,-0.08321250460366383, ,0.0005030361993214087, ,0.0017961240507637947,-5.8286923711856533e-05,-0.007496076153577771,0.0077434796423261265,-0.0002817574817940303,-0.0017701552895749832, ,0.007708476935909275, ,0.007748602492140688, ,4.943844386088951e-05, ,0.18168501359900582,-0.2352421660817528,0.0934495461,1.6966013327332867,0.4752217461842019,-1.2854875381614947, ,0.005783078844760657,0.021092896545559185,0.007471299962476548,-0.0098579889977341,0.008143454292108925,-0.031022835994688053, ,1.061579942703247
0.011055837663734696,0.020538446721057153,-0.0829849877763938, ,0.011326347838918406,0.0203662572573549,-0.08337948915052246, ,0.0005083859758858263, ,0.0019912474973843076,-2.0211493348852805e-05,-0.007985060643015665,-0.007733986446055736,-0.007756733874574942,-0.0010874941321491892, ,0.008229621411276486, ,0.01095360371227523, ,4.9870137661048016e-05, ,0.18181630005786764,-0.23478652484217355,0.09360898977000001,1.6966013327332867,0.4753583826839673,-1.2860073497658941, ,0.006241499233328552,0.021971970724350726,0.007948508742514971,-0.007997955288526067,0.00039170432963700236,-0.016006827344594382, ,1.0806379318237305
0.011087554012980184,0.020541267191244477,-0.08311967202282813, ,0.011368289512688616,0.020369523534117837,-0.08354596340043514, ,0.0005385467882940704, ,0.002324630283091665,0.00032623449217421393,-0.00867812444972471,0.004382744049302901,-0.0020069531439218195,0.005978522199563636, ,0.00899000438608685, ,0.004820400098019337, ,5.03648003886374e-05, ,0.1819398637838552,-0.23446217006145612,0.09374510022000002,1.6961819528463176,0.47576829218326366,-1.286586639697405, ,0.009777237835555596,0.01973730065691988,0.008785886111417542,-0.015425338330056028,0.011813481420238619,-0.026817532546745716, ,1.101090908050537
0.011144839156471237,0.020553081790011783,-0.08334929110538918, ,0.011410289808515509,0.020372776905811803,-0.08371192776769665, ,0.00048423057398991304, ,0.0022303080048120837,0.000683104780398544,-0.009563434028557765,0.004125253680876131,0.022364550434291374,-0.041760807145326415, ,0.00984378871958906, ,0.022741828292011823, ,5.083277409469933e-05, ,0.18213293210571083,-0.23399108335612842,0.09397713613000001,1.695552883015864,0.4759049286830291,-1.2871064513018045, ,0.0072615314282795706,0.02069726097240366,0.009748354663402695,0.03998220424574932,0.021113137425530636,-0.016511771165060685, ,1.1170918941497803
0.011168786565861965,0.020559941680732344,-0.08345063122124145, ,0.011452348283220318,0.02037601733459344,-0.08387738266766205, ,0.0005443824112477501, ,0.002317502920208078,0.0009648204830944608,-0.01026358778123407,0.019571851300596976,0.017234275160128685,-0.03923475198237596, ,0.010566121923055255, ,0.026078295376327373, ,5.143881401034377e-05, ,0.18219471396870462,-0.23379029230139858,0.09407954304,1.695552883015864,0.4759049286830291,-1.2871881300419448, ,0.006417644466914571,0.01892262045034313,0.010486380197498356,0.03142941156382798,0.017009951172730894,-0.032818382179047506, ,1.1339030265808105
0.011220192525813836,0.020575389244195167,-0.08365777976213323, ,0.011494464494793528,0.020379244783108017,-0.08404232851674578, ,0.0005114445299905263, ,0.0025002287471577516,0.0008722456524960288,-0.010061636216515664,-0.0004783120304091918,0.008273127931767365,-0.02497471302858916, ,0.010404252958281622, ,0.00828693701278027, ,5.194457871340727e-05, ,0.18234916862618913,-0.23341187839056157,0.09428176428000001,1.695552883015864,0.4759049286830291,-1.287514845002507, ,0.00856836972502004,0.018854945670270372,0.010256800721184806,0.021536151335802615,0.012483627799049771,-0.013889430690410315, ,1.1513850688934326
0.011264470958503706,0.020586683289964207,-0.08384591698783614, ,0.011536638002389719,0.020382459214484963,-0.08420676573241796, ,0.0004959780128687975, ,0.0023961064526334926,0.0004528316032464093,-0.009440284244296552,-0.00772765632349746,-0.0018900859771921715,-0.005990229751916547, ,0.00975014611205208, ,0.007955439791660525, ,5.239743016448431e-05, ,0.18251134601654784,-0.23299485081535345,0.09448139294,1.6957625729593484,0.47645147468209087,-1.2883689103179956, ,0.008234000257773023,0.020907015104311696,0.009538210491017966,0.0,0.006596036602062119,-0.01256914597877888, ,1.1674249172210693
0.011288503194405101,0.020590156713459828,-0.08394132980972649, ,0.01157886836633322,0.020385660592343924,-0.08437069473320463, ,0.000557211660084108, ,0.0024425540730295104,0.0004777244383935917,-0.009602431100943292,0.015839707753650716,-0.0054658847038278596,-0.0004444237229653898, ,0.009919726512715686, ,0.016756257209652684, ,5.298538919377535e-05, ,0.18258857334529008,-0.23279405976062362,0.09457731840000001,1.6953431930723792,0.47645147468209087,-1.2884505890581361, ,0.008494931012701882,0.020165095953776194,0.009712689951219513,-0.0141995363186813,0.006596036602062119,-0.03951408049188129, ,1.1848390102386475
0.011345943684459127,0.020602160943446288,-0.08415921337363544, ,0.011621155148108268,0.020388848880785255,-0.08453411593868422, ,0.0005116593779857484, ,0.0022723339168261108,0.00018514155729762878,-0.00871949758278612,0.02960284829669986,-0.004815744012436578,-0.007334773477680076, ,0.009012625417824147, ,0.029991998387363883, ,5.344779263726723e-05, ,0.18278936440001992,-0.2323461412539186,0.09479768770000001,1.695133503128895,0.47645147468209087,-1.2891040189792606, ,0.008353792197440918,0.021064803897551783,0.008771371982378857,-0.011907819595829162,0.006596036602062119,-0.05446224921967591, ,1.2014100551605225
0.011393395351121483,0.02060432590931671,-0.08433645958132809, ,0.0116634979103654,0.02039202404439703,-0.08469702976948577, ,0.0004980344716448428, ,0.0025651613486726227,0.0002786210347037292,-0.010155731552889298,0.0136185446294044,-0.005137115327517424,-0.0036077352240710056, ,0.010478385648565078, ,0.014555225992006676, ,5.3865081380376023e-05, ,0.18295926452325287,-0.23189050001433936,0.09497527943,1.695133503128895,0.47645147468209087,-1.2896757701602446, ,0.008624210161608865,0.023783694626183155,0.010217326183450932,-0.011907819595829162,0.00652241626321059,-0.040497697572875795, ,1.2190978527069092
0.011418413816982104,0.020607127473242247,-0.08443133555070226, ,0.011705896216915016,0.020395186048248807,-0.08485943664728746, ,0.0005575265435805598, ,0.002465006556177043,0.00019489002544334245,-0.0090084403537166,-0.003875998978701779,-0.005433796130447913,0.0018239735231211007, ,0.009341639955087265, ,0.006674537373014127, ,5.440878452491965e-05, ,0.18305966005061777,-0.23167426349386105,0.09507120489000001,1.6949238131854105,0.4765881111818563,-1.2898688668040816, ,0.009953042032596756,0.021720517637553394,0.00908142047890536,-0.010421947946381523,0.007192505157839157,-0.0196781555937514, ,1.236759901046753
0.011466506143224902,0.020611962079930723,-0.08462232538189511, ,0.011748349632728267,0.020398334857893184,-0.08502133699481404, ,0.0005331815917818941, ,0.0026308766643940726,0.00021033910870347882,-0.010109512869006926,-0.025258768317614522,-0.004360912000417595,0.0069272274459455385, ,0.010448349391770938, ,0.02563245647224274, ,5.4881848334147056e-05, ,0.18324500563959917,-0.2312108995214076,0.0952643521,1.6949238131854105,0.4769980206811526,-1.290366477995452, ,0.009388921786320384,0.024432786189101642,0.010210776615384616,-0.009907634473661777,0.00767069751066596,0.00021588039218083024, ,1.2535700798034668
0.011517971729932538,0.020613899284021374,-0.08481541651759782, ,0.011790857723937601,0.020401470439366774,-0.08518273123583553, ,0.0005044926976671416, ,0.002323834992242144,8.800664997888504e-05,-0.009500396045684189,-0.008713605922820094,0.012255987958028453,0.0053866576059053, ,0.009780873134156343, ,0.015037822036828328, ,5.527733729049527e-05, ,0.183445796694329,-0.23074753554895414,0.09545231415000001,1.6945044332984414,0.4772712936806835,-1.2906709925429853, ,0.008746114292996496,0.02403671265412127,0.009578359302465424,-0.009006247026845195,0.02451632066167407,-0.015917017942163367, ,1.2720310688018799
0.011572154774601422,0.02061764814332217,-0.08502030142464964, ,0.011833420057832444,0.02040459275918648,-0.08534361979516485, ,0.00046710482083104146, ,0.0027543527426665292,0.00020587120075461383,-0.01034258575554216,-0.014399700578611544,0.0035474885874461595,0.005875544560651152, ,0.010705041900575559, ,0.014830237141997682, ,5.557898717265133e-05, ,0.18365431048193306,-0.23024555791212953,0.09566490571000001,1.6940850534114722,0.4774079301804489,-1.2908640891868224, ,0.00947267803515867,0.021870694067405112,0.010350104951267057,-0.02289591089426674,0.0,0.00028350206253666306, ,1.288222074508667
0.011597292852852022,0.020622353816503996,-0.08511868341124706, ,0.011876036202858813,0.020407701784349076,-0.08550400309865541, ,0.000521770650368255, ,0.0029838510440888394,0.000704162176197791,-0.010939795601318145,-0.00693541943521793,0.004469580352558738,-0.039453533020524345, ,0.011361264860142883, ,0.008250880836532606, ,5.611615834997511e-05, ,0.18374698327642375,-0.2300447668573997,0.09576472004000001,1.693875363467988,0.47754456668021433,-1.2908938283503781, ,0.011424340899399013,0.02308928018454277,0.011139029034965036,0.03594352889538216,0.007979386434918656,-0.009169534362229868, ,1.3020329475402832
0.011623547552196346,0.02062411054078061,-0.0852211141865393, ,0.011918705728618542,0.02041079748233114,-0.08566388157319958, ,0.0005732920448636276, ,0.0027227057952039714,0.00027029338388349987,-0.010500003321930804,-0.005959687799261054,0.008877886361006889,-0.033052078838679784, ,0.010850633858036423, ,0.010692736659773076, ,5.6753873498371084e-05, ,0.1838551015366629,-0.22978991667255028,0.09586842324000001,1.693875363467988,0.4778178396797452,-1.2911983428979115, ,0.009835146853620387,0.026279961661166095,0.010598011656686628,0.028156780347208952,0.01274915305095297,-0.014538764600956227, ,1.3215909004211426
0.011680489984886626,0.020630489775407046,-0.08542546439797759, ,0.011961428205869958,0.020413879821090643,-0.08582325564672758, ,0.0005329953413495357, ,0.002570685646354826,0.00024966309502521416,-0.009705699478572919,-0.002732468497367362,0.006883006864562116,-0.02489674870106308, ,0.010043473439092818, ,0.007405543967915502, ,5.7290998442029875e-05, ,0.18407133805714118,-0.22931882996722258,0.09607453335,1.693875363467988,0.4778178396797452,-1.2914433791183333, ,0.009789788878380395,0.023897492208126613,0.009808381477832513,0.019265186004111288,0.01274915305095297,-0.017121548041013526, ,1.3351788520812988
0.011707005237847495,0.02063101917979054,-0.08552598343670123, ,0.012004203206523094,0.020416948769061905,-0.08598212574820342, ,0.0005849945142281177, ,0.0023227629344440676,-9.558208997888934e-07,-0.008908523288617375,-0.0005848528179829796,0.002321208889616038,-0.008443568689287513, ,0.009206357354950921, ,0.0023937433904750362, ,5.79275432650959e-05, ,0.1842644063789968,-0.22882457506327222,0.09626638427,1.6940850534114722,0.4780911126792762,-1.292074608626429, ,0.009200929636647886,0.023100521314136025,0.009613042558841281,0.0,0.010757487996813506,-0.030836887864263182, ,1.3486909866333008
0.011755862949655603,0.020633728998717,-0.08571991420945965, ,0.012047030303639574,0.020420004295156124,-0.08614049230762433, ,0.0005543848966142802, ,0.00277365200806218,0.0004099085606986273,-0.01076020188270729,0.015189127127252282,-0.0032331453397608447,-0.0023832909618007143, ,0.01111949257145212, ,0.015529412977650077, ,5.848608162013557e-05, ,0.1843570791734875,-0.22858517034417125,0.09637138376000001,1.6936656735245033,0.478364385678807,-1.2924608019141028, ,0.009702504328884882,0.023196514680633287,0.010880335737704918,-0.012610163947261332,0.009719921518646264,-0.0414275366195426, ,1.3628740310668945
0.01178565547337607,0.0206386805017343,-0.08583287149059209, ,0.012089909071437862,0.020423046368767763,-0.08629835575602036, ,0.0005964427320330767, ,0.0029101683341555217,0.0005112754540346745,-0.011333828027039562,0.006066840976490321,-0.004010066365897734,0.0023029026663841713, ,0.011712648721340847, ,0.007272345197737936, ,5.9120762880954775e-05, ,0.18445747470085241,-0.22835348835794453,0.09648545728,1.6934559835810188,0.478364385678807,-1.2927058381345247, ,0.0100239509966574,0.023425559505917248,0.01147608899135447,-0.014713792018528531,0.009719921518646264,-0.03248579912132427, ,1.3762240409851074
0.011849140220252873,0.020650430181550935,-0.0860792789939064, ,0.012132839085276792,0.02042607495975693,-0.08645571652544756, ,0.000522039775031466, ,0.0031778584713051485,0.0008985792909749281,-0.01248723969295327,0.01454130237057885,0.006199952132392808,-0.04563776021539576, ,0.012916554662721888, ,0.015807864417917455, ,5.958860577481157e-05, ,0.18465826575558225,-0.22785923345399417,0.09673434496000001,1.6930366036940496,0.478364385678807,-1.2931959105753679, ,0.010190615906214597,0.024357531200839524,0.012712539122106946,0.0347567145725845,0.008881842864864002,-0.03312674825653786, ,1.3900160789489746
0.011876439111265038,0.02065795751715678,-0.08618522158798772, ,0.012175819921670791,0.02042909003846704,-0.08661257504899121, ,0.0005697720360571118, ,0.002997327174619382,0.0008405171258515252,-0.011656344789346216,0.03718576763135458,0.0038816144112898544,-0.04619104745088529, ,0.012064858601686147, ,0.03738780589424934, ,6.0144493315063216e-05, ,0.1847432158171987,-0.22766616513213855,0.09684193703,1.6930366036940496,0.478364385678807,-1.2935226255359302, ,0.009809715916736926,0.02246613199774403,0.011869457168405368,0.028068343480138317,0.007698304503092631,-0.05628615352148757, ,1.4040899276733398
0.011911131830246533,0.020665067755636243,-0.08632194075051382, ,0.012218851158281276,0.020432091575715305,-0.08676893176076149, ,0.0005905675647196868, ,0.0031268146705141523,0.0006122653384309966,-0.011702081632625046,0.0013951167545149191,-0.0009151155870294747,-0.03137602725221204, ,0.012128089435892489, ,0.0016684027860328933, ,6.0731224282966804e-05, ,0.1848590568103121,-0.22738814674866648,0.09698064006000001,1.6930366036940496,0.47850102217857243,-1.2937974009199078, ,0.010949987386595965,0.024744965204294856,0.011869457168405368,0.022258179345007293,0.005226575344033458,-0.022372641113331964, ,1.4181239604949951
0.011972113574662473,0.020675680778036564,-0.08655304403826103, ,0.012261932373911403,0.020435079542788056,-0.08692478709589015, ,0.0005292228185713886, ,0.003052601629277482,0.0004288338958136455,-0.01134463901004416,0.0025895308267414544,-0.005439396745266172,-0.011523741696159426, ,0.011755981859695173, ,0.006024327260660448, ,6.118326175221841e-05, ,0.1850830160636646,-0.2268938918447161,0.09721526855000001,1.693246293637534,0.4787742951781033,-1.2945919879082846, ,0.010792180539133986,0.02463575845235482,0.01147608899135447,0.0,0.005794192936917873,-0.029007411523155367, ,1.431523084640503
0.012004146290669846,0.020677478699278034,-0.08667256539633113, ,0.012305063148516569,0.02043805391145243,-0.08708014149053253, ,0.000560351190706464, ,0.0030244457805171355,0.00022773468114304602,-0.011211965693037673,-0.018199218790464766,-0.00918650926460634,0.007866199520430292, ,0.01161496061405879, ,0.020386351803947402, ,6.168809286718939e-05, ,0.18519885705677797,-0.22664676439274092,0.09732804578000001,1.6928269137505652,0.4789109316778688,-1.2950301207725432, ,0.010965509793538978,0.025710360758187695,0.011345307350427351,-0.014929213582327914,0.005324133018755443,-0.009951313278977407, ,1.4460430145263672
0.01203828902684495,0.02067900883634935,-0.0868025926634565, ,0.012348243063188845,0.020441014653940465,-0.08723499538186058, ,0.0005828248848407108, ,0.002798444651215057,1.0885178923573523e-05,-0.010435596864274133,0.012299448897373054,0.002488646262625008,-0.000370001811368129, ,0.010804308995335264, ,0.012548692347723375, ,6.234965293288222e-05, ,0.18533014351563978,-0.2263224096120235,0.09746285994000001,1.6926172238070805,0.47904756817763416,-1.2952232174163802, ,0.011107015903680198,0.02623636758597478,0.01060506758988016,-0.01329927004183256,0.017211307438558983,-0.04157240646840938, ,1.4569618701934814
0.012067484728995052,0.020679363230510207,-0.08690322284773636, ,0.012391471700168345,0.020443961742961356,-0.0873893492080656, ,0.0006298414530953106, ,0.0028566791210428624,-8.928966103353568e-05,-0.010280267149187861,0.0002515042188512398,8.540897385824832e-05,0.0026891749554251616, ,0.010670167801062962, ,0.0002653945058514917, ,6.309270535742085e-05, ,0.18544598450875316,-0.22605983669429985,0.09756785943000001,1.6926172238070805,0.47904756817763416,-1.2953048961565208, ,0.011905893416451655,0.02686015894663764,0.010343384103896106,-0.01329927004183256,0.015531645163439826,-0.029193995830798805, ,1.467668056488037
0.012099825835869531,0.020679857545865946,-0.08701680456232558, ,0.012434748642834581,0.020446895151693123,-0.08754320340835263, ,0.0006659883698854605, ,0.0033650180285645787,0.00012506346415437877,-0.012184694159365895,0.008258135000839006,-0.003676041058958658,-0.0017087858369981362, ,0.012641430257685096, ,0.009039347486381142, ,6.389428975365298e-05, ,0.18556954823474076,-0.22577409557795355,0.09768193295000001,1.6926172238070805,0.47904756817763416,-1.2955499323769424, ,0.013346967870389699,0.02931632423802001,0.012290749629629632,-0.01329927004183256,0.013154368424377826,-0.040322978176211124, ,1.478515863418579
0.012161795721837294,0.02069161946804016,-0.08724685173679539, ,0.012478073475706912,0.020449814853783395,-0.08769655842294034, ,0.0006006140130168046, ,0.00397433447090961,0.0007986806009700992,-0.014562748304001309,0.0067352494032648005,-0.0036876795781237873,-0.0003858899342819782, ,0.015116443475722698, ,0.007678665914868593, ,6.455782216519565e-05, ,0.18581667568671592,-0.22531073160550008,0.09791656144000001,1.6926172238070805,0.47945747767693053,-1.2962109010485938, ,0.015256743015831315,0.027984942954429604,0.014831295642458102,-0.012964417751449695,0.01502946373106722,-0.03713821612105688, ,1.4943389892578125
0.012211131585326128,0.020700654542251933,-0.08743470139360345, ,0.01252144578444359,0.020452720823349074,-0.0878494146930584, ,0.000574241370756002, ,0.003616235543301423,0.0006515319727320233,-0.013959158243793181,0.02277220822968945,0.0004776552730113068,-0.007816056351899747, ,0.014434671880281441, ,0.022777205539561213, ,6.51608948409499e-05, ,0.18598657580994887,-0.2249400404275373,0.09810711607000001,1.6924075338635962,0.479594114176696,-1.2965673551727122, ,0.012530957554267896,0.027993198099843887,0.014171540498220642,-0.010131705393066444,0.015889680725940825,-0.05337046536727541, ,1.505579948425293
0.012249363246388107,0.02070482081274375,-0.08757206261970882, ,0.012564865155842255,0.020455613034977255,-0.08800177266094607, ,0.0005884697875920624, ,0.0034940943348289923,0.0002145086410722487,-0.012726534306761605,0.004032816465069828,-0.001280101122920427,-0.0001460236033152138, ,0.013199219092012935, ,0.004231067675695499, ,6.578177781107919e-05, ,0.1861255850016849,-0.22464657657831677,0.0982458191,1.6921978439201113,0.479594114176696,-1.2967307126529932, ,0.013727316875230839,0.029434535222850736,0.012866568271405495,-0.01283597539588204,0.015889680725940825,-0.03570797442204408, ,1.517143964767456
0.01228646923378508,0.020708030085732177,-0.08770119634802616, ,0.01260833117783847,0.020458491463724415,-0.0881536327698507, ,0.0006087391483195089, ,0.003687427767033366,0.0003660078185009838,-0.012708297160299325,0.02232206371191457,-0.003682027542368484,-0.006740266022363005, ,0.013237518724246035, ,0.02262369385660081, ,6.643142449731074e-05, ,0.1862800396591694,-0.22435311272909622,0.09837674439,1.6921978439201113,0.4797307506764614,-1.2970871667771113, ,0.015800356569841956,0.027812702684194248,0.012908275137763372,-0.01126927312658798,0.015225413079084765,-0.05298298920362655, ,1.5283479690551758
0.012312788662366283,0.020708432947610843,-0.08778603720451894, ,0.012651843439497469,0.020461356085107747,-0.08830499546402235, ,0.0006673251029196002, ,0.003737194850506515,0.00018363865395332017,-0.01222149933840748,-0.0027657356283649908,-0.0052226152143640195,-0.007282212319503852, ,0.012781447280514545, ,0.005909714932437798, ,6.718067711844946e-05, ,0.18639588065228277,-0.22415232167436638,0.09846229953,1.691988153976627,0.4797307506764614,-1.297332202997533, ,0.017092388609234652,0.028905556368708736,0.012395962272373542,-0.0030768425634149672,0.013024840035870747,-0.026417396208541027, ,1.5405888557434082
0.012394975653208141,0.02071370189285973,-0.08806996759515259, ,0.012695401531025947,0.020464206875118737,-0.08845586118871736, ,0.0006589410377397568, ,0.0033424936939724045,0.0003041569558564323,-0.012895437742200208,0.036458889742226906,0.030519111395457748,-0.011384621213540187, ,0.013441434348226663, ,0.04754646616737096, ,6.790330365412717e-05, ,0.18677429456311978,-0.22348816664718307,0.0987513722,1.691988153976627,0.48041393317528863,-1.298461043696999, ,0.014270216775709891,0.029280142412363704,0.013153436432700248,-0.0026477543525438322,0.04701966848191055,-0.06509866207846636, ,1.5520529747009277
0.01242935065447083,0.0207154113818632,-0.08819173341311423, ,0.01273900504375855,0.020467043810208804,-0.08860623039019125, ,0.0005739164011078943, ,0.003327704709175843,0.00024316298313698274,-0.012729042977837415,0.0074418620801676855,0.022182289279217733,-0.006922393095588176, ,0.013159076031373599, ,0.02339732751209925, ,6.845900804105987e-05, ,0.18691330375485582,-0.223210148263711,0.09887451975000001,1.6917784640331426,0.4805505696750541,-1.2987358190809766, ,0.013500774158268712,0.029452806194435372,0.012939733160032494,-0.00040407434952250884,0.03702670198453694,-0.035228204651336255, ,1.5628209114074707
0.012465907858022086,0.020715277947684834,-0.0883195253200642, ,0.012782653570165664,0.020469866867298625,-0.08875610351570033, ,0.0005925832983155839, ,0.0036590217171787597,0.0002914687530926094,-0.013083272009379684,-0.009207080565955584,0.0031834871719357877,0.009979570736936871, ,0.013588428916995264, ,0.00974189610824779, ,6.904066363622656e-05, ,0.18705231294659186,-0.22290896168161625,0.09900285246000001,1.6913590841461734,0.4805505696750541,-1.298817497821117, ,0.015043903227405007,0.029100564722008823,0.013262957135720236,-0.01712412341506791,0.023817389130063586,-0.025550405111071862, ,1.5752310752868652
0.012508400891846662,0.020721184813427322,-0.0884625023787401, ,0.01282634670384392,0.020472676023767997,-0.08890548101349671, ,0.000599229696156137, ,0.003996772212395216,0.0006408914369951588,-0.013802148845424835,-0.01223500615155961,-0.003933741349920468,0.010459935054286563, ,0.014383471163215448, ,0.012851816823194976, ,6.962593001595705e-05, ,0.18722221306982478,-0.2226154978323957,0.09914803694,1.6913590841461734,0.4805505696750541,-1.2988991765612576, ,0.01686457109622726,0.02688298627718719,0.01408382981432361,-0.01712412341506791,0.017293506880451785,-0.016731508105435642, ,1.5863289833068848
0.01255089266844037,0.02072660738603712,-0.08860583567406391, ,0.012870084039523338,0.020475471257464455,-0.08905436333282934, ,0.0006050863964145071, ,0.0041158883961320385,0.00015151210560105063,-0.012916406038391347,-0.021761971209150032,-0.015096977625945713,0.008649704006345443, ,0.013557176629230382, ,0.026485878592908237, ,7.033981939679784e-05, ,0.18740755865880618,-0.22233747944892363,0.09928544368000002,1.6913590841461734,0.48082384267458494,-1.2990403336285101, ,0.019074762122305685,0.02959979462210567,0.013197026942833473,-0.0163437444676965,0.007848889357370903,-0.010472260936889376, ,1.5951318740844727
0.012582311952270293,0.02072888868499509,-0.08872511975908437, ,0.012913865173062242,0.02047825254669819,-0.08920275092394044, ,0.0006331489095620869, ,0.0033637947901106334,0.00026419743301603197,-0.013408787846282608,0.05574270021514921,0.07514046594332353,0.005982091240523742, ,0.013826803939457732, ,0.09355927434518284, ,7.109632378993708e-05, ,0.18758518151491335,-0.22203629286682888,0.09941766526000001,1.6913590841461734,0.48164366167317757,-1.2997088410506885, ,0.017969502283368827,0.030493875822130714,0.013851140452173914,-0.014260638104602355,0.09956536284244415,-0.08456373565489939, ,1.603158950805664
0.012582311952270293,0.02072888868499509,-0.08872511975908437, ,0.012957689701442189,0.02048101987023703,-0.08935064423806233, ,0.0007704727624670243, ,0.0033637947901106334,0.00026419743301603197,-0.013408787846282608,0.05574270021514921,0.07514046594332353,0.005982091240523742, ,0.013826803939457732, ,0.09355927434518284, ,7.208952127852391e-05, ,0.18758518151491335,-0.22203629286682888,0.09941766526000001,1.6913590841461734,0.48164366167317757,-1.2997088410506885, ,0.017969502283368827,0.030493875822130714,0.013851140452173914,-0.014260638104602355,0.09956536284244415,-0.08456373565489939, ,1.6114418506622314
0.012623598034883474,0.020734070175980175,-0.08887695958133439, ,0.013001557222775257,0.02048377320731488,-0.08949804372741844, ,0.0007689260281404263, ,0.004179273254776953,0.0006692703235836926,-0.015489861818437395,-0.0019385160754174003,0.018172705810032202,0.006862061563702943, ,0.01605771051110364, ,0.018275781496114425, ,7.30694103996318e-05, ,0.18777052710389472,-0.22171193808611145,0.09957322006000001,1.6913590841461734,0.4821902076722393,-1.3002361914056149, ,0.017126320440077746,0.0308006950855147,0.015833808667992052,-0.012580972608044255,0.03936514842046858,-0.028926926269488833, ,1.6215300559997559
0.012671102298459894,0.020743049415646437,-0.0890426166571138, ,0.013045467336296251,0.020486512537624044,-0.08964494984521881, ,0.0007541655128898718, ,0.004778278142991835,0.001283050846202473,-0.017664677581010084,-0.017718544695133516,-0.002253200669110492,0.01265644415581247, ,0.018344454080914337, ,0.017861187512822778, ,7.401289766892805e-05, ,0.1879481499600019,-0.22141847423689093,0.09974173776,1.6909397042592043,0.4821902076722393,-1.3003178701457554, ,0.01737402811396389,0.029091643641468663,0.018080376299659483,-0.018197391024029622,0.019762058867985235,-0.013280395123621053, ,1.6306960582733154
0.012722098753475138,0.020756925252070495,-0.08922943993135946, ,0.013089419642362793,0.020489237841315625,-0.08979136304565899, ,0.0007227300821703431, ,0.005012383360715385,0.001308545417197331,-0.018611398082064984,-0.02113688615055045,-0.00779946591747292,0.007434293261038511, ,0.019318913443378143, ,0.02252992214160803, ,7.489130361482904e-05, ,0.18811805008323484,-0.22111728765479616,0.09993229239000001,1.69073001431572,0.4821902076722393,-1.3002361914056146, ,0.01726968909162344,0.031123955906353157,0.01900812830548926,-0.014277573176023604,0.013030129342156669,-0.01158603458171184, ,1.6389460563659668
0.01276897802292537,0.020767878068124124,-0.08940971328634563, ,0.0131334137424556,0.02049194909900038,-0.08993728378391806, ,0.0006980550261834903, ,0.004908475224086685,0.0010788896462388395,-0.01801155487151436,-0.028965071957316096,-0.015603231809311635,0.0068679796696230686, ,0.01869955188724604, ,0.03290036991808604, ,7.571744866777667e-05, ,0.18828022747359355,-0.22080065560695294,0.10011636557,1.6905203243722353,0.4824634806717702,-1.3005407059531482, ,0.01651817955761023,0.03190885728260618,0.018330047779056387,-0.013915113898513073,0.004098534663067876,-0.0048341068177907, ,1.6483039855957031
0.01281687788968804,0.020778155237775778,-0.08958327076981552, ,0.013177449239175116,0.020494646291745723,-0.09008271251615597, ,0.0006781084563236206, ,0.004858528757628194,0.0007421316267028331,-0.016413362623118807,-0.015470221117273447,-0.012326607117723766,0.004474814038627062, ,0.017133433212232926, ,0.019780591326940773, ,7.650035858152719e-05, ,0.18846557306257494,-0.22048402355910976,0.10029395730000001,1.6905203243722353,0.48273675367130114,-1.3010085779809628, ,0.019819745521819296,0.0316428614733147,0.016731944873949585,-0.013915113898513073,0.010907701180658511,-0.01817417111979732, ,1.6572949886322021
0.012848703912313955,0.020782837193005103,-0.08969464708838412, ,0.013221525736246409,0.020497329401081642,-0.0902276496995147, ,0.0007103538520493503, ,0.004396661065525957,0.0002858783594089776,-0.015296703477141798,0.017007197328769454,0.019552624659108148,0.0016154889183003507, ,0.015918589517576368, ,0.025914263534415446, ,7.733084696892748e-05, ,0.18860458225431098,-0.22026006430575723,0.10040803082000001,1.6905203243722353,0.483010026670832,-1.3013947712686367, ,0.019999355439087624,0.03391599054984659,0.015616481882352944,-0.013915113898513073,0.044054955506036594,-0.05193283729380074, ,1.665653944015503
0.012911439207501492,0.02078426451895102,-0.08989145570748001, ,0.013265642838507275,0.020499998408988057,-0.0903720957921107, ,0.0006612732600407686, ,0.00437175976341794,-6.373016912048101e-05,-0.013752881041207251,0.004843870720813153,-0.0031258716056522385,0.0011584432792587501, ,0.014431149708082652, ,0.005764864686287252, ,7.80684427062711e-05, ,0.18889032337065728,-0.219804423066178,0.10060765948000001,1.6903106344287508,0.4831466631705974,-1.3016695466526143, ,0.020879415084372008,0.03356807271258252,0.013960395723049959,-0.015340956794150996,0.02184772631962082,-0.04087521641313394, ,1.6737730503082275
0.012911439207501492,0.02078426451895102,-0.08989145570748001, ,0.013309800151915685,0.02050265329790374,-0.09051605125303741, ,0.0007925376441434507, ,0.00437175976341794,-6.373016912048101e-05,-0.013752881041207251,0.004843870720813153,-0.0031258716056522385,0.0011584432792587501, ,0.014431149708082652, ,0.005764864686287252, ,7.902285692169783e-05, ,0.18889032337065728,-0.219804423066178,0.10060765948000001,1.6903106344287508,0.4831466631705974,-1.3016695466526143, ,0.020879415084372008,0.03356807271258252,0.013960395723049959,-0.015340956794150996,0.02184772631962082,-0.04087521641313394, ,1.6818199157714844
0.012960816320545377,0.02078435163499552,-0.09004135492141478, ,0.013353997283549393,0.02050529405072627,-0.09065951654236327, ,0.0007839567555807043, ,0.005091822919984185,0.00017568897006948168,-0.01628963924954284,-0.005612870325246726,-0.01114914801401886,0.00028339367067860966, ,0.017067802264583654, ,0.012482254113044145, ,8.008914489740023e-05, ,0.18911428262400978,-0.21944145462108944,0.10075932541000002,1.6903106344287508,0.4831466631705974,-1.3017512253927548, ,0.022762518963413476,0.037040180155531136,0.016540821931464174,-0.014495718385840347,0.015307590688156432,-0.03384301780506454, ,1.6875059604644775
0.012960816320545377,0.02078435163499552,-0.09004135492141478, ,0.013398233841593082,0.020507920650798744,-0.09080249212112501, ,0.0009203684118472607, ,0.005267397723352395,0.0007809702748377838,-0.018389081117419572,0.0024044162410508762,-0.0009220280162615343,-0.0013002161565667573, ,0.019144547466294293, ,0.0025747330565462747, ,8.137979026591035e-05, ,0.18932279641161384,-0.2190784861760009,0.10093950972000001,1.6903106344287508,0.4836932091696592,-1.3023602544878217, ,0.020943928836563843,0.03564873837658557,0.018761851024734984,-0.012456961839366945,0.023533499543524652,-0.039773360030672805, ,1.692962884902954
0.01300936897130027,0.02079053663863787,-0.0902172831493275, ,0.01344250943535228,0.020510533081925172,-0.09094497845133151, ,0.0008919378374806469, ,0.005267397723352395,0.0007809702748377838,-0.018389081117419572,0.0024044162410508762,-0.0009220280162615343,-0.0013002161565667573, ,0.019144547466294293, ,0.0025747330565462747, ,8.261359442318417e-05, ,0.18932279641161384,-0.2190784861760009,0.10093950972000001,1.6903106344287508,0.4836932091696592,-1.3023602544878217, ,0.020943928836563843,0.03564873837658557,0.018761851024734984,-0.012456961839366945,0.023533499543524652,-0.039773360030672805, ,1.7004389762878418
0.013043007423909167,0.020795026553791677,-0.09034608360817406, ,0.013486823675243113,0.020513131328360256,-0.09108697599595914, ,0.0009084928801850997, ,0.005336092344789514,0.0009514050330217734,-0.020872293450704172,0.05912802416606505,0.06882308717991656,-0.002762026748111821, ,0.021564593363689672, ,0.09073442901863349, ,8.386699356540801e-05, ,0.18946952833622413,-0.2188313587240257,0.10107173130000001,1.6898912545417817,0.484239755168721,-1.3029692835828883, ,0.022988600183738078,0.040210568456979144,0.02149637182186235,-0.01219489439059372,0.09761729422434448,-0.09804926466972327, ,1.70648193359375
0.013043007423909167,0.020795026553791677,-0.09034608360817406, ,0.01353117617279397,0.020515715374811533,-0.09122848521894973, ,0.0010464014835571151, ,0.005336092344789514,0.0009514050330217734,-0.020872293450704172,0.05912802416606505,0.06882308717991656,-0.002762026748111821, ,0.021564593363689672, ,0.09073442901863349, ,8.534374566024212e-05, ,0.18946952833622413,-0.2188313587240257,0.10107173130000001,1.6898912545417817,0.484239755168721,-1.3029692835828883, ,0.022988600183738078,0.040210568456979144,0.02149637182186235,-0.01219489439059372,0.09761729422434448,-0.09804926466972327, ,1.7125718593597412
0.013136282868759837,0.02081681044992591,-0.09070002093074896, ,0.013575566540642922,0.02051828520643707,-0.09136950658520854, ,0.0008545750446334897, ,0.006457324454661869,0.0016356311112943971,-0.023880546868808344,-0.0011651613152577813,-0.003879049824096182,0.046036389196848944, ,0.02479219326720329, ,0.004049303890799503, ,8.648928595054866e-05, ,0.18981705131556423,-0.2182367082927104,0.1014346925,1.6892621847113283,0.4850595741673136,-1.303801148485348, ,0.023350625383481982,0.037229086527450286,0.0244682204608295,-0.0617704794535387,0.03393498517435365,-0.04640043261187944, ,1.7181780338287354
0.013136282868759837,0.02081681044992591,-0.09070002093074896, ,0.013619994392535178,0.020520840808843383,-0.09151004056060222, ,0.0009887905073488505, ,0.006457324454661869,0.0016356311112943971,-0.023880546868808344,-0.0011651613152577813,-0.003879049824096182,0.046036389196848944, ,0.02479219326720329, ,0.004049303890799503, ,8.785124243710586e-05, ,0.18981705131556423,-0.2182367082927104,0.1014346925,1.6892621847113283,0.4850595741673136,-1.303801148485348, ,0.023350625383481982,0.037229086527450286,0.0244682204608295,-0.0617704794535387,0.03393498517435365,-0.04640043261187944, ,1.7238099575042725
0.013197175047544417,0.020830072610324536,-0.0909143635940263, ,0.0136644593433293,0.020523382168092616,-0.09165008761195872, ,0.0009239607518754342, ,0.007205156715525895,0.0012708341528200474,-0.023877052136417935,-0.019369700726726898,-0.01607274829509146,-0.031166350702864665, ,0.024972843679975296, ,0.02516964010972543, ,8.909626451198309e-05, ,0.19004101056891673,-0.21787373984762187,0.10165376551000001,1.6890524947678438,0.4851962106670791,-1.303994245129185, ,0.028600645436549364,0.04446904477903973,0.024393279509954065,0.01917480514156917,0.008670116429809081,-0.021103839852018417, ,1.729254961013794
0.013281381497369817,0.020848481735644245,-0.09119924849797711, ,0.013708961008983774,0.020525909270688657,-0.09178964820706176, ,0.0007971505820024129, ,0.007763237515861235,0.0017269214367629598,-0.025952832305770134,-0.03259657022802531,-0.03144381960861592,-0.0032118546405176863, ,0.027144053106856622, ,0.04529059955681715, ,9.012272894478317e-05, ,0.19036536534963416,-0.21737948494367149,0.10194543076000001,1.6892621847113283,0.48533284716684444,-1.3041056630328816, ,0.029507755459723495,0.04303716170452189,0.026548019200000002,-0.008896000376323307,0.0,-0.011865483555466811, ,1.7354209423065186
0.013281381497369817,0.020848481735644245,-0.09119924849797711, ,0.01375349900656754,0.020528422103588868,-0.09192872281465185, ,0.0009259945406159579, ,0.007763237515861235,0.0017269214367629598,-0.025952832305770134,-0.03259657022802531,-0.03144381960861592,-0.0032118546405176863, ,0.027144053106856622, ,0.04529059955681715, ,9.135537205672763e-05, ,0.19036536534963416,-0.21737948494367149,0.10194543076000001,1.6892621847113283,0.48533284716684444,-1.3041056630328816, ,0.029507755459723495,0.04303716170452189,0.026548019200000002,-0.008896000376323307,0.0,-0.011865483555466811, ,1.7408630847930908
0.01334751140623661,0.02086243322771393,-0.09143188284754075, ,0.01379807295425245,0.020530920654196608,-0.09206731190442387, ,0.0008465674109495798, ,0.00693558483518246,0.00123857846859369,-0.02467060164951555,0.050154116843082096,0.06536326643806034,-0.005235161269113819, ,0.025656870412775527, ,0.08238800214085681, ,9.244904037111992e-05, ,0.19065110646598046,-0.2169701801013376,0.10218524441000001,1.6892621847113283,0.4860160296656717,-1.3048261100316447, ,0.03203813016828858,0.04566744059599171,0.025486098432000007,-0.008257049295917498,0.10242085933426776,-0.09318360545544874, ,1.7471389770507812
0.01334751140623661,0.02086243322771393,-0.09143188284754075, ,0.01384268247131356,0.020533404910362072,-0.09220541594702371, ,0.0009756062081109088, ,0.00693558483518246,0.00123857846859369,-0.02467060164951555,0.050154116843082096,0.06536326643806034,-0.005235161269113819, ,0.025656870412775527, ,0.08238800214085681, ,9.374741168042808e-05, ,0.19065110646598046,-0.2169701801013376,0.10218524441000001,1.6892621847113283,0.4860160296656717,-1.3048261100316447, ,0.03203813016828858,0.04566744059599171,0.025486098432000007,-0.008257049295917498,0.10242085933426776,-0.09318360545544874, ,1.753148078918457
0.013418367453181649,0.020875810288758977,-0.0916794729999159, ,0.013887327178129832,0.020535874860383798,-0.09234303541404876, ,0.0008807919144371841, ,0.007288030060772546,0.0012961426643219416,-0.02479401856570457,0.03208950897783471,0.04011308707090304,-0.012491544842935302, ,0.025875446365415666, ,0.05136912468500742, ,9.488210413718148e-05, ,0.19096773851382368,-0.2165299843275068,0.10244061354000002,1.6890524947678438,0.4868358486642643,-1.305739653674245, ,0.033007631846424614,0.04529686947898366,0.02556791576243981,-0.0012736241967444522,0.075779940933763,-0.07462157811226114, ,1.7587909698486328
0.013418367453181649,0.020875810288758977,-0.0916794729999159, ,0.013932006696175794,0.020538330492999465,-0.09248017077804103, ,0.001009373477155018, ,0.007288030060772546,0.0012961426643219416,-0.02479401856570457,0.03208950897783471,0.04011308707090304,-0.012491544842935302, ,0.025875446365415666, ,0.05136912468500742, ,9.621915025281061e-05, ,0.19096773851382368,-0.2165299843275068,0.10244061354000002,1.6890524947678438,0.4868358486642643,-1.305739653674245, ,0.033007631846424614,0.04529686947898366,0.02556791576243981,-0.0012736241967444522,0.075779940933763,-0.07462157811226114, ,1.7642490863800049
0.013502120812909576,0.02088488493018111,-0.09195727772783066, ,0.013976720648030733,0.020540771797397404,-0.09261682251249166, ,0.0008824161006151071, ,0.007745426617471302,0.0005595411482618893,-0.024877451021505095,-0.03029645488960864,-0.022726817792356566,0.013231671772693075, ,0.026061317869797297, ,0.03787312896023265, ,9.734106537493985e-05, ,0.191322984226038,-0.2159893930263111,0.10272450105000001,1.6886331148808746,0.48724575816356064,-1.306073907385334, ,0.03249895258851739,0.05118497387188284,0.025324024674085854,-0.027982362076447942,0.01628631887768985,-0.025120018200454897, ,1.7696709632873535
0.013580217080435443,0.020889908505395027,-0.09220221814185452, ,0.01402146865736842,0.020543198763205102,-0.0927529910918334, ,0.0007862960268904321, ,0.007788765047853594,0.0006218562869382046,-0.02430445289007454,-0.03407714596376231,-0.029763556364287996,0.016872933777745798, ,0.02552955143550554, ,0.045245029382614356, ,9.82999209602568e-05, ,0.19164733900675543,-0.21547969265661227,0.10297338873,1.68842342493739,0.48724575816356064,-1.306073907385334, ,0.033485159336087075,0.048840422829887174,0.024772646220839814,-0.030981216524390356,0.010688921360242465,-0.019767878379269282, ,1.7751588821411133
0.013580217080435443,0.020889908505395027,-0.09220221814185452, ,0.014066250348963841,0.020545611380497573,-0.09288867699144307, ,0.0009088424508722567, ,0.007788765047853594,0.0006218562869382046,-0.02430445289007454,-0.03407714596376231,-0.029763556364287996,0.016872933777745798, ,0.02552955143550554, ,0.045245029382614356, ,9.945055522350678e-05, ,0.19164733900675543,-0.21547969265661227,0.10297338873,1.68842342493739,0.48724575816356064,-1.306073907385334, ,0.033485159336087075,0.048840422829887174,0.024772646220839814,-0.030981216524390356,0.010688921360242465,-0.019767878379269282, ,1.7809419631958008
0.013580217080435443,0.020889908505395027,-0.09220221814185452, ,0.01411106534868524,0.020548009639789075,-0.09302388068763622, ,0.0010362548225928338, ,0.007788765047853594,0.0006218562869382046,-0.02430445289007454,-0.03407714596376231,-0.029763556364287996,0.016872933777745798, ,0.02552955143550554, ,0.045245029382614356, ,0.00010096152984829601, ,0.19164733900675543,-0.21547969265661227,0.10297338873,1.68842342493739,0.48724575816356064,-1.306073907385334, ,0.033485159336087075,0.048840422829887174,0.024772646220839814,-0.030981216524390356,0.010688921360242465,-0.019767878379269282, ,1.7837588787078857
0.013657586219046634,0.02089682458302087,-0.09244781988747888, ,0.014155913283497744,0.020550393532037595,-0.0931586026576673, ,0.0009346424357189011, ,0.008104914634161171,0.00027967709779485336,-0.024616107278319303,-0.030542710778908914,-0.024036988482212203,0.0160129235024687, ,0.025917573151122687, ,0.038866759043008924, ,0.00010230401117820038, ,0.19199486198609553,-0.21497771501978769,0.10322486899000001,1.68842342493739,0.487655667662857,-1.3065715185767046, ,0.03678176029398092,0.05295588256611093,0.025084742551181104,-0.030981216524390356,0.01998494555473394,-0.026996256978298126, ,1.7867789268493652
0.013657586219046634,0.02089682458302087,-0.09244781988747888, ,0.014200793781456644,0.020552763048638113,-0.09329284337972496, ,0.0010618462684160066, ,0.008104914634161171,0.00027967709779485336,-0.024616107278319303,-0.030542710778908914,-0.024036988482212203,0.0160129235024687, ,0.025917573151122687, ,0.038866759043008924, ,0.00010384668361748945, ,0.19199486198609553,-0.21497771501978769,0.10322486899000001,1.68842342493739,0.487655667662857,-1.3065715185767046, ,0.03678176029398092,0.05295588256611093,0.025084742551181104,-0.030981216524390356,0.01998494555473394,-0.026996256978298126, ,1.7896709442138672
0.013657586219046634,0.02089682458302087,-0.09244781988747888, ,0.01424570647171165,0.0205551181814278,-0.09342660333293346, ,0.0011919168299761396, ,0.008104914634161171,0.00027967709779485336,-0.024616107278319303,-0.030542710778908914,-0.024036988482212203,0.0160129235024687, ,0.025917573151122687, ,0.038866759043008924, ,0.00010559318465498327, ,0.19199486198609553,-0.21497771501978769,0.10322486899000001,1.68842342493739,0.487655667662857,-1.3065715185767046, ,0.03678176029398092,0.05295588256611093,0.025084742551181104,-0.030981216524390356,0.01998494555473394,-0.026996256978298126, ,1.7927310466766357
0.013723560691533836,0.020898319203910318,-0.09266243738710064, ,0.01429065098450578,0.02055745892268527,-0.09355988299734971, ,0.0011149824012311358, ,0.007783471524498294,0.00017976843672673877,-0.025219231221183712,0.03854395404258734,0.048803763858577404,0.0072036430392434314, ,0.026393642587771896, ,0.06218869317338972, ,0.00010721079557898351, ,0.19231921676681296,-0.21449118284871152,0.10344523829,1.68842342493739,0.4884754866614496,-1.3075667409594454, ,0.03843537527682089,0.055854585967316524,0.025900506536585367,-0.025999892095578667,0.0957447196203997,-0.09559116243585275, ,1.7958600521087646
0.013723560691533836,0.020898319203910318,-0.09266243738710064, ,0.014335626951167298,0.020559785265122366,-0.09369268285395807, ,0.001245245379783944, ,0.007783471524498294,0.00017976843672673877,-0.025219231221183712,0.03854395404258734,0.048803763858577404,0.0072036430392434314, ,0.026393642587771896, ,0.06218869317338972, ,0.0005977612440444707, ,0.19231921676681296,-0.21449118284871152,0.10344523829,1.68842342493739,0.4884754866614496,-1.3075667409594454, ,0.03843537527682089,0.055854585967316524,0.025900506536585367,-0.025999892095578667,0.0957447196203997,-0.09559116243585275, ,1.798698902130127
0.013723560691533836,0.020898319203910318,-0.09266243738710064, ,0.014380634004118016,0.0205620972018938,-0.09382500338467417, ,0.0013770803431406877, ,0.007783471524498294,0.00017976843672673877,-0.025219231221183712,0.03854395404258734,0.048803763858577404,0.0072036430392434314, ,0.026393642587771896, ,0.06218869317338972, ,0.0006045379318626986, ,0.19231921676681296,-0.21449118284871152,0.10344523829,1.68842342493739,0.4884754866614496,-1.3075667409594454, ,0.03843537527682089,0.055854585967316524,0.025900506536585367,-0.025999892095578667,0.0957447196203997,-0.09559116243585275, ,1.8015449047088623
0.013723560691533836,0.020898319203910318,-0.09266243738710064, ,0.014425671776865379,0.020564394726589077,-0.09395684507233835, ,0.0015099525781633507, ,0.007783471524498294,0.00017976843672673877,-0.025219231221183712,0.03854395404258734,0.048803763858577404,0.0072036430392434314, ,0.026393642587771896, ,0.06218869317338972, ,0.0006123432305377042, ,0.19231921676681296,-0.21449118284871152,0.10344523829,1.68842342493739,0.4884754866614496,-1.3075667409594454, ,0.03843537527682089,0.055854585967316524,0.025900506536585367,-0.025999892095578667,0.0957447196203997,-0.09559116243585275, ,1.8042700290679932
0.013820386136287732,0.020904601076207303,-0.09297060464839582, ,0.014470739904002607,0.020566677833233057,-0.09408820840071473, ,0.0013364843016363764, ,0.010118646223620825,0.001183139822438374,-0.03272464968903717,0.027394574335740288,0.019266394531965807,-0.016268000307596352, ,0.03427374386477841, ,0.033490582730121315, ,0.0006185324704616245, ,0.1927748580063922,-0.2138501960201509,0.10376153305000001,1.6882137349939055,0.4892953056600422,-1.3084802846020456, ,0.04480497712864532,0.06301257739606293,0.03360508759493671,-0.007937576708099024,0.06787573712467788,-0.08992984659503186, ,1.8070340156555176
0.013820386136287732,0.020904601076207303,-0.09297060464839582, ,0.014515838021207967,0.020568946516285946,-0.09421909385448972, ,0.0014680063370326707, ,0.010118646223620825,0.001183139822438374,-0.03272464968903717,0.027394574335740288,0.019266394531965807,-0.016268000307596352, ,0.03427374386477841, ,0.033490582730121315, ,0.0006257314015342605, ,0.1927748580063922,-0.2138501960201509,0.10376153305000001,1.6882137349939055,0.4892953056600422,-1.3084802846020456, ,0.04480497712864532,0.06301257739606293,0.03360508759493671,-0.007937576708099024,0.06787573712467788,-0.08992984659503186, ,1.80977201461792
0.013820386136287732,0.020904601076207303,-0.09297060464839582, ,0.0145609657652468,0.020571200770645736,-0.09434950191927134, ,0.0016003036068839114, ,0.010118646223620825,0.001183139822438374,-0.03272464968903717,0.027394574335740288,0.019266394531965807,-0.016268000307596352, ,0.03427374386477841, ,0.033490582730121315, ,0.0006339210839321568, ,0.1927748580063922,-0.2138501960201509,0.10376153305000001,1.6882137349939055,0.4892953056600422,-1.3084802846020456, ,0.04480497712864532,0.06301257739606293,0.03360508759493671,-0.007937576708099024,0.06787573712467788,-0.08992984659503186, ,1.8126170635223389
0.01394401735562653,0.020928501809503442,-0.09338876764026983, ,0.01460612277396225,0.020573440591638882,-0.09447943308158324, ,0.0013243878428528225, ,0.012779947497503052,0.003517865449640722,-0.04470068928636097,0.03481936610696154,0.03332365576315367,0.002037478230608731, ,0.046624607859332146, ,0.048194147124903906, ,0.000639674973589829, ,0.19328455837609104,-0.21316287279434493,0.10419190133000002,1.687584665163452,0.4901151246586349,-1.3093121495045053, ,0.049788531772545004,0.06513173751439313,0.04617046817391306,-0.025673669189463684,0.0913091397650251,-0.10162897215501988, ,1.8156318664550781
0.01394401735562653,0.020928501809503442,-0.09338876764026983, ,0.014651308686284727,0.02057566597503124,-0.09460888782886835, ,0.0014537700736834622, ,0.012779947497503052,0.003517865449640722,-0.04470068928636097,0.03481936610696154,0.03332365576315367,0.002037478230608731, ,0.046624607859332146, ,0.048194147124903906, ,0.0006464030322682888, ,0.19328455837609104,-0.21316287279434493,0.10419190133000002,1.687584665163452,0.4901151246586349,-1.3093121495045053, ,0.049788531772545004,0.06513173751439313,0.04617046817391306,-0.025673669189463684,0.0913091397650251,-0.10162897215501988, ,1.81837797164917
0.01394401735562653,0.020928501809503442,-0.09338876764026983, ,0.014696523142220294,0.020577876917015462,-0.09473786664948144, ,0.00158406783653512, ,0.012779947497503052,0.003517865449640722,-0.04470068928636097,0.03481936610696154,0.03332365576315367,0.002037478230608731, ,0.046624607859332146, ,0.048194147124903906, ,0.0006540888093524431, ,0.19328455837609104,-0.21316287279434493,0.10419190133000002,1.687584665163452,0.4901151246586349,-1.3093121495045053, ,0.049788531772545004,0.06513173751439313,0.04617046817391306,-0.025673669189463684,0.0913091397650251,-0.10162897215501988, ,1.8211638927459717
0.01394401735562653,0.020928501809503442,-0.09338876764026983, ,0.01474176578285694,0.02058007341421908,-0.09486637003269091, ,0.001714967559424235, ,0.012779947497503052,0.003517865449640722,-0.04470068928636097,0.03481936610696154,0.03332365576315367,0.002037478230608731, ,0.046624607859332146, ,0.048194147124903906, ,0.0006627138398408316, ,0.19328455837609104,-0.21316287279434493,0.10419190133000002,1.687584665163452,0.4901151246586349,-1.3093121495045053, ,0.049788531772545004,0.06513173751439313,0.04617046817391306,-0.025673669189463684,0.0913091397650251,-0.10162897215501988, ,1.8240149021148682
0.014075244696700094,0.020966043045560455,-0.09385092737919853, ,0.014787036250360194,0.020582255463699524,-0.0949943984686749, ,0.0014005235650715708, ,0.014388923124908281,0.00424706029150363,-0.05108651414523686,0.014231757465914905,0.018555491512315198,0.057061914493425944, ,0.05324387812064099, ,0.023377365638752673, ,0.0006686639182701119, ,0.1937788132800414,-0.21252188596578428,0.10466893605000001,1.6869555953329984,0.4909349436572275,-1.3101440144069647, ,0.05331288851599482,0.06896580055121422,0.05274440900662252,-0.08171713280152998,0.09182011859095685,-0.0950714109033788, ,1.8269240856170654
0.014075244696700094,0.020966043045560455,-0.09385092737919853, ,0.014832334187972274,0.020584423062944477,-0.09512195244852059, ,0.0015278491534741665, ,0.014388923124908281,0.00424706029150363,-0.05108651414523686,0.014231757465914905,0.018555491512315198,0.057061914493425944, ,0.05324387812064099, ,0.023377365638752673, ,0.0006755374001517442, ,0.1937788132800414,-0.21252188596578428,0.10466893605000001,1.6869555953329984,0.4909349436572275,-1.3101440144069647, ,0.05331288851599482,0.06896580055121422,0.05274440900662252,-0.08171713280152998,0.09182011859095685,-0.0950714109033788, ,1.8300259113311768
0.014075244696700094,0.020966043045560455,-0.09385092737919853, ,0.01487765924001196,0.02058657620987169,-0.09524903246422099, ,0.0016560682375650125, ,0.014388923124908281,0.00424706029150363,-0.05108651414523686,0.014231757465914905,0.018555491512315198,0.057061914493425944, ,0.05324387812064099, ,0.023377365638752673, ,0.0006833193909248653, ,0.1937788132800414,-0.21252188596578428,0.10466893605000001,1.6869555953329984,0.4909349436572275,-1.3101440144069647, ,0.05331288851599482,0.06896580055121422,0.05274440900662252,-0.08171713280152998,0.09182011859095685,-0.0950714109033788, ,1.8343369960784912
0.014227888094864236,0.02101889864850847,-0.09439296921469985, ,0.014923011051870296,0.020588714902825066,-0.09537563900867324, ,0.00127823859447083, ,0.01501691569608838,0.004984316324584525,-0.054262232275814275,0.03586455836658344,0.03066612344585826,0.014575239160507375, ,0.05652204010650505, ,0.04718270076326303, ,0.0006880037941023926, ,0.19433485004698556,-0.2118345627399783,0.10523022962,1.6869555953329984,0.4918913991555856,-1.3111689759532614, ,0.05277916660649098,0.06957253779946537,0.05608736450704226,-0.041755349505186085,0.09503830393353632,-0.11029310217743185, ,1.8371319770812988
0.014227888094864236,0.02101889864850847,-0.09439296921469985, ,0.014968389270015203,0.020590839140580314,-0.09550177257567852, ,0.0014003648903215375, ,0.01501691569608838,0.004984316324584525,-0.054262232275814275,0.03586455836658344,0.03066612344585826,0.014575239160507375, ,0.05652204010650505, ,0.04718270076326303, ,0.0006935691151666048, ,0.19433485004698556,-0.2118345627399783,0.10523022962,1.6869555953329984,0.4918913991555856,-1.3111689759532614, ,0.05277916660649098,0.06957253779946537,0.05608736450704226,-0.041755349505186085,0.09503830393353632,-0.11029310217743185, ,1.8399319648742676
0.014227888094864236,0.02101889864850847,-0.09439296921469985, ,0.015013793541981074,0.020592948922333976,-0.09562743365993492, ,0.001524133526822892, ,0.01501691569608838,0.004984316324584525,-0.054262232275814275,0.03586455836658344,0.03066612344585826,0.014575239160507375, ,0.05652204010650505, ,0.04718270076326303, ,0.0007000075989778938, ,0.19433485004698556,-0.2118345627399783,0.10523022962,1.6869555953329984,0.4918913991555856,-1.3111689759532614, ,0.05277916660649098,0.06957253779946537,0.05608736450704226,-0.041755349505186085,0.09503830393353632,-0.11029310217743185, ,1.8426690101623535
0.014227888094864236,0.02101889864850847,-0.09439296921469985, ,0.015059223516381644,0.020595044247718068,-0.09575262275704415, ,0.0016490690984153188, ,0.01501691569608838,0.004984316324584525,-0.054262232275814275,0.03586455836658344,0.03066612344585826,0.014575239160507375, ,0.05652204010650505, ,0.04718270076326303, ,0.0007073080720504894, ,0.19433485004698556,-0.2118345627399783,0.10523022962,1.6869555953329984,0.4918913991555856,-1.3111689759532614, ,0.05277916660649098,0.06957253779946537,0.05608736450704226,-0.041755349505186085,0.09503830393353632,-0.11029310217743185, ,1.8453960418701172
0.014395604902535683,0.021068842559723026,-0.09497751888976065, ,0.015104678842890516,0.020597125116779524,-0.09587734036349908, ,0.0012389438580776328, ,0.01612663434603874,0.004075970751641832,-0.05438581930913735,-0.005211672972048325,0.0011218339038093629,0.003985653459668053, ,0.056872657884305115, ,0.005286231375866582, ,0.0007113663604934446, ,0.1949526686769235,-0.21103139852105895,0.10583430076000001,1.6869555953329984,0.4928478546539437,-1.3120305800192769, ,0.06102697206332526,0.07875264859624131,0.05608736450704226,-0.027638890172816687,0.07000829618514462,-0.07576446255869751, ,1.8481218814849854
0.014395604902535683,0.021068842559723026,-0.09497751888976065, ,0.015150159172258273,0.02059919152999911,-0.0960015869766915, ,0.0013559644841763174, ,0.01612663434603874,0.004075970751641832,-0.05438581930913735,-0.005211672972048325,0.0011218339038093629,0.003985653459668053, ,0.056872657884305115, ,0.005286231375866582, ,0.0007162496796122542, ,0.1949526686769235,-0.21103139852105895,0.10583430076000001,1.6869555953329984,0.4928478546539437,-1.3120305800192769, ,0.06102697206332526,0.07875264859624131,0.05608736450704226,-0.027638890172816687,0.07000829618514462,-0.07576446255869751, ,1.8508710861206055
0.014395604902535683,0.021068842559723026,-0.09497751888976065, ,0.015195664156297242,0.02060124348827549,-0.09612536309490273, ,0.0014752254134288599, ,0.01612663434603874,0.004075970751641832,-0.05438581930913735,-0.005211672972048325,0.0011218339038093629,0.003985653459668053, ,0.056872657884305115, ,0.005286231375866582, ,0.0007219562640770408, ,0.1949526686769235,-0.21103139852105895,0.10583430076000001,1.6869555953329984,0.4928478546539437,-1.3120305800192769, ,0.06102697206332526,0.07875264859624131,0.05608736450704226,-0.027638890172816687,0.07000829618514462,-0.07576446255869751, ,1.8536489009857178
0.014560291081361837,0.021105112728339197,-0.09551099832856097, ,0.015241193447890026,0.02060328099293528,-0.09624866921730676, ,0.0011223285898101342, ,0.01585436486299493,0.0027569923899943244,-0.0485877203514626,0.02032505109760049,0.01568805294676395,-0.02511674498439509, ,0.05118328302482548, ,0.0256700587725148, ,0.0007249441172541534, ,0.19562454643698104,-0.21022051156926538,0.10638522401000002,1.6867459053895137,0.49366767365253633,-1.3129441236618773, ,0.07060784342148123,0.08008180722233821,0.0502486167823344,0.0,0.08890994926842123,-0.09700689000779039, ,1.856705904006958
0.014560291081361837,0.021105112728339197,-0.09551099832856097, ,0.01528674670097862,0.020605304045721404,-0.09637150584396365, ,0.0012320794091930205, ,0.01585436486299493,0.0027569923899943244,-0.0485877203514626,0.02032505109760049,0.01568805294676395,-0.02511674498439509, ,0.05118328302482548, ,0.0256700587725148, ,0.000728700674972219, ,0.19562454643698104,-0.21022051156926538,0.10638522401000002,1.6867459053895137,0.49366767365253633,-1.3129441236618773, ,0.07060784342148123,0.08008180722233821,0.0502486167823344,0.0,0.08890994926842123,-0.09700689000779039, ,1.859454870223999
0.014560291081361837,0.021105112728339197,-0.09551099832856097, ,0.015332323570575807,0.020607312648806192,-0.09649387347582315, ,0.0013453187870131906, ,0.01585436486299493,0.0027569923899943244,-0.0485877203514626,0.02032505109760049,0.01568805294676395,-0.02511674498439509, ,0.05118328302482548, ,0.0256700587725148, ,0.0007332346316784027, ,0.19562454643698104,-0.21022051156926538,0.10638522401000002,1.6867459053895137,0.49366767365253633,-1.3129441236618773, ,0.07060784342148123,0.08008180722233821,0.0502486167823344,0.0,0.08890994926842123,-0.09700689000779039, ,1.862191915512085
0.014560291081361837,0.021105112728339197,-0.09551099832856097, ,0.01537792371275133,0.0206093068047767,-0.09661577261471745, ,0.001461120411569532, ,0.01585436486299493,0.0027569923899943244,-0.0485877203514626,0.02032505109760049,0.01568805294676395,-0.02511674498439509, ,0.05118328302482548, ,0.0256700587725148, ,0.000738547666568119, ,0.19562454643698104,-0.21022051156926538,0.10638522401000002,1.6867459053895137,0.49366767365253633,-1.3129441236618773, ,0.07060784342148123,0.08008180722233821,0.0502486167823344,0.0,0.08890994926842123,-0.09700689000779039, ,1.864966869354248
0.014713567759007704,0.021120004128748822,-0.095956928463969, ,0.015423546784640408,0.020611286516644945,-0.09673720376336294, ,0.001171193138874768, ,0.015119182402002607,0.0007438103907029026,-0.04130745773701034,0.027746026283788968,0.010018491362888184,-0.01513147224622508, ,0.04399373813507143, ,0.02949731984224939, ,0.0007416827786862832, ,0.19635048332715815,-0.2094019018845976,0.10684540696000001,1.686326525502545,0.494487492651129,-1.3137759885643367, ,0.07753018101182253,0.08324293119164104,0.04270458852546917,-0.014503937917317961,0.09327532482612994,-0.11065591196105089, ,1.8678090572357178
0.014713567759007704,0.021120004128748822,-0.095956928463969, ,0.015469192444434367,0.020613251787837832,-0.09685816742535468, ,0.001280624170381165, ,0.015119182402002607,0.0007438103907029026,-0.04130745773701034,0.027746026283788968,0.010018491362888184,-0.01513147224622508, ,0.04399373813507143, ,0.02949731984224939, ,0.0007455600548855269, ,0.19635048332715815,-0.2094019018845976,0.10684540696000001,1.686326525502545,0.494487492651129,-1.3137759885643367, ,0.07753018101182253,0.08324293119164104,0.04270458852546917,-0.014503937917317961,0.09327532482612994,-0.11065591196105089, ,1.8708598613739014
0.014713567759007704,0.021120004128748822,-0.095956928463969, ,0.0155148603513849,0.020615202622202275,-0.09697866410516756, ,0.001393139655636027, ,0.015119182402002607,0.0007438103907029026,-0.04130745773701034,0.027746026283788968,0.010018491362888184,-0.01513147224622508, ,0.04399373813507143, ,0.02949731984224939, ,0.0007501856234623163, ,0.19635048332715815,-0.2094019018845976,0.10684540696000001,1.686326525502545,0.494487492651129,-1.3137759885643367, ,0.07753018101182253,0.08324293119164104,0.04270458852546917,-0.014503937917317961,0.09327532482612994,-0.11065591196105089, ,1.8743128776550293
0.014855968901112522,0.021116349804170896,-0.09632454316233294, ,0.015560550165805615,0.020617139024007903,-0.09709869430815496, ,0.0015079395723771412, ,0.014886115919611526,-0.001230946997746806,-0.036938602121088654,-0.04555332016944346,-0.038132054289810105,0.06690776056046457, ,0.03984434720689334, ,0.059406142546921024, ,0.0007555597649439817, ,0.19710731114883215,-0.20858329219992977,0.10722392364000001,1.6856974556720912,0.49517067514995616,-1.3145781143032407, ,0.08131700219234857,0.08935681879328698,0.03792574171428572,-0.0914061511946384,0.06392807872619959,-0.057728016432473266, ,1.8775138854980469
0.014855968901112522,0.021116349804170896,-0.09632454316233294, ,0.015606261549059895,0.020619060997933737,-0.09721825854054167, ,0.0012684488131648965, ,0.014886115919611526,-0.001230946997746806,-0.036938602121088654,-0.04555332016944346,-0.038132054289810105,0.06690776056046457, ,0.03984434720689334, ,0.059406142546921024, ,0.0007591716596497629, ,0.19710731114883215,-0.20858329219992977,0.10722392364000001,1.6856974556720912,0.49517067514995616,-1.3145781143032407, ,0.08131700219234857,0.08935681879328698,0.03792574171428572,-0.0914061511946384,0.06392807872619959,-0.057728016432473266, ,1.8802728652954102
0.014855968901112522,0.021116349804170896,-0.09632454316233294, ,0.0156519941635727,0.02062096854908227,-0.09733735730942836, ,0.0013801635058660986, ,0.014886115919611526,-0.001230946997746806,-0.036938602121088654,-0.04555332016944346,-0.038132054289810105,0.06690776056046457, ,0.03984434720689334, ,0.059406142546921024, ,0.000763514259972954, ,0.19710731114883215,-0.20858329219992977,0.10722392364000001,1.6856974556720912,0.49517067514995616,-1.3145781143032407, ,0.08131700219234857,0.08935681879328698,0.03792574171428572,-0.0914061511946384,0.06392807872619959,-0.057728016432473266, ,1.8830280303955078
0.014855968901112522,0.021116349804170896,-0.09632454316233294, ,0.015697747672818996,0.020622861682966866,-0.0974559911227843, ,0.0014940871840273236, ,0.014886115919611526,-0.001230946997746806,-0.036938602121088654,-0.04555332016944346,-0.038132054289810105,0.06690776056046457, ,0.03984434720689334, ,0.059406142546921024, ,0.0007685876830566649, ,0.19710731114883215,-0.20858329219992977,0.10722392364000001,1.6856974556720912,0.49517067514995616,-1.3145781143032407, ,0.08131700219234857,0.08935681879328698,0.03792574171428572,-0.0914061511946384,0.06392807872619959,-0.057728016432473266, ,1.8858718872070312
0.015011205101639617,0.02110269947771249,-0.09670772142905355, ,0.015743521741328332,0.02062474040551735,-0.09757416048944859, ,0.0012310358162282839, ,0.014321436441780315,-0.001788726403095142,-0.034815896662791855,-0.015266773529887824,-0.002733363625057468,0.021789746822045066, ,0.03768885437812198, ,0.015507884953764421, ,0.000771776980526814, ,0.19796453449787108,-0.20761795059065172,0.1076179958,1.6854877657286067,0.49599049414854884,-1.3154099792057004, ,0.08117787986182273,0.09177653922482666,0.03579508206741574,-0.046200818491287085,0.09052569476818305,-0.08095685879122705, ,1.888685941696167
0.015011205101639617,0.02110269947771249,-0.09670772142905355, ,0.01578931603468203,0.020626604723077754,-0.09769186591912696, ,0.0013418879300644618, ,0.014321436441780315,-0.001788726403095142,-0.034815896662791855,-0.015266773529887824,-0.002733363625057468,0.021789746822045066, ,0.03768885437812198, ,0.015507884953764421, ,0.0007756818500441952, ,0.19796453449787108,-0.20761795059065172,0.1076179958,1.6854877657286067,0.49599049414854884,-1.3154099792057004, ,0.08117787986182273,0.09177653922482666,0.03579508206741574,-0.046200818491287085,0.09052569476818305,-0.08095685879122705, ,1.891507863998413
0.015011205101639617,0.02110269947771249,-0.09670772142905355, ,0.015835130219511925,0.020628454642405435,-0.09780910792238989, ,0.0014549271361068337, ,0.014321436441780315,-0.001788726403095142,-0.034815896662791855,-0.015266773529887824,-0.002733363625057468,0.021789746822045066, ,0.03768885437812198, ,0.015507884953764421, ,0.0007803025662759137, ,0.19796453449787108,-0.20761795059065172,0.1076179958,1.6854877657286067,0.49599049414854884,-1.3154099792057004, ,0.08117787986182273,0.09177653922482666,0.03579508206741574,-0.046200818491287085,0.09052569476818305,-0.08095685879122705, ,1.8942840099334717
0.015011205101639617,0.02110269947771249,-0.09670772142905355, ,0.015880963963499597,0.02063029017067036,-0.0979258870106712, ,0.0015695790567543464, ,0.014265090808723398,-0.001678720161088527,-0.03556084851810216,0.002151562363350941,0.007601371032147435,-0.030831300331648232, ,0.038352116818863836, ,0.007896403937109204, ,0.0007856355155359032, ,0.19877542144966465,-0.206698945378619,0.10798354958,1.6852780757851225,0.49694694964690694,-1.3161899045315752, ,0.0779761228911017,0.09367911308832258,0.036533971376146786,0.004029766368097772,0.08720509221805722,-0.0913080290534743, ,1.897252082824707
0.015155735883032016,0.02108698413314939,-0.09706276534977204, ,0.015926816935373973,0.020632111315453464,-0.09804220369626489, ,0.0013269418766999762, ,0.014265090808723398,-0.001678720161088527,-0.03556084851810216,0.002151562363350941,0.007601371032147435,-0.030831300331648232, ,0.038352116818863836, ,0.007896403937109204, ,0.0007892684441343198, ,0.19877542144966465,-0.206698945378619,0.10798354958,1.6852780757851225,0.49694694964690694,-1.3161899045315752, ,0.0779761228911017,0.09367911308832258,0.036533971376146786,0.004029766368097772,0.08720509221805722,-0.0913080290534743, ,1.9000308513641357
0.015155735883032016,0.02108698413314939,-0.09706276534977204, ,0.015972688804912552,0.020633918084748553,-0.09815805849232496, ,0.0014395652082855289, ,0.014265090808723398,-0.001678720161088527,-0.03556084851810216,0.002151562363350941,0.007601371032147435,-0.030831300331648232, ,0.038352116818863836, ,0.007896403937109204, ,0.0007936037558953278, ,0.19877542144966465,-0.206698945378619,0.10798354958,1.6852780757851225,0.49694694964690694,-1.3161899045315752, ,0.0779761228911017,0.09367911308832258,0.036533971376146786,0.004029766368097772,0.08720509221805722,-0.0913080290534743, ,1.9027879238128662
0.015155735883032016,0.02108698413314939,-0.09706276534977204, ,0.01601857924294014,0.02063571048696109,-0.09827345191286314, ,0.0015536758096626755, ,0.014265090808723398,-0.001678720161088527,-0.03556084851810216,0.002151562363350941,0.007601371032147435,-0.030831300331648232, ,0.038352116818863836, ,0.007896403937109204, ,0.0007986373456553765, ,0.19877542144966465,-0.206698945378619,0.10798354958,1.6852780757851225,0.49694694964690694,-1.3161899045315752, ,0.0779761228911017,0.09367911308832258,0.036533971376146786,0.004029766368097772,0.08720509221805722,-0.0913080290534743, ,1.9056050777435303
0.015300121190628383,0.02106939111242693,-0.09742666950049758, ,0.01606448792132059,0.02063748853089998,-0.0983883844727428, ,0.001302187400783527, ,0.014741305537285499,-0.001752895092531365,-0.03808223934422147,-0.028034971658452125,0.00662720719768302,-0.020566122092455938, ,0.040873410472085564, ,0.028806239165204223, ,0.0008019501749654301, ,0.1995476947370871,-0.20573360376934094,0.10835688110000001,1.6854877657286067,0.49776676864549957,-1.317021769434035, ,0.07696426728180923,0.09874811816698312,0.03904120470588236,0.0,0.0860173682158372,-0.06570068760739825, ,1.9083819389343262
0.015300121190628383,0.02106939111242693,-0.09742666950049758, ,0.016110414512966954,0.020639252225789138,-0.09850285668768388, ,0.0014141335127520452, ,0.014741305537285499,-0.001752895092531365,-0.03808223934422147,-0.028034971658452125,0.00662720719768302,-0.020566122092455938, ,0.040873410472085564, ,0.028806239165204223, ,0.0008059513732516172, ,0.1995476947370871,-0.20573360376934094,0.10835688110000001,1.6854877657286067,0.49776676864549957,-1.317021769434035, ,0.07696426728180923,0.09874811816698312,0.03904120470588236,0.0,0.0860173682158372,-0.06570068760739825, ,1.911241054534912
0.015300121190628383,0.02106939111242693,-0.09742666950049758, ,0.016156358691830238,0.020641001581255865,-0.09861686907425432, ,0.0015274931339459713, ,0.014741305537285499,-0.001752895092531365,-0.03808223934422147,-0.028034971658452125,0.00662720719768302,-0.020566122092455938, ,0.040873410472085564, ,0.028806239165204223, ,0.0008106367093600221, ,0.1995476947370871,-0.20573360376934094,0.10835688110000001,1.6854877657286067,0.49776676864549957,-1.317021769434035, ,0.07696426728180923,0.09874811816698312,0.03904120470588236,0.0,0.0860173682158372,-0.06570068760739825, ,1.9141230583190918
0.015300121190628383,0.02106939111242693,-0.09742666950049758, ,0.01620232013290844,0.020642736607341,-0.09873042214987529, ,0.0016418794014545562, ,0.014741305537285499,-0.001752895092531365,-0.03808223934422147,-0.028034971658452125,0.00662720719768302,-0.020566122092455938, ,0.040873410472085564, ,0.028806239165204223, ,0.0008159995654380513, ,0.20038947262037757,-0.20475281669431442,0.10877169390000001,1.6852780757851225,0.49872322414385767,-1.3178833735000504, ,0.08835841858330612,0.09703163758534844,0.04305084194594595,-0.004244360190076629,0.09028853361791556,-0.0726181328869717, ,1.916930913925171
0.01545872189767988,0.02105621431082983,-0.09782952821802784, ,0.01624829851223228,0.02064445731448404,-0.09884351643281038, ,0.0013494988529100724, ,0.01665747942652545,-0.0008648759586999005,-0.04169760248886334,-0.020288141437038013,-0.0014680694877602259,-0.017483567745431267, ,0.04491001764181704, ,0.020338088832055925, ,0.0008194194326654361, ,0.20038947262037757,-0.20475281669431442,0.10877169390000001,1.6852780757851225,0.49872322414385767,-1.3178833735000504, ,0.08835841858330612,0.09703163758534844,0.04305084194594595,-0.004244360190076629,0.09028853361791556,-0.0726181328869717, ,1.9205360412597656
0.01545872189767988,0.02105621431082983,-0.09782952821802784, ,0.01629429350687618,0.020646163713535812,-0.0989561524421711, ,0.0014613704351951501, ,0.01665747942652545,-0.0008648759586999005,-0.04169760248886334,-0.020288141437038013,-0.0014680694877602259,-0.017483567745431267, ,0.04491001764181704, ,0.020338088832055925, ,0.0008235082925541604, ,0.20038947262037757,-0.20475281669431442,0.10877169390000001,1.6852780757851225,0.49872322414385767,-1.3178833735000504, ,0.08835841858330612,0.09703163758534844,0.04305084194594595,-0.004244360190076629,0.09028853361791556,-0.0726181328869717, ,1.9232769012451172
0.01545872189767988,0.02105621431082983,-0.09782952821802784, ,0.01634030479495088,0.020647855815750404,-0.0990683306979121, ,0.0015743495956844027, ,0.01665747942652545,-0.0008648759586999005,-0.04169760248886334,-0.020288141437038013,-0.0014680694877602259,-0.017483567745431267, ,0.04491001764181704, ,0.020338088832055925, ,0.0008282604527005543, ,0.20038947262037757,-0.20475281669431442,0.10877169390000001,1.6852780757851225,0.49872322414385767,-1.3178833735000504, ,0.08835841858330612,0.09703163758534844,0.04305084194594595,-0.004244360190076629,0.09028853361791556,-0.0726181328869717, ,1.9260170459747314
0.015632822107200454,0.021046841723772386,-0.09825762242525897, ,0.016386332055604726,0.020649533632787917,-0.09918005172082908, ,0.0012555902065689683, ,0.017670189550462467,-0.0008224126480085535,-0.04317004143828663,-0.03432425409354378,-0.0222868304696493,0.007185809665388027, ,0.04665366479812987, ,0.04092318772101014, ,0.0008309480612154499, ,0.20131620056528451,-0.20377202961928792,0.10921372879,1.6848586958981533,0.49954304314245024,-1.318551880922229, ,0.09386443279769613,0.0978318985138874,0.044618519663865555,-0.030189173662142098,0.07990720433865567,-0.06483563798879986, ,1.9287588596343994
0.015632822107200454,0.021046841723772386,-0.09825762242525897, ,0.016432374969017047,0.020651197176707083,-0.0992913160325549, ,0.0013654090450213343, ,0.017670189550462467,-0.0008224126480085535,-0.04317004143828663,-0.03432425409354378,-0.0222868304696493,0.007185809665388027, ,0.04665366479812987, ,0.04092318772101014, ,0.0008342884423642366, ,0.20131620056528451,-0.20377202961928792,0.10921372879,1.6848586958981533,0.49954304314245024,-1.318551880922229, ,0.09386443279769613,0.0978318985138874,0.044618519663865555,-0.030189173662142098,0.07990720433865567,-0.06483563798879986, ,1.9314839839935303
0.015632822107200454,0.021046841723772386,-0.09825762242525897, ,0.016478433216406886,0.020652846459975754,-0.09940212415556293, ,0.0014765414408597793, ,0.017670189550462467,-0.0008224126480085535,-0.04317004143828663,-0.03432425409354378,-0.0222868304696493,0.007185809665388027, ,0.04665366479812987, ,0.04092318772101014, ,0.0008382775914232152, ,0.20131620056528451,-0.20377202961928792,0.10921372879,1.6848586958981533,0.49954304314245024,-1.318551880922229, ,0.09386443279769613,0.0978318985138874,0.044618519663865555,-0.030189173662142098,0.07990720433865567,-0.06483563798879986, ,1.934251070022583
0.015632822107200454,0.021046841723772386,-0.09825762242525897, ,0.016524506480020372,0.02065448149545733,-0.09951247661315872, ,0.0015886178276678868, ,0.018306734884323408,-0.0008864169355105409,-0.04347981104490333,-0.017955033052191174,-0.009920666107322021,0.028156525792750353, ,0.04718491544560572, ,0.020509691184634127, ,0.0008429093212765774, ,0.20231243310605948,-0.20277579707851295,0.10967131916000002,1.6844393160111841,0.5004994986408083,-1.3193318062481039, ,0.10063302392202628,0.09763059831118392,0.04512411195467422,-0.05295236995468146,0.10423971026983553,-0.08475406033607244, ,1.9373040199279785
