NicholasDascanio/dvrk_moveit_final/test/execution/third_experiment_notsharpbends/thirdexp_400vel3.0/thirdexp_400vel3.0_13.csv
Current Position (x),Current Position (y),Current Position (z), ,Planned Position (x),Planned Position (y),Planned Position (z), ,Position Error,,Cartesian linear Velocity(x),Cartesian linear Velocity(y),Cartesian linear Velocity(z),Cartesian Angular Velocity(x),Cartesian Angular Velocity(y),Cartesian Angular Velocity(z), ,Total Linear Velocity, ,Total Angular Velocity, ,MSE, ,Joint 1 Position,Joint 2 Position,Joint 3 Position,Joint 4 Position,Joint 5 Position,Joint 6 Position, ,Joint 1 Velocity,Joint 2 Velocity,Joint 3 Velocity,Joint 4 Velocity,Joint 5 Velocity,Joint 6 Velocity, ,Time Stamp
0.007927977844438694,0.021571345768876628,-0.07659311842893489, ,0.008136794144699044,0.021477650327116172,-0.07668838682931078, ,0.00024790956248456705, ,5.7872235430730816e-05,-3.6515177635024204e-06,-8.040032388022649e-06,0.2086181999494519,-0.0003140577402422599,-0.0014500243495638374, ,5.854204759425111e-05, ,0.20861843634351615, ,2.0659130207047255e-05, ,0.11804197198252163,-0.27270514325461587,0.08653124637000001,1.6026602380522197,0.12652539878279787,-1.278285013225155, ,0.0007346851708265512,7.389065210028207e-05,1.245461956407875e-05,-0.0011914955196878439,0.0,-0.2088439785002314, ,0.02767491340637207
0.00796123643175609,0.021568094939131296,-0.07663063752440584, ,0.008210762878534138,0.02145022932722695,-0.0768499826965442, ,0.0003525167437890979, ,0.0018793462619509562,-1.456177594624376e-05,-0.0023516864609955273,0.22419937608835122,-0.12960171287163647,-0.03731336498809652, ,0.0030104125345967797, ,0.2589632487778838, ,2.7292104830621132e-05, ,0.11817325844138345,-0.27253524313138294,0.08656754249000001,1.6026602380522197,0.12447585128631626,-1.2857617635654517, ,0.005473115181118814,0.00827670287486269,0.002306183801940061,-0.001140550200513103,-0.1293505419502473,-0.23255022934295133, ,0.05515408515930176
0.008018253564642603,0.021573445006205807,-0.07675037648167238, ,0.008284685482625577,0.021422870830623376,-0.07701116148319279, ,0.0004020788060696735, ,0.001845269816523596,0.0003862518553284788,-0.005634723066027919,0.42838836784173695,-0.04539872052006683,-0.013923668946641404, ,0.005941743449724566, ,0.430787229988641, ,3.132828476072933e-05, ,0.11842038589335863,-0.27218772015204284,0.08668680117000001,1.6026602380522197,0.12187975779077288,-1.2922210911099787, ,0.01083506130722418,0.014676297797474605,0.0056505184533522535,-0.0010946426156026262,-0.0366220851562586,-0.4430959452210843, ,0.08533501625061035
0.008104099292199837,0.021569180034533113,-0.07690190191327631, ,0.008358561231700246,0.021395575248012198,-0.07717192358324355, ,0.00040963545111376943, ,0.0025515740954092183,-0.0003126482678287045,-0.005591995151745178,-0.17336316502626112,-0.05640268802716983,-0.013047694329489615, ,0.006154566522581523, ,0.18230757032867512, ,3.362239436802638e-05, ,0.11886058166718944,-0.27161623791935025,0.08683587452000001,1.6024505481087352,0.11819057229710599,-1.2950119982601551, ,0.019749623633396624,0.02312303644212251,0.005494588313211453,0.0005864717195966629,-0.03801809159377729,0.15048553290875843, ,0.11691999435424805
0.008157293082778556,0.021538664183805803,-0.07706578824196149, ,0.008432389403384928,0.021368342988513134,-0.07733226939114873, ,0.0004191652395526635, ,0.0017727821149639436,-0.0012943818246242912,-0.0041720588929204695,-0.0348920791871806,0.046203504051870785,0.014174591822371534, ,0.004714260932643686, ,0.057898367640303185, ,3.521741928864945e-05, ,0.11960968675598921,-0.27067406450869486,0.08699272561,1.602869927995704,0.1209233022924148,-1.2912778083038228, ,0.024816145805039432,0.030183505584755334,0.003902207623713866,0.0020384587622744653,0.07318362623824716,0.005154966721035326, ,0.14729905128479004
0.00824221988032604,0.0214949166015829,-0.07722545587956638, ,0.008506169278202535,0.021341174459660755,-0.07749219930182528, ,0.0004055341960434013, ,0.002883430171121762,-0.0014316764292113678,-0.005172786345238635,0.059478343164156004,-0.030340947439623223,-0.0072430189283786235, ,0.00609274860167248, ,0.06677010104368192, ,3.6078064500857627e-05, ,0.12049780103652502,-0.2695928819063034,0.08714309525000001,1.602869927995704,0.12133321179171111,-1.2927555643768798, ,0.028557611061832917,0.0351600376281848,0.0048682186797066014,0.0019512545886702344,-0.002542407031614479,-0.0941581843990387, ,0.17542600631713867
0.008332503752971178,0.02145655519713098,-0.07738601882693061, ,0.00857990013956882,0.02131407006740576,-0.07765171371065449, ,0.00039000096862883604, ,0.0031160187038177323,-0.0011532401971268604,-0.005876807986561449,-0.028193356523795003,-0.03229728560740728,-0.004912912438103697, ,0.006751030115895172, ,0.04287166899800404, ,3.648390232891679e-05, ,0.12140136078280929,-0.26857348116690577,0.08729605747000001,1.6030796179391889,0.12133321179171111,-1.2943074604395504, ,0.030357306960483294,0.03407430576605773,0.005646512414037576,0.0002167686189582352,-0.0020799813842229376,-0.005604717950650123, ,0.20545601844787598
0.00839114472706738,0.02143472212271241,-0.07749391050938083, ,0.008653581273788518,0.021287030216117005,-0.07781081301348132, ,0.0004371647714922418, ,0.0029425256445761746,-0.001237359205622018,-0.005176565836639844,-0.02268216636627333,-0.027460850021519212,-0.0036314187981149504, ,0.006081640307827548, ,0.035617115987324616, ,3.736592364846647e-05, ,0.12198056574837612,-0.26794021707121934,0.08739976067,1.6030796179391889,0.12133321179171111,-1.2943074604395504, ,0.02964602985269315,0.03266676129379373,0.004942231312441824,0.0002167686189582352,0.002196121638446002,-0.00971683726591405, ,0.23282194137573242
0.008502506388192832,0.021399350930872037,-0.0777286629870473, ,0.008727211970052282,0.021260055308582798,-0.0779694976066132, ,0.00035762715625242404, ,0.002980197761962418,-0.000680650401243317,-0.0060574096378112315,-0.025959121193181844,-0.026533648192445143,-0.009993751229871575, ,0.006785062651837998, ,0.03712021620852374, ,3.719166190681168e-05, ,0.12312353021376136,-0.2667123025442177,0.08762790771000001,1.603289307882673,0.12215303079030376,-1.294975967861729, ,0.02831054342436479,0.02882653145761567,0.005941369459157032,0.006734684565788199,0.0,-0.0018513039949538583, ,0.26598596572875977
0.008552156747926795,0.0213831460619411,-0.07783525604563234, ,0.008800791520431136,0.021233145746014214,-0.07812776788682044, ,0.0004121680750758162, ,0.002294925614089892,-0.0011048974764110643,-0.004724175960796732,-0.002671515890301577,0.0068059920019105154,-0.0013260201603432994, ,0.005367058832932161, ,0.007311533486838327, ,3.758628402453423e-05, ,0.12364867604920862,-0.2661562657772735,0.08773161091000001,1.603289307882673,0.12269957678936552,-1.2954216394765146, ,0.025278886936193606,0.02935259559494921,0.0045124111954674235,0.00624306960674178,0.031541599134638776,-0.025720059141204562, ,0.29348301887512207
0.008627761679603054,0.02135582725450989,-0.07798252595654119, ,0.00887431921987606,0.021206301928044104,-0.07828562425133426, ,0.00041835035583424554, ,0.002566962742361234,-0.000544311659706184,-0.005658242178297624,-0.012470466221132155,-0.009246455533521993,-0.00439769431604984, ,0.006237088860344147, ,0.01552447944074355, ,3.8307669606637266e-05, ,0.12443639480237953,-0.2653299333597315,0.08787420281000001,1.603289307882673,0.12324612278842728,-1.2958673110913004, ,0.02525198019118435,0.025633965845075844,0.005571462581322142,0.00539958975136244,0.015112287816252802,-0.012323057392675809, ,0.31870198249816895
0.008706021798188123,0.02134624335852179,-0.07818792396032148, ,0.008947794366210824,0.021179524252732094,-0.07844306709784758, ,0.0003890337459787651, ,0.0025137098046447014,-0.0003515813215526671,-0.006491041314651079,-0.007291265791908984,-0.002210766373452611,0.002229069031892999, ,0.006969645884558184, ,0.007619057243720096, ,3.8676542269295846e-05, ,0.12517777715830508,-0.26452676914081213,0.08807772034000001,1.6034989978261578,0.12392930528725449,-1.2965877580900638, ,0.023975983213357956,0.025829325410579963,0.006425498797902381,0.000416465147247019,0.022429813704693907,-0.018290009093970903, ,0.34619903564453125
0.008754074381592133,0.021334516322948575,-0.0783120655993258, ,0.00902121626013083,0.021152813116564032,-0.07860009682451308, ,0.0004328311739725931, ,0.00230264006957997,-0.0007944394587630523,-0.005454724195850987,0.016139111992427485,0.02054900333198584,0.007551877701865513, ,0.005973884950053623, ,0.02612914979506617, ,3.933345927355112e-05, ,0.12566430932938122,-0.263970732373868,0.08819957160000001,1.6037086877696423,0.1246124877860817,-1.297471562569108, ,0.025766207319704255,0.027715228258899178,0.005320244328657315,0.0014019888577100758,0.04758303704372738,-0.043468210804001324, ,0.3706851005554199
0.008831819270129505,0.021304488512257372,-0.07845579246011958, ,0.009094584205198994,0.02112616891445406,-0.0787567138299429, ,0.0004374893837330821, ,0.002566516327555326,-0.0012689496686040744,-0.004707938655376834,-0.014603074129683872,-0.012503008637162909,0.007726790733321635, ,0.005510165669365114, ,0.01922433345281776, ,3.9938446594356354e-05, ,0.1264443053496779,-0.2631289544905775,0.08833827463,1.6039183777131267,0.12488576078561256,-1.2982661495574848, ,0.026641477136010883,0.030730874857017743,0.004480678345991561,-0.00759533428060288,0.016685954554640975,-0.01680628116099178, ,0.3969540596008301
0.008891114510611696,0.02128302778915756,-0.07859334529254464, ,0.009167897507841635,0.02109959203974713,-0.07891291851320834, ,0.000460851977410019, ,0.002622245930485992,-0.0008326703274362462,-0.0069139463896078085,0.02907914995435755,0.020028397610904358,0.01641572250310118, ,0.007441247763145236, ,0.035309115779490655, ,4.062828304374963e-05, ,0.12704667851386742,-0.26241846306614885,0.08847179250000001,1.6039183777131267,0.12556894328443977,-1.2989049178161074, ,0.027682888435959965,0.032577048252135525,0.006755221170483461,-0.00759533428060288,0.05142211927215482,-0.06232352660077116, ,0.4228019714355469
0.008955301942840735,0.021261551706654717,-0.0787386690251918, ,0.009241155477344372,0.02107308288422128,-0.07906871127383865, ,0.0004755634827334121, ,0.003037139981944619,-0.0013029475594847765,-0.0064242691301353485,-0.006066102024643864,-0.011372512329479308,0.0074137671103427435, ,0.007224480982679924, ,0.012889205542429484, ,4.133282750105518e-05, ,0.12766449714380537,-0.2616848034430975,0.08861308811000002,1.6039183777131267,0.12597885278373608,-1.2994842077476183, ,0.030116452414621003,0.03652692130811038,0.006181145331781142,-0.006896445649697623,0.021238579556053495,-0.031013422537885225, ,0.4475231170654297
0.009050924053946698,0.0212231699104108,-0.07893454171695896, ,0.009314357425850808,0.021046641838086775,-0.07922409251182025, ,0.0004294170054341217, ,0.0029495583992796386,-0.0009987494489119891,-0.006990307541858758,0.022967880856526318,0.01980712356344125,0.006090364177069363, ,0.007652567852834138, ,0.03032895775007862, ,4.1680836943022605e-05, ,0.1286221160202092,-0.26058817537495765,0.08880234645000001,1.6037086877696423,0.12666203528256328,-1.3004496909668033, ,0.03146450316925424,0.0347607844536523,0.00683053667238422,0.0030092517535776696,0.05222958136269606,-0.05708944320843141, ,0.4726099967956543
0.009145076331725212,0.021186908649708763,-0.0791301351368709, ,0.009387502668355812,0.0210202692899914,-0.0793790626275964, ,0.00038536229776412454, ,0.0030692079829746813,-0.0012236414220365116,-0.0065067956461969485,-0.0008611575711218535,-0.012472892247542455,-0.009972891463517541, ,0.007297652057603638, ,0.012502584601490153, ,4.173965743311985e-05, ,0.1295256757664935,-0.2595147155054404,0.08899160479000001,1.6041280676566114,0.12707194478185962,-1.301274017118736, ,0.029343519343992198,0.0357561950107275,0.006288516194236085,0.009546641442640513,0.014909025473319504,-0.03340495333559143, ,0.5007410049438477
0.009203541827284735,0.021156568103565445,-0.07924039010298618, ,0.00946059052270455,0.020993965627019415,-0.07953362202206615, ,0.0004224908940595676, ,0.0030125503258115055,-0.0016647183526448135,-0.0047224528197776635,-0.011685775309864223,-0.018883904840222347,-0.009932058892556743, ,0.0058436553024802445, ,0.02220718812138196, ,4.1995580805587e-05, ,0.13011260346493453,-0.2588042240810118,0.0890940117,1.6041280676566114,0.12748185428115594,-1.3017716283101062, ,0.03091105588223804,0.03521222321279064,0.004436994852367688,0.008324482187166249,0.010245358364586805,-0.022388253897084858, ,0.5258550643920898
0.009293340523426244,0.02111708122580599,-0.0794031895691322, ,0.009533620309586953,0.02096773123469518,-0.07968777109658348, ,0.0004012810003585279, ,0.003080293097553372,-0.0008040011354213917,-0.006853676645748502,-0.026062618518534676,-0.008086326149983142,-0.005682777527707675, ,0.007556950903444607, ,0.027288252775219242, ,4.211704316552578e-05, ,0.13103160867696725,-0.25780026880736256,0.08925345537000001,1.6041280676566114,0.1280284002802177,-1.3027073723657354, ,0.02926208497023459,0.03166397783065425,0.0067437813378492814,0.006985502454974448,0.020066034028808667,-0.004452454549206959, ,0.5513041019439697
0.009342861628180396,0.02110349402943003,-0.07952322512573091, ,0.00960659135253566,0.020941566496983782,-0.079841510252957, ,0.00044393616149842366, ,0.0028511704971218503,-0.0007408711967815246,-0.006416825030952021,0.00696500142523722,-0.010494069952246927,0.00039793655323833654, ,0.007060715743586549, ,0.012595107706443303, ,4.243984303124066e-05, ,0.13151041811516917,-0.25725195477329266,0.08937141776,1.6043377576000957,0.12857494627927946,-1.3033980802009428, ,0.026678926499429514,0.02931632423802001,0.006313440951248514,0.0,0.016727934331995348,-0.03602987447942978, ,0.5763161182403564
0.00943217704208668,0.021077449606123067,-0.07970673634933545, ,0.009679502977921375,0.020915471796293366,-0.0799948398934483, ,0.00041280816554922886, ,0.003285233473672725,-0.0006087326073927105,-0.00649379627420713,-0.013974718707250497,-0.02989210186105347,-0.0037055395688052805, ,0.007302924374163359, ,0.03299743179507659, ,4.2790510118797134e-05, ,0.13235991873133388,-0.2563561177598826,0.08955160207000001,1.6043377576000957,0.1289848557785758,-1.3039773701324537, ,0.02989821725219621,0.027984942954429604,0.006456753757600325,0.0,0.0,-0.013765438901678334, ,0.5981500148773193
0.00948760409343909,0.021066769541319513,-0.07983553293654293, ,0.009752354514950066,0.020889447513476475,-0.08014776042077203, ,0.00044611869402283433, ,0.002670139238012025,-0.0005899030063323112,-0.006206740394690839,0.011485974706527983,0.01113096719714958,-0.0011536041970039222, ,0.0067824225343411275, ,0.015994562716491648, ,4.3268826308071134e-05, ,0.1329391236969007,-0.2558155264586869,0.08967993478000001,1.6045474475435806,0.12994131127693384,-1.3048389741984692, ,0.02687537285711435,0.026822199422970826,0.006157252230382684,0.0073855414205217795,0.037358459797298946,-0.03712721019421566, ,0.6240360736846924
0.009542140513569938,0.021053684743973587,-0.07995242484809859, ,0.009825145295658488,0.020863494027832705,-0.08030027223809483, ,0.00048709549568679765, ,0.003163714556876935,-0.0004927243279057799,-0.007078499533453812,-0.022579295765537657,-0.025535290222867782,-0.01025732988260833, ,0.007768978227914598, ,0.03408629675196401, ,4.3895248020169925e-05, ,0.13343337860085108,-0.2552903806232396,0.08979530459000001,1.6045474475435806,0.13007794777669932,-1.3050320708423062, ,0.02724574836591179,0.02829366176460071,0.00703880314626602,0.006766380402047224,0.0,-0.004591818901924245, ,0.6475739479064941
0.009635768493662019,0.02102614774184557,-0.0801524653947085, ,0.009897874654911173,0.020837611717109825,-0.08045237574903416, ,0.0004406718654732473, ,0.0030464896858477704,-0.001032325790594842,-0.006121508243554868,-0.019375965857008612,-0.010514035775246178,-0.005163427580909231, ,0.006915176000639052, ,0.022044795135795735, ,4.427941060090764e-05, ,0.13436010654575803,-0.2543327617468358,0.08999234067,1.6045474475435806,0.1310344032750574,-1.3063020686090248, ,0.02923504052941182,0.03154818535853417,0.005992780857787812,0.005693087251722639,0.017867737430674133,-0.011154140147124637, ,0.6701629161834717
0.009700096519509038,0.02100940232031008,-0.08028759214650563, ,0.009970541930397217,0.020811800957505244,-0.08060407135765803, ,0.00046081027543279373, ,0.003203159706319828,-0.0006995240248291431,-0.00699352069727181,-0.00663049513495237,-0.015435526689016038,-0.0010538757885508105, ,0.007723917251542333, ,0.016799372999388808, ,4.472163047902188e-05, ,0.13497020244282176,-0.2537072203840236,0.09012585854,1.6047571374870648,0.13144431277435373,-1.3065546435799735, ,0.029181101340243164,0.030173908285682283,0.00693159770234987,0.0005569157135750739,0.014056361486778112,-0.023197994916496645, ,0.6932971477508545
0.009754150550606099,0.02099166363511531,-0.08042849054835208, ,0.0100431464626259,0.0207860621236685,-0.08075535946848325, ,0.0004823213758699588, ,0.0032193427898028503,-0.0007970581112705186,-0.0068864800711737435,-0.007071535702307521,-0.007817254036030157,0.0010662866581346185, ,0.007643499028695618, ,0.010541160389879088, ,4.5221824583591295e-05, ,0.13554940740838858,-0.25305851082258873,0.09026456157000001,1.6047571374870648,0.1328106777720081,-1.3078321800972188, ,0.030474290802334866,0.030921127910873505,0.006818840547945207,0.000614158094130115,0.0232431481975705,-0.023489625361302866, ,0.7164750099182129
0.009822782989809438,0.020970858681813972,-0.08056987845010789, ,0.010115687594923223,0.02076039558870324,-0.08090624048647611, ,0.0004931807384401539, ,0.0033465870412022194,-0.000997595253628326,-0.006922413451436751,-0.021134926099564796,-0.020380526186139697,-0.002950600293101488, ,0.007753363728539818, ,0.029360703890778876, ,4.5733132528227186e-05, ,0.1361517805725781,-0.25237118759678273,0.0904032646,1.6049668274305493,0.1328106777720081,-1.3078321800972188, ,0.030396201652296857,0.03325050510107595,0.00680718441025641,0.0010077129757402573,0.010086042480320204,-0.01167567162166884, ,0.7383091449737549
0.00991202312476575,0.020929436439053366,-0.0807607113945086, ,0.01018816467342936,0.020734801724167716,-0.0810567148170501, ,0.00044917129615908386, ,0.0032989340378595713,-0.001392603462025755,-0.006530385005601798,-0.008520595392193173,-0.008702052161766229,0.008444814589009735, ,0.007447700216173001, ,0.012178926298607548, ,4.604749568269234e-05, ,0.13710167671610773,-0.2512900049943913,0.09058863407000001,1.605176517374034,0.1344503157691934,-1.3094142311619974, ,0.03208145421178863,0.03641478954661196,0.006348669398166602,-0.007238690681897914,0.02600128560270121,-0.028508571477598187, ,0.7608981132507324
0.0099820864402023,0.02090474871906492,-0.08089989646833674, ,0.01026057704709337,0.020709280900078224,-0.08120678286606552, ,0.0004581964071191692, ,0.0034785990545363184,-0.00136295583057882,-0.006450655396543643,-0.030275296035580053,-0.033131075928999894,0.0017466216590941274, ,0.007454478856585978, ,0.04488052730401058, ,4.637649363748219e-05, ,0.13773494081179413,-0.2505717908370884,0.09072474452000001,1.605176517374034,0.13458695226895884,-1.3095256490656937, ,0.03141242686477021,0.03571582294259344,0.006276127470449173,-0.006937722161454522,0.0,-0.006025091930629901, ,0.783149003982544
0.010042466461872892,0.020873179521442742,-0.08102590106688706, ,0.010332924067671152,0.02068383348490984,-0.08135644503982914, ,0.00047903743106891817, ,0.0027040183633871883,-0.00137134678846438,-0.005441750542340028,0.01313440632418456,0.018283236760414216,0.01403489544843048, ,0.006229362430363535, ,0.022511982834797585, ,4.676092595765679e-05, ,0.13839137310610322,-0.24981496301541445,0.09084659578000001,1.605176517374034,0.1358166807668478,-1.3106917676792427, ,0.029199058941067932,0.03266676129379373,0.005270950205162145,-0.00624688229295854,0.05060462382209559,-0.04632601017039906, ,0.8069779872894287
0.010113826663800845,0.02084497003953754,-0.08115354091264752, ,0.010405205089721557,0.020658459845598026,-0.08150570174509256, ,0.0004936645535622001, ,0.003569324776816846,-0.001011136595671626,-0.00703710314017069,-0.02950149346775108,-0.02270279810143149,-0.004387384986503475, ,0.007955079960811531, ,0.037225732245383045, ,4.717468770817909e-05, ,0.13905552813328653,-0.24909674885811156,0.09097103962000001,1.6049668274305493,0.13595331726661325,-1.3109665430632202, ,0.032332859134061594,0.03336741967597425,0.006955812890829694,0.002181017594896709,0.009385381760670485,-0.0032538310039313297, ,0.8288240432739258
0.01017851980525627,0.020825902491013785,-0.08129870770801348, ,0.010477419470601618,0.02063316034754197,-0.08165455338905195, ,0.0005031070388370686, ,0.002887573731327115,-0.0007632645303005216,-0.007546181750505168,0.051285202673521185,0.04410627798255789,0.0031523206837090717, ,0.008115757130959658, ,0.06764270652678442, ,4.7758756035475766e-05, ,0.1397119604275956,-0.24842487109805403,0.09111492781000001,1.6053862073175185,0.1370464092647368,-1.3121029225132133, ,0.030193108990922937,0.031984139386070365,0.007499440451977402,0.011036397645398405,0.0738649570900535,-0.08146620072686227, ,0.8503849506378174
0.01024667205944073,0.02080950315465878,-0.08145037242096316, ,0.010549566570465026,0.02060793535460417,-0.08180300037934657, ,0.0005066765633628151, ,0.0034771553926307153,-0.000727182727944746,-0.007431144996460175,-0.023440385952681723,-0.020736829976429973,0.023623910190482864, ,0.008236584261861048, ,0.03129645009295885, ,4.8327618316381656e-05, ,0.14030661085891089,-0.24776843880374494,0.09126529745,1.6058055872044876,0.13731968226426766,-1.3126524732811684, ,0.03116484123430896,0.030631679005316582,0.007408749544186048,-0.024698677984033895,0.01701541471958191,-0.010232415899879582, ,0.8716311454772949
0.010328484269618042,0.020787939519389894,-0.08162755575440286, ,0.010621645752256716,0.0205827852291141,-0.08195104312405872, ,0.00048236502365774526, ,0.0030635940041506336,-0.0007980925998921592,-0.007390419836955815,0.045308034192531314,0.03805738991807153,0.033960458642670964, ,0.008039954314965996, ,0.059170794043353174, ,4.879236572103673e-05, ,0.14110977507783024,-0.24698072005057403,0.09144159289,1.6058055872044876,0.13841277426239118,-1.3136254952508803, ,0.03280226116780877,0.03131912262655801,0.007374449777777778,-0.020002092206549804,0.07815893086343016,-0.07902111370790536, ,0.890531063079834
0.010400344557635326,0.02077026337437723,-0.08178787587002212, ,0.01069365638171044,0.02055771033186919,-0.08209868203171171, ,0.0004772956025000759, ,0.0035536587258131196,-0.0009591112944181231,-0.007308511200170435,-0.019984229744172268,-0.029718556026076374,0.011093455437182962, ,0.008183075264082863, ,0.03581287463875318, ,4.922059613886897e-05, ,0.14173531644064244,-0.2463320104891392,0.09159196253000002,1.6058055872044876,0.13909595676121836,-1.3141825847693624, ,0.03054294868312545,0.03279092659242252,0.0072502555848884855,-0.015395590362826837,0.0042434246273557255,-0.014315681138391668, ,0.9107069969177246
0.010462978464540805,0.020751163116724827,-0.08192271215379672, ,0.010765597827345194,0.02053271102213608,-0.08224591751127003, ,0.0004937220872857467, ,0.0031321983143981253,-0.0008436216156624946,-0.007187671567412656,0.013661096394420992,0.018000974408620845,0.020700841283841833, ,0.007885745765120997, ,0.022597801113679147, ,4.9681021800330896e-05, ,0.14236858053632884,-0.24566785546195588,0.09173455443,1.6058055872044876,0.1397791392600456,-1.314821353027985, ,0.031062828660710567,0.031103553444270987,0.007155800323450135,-0.012494424656865847,0.05373576025070317,-0.04616104776961776, ,0.9305360317230225
0.010529354752020399,0.020726457274161055,-0.08205960638638515, ,0.010837469460460119,0.020507787657654382,-0.08239274997213814, ,0.000503721871143614, ,0.003471782827182473,-0.0013207903322036815,-0.006561421449736606,-0.012314349728501197,-0.01000636923946271,0.011641600339632399, ,0.007539894862783264, ,0.015867281507263062, ,5.0152184091996445e-05, ,0.1430172900977637,-0.24497280950327568,0.09186936859000001,1.6058055872044876,0.14059895825863825,-1.3154898604501637, ,0.03312284173070533,0.03472262771989418,0.006451523499392467,-0.01056990454846255,0.02647773498260788,-0.02351282679142299, ,0.9501669406890869
0.01060070605939124,0.020702761539575724,-0.08221169211919302, ,0.010909270655133353,0.02048294059463618,-0.0825391798241593, ,0.0005007809446092076, ,0.003392341525756805,-0.0009326804220056085,-0.008179458463290263,0.010465324478941149,0.02002125952213655,0.017484742960382733, ,0.008904011149457151, ,0.022591454417330615, ,5.0595129819704234e-05, ,0.14369689059069546,-0.24424687261309858,0.09201973823000001,1.6058055872044876,0.14141877725723084,-1.3162400466124828, ,0.03251008617967481,0.034837350058175766,0.008131093169984687,-0.009146516931497366,0.05643044376623988,-0.0462129045066149, ,0.9700839519500732
0.01067409680802281,0.020677596238389884,-0.08236816617512643, ,0.01098100078821716,0.020458170187768698,-0.0826852074776148, ,0.0004928012096513852, ,0.003833286968515186,-0.0013437014559259397,-0.007749450305193709,-0.023216820216333544,-0.01960767721961068,-0.0019691362015379463, ,0.008749491563417425, ,0.030388842014097084, ,5.099697127162729e-05, ,0.14436104561787877,-0.2434977675242988,0.09217399674000001,1.6055958972610032,0.14196532325629263,-1.31693075444769, ,0.03384341710359157,0.038326713068849265,0.007628741149425289,0.0,0.01466694345651557,-0.01471466165962881, ,0.9894311428070068
0.010749940965095123,0.020651715884765214,-0.08252155546276545, ,0.011052659239333715,0.020433476790217227,-0.08283083334322336, ,0.0004846849113472119, ,0.0034782367467623555,-0.0014487756381520128,-0.007178848686690318,0.013994983364608951,0.021884756076310644,0.004059996172200941, ,0.008107585965170278, ,0.025976953032037155, ,5.135977272743928e-05, ,0.1450715370423074,-0.24274093970262478,0.09232566267,1.6060152771479719,0.1426485057551198,-1.317732880186594, ,0.035120999836591706,0.03788301060218394,0.007063774509977828,0.004539672610223333,0.05762137187869911,-0.0508365006914373, ,1.0082449913024902
0.010815605046319574,0.020622060780582308,-0.0826528890423133, ,0.011124245390873125,0.020408860753625087,-0.08297605783213932, ,0.0004951274386441442, ,0.003938015150198677,-0.0015628232789778613,-0.006976468729646287,-0.01512630326805629,-0.02278167206781472,-0.006603524791103999, ,0.008162199204886016, ,0.027346107880944586, ,5.1737513756832225e-05, ,0.1456970784051196,-0.24201500281244767,0.09245399538000001,1.6060152771479719,0.14333168825394704,-1.3184533271853571, ,0.03594581119639045,0.03851336913898976,0.006851101729032258,0.0041677317869449814,0.012529065103094343,-0.022390765765456268, ,1.0303571224212646
0.010899207454191342,0.020590722812305583,-0.08280424341949512, ,0.01119575862798878,0.020384322428116705,-0.08312088135595307, ,0.00048041992056772827, ,0.003989525919235662,-0.0014734878110703943,-0.00745518489127581,-0.011294259928305758,-0.020710403049978787,-0.005705669680217054, ,0.008582963657894242, ,0.023589851182040163, ,5.206062120019262e-05, ,0.1464539062267936,-0.24121183859352835,0.09260306873000002,1.6060152771479719,0.1436049612534779,-1.319002877953312, ,0.035810166625838025,0.03871764241471676,0.0073472377859778604,0.003697517492550073,0.014639997306362663,-0.02648500691529388, ,1.0493409633636475
0.01093811395586286,0.02057374086137837,-0.08288851008493187, ,0.011267198338594436,0.02035986216229858,-0.08326530432668865, ,0.0005440721730606646, ,0.0031869978133002713,-0.0012959880702314314,-0.007511981476386228,0.062957263450026,0.05374460063182998,0.012713655683833827, ,0.008262348687978056, ,0.08277740690714015, ,5.2683493366481624e-05, ,0.14685548833625328,-0.24077164281969754,0.09268603129000001,1.6060152771479719,0.14442478025207056,-1.3198347428557717, ,0.03422176038891842,0.036753269387479,0.007432949846010267,0.0034863841785732095,0.08973017564663627,-0.09882315063088487, ,1.067173957824707
0.011026147963275707,0.020549723620703852,-0.0830706270953374, ,0.011338563913359405,0.020335480303262564,-0.0834093271568045, ,0.0005081551500996221, ,0.004141153460157962,-0.001114759934559414,-0.008533069699880477,-0.030381169997994947,-0.022000050349838412,-0.005432072208002624, ,0.00955013718201448, ,0.03751023407820978, ,5.319157323394389e-05, ,0.14763548435654994,-0.2399684786007782,0.09286751189,1.6060152771479719,0.1449713262511323,-1.3205254506909792, ,0.035290792695600884,0.03744946391415579,0.008495366144000002,0.0031391418471114706,0.01291959352742652,-0.006213802373111458, ,1.083604097366333
0.011104356545098684,0.020531172890760677,-0.08325327282005901, ,0.01140985474570717,0.0203111771965856,-0.08355295025919077, ,0.0004811796167286848, ,0.003363123837889596,-0.0006515921030930607,-0.00988169206353408,0.06024196965600224,0.07344938058280744,0.02103885132279453, ,0.010458633383779494, ,0.09499424362460002, ,5.361352682072779e-05, ,0.1483459757809786,-0.23924254171060108,0.09304639991000001,1.6062249670914566,0.1459277817494904,-1.3213870547569946, ,0.0340987932297775,0.035688958841094694,0.009850842003710576,0.0,0.1075057877680427,-0.09299628702749826, ,1.1015229225158691
0.011140855926867466,0.020525636715561294,-0.0833497071275359, ,0.011481070231810024,0.020286953186333005,-0.08369617404716946, ,0.0005410683199123676, ,0.003952108120728453,-0.0005631829050251566,-0.009693766440312517,0.02781286737404961,0.028377889559973554,0.01076213436890334, ,0.010483579607260563, ,0.03973487286813308, ,5.41760579976201e-05, ,0.14870122149319293,-0.23888729599838676,0.09314751053,1.6062249670914566,0.1468842372478485,-1.32224865882301, ,0.0365550622336174,0.03424646032424063,0.009790295955746774,0.0,0.06683561619999646,-0.06168192450447806, ,1.117872953414917
0.011225350469110036,0.020506302396695812,-0.0835179473825558, ,0.011552209770586524,0.02026280861505957,-0.08383899893449338, ,0.0005188451827460151, ,0.004085669686227038,-0.0012331244695401443,-0.007609393904246203,-0.01837460916319945,-0.023170205039452243,-0.002244661646355627, ,0.008724458053788355, ,0.02957168642398078, ,5.466542374196428e-05, ,0.1494117129176216,-0.23818452730683232,0.09331602823000001,1.6062249670914566,0.1470208737476139,-1.3223600767267065, ,0.03590501004860794,0.03586430142043491,0.0075815380866254166,0.0,0.013103994327837445,-0.01709109809350756, ,1.1346759796142578
0.011299472118775664,0.020477449332326637,-0.08365650850944736, ,0.011623272763696835,0.020238743823812435,-0.08398142533534497, ,0.0005879228150115287, ,0.003163690697159436,-0.0014095300221965924,-0.006949206305525501,0.0527729512608089,0.06586634528908082,0.01934823104900736, ,0.007764482081087061, ,0.0843999988762448, ,5.5312016459774585e-05, ,0.1501376498077987,-0.23745859041665524,0.09345343497000001,1.6062249670914566,0.147977329245972,-1.3233033595328627, ,0.03590501004860794,0.0359186001356816,0.006898575799047208,0.0,0.1047181020105899,-0.08830246464442949, ,1.1511359214782715
0.011332831969572204,0.020463870943021274,-0.08372562021422265, ,0.011694258615540638,0.020214759152131355,-0.0841234536643353, ,0.0005924165416367972, ,0.0037314021901075707,-0.0013529948469027625,-0.007807630357067894,0.021224833636258354,0.029904073868024808,0.004914369121710768, ,0.008758598583831384, ,0.03667079447977489, ,5.595060578055436e-05, ,0.15049289552001302,-0.2371033447044409,0.09352213834,1.606434657034941,0.14879714824456466,-1.323971866955041, ,0.03699685830739601,0.0377024003013392,0.00777015196097561,0.005532102425253227,0.06749875541205161,-0.05769279377552623, ,1.1688151359558105
0.011397618971857263,0.020445965180996954,-0.083855433245515, ,0.011765166733252617,0.02019085493805178,-0.08426508433650348, ,0.0006066189984746041, ,0.004464454960765041,-0.001107348035613455,-0.009053267733627676,-0.028644211066572417,-0.02378494098391888,-0.008089461229433059, ,0.01015476412455851, ,0.03723189740555265, ,5.660499071724827e-05, ,0.15141962346491997,-0.23615344856091128,0.09373991506000001,1.606434657034941,0.14907042124409553,-1.3243580602427154, ,0.036767509321375735,0.038065359630353304,0.008873989704735376,0.005290737749300394,0.008904358799346989,-0.00594628198847655, ,1.1859850883483887
0.011481126629290126,0.020424156174938167,-0.08402764248028499, ,0.011835996526698962,0.020167031518106032,-0.08440631776731565, ,0.0005791724322218313, ,0.004336243413360264,-0.0011433856763589977,-0.008879836868172298,-0.014001879937960001,-0.01129877750741925,-0.004596317405817755, ,0.009947956601743154, ,0.01799208047303857, ,5.71753299741967e-05, ,0.1517748691771343,-0.23579820284869696,0.09382417391,1.606434657034941,0.1496169672431573,-1.3247220531173602, ,0.03743469095008709,0.03805009685584233,0.008888845714285717,0.005056407224079838,0.025667844844865697,-0.02286951331489076, ,1.2022340297698975
0.011537498405477506,0.020405898769053462,-0.08415752670019404, ,0.011906747408474791,0.020143289227324935,-0.08454715437266323, ,0.0005975937757165132, ,0.004012863998424239,-0.0013223151585969076,-0.008599164425090367,0.02152239419668093,0.030334208981935524,0.00581154463885818, ,0.009581086768120006, ,0.037193784957936314, ,5.7772845926946305e-05, ,0.15231546047833,-0.23522672061600433,0.09395380291000001,1.606434657034941,0.1507100592412808,-1.3256950750870722, ,0.0387334455340697,0.039213612214244124,0.008591591974110033,0.004740167967591543,0.06988686481560002,-0.05959134551183408, ,1.2191569805145264
0.011618701948368329,0.020380243052500933,-0.08430426147008319, ,0.011977418793899273,0.020119628399240454,-0.08468759456886285, ,0.0005861245920295202, ,0.004493598078005425,-0.0016628243678243975,-0.008141044601785222,-0.024627264815729022,-0.022461936295971995,-0.006774309152789306, ,0.009446375800969437, ,0.033332277430564036, ,5.832721517802928e-05, ,0.15302595190275867,-0.2345239519244499,0.09410028368000001,1.606434657034941,0.15098333224081167,-1.3259179108944652, ,0.03932736906691702,0.04165800770784494,0.008073396614292957,0.004388960479256694,0.01629055506208813,-0.015896279952239918, ,1.2351789474487305
0.011662372949054927,0.02036465800645009,-0.08438775243807696, ,0.01204801010101169,0.020096049365887873,-0.08482763877265603, ,0.000643713136500583, ,0.004634335111108076,-0.0013382677616286,-0.008558969619677139,-0.028197789362991155,-0.02976309246669023,-0.007978837006285353, ,0.009824662003062484, ,0.04099947502358059, ,5.9132883508945606e-05, ,0.15341208854646987,-0.23411464708211602,0.09418324624,1.606434657034941,0.1512566052403426,-1.326140746701858, ,0.039343673946298,0.039100511560968595,0.008563877161290324,0.004221760782152438,0.00884105378068965,-0.009817864921009202, ,1.2502970695495605
0.011756641268378689,0.02033690939043903,-0.08459316041561205, ,0.012118520750571531,0.020072552457804472,-0.08496728740120589, ,0.000583791357261863, ,0.004410907387256381,-0.001080078707728281,-0.009635463336278093,0.001845038821671804,0.002316463329599623,0.003098078547449639, ,0.010651987030530982, ,0.002961433361800483, ,5.978475441328301e-05, ,0.15430792555987993,-0.2332265328015802,0.09438935635000001,1.6066443469784255,0.15289624323752785,-1.3277227977666368, ,0.03805009685584233,0.03884442961869455,0.009677285249088702,0.0005115734037479763,0.04136457428755316,-0.0401551185941639, ,1.2640321254730225
0.01180408904663401,0.020325627775240766,-0.0846913212622643, ,0.012188950166050217,0.020049138004035676,-0.08510654087209851, ,0.0006300571396391135, ,0.0050384400974175765,-0.0011208539662407497,-0.010635585943733481,-0.024128398547261853,-0.027238510458335814,-0.005399091956996873, ,0.011821923726511014, ,0.03638840381715533, ,6.0525544944765556e-05, ,0.15469406220359116,-0.23282495069212053,0.09448787439,1.6068540369219102,0.1530328797372933,-1.3278342156703333, ,0.04043329423028154,0.04197122581091144,0.010683307525150905,0.0020206166520985694,0.013081220550038915,-0.01703753653048843, ,1.277508020401001
0.011855793407898689,0.020316372147030637,-0.08479913440058444, ,0.012259297773630036,0.02002580633213431,-0.08524539960334089, ,0.0006681294014948603, ,0.00511577801078649,-0.0008971939064578577,-0.010067636624506274,-0.0307069990022277,-0.040400146759111966,-0.00781424678022218, ,0.011328435406733438, ,0.05074535981203315, ,6.133417697302005e-05, ,0.15550494915538474,-0.23203723193894962,0.09469528079,1.6068540369219102,0.15385269873588595,-1.3288294380530739, ,0.04223272877546541,0.04213896161566198,0.010668996329537843,0.0020206166520985694,0.10047448404117983,-0.08945299219440322, ,1.2914581298828125
0.011951037268317425,0.02029338360371254,-0.08501143024509199, ,0.012329563002200816,0.02000255776816273,-0.08538386401336036, ,0.0006054488496824354, ,0.004862593832125013,-0.0012290038932937794,-0.01007356286657909,0.011850939189058184,0.004516243443919539,0.0026414533965618673, ,0.011253085717831913, ,0.01268231488234082, ,6.198795807765318e-05, ,0.1559374221963413,-0.23161248163086728,0.09480416915,1.6068540369219102,0.15453588123471315,-1.3295498850518372, ,0.042920371577779635,0.04143971247094794,0.010256800721184806,0.0020206166520985694,0.052266328162380436,-0.05591795986873056, ,1.305495023727417
0.01198407434604986,0.020285703629089807,-0.08507568149079683, ,0.012399745283355492,0.01997939263669507,-0.08552193452100283, ,0.0006824591703174825, ,0.005228145870339783,-0.0012408301823448975,-0.009873613619486857,-0.014332993075886568,-0.03196117088217791,-0.005780063709782215, ,0.011241059322407536, ,0.03502786092291077, ,6.279427708182897e-05, ,0.1562463315113103,-0.23131901778164674,0.09487546510000001,1.6068540369219102,0.1546725177344786,-1.329742981695674, ,0.04341122669646422,0.04104538994743546,0.009955507200000002,0.0020206166520985694,0.011277530107835929,-0.025906885629251454, ,1.319577932357788
0.012095512518413053,0.020255666125166563,-0.0852859330548535, ,0.012469844051386599,0.01995631126081916,-0.08565961154553295, ,0.0006077606813403158, ,0.005056678812113294,-0.0017453422825712778,-0.00889911119146712,-0.017050133305790097,-0.031630499246951806,-0.006273867454541241, ,0.010383178718018003, ,0.035933208492200004, ,6.342337621658522e-05, ,0.15717305945621723,-0.23040773530248826,0.09508676037000001,1.6068540369219102,0.15494579073400946,-1.3302925324636292, ,0.042978687300032056,0.04385256079411774,0.008883888187395427,0.0020206166520985694,0.01117438317931099,-0.02595531754867867, ,1.3358190059661865
0.01214855132473068,0.020236132935392497,-0.08538684908887614, ,0.01253985874328402,0.019933313962137218,-0.08579689550663228, ,0.0006426187758639616, ,0.004298668410966732,-0.00155909478471072,-0.008197562054722371,0.06985668801263575,0.026377277358914684,0.007526761705793049, ,0.009386658100526484, ,0.07467072775823828, ,6.411299887501963e-05, ,0.15768275982591604,-0.22991348039853787,0.09518787099,1.6068540369219102,0.15576560973260212,-1.3313694335865107, ,0.04151222290396797,0.039839186212624174,0.008223444254001034,0.0020206166520985694,0.06922050076703781,-0.10890410904389253, ,1.350019931793213
0.012254214390838633,0.020198436856318412,-0.08556606772403766, ,0.012609788798729406,0.019910401060769616,-0.08593378682439883, ,0.0005870392796352955, ,0.005072164865420953,-0.0018013699110568217,-0.008815822152908258,0.00972816343124488,-0.026761052216641473,-0.0064588110222585865, ,0.010329109845973156, ,0.028474392464765554, ,6.467164517535546e-05, ,0.15857859683932607,-0.2290021979193794,0.09536675901000001,1.6070637268653947,0.15590224623236756,-1.3320526026711907, ,0.04355068451513115,0.044035703739429596,0.00881018336283186,0.0033364173491932086,0.016453207454632954,-0.052698590923875174, ,1.3634929656982422
0.012304732442905164,0.0201818301933271,-0.08566053335646545, ,0.012679633660094366,0.019887572875355017,-0.0860702859193459, ,0.0006285184600448618, ,0.005481393165636337,-0.0014751995241647558,-0.010450814537466168,-0.013527418350894048,-0.03751536863409332,-0.008956137503496234, ,0.011892914242055849, ,0.039879741803643225, ,6.530475769437638e-05, ,0.15901106988028266,-0.2285620021455486,0.09546138818000001,1.6070637268653947,0.15617551923189843,-1.3324387959588648, ,0.044035703739429596,0.04461539330440563,0.010507131609498682,0.0033364173491932086,0.005911229125584382,-0.030010866967890813, ,1.3779871463775635
0.012358067753258643,0.020169159098545344,-0.08577478411531621, ,0.012749392772436217,0.019864829723052695,-0.08620639321240063, ,0.000657296015588187, ,0.005232225052889173,-0.0011845238212954046,-0.011455426442085987,0.022136565388416185,0.012088692006835579,0.0028658569050239164, ,0.012649350602198526, ,0.025222287849517317, ,6.598396144615524e-05, ,0.1594667111198619,-0.22811408363884356,0.09557675799000001,1.6070637268653947,0.1567220652309602,-1.3332111825342128, ,0.0445734812393005,0.04393376924003276,0.011576171162790699,0.0033364173491932086,0.057405002899793216,-0.06500189908259649, ,1.3914320468902588
0.01246905913115045,0.02014388473766244,-0.08600209864112063, ,0.012819065583494523,0.0198421719195447,-0.08634210912490353, ,0.0006849011091012334, ,0.005579403980594375,-0.0012741456364079905,-0.011347872206014404,-0.015771264318421147,-0.029981961511707393,-0.007234134064323386, ,0.012709342999757466, ,0.03387699228254426, ,6.684132450789987e-05, ,0.16035482540039772,-0.22722596935830774,0.09580620132,1.6070637268653947,0.15713197473025653,-1.3336271149854426, ,0.04393376924003276,0.044406617481736445,0.011451338260244429,0.0033364173491932086,0.01354718194366072,-0.027548666099439775, ,1.4031140804290771
0.012503202833220997,0.02013442515266746,-0.08607293563042442, ,0.01288865154368718,0.019819599779037796,-0.08647743407860799, ,0.0006413304287682056, ,0.005689966145507598,-0.001639008551786084,-0.011313896142138884,-0.017951664256270636,-0.02612997887790585,-0.006541152134495582, ,0.01276974195843266, ,0.03170233209640102, ,6.759680962049908e-05, ,0.16064056651674402,-0.22693250550908722,0.09587749727000001,1.6070637268653947,0.1574052477297874,-1.333931629532976, ,0.045777588788456725,0.04829360893560853,0.011361491811697575,0.0033364173491932086,0.019395707649716095,-0.02920350244582285, ,1.4146640300750732
0.0125762442268914,0.020111556929169754,-0.08622750413085695, ,0.01295815010610828,0.019797113614263957,-0.08661236849567808, ,0.0006267753011873844, ,0.004749843508085504,-0.001445132134528818,-0.010337138848349076,0.0843126405052132,0.05169756551269199,0.012065823359558638, ,0.011467600438086317, ,0.09890025030740751, ,6.831101415497882e-05, ,0.16126610787955623,-0.2262992414134008,0.09602657062000002,1.6070637268653947,0.1583617032281455,-1.3351199485595537, ,0.04480497712864532,0.04327265916938932,0.010397396553524807,0.0032587538422972177,0.09968354293144725,-0.12798426931758275, ,1.4258451461791992
0.012626429765206922,0.020096134263802166,-0.08632806879836719, ,0.01302756072652233,0.019774713736484453,-0.08674691279868858, ,0.0006630591980451303, ,0.005500677584217193,-0.0019605032344720665,-0.010644320144156774,-0.02078960115019475,-0.005534562958084027,-0.0013221555653833439, ,0.012140946344877182, ,0.021513687886493705, ,6.908599455542656e-05, ,0.16172174911913545,-0.2258281547080731,0.09613416269000001,1.6072734168088794,0.15890824922720723,-1.3358106563947612, ,0.046885840690944064,0.049867021312911604,0.010654723424749164,0.0028405949010572988,0.04179412245455358,-0.02798254615497451, ,1.436600923538208
0.01267583909609909,0.020081962697133103,-0.0864207259832177, ,0.013096882863363444,0.019752400455488987,-0.08688106741062293, ,0.000705551808767531, ,0.0059300553857674675,-0.0014344863197429635,-0.010717245225296174,-0.046481173803859,-0.04305324836080877,-0.00896104130206922, ,0.012332179576171162, ,0.06335677999403821, ,6.993255832376151e-05, ,0.16212333122859512,-0.22542657259861343,0.09622749557000002,1.6072734168088794,0.15904488572697267,-1.3360854317787387, ,0.04761512371222819,0.04426163318958525,0.010858085562372189,0.0028405949010572988,0.004032557598417767,0.0032466350692867798, ,1.4476840496063232
0.012752529873490997,0.020061331666092155,-0.08656575994313966, ,0.01316611597772868,0.019730174079600447,-0.08701483275487384, ,0.0006945395618309779, ,0.006063365100525485,-0.001740266514474262,-0.011737319109140797,-0.011650277773580586,-0.035556700857980246,-0.008155990600671202, ,0.01332507349898951, ,0.03741667710181796, ,7.074431826218799e-05, ,0.16274887259140733,-0.2248164767015497,0.09637397634000001,1.6072734168088794,0.15931815872650357,-1.3364716250664128, ,0.04787938524645347,0.05002474515470257,0.011807866212008898,0.0028405949010572988,0.011989037375845443,-0.03726604486361057, ,1.459244966506958
0.012808118582930314,0.020045968772219223,-0.08668403224274336, ,0.013235259533377605,0.01970803491567413,-0.08714820925524083, ,0.0007156179021513739, ,0.005735898342210543,-0.0013822257978715127,-0.01254759180013774,0.02942765998118515,0.020506934007209612,0.005209548346166939, ,0.013865537780099227, ,0.035868108443498414, ,7.15843971536494e-05, ,0.16321223656386077,-0.22433766726334778,0.09649323502000001,1.6072734168088794,0.15986470472556533,-1.3369172966811984, ,0.04851581879267422,0.04807342530824254,0.01270240153110048,0.0028405949010572988,0.07017104310353436,-0.07642204450134389, ,1.470245122909546
0.012869282746539402,0.020032012479436888,-0.0868145531055931, ,0.01330431299672677,0.01968598326910099,-0.08728119733592953, ,0.0007257715692213615, ,0.00621452663826472,-0.001505086113729767,-0.013118450850856408,0.002191804408304788,-0.007225601867505054,-0.0013421077755683937, ,0.014593813013526628, ,0.007550691385065953, ,7.243109075790137e-05, ,0.16371421420068538,-0.22384341235939742,0.0966254566,1.6072734168088794,0.16041125072462709,-1.3374446470361248, ,0.04991948530166796,0.05074702757137475,0.013262957135720236,0.0028405949010572988,0.04314959569007631,-0.05181638549481877, ,1.4811229705810547
0.012931669688439186,0.020016279911845812,-0.08694409801112579, ,0.013373275836846698,0.01966401944380937,-0.08741379742155139, ,0.0007346570382203715, ,0.006387589214675438,-0.001627744354054187,-0.012700732553551357,-0.011389467017595007,-0.02062320952055501,-0.004191772475437776, ,0.014309418403779813, ,0.023559210500239715, ,7.32818224504229e-05, ,0.16421619183750996,-0.2233337119896986,0.09675638189,1.6072734168088794,0.1608211602239234,-1.3377789007472138, ,0.05121259663166258,0.050937703466704655,0.012845815741935485,0.0028405949010572988,0.030729509154980846,-0.0384164349022485, ,1.4928491115570068
0.01299729099942905,0.019997979022209473,-0.08707486091885568, ,0.013442147525458692,0.01964214374226628,-0.08754600993712187, ,0.0007392546737198312, ,0.006214229062476435,-0.001788893021682302,-0.012309587299016265,0.00521144583038656,0.0017500185229043718,0.0010266113845290893, ,0.01390477330113846, ,0.00549740391858551, ,7.412836397588427e-05, ,0.16476450587157992,-0.22279312068850288,0.09688860347000001,1.6072734168088794,0.16136770622298516,-1.3382245723619997, ,0.05228481628565883,0.051602469580462634,0.012444384000000001,0.0028405949010572988,0.054774596408710595,-0.055673959108289796, ,1.5036051273345947
0.013064382090722387,0.019980214027803433,-0.08720522712276664, ,0.013510927536930978,0.019620356465479737,-0.08767783530806003, ,0.0007431411692925472, ,0.006324947589504281,-0.0016950246185178874,-0.012573118240085364,0.005712939739385798,0.002976115340154039,0.0015094091622239107, ,0.014176084535107889, ,0.006441632462146062, ,7.496947078075999e-05, ,0.1653282653713983,-0.22226025212018138,0.09702082505000001,1.6072734168088794,0.16191425222204694,-1.3386702439767852, ,0.05307435210205301,0.05112981765003813,0.012743049216000004,0.0028405949010572988,0.05683537507051562,-0.0557056844581612, ,1.514958143234253
0.013175488914852096,0.01994638044321364,-0.08742626736531203, ,0.013579615348275158,0.019598657913000337,-0.08780927396018674, ,0.0006564473961611137, ,0.0065137749626168065,-0.001987280055529945,-0.012363857805177975,-0.010475469160064003,-0.012046472635128907,-0.0025475410248841125, ,0.014115364894659331, ,0.015623545038647558, ,7.577759621862298e-05, ,0.16582252027534866,-0.22174282901760833,0.0971439726,1.6074831067523636,0.16246079822110868,-1.339115915591571, ,0.0526912501712775,0.05453847216004068,0.013077841970443352,0.0031467067433761093,0.041438565717672106,-0.042023616854896445, ,1.5255379676818848
0.013175488914852096,0.01994638044321364,-0.08742626736531203, ,0.013648210439143004,0.019577048382923096,-0.08794032631972468, ,0.0007900179864396747, ,0.0065137749626168065,-0.001987280055529945,-0.012363857805177975,-0.010475469160064003,-0.012046472635128907,-0.0025475410248841125, ,0.014115364894659331, ,0.015964105617209384, ,7.682542712697272e-05, ,0.1662395478505568,-0.221318078709526,0.09724378693,1.6074831067523636,0.1627340712206396,-1.3393387513989639, ,0.05379645213065237,0.05355357875760201,0.012493185505882354,0.0031467067433761093,0.042103209773899475,-0.041837190147965005, ,1.533987045288086
0.013253319533999698,0.019921043951833174,-0.08757904906269486, ,0.013716712291822385,0.01955552817188961,-0.08807099281329683, ,0.0007683380031903984, ,0.006350508854567987,-0.0021082961050337863,-0.012478539933731544,0.006972268272192888,0.01138143147874412,0.0020742877040556816, ,0.014159372657578438, ,0.013347254579112946, ,7.782146735254584e-05, ,0.1669037028777401,-0.22064620094946846,0.09739804544000001,1.607692796695848,0.1635538902192322,-1.3400072588211422, ,0.0540107806251968,0.05498084678938052,0.01259194586561265,0.003578303327540643,0.06625187865615889,-0.06060638933536338, ,1.541985034942627
0.01332570947471311,0.019897118163243535,-0.08771248292994878, ,0.013785120391233996,0.019534097575089667,-0.08820127386792563, ,0.0007627312230992192, ,0.006764725976103498,-0.002234640193100632,-0.012676512834698925,-0.005946285873153472,-0.00395955463650465,-0.001140108988405009, ,0.014541289900578862, ,0.007143952775934838, ,7.87961760469134e-05, ,0.1674674623775585,-0.22008244144965008,0.09752378557000001,1.607692796695848,0.16410043621829398,-1.340452930435928, ,0.05665489048266912,0.057304916400042746,0.012753251817453966,0.003578303327540643,0.05461572606813175,-0.050519690673105355, ,1.5508170127868652
0.013391953151667064,0.019876014775561997,-0.08784058407033922, ,0.013853434224928896,0.019512756886262164,-0.0883311699110309, ,0.0007652421461241075, ,0.00689839108880523,-0.0020405873080158467,-0.013527920919627883,-0.0029846320646653482,0.0057455054358817054,0.0011884987337232352, ,0.015321763625100357, ,0.006474442695370414, ,7.97647724168463e-05, ,0.16807755827462223,-0.2194877910183348,0.09766248860000001,1.607692796695848,0.16478361871712116,-1.3411733774346912, ,0.057548175596404356,0.05662108684872958,0.013708099414802067,0.003578303327540643,0.06408414273411576,-0.05225632137733807, ,1.5591509342193604
0.013462045271977382,0.019854955664767172,-0.08797896774328057, ,0.013921653283082487,0.019491506397699147,-0.08846068137043103, ,0.0007585399872035309, ,0.007269515298837079,-0.0019477665862032533,-0.015285892271003935,-0.005754047499837273,0.0017080795844744232,-0.00026311066470353364, ,0.01703813809883856, ,0.0060021466113538, ,8.07105750943563e-05, ,0.1686335950415664,-0.21893175425139064,0.09779730276000001,1.607692796695848,0.16533016471618295,-1.3417007277896174, ,0.05779350886630376,0.05975877931893626,0.01546486555339806,0.003578303327540643,0.060153139460278955,-0.05212886910085318, ,1.5676031112670898
0.013534806850138522,0.019838478321625524,-0.08813196981943477, ,0.013989777058493575,0.01947034640024532,-0.08858980867433981, ,0.0007430581532359887, ,0.007745208881374555,-0.001514932481162082,-0.0165430474827341,-0.00761034864389937,-0.005839941175869581,-0.00126065877812504, ,0.018329094387192137, ,0.009592761875571381, ,8.16180505073145e-05, ,0.16922052274000746,-0.21834482655294957,0.09795804272000001,1.607692796695848,0.1658767107152447,-1.3423914356248248, ,0.05987188741859355,0.058005465500287755,0.016855885206349206,0.003578303327540643,0.05457675395149376,-0.04898347442610067, ,1.575927972793579
0.013534806850138522,0.019838478321625524,-0.08813196981943477, ,0.014057805046579264,0.01944927718330138,-0.08871855225136678, ,0.0008769741096545251, ,0.007745208881374555,-0.001514932481162082,-0.0165430474827341,-0.00761034864389937,-0.005839941175869581,-0.00126065877812504, ,0.018329094387192137, ,0.009592761875571381, ,8.275700538683266e-05, ,0.16922052274000746,-0.21834482655294957,0.09795804272000001,1.607692796695848,0.1658767107152447,-1.3423914356248248, ,0.05987188741859355,0.058005465500287755,0.016855885206349206,0.003578303327540643,0.05457675395149376,-0.04898347442610067, ,1.5840749740600586
0.013617154254859185,0.019821215575495144,-0.0883102846091227, ,0.014125736745373036,0.01942829903482433,-0.08884691253051491, ,0.0008372628521603682, ,0.008106507679985124,-0.0016703401497433208,-0.017591854824038824,-0.00804233156681812,-0.005814603670117318,-0.0015722100533213915, ,0.01944167840315132, ,0.009924063080872238, ,8.38125463115636e-05, ,0.1698615095685681,-0.21771156245726314,0.09813952332,1.607692796695848,0.1665598932140719,-1.343111882623588, ,0.06182211176447608,0.06202414480945802,0.01789754103370787,0.003578303327540643,0.05659288199533045,-0.05250601981657264, ,1.5951249599456787
0.013721105031101551,0.01980243599532276,-0.08853924698495033, ,0.014193571655517696,0.019407412241332474,-0.08897488994118213, ,0.0007543561908794461, ,0.008259344694866574,-0.00166828047762171,-0.0177152605192915,0.010102730598118285,-0.012784750381520027,-0.003128513818718609, ,0.019617094326301293, ,0.01629457772045084, ,8.470901431859526e-05, ,0.17064150558886476,-0.2169392891698407,0.09837285552000001,1.607692796695848,0.1672430757128991,-1.343914008362492, ,0.06226833435595196,0.06202414480945802,0.018039424144960365,0.003578303327540643,0.04989421896575219,-0.07064134765453384, ,1.6034979820251465
0.013806483659814859,0.019781454967345055,-0.08870624602838695, ,0.01426130928026695,0.01938661708790265,-0.08910248491315666, ,0.0007209497554377482, ,0.007870511821565231,-0.002377484645099084,-0.014243966375837669,-0.014999750574599648,-0.034737894623461295,-0.007949308379043663, ,0.0164465184062486, ,0.03783798691558412, ,8.553671416342142e-05, ,0.17129021515029963,-0.21629830234128006,0.09854266951000001,1.607692796695848,0.16751634871242999,-1.344300201650166, ,0.06206470997937919,0.061105564429150536,0.014454456914700545,0.003578303327540643,0.027199151578029383,-0.04462152352290846, ,1.611691951751709
0.013806483659814859,0.019781454967345055,-0.08870624602838695, ,0.014328949125477499,0.019365913858176216,-0.08922969787661941, ,0.0008483197590751565, ,0.007870511821565231,-0.002377484645099084,-0.014243966375837669,-0.014999750574599648,-0.034737894623461295,-0.007949308379043663, ,0.0164465184062486, ,0.03783798691558412, ,8.673326245096263e-05, ,0.17129021515029963,-0.21629830234128006,0.09854266951000001,1.607692796695848,0.16751634871242999,-1.344300201650166, ,0.06206470997937919,0.061105564429150536,0.014454456914700545,0.003578303327540643,0.027199151578029383,-0.04462152352290846, ,1.6172361373901367
0.013891424175102786,0.01974901019312743,-0.0888512185846046, ,0.014396490699608246,0.01934530283435806,-0.08935652926214024, ,0.0008206160530553261, ,0.007538651280722711,-0.0032100914768591546,-0.01214112076184065,0.0011014650331699898,-0.015714211557688026,-0.0039058451499464288, ,0.014647278374351464, ,0.015752758688162154, ,8.787261021179608e-05, ,0.17200070657472827,-0.21558781091685142,0.09868915028000001,1.607692796695848,0.16806289471149174,-1.3449092307452326, ,0.06438055736666945,0.06486462170777224,0.01223411023041475,0.003578303327540643,0.049052498305569694,-0.06442272863855773, ,1.6230340003967285
0.01394831447299131,0.01972601081485639,-0.08894736986157924, ,0.014463933513715076,0.019324784297220413,-0.0894829795006796, ,0.0008448215190845996, ,0.00796063434842069,-0.0029968828138712007,-0.01391317424892865,0.0341869950478821,0.02244617136762395,0.005473152018700896, ,0.01630734262565128, ,0.04089719694693712, ,8.904642827962239e-05, ,0.17249496147867865,-0.21510127874577528,0.09878637203000001,1.607692796695848,0.16860944071055353,-1.3453549023600184, ,0.06993142340344198,0.06682883208343011,0.014121286808510639,0.0034922577790622708,0.09382790673404473,-0.09946392414592818, ,1.6315040588378906
0.01394831447299131,0.01972601081485639,-0.08894736986157924, ,0.014531277081448139,0.019304358526103363,-0.08960904902358498, ,0.0009774739735164692, ,0.00796063434842069,-0.0029968828138712007,-0.01391317424892865,0.0341869950478821,0.02244617136762395,0.005473152018700896, ,0.01630734262565128, ,0.04089719694693712, ,9.04439477148623e-05, ,0.17249496147867865,-0.21510127874577528,0.09878637203000001,1.607692796695848,0.16860944071055353,-1.3453549023600184, ,0.06993142340344198,0.06682883208343011,0.014121286808510639,0.0034922577790622708,0.09382790673404473,-0.09946392414592818, ,1.637105941772461
0.014053519276417042,0.01969102327216056,-0.08914746817880242, ,0.014598520919048705,0.019284025798917002,-0.0897347382625913, ,0.0008986433580744083, ,0.008411865491798327,-0.0022185410132942326,-0.016588530096863868,0.009241027109869926,0.020556928718757507,0.0057603133343972724, ,0.018731276946709598, ,0.022538470317418336, ,9.169439277173458e-05, ,0.1733985212249629,-0.2142286099309879,0.09898988956000002,1.6079024866393328,0.16997580570820792,-1.3467141176174042, ,0.06916686702512448,0.06455574255678284,0.01694554417021277,0.0028489283574374288,0.09124846616775817,-0.07235875387012221, ,1.6427009105682373
0.014053519276417042,0.01969102327216056,-0.08914746817880242, ,0.014665664545344048,0.019263786392144266,-0.08986004764982039, ,0.0010319993626122142, ,0.008411865491798327,-0.0022185410132942326,-0.016588530096863868,0.009241027109869926,0.020556928718757507,0.0057603133343972724, ,0.018731276946709598, ,0.022538470317418336, ,9.316767502359004e-05, ,0.1733985212249629,-0.2142286099309879,0.09898988956000002,1.6079024866393328,0.16997580570820792,-1.3467141176174042, ,0.06916686702512448,0.06455574255678284,0.01694554417021277,0.0028489283574374288,0.09124846616775817,-0.07235875387012221, ,1.6481420993804932
0.014145898385794707,0.019668024959228213,-0.08933283234534861, ,0.01473270748174662,0.01924364058084056,-0.08998497761777771, ,0.0009745462903643936, ,0.009677478923224932,-0.002188022782799718,-0.020689520463496286,-0.008041477029442426,0.006241067087013407,-0.001393319647861052, ,0.02294552895483007, ,0.010179021574500449, ,9.453136177154369e-05, ,0.17413218084801424,-0.21352584123943347,0.09917914790000001,1.6081121765828172,0.17079562470680054,-1.3474643037797231, ,0.07373499732592913,0.07373499732592913,0.02109776360264901,0.006128424801190403,0.08055613935858201,-0.06353642131822558, ,1.6538009643554688
0.014145898385794707,0.019668024959228213,-0.08933283234534861, ,0.014799649252247853,0.01922358863863777,-0.09010952859935381, ,0.0011082287261364042, ,0.009677478923224932,-0.002188022782799718,-0.020689520463496286,-0.008041477029442426,0.006241067087013407,-0.001393319647861052, ,0.02294552895483007, ,0.010179021574500449, ,9.611613074153217e-05, ,0.17413218084801424,-0.21352584123943347,0.09917914790000001,1.6081121765828172,0.17079562470680054,-1.3474643037797231, ,0.07373499732592913,0.07373499732592913,0.02109776360264901,0.006128424801190403,0.08055613935858201,-0.06353642131822558, ,1.6592741012573242
0.014245440362689215,0.019649276310662246,-0.08956014446006062, ,0.014866489383415147,0.0192036308377459,-0.0902337010278228, ,0.0010188131446202664, ,0.01017947191642445,-0.0014580759847060102,-0.024538667924081523,0.013525725962059159,0.02707051751005909,0.0028284988725362256, ,0.026606274778006745, ,0.03026134966968747, ,9.753637280877822e-05, ,0.1748735632039398,-0.2127767361506337,0.09941118381000001,1.6081121765828172,0.17175208020515864,-1.3481625503654577, ,0.073506538774958,0.07460451380382924,0.025084742551181104,0.006128424801190403,0.1016300892384821,-0.08594799996149077, ,1.6699390411376953
0.01434898911226814,0.019637623953916467,-0.08980798680513076, ,0.014933227404390771,0.019183767448952536,-0.0903574953368394, ,0.0009215637446758786, ,0.010939313581982543,-0.0008439834069456763,-0.0268731765086997,0.020834747263286265,0.030629563216494203,0.004580083894760882, ,0.029026686088905785, ,0.03704379598929121, ,9.878036424552191e-05, ,0.17561494555986534,-0.2120585219933308,0.09966525665,1.6081121765828172,0.1727085357035167,-1.3489424756913326, ,0.07759357445500473,0.0732794915509427,0.027606259133448878,0.006128424801190403,0.10943707977235748,-0.09194202698221061, ,1.6755449771881104
0.01434898911226814,0.019637623953916467,-0.08980798680513076, ,0.01499986284688462,0.01916399874162815,-0.0904809119604406, ,0.0010491833608943335, ,0.010939313581982543,-0.0008439834069456763,-0.0268731765086997,0.020834747263286265,0.030629563216494203,0.004580083894760882, ,0.029026686088905785, ,0.03704379598929121, ,0.00010023364518818965, ,0.17561494555986534,-0.2120585219933308,0.09966525665,1.6081121765828172,0.1727085357035167,-1.3489424756913326, ,0.07759357445500473,0.0732794915509427,0.027606259133448878,0.006128424801190403,0.10943707977235748,-0.09194202698221061, ,1.6811370849609375
0.014475098074328455,0.019622328695043694,-0.09009586582704301, ,0.015066395245173355,0.01914432498372552,-0.0906039513330429, ,0.0009144784161970653, ,0.010375292734714669,-0.0018867785614716825,-0.022005328326069818,-0.02569331795070418,-0.022891529637667263,-0.007694768232244532, ,0.02440166198047139, ,0.03441167761955512, ,0.00010144794982393911, ,0.17651850530614963,-0.21120902137716613,0.09996081077,1.6081121765828172,0.1736649912018748,-1.3497224010172075, ,0.07466321129698723,0.072551178561522,0.02253014359264498,0.006128424801190403,0.051656804090953426,-0.04468140311674267, ,1.6866140365600586
0.014587168916849242,0.01959018345507701,-0.09030553898516173, ,0.015132824136096519,0.01912474644178181,-0.0907266138894415, ,0.0008316701910319789, ,0.010375292734714669,-0.0018867785614716825,-0.022005328326069818,-0.02569331795070418,-0.022891529637667263,-0.007694768232244532, ,0.02440166198047139, ,0.03441167761955512, ,0.00010251366896187827, ,0.17651850530614963,-0.21120902137716613,0.09996081077,1.6081121765828172,0.1736649912018748,-1.3497224010172075, ,0.07466321129698723,0.072551178561522,0.02253014359264498,0.006128424801190403,0.051656804090953426,-0.04468140311674267, ,1.6920840740203857
0.014587168916849242,0.01959018345507701,-0.09030553898516173, ,0.015199149059052008,0.019105263380921462,-0.09084890006481003, ,0.000951266753148717, ,0.011098961639546809,-0.003416359951808312,-0.01969958518568399,-0.04812976214658354,-0.04785609793515094,-0.012839936904071852, ,0.022867709139405973, ,0.06787250656256204, ,0.00010377420851462313, ,0.17737572865518852,-0.21036724349387564,0.10017469862000002,1.6081121765828172,0.17421153720093657,-1.3502497513721337, ,0.08503310175490213,0.08331601541568988,0.020086773669609086,0.006128424801190403,0.03672325800451724,-0.03282511854918072, ,1.6978869438171387
0.014587168916849242,0.01959018345507701,-0.09030553898516173, ,0.015265369555993006,0.019085876064857475,-0.09097081029469883, ,0.001075577968377122, ,0.010603544816395185,-0.003235768384553242,-0.018840984033976355,0.013067467187532806,0.01809203968694571,0.0025999662255951055, ,0.02186065047248886, ,0.02231766619805813, ,0.0001052355377256465, ,0.1782097838056048,-0.20957952474070474,0.10036395696000001,1.6081121765828172,0.1750313561995292,-1.3509182587943123, ,0.08786753848006552,0.07927898208727718,0.019331081941747576,0.006128424801190403,0.1070738259544966,-0.09004319452188418, ,1.7033920288085938
0.014690569805156106,0.019557504705969925,-0.09049068304927525, ,0.015331485171424762,0.01906658475589296,-0.09109234501503441, ,0.0010068624658532207, ,0.010603544816395185,-0.003235768384553242,-0.018840984033976355,0.013067467187532806,0.01809203968694571,0.0025999662255951055, ,0.02186065047248886, ,0.02231766619805813, ,0.0001065717648907504, ,0.1782097838056048,-0.20957952474070474,0.10036395696000001,1.6081121765828172,0.1750313561995292,-1.3509182587943123, ,0.08786753848006552,0.07927898208727718,0.019331081941747576,0.006128424801190403,0.1070738259544966,-0.09004319452188418, ,1.7099199295043945
0.014690569805156106,0.019557504705969925,-0.09049068304927525, ,0.015397495452401136,0.019047389714923167,-0.0912135046621176, ,0.0011324452564320483, ,0.010603544816395185,-0.003235768384553242,-0.018840984033976355,0.013067467187532806,0.01809203968694571,0.0025999662255951055, ,0.02186065047248886, ,0.02231766619805813, ,0.00010829014594860851, ,0.1782097838056048,-0.20957952474070474,0.10036395696000001,1.6081121765828172,0.1750313561995292,-1.3509182587943123, ,0.08786753848006552,0.07927898208727718,0.019331081941747576,0.006128424801190403,0.1070738259544966,-0.09004319452188418, ,1.7134981155395508
0.014763020064781059,0.019533504197013666,-0.09061040829144315, ,0.015463399948520811,0.019028291201437255,-0.09133428967262354, ,0.0011268435590028577, ,0.010222651155543369,-0.0038068650930665393,-0.0159568496109561,0.018999387641261592,0.023688571306798942,0.004224747368759191, ,0.019329145557716993, ,0.030366496452302185, ,0.00010999341252562232, ,0.17883532516841696,-0.20903893343950902,0.10048710451000001,1.6081121765828172,0.17585117519812185,-1.351750123696772, ,0.08986452799097612,0.07862215539227074,0.01638766617283951,0.006128424801190403,0.11482370332845557,-0.0953216238927501, ,1.7176949977874756
0.014763020064781059,0.019533504197013666,-0.09061040829144315, ,0.015529198211922841,0.019009289473521183,-0.09145470048360045, ,0.001254854308364798, ,0.010222651155543369,-0.0038068650930665393,-0.0159568496109561,0.018999387641261592,0.023688571306798942,0.004224747368759191, ,0.019329145557716993, ,0.030366496452302185, ,0.00011190469949697318, ,0.17883532516841696,-0.20903893343950902,0.10048710451000001,1.6081121765828172,0.17585117519812185,-1.351750123696772, ,0.08986452799097612,0.07862215539227074,0.01638766617283951,0.006128424801190403,0.11482370332845557,-0.0953216238927501, ,1.7205450534820557
0.014763020064781059,0.019533504197013666,-0.09061040829144315, ,0.015594889797285984,0.018990384787856824,-0.09157473753246684, ,0.0013845276557562921, ,0.010222651155543369,-0.0038068650930665393,-0.0159568496109561,0.018999387641261592,0.023688571306798942,0.004224747368759191, ,0.019329145557716993, ,0.030366496452302185, ,0.00011402573775740539, ,0.17883532516841696,-0.20903893343950902,0.10048710451000001,1.6081121765828172,0.17585117519812185,-1.351750123696772, ,0.08986452799097612,0.07862215539227074,0.01638766617283951,0.006128424801190403,0.11482370332845557,-0.0953216238927501, ,1.7233760356903076
0.014763020064781059,0.019533504197013666,-0.09061040829144315, ,0.015660474261820972,0.018971577399727768,-0.09169440125701456, ,0.00151533049553582, ,0.010222651155543369,-0.0038068650930665393,-0.0159568496109561,0.018999387641261592,0.023688571306798942,0.004224747368759191, ,0.019329145557716993, ,0.030366496452302185, ,0.0001163573596505475, ,0.17883532516841696,-0.20903893343950902,0.10048710451000001,1.6081121765828172,0.17585117519812185,-1.351750123696772, ,0.08986452799097612,0.07862215539227074,0.01638766617283951,0.006128424801190403,0.11482370332845557,-0.0953216238927501, ,1.7261550426483154
0.014763020064781059,0.019533504197013666,-0.09061040829144315, ,0.015725951165271226,0.01895286756301715,-0.09181369209540258, ,0.001646896207385601, ,0.010222651155543369,-0.0038068650930665393,-0.0159568496109561,0.018999387641261592,0.023688571306798942,0.004224747368759191, ,0.019329145557716993, ,0.030366496452302185, ,0.0006507060850669513, ,0.17883532516841696,-0.20903893343950902,0.10048710451000001,1.6081121765828172,0.17585117519812185,-1.351750123696772, ,0.08986452799097612,0.07862215539227074,0.01638766617283951,0.006128424801190403,0.11482370332845557,-0.0953216238927501, ,1.7288899421691895
0.014763020064781059,0.019533504197013666,-0.09061040829144315, ,0.015791320069906817,0.01893425553021189,-0.09193261048615975, ,0.0017789655727188012, ,0.010222651155543369,-0.0038068650930665393,-0.0159568496109561,0.018999387641261592,0.023688571306798942,0.004224747368759191, ,0.019329145557716993, ,0.030366496452302185, ,0.0006608705849557067, ,0.17883532516841696,-0.20903893343950902,0.10048710451000001,1.6081121765828172,0.17585117519812185,-1.351750123696772, ,0.08986452799097612,0.07862215539227074,0.01638766617283951,0.006128424801190403,0.11482370332845557,-0.0953216238927501, ,1.731661081314087
0.015003998380560692,0.019425636674554783,-0.09095582550406778, ,0.015856580540520616,0.018915741552404813,-0.09205115686818316, ,0.0014787292423865592, ,0.013303465784544976,-0.0043177638304501475,-0.024567763281041963,-0.037859629463531774,-0.035741010294705534,-0.010779701589348363, ,0.028270130509239186, ,0.052064982568881285, ,0.0006681728943970536, ,0.18087412664721225,-0.207077359289456,0.1008383991,1.6081121765828172,0.17721754019577626,-1.352945981473877, ,0.10031389171085707,0.10281358782066174,0.025045301132075475,0.006017424101112171,0.0647439048068257,-0.06223430487127913, ,1.7344539165496826
0.015003998380560692,0.019425636674554783,-0.09095582550406778, ,0.015921732144427197,0.018897325879294297,-0.09216933168073536, ,0.0016105728169007862, ,0.013303465784544976,-0.0043177638304501475,-0.024567763281041963,-0.037859629463531774,-0.035741010294705534,-0.010779701589348363, ,0.028270130509239186, ,0.052064982568881285, ,0.0006765127167200955, ,0.18087412664721225,-0.207077359289456,0.1008383991,1.6081121765828172,0.17721754019577626,-1.352945981473877, ,0.10031389171085707,0.10281358782066174,0.025045301132075475,0.006017424101112171,0.0647439048068257,-0.06223430487127913, ,1.7371389865875244
0.015003998380560692,0.019425636674554783,-0.09095582550406778, ,0.015986774451456433,0.018879008759188583,-0.09228713536344553, ,0.0017427096215546871, ,0.013303465784544976,-0.0043177638304501475,-0.024567763281041963,-0.037859629463531774,-0.035741010294705534,-0.010779701589348363, ,0.028270130509239186, ,0.052064982568881285, ,0.0006858653211484691, ,0.18087412664721225,-0.207077359289456,0.1008383991,1.6081121765828172,0.17721754019577626,-1.352945981473877, ,0.10031389171085707,0.10281358782066174,0.025045301132075475,0.006017424101112171,0.0647439048068257,-0.06223430487127913, ,1.7398960590362549
0.015144480256053333,0.019398139990433886,-0.09129293689369541, ,0.016051707033952402,0.018860790439005737,-0.09240456835630656, ,0.0015321649635806696, ,0.015074011738563558,-0.0008490135756334465,-0.04060319403171148,0.17962077359319764,0.20021916122939878,0.04195531993298806, ,0.04331934925091526, ,0.2689818292605312, ,0.0006932244484739665, ,0.18188580465373566,-0.20607340401580682,0.10115599015000001,1.608321866526302,0.1796769971915542,-1.3552782187009746, ,0.11125081073677699,0.10326108983511509,0.04105363793814434,0.00360866896244483,0.3177496799995709,-0.2790869608201229, ,1.74350905418396
0.015144480256053333,0.019398139990433886,-0.09129293689369541, ,0.01611652946676797,0.018842671164276837,-0.09252163109967565, ,0.0016622619338397416, ,0.015074011738563558,-0.0008490135756334465,-0.04060319403171148,0.17962077359319764,0.20021916122939878,0.04195531993298806, ,0.04331934925091526, ,0.2689818292605312, ,0.0007015782198995336, ,0.18188580465373566,-0.20607340401580682,0.10115599015000001,1.608321866526302,0.1796769971915542,-1.3552782187009746, ,0.11125081073677699,0.10326108983511509,0.04105363793814434,0.00360866896244483,0.3177496799995709,-0.2790869608201229, ,1.7466509342193604
0.015144480256053333,0.019398139990433886,-0.09129293689369541, ,0.01618124132726307,0.01882465117914642,-0.09263832403427169, ,0.0017927156755815684, ,0.015074011738563558,-0.0008490135756334465,-0.04060319403171148,0.17962077359319764,0.20021916122939878,0.04195531993298806, ,0.04331934925091526, ,0.2689818292605312, ,0.000710904181059209, ,0.18188580465373566,-0.20607340401580682,0.10115599015000001,1.608321866526302,0.1796769971915542,-1.3552782187009746, ,0.11125081073677699,0.10326108983511509,0.04105363793814434,0.00360866896244483,0.3177496799995709,-0.2790869608201229, ,1.7500369548797607
0.015144480256053333,0.019398139990433886,-0.09129293689369541, ,0.016245842195299415,0.01880673072637591,-0.09275464760117566, ,0.001923372358955979, ,0.015074011738563558,-0.0008490135756334465,-0.04060319403171148,0.17962077359319764,0.20021916122939878,0.04195531993298806, ,0.04331934925091526, ,0.2689818292605312, ,0.0007211793351091817, ,0.18188580465373566,-0.20607340401580682,0.10115599015000001,1.608321866526302,0.1796769971915542,-1.3552782187009746, ,0.11125081073677699,0.10326108983511509,0.04105363793814434,0.00360866896244483,0.3177496799995709,-0.2790869608201229, ,1.7530839443206787
0.015350208339867147,0.019404420798122882,-0.09184313806258038, ,0.01631033165323835,0.01878891004734407,-0.09287060224182873, ,0.00153504817541395, ,0.019128346875244426,0.0011156555869036675,-0.04901126468493934,0.040673846641868384,0.03999835516252679,0.004894847784757892, ,0.052623591739688814, ,0.05704338187960286, ,0.0007280185690613226, ,0.18336856936558676,-0.20481459855730821,0.10175487613,1.6087412464132707,0.18295627318592475,-1.358278963350251, ,0.12166274558778303,0.099368525192116,0.05089077162939297,0.010605749319135755,0.16295949867259799,-0.13644473514650016, ,1.756079912185669
0.015350208339867147,0.019404420798122882,-0.09184313806258038, ,0.016374709285935776,0.018771189382050326,-0.09298618839803208, ,0.001660466285166012, ,0.019128346875244426,0.0011156555869036675,-0.04901126468493934,0.040673846641868384,0.03999835516252679,0.004894847784757892, ,0.052623591739688814, ,0.05704338187960286, ,0.0007357889666955283, ,0.18336856936558676,-0.20481459855730821,0.10175487613,1.6087412464132707,0.18295627318592475,-1.358278963350251, ,0.12166274558778303,0.099368525192116,0.05089077162939297,0.010605749319135755,0.16295949867259799,-0.13644473514650016, ,1.75885009765625
0.015350208339867147,0.019404420798122882,-0.09184313806258038, ,0.016438974680741146,0.018753568969114513,-0.09310140651194408, ,0.001786689603430837, ,0.019128346875244426,0.0011156555869036675,-0.04901126468493934,0.040673846641868384,0.03999835516252679,0.004894847784757892, ,0.052623591739688814, ,0.05704338187960286, ,0.0007444740959247458, ,0.18336856936558676,-0.20481459855730821,0.10175487613,1.6087412464132707,0.18295627318592475,-1.358278963350251, ,0.12166274558778303,0.099368525192116,0.05089077162939297,0.010605749319135755,0.16295949867259799,-0.13644473514650016, ,1.7616169452667236
0.015350208339867147,0.019404420798122882,-0.09184313806258038, ,0.01650312742749115,0.018736049045780807,-0.09321625702608156, ,0.0019134782229916166, ,0.019128346875244426,0.0011156555869036675,-0.04901126468493934,0.040673846641868384,0.03999835516252679,0.004894847784757892, ,0.052623591739688814, ,0.05704338187960286, ,0.0007540560969662776, ,0.18336856936558676,-0.20481459855730821,0.10175487613,1.6087412464132707,0.18295627318592475,-1.358278963350251, ,0.12166274558778303,0.099368525192116,0.05089077162939297,0.010605749319135755,0.16295949867259799,-0.13644473514650016, ,1.7644600868225098
0.015548065860382175,0.019413074709491898,-0.09234220726371854, ,0.01656716711850843,0.01871862984791817,-0.09333074038331687, ,0.0015805121855346378, ,0.02126726065313817,0.0005023331960168567,-0.05367562591314831,-0.051792545761247734,-0.05834505634873367,9.623782718575383e-05, ,0.057737522734323976, ,0.07801389528737744, ,0.0007607752521578903, ,0.18456559296109157,-0.20377975235216214,0.10227209584000001,1.6089509363567556,0.18391272868428285,-1.3590588886761261, ,0.12470031742243204,0.1144715820970697,0.05550108543554008,-0.007314818685942339,0.06930142243782716,-0.0620231637381795, ,1.7680931091308594
0.015548065860382175,0.019413074709491898,-0.09234220726371854, ,0.016631093348596207,0.018701311610023162,-0.0934448570268781, ,0.0017015850699240317, ,0.02126726065313817,0.0005023331960168567,-0.05367562591314831,-0.051792545761247734,-0.05834505634873367,9.623782718575383e-05, ,0.057737522734323976, ,0.07801389528737744, ,0.0007683624281076171, ,0.18456559296109157,-0.20377975235216214,0.10227209584000001,1.6089509363567556,0.18391272868428285,-1.3590588886761261, ,0.12470031742243204,0.1144715820970697,0.05550108543554008,-0.007314818685942339,0.06930142243782716,-0.0620231637381795, ,1.7708609104156494
0.015548065860382175,0.019413074709491898,-0.09234220726371854, ,0.016694905715036273,0.01868409456522099,-0.09355860740034753, ,0.0018238100217279477, ,0.02126726065313817,0.0005023331960168567,-0.05367562591314831,-0.051792545761247734,-0.05834505634873367,9.623782718575383e-05, ,0.057737522734323976, ,0.07801389528737744, ,0.0007768060088565798, ,0.18456559296109157,-0.20377975235216214,0.10227209584000001,1.6089509363567556,0.18391272868428285,-1.3590588886761261, ,0.12470031742243204,0.1144715820970697,0.05550108543554008,-0.007314818685942339,0.06930142243782716,-0.0620231637381795, ,1.773658037185669
0.015767401917669652,0.019415648759415597,-0.09290421037518906, ,0.01675860381758481,0.01866697894526762,-0.09367199194766018, ,0.0014603000513723245, ,0.0216324493098149,-4.4954239621789415e-05,-0.05502793769046527,0.0011252992586754313,0.0019098878325295179,0.012189756602335022, ,0.05912731019157813, ,0.0020998585770319947, ,0.0007822305647495619, ,0.18586301208396128,-0.20255956055803467,0.10285283376000001,1.6089509363567556,0.18500582068240637,-1.359868553165557, ,0.13071204071414708,0.12181892369508443,0.05688861257142858,-0.007314818685942339,0.13695729497224046,-0.12212451983904282, ,1.7763969898223877
0.015767401917669652,0.019415648759415597,-0.09290421037518906, ,0.016822187258468412,0.018649964980552138,-0.09378501111310406, ,0.0015731032084037528, ,0.0216324493098149,-4.4954239621789415e-05,-0.05502793769046527,0.0011252992586754313,0.0019098878325295179,0.012189756602335022, ,0.05912731019157813, ,0.0020998585770319947, ,0.0007884579084003824, ,0.18586301208396128,-0.20255956055803467,0.10285283376000001,1.6089509363567556,0.18500582068240637,-1.359868553165557, ,0.13071204071414708,0.12181892369508443,0.05688861257142858,-0.007314818685942339,0.13695729497224046,-0.12212451983904282, ,1.7791180610656738
0.015767401917669652,0.019415648759415597,-0.09290421037518906, ,0.016885655642381633,0.018633052900097678,-0.09389766534131756, ,0.0016881648146964661, ,0.0216324493098149,-4.4954239621789415e-05,-0.05502793769046527,0.0011252992586754313,0.0019098878325295179,0.012189756602335022, ,0.05912731019157813, ,0.0020998585770319947, ,0.0007954868686058205, ,0.18586301208396128,-0.20255956055803467,0.10285283376000001,1.6089509363567556,0.18500582068240637,-1.359868553165557, ,0.13071204071414708,0.12181892369508443,0.05688861257142858,-0.007314818685942339,0.13695729497224046,-0.12212451983904282, ,1.781925916671753
0.015971123515242654,0.0194057340141673,-0.09339781533302086, ,0.016949008576482807,0.018616242931563748,-0.09400995507728944, ,0.0013979522270165029, ,0.0216324493098149,-4.4954239621789415e-05,-0.05502793769046527,0.0011252992586754313,0.0019098878325295179,0.012189756602335022, ,0.05912731019157813, ,0.0020998585770319947, ,0.0008001571427020273, ,0.1871681539397052,-0.2013702596954041,0.10336357202000002,1.6089509363567556,0.18664545867959165,-1.361368925490195, ,0.14422027592472764,0.12602515479212587,0.0484158404863222,-0.007314818685942339,0.19300946190570553,-0.1607795633869158, ,1.7855429649353027
0.015971123515242654,0.0194057340141673,-0.09339781533302086, ,0.017012245670390343,0.01859953530124837,-0.09412188076635741, ,0.0015027183563144366, ,0.020995768612661708,-0.0022682826272670694,-0.046705244447385955,0.035676403526755406,0.04335089175523904,0.02233584870652567, ,0.05125765566823817, ,0.05614163643409692, ,0.0008055614597298151, ,0.1871681539397052,-0.2013702596954041,0.10336357202000002,1.6089509363567556,0.18664545867959165,-1.361368925490195, ,0.14422027592472764,0.12602515479212587,0.0484158404863222,-0.007314818685942339,0.19300946190570553,-0.1607795633869158, ,1.7887499332427979
0.015971123515242654,0.0194057340141673,-0.09339781533302086, ,0.01707536653617923,0.018582930234089617,-0.0942334428542077, ,0.0016107861633258898, ,0.020995768612661708,-0.0022682826272670694,-0.046705244447385955,0.035676403526755406,0.04335089175523904,0.02233584870652567, ,0.05125765566823817, ,0.05614163643409692, ,0.0008117082131923805, ,0.1871681539397052,-0.2013702596954041,0.10336357202000002,1.6089509363567556,0.18664545867959165,-1.361368925490195, ,0.14422027592472764,0.12602515479212587,0.0484158404863222,-0.007314818685942339,0.19300946190570553,-0.1607795633869158, ,1.791822910308838
0.015971123515242654,0.0194057340141673,-0.09339781533302086, ,0.017138370788379164,0.01856642795366649,-0.0943446417868725, ,0.0017214474123688171, ,0.020995768612661708,-0.0022682826272670694,-0.046705244447385955,0.035676403526755406,0.04335089175523904,0.02233584870652567, ,0.05125765566823817, ,0.05614163643409692, ,0.000818600176822505, ,0.1871681539397052,-0.2013702596954041,0.10336357202000002,1.6089509363567556,0.18664545867959165,-1.361368925490195, ,0.14422027592472764,0.12602515479212587,0.0484158404863222,-0.007314818685942339,0.19300946190570553,-0.1607795633869158, ,1.7946200370788574
0.01617528252766152,0.019365790482017396,-0.09380396770444305, ,0.017201258043967646,0.018550028682203158,-0.09445547801073118, ,0.0014637481864362577, ,0.019704023198978224,-0.005692071030956119,-0.034535572683134945,0.024455490781393807,0.030855739491033922,0.019491696160578827, ,0.0401665779398671, ,0.03937129106873875, ,0.0008234509137368941, ,0.188674086850179,-0.20006511783966016,0.10378486627000001,1.6089509363567556,0.18869500617607327,-1.3630401940456414, ,0.15305958315882384,0.13441493138593594,0.03579508206741574,-0.007314818685942339,0.18918991349438982,-0.15778903425163052, ,1.7985289096832275
0.01617528252766152,0.019365790482017396,-0.09380396770444305, ,0.017264027922370254,0.018533732640568006,-0.09456595197250664, ,0.0015678988522201621, ,0.019704023198978224,-0.005692071030956119,-0.034535572683134945,0.024455490781393807,0.030855739491033922,0.019491696160578827, ,0.0401665779398671, ,0.03937129106873875, ,0.0008290064953673663, ,0.188674086850179,-0.20006511783966016,0.10378486627000001,1.6089509363567556,0.18869500617607327,-1.3630401940456414, ,0.15305958315882384,0.13441493138593594,0.03579508206741574,-0.007314818685942339,0.18918991349438982,-0.15778903425163052, ,1.8012781143188477
0.01617528252766152,0.019365790482017396,-0.09380396770444305, ,0.017326680045453888,0.01851754004827782,-0.0946760641192667, ,0.0016750514019175837, ,0.019704023198978224,-0.005692071030956119,-0.034535572683134945,0.024455490781393807,0.030855739491033922,0.019491696160578827, ,0.0401665779398671, ,0.03937129106873875, ,0.0008352734946751457, ,0.188674086850179,-0.20006511783966016,0.10378486627000001,1.6089509363567556,0.18869500617607327,-1.3630401940456414, ,0.15305958315882384,0.13441493138593594,0.03579508206741574,-0.007314818685942339,0.18918991349438982,-0.15778903425163052, ,1.8040950298309326
0.016383844994593024,0.019295561360925494,-0.0941285975543202, ,0.017389214037525913,0.018501451123497797,-0.09478581489842172, ,0.001439900211494925, ,0.020881603301006423,-0.0077290063036782,-0.030631306325073413,-0.02243182065307829,-0.025670725515139995,0.008268619947586124, ,0.03786892950749179, ,0.03409025901337012, ,0.0008397192793576441, ,0.19033447441813728,-0.19862868952505439,0.10412190167000002,1.6089509363567556,0.19033464417325854,-1.3643772088899984, ,0.1676624409160261,0.1464458974667759,0.031794034970059885,-0.007314818685942339,0.14634199893503122,-0.12270480425777988, ,1.8068881034851074
0.016383844994593024,0.019295561360925494,-0.0941285975543202, ,0.017451629525328406,0.018485466083044882,-0.0948952047577235, ,0.0015440546517633655, ,0.020881603301006423,-0.0077290063036782,-0.030631306325073413,-0.02243182065307829,-0.025670725515139995,0.008268619947586124, ,0.03786892950749179, ,0.03409025901337012, ,0.0008448604134627954, ,0.19033447441813728,-0.19862868952505439,0.10412190167000002,1.6089509363567556,0.19033464417325854,-1.3643772088899984, ,0.1676624409160261,0.1464458974667759,0.031794034970059885,-0.007314818685942339,0.14634199893503122,-0.12270480425777988, ,1.8096230030059814
0.016383844994593024,0.019295561360925494,-0.0941285975543202, ,0.017513926138036064,0.018469585142388743,-0.0950042341452651, ,0.001651078297281934, ,0.020881603301006423,-0.0077290063036782,-0.030631306325073413,-0.02243182065307829,-0.025670725515139995,0.008268619947586124, ,0.03786892950749179, ,0.03409025901337012, ,0.0008507025720411949, ,0.19033447441813728,-0.19862868952505439,0.10412190167000002,1.6089509363567556,0.19033464417325854,-1.3643772088899984, ,0.1676624409160261,0.1464458974667759,0.031794034970059885,-0.007314818685942339,0.14634199893503122,-0.12270480425777988, ,1.812398910522461
0.016603655179196892,0.019212415993645295,-0.09443775118207036, ,0.017576103507252524,0.01845380851565338,-0.09511290350947885, ,0.0014060482643240043, ,0.020881603301006423,-0.0077290063036782,-0.030631306325073413,-0.02243182065307829,-0.025670725515139995,0.008268619947586124, ,0.03786892950749179, ,0.03409025901337012, ,0.0008546978647914309, ,0.19210298024633468,-0.19709958841595793,0.10444338159000001,1.6089509363567556,0.19170100917091293,-1.3654913879269626, ,0.17222675418960212,0.1499161793972682,0.030514964597701155,-0.007314818685942339,0.12448904123180511,-0.10465064835007439, ,1.8155009746551514
0.016603655179196892,0.019212415993645295,-0.09443775118207036, ,0.01763816126700598,0.01843813641562013,-0.09522121329913591, ,0.0015111335478830868, ,0.02139511228154032,-0.008409915892366738,-0.029340113169362768,-0.04386768208541066,-0.05160774974215644,0.002891760210294524, ,0.037273579860907034, ,0.06773264812867955, ,0.0008593866910992284, ,0.19210298024633468,-0.19709958841595793,0.10444338159000001,1.6089509363567556,0.19170100917091293,-1.3654913879269626, ,0.17222675418960212,0.1499161793972682,0.030514964597701155,-0.007314818685942339,0.12448904123180511,-0.10465064835007439, ,1.8186590671539307
0.016603655179196892,0.019212415993645295,-0.09443775118207036, ,0.0177000990537463,0.01842256905372857,-0.09532916396334559, ,0.0016188465353928943, ,0.02139511228154032,-0.008409915892366738,-0.029340113169362768,-0.04386768208541066,-0.05160774974215644,0.002891760210294524, ,0.037273579860907034, ,0.06773264812867955, ,0.00086477293112968, ,0.19210298024633468,-0.19709958841595793,0.10444338159000001,1.6089509363567556,0.19170100917091293,-1.3654913879269626, ,0.17222675418960212,0.1499161793972682,0.030514964597701155,-0.007314818685942339,0.12448904123180511,-0.10465064835007439, ,1.821470022201538
0.016603655179196892,0.019212415993645295,-0.09443775118207036, ,0.017761916506342106,0.018407106640078063,-0.09543675595155274, ,0.001728613023886956, ,0.02139511228154032,-0.008409915892366738,-0.029340113169362768,-0.04386768208541066,-0.05160774974215644,0.002891760210294524, ,0.037273579860907034, ,0.06773264812867955, ,0.0008708563120645902, ,0.19210298024633468,-0.19709958841595793,0.10444338159000001,1.6089509363567556,0.19170100917091293,-1.3654913879269626, ,0.17222675418960212,0.1499161793972682,0.030514964597701155,-0.007314818685942339,0.12448904123180511,-0.10465064835007439, ,1.824371099472046
0.016813251632658927,0.01912645068622848,-0.09472325473654544, ,0.017823613266076208,0.018391749383430456,-0.09554398971353847, ,0.0014947315936563671, ,0.02095237849234599,-0.00925652399912503,-0.028898651614596513,-0.02755389822356575,-0.021660065117141497,0.0067452208434317495, ,0.03687570292448297, ,0.03504790397380407, ,0.0008752190762715258, ,0.19380198147866406,-0.19560137823835838,0.10474023200000002,1.6089509363567556,0.19306737416856737,-1.3666055669639268, ,0.17006620350980425,0.15659561313279005,0.029941375037593993,-0.007314818685942339,0.15277788209427184,-0.1274885652607145, ,1.8273670673370361
0.016813251632658927,0.01912645068622848,-0.09472325473654544, ,0.017885188976642524,0.018376497491211594,-0.09565086569941786, ,0.001603727396593241, ,0.02095237849234599,-0.00925652399912503,-0.028898651614596513,-0.02755389822356575,-0.021660065117141497,0.0067452208434317495, ,0.03687570292448297, ,0.03504790397380407, ,0.0008802781618293153, ,0.19380198147866406,-0.19560137823835838,0.10474023200000002,1.6089509363567556,0.19306737416856737,-1.3666055669639268, ,0.17006620350980425,0.15659561313279005,0.029941375037593993,-0.007314818685942339,0.15277788209427184,-0.1274885652607145, ,1.8301420211791992
0.016813251632658927,0.01912645068622848,-0.09472325473654544, ,0.01794664328414228,0.018361351169513263,-0.0957573843596402, ,0.0017144614266562303, ,0.02095237849234599,-0.00925652399912503,-0.028898651614596513,-0.02755389822356575,-0.021660065117141497,0.0067452208434317495, ,0.03687570292448297, ,0.03504790397380407, ,0.0008860311498626044, ,0.19380198147866406,-0.19560137823835838,0.10474023200000002,1.6089509363567556,0.19306737416856737,-1.3666055669639268, ,0.17006620350980425,0.15659561313279005,0.029941375037593993,-0.007314818685942339,0.15277788209427184,-0.1274885652607145, ,1.832880973815918
0.016813251632658927,0.01912645068622848,-0.09472325473654544, ,0.018007975837081202,0.0183463106230946,-0.0958635461449865, ,0.001826540155294558, ,0.02095237849234599,-0.00925652399912503,-0.028898651614596513,-0.02755389822356575,-0.021660065117141497,0.0067452208434317495, ,0.03687570292448297, ,0.03504790397380407, ,0.0008924729923655632, ,0.19380198147866406,-0.19560137823835838,0.10474023200000002,1.6089509363567556,0.19306737416856737,-1.3666055669639268, ,0.17006620350980425,0.15659561313279005,0.029941375037593993,-0.007314818685942339,0.15277788209427184,-0.1274885652607145, ,1.8356499671936035
0.017031917052180205,0.01902568614974588,-0.09503464317853105, ,0.01806918628636537,0.018331376055384208,-0.09596935150656934, ,0.0015593824514286783, ,0.021497125981701753,-0.009561000313869134,-0.03178418957989672,-0.022465281358676533,-0.005961948349159741,0.007809671816527693, ,0.03954458066190331, ,0.02324223002467378, ,0.0008970097914068087, ,0.19555504184111303,-0.19391009973890322,0.10506171192000001,1.6089509363567556,0.19470701216575265,-1.367942581808284, ,0.17006620350980425,0.1644661032209199,0.03284291035051547,-0.007314818685942339,0.16871799898841877,-0.14026112439358585, ,1.8387560844421387
0.017031917052180205,0.01902568614974588,-0.09503464317853105, ,0.01813027428529749,0.01831654766848267,-0.09607480089583195, ,0.0016706867073182695, ,0.021497125981701753,-0.009561000313869134,-0.03178418957989672,-0.022465281358676533,-0.005961948349159741,0.007809671816527693, ,0.03954458066190331, ,0.02324223002467378, ,0.0009022373381359402, ,0.19555504184111303,-0.19391009973890322,0.10506171192000001,1.6089509363567556,0.19470701216575265,-1.367942581808284, ,0.17006620350980425,0.1644661032209199,0.03284291035051547,-0.007314818685942339,0.16871799898841877,-0.14026112439358585, ,1.8415250778198242
0.017031917052180205,0.01902568614974588,-0.09503464317853105, ,0.018191239489574122,0.018301825663163043,-0.09617989476454658, ,0.001783144333236094, ,0.021497125981701753,-0.009561000313869134,-0.03178418957989672,-0.022465281358676533,-0.005961948349159741,0.007809671816527693, ,0.03954458066190331, ,0.02324223002467378, ,0.0009081494656198338, ,0.19555504184111303,-0.19391009973890322,0.10506171192000001,1.6089509363567556,0.19470701216575265,-1.367942581808284, ,0.17006620350980425,0.1644661032209199,0.03284291035051547,-0.007314818685942339,0.16871799898841877,-0.14026112439358585, ,1.8442699909210205
0.017244648214784525,0.01894073588920881,-0.09536596784474122, ,0.018252081557281922,0.018287210238873655,-0.09628463356481355, ,0.001511940614064417, ,0.023553589378526876,-0.008468040382550644,-0.03764141237104119,-0.014407623546867,-0.004667598299732089,0.009214150223808679, ,0.04520348665556159, ,0.015142342078200427, ,0.0009121747399427979, ,0.19720770667619708,-0.19235010769830987,0.10540522877000001,1.6089509363567556,0.19648328666270337,-1.3693910145563373, ,0.17871363758657396,0.1644661032209199,0.039137129041769046,-0.007314818685942339,0.17878066412596785,-0.14828228350958006, ,1.8470230102539062
0.017244648214784525,0.01894073588920881,-0.09536596784474122, ,0.01831280014889306,0.018272701593740167,-0.09638901774906122, ,0.0016229138858828182, ,0.023553589378526876,-0.008468040382550644,-0.03764141237104119,-0.014407623546867,-0.004667598299732089,0.009214150223808679, ,0.04520348665556159, ,0.015142342078200427, ,0.00091688162170399, ,0.19720770667619708,-0.19235010769830987,0.10540522877000001,1.6089509363567556,0.19648328666270337,-1.3693910145563373, ,0.17871363758657396,0.1644661032209199,0.039137129041769046,-0.007314818685942339,0.17878066412596785,-0.14828228350958006, ,1.8497939109802246
0.017244648214784525,0.01894073588920881,-0.09536596784474122, ,0.01837339492726397,0.01825829992456613,-0.09649304777004276, ,0.0017349631537265237, ,0.023553589378526876,-0.008468040382550644,-0.03764141237104119,-0.014407623546867,-0.004667598299732089,0.009214150223808679, ,0.04520348665556159, ,0.015142342078200427, ,0.0009222637370462434, ,0.19720770667619708,-0.19235010769830987,0.10540522877000001,1.6089509363567556,0.19648328666270337,-1.3693910145563373, ,0.17871363758657396,0.1644661032209199,0.039137129041769046,-0.007314818685942339,0.17878066412596785,-0.14828228350958006, ,1.856497049331665
0.01755180863698256,0.01884771843472309,-0.09586876240232055, ,0.01843386555762966,0.018244005426835994,-0.09659672408083736, ,0.001293221563593239, ,0.025952005522705185,-0.0073090593521667165,-0.043146031996490385,-0.03482013483878473,-0.039774009505548664,0.003428576391026761, ,0.05087739199591689, ,0.05286079928085771, ,0.0009246882980040669, ,0.19946274467547065,-0.19036536534963416,0.10593022622,1.6089509363567556,0.19839619765941952,-1.3709508652080873, ,0.18717345475043548,0.16249476294258697,0.04512411195467422,-0.006982615905484397,0.151493713262287,-0.12582345176666182, ,1.859377145767212
0.01755180863698256,0.01884771843472309,-0.09586876240232055, ,0.018494211707600617,0.018229818294717266,-0.09670004713484873, ,0.0014003422571157403, ,0.025952005522705185,-0.0073090593521667165,-0.043146031996490385,-0.03482013483878473,-0.039774009505548664,0.003428576391026761, ,0.05087739199591689, ,0.05286079928085771, ,0.0009277769600762206, ,0.19946274467547065,-0.19036536534963416,0.10593022622,1.6089509363567556,0.19839619765941952,-1.3709508652080873, ,0.18717345475043548,0.16249476294258697,0.04512411195467422,-0.006982615905484397,0.151493713262287,-0.12582345176666182, ,1.8622870445251465
0.01755180863698256,0.01884771843472309,-0.09586876240232055, ,0.018554433047160344,0.01821573872106102,-0.09680301738580255, ,0.0015091343348177112, ,0.025952005522705185,-0.0073090593521667165,-0.043146031996490385,-0.03482013483878473,-0.039774009505548664,0.003428576391026761, ,0.05087739199591689, ,0.05286079928085771, ,0.0009315276528164884, ,0.19946274467547065,-0.19036536534963416,0.10593022622,1.6089509363567556,0.19839619765941952,-1.3709508652080873, ,0.18717345475043548,0.16249476294258697,0.04512411195467422,-0.006982615905484397,0.151493713262287,-0.12582345176666182, ,1.86537504196167
0.017810113698610387,0.018769916984426416,-0.0962770156903387, ,0.01861452924866189,0.018201766897403757,-0.09690563528774676, ,0.0011683499034082197, ,0.02519143185132568,-0.008049186371501562,-0.03724770281270723,-0.06652341514579525,-0.08268703895924678,-0.00508179631328775, ,0.0456813857581719, ,0.10612464123891444, ,0.0009330457441664355, ,0.20134709149678143,-0.18874359144604702,0.10635800192000001,1.6089509363567556,0.19976256265707393,-1.3720650442450515, ,0.18570830050581366,0.1571141416530973,0.039137129041769046,-0.006447794375119385,0.10614696217128447,-0.08869638608453932, ,1.8681540489196777
0.017810113698610387,0.018769916984426416,-0.0962770156903387, ,0.018674499986822062,0.01818790301397132,-0.0970079012950507, ,0.0012728305795464275, ,0.02519143185132568,-0.008049186371501562,-0.03724770281270723,-0.06652341514579525,-0.08268703895924678,-0.00508179631328775, ,0.0456813857581719, ,0.10612464123891444, ,0.0009352099787866903, ,0.20134709149678143,-0.18874359144604702,0.10635800192000001,1.6089509363567556,0.19976256265707393,-1.3720650442450515, ,0.18570830050581366,0.1571141416530973,0.039137129041769046,-0.006447794375119385,0.10614696217128447,-0.08869638608453932, ,1.8709590435028076
0.017810113698610387,0.018769916984426416,-0.0962770156903387, ,0.018734344938719807,0.018174147259679047,-0.0971098158624037, ,0.0013793843107384038, ,0.02519143185132568,-0.008049186371501562,-0.03724770281270723,-0.06652341514579525,-0.08268703895924678,-0.00508179631328775, ,0.0456813857581719, ,0.10612464123891444, ,0.0009380212087357516, ,0.20134709149678143,-0.18874359144604702,0.10635800192000001,1.6089509363567556,0.19976256265707393,-1.3720650442450515, ,0.18570830050581366,0.1571141416530973,0.039137129041769046,-0.006447794375119385,0.10614696217128447,-0.08869638608453932, ,1.8737270832061768
0.017810113698610387,0.018769916984426416,-0.0962770156903387, ,0.01879406378379344,0.018160499822132824,-0.0972113794448131, ,0.0014874752681995158, ,0.02519143185132568,-0.008049186371501562,-0.03724770281270723,-0.06652341514579525,-0.08268703895924678,-0.00508179631328775, ,0.0456813857581719, ,0.10612464123891444, ,0.0009414768946443287, ,0.20134709149678143,-0.18874359144604702,0.10635800192000001,1.6089509363567556,0.19976256265707393,-1.3720650442450515, ,0.18570830050581366,0.1571141416530973,0.039137129041769046,-0.006447794375119385,0.10614696217128447,-0.08869638608453932, ,1.8764610290527344
0.018057956340842975,0.018687171412038933,-0.09663054976659813, ,0.01885365620383487,0.018146960887633193,-0.09731259249760475, ,0.001179045363657827, ,0.024715192507517258,-0.00865968677497513,-0.034528210068610884,-0.06663164390667198,-0.0822879027140726,-0.0059085797609016695, ,0.0433362227964833, ,0.10588213176289085, ,0.000942961697575663, ,0.20318510192084685,-0.1871913221383279,0.10673003715000001,1.6089509363567556,0.20071901815543203,-1.3728449695709264, ,0.18498429153698007,0.1568544488569765,0.0363671495890411,-0.005997872293395876,0.10570153984156432,-0.08820285705666911, ,1.8791680335998535
0.018057956340842975,0.018687171412038933,-0.09663054976659813, ,0.018913121882987608,0.018133530641175507,-0.09741345547642145, ,0.0012848219947166758, ,0.024715192507517258,-0.00865968677497513,-0.034528210068610884,-0.06663164390667198,-0.0822879027140726,-0.0059085797609016695, ,0.0433362227964833, ,0.10588213176289085, ,0.0009450850534585265, ,0.20318510192084685,-0.1871913221383279,0.10673003715000001,1.6089509363567556,0.20071901815543203,-1.3728449695709264, ,0.18498429153698007,0.1568544488569765,0.0363671495890411,-0.005997872293395876,0.10570153984156432,-0.08820285705666911, ,1.8819420337677002
0.018057956340842975,0.018687171412038933,-0.09663054976659813, ,0.018972460507742917,0.01812020926645239,-0.09751396883722127, ,0.0013921900732824202, ,0.024715192507517258,-0.00865968677497513,-0.034528210068610884,-0.06663164390667198,-0.0822879027140726,-0.0059085797609016695, ,0.0433362227964833, ,0.10588213176289085, ,0.0009478449609883037, ,0.20318510192084685,-0.1871913221383279,0.10673003715000001,1.6089509363567556,0.20071901815543203,-1.3728449695709264, ,0.18498429153698007,0.1568544488569765,0.0363671495890411,-0.005997872293395876,0.10570153984156432,-0.08820285705666911, ,1.884748935699463
