NicholasDascanio/dvrk_moveit_final/test/execution/third_experiment_notsharpbends/thirdexp_400vel4.0/thirdexp_400vel4.0_8.csv
Current Position (x),Current Position (y),Current Position (z), ,Planned Position (x),Planned Position (y),Planned Position (z), ,Position Error,,Cartesian linear Velocity(x),Cartesian linear Velocity(y),Cartesian linear Velocity(z),Cartesian Angular Velocity(x),Cartesian Angular Velocity(y),Cartesian Angular Velocity(z), ,Total Linear Velocity, ,Total Angular Velocity, ,MSE, ,Joint 1 Position,Joint 2 Position,Joint 3 Position,Joint 4 Position,Joint 5 Position,Joint 6 Position, ,Joint 1 Velocity,Joint 2 Velocity,Joint 3 Velocity,Joint 4 Velocity,Joint 5 Velocity,Joint 6 Velocity, ,Time Stamp
0.010045556395868535,0.020484200149964694,-0.07883428461621456, ,0.010220067277410136,0.02043482227959332,-0.07892427194393528, ,0.000202459726882055, ,2.7516444983764838e-05,-9.098615317654483e-05,-2.013540911004829e-05,0.2376371722408312,7.848044451077153e-05,-0.0015970285491204073, ,9.716516615762695e-05, ,0.23763718520004112, ,1.6871643906837916e-05, ,0.14404441357003556,-0.251691587103851,0.08866234713000001,1.6068540369219102,0.15180315123940433,-1.3118025663512018, ,0.00030724953108217173,0.001120396881028415,0.0,-0.00147133012428361,0.0,-0.23896865686838842, ,0.030099153518676758
0.010061577285939257,0.020484950185513613,-0.0788420499779294, ,0.010246457819856253,0.02044531018061941,-0.07902244143681575, ,0.0002613297155866335, ,0.0010858785422288902,3.026991436281369e-05,-0.0002477260662018648,0.22100319417441724,-0.10874404864167676,-0.02917864983786853, ,0.0011141887991110494, ,0.246308099644081, ,2.1081338294031294e-05, ,0.144059859035784,-0.25167614163810254,0.08867012487,1.6068540369219102,0.1503001497419845,-1.3148242638978505, ,0.0003790522762239198,0.0003902684611646299,0.00024253591360338752,-0.00147133012428361,-0.11221781730637916,-0.22160101660363085, ,0.05796694755554199
0.010118211393640041,0.020501987180722363,-0.07891998439086112, ,0.010273157495494296,0.020455552733032713,-0.07912113818945592, ,0.00025812265127490917, ,0.0019390835466530244,0.0005865188434402863,-0.002859630639464077,0.20863283956338805,-0.15610507631132825,-0.040404023035125254, ,0.0035045023539402465, ,0.2605694851556046, ,2.2559752929487426e-05, ,0.1440830272344067,-0.2516375279737314,0.08875049485000001,1.6068540369219102,0.14551787225019408,-1.3233398057698411, ,0.000819147979144935,0.0018460343982992888,0.0029437833154684905,-0.00147133012428361,-0.16040075918189933,-0.2106596234797476, ,0.08578109741210938
0.01015772021316953,0.020525583119531263,-0.07903811979622948, ,0.010300164516887964,0.02046555195319031,-0.07922035578624523, ,0.00023896459288167844, ,0.0003991252226128128,0.0004706012401548145,-0.0027376664823378603,-0.12165940545747443,0.015170884954063317,0.006054431892560073, ,0.002806347134457377, ,0.12260165857932674, ,2.287801634822086e-05, ,0.14412936363165202,-0.25155257791211494,0.08887234611000001,1.6068540369219102,0.14346832475371246,-1.3219135734348164, ,0.002095134588426266,0.0028709138649926544,0.002817762519016452,-0.00147133012428361,0.01834343369507077,0.1186135083159238, ,0.12076902389526367
0.010163325143748955,0.02053724530866783,-0.07911519654021376, ,0.01032747710223979,0.020475309851383426,-0.07932008783629445, ,0.0002697448971807039, ,0.0002555259667843743,0.0004437727803314726,-0.002527055833779785,0.0008106419601095586,0.02637724720172093,0.008456714129440147, ,0.002578417923321326, ,0.02638970083621883, ,2.366579968857654e-05, ,0.14419886822752004,-0.25145218238475003,0.08895141980000001,1.6068540369219102,0.14469805325160143,-1.3198942211828837, ,0.001963486308099005,0.002533441859539575,0.0026044492347939833,-0.0014490603181103,0.029647662283274118,-0.0035211938140495974, ,0.14937305450439453
0.010175584456255944,0.020547558808308043,-0.07918246200214929, ,0.010355093475383548,0.02048482843184454,-0.07942032797339933, ,0.0003045304719697739, ,0.0004844683721153723,0.0005744173523735904,-0.003519031315056496,0.048276824627706945,0.011259008855579617,0.003808608021785463, ,0.0035983671706256233, ,0.04957234184507262, ,2.4760517028641194e-05, ,0.14422975915901695,-0.25136723232313357,0.08902012317,1.6068540369219102,0.14469805325160143,-1.3202209361434458, ,0.0011482422434123583,0.003993975543174067,0.0035989181021238137,-0.0014028930036627404,0.013107572694739139,-0.05242598293520928, ,0.17689204216003418
0.010198979866665037,0.020561975050348142,-0.07928771094772584, ,0.01038301186577617,0.020494109692755013,-0.07952106985600536, ,0.0003048439986804641, ,0.0008076837174710756,0.0005442478611549542,-0.0035835415098991446,-0.014924490656970246,0.002190892417376417,0.0024517484489731942, ,0.0037135331525394895, ,0.015084443322958394, ,2.5555500756336362e-05, ,0.14433015468638186,-0.2512127776656491,0.08912771524,1.6068540369219102,0.14469805325160143,-1.3207926873244298, ,0.004353455629213484,0.004633234947856696,0.0036863715621383948,-0.0013386309074470946,0.007118115724773852,0.010152659935696091, ,0.20429110527038574
0.010225073285802865,0.02057742659569107,-0.07940701695103333, ,0.01041123050849041,0.02050315562625198,-0.07962230716717077, ,0.00029414378393001174, ,0.0007245935920092779,0.00033984726003992313,-0.003262076722003601,-0.011964490153156454,-0.0034157771432461667,0.00038467397570919436, ,0.0033588207117938446, ,0.01244253019879489, ,2.634740541217568e-05, ,0.14445371841236945,-0.25102743207666767,0.0892495665,1.6068540369219102,0.14483468975136687,-1.3209857839682666, ,0.0030919043550988678,0.005999752455101635,0.003308164386292835,-0.0012732905656840801,0.0,0.005849749234632457, ,0.2344350814819336
0.010243289325160745,0.020586202056443726,-0.07948065555650051, ,0.010439747644206882,0.020511968218436035,-0.0797240336145306, ,0.0003214644816434423, ,0.0009560799673848176,0.0004529131892839217,-0.0037345187283211023,-0.010447882069238409,-0.005407346364475272,0.00031862037894019154, ,0.0038814751568498995, ,0.01176425236518334, ,2.7284492444774135e-05, ,0.14454639120686014,-0.25090386835068007,0.08932475132,1.6068540369219102,0.14483468975136687,-1.3209857839682666, ,0.005094651982461814,0.006161352497801605,0.0038189430640134265,-0.0012379192968964346,0.0,0.0041781011324615955, ,0.26135897636413574
0.010270516297066577,0.02059804287773757,-0.07958590050869183, ,0.010468561519206113,0.020520549449378717,-0.07982624293026139, ,0.0003209230765417595, ,0.0009123692674629132,0.0004037134407924198,-0.003569968882761015,-0.009215384627947213,-0.00513492760628256,0.00025504448192511516, ,0.0037067613959316558, ,0.010549445235788936, ,2.8045731278499306e-05, ,0.14470856859721887,-0.2507185227616987,0.08943234339,1.6068540369219102,0.1449713262511323,-1.3210972018719631, ,0.004836685275392911,0.006215596143940204,0.003643369515096066,-0.0011870762767426282,0.0,0.002898957753714115, ,0.2862710952758789
0.01030199735020037,0.020616892671953754,-0.07971576177526254, ,0.010497670385361115,0.020528901293129048,-0.0799289288710434, ,0.00030244111850099935, ,0.001227875943757696,0.0007350680290910984,-0.004736258377555528,-0.007864838178851143,-0.006498358699495657,0.00036614049127012635, ,0.004947741682789801, ,0.010202173444101762, ,2.850896773215214e-05, ,0.144816686857458,-0.2505949590357111,0.08952049111,1.6068540369219102,0.14510796275089774,-1.3212086197756596, ,0.0063978084795213875,0.005950801846662461,0.004753450170098478,-0.0011555187946200114,0.0004789467939482633,0.0020181329061200646, ,0.31458616256713867
0.010322619793061925,0.02062689975841504,-0.07979685672393266, ,0.010527072500129235,0.02053702571772247,-0.08003208521802596, ,0.0003243619845958554, ,0.000931909226277123,0.00023825540649118182,-0.003001281177543859,-0.008110518123521331,-0.005979129132088406,0.00025110165145126164, ,0.0031516518131642903, ,0.010076233878123161, ,2.908829486895971e-05, ,0.14498658698069095,-0.25040961344672974,0.08964882382000001,1.6068540369219102,0.14510796275089774,-1.3212902985158002, ,0.006121128878580282,0.006443478272097145,0.0030591149452659882,-0.0011125088996468708,0.0004334876160904262,0.0015788944182199838, ,0.3390171527862549
0.010349284085568025,0.020636380492390093,-0.07989315829676358, ,0.010556766126544782,0.02054492468518628,-0.08013570577679097, ,0.00033202747185559576, ,0.0008784372011324112,0.0004732151078955953,-0.0035919985338834473,-0.002528884529112284,0.00023709557861634507,0.0016400502025050384, ,0.003728007232033599, ,0.002539974542591128, ,2.9645698186697477e-05, ,0.14517193256967234,-0.2502242678577483,0.08974734186000001,1.6068540369219102,0.14538123575042863,-1.321513134323193, ,0.0049713285488592026,0.005434697462960341,0.0036846660929909783,-0.001071511061698945,0.005649316326453706,-0.0029995890496691967, ,0.36429905891418457
0.010371959950928454,0.02064637605693198,-0.0799793798402271, ,0.010586749533210957,0.020552600151548278,-0.08023978437731612, ,0.0003503412736520937, ,0.001230799679376872,0.0006645028735365297,-0.005037454014379474,-0.004501197389196044,-0.0014732880362996969,0.0013013796283945557, ,0.005228037381913063, ,0.004736174862755662, ,3.0264438853155378e-05, ,0.14529549629565994,-0.2500775359331381,0.08983548958000001,1.6068540369219102,0.14538123575042863,-1.321513134323193, ,0.006688483430577736,0.007593648952195113,0.005164984280155643,-0.0010461667205014825,0.005649316326453706,-0.0031600162954053468, ,0.38906192779541016
0.010405323716186373,0.020661968059031623,-0.08011234819447602, ,0.010617020994292284,0.020560054066843653,-0.08034431487393963, ,0.00033016774485481457, ,0.0012261943505672186,0.00047481365098139583,-0.0045002164214364695,-0.004947405927712389,-0.002177782349216337,-0.0007256852236230527, ,0.004688384415583657, ,0.005405511958029219, ,3.066574298632493e-05, ,0.14549628735038977,-0.24985357667978556,0.08997160003000002,1.6068540369219102,0.14565450874995953,-1.3217359701305857, ,0.007532298665876414,0.008219525827446592,0.004601043188908146,0.0008801948752166812,0.005300750441046605,-0.0030624861590241633, ,0.4144461154937744
0.0104269892537798,0.020670532886776706,-0.08018691973332191, ,0.010647578789506694,0.02056728837512258,-0.08044929114532348, ,0.0003579915226574547, ,0.0012013905241224706,0.0004877391502785328,-0.004488884983559967,-0.004660510141278177,-0.001890100504902357,-0.0006599788536719321, ,0.004672399497666681, ,0.005029198034774986, ,3.140696389926477e-05, ,0.1456275738092516,-0.24972229022092374,0.09004808114000001,1.6070637268653947,0.14565450874995953,-1.3217359701305857, ,0.007234447125470019,0.008011708576928778,0.004590435596541787,0.0008413103022068027,0.005300750441046605,-0.003147935367793394, ,0.4364960193634033
0.010453199001014797,0.020679518932504404,-0.0802835540275801, ,0.010678421204117782,0.020574305014457294,-0.08055470709441763, ,0.0003678573024649437, ,0.0011470642970544517,0.00018910684218152458,-0.0037567795276737224,-0.005653766718791115,-0.0025765581762008057,0.0011925696455645487, ,0.003932545018036702, ,0.006213189953441989, ,3.213572384470743e-05, ,0.1457897511996103,-0.24952922189906812,0.09014659918000001,1.6072734168088794,0.14579114524972495,-1.3219290667744228, ,0.007924269259712008,0.009259168422252119,0.0038070773231357554,-0.001151528121942819,0.005812515841856823,-0.0036679844332660454, ,0.45993995666503906
0.010477539689695161,0.02068595888995697,-0.0803714707877117, ,0.010709546528927154,0.020581105916949363,-0.08066055664842345, ,0.0003852167626965434, ,0.0013832780810097138,0.0004394183464947988,-0.004632464151392778,-0.0017130420069759046,-0.001524970194679068,0.0018912670560635651, ,0.004854510361156658, ,0.00229347877229816, ,3.2898408201486504e-05, ,0.14595965132284322,-0.24933615357721253,0.09023604319,1.6072734168088794,0.14606441824925584,-1.3221519025818158, ,0.009522748053599536,0.009002476134597245,0.004743541250744492,-0.001151528121942819,0.008544698358290173,-0.0073542576192103274, ,0.48217105865478516
0.010504182494835122,0.020696163435928186,-0.08046637495602646, ,0.010740953060266508,0.02058769300873769,-0.08076683375875843, ,0.0003976199521763401, ,0.0013887432518310107,0.00036390251998731513,-0.0049503647458283935,-0.004541471652567182,-0.0017720113014202394,0.0013247764404604584, ,0.005154332544597787, ,0.0050594681245552985, ,3.366223028423905e-05, ,0.14621450150769263,-0.24905813519374043,0.09038641283000001,1.6072734168088794,0.14620105474902126,-1.3224266779657932, ,0.008380452095238801,0.010447747229042192,0.005432746084583902,-0.001151528121942819,0.007110374269839958,-0.006256128260706087, ,0.504162073135376
0.010549334351391205,0.02071132691998483,-0.08062654263566867, ,0.010772639099989998,0.02059406821000497,-0.08087353240101927, ,0.00035301354081799537, ,0.0015473857025243927,0.0005593508736274866,-0.005394851711415815,-0.0024085608906746856,-0.0035970712997496087,0.0013279135964128993, ,0.005640186246957709, ,0.004328981742831232, ,3.411720690676124e-05, ,0.1463921243637998,-0.2488573441390106,0.09049659748000001,1.6072734168088794,0.14620105474902126,-1.3223449992256526, ,0.009902000256150985,0.009839039936008981,0.0055250820395421445,-0.001151528121942819,0.006795448234467757,-0.007486923313109583, ,0.5269291400909424
0.01057715536764583,0.02071956298161158,-0.08072414435325433, ,0.010804602955466442,0.020600233434985515,-0.08098064657494572, ,0.0003629949526316005, ,0.0013337435290497448,0.0002241372971474692,-0.00423999544142044,0.001603219678540238,0.000508975484928465,0.002270668403881797, ,0.004450468590218422, ,0.0016820725345778656, ,3.458625533060244e-05, ,0.14660063815140387,-0.24865655308428075,0.09059641181000001,1.6072734168088794,0.1466109642483176,-1.3227609316768825, ,0.009808818093729839,0.010260285703274691,0.004310909748308525,-0.001151528121942819,0.010932779456144522,-0.011914958467270314, ,0.5514359474182129
0.010604621487207509,0.02072426465243071,-0.0808110587659283, ,0.010836842939571354,0.020606190591972908,-0.0810881703043848, ,0.00038034075700178846, ,0.0012396852836337221,0.00018379155932602453,-0.003953122289158255,0.0033016260686125993,-0.0006127976258873112,0.0018138559016485022, ,0.0041470199870240945, ,0.0033580134993547684, ,3.5104508902387287e-05, ,0.14677826100751104,-0.2484480392966767,0.09068455953000001,1.6072734168088794,0.1466109642483176,-1.323005967897304, ,0.008933762350682587,0.0098295200828605,0.004011284694031731,-0.001151528121942819,0.008869638940471037,-0.013187612815224462, ,0.5732109546661377
0.010630671070996306,0.020725751823430304,-0.08088818567170751, ,0.010869357370679492,0.020611941583326604,-0.0811960976372545, ,0.00040587399391426947, ,0.0014020114538807057,0.00017264904862744507,-0.004273766190864333,0.006300631054854156,-0.0034073781143684994,0.0012242848883203456, ,0.004501168877633862, ,0.007162972558783527, ,3.587814383764119e-05, ,0.1469558838636182,-0.2482318027761984,0.09076233693,1.6072734168088794,0.1466109642483176,-1.3231693253775854, ,0.01012615114221147,0.010923058067594443,0.004335550223189984,-0.001151528121942819,0.007211515535230577,-0.01726866616394627, ,0.5932199954986572
0.010660674651463772,0.020733562990081864,-0.08098727481215064, ,0.010902144572656817,0.020617488305479985,-0.08130442264550838, ,0.00041516719939069696, ,0.0016058961475468917,0.0005385929003125236,-0.005474199632504835,-0.0011619492103092704,-0.009896740697750346,-0.00042943613021480443, ,0.005730257094187753, ,0.009964717632223456, ,3.664459333543189e-05, ,0.1471489521854738,-0.24803101172146858,0.09085955868000001,1.6072734168088794,0.14674760074808305,-1.3232807432812816, ,0.009818908682669256,0.010173747919549527,0.005534680861709522,-0.001151528121942819,0.0,-0.009195809573742905, ,0.6128079891204834
0.010690083855712776,0.020747368382217676,-0.08110766066884613, ,0.010935202874853013,0.02062283264894705,-0.08141313942509773, ,0.00041098631720113185, ,0.0016132311461031763,0.0007629244989578873,-0.006220235438120506,-0.0030304931021431637,-0.004088803892750577,0.0009492481831513488, ,0.006471158893700394, ,0.0050894200459089, ,3.7343571452414277e-05, ,0.14732657504158098,-0.24782249793386452,0.09098659510000001,1.6072734168088794,0.1470208737476139,-1.3235852578288152, ,0.008926551317411262,0.009776616717367485,0.006376625908726983,-0.001151528121942819,0.005278352821518537,-0.006803678019641513, ,0.6317269802093506
0.010724097818028473,0.020760498992777154,-0.08123316904684816, ,0.010968530612093396,0.020627976498330453,-0.08152224209593685, ,0.0004010895536637602, ,0.001777005085505984,0.0007187202984605698,-0.006298119276836456,-0.002120196683322885,-0.0076147470846557284,0.00033314350813538245, ,0.00658335874509299, ,0.00790440366059866, ,3.795622300283911e-05, ,0.1475273660963108,-0.24759853868051201,0.09111492781000001,1.6072734168088794,0.14715751024737936,-1.3239417119529333, ,0.010514528965042028,0.010531619022978299,0.0064593720681265215,-0.001151528121942819,0.003275896024705623,-0.008460966542138616, ,0.6526961326599121
0.01076094595683691,0.020772305540865656,-0.08135610470157098, ,0.011002126124671295,0.020632921732328544,-0.08163172480186673, ,0.0003918700793961834, ,0.0015642545197645905,0.00032314130313710595,-0.005094115282993985,0.0009480018452690801,-0.0071725380469630905,0.00017464696341038655, ,0.005338663036831411, ,0.007234915763391716, ,3.849314435763191e-05, ,0.14775132534966331,-0.24736685669428526,0.09124066794,1.6072734168088794,0.14715751024737936,-1.324186748173355, ,0.010076188119246566,0.011496177973647251,0.005178417269180755,-0.001151528121942819,0.003275896024705623,-0.012483220944792865, ,0.6718919277191162
0.010805767566342795,0.020779601806465597,-0.08150575646141708, ,0.011035987758340427,0.020637670223742268,-0.0817415817106182, ,0.0003588306831063131, ,0.0014826320799003804,0.0002767407140720391,-0.004875839157886744,-0.007115241098999571,-0.0025679075731763583,0.0013685204290769322, ,0.005103782009525539, ,0.007564443300433579, ,3.88624777154951e-05, ,0.14805251193175809,-0.24700388824919672,0.09139233387000001,1.6072734168088794,0.14743078324691022,-1.32473629894131, ,0.00995464172312861,0.01134588014807159,0.0049529886567164175,-0.001151528121942819,0.007909448704100926,-0.00427105224529622, ,0.6977660655975342
0.010820379245644794,0.020780848225142146,-0.08155204933535948, ,0.011070113864306851,0.020642223839483463,-0.08185180701377662, ,0.00041405164632876836, ,0.0015332136360048452,6.265001740040062e-05,-0.004858121436868672,-0.0020832221112319174,-0.0039321741127900526,0.000772107539840622, ,0.005094704404936012, ,0.004449921899531982, ,3.943281627903045e-05, ,0.14825330298648792,-0.2467413153314731,0.09148696304000001,1.6072734168088794,0.14743078324691022,-1.3246546202011693, ,0.011201248523567851,0.013803191499413931,0.005084204123842963,-0.001151528121942819,0.006344838636525765,-0.01075774774320927, ,0.7176740169525146
0.010867958807352782,0.02078449220031092,-0.08170611234891613, ,0.01110450279922147,0.020646584440581164,-0.0819623949267452, ,0.00037503649153324876, ,0.0015067807194202407,6.956176545394553e-05,-0.004635358282583958,0.00852534463305429,0.0028329214942787646,0.002785185181340796, ,0.004874604946408411, ,0.008983704311979585, ,3.9819561503952465e-05, ,0.14848498497271465,-0.246463296948001,0.09159455511,1.6072734168088794,0.14784069274620656,-1.32515223139254, ,0.01139275612030575,0.01300136204390612,0.004683567044986769,-0.001151528121942819,0.014947353834573279,-0.02154906297480039, ,0.7423861026763916
0.010900711059225467,0.020784640591975337,-0.08180015083303109, ,0.011139152925171878,0.020650753882190204,-0.08207333968870931, ,0.00038653890536383, ,0.0016187051418350255,0.00013063901435075636,-0.005353044237624788,0.0029899528975467497,0.00016041005383157046,0.0018422016946637867, ,0.005593957051876752, ,0.002994252046748933, ,4.038300248234985e-05, ,0.14870894422606715,-0.24618527856452893,0.09168918428,1.6072734168088794,0.14784069274620656,-1.32515223139254, ,0.011084071899768651,0.014345720568173964,0.0053995971254237295,-0.001151528121942819,0.011874970462010113,-0.017343144096335555, ,0.7585330009460449
0.01091517234499139,0.0207861341781635,-0.0818450379955751, ,0.011174062609675198,0.02065473401359715,-0.08218463556259951, ,0.00044678482508363557, ,0.0016377276491486088,0.0001796795212705811,-0.005416435529836579,0.001832732710954234,-0.0009205815095717632,0.0016244620892896672, ,0.005661467162496477, ,0.002050944866059075, ,4.1146012968131704e-05, ,0.14880161702055786,-0.24606943757141556,0.09173455443,1.6072734168088794,0.14784069274620656,-1.32515223139254, ,0.011061777450973743,0.013955432582128054,0.005473818391752578,-0.001151528121942819,0.010737923720631896,-0.015799888601651893, ,0.7761180400848389
0.010951666011698134,0.02079279584002334,-0.08197549793415669, ,0.011209230225669654,0.020658526678228685,-0.0822962768350564, ,0.00043274315175428397, ,0.0018828647088576739,0.0005036707309522683,-0.006635874809989395,-0.0033021125879989436,-0.0031074496514187483,0.0012409168731969135, ,0.006916191018973628, ,0.004534333248948521, ,4.1824359953334234e-05, ,0.14904874447253302,-0.24576052825644656,0.09186677601000001,1.6072734168088794,0.14825060224550288,-1.3255681638437697, ,0.011582039115199708,0.013765149631341858,0.006755221170483461,-0.001151528121942819,0.009021698297206976,-0.010476721699905371, ,0.7928690910339355
0.0109870251014114,0.02080225112057541,-0.08210690722296478, ,0.01124465415150724,0.020662133713658607,-0.0824082578163938, ,0.0004204970812436126, ,0.0019388168777333269,0.0005086910735487791,-0.007099881036957425,0.0020243891356797974,0.0045101792936966395,0.0031375032842487346, ,0.0073774038951815194, ,0.004943667726816425, ,4.242989895877569e-05, ,0.14926498099301133,-0.24548250987297449,0.09200029388000001,1.6072734168088794,0.14852387524503374,-1.3257909996511625, ,0.01231468226816387,0.015024848251816146,0.007220676119673619,-0.001151528121942819,0.017627951383598416,-0.017049357013666135, ,0.8116869926452637
0.011031913884871031,0.020809405015014982,-0.08224604192036344, ,0.011280332770945789,0.02066555695161521,-0.08252057284056305, ,0.0003972045247075251, ,0.0017973770833948906,0.00021057297179030195,-0.0056536180069142955,-0.0002781972150941178,0.0014649630410310012,-0.000553595039327599, ,0.005936185806093614, ,0.0014911420542673942, ,4.2928588227848666e-05, ,0.14955072210935763,-0.24515815509225705,0.09214158949000001,1.6070637268653947,0.14852387524503374,-1.3259543571314436, ,0.012808333318730028,0.014270216775709891,0.005735978221101909,0.0019493409260727932,0.014219132824846057,-0.013555104604872349, ,0.8291239738464355
0.011052737579044944,0.020810056963610463,-0.08230240371087891, ,0.011316264473141303,0.02066879821798834,-0.08263321626511652, ,0.00044591187825401477, ,0.0019864327781482015,3.654348547271588e-05,-0.0058086852855583565,-0.004643155368467699,-0.0023980202838929966,-0.0016356087965136029, ,0.006139061439266937, ,0.005225838348517306, ,4.3573589422666895e-05, ,0.1496974540339679,-0.24499597770189835,0.09219862625000001,1.6072734168088794,0.14852387524503374,-1.3259543571314436, ,0.01451689483837705,0.016724875142486918,0.0058648054197349055,0.0021218614749217257,0.01195858632853982,-0.01158879726747605, ,0.8458080291748047
0.01108766866458924,0.020812284156357014,-0.08242049123746377, ,0.011352447652640017,0.020671859332837474,-0.08274618247117141, ,0.0004426079792408762, ,0.0018684109829164984,9.780872330947572e-05,-0.0057228992009451096,0.0009681831785137739,0.00130145849123556,-0.0011396437910693202, ,0.006020971799603167, ,0.0016220871532715492, ,4.4181530505569164e-05, ,0.14996002695169153,-0.24467162292118091,0.09231788493000001,1.6074831067523636,0.14907042124409553,-1.3264817074863697, ,0.013520008770262257,0.015716618343569192,0.005785983116600074,0.0024246511267993166,0.014667876780189222,-0.0161555872794465, ,0.8658840656280518
0.011129361143931418,0.020812862002204405,-0.08254145218270478, ,0.011388880709370658,0.02067474211039843,-0.08285946586337412, ,0.0004330822213519305, ,0.0020120245450350157,-3.272070359268959e-05,-0.005974223794404411,-0.0027138589733613407,5.981578194535798e-05,-0.0013601850684912742, ,0.006304019619250467, ,0.002714516687122118, ,4.488177660729882e-05, ,0.1502380453351636,-0.24432409994184082,0.09243973619000001,1.6074831067523636,0.14907042124409553,-1.3267267437067916, ,0.014733262157812572,0.017901705632610974,0.006015412205438067,0.00231368216137598,0.014667876780189222,-0.0146490374097271, ,0.8794620037078857
0.01114963206304304,0.020813144464254345,-0.0825979608969247, ,0.011425562048637046,0.020677448359090564,-0.08297306086986345, ,0.0004850265761844167, ,0.0021701616272606075,0.00016299705514140082,-0.006759939180582413,-0.0028223235649938385,-0.00039444826427635816,-0.0013212007414699972, ,0.007101615819909748, ,0.002849751852817298, ,4.572793794868818e-05, ,0.15037705452689965,-0.24416192255148209,0.09249677295000001,1.6074831067523636,0.14907042124409553,-1.3267267437067916, ,0.015176226060846117,0.01791860678974146,0.006839335130957493,0.002267819447484522,0.014667876780189222,-0.014563401382286055, ,0.8952701091766357
0.011197182876727033,0.020822280582657456,-0.0827637869790106, ,0.01146249008110957,0.020679979881525253,-0.08308696194223504, ,0.00044167800386153656, ,0.002428746498231296,0.0005914763845204804,-0.008434891234579337,0.002875249091752222,-0.001417146457955349,-0.001522555294661677, ,0.008797502145796813, ,0.00320551380061141, ,4.64085715401198e-05, ,0.15070140930761708,-0.2437835086406451,0.09266529065000001,1.6074831067523636,0.1496169672431573,-1.327417451541999, ,0.015041518712707369,0.01777096283866494,0.008586960388140163,0.002168093527064086,0.013493075902365153,-0.020128377663725952, ,0.9089779853820801
0.011221872922792678,0.02082933379091085,-0.08285285529914915, ,0.011499663222818242,0.020682338474511938,-0.08320116355550483, ,0.0004691414661667005, ,0.0024207941567586547,0.0007484288084965906,-0.009330849241518235,0.0180737945314877,0.017177657011931826,0.003117521290773037, ,0.009668771255890062, ,0.024934592004996713, ,4.7154164648503764e-05, ,0.15084814123222734,-0.24360588578453793,0.09275603095000001,1.6074831067523636,0.1497536037429227,-1.3275288694456955, ,0.015407848929772816,0.018516476401652836,0.009509738220895524,0.0021234795427439654,0.033042047393970035,-0.03606925310151018, ,0.9226100444793701
0.011251341948473582,0.020836916472333246,-0.08295209373829936, ,0.011537079895144409,0.020684525929065938,-0.08331566020807285, ,0.0004868774278897369, ,0.0026361069851814425,0.0007754624344273272,-0.009642184899972778,0.009378194964302528,0.006916815178559976,0.0007531181553586969, ,0.010026072594480523, ,0.01165301633304714, ,4.7931584477132924e-05, ,0.1510180413554603,-0.2434050947298081,0.09285714157000001,1.6074831067523636,0.1497536037429227,-1.3275288694456955, ,0.016319336467492826,0.019078597016178284,0.009832599703703704,0.0020792072253390873,0.023419518488016614,-0.027935590097861413, ,0.9370930194854736
0.01130668329955479,0.020848625840247232,-0.0831262975639408, ,0.011574738524813154,0.020686544030416004,-0.08343044642168763, ,0.0004366126939693617, ,0.0025599973730360917,0.0003544555475335581,-0.008050469262312475,-0.0020874934359898516,-0.0022001673070275265,-0.0012015900251672808, ,0.008455133389164654, ,0.0030328750731738125, ,4.853205634171736e-05, ,0.15135784160192617,-0.24303440355184533,0.0930347333,1.6074831067523636,0.1497536037429227,-1.3276922269259765, ,0.017313800685727198,0.019276242445352584,0.008181207765793529,0.0019966200963234897,0.015074311241515401,-0.016676260611257196, ,0.9513931274414062
0.011329722423188025,0.020850120646087975,-0.08320718160595059, ,0.0116126375438854,0.020688394558011778,-0.08354551674140934, ,0.00046975201646137863, ,0.002587217580287592,0.00017224053219230963,-0.008035256240965,-0.004770909015944045,-0.005380079981776175,-0.002274345894135021, ,0.0084432638515355, ,0.007190744047196007, ,4.921401350313715e-05, ,0.1515277417251591,-0.24281816703136702,0.09311639957000001,1.6074831067523636,0.15016351324221905,-1.3281898381173467, ,0.01727283246422839,0.021239243858207427,0.008122800367159615,0.0019585046088133324,0.011762364331577683,-0.015938214194563614, ,0.9648840427398682
0.011379971832176062,0.020852100244353158,-0.08336222052011191, ,0.011650775389750337,0.020690079285530655,-0.08366086573557435, ,0.0004344816712028873, ,0.0025704750380433797,1.0169265856725024e-05,-0.00723909085085862,-0.013000946497848689,-0.020956184002922824,-0.006155813427708954, ,0.007681919140563584, ,0.024661432195314827, ,4.977144428327681e-05, ,0.15189843290312188,-0.24239341672328468,0.09327325066000001,1.6074831067523636,0.1507100592412808,-1.3287988672124138, ,0.016657353266363133,0.020728908160434854,0.007296752872194229,0.0018825460131176842,-0.004903266771805569,-0.007212573398994946, ,0.9808390140533447
0.011406975539109996,0.020851347561546465,-0.08343166986265738, ,0.01168915050511754,0.02069159998088536,-0.08377648799575835, ,0.00047333027146346146, ,0.0024271927171614035,-0.00013773851764932988,-0.006747306646762834,-0.0012975416044112983,-0.006188559608269328,-0.0022853907317119926, ,0.00717191629698336, ,0.006323121875751746, ,5.0573328769622866e-05, ,0.15207605575922906,-0.24218490293568062,0.09334325032000002,1.6074831067523636,0.15057342274151536,-1.3286874493087173, ,0.017554003247959818,0.02100419246535431,0.006789774731457802,0.0018490300316624075,0.011242686642312089,-0.019192960025093273, ,0.9921889305114746
0.011433621565388515,0.0208502244410764,-0.08350242695158433, ,0.011727761338009277,0.020692958406231348,-0.08389237813674094, ,0.0005131400767415511, ,0.0026888324532506926,-1.562337293684862e-05,-0.007499462411146975,-0.01118279898781574,-0.010289470430241258,-0.0030187343980811075, ,0.007966931687145464, ,0.015196320976300047, ,5.147172981489183e-05, ,0.15226140134821042,-0.24196866641520234,0.09341454627000001,1.6074831067523636,0.15057342274151536,-1.3288508067889984, ,0.01894150530109197,0.021750387705356585,0.007574327874465051,0.0018159174192342398,0.008461548770113042,-0.0100491254717264, ,1.0029950141906738
0.011458739160258339,0.020851271705354998,-0.08357923473150225, ,0.011766606341752507,0.020694156317974322,-0.08400853079646853, ,0.000551146584665526, ,0.0029812252807521126,0.0002632265403838001,-0.008807799532104638,-0.004399585633725994,-0.00797800286908691,-0.0021605837594956523, ,0.009302382758406611, ,0.009110698684523232, ,5.2458186001766e-05, ,0.15244674693719182,-0.24176015262759828,0.09349232367000002,1.6074831067523636,0.15084669574104626,-1.3291553213365317, ,0.02039040428845526,0.02229197593574601,0.008943745940482875,0.0017859923555429932,0.012338326521740052,-0.01737157251055596, ,1.0173969268798828
0.01148874591355128,0.0208559105529985,-0.08367855097703392, ,0.011805683974971398,0.020695195466777103,-0.08412494063601939, ,0.0005705635822281832, ,0.002775038722667031,0.000617968873228335,-0.009888809119529683,0.03405701659567014,0.028540760500896496,0.006885373784871208, ,0.010289376620722657, ,0.0444348432517159, ,5.347719966905729e-05, ,0.1526629834576701,-0.24152847064137153,0.09359343429000001,1.6074831067523636,0.1512566052403426,-1.3297346112680426, ,0.019936332260182935,0.021277341156607798,0.010087911032298925,0.0017543124816546123,0.04948040337978675,-0.0548329610011755, ,1.0285050868988037
0.011559808711336618,0.020870904130912103,-0.08389951726281733, ,0.011844992701579302,0.020696077597567763,-0.08424160233956676, ,0.000478452113368312, ,0.0033405334251335275,0.0006604518048222061,-0.011088216429999092,0.0027459835788680945,0.0017494109951562288,0.0020616488197171216, ,0.011599306175346396, ,0.003255871163312317, ,5.421614747545976e-05, ,0.1530954564986267,-0.24106510666891806,0.09381898875000001,1.607692796695848,0.1512566052403426,-1.3298979687483239, ,0.021567486717834268,0.024048895478578507,0.011297029446808512,0.0,0.02401226857860775,-0.026511920723288465, ,1.0398180484771729
0.011591912308783958,0.020876637030921567,-0.08400398525685625, ,0.011884530990771334,0.020696804449545875,-0.08435851061434238, ,0.0004936128842250209, ,0.003564720415530164,0.0005587212820317112,-0.01086772952963235,-0.012151060304963712,-0.021970322266526225,-0.0037754149192578113, ,0.01145106747168733, ,0.02510663608354694, ,5.498064552607628e-05, ,0.15329624755335652,-0.24083342468269134,0.09392528453000001,1.607692796695848,0.15139324174010801,-1.330091065392161, ,0.02197705918445363,0.024527511387560295,0.011061674666666669,0.0,0.0,-0.012088845444422092, ,1.0507500171661377
0.011591912308783958,0.020876637030921567,-0.08400398525685625, ,0.011924297317016202,0.020697377756190894,-0.08447566019060139, ,0.0006042275435611985, ,0.003564720415530164,0.0005587212820317112,-0.01086772952963235,-0.012151060304963712,-0.021970322266526225,-0.0037754149192578113, ,0.01145106747168733, ,0.02510663608354694, ,5.603065908196944e-05, ,0.15329624755335652,-0.24083342468269134,0.09392528453000001,1.607692796695848,0.15139324174010801,-1.330091065392161, ,0.02197705918445363,0.024527511387560295,0.011061674666666669,0.0,0.0,-0.012088845444422092, ,1.0621249675750732
0.011659844210221319,0.020887875275379345,-0.08421729933803569, ,0.01196429016004863,0.02069779924526908,-0.08459304582158518, ,0.0005196168333383149, ,0.0031569183740426895,0.0006315894138988568,-0.009761133810273374,0.027139513639057904,0.020128564899625563,0.007627975964703516, ,0.010278364270163782, ,0.03378923255815755, ,5.698330096839872e-05, ,0.15377505699155844,-0.24035461524448942,0.09414306125,1.607692796695848,0.1520764242389352,-1.3308931911310644, ,0.023903511727574503,0.02062080433691238,0.010018120452830188,0.0,0.04533452236455079,-0.04751649643805077, ,1.070845127105713
0.011659844210221319,0.020887875275379345,-0.08421729933803569, ,0.012004508004861712,0.020698070638840327,-0.08471066228348567, ,0.0006310514458668987, ,0.0031569183740426895,0.0006315894138988568,-0.009761133810273374,0.027139513639057904,0.020128564899625563,0.007627975964703516, ,0.010278364270163782, ,0.03378923255815755, ,5.8220133073134484e-05, ,0.15377505699155844,-0.24035461524448942,0.09414306125,1.607692796695848,0.1520764242389352,-1.3308931911310644, ,0.023903511727574503,0.02062080433691238,0.010018120452830188,0.0,0.04533452236455079,-0.04751649643805077, ,1.079010009765625
0.01167882398781984,0.02088939968684854,-0.0842668406945655, ,0.012044949341698788,0.02069819365326713,-0.0848285043754095, ,0.0006971897965476448, ,0.003251063913486984,0.00013174107329427324,-0.00968264293968321,0.01779174510491068,0.012009873984639175,0.004899185061099643, ,0.010214712261114707, ,0.021465860846869914, ,5.961354479934313e-05, ,0.15390634345042026,-0.24023105151850183,0.09419361656000001,1.607692796695848,0.1520764242389352,-1.3309748698712052, ,0.02426411187892375,0.02593521223243257,0.009826533942011105,0.0,0.037343829555589396,-0.043420479919343995, ,1.0873889923095703
0.011738768868597671,0.020892157044999648,-0.08444224855288368, ,0.012085612666045962,0.020698169999219994,-0.0849465669193411, ,0.0006420814656295203, ,0.0043194682555393734,0.0007538342530964425,-0.01290680621792407,-0.01999809831344104,-0.026795039816189876,-0.004299294074339864, ,0.013631277226980503, ,0.033434977743844005, ,6.083904964387088e-05, ,0.1543002028270057,-0.23976768754604835,0.09437120829000001,1.607692796695848,0.15221306073870067,-1.331167966515042, ,0.026799475164775707,0.027861697462851078,0.013175195632754346,0.0,0.0,-0.007532588474961374, ,1.0955920219421387
0.011772550945003362,0.020900040478690613,-0.08455902195330324, ,0.012126496478624304,0.020698001381686076,-0.08506484476010709, ,0.0006495798252497889, ,0.004231888524969247,0.000999313737825136,-0.014010139398541774,-0.0024715164522009954,-0.004824768570184402,0.0008526987870636822, ,0.014669407431827125, ,0.00542090818543726, ,6.20649359334199e-05, ,0.1545241620803582,-0.23952828282694738,0.09449046697,1.607692796695848,0.15262297023799698,-1.3316655777064126, ,0.026020548823271393,0.028067714155122974,0.01431160064690027,0.0,0.02181667306144826,-0.025262755364161112, ,1.1046371459960938
0.011802191041806577,0.02090712773992372,-0.08466173955058691, ,0.01216759928538199,0.020697689499975802,-0.08518333276533994, ,0.0006704081163752093, ,0.004186706644854653,0.0010858391247029278,-0.015012332987964819,0.03637078485821489,0.03534688948324409,0.010908016162561915, ,0.015622986298283131, ,0.05071721428510541, ,6.332590809116717e-05, ,0.15472495313508805,-0.23931976903934332,0.09459546646000001,1.607692796695848,0.1530328797372933,-1.3320815101576424, ,0.028209554565538284,0.029851192689043973,0.015345675838150292,0.0,0.0654170465260749,-0.06586948183056592, ,1.1129050254821777
0.011867525246747503,0.020922451524789533,-0.08486960209961344, ,0.012208919597486595,0.020697236047730674,-0.08530202582544208, ,0.000595199456050603, ,0.00462805732575492,0.0008528573493295475,-0.014935913374628036,-0.0006925072449434443,-0.004458261437095632,0.0010330653890929411, ,0.015659750591984913, ,0.0045116424985471425, ,6.437299266940257e-05, ,0.1551188125116735,-0.23891046419700943,0.09480805802000002,1.607692796695848,0.15316951623705874,-1.3322746068014795, ,0.029091643641468663,0.03210316020245967,0.015228309292543022,0.0,0.025348943343073006,-0.031027613139065047, ,1.1211011409759521
0.011867525246747503,0.020922451524789533,-0.08486960209961344, ,0.012250455931317253,0.020696642712930622,-0.08542091885354941, ,0.000708220087168304, ,0.00462805732575492,0.0008528573493295475,-0.014935913374628036,-0.0006925072449434443,-0.004458261437095632,0.0010330653890929411, ,0.015659750591984913, ,0.0045116424985471425, ,6.569376474417205e-05, ,0.1551188125116735,-0.23891046419700943,0.09480805802000002,1.607692796695848,0.15316951623705874,-1.3322746068014795, ,0.029091643641468663,0.03210316020245967,0.015228309292543022,0.0,0.025348943343073006,-0.031027613139065047, ,1.1292600631713867
0.011918143613741895,0.02092805521464442,-0.08502531044996338, ,0.012292206808456774,0.020695911177901358,-0.08554000678549524, ,0.0006772934705469944, ,0.005134653858631485,0.0006529201122181732,-0.015144186723793722,-0.024055607766726893,-0.031773799448472875,-0.0054161622083035614, ,0.01600429212574015, ,0.0398528016560654, ,6.708638194075024e-05, ,0.15543544455951672,-0.23853977301904666,0.0949662054,1.607692796695848,0.15330615273682416,-1.3324677034453165, ,0.031780623428824775,0.034837350058175766,0.01541995306873185,0.0,0.0,-0.010361758266126142, ,1.1357090473175049
0.011966907617358287,0.02093339213600406,-0.08517153797354184, ,0.012334170755684307,0.020695043119321185,-0.08565928457977437, ,0.0006554305595699103, ,0.005074938761917291,0.00047474213660704843,-0.014526612086688512,-0.010873700720627193,-0.013887328485051682,-0.0004904139405986965, ,0.015394896630072109, ,0.017637874388273522, ,6.840937126990863e-05, ,0.1557752448059826,-0.23819225003970657,0.09511527875,1.607692796695848,0.1537160622361205,-1.3329653146366867, ,0.034283577152626726,0.03509502276570665,0.014803728178438665,0.0,0.020985958726850037,-0.02379938586565731, ,1.1414620876312256
0.011966907617358287,0.02093339213600406,-0.08517153797354184, ,0.01237634630496714,0.02069404020822881,-0.0857787472175065, ,0.0007704754702109144, ,0.005074938761917291,0.00047474213660704843,-0.014526612086688512,-0.010873700720627193,-0.013887328485051682,-0.0004904139405986965, ,0.015394896630072109, ,0.017637874388273522, ,7.000951452160333e-05, ,0.1557752448059826,-0.23819225003970657,0.09511527875,1.607692796695848,0.1537160622361205,-1.3329653146366867, ,0.034283577152626726,0.03509502276570665,0.014803728178438665,0.0,0.020985958726850037,-0.02379938586565731, ,1.147284984588623
0.012016537217765253,0.020936879878192254,-0.08532193835721126, ,0.01241873199345295,0.020692904110031107,-0.0858983897024003, ,0.0007440302187482359, ,0.0051934781196620984,0.000547637336723276,-0.01606991980660626,0.02696096355234693,0.01970353527072917,0.007668093973535913, ,0.016897172669495288, ,0.03339343926802695, ,7.152713057613857e-05, ,0.1561304905181969,-0.23781383612886955,0.09526824097000001,1.607692796695848,0.15426260823518226,-1.3335743437317533, ,0.03658324655299568,0.03840426611026741,0.01637082376156218,0.0,0.05790469930399042,-0.06490806163155861, ,1.1535921096801758
0.012016537217765253,0.020936879878192254,-0.08532193835721126, ,0.012461326363462281,0.020691636484509588,-0.08601820706071793, ,0.0008618421048879787, ,0.0051934781196620984,0.000547637336723276,-0.01606991980660626,0.02696096355234693,0.01970353527072917,0.007668093973535913, ,0.016897172669495288, ,0.03339343926802695, ,7.332410018547782e-05, ,0.1561304905181969,-0.23781383612886955,0.09526824097000001,1.607692796695848,0.15426260823518226,-1.3335743437317533, ,0.03658324655299568,0.03840426611026741,0.01637082376156218,0.0,0.05790469930399042,-0.06490806163155861, ,1.1590490341186523
0.012074868677199011,0.020946942369459393,-0.0854981179047464, ,0.012504127962480693,0.02069023898582817,-0.0861381943412375, ,0.000812316444324132, ,0.006244142465048868,0.0011305160171522415,-0.019354377070519832,-0.014316775852902681,-0.021092004698671406,-0.005545939348684604, ,0.02036809498644211, ,0.025491959854869045, ,7.497999133959021e-05, ,0.15650890442903392,-0.23743542221803254,0.09544842528000001,1.6079024866393328,0.15453588123471315,-1.3339605370194274, ,0.03824947261526432,0.040798341168732065,0.019762793449131517,0.0032681087902384745,0.016858331260867533,-0.025487743334154687, ,1.164458990097046
0.0121419025734592,0.020958973247137903,-0.08571565771956906, ,0.012547135343150731,0.020688713262540865,-0.08625834661521807, ,0.0007292223901986318, ,0.006244142465048868,0.0011305160171522415,-0.019354377070519832,-0.014316775852902681,-0.021092004698671406,-0.005545939348684604, ,0.02036809498644211, ,0.025491959854869045, ,7.641380917998489e-05, ,0.15650890442903392,-0.23743542221803254,0.09544842528000001,1.6079024866393328,0.15453588123471315,-1.3339605370194274, ,0.03824947261526432,0.040798341168732065,0.019762793449131517,0.0032681087902384745,0.016858331260867533,-0.025487743334154687, ,1.1701321601867676
0.0121419025734592,0.020958973247137903,-0.08571565771956906, ,0.012590347063264418,0.020687060957598646,-0.08637865897636313, ,0.0008453457400079906, ,0.006809506423616537,0.0014143526911883334,-0.022308963309361787,-0.010797359951270043,-0.020594846736738195,-0.005915549469180243, ,0.023367918503940332, ,0.023253497977816725, ,7.811951883921647e-05, ,0.15689504107274513,-0.23698750371132754,0.09566231313000001,1.6079024866393328,0.15480915423424405,-1.3343467303071015, ,0.0392622844677165,0.04555782119945788,0.02275544502857143,0.003267072836409573,0.018492697877777093,-0.03357615511879164, ,1.1759569644927979
0.0121419025734592,0.020958973247137903,-0.08571565771956906, ,0.012633761685755548,0.0206852837083567,-0.0864991265407843, ,0.0009647044852200202, ,0.006809506423616537,0.0014143526911883334,-0.022308963309361787,-0.010797359951270043,-0.020594846736738195,-0.005915549469180243, ,0.023367918503940332, ,0.023253497977816725, ,8.010105179887722e-05, ,0.15689504107274513,-0.23698750371132754,0.09566231313000001,1.6079024866393328,0.15480915423424405,-1.3343467303071015, ,0.0392622844677165,0.04555782119945788,0.02275544502857143,0.003267072836409573,0.018492697877777093,-0.03357615511879164, ,1.1822960376739502
0.012205122582311717,0.02097487211744911,-0.08594434207317699, ,0.012677377778691558,0.020683383146582596,-0.08661974444696544, ,0.0008741619742151081, ,0.006383338863374114,0.001534831304762758,-0.023459170074600653,0.04608006613378595,0.04231970850592886,0.008978233667641956, ,0.024360529197203024, ,0.06256455160819899, ,8.184241733696834e-05, ,0.15728890044933058,-0.23652413973887407,0.09590342307000001,1.6079024866393328,0.15549233673307122,-1.3352305347861457, ,0.038860336428530214,0.046932216398848065,0.02391713441441442,0.003179500022433285,0.0827332567977382,-0.09195245809442856, ,1.188805103302002
0.012205122582311717,0.02097487211744911,-0.08594434207317699, ,0.01272119391526614,0.020681360898462453,-0.08674050785572611, ,0.000993155783183307, ,0.006383338863374114,0.001534831304762758,-0.023459170074600653,0.04608006613378595,0.04231970850592886,0.008978233667641956, ,0.024360529197203024, ,0.06256455160819899, ,8.385569633820466e-05, ,0.15728890044933058,-0.23652413973887407,0.09590342307000001,1.6079024866393328,0.15549233673307122,-1.3352305347861457, ,0.038860336428530214,0.046932216398848065,0.02391713441441442,0.003179500022433285,0.0827332567977382,-0.09195245809442856, ,1.1945040225982666
0.012312361558173541,0.020991301350536583,-0.08628662765923724, ,0.012765208673791203,0.020679218584609638,-0.08686141195018632, ,0.0007955143895830448, ,0.007268378166743071,0.000537871238831613,-0.020042180796512214,-0.019034055982140963,-0.041903925758426996,-0.009680039276407381, ,0.021326219489736866, ,0.04602424412428478, ,8.557884087390645e-05, ,0.15792988727789123,-0.23579048011582274,0.09624434734000001,1.6079024866393328,0.15603888273213298,-1.3358395638812128, ,0.04622354678931845,0.04821999062930426,0.020395405275288096,0.0030554542740814203,0.0038110982126776938,-0.028394198114796397, ,1.1972789764404297
0.012312361558173541,0.020991301350536583,-0.08628662765923724, ,0.012809420637689226,0.020676957820070656,-0.08698245193572889, ,0.00091107135144833, ,0.007268378166743071,0.000537871238831613,-0.020042180796512214,-0.019034055982140963,-0.041903925758426996,-0.009680039276407381, ,0.021326219489736866, ,0.04602424412428478, ,8.75727841361635e-05, ,0.15792988727789123,-0.23579048011582274,0.09624434734000001,1.6079024866393328,0.15603888273213298,-1.3358395638812128, ,0.04622354678931845,0.04821999062930426,0.020395405275288096,0.0030554542740814203,0.0038110982126776938,-0.028394198114796397, ,1.200089931488037
0.012312361558173541,0.020991301350536583,-0.08628662765923724, ,0.012853828395485425,0.02067458021433387,-0.08710362303996497, ,0.0010300388663329729, ,0.007268378166743071,0.000537871238831613,-0.020042180796512214,-0.019034055982140963,-0.041903925758426996,-0.009680039276407381, ,0.021326219489736866, ,0.04602424412428478, ,8.984378674386667e-05, ,0.15792988727789123,-0.23579048011582274,0.09624434734000001,1.6079024866393328,0.15603888273213298,-1.3358395638812128, ,0.04622354678931845,0.04821999062930426,0.020395405275288096,0.0030554542740814203,0.0038110982126776938,-0.028394198114796397, ,1.202834129333496
0.012382441196132903,0.02099168978364906,-0.08648488586671486, ,0.012898430540800167,0.020672087371335638,-0.08722492051269627, ,0.0009571008217630676, ,0.007976007101438691,-7.745388347875159e-05,-0.02275728803876296,-0.020987848552377383,-0.02760280882818444,-0.0071574381926125, ,0.02411466042194022, ,0.0346756216704385, ,0.0005031877936903649, ,0.15840869671609314,-0.2352421660817528,0.09645305003000001,1.6079024866393328,0.15631215573166388,-1.3362257571688867, ,0.05151842647039673,0.06235015871121602,0.023018513757225436,0.0029811085023895255,0.023868128832561952,-0.04012704401180689, ,1.2062089443206787
0.012382441196132903,0.02099168978364906,-0.08648488586671486, ,0.012943225672340623,0.02066948088946916,-0.0873463396258805, ,0.0010772188168727836, ,0.007976007101438691,-7.745388347875159e-05,-0.02275728803876296,-0.020987848552377383,-0.02760280882818444,-0.0071574381926125, ,0.02411466042194022, ,0.0346756216704385, ,0.0005106427420433834, ,0.15840869671609314,-0.2352421660817528,0.09645305003000001,1.6079024866393328,0.15631215573166388,-1.3362257571688867, ,0.05151842647039673,0.06235015871121602,0.023018513757225436,0.0029811085023895255,0.023868128832561952,-0.04012704401180689, ,1.2089290618896484
0.012382441196132903,0.02099168978364906,-0.08648488586671486, ,0.012988212393893856,0.02066676236159,-0.08746787567359413, ,0.0011995022026120728, ,0.007976007101438691,-7.745388347875159e-05,-0.02275728803876296,-0.020987848552377383,-0.02760280882818444,-0.0071574381926125, ,0.02411466042194022, ,0.0346756216704385, ,0.0005194742735891357, ,0.15840869671609314,-0.2352421660817528,0.09645305003000001,1.6079024866393328,0.15631215573166388,-1.3362257571688867, ,0.05151842647039673,0.06235015871121602,0.023018513757225436,0.0029811085023895255,0.023868128832561952,-0.04012704401180689, ,1.2116730213165283
0.012382441196132903,0.02099168978364906,-0.08648488586671486, ,0.01303338931431837,0.020663933375024795,-0.08758952397199635, ,0.0013233982996828056, ,0.007976007101438691,-7.745388347875159e-05,-0.02275728803876296,-0.020987848552377383,-0.02760280882818444,-0.0071574381926125, ,0.02411466042194022, ,0.0346756216704385, ,0.0005296505270839923, ,0.15840869671609314,-0.2352421660817528,0.09645305003000001,1.6079024866393328,0.15631215573166388,-1.3362257571688867, ,0.05151842647039673,0.06235015871121602,0.023018513757225436,0.0029811085023895255,0.023868128832561952,-0.04012704401180689, ,1.214414119720459
0.012462726215831684,0.020996404404023478,-0.086747800259475, ,0.013078755047536524,0.020660995511578285,-0.08771127985929335, ,0.0011917565128368591, ,0.008620228132346428,0.0014530183869460617,-0.030171607534102425,0.11740455500189409,0.11535445369129334,0.028865063722890928, ,0.03141250541867691, ,0.16459178144306633, ,0.0005379268519059031, ,0.15898017894878574,-0.2345857337874437,0.09672008577,1.6079024866393328,0.15767852072931826,-1.337666651166413, ,0.06114493657117962,0.06517647085059805,0.03081008030947776,0.0029094611383273933,0.18073770008480228,-0.1813379902497068, ,1.2172181606292725
0.012462726215831684,0.020996404404023478,-0.086747800259475, ,0.01312430821252683,0.020657950347540522,-0.08783313869570207, ,0.001315371205345751, ,0.008620228132346428,0.0014530183869460617,-0.030171607534102425,0.11740455500189409,0.11535445369129334,0.028865063722890928, ,0.03141250541867691, ,0.16459178144306633, ,0.0005475249303434321, ,0.15898017894878574,-0.2345857337874437,0.09672008577,1.6079024866393328,0.15767852072931826,-1.337666651166413, ,0.06114493657117962,0.06517647085059805,0.03081008030947776,0.0029094611383273933,0.18073770008480228,-0.1813379902497068, ,1.2201499938964844
0.012462726215831684,0.020996404404023478,-0.086747800259475, ,0.013170047433316229,0.020654799453694077,-0.0879550958634137, ,0.0014403332677137904, ,0.008620228132346428,0.0014530183869460617,-0.030171607534102425,0.11740455500189409,0.11535445369129334,0.028865063722890928, ,0.03141250541867691, ,0.16459178144306633, ,0.0005584128368967292, ,0.15898017894878574,-0.2345857337874437,0.09672008577,1.6079024866393328,0.15767852072931826,-1.337666651166413, ,0.06114493657117962,0.06517647085059805,0.03081008030947776,0.0029094611383273933,0.18073770008480228,-0.1813379902497068, ,1.2230639457702637
0.012538109811573982,0.021013503028766874,-0.08701239348634049, ,0.013215971338972066,0.020651544395321828,-0.08807714676655777, ,0.0013130917143845393, ,0.01032501363424103,0.002715074893351587,-0.036400883352101815,0.08786034722867596,0.08033005549755835,0.02299691921333199, ,0.037934177822078786, ,0.1190474465191865, ,0.0005675053534929678, ,0.15948987931848457,-0.23406058795199644,0.09699101038,1.6081121765828172,0.15904488572697267,-1.3391075451639396, ,0.06549133302862027,0.06754230715905395,0.03730400824355972,0.0008538603633741143,0.1496669283357683,-0.15441106368140384, ,1.2265231609344482
0.012538109811573982,0.021013503028766874,-0.08701239348634049, ,0.013262078563594642,0.020648186732213688,-0.08819928683116593, ,0.0014374639343025647, ,0.01032501363424103,0.002715074893351587,-0.036400883352101815,0.08786034722867596,0.08033005549755835,0.02299691921333199, ,0.037934177822078786, ,0.1190474465191865, ,0.0005778620032645107, ,0.15948987931848457,-0.23406058795199644,0.09699101038,1.6081121765828172,0.15904488572697267,-1.3391075451639396, ,0.06549133302862027,0.06754230715905395,0.03730400824355972,0.0008538603633741143,0.1496669283357683,-0.15441106368140384, ,1.2293529510498047
0.012538109811573982,0.021013503028766874,-0.08701239348634049, ,0.01330836774630896,0.020644728018675108,-0.08832151150513629, ,0.0015630362379760129, ,0.01032501363424103,0.002715074893351587,-0.036400883352101815,0.08786034722867596,0.08033005549755835,0.02299691921333199, ,0.037934177822078786, ,0.1190474465191865, ,0.0005894522883787637, ,0.15948987931848457,-0.23406058795199644,0.09699101038,1.6081121765828172,0.15904488572697267,-1.3391075451639396, ,0.06549133302862027,0.06754230715905395,0.03730400824355972,0.0008538603633741143,0.1496669283357683,-0.15441106368140384, ,1.2321410179138184
0.012538109811573982,0.021013503028766874,-0.08701239348634049, ,0.013354837531257595,0.020641169803532925,-0.08844381625819638, ,0.0016895701673799455, ,0.01032501363424103,0.002715074893351587,-0.036400883352101815,0.08786034722867596,0.08033005549755835,0.02299691921333199, ,0.037934177822078786, ,0.1190474465191865, ,0.0006022443567392425, ,0.15948987931848457,-0.23406058795199644,0.09699101038,1.6081121765828172,0.15904488572697267,-1.3391075451639396, ,0.06549133302862027,0.06754230715905395,0.03730400824355972,0.0008538603633741143,0.1496669283357683,-0.15441106368140384, ,1.234863042831421
0.012679844045619702,0.021056035834568616,-0.0875039084815736, ,0.01340148656759241,0.020637513630143767,-0.08856619658186773, ,0.0013506978837409477, ,0.011808116186075263,0.004116226305548373,-0.04193845456806714,-0.01197816071678233,-0.010198038308510852,0.0007264835472576236, ,0.043763099735052734, ,0.015727256054953398, ,0.0006108472708427103, ,0.16027759807165548,-0.23324197826732865,0.09747971171000001,1.6081121765828172,0.1601379777250962,-1.340162245873792, ,0.061541466639734616,0.06544616659204881,0.042819385806451615,0.0008329814438938927,0.05499917766901792,-0.0549466687976156, ,1.237602949142456
0.012679844045619702,0.021056035834568616,-0.0875039084815736, ,0.013448313509466944,0.020633761036400976,-0.08868864798942931, ,0.0014739297892055001, ,0.011808116186075263,0.004116226305548373,-0.04193845456806714,-0.01197816071678233,-0.010198038308510852,0.0007264835472576236, ,0.043763099735052734, ,0.015727256054953398, ,0.0006206550267331966, ,0.16027759807165548,-0.23324197826732865,0.09747971171000001,1.6081121765828172,0.1601379777250962,-1.340162245873792, ,0.061541466639734616,0.06544616659204881,0.042819385806451615,0.0008329814438938927,0.05499917766901792,-0.0549466687976156, ,1.2403230667114258
0.012679844045619702,0.021056035834568616,-0.0875039084815736, ,0.013495317016028647,0.02062991355474233,-0.08881116601588149, ,0.0015985927010457235, ,0.011808116186075263,0.004116226305548373,-0.04193845456806714,-0.01197816071678233,-0.010198038308510852,0.0007264835472576236, ,0.043763099735052734, ,0.015727256054953398, ,0.0006316430904895171, ,0.16027759807165548,-0.23324197826732865,0.09747971171000001,1.6081121765828172,0.1601379777250962,-1.340162245873792, ,0.061541466639734616,0.06544616659204881,0.042819385806451615,0.0008329814438938927,0.05499917766901792,-0.0549466687976156, ,1.243082046508789
0.012809869448069498,0.02108993954981685,-0.08795520176889546, ,0.013542495751411116,0.020625972712156878,-0.08893374621791021, ,0.0013074998147203643, ,0.011808116186075263,0.004116226305548373,-0.04193845456806714,-0.01197816071678233,-0.010198038308510852,0.0007264835472576236, ,0.043763099735052734, ,0.015727256054953398, ,0.0006391526096476376, ,0.1610035349618326,-0.23240020038403816,0.09795674643,1.6081121765828172,0.1608211602239234,-1.3408010141324147, ,0.07778437832661539,0.09267279449069411,0.0502486167823344,0.0008158669935115884,0.06948691805083367,-0.0857194180786146, ,1.246155023574829
0.012809869448069498,0.02108993954981685,-0.08795520176889546, ,0.013589848384726313,0.0206219400301926,-0.08905638417385012, ,0.0014282833685857132, ,0.014361452755664222,0.003337686113320327,-0.04919522666002919,-0.0056332753614358015,-0.009935263246124164,0.00021480112859084357, ,0.051357198132062014, ,0.011408553790258444, ,0.0006478243762293748, ,0.1610035349618326,-0.23240020038403816,0.09795674643,1.6081121765828172,0.1608211602239234,-1.3408010141324147, ,0.07778437832661539,0.09267279449069411,0.0502486167823344,0.0008158669935115884,0.06948691805083367,-0.0857194180786146, ,1.2490251064300537
0.012809869448069498,0.02108993954981685,-0.08795520176889546, ,0.013637373590056652,0.020617817024963996,-0.08917907548364944, ,0.0015509769995538402, ,0.014361452755664222,0.003337686113320327,-0.04919522666002919,-0.0056332753614358015,-0.009935263246124164,0.00021480112859084357, ,0.051357198132062014, ,0.011408553790258444, ,0.000657641252569858, ,0.1610035349618326,-0.23240020038403816,0.09795674643,1.6081121765828172,0.1608211602239234,-1.3408010141324147, ,0.07778437832661539,0.09267279449069411,0.0502486167823344,0.0008158669935115884,0.06948691805083367,-0.0857194180786146, ,1.2517900466918945
0.012809869448069498,0.02108993954981685,-0.08795520176889546, ,0.013685070046447475,0.020613605207158756,-0.08930181576883273, ,0.0016751834998661305, ,0.014361452755664222,0.003337686113320327,-0.04919522666002919,-0.0056332753614358015,-0.009935263246124164,0.00021480112859084357, ,0.051357198132062014, ,0.011408553790258444, ,0.0006685825670569147, ,0.1610035349618326,-0.23240020038403816,0.09795674643,1.6081121765828172,0.1608211602239234,-1.3408010141324147, ,0.07778437832661539,0.09267279449069411,0.0502486167823344,0.0008158669935115884,0.06948691805083367,-0.0857194180786146, ,1.254560947418213
0.012953616470784272,0.02112820079283418,-0.08847219903479842, ,0.013732936437899091,0.02060930608204574,-0.08942460067246538, ,0.001335537424207492, ,0.014492139063547545,0.004300464163965082,-0.05325309507246734,0.08090522559335059,0.08917978689942095,0.024311961832932587, ,0.05535709729980424, ,0.12040872743788952, ,0.0006756778314946868, ,0.16181442191362616,-0.231465749706257,0.09848563275000001,1.6081121765828172,0.16232416172134326,-1.3421899685533565, ,0.08159668233746413,0.09186538389009755,0.054550724383561656,0.0007997073638945297,0.1751709319387192,-0.17146724441715402, ,1.2573840618133545
0.012953616470784272,0.02112820079283418,-0.08847219903479842, ,0.01378097145335907,0.020604921149481974,-0.08954742585911742, ,0.0014541150491186314, ,0.014492139063547545,0.004300464163965082,-0.05325309507246734,0.08090522559335059,0.08917978689942095,0.024311961832932587, ,0.05535709729980424, ,0.12040872743788952, ,0.0006838719074696756, ,0.16181442191362616,-0.231465749706257,0.09848563275000001,1.6081121765828172,0.16232416172134326,-1.3421899685533565, ,0.08159668233746413,0.09186538389009755,0.054550724383561656,0.0007997073638945297,0.1751709319387192,-0.17146724441715402, ,1.2604570388793945
0.012953616470784272,0.02112820079283418,-0.08847219903479842, ,0.01382917378671429,0.020600451903920697,-0.08967028701482734, ,0.0015749712096155182, ,0.014492139063547545,0.004300464163965082,-0.05325309507246734,0.08090522559335059,0.08917978689942095,0.024311961832932587, ,0.05535709729980424, ,0.12040872743788952, ,0.0006931541918670281, ,0.16181442191362616,-0.231465749706257,0.09848563275000001,1.6081121765828172,0.16232416172134326,-1.3421899685533565, ,0.08159668233746413,0.09186538389009755,0.054550724383561656,0.0007997073638945297,0.1751709319387192,-0.17146724441715402, ,1.2637290954589844
0.012953616470784272,0.02112820079283418,-0.08847219903479842, ,0.013877542136783489,0.02059589983441741,-0.08979317984706581, ,0.0016976375505396094, ,0.014492139063547545,0.004300464163965082,-0.05325309507246734,0.08090522559335059,0.08917978689942095,0.024311961832932587, ,0.05535709729980424, ,0.12040872743788952, ,0.0007035096904100445, ,0.16181442191362616,-0.231465749706257,0.09848563275000001,1.6081121765828172,0.16232416172134326,-1.3421899685533565, ,0.08159668233746413,0.09186538389009755,0.054550724383561656,0.0007997073638945297,0.1751709319387192,-0.17146724441715402, ,1.267199993133545
0.013059245278414858,0.021154410043658763,-0.08883908165160706, ,0.013926075207309298,0.020591266424638204,-0.08991610008469941, ,0.0014928139758494422, ,0.014563776139174398,0.0026285488816618205,-0.04652094113538877,0.060405636277451026,0.06803118980589698,0.022011873655363074, ,0.04881814016098502, ,0.09097728171307434, ,0.0007115638157716709, ,0.16243996327643834,-0.23079387194619946,0.09886155685,1.608321866526302,0.1635538902192322,-1.343437765907046, ,0.09276338373262051,0.09222248936683264,0.047691052455089825,0.0005071605926006547,0.16498291915288982,-0.15132776444432672, ,1.2704060077667236
0.013059245278414858,0.021154410043658763,-0.08883908165160706, ,0.013974771706950337,0.02058655315286732,-0.09003904347795508, ,0.0016126247159394288, ,0.014563776139174398,0.0026285488816618205,-0.04652094113538877,0.060405636277451026,0.06803118980589698,0.022011873655363074, ,0.04881814016098502, ,0.09097728171307434, ,0.0007206654410258907, ,0.16243996327643834,-0.23079387194619946,0.09886155685,1.608321866526302,0.1635538902192322,-1.343437765907046, ,0.09276338373262051,0.09222248936683264,0.047691052455089825,0.0005071605926006547,0.16498291915288982,-0.15132776444432672, ,1.2731759548187256
0.01324260520446422,0.02116355344337943,-0.08933723776145051, ,0.0140236303492738,0.02058176149201324,-0.09016200579838339, ,0.0012762148981442802, ,0.015229612690566973,-0.0013915410203707709,-0.035701212445977334,-0.09136494617537604,-0.07655342188446314,-0.011297941990868553, ,0.0388388215478902, ,0.11919698735122597, ,0.0007262209355970746, ,0.16243996327643834,-0.23079387194619946,0.09886155685,1.608321866526302,0.1635538902192322,-1.343437765907046, ,0.09276338373262051,0.09222248936683264,0.047691052455089825,0.0005071605926006547,0.16498291915288982,-0.15132776444432672, ,1.2762031555175781
0.01324260520446422,0.02116355344337943,-0.08933723776145051, ,0.014072649852747107,0.020576892909617887,-0.09028498283882236, ,0.0013897357416786126, ,0.015229612690566973,-0.0013915410203707709,-0.035701212445977334,-0.09136494617537604,-0.07655342188446314,-0.011297941990868553, ,0.0388388215478902, ,0.11919698735122597, ,0.0007327903891226344, ,0.1636601550705658,-0.2296045710835689,0.09937099882000001,1.608321866526302,0.16464698221735574,-1.3444924666168983, ,0.10485849895963623,0.10686592517845808,0.03628430870159454,0.0005071605926006547,0.028951610836609715,-0.013993862477505618, ,1.2800991535186768
0.01324260520446422,0.02116355344337943,-0.08933723776145051, ,0.014121828940730857,0.02057194886786202,-0.09040797041336178, ,0.0015064855671584544, ,0.015229612690566973,-0.0013915410203707709,-0.035701212445977334,-0.09136494617537604,-0.07655342188446314,-0.011297941990868553, ,0.0388388215478902, ,0.11919698735122597, ,0.0007403756359661229, ,0.1636601550705658,-0.2296045710835689,0.09937099882000001,1.608321866526302,0.16464698221735574,-1.3444924666168983, ,0.10485849895963623,0.10686592517845808,0.03628430870159454,0.0005071605926006547,0.028951610836609715,-0.013993862477505618, ,1.2828950881958008
0.01324260520446422,0.02116355344337943,-0.08933723776145051, ,0.01417116634147041,0.020566930823573953,-0.09053096435730668, ,0.0016257821260169272, ,0.015229612690566973,-0.0013915410203707709,-0.035701212445977334,-0.09136494617537604,-0.07655342188446314,-0.011297941990868553, ,0.0388388215478902, ,0.11919698735122597, ,0.0007489718154811792, ,0.1636601550705658,-0.2296045710835689,0.09937099882000001,1.608321866526302,0.16464698221735574,-1.3444924666168983, ,0.10485849895963623,0.10686592517845808,0.03628430870159454,0.0005071605926006547,0.028951610836609715,-0.013993862477505618, ,1.2856190204620361
0.013398828489354966,0.02114173181315899,-0.08971363523396468, ,0.014220660788088466,0.020561840228236667,-0.09065396052714166, ,0.0013769147520793265, ,0.015917094476048183,-0.0018295030649014032,-0.040931702599040144,-0.006861621634017016,0.014429364079800836,0.008369127555290259, ,0.04395571926018498, ,0.015974151143207074, ,0.0007550097283330844, ,0.16476450587157992,-0.2284075474880641,0.09975210808000001,1.608321866526302,0.1654668012159484,-1.3452426527792176, ,0.11190677070574384,0.12372482602147429,0.04148128,0.0005071605926006547,0.12953023860754295,-0.11512156727642597, ,1.2883710861206055
0.013398828489354966,0.02114173181315899,-0.08971363523396468, ,0.014270311018577071,0.02055667852799455,-0.09077695480049389, ,0.0014941277207069408, ,0.015917094476048183,-0.0018295030649014032,-0.040931702599040144,-0.006861621634017016,0.014429364079800836,0.008369127555290259, ,0.04395571926018498, ,0.015974151143207074, ,0.0007620489473080734, ,0.16476450587157992,-0.2284075474880641,0.09975210808000001,1.608321866526302,0.1654668012159484,-1.3452426527792176, ,0.11190677070574384,0.12372482602147429,0.04148128,0.0005071605926006547,0.12953023860754295,-0.11512156727642597, ,1.2911019325256348
0.013398828489354966,0.02114173181315899,-0.08971363523396468, ,0.01432011577579006,0.02055144716366149,-0.0908999430760978, ,0.0016138564148913228, ,0.015917094476048183,-0.0018295030649014032,-0.040931702599040144,-0.006861621634017016,0.014429364079800836,0.008369127555290259, ,0.04395571926018498, ,0.015974151143207074, ,0.0007700848668135759, ,0.16476450587157992,-0.2284075474880641,0.09975210808000001,1.608321866526302,0.1654668012159484,-1.3452426527792176, ,0.11190677070574384,0.12372482602147429,0.04148128,0.0005071605926006547,0.12953023860754295,-0.11512156727642597, ,1.293807029724121
0.013398828489354966,0.02114173181315899,-0.08971363523396468, ,0.014370073807435204,0.02054614757072774,-0.09102292127375844, ,0.0017355886585605502, ,0.015787810040846773,-0.001496567206176692,-0.0401211325648896,0.05514233796548017,0.05556604476262098,0.014809386746260476, ,0.043141626505938675, ,0.0782825574885283, ,0.0007791082667364448, ,0.16588430213834246,-0.22721824662543352,0.10017080975,1.6085315564697864,0.16710643921313365,-1.3468247038439962, ,0.11530612583046268,0.11744670984959255,0.040843106461538464,0.0048253527526225465,0.17417462613888865,-0.17019672679417788, ,1.2966639995574951
0.013398828489354966,0.02114173181315899,-0.08971363523396468, ,0.014420183866066187,0.020540781179367536,-0.0911458853343156, ,0.0018589375513304593, ,0.015787810040846773,-0.001496567206176692,-0.0401211325648896,0.05514233796548017,0.05556604476262098,0.014809386746260476, ,0.043141626505938675, ,0.0782825574885283, ,0.0007891066860382412, ,0.16588430213834246,-0.22721824662543352,0.10017080975,1.6085315564697864,0.16710643921313365,-1.3468247038439962, ,0.11530612583046268,0.11744670984959255,0.040843106461538464,0.0048253527526225465,0.17417462613888865,-0.17019672679417788, ,1.2996890544891357
0.013555864154693276,0.021128463856006172,-0.09012550959129996, ,0.014470444709075271,0.02053534941444644,-0.0912688312196078, ,0.001579691956362657, ,0.015787810040846773,-0.001496567206176692,-0.0401211325648896,0.05514233796548017,0.05556604476262098,0.014809386746260476, ,0.043141626505938675, ,0.0782825574885283, ,0.0007963597619127772, ,0.16588430213834246,-0.22721824662543352,0.10017080975,1.6085315564697864,0.16710643921313365,-1.3468247038439962, ,0.11530612583046268,0.11744670984959255,0.040843106461538464,0.0048253527526225465,0.17417462613888865,-0.17019672679417788, ,1.3026621341705322
0.013555864154693276,0.021128463856006172,-0.09012550959129996, ,0.014520855098685276,0.020529853695528,-0.09139175491243502, ,0.001700858271435545, ,0.015787810040846773,-0.001496567206176692,-0.0401211325648896,0.05514233796548017,0.05556604476262098,0.014809386746260476, ,0.043141626505938675, ,0.0782825574885283, ,0.0008045824756357113, ,0.16588430213834246,-0.22721824662543352,0.10017080975,1.6085315564697864,0.16710643921313365,-1.3468247038439962, ,0.11530612583046268,0.11744670984959255,0.040843106461538464,0.0048253527526225465,0.17417462613888865,-0.17019672679417788, ,1.3077349662780762
0.013718779928210597,0.021104643928350826,-0.09052389813974042, ,0.014571413801941492,0.020524295436882726,-0.09151465241652484, ,0.0014301688470769042, ,0.016111365178456752,-0.00306153709881591,-0.03801619737810382,0.019083871966906557,0.010925344489828088,-0.00032332150501740865, ,0.04140266127209654, ,0.02198813128235315, ,0.0008102183888919383, ,0.16708132573384726,-0.22595944116693492,0.10057525223000001,1.6087412464132707,0.16874607721031895,-1.3483250761686345, ,0.1171567179734207,0.12772132107465783,0.03847539014492755,0.007963985195569057,0.12951131624241624,-0.14371574881434346, ,1.310873031616211
0.013718779928210597,0.021104643928350826,-0.09052389813974042, ,0.014622119590704603,0.020518676047493575,-0.09163751975649354, ,0.0015490429330818902, ,0.016111365178456752,-0.00306153709881591,-0.03801619737810382,0.019083871966906557,0.010925344489828088,-0.00032332150501740865, ,0.04140266127209654, ,0.02198813128235315, ,0.0008168150366079201, ,0.16708132573384726,-0.22595944116693492,0.10057525223000001,1.6087412464132707,0.16874607721031895,-1.3483250761686345, ,0.1171567179734207,0.12772132107465783,0.03847539014492755,0.007963985195569057,0.12951131624241624,-0.14371574881434346, ,1.3138079643249512
0.013718779928210597,0.021104643928350826,-0.09052389813974042, ,0.014672971241642258,0.020512996931064523,-0.09176035297781193, ,0.0016701340660608022, ,0.016111365178456752,-0.00306153709881591,-0.03801619737810382,0.019083871966906557,0.010925344489828088,-0.00032332150501740865, ,0.04140266127209654, ,0.02198813128235315, ,0.0008243665324437862, ,0.16708132573384726,-0.22595944116693492,0.10057525223000001,1.6087412464132707,0.16874607721031895,-1.3483250761686345, ,0.1171567179734207,0.12772132107465783,0.03847539014492755,0.007963985195569057,0.12951131624241624,-0.14371574881434346, ,1.3165831565856934
0.013718779928210597,0.021104643928350826,-0.09052389813974042, ,0.014723967536221703,0.020507259486027572,-0.09188314814676869, ,0.0017929949472419923, ,0.016111365178456752,-0.00306153709881591,-0.03801619737810382,0.019083871966906557,0.010925344489828088,-0.00032332150501740865, ,0.04140266127209654, ,0.02198813128235315, ,0.0008328632729244722, ,0.1686335950415664,-0.22421410353736018,0.10110543484000001,1.6089509363567556,0.16970253270867705,-1.34918668023465, ,0.12340304493949386,0.13975985501983915,0.043640579506849325,-0.012103890416056522,0.04470105765130203,-0.05268343986135142, ,1.3200139999389648
0.013943494062194568,0.021063023476600818,-0.09104813321363013, ,0.014775107260701727,0.020501465105549933,-0.09200590135043407, ,0.0013871727073099163, ,0.01846416501404929,-0.003186714051627919,-0.043128003499191214,-0.08706123075512637,-0.08249675555842788,-0.0020234671641701308, ,0.04702239064466134, ,0.11993841489974315, ,0.0008376833549626065, ,0.1686335950415664,-0.22421410353736018,0.10110543484000001,1.6089509363567556,0.16970253270867705,-1.34918668023465, ,0.12340304493949386,0.13975985501983915,0.043640579506849325,-0.012103890416056522,0.04470105765130203,-0.05268343986135142, ,1.32281494140625
0.013943494062194568,0.021063023476600818,-0.09104813321363013, ,0.014826389206125131,0.020495615177541494,-0.09212860869662322, ,0.0015062812759795933, ,0.01846416501404929,-0.003186714051627919,-0.043128003499191214,-0.08706123075512637,-0.08249675555842788,-0.0020234671641701308, ,0.04702239064466134, ,0.11993841489974315, ,0.0008434471301437874, ,0.1686335950415664,-0.22421410353736018,0.10110543484000001,1.6089509363567556,0.16970253270867705,-1.34918668023465, ,0.12340304493949386,0.13975985501983915,0.043640579506849325,-0.012103890416056522,0.04470105765130203,-0.05268343986135142, ,1.3255720138549805
0.013943494062194568,0.021063023476600818,-0.09104813321363013, ,0.014877812168310769,0.020489711084662434,-0.0922512663138616, ,0.0016276260869865864, ,0.01846416501404929,-0.003186714051627919,-0.043128003499191214,-0.08706123075512637,-0.08249675555842788,-0.0020234671641701308, ,0.04702239064466134, ,0.11993841489974315, ,0.0008501495143903072, ,0.1686335950415664,-0.22421410353736018,0.10110543484000001,1.6089509363567556,0.16970253270867705,-1.34918668023465, ,0.12340304493949386,0.13975985501983915,0.043640579506849325,-0.012103890416056522,0.04470105765130203,-0.05268343986135142, ,1.3283259868621826
0.014138286344013236,0.021035242026643954,-0.09150758762006372, ,0.014929374947845818,0.020483754204330046,-0.09237387035134692, ,0.0012963046585559256, ,0.01894152670048256,-0.002481002214570717,-0.045108883463913424,-0.02930546132361757,-0.024319300062205344,0.012991028870341023, ,0.04898722459064935, ,0.038079543688176724, ,0.0008539304901883208, ,0.1699541823630588,-0.22279312068850288,0.10157209924,1.6089509363567556,0.17052235170726968,-1.349936866396969, ,0.12999581035406957,0.13615056177685905,0.04590435596541788,-0.012103890416056522,0.11108658577358518,-0.1068535624761898, ,1.3310949802398682
0.014138286344013236,0.021035242026643954,-0.09150758762006372, ,0.014981076350077914,0.020477745908726558,-0.09249641697891442, ,0.0014138176745042285, ,0.01894152670048256,-0.002481002214570717,-0.045108883463913424,-0.02930546132361757,-0.024319300062205344,0.012991028870341023, ,0.04898722459064935, ,0.038079543688176724, ,0.0008586354245103033, ,0.1699541823630588,-0.22279312068850288,0.10157209924,1.6089509363567556,0.17052235170726968,-1.349936866396969, ,0.12999581035406957,0.13615056177685905,0.04590435596541788,-0.012103890416056522,0.11108658577358518,-0.1068535624761898, ,1.3338029384613037
0.014138286344013236,0.021035242026643954,-0.09150758762006372, ,0.015032915185107694,0.02047168756480631,-0.09261890238700027, ,0.0015339409721323543, ,0.01894152670048256,-0.002481002214570717,-0.045108883463913424,-0.02930546132361757,-0.024319300062205344,0.012991028870341023, ,0.04898722459064935, ,0.038079543688176724, ,0.0008642629707404871, ,0.1699541823630588,-0.22279312068850288,0.10157209924,1.6089509363567556,0.17052235170726968,-1.349936866396969, ,0.12999581035406957,0.13615056177685905,0.04590435596541788,-0.012103890416056522,0.11108658577358518,-0.1068535624761898, ,1.3365070819854736
0.014138286344013236,0.021035242026643954,-0.09150758762006372, ,0.015084890267780555,0.02046558053430298,-0.09274132278660488, ,0.00165610255283547, ,0.01894152670048256,-0.002481002214570717,-0.045108883463913424,-0.02930546132361757,-0.024319300062205344,0.012991028870341023, ,0.04898722459064935, ,0.038079543688176724, ,0.0008708070995181315, ,0.1699541823630588,-0.22279312068850288,0.10157209924,1.6089509363567556,0.17052235170726968,-1.349936866396969, ,0.12999581035406957,0.13615056177685905,0.04590435596541788,-0.012103890416056522,0.11108658577358518,-0.1068535624761898, ,1.3393261432647705
0.014332891024812751,0.021001223366840262,-0.09197076448922413, ,0.01513700041767927,0.020459426173737163,-0.09286367440925784, ,0.0013181138947166789, ,0.01812213427399691,-0.004377665064455407,-0.04092548767534494,0.03142375695398284,0.04927945784056189,0.02881450526617424, ,0.044971893928609875, ,0.05844486854217572, ,0.0008744735486591032, ,0.1712516014859285,-0.2214107515040167,0.10201283784000001,1.6089509363567556,0.17216198970445498,-1.3516005962018882, ,0.1353736684143663,0.14356572096591644,0.04180790425196851,-0.012103890416056522,0.18975266803839785,-0.17414770703064641, ,1.342684030532837
0.014332891024812751,0.021001223366840262,-0.09197076448922413, ,0.01518924445911597,0.020453225834423477,-0.09298595350698068, ,0.0014367502363846348, ,0.01812213427399691,-0.004377665064455407,-0.04092548767534494,0.03142375695398284,0.04927945784056189,0.02881450526617424, ,0.044971893928609875, ,0.05844486854217572, ,0.0008790449038438637, ,0.1712516014859285,-0.2214107515040167,0.10201283784000001,1.6089509363567556,0.17216198970445498,-1.3516005962018882, ,0.1353736684143663,0.14356572096591644,0.04180790425196851,-0.012103890416056522,0.18975266803839785,-0.17414770703064641, ,1.3469171524047852
0.014332891024812751,0.021001223366840262,-0.09197076448922413, ,0.015241621221124308,0.020446980862478467,-0.09310815635225189, ,0.0015577662126941383, ,0.01812213427399691,-0.004377665064455407,-0.04092548767534494,0.03142375695398284,0.04927945784056189,0.02881450526617424, ,0.044971893928609875, ,0.05844486854217572, ,0.0008845184627862047, ,0.17268802980053427,-0.21985848219629756,0.10243802096000001,1.6089509363567556,0.17407490070117113,-1.3533238043339195, ,0.14100585669906504,0.14712704117592368,0.03923352591133005,-0.012103890416056522,0.1502096515648401,-0.14797798301125006, ,1.3499009609222412
0.014511825483256472,0.020952291708797574,-0.09236139986913841, ,0.015294129537452109,0.020440692598826877,-0.09323027923796928, ,0.001276199294825723, ,0.01876570477639981,-0.005217095908207995,-0.03870685048753453,0.0010266054743905773,0.003005365397852554,0.018780067483826848, ,0.043331167075614144, ,0.003162160037244743, ,0.0008876519094425208, ,0.17268802980053427,-0.21985848219629756,0.10243802096000001,1.6089509363567556,0.17407490070117113,-1.3533238043339195, ,0.14100585669906504,0.14712704117592368,0.03923352591133005,-0.012103890416056522,0.1502096515648401,-0.14797798301125006, ,1.3527860641479492
0.014511825483256472,0.020952291708797574,-0.09236139986913841, ,0.015346768246553047,0.020434362379210234,-0.09335231847741539, ,0.001395456877390948, ,0.01876570477639981,-0.005217095908207995,-0.03870685048753453,0.0010266054743905773,0.003005365397852554,0.018780067483826848, ,0.043331167075614144, ,0.003162160037244743, ,0.0008916821076008417, ,0.17268802980053427,-0.21985848219629756,0.10243802096000001,1.6089509363567556,0.17407490070117113,-1.3533238043339195, ,0.14100585669906504,0.14712704117592368,0.03923352591133005,-0.012103890416056522,0.1502096515648401,-0.14797798301125006, ,1.355708122253418
0.014511825483256472,0.020952291708797574,-0.09236139986913841, ,0.01539953619157908,0.020427991534193602,-0.09347427040422028, ,0.0015170371790479591, ,0.01876570477639981,-0.005217095908207995,-0.03870685048753453,0.0010266054743905773,0.003005365397852554,0.018780067483826848, ,0.043331167075614144, ,0.003162160037244743, ,0.0008966061632815276, ,0.17268802980053427,-0.21985848219629756,0.10243802096000001,1.6089509363567556,0.17407490070117113,-1.3533238043339195, ,0.14100585669906504,0.14712704117592368,0.03923352591133005,-0.012103890416056522,0.1502096515648401,-0.14797798301125006, ,1.3585090637207031
0.014706519496721502,0.020906837740690826,-0.09275094177667344, ,0.015452432220372991,0.020421581389172376,-0.09359613137232577, ,0.0012272754257268935, ,0.020051339970110108,-0.004286613136572111,-0.038893187008473454,-0.050519863681964226,-0.0868956120641195,0.0008198455354922855, ,0.043967161410030285, ,0.10051375541199208, ,0.0008991895168943821, ,0.17410901264939158,-0.2184529448131887,0.10283468570000001,1.6089509363567556,0.1750313561995292,-1.3542670871400753, ,0.1444397892822995,0.1371343086105069,0.03972272199501248,-0.011933536371798578,0.06154433543708408,-0.08655714606835926, ,1.3614211082458496
0.014706519496721502,0.020906837740690826,-0.09275094177667344, ,0.01550545518545997,0.02041513326438108,-0.09371789775594919, ,0.0013472473390659092, ,0.020051339970110108,-0.004286613136572111,-0.038893187008473454,-0.050519863681964226,-0.0868956120641195,0.0008198455354922855, ,0.043967161410030285, ,0.10051375541199208, ,0.0009026628333453242, ,0.17410901264939158,-0.2184529448131887,0.10283468570000001,1.6089509363567556,0.1750313561995292,-1.3542670871400753, ,0.1444397892822995,0.1371343086105069,0.03972272199501248,-0.011933536371798578,0.06154433543708408,-0.08655714606835926, ,1.364227056503296
0.014706519496721502,0.020906837740690826,-0.09275094177667344, ,0.015558603944040347,0.020408648474899174,-0.09383956594954751, ,0.0014694703262327024, ,0.020051339970110108,-0.004286613136572111,-0.038893187008473454,-0.050519863681964226,-0.0868956120641195,0.0008198455354922855, ,0.043967161410030285, ,0.10051375541199208, ,0.0009070228909829194, ,0.17410901264939158,-0.2184529448131887,0.10283468570000001,1.6089509363567556,0.1750313561995292,-1.3542670871400753, ,0.1444397892822995,0.1371343086105069,0.03972272199501248,-0.011933536371798578,0.06154433543708408,-0.08655714606835926, ,1.3669800758361816
0.014706519496721502,0.020906837740690826,-0.09275094177667344, ,0.0156118773579817,0.020402128330659398,-0.09396113236778096, ,0.0015934132271087401, ,0.020051339970110108,-0.004286613136572111,-0.038893187008473454,-0.050519863681964226,-0.0868956120641195,0.0008198455354922855, ,0.043967161410030285, ,0.10051375541199208, ,0.000912262511869376, ,0.17552227276537466,-0.21704740743007986,0.10324042447000001,1.6089509363567556,0.17571453869835643,-1.3548241766585576, ,0.1365423619546342,0.14184894104405196,0.04158958621409923,-0.010971780608878849,0.06856192673968489,-0.08423132505125676, ,1.370197057723999
0.014905674427850051,0.02086221302791589,-0.09314901410991634, ,0.015665274293810795,0.02039557413645473,-0.09408259344547655, ,0.0012908579267978024, ,0.019703866283681044,-0.004440572404200799,-0.04086945081333342,-0.057311201579548596,-0.07191907105606414,0.0004065758646951534, ,0.04558808001644303, ,0.09196092966392266, ,0.0009151306589521671, ,0.17552227276537466,-0.21704740743007986,0.10324042447000001,1.6089509363567556,0.17571453869835643,-1.3548241766585576, ,0.1365423619546342,0.14184894104405196,0.04158958621409923,-0.010971780608878849,0.06856192673968489,-0.08423132505125676, ,1.3729240894317627
0.014905674427850051,0.02086221302791589,-0.09314901410991634, ,0.01571879362270622,0.02038898719194617,-0.09420394563759273, ,0.0014135013423971037, ,0.019703866283681044,-0.004440572404200799,-0.04086945081333342,-0.057311201579548596,-0.07191907105606414,0.0004065758646951534, ,0.04558808001644303, ,0.09196092966392266, ,0.0009188778069479938, ,0.17552227276537466,-0.21704740743007986,0.10324042447000001,1.6089509363567556,0.17571453869835643,-1.3548241766585576, ,0.1365423619546342,0.14184894104405196,0.04158958621409923,-0.010971780608878849,0.06856192673968489,-0.08423132505125676, ,1.3756749629974365
0.014905674427850051,0.02086221302791589,-0.09314901410991634, ,0.015772434220490447,0.020382368791668957,-0.09432518541918265, ,0.0015378237798716245, ,0.019703866283681044,-0.004440572404200799,-0.04086945081333342,-0.057311201579548596,-0.07191907105606414,0.0004065758646951534, ,0.04558808001644303, ,0.09196092966392266, ,0.0009234968067459312, ,0.17552227276537466,-0.21704740743007986,0.10324042447000001,1.6089509363567556,0.17571453869835643,-1.3548241766585576, ,0.1365423619546342,0.14184894104405196,0.04158958621409923,-0.010971780608878849,0.06856192673968489,-0.08423132505125676, ,1.37847900390625
0.01509630350838301,0.020818018465241415,-0.09356193757265269, ,0.01582619496762188,0.020375720225041347,-0.09444630928535794, ,0.001229016924939256, ,0.018416129129907012,-0.004406121246249715,-0.041354703676694235,0.0005154907238784681,0.02108334727259524,0.01825677890966881, ,0.04548383485100229, ,0.021086780401403042, ,0.0009257599187325484, ,0.1768583055526155,-0.21562642458122253,0.10366042243000001,1.6089509363567556,0.1769442671962454,-1.3559086165319658, ,0.12928738631944245,0.14121568684296246,0.04202852643799473,-0.010162522937880399,0.15613326428555613,-0.14128665855676198, ,1.3812839984893799
0.01509630350838301,0.020818018465241415,-0.09356193757265269, ,0.015880074749187206,0.020369042776371256,-0.09456731375125302, ,0.001351539044055032, ,0.018416129129907012,-0.004406121246249715,-0.041354703676694235,0.0005154907238784681,0.02108334727259524,0.01825677890966881, ,0.04548383485100229, ,0.021086780401403042, ,0.0009288906475952138, ,0.1768583055526155,-0.21562642458122253,0.10366042243000001,1.6089509363567556,0.1769442671962454,-1.3559086165319658, ,0.12928738631944245,0.14121568684296246,0.04202852643799473,-0.010162522937880399,0.15613326428555613,-0.14128665855676198, ,1.384110927581787
0.01509630350838301,0.020818018465241415,-0.09356193757265269, ,0.01593407245489377,0.02036233772486363,-0.09468819535198916, ,0.0014757907474994298, ,0.018416129129907012,-0.004406121246249715,-0.041354703676694235,0.0005154907238784681,0.02108334727259524,0.01825677890966881, ,0.04548383485100229, ,0.021086780401403042, ,0.0009328826191273614, ,0.1768583055526155,-0.21562642458122253,0.10366042243000001,1.6089509363567556,0.1769442671962454,-1.3559086165319658, ,0.12928738631944245,0.14121568684296246,0.04202852643799473,-0.010162522937880399,0.15613326428555613,-0.14128665855676198, ,1.3872251510620117
0.01509630350838301,0.020818018465241415,-0.09356193757265269, ,0.01598818697906152,0.020355606344627422,-0.0948089506426367, ,0.0016013502712621064, ,0.018416129129907012,-0.004406121246249715,-0.041354703676694235,0.0005154907238784681,0.02108334727259524,0.010366733974188923, ,0.04548383485100229, ,0.021086780401403042, ,0.0009377265876210913, ,0.17816344740835943,-0.2142595008624848,0.10408819813,1.6087412464132707,0.17858390519343065,-1.357408988856604, ,0.13441493138593594,0.13498853706752598,0.044618519663865555,0.005079448465582503,0.18482362634927046,-0.1645450618710822, ,1.3908400535583496
0.015282588644471564,0.020779083726271158,-0.09398147073296977, ,0.016042417220615335,0.020348849904684302,-0.09492957619818163, ,0.001288931565105959, ,0.01917448307940494,-0.0033582391641535955,-0.04360532461262183,0.032512025127455726,0.047344808514360445,0.010366733974188923, ,0.04775314551124527, ,0.05743174226703282, ,0.0009402532421353709, ,0.17816344740835943,-0.2142595008624848,0.10408819813,1.6087412464132707,0.17858390519343065,-1.357408988856604, ,0.13441493138593594,0.13498853706752598,0.044618519663865555,0.005079448465582503,0.18482362634927046,-0.1645450618710822, ,1.393773078918457
0.015282588644471564,0.020779083726271158,-0.09398147073296977, ,0.01609676208307732,0.020342069668974092,-0.09505006861348661, ,0.0014127140916163664, ,0.01917448307940494,-0.0033582391641535955,-0.04360532461262183,0.032512025127455726,0.047344808514360445,0.010366733974188923, ,0.04775314551124527, ,0.05743174226703282, ,0.0009436279624888066, ,0.17816344740835943,-0.2142595008624848,0.10408819813,1.6087412464132707,0.17858390519343065,-1.357408988856604, ,0.13441493138593594,0.13498853706752598,0.044618519663865555,0.005079448465582503,0.18482362634927046,-0.1645450618710822, ,1.3966569900512695
0.015282588644471564,0.020779083726271158,-0.09398147073296977, ,0.016151220474559098,0.020335266896363377,-0.09517042450325663, ,0.0015378900164283432, ,0.01917448307940494,-0.0033582391641535955,-0.04360532461262183,0.032512025127455726,0.047344808514360445,0.010366733974188923, ,0.04775314551124527, ,0.05743174226703282, ,0.0009478425869848317, ,0.17816344740835943,-0.2142595008624848,0.10408819813,1.6087412464132707,0.17858390519343065,-1.357408988856604, ,0.13441493138593594,0.13498853706752598,0.044618519663865555,0.005079448465582503,0.18482362634927046,-0.1645450618710822, ,1.3994710445404053
0.015485005728972706,0.020749817298144804,-0.09444064816228219, ,0.016205791307753518,0.020328442840653122,-0.09529064050200284, ,0.00119145929917416, ,0.019896038231924516,-0.0028726962284111777,-0.04392425645045843,-0.06426082234937175,-0.06668301521000256,-0.014967262881128623, ,0.04830574526567796, ,0.09260623253800333, ,0.0009495581976340523, ,0.17952264839422294,-0.2129080226094955,0.10455875140000001,1.6087412464132707,0.17995027019108506,-1.3585231678935683, ,0.1284126408098387,0.12946376747403926,0.04499664271186441,0.005079448465582503,0.06201695478824666,-0.06225983560780767, ,1.4022200107574463
0.015485005728972706,0.020749817298144804,-0.09444064816228219, ,0.01626047349992766,0.020321598750584882,-0.09541071326400533, ,0.001313677163478642, ,0.019896038231924516,-0.0028726962284111777,-0.04392425645045843,-0.06426082234937175,-0.06668301521000256,-0.014967262881128623, ,0.04830574526567796, ,0.09260623253800333, ,0.0009521044841084899, ,0.17952264839422294,-0.2129080226094955,0.10455875140000001,1.6087412464132707,0.17995027019108506,-1.3585231678935683, ,0.1284126408098387,0.12946376747403926,0.04499664271186441,0.005079448465582503,0.06201695478824666,-0.06225983560780767, ,1.4049510955810547
0.015485005728972706,0.020749817298144804,-0.09444064816228219, ,0.016315265972914456,0.020314735869848825,-0.09553063946327775, ,0.001437605285940573, ,0.019896038231924516,-0.0028726962284111777,-0.04392425645045843,-0.06426082234937175,-0.06668301521000256,-0.014967262881128623, ,0.04830574526567796, ,0.09260623253800333, ,0.0009554760174545462, ,0.17952264839422294,-0.2129080226094955,0.10455875140000001,1.6087412464132707,0.17995027019108506,-1.3585231678935683, ,0.1284126408098387,0.12946376747403926,0.04499664271186441,0.005079448465582503,0.06201695478824666,-0.06225983560780767, ,1.4076471328735352
0.015485005728972706,0.020749817298144804,-0.09444064816228219, ,0.01637016765310506,0.020307855437091224,-0.09565041579353134, ,0.001562811453815788, ,0.019896038231924516,-0.0028726962284111777,-0.04392425645045843,-0.06426082234937175,-0.06668301521000256,-0.014967262881128623, ,0.04830574526567796, ,0.09260623253800333, ,0.0009596645377053134, ,0.17952264839422294,-0.2129080226094955,0.10455875140000001,1.6087412464132707,0.17995027019108506,-1.3585231678935683, ,0.1284126408098387,0.12946376747403926,0.04499664271186441,0.005079448465582503,0.06201695478824666,-0.06225983560780767, ,1.410383939743042
0.015686144303201414,0.020716870490230577,-0.09487351770426669, ,0.016425177471441257,0.02030095868592127,-0.09577003896813753, ,0.0012340595728306677, ,0.01996384218167661,-0.003552025875689009,-0.04227661929629614,-0.08789314983328121,-0.08262682178968507,-0.021628595319904263, ,0.046887998694766383, ,0.12063275846388812, ,0.0009615439557541173, ,0.1808277902499669,-0.2115874352880031,0.10500208258000002,1.6089509363567556,0.18049681619014685,-1.3590505182484947, ,0.12946376747403926,0.13161850424198443,0.043284813913043486,0.007968672929750351,0.046185618552862115,-0.040188504860073644, ,1.4131410121917725
0.015686144303201414,0.020716870490230577,-0.09487351770426669, ,0.01648029436340736,0.020294046844919134,-0.09588950572009423, ,0.0013570872490244502, ,0.01996384218167661,-0.003552025875689009,-0.04227661929629614,-0.08789314983328121,-0.08262682178968507,-0.021628595319904263, ,0.046887998694766383, ,0.12063275846388812, ,0.0009642347264566365, ,0.1808277902499669,-0.2115874352880031,0.10500208258000002,1.6089509363567556,0.18049681619014685,-1.3590505182484947, ,0.12946376747403926,0.13161850424198443,0.043284813913043486,0.007968672929750351,0.046185618552862115,-0.040188504860073644, ,1.415924072265625
0.015686144303201414,0.020716870490230577,-0.09487351770426669, ,0.016535517269022804,0.020287121137642566,-0.0960088128019869, ,0.0014815579300268993, ,0.01996384218167661,-0.003552025875689009,-0.04227661929629614,-0.08789314983328121,-0.08262682178968507,-0.021628595319904263, ,0.046887998694766383, ,0.12063275846388812, ,0.000967730153507787, ,0.1808277902499669,-0.2115874352880031,0.10500208258000002,1.6089509363567556,0.18049681619014685,-1.3590505182484947, ,0.12946376747403926,0.13161850424198443,0.043284813913043486,0.007968672929750351,0.046185618552862115,-0.040188504860073644, ,1.4186820983886719
0.01587235873532752,0.02068221707147487,-0.0952760100331432, ,0.016590845132833976,0.020280182782634694,-0.09612795698595397, ,0.0011847649063036019, ,0.01892413493896052,-0.0033590789288725637,-0.04129251603877994,-0.011940508310872287,0.000777823439928294,-0.005862494496139913, ,0.04554643976482992, ,0.011960798448586323, ,0.0009691867625869535, ,0.1820634275098428,-0.2103286298295045,0.10541430280000001,1.6091606263002398,0.18145327168850492,-1.3601571585349317, ,0.12720769645907612,0.12652925541129437,0.04236386042553192,0.010271691254473034,0.1286828926100808,-0.11068623590219837, ,1.4214630126953125
0.01587235873532752,0.02068221707147487,-0.0952760100331432, ,0.016646276903906704,0.020273232993431433,-0.09624693506365109, ,0.0013072538860591453, ,0.01892413493896052,-0.0033590789288725637,-0.04129251603877994,-0.011940508310872287,0.000777823439928294,-0.005862494496139913, ,0.04554643976482992, ,0.011960798448586323, ,0.0009714405434101015, ,0.1820634275098428,-0.2103286298295045,0.10541430280000001,1.6091606263002398,0.18145327168850492,-1.3601571585349317, ,0.12720769645907612,0.12652925541129437,0.04236386042553192,0.010271691254473034,0.1286828926100808,-0.11068623590219837, ,1.4244091510772705
0.01587235873532752,0.02068221707147487,-0.0952760100331432, ,0.016701811535818446,0.020266272978568464,-0.09636574384621317, ,0.0014312656007932222, ,0.01892413493896052,-0.0033590789288725637,-0.04129251603877994,-0.011940508310872287,0.000777823439928294,-0.005862494496139913, ,0.04554643976482992, ,0.011960798448586323, ,0.0009744857424656189, ,0.1820634275098428,-0.2103286298295045,0.10541430280000001,1.6091606263002398,0.18145327168850492,-1.3601571585349317, ,0.12720769645907612,0.12652925541129437,0.04236386042553192,0.010271691254473034,0.1286828926100808,-0.11068623590219837, ,1.4314041137695312
0.01587235873532752,0.02068221707147487,-0.0952760100331432, ,0.016757447986650353,0.020259303941589004,-0.09648438016422048, ,0.0015564051117613244, ,0.01892413493896052,-0.0033590789288725637,-0.04129251603877994,-0.011940508310872287,0.000777823439928294,-0.005862494496139913, ,0.04554643976482992, ,0.011960798448586323, ,0.0009783141593688802, ,0.1820634275098428,-0.2103286298295045,0.10541430280000001,1.6091606263002398,0.18145327168850492,-1.3601571585349317, ,0.12720769645907612,0.12652925541129437,0.04236386042553192,0.010271691254473034,0.1286828926100808,-0.11068623590219837, ,1.4343910217285156
0.01587235873532752,0.02068221707147487,-0.0952760100331432, ,0.01681318521897971,0.020252327081050632,-0.09660284086766074, ,0.0016823911375286088, ,0.01892413493896052,-0.0033590789288725637,-0.04129251603877994,-0.011940508310872287,0.000777823439928294,-0.005862494496139913, ,0.04554643976482992, ,0.011960798448586323, ,0.0009829159696836496, ,0.1820634275098428,-0.2103286298295045,0.10541430280000001,1.6091606263002398,0.18145327168850492,-1.3601571585349317, ,0.12720769645907612,0.12652925541129437,0.04236386042553192,0.010271691254473034,0.1286828926100808,-0.11068623590219837, ,1.437601089477539
0.015980821659122794,0.02066355483283867,-0.09551329584839478, ,0.016869022199871925,0.02024534359053351,-0.09672112282589393, ,0.0015564854163634808, ,0.01863129699792842,-0.002976431990020921,-0.04043171455531141,0.03802969835204587,0.006100637538914654,-0.00415915050505188, ,0.04461734995602514, ,0.038514512701144, ,0.0009866404466101419, ,0.18279708713289414,-0.20961041567220165,0.10565800532000001,1.6091606263002398,0.18227309068709754,-1.3611523809176727, ,0.1255250549715222,0.12027495761529881,0.04158958621409923,0.010144662103634577,0.13238044012143985,-0.1545087810438164, ,1.4404659271240234
0.015980821659122794,0.02066355483283867,-0.09551329584839478, ,0.016924957900872943,0.020238354658646596,-0.09683922292761571, ,0.0016823409436051906, ,0.01863129699792842,-0.002976431990020921,-0.04043171455531141,0.03802969835204587,0.006100637538914654,-0.00415915050505188, ,0.04461734995602514, ,0.038514512701144, ,0.000991128836913336, ,0.18279708713289414,-0.20961041567220165,0.10565800532000001,1.6091606263002398,0.18227309068709754,-1.3611523809176727, ,0.1255250549715222,0.12027495761529881,0.04158958621409923,0.010144662103634577,0.13238044012143985,-0.1545087810438164, ,1.4433419704437256
0.015980821659122794,0.02066355483283867,-0.09551329584839478, ,0.016980991298001298,0.02023136146903583,-0.09695713808082143, ,0.0018088147507106243, ,0.01863129699792842,-0.002976431990020921,-0.04043171455531141,0.03802969835204587,0.006100637538914654,-0.00415915050505188, ,0.04461734995602514, ,0.038514512701144, ,0.0009963704132838313, ,0.18279708713289414,-0.20961041567220165,0.10565800532000001,1.6091606263002398,0.18227309068709754,-1.3611523809176727, ,0.1255250549715222,0.12027495761529881,0.04158958621409923,0.010144662103634577,0.13238044012143985,-0.1545087810438164, ,1.4469280242919922
0.016425436635859682,0.02060197979927778,-0.09643311217138219, ,0.017037121371740564,0.02022436520039149,-0.09707486521277049, ,0.0009636378819519582, ,0.018717783653726675,-0.0025668019700692923,-0.03772792499155732,-0.0772203059106778,-0.11512601705262024,-0.028102237661471793, ,0.042194078037443176, ,0.13862503023771983, ,0.0009961619258231187, ,0.18566994376210566,-0.20696151829634263,0.1066068896,1.6091606263002398,0.1835028191849865,-1.3631352869326272, ,0.1168681546286586,0.10820631876678537,0.03894574943765281,0.008398669819354809,0.0,-0.027608844057808942, ,1.4499239921569824
0.016425436635859682,0.02060197979927778,-0.09643311217138219, ,0.0170933471070313,0.020217367026454616,-0.09719240126994827, ,0.001081920199331127, ,0.018717783653726675,-0.0025668019700692923,-0.03772792499155732,-0.0772203059106778,-0.11512601705262024,-0.028102237661471793, ,0.042194078037443176, ,0.13862503023771983, ,0.0009967046997060808, ,0.18566994376210566,-0.20696151829634263,0.1066068896,1.6091606263002398,0.1835028191849865,-1.3631352869326272, ,0.1168681546286586,0.10820631876678537,0.03894574943765281,0.008398669819354809,0.0,-0.027608844057808942, ,1.4528720378875732
0.016425436635859682,0.02060197979927778,-0.09643311217138219, ,0.017149667493263437,0.02021036811602576,-0.09730974321803333, ,0.0012026437698786524, ,0.018717783653726675,-0.0025668019700692923,-0.03772792499155732,-0.0772203059106778,-0.11512601705262024,-0.028102237661471793, ,0.042194078037443176, ,0.13862503023771983, ,0.0009979999139838956, ,0.18566994376210566,-0.20696151829634263,0.1066068896,1.6091606263002398,0.1835028191849865,-1.3631352869326272, ,0.1168681546286586,0.10820631876678537,0.03894574943765281,0.008398669819354809,0.0,-0.027608844057808942, ,1.4556379318237305
0.016425436635859682,0.02060197979927778,-0.09643311217138219, ,0.017206081524268474,0.020203369632971088,-0.09742688804185765, ,0.001325098859414299, ,0.018717783653726675,-0.0025668019700692923,-0.03772792499155732,-0.0772203059106778,-0.11512601705262024,-0.028102237661471793, ,0.042194078037443176, ,0.13862503023771983, ,0.0010000442823928355, ,0.18566994376210566,-0.20696151829634263,0.1066068896,1.6091606263002398,0.1835028191849865,-1.3631352869326272, ,0.1168681546286586,0.10820631876678537,0.03894574943765281,0.008398669819354809,0.0,-0.027608844057808942, ,1.458380937576294
0.01660780636334012,0.020574428774050784,-0.09680691395762847, ,0.01726258819831167,0.020196372736230685,-0.09754383274537352, ,0.0010558006056413213, ,0.017271862146761116,-0.002915637864677712,-0.035584048075177614,0.06934759321465786,0.009925460780588497,-0.0008616721839908309, ,0.03966160162665161, ,0.07005388214509717, ,0.0010003905949595962, ,0.18686696735761046,-0.20587261296107698,0.10699318402,1.6091606263002398,0.18432263818357916,-1.36445722427593, ,0.1171567179734207,0.10638670578303898,0.036787093579676675,0.007804513628078053,0.12819000062417477,-0.17249683776591837, ,1.4612009525299072
0.01660780636334012,0.020574428774050784,-0.09680691395762847, ,0.017319186518084242,0.02018937857982503,-0.09766057435161521, ,0.0011760363280522651, ,0.017271862146761116,-0.002915637864677712,-0.035584048075177614,0.06934759321465786,0.009925460780588497,-0.0008616721839908309, ,0.03966160162665161, ,0.07005388214509717, ,0.0010014748278799215, ,0.18686696735761046,-0.20587261296107698,0.10699318402,1.6091606263002398,0.18432263818357916,-1.36445722427593, ,0.1171567179734207,0.10638670578303898,0.036787093579676675,0.007804513628078053,0.12819000062417477,-0.17249683776591837, ,1.4639999866485596
