NicholasDascanio/dvrk_moveit_final/test/execution/third_experiment_notsharpbends/thirdexp_400vel4.0/thirdexp_400vel4.0_12.csv
Current Position (x),Current Position (y),Current Position (z), ,Planned Position (x),Planned Position (y),Planned Position (z), ,Position Error,,Cartesian linear Velocity(x),Cartesian linear Velocity(y),Cartesian linear Velocity(z),Cartesian Angular Velocity(x),Cartesian Angular Velocity(y),Cartesian Angular Velocity(z), ,Total Linear Velocity, ,Total Angular Velocity, ,MSE, ,Joint 1 Position,Joint 2 Position,Joint 3 Position,Joint 4 Position,Joint 5 Position,Joint 6 Position, ,Joint 1 Velocity,Joint 2 Velocity,Joint 3 Velocity,Joint 4 Velocity,Joint 5 Velocity,Joint 6 Velocity, ,Time Stamp
0.010036824881816842,0.018997201175649178,-0.07845004153935586, ,0.010137462449968231,0.018968381923475483,-0.07857576601173717, ,0.00016360046569259795, ,6.043916823363347e-05,3.738240390948213e-05,-8.715528039879348e-06,-0.10672304199448981,-0.00025745609823382763,0.03029820511124568, ,7.159816762906043e-05, ,0.10672335253448588, ,1.363337214104983e-05, ,0.17492762233405937,-0.23066258548733765,0.08857938457,1.6850683858416375,0.4301317012616065,-1.302055847253463, ,0.0007414580899635572,-0.00043497646668767234,2.4731102021715885e-05,-0.0007183570700300929,3.21462911144195e-05,0.1110316034547878, ,0.029214143753051758
0.010025908686937294,0.019008202002382624,-0.07847556973222711, ,0.010168752763707961,0.01905776751592796,-0.07873394604467501, ,0.0002993651436551272, ,-0.001018922911451655,0.0007566165285936823,-0.00230652095637461,-0.04552536300446375,0.16918835669048118,0.05745178692900577, ,0.002632624430680821, ,0.1752063318383454, ,2.1043891333987506e-05, ,0.1749353450669336,-0.23071664461745722,0.08861179182000001,1.6848586958981533,0.4320446122583227,-1.2921806742855342, ,0.00034611673202065166,-0.0010681701004456134,0.002875755825961365,0.0018602611381157881,0.17453739513163835,0.061808440756498495, ,0.05963706970214844
0.010034671883819379,0.019049268849515282,-0.0785885338723845, ,0.010200286736040948,0.019145981453972793,-0.07889150599751746, ,0.0003585717720971743, ,0.0013614021400566662,0.0022520520554525536,-0.007345684274796213,0.39223309785601446,-0.006579582078575452,-0.11001120477459628, ,0.007802834851027369, ,0.3922882791171143, ,2.5673043170153107e-05, ,0.1749353450669336,-0.23085565380919326,0.08873623566000001,1.6852780757851225,0.4334109772559771,-1.2952551430858716, ,0.00025587334646083327,-0.005902808457306127,0.00777015196097561,0.001955900477729277,-0.004999470331992856,-0.4012508736303668, ,0.0890650749206543
0.010144161969435253,0.019125349429056526,-0.07882971331426164, ,0.010232063043948659,0.019233031224848686,-0.07904844877990384, ,0.00025916630177426044, ,0.0034517755258705557,0.002705042489980838,-0.007901012946711175,-0.16264649003433782,-0.22853764011433664,-0.032078672985536634, ,0.009036482431659915, ,0.28050549662837215, ,2.573104007664666e-05, ,0.1749430677998078,-0.23112594945979112,0.08897345673000001,1.6854877657286067,0.4254860602695815,-1.3054553676601541, ,0.00033108655710827566,-0.01068481040803674,0.007873856411270391,0.018783727320488174,-0.24161596044290293,0.16442571948524976, ,0.11598801612854004
0.010161885377323512,0.019203313657147166,-0.07900640160126876, ,0.010264080367921128,0.019318924293677268,-0.0792047772925208, ,0.00025132160723238204, ,-0.0006596268307194056,0.002195738962908034,-0.0039054422487198467,-0.21872595147977797,0.14976183023503697,0.10406305645308445, ,0.004528670478973196, ,0.26508422745454635, ,2.5615870970221958e-05, ,0.17495851326555625,-0.2315275315692508,0.08917049281000002,1.6856974556720912,0.4272623347665323,-1.2988992838744324, ,-0.0010387864831455287,-0.013787148272333396,0.0047168526858158135,0.0020324198441223486,0.15164106703663507,0.2526754712859558, ,0.14846301078796387
0.01017133666000661,0.01928233729991056,-0.07914221600121793, ,0.010296337391954064,0.019403668103491714,-0.07936049442711615, ,0.0002792701525363099, ,0.0008739332584065531,0.0025869731506775297,-0.005010378250705036,0.052918321587739944,-0.009178336569290017,0.007503625552399972, ,0.005706144025312853, ,0.05370838499419865, ,2.5988636177223415e-05, ,0.17495851326555625,-0.23203723193894962,0.08932734390000001,1.686326525502545,0.42903860926348303,-1.2968355307964416, ,-0.0006424348906042385,-0.017298020699684793,0.005532758430010421,-0.017423311825083835,-0.005746653782051546,-0.04071822628083148, ,0.17868709564208984
0.010201617075748098,0.019367741447247018,-0.07930113416054035, ,0.010328832803546198,0.019487270075263588,-0.07951560306651109, ,0.00027652820099043985, ,0.0008445276688538231,0.0026361551805899218,-0.005091262350484658,0.07603909314055227,-0.0038241570883733563,0.0028046228991874156, ,0.00579512669758594, ,0.07613519461887086, ,2.6219772833031827e-05, ,0.17495851326555625,-0.23260871417164222,0.08950363934000001,1.6861168355590603,0.42876533626395213,-1.2979195548312978, ,0.0002208332853520217,-0.018828758245728328,0.006084343590527121,0.01585525800372666,0.0,-0.022317043594073858, ,0.2085721492767334
0.010222586220169796,0.019428827286125678,-0.07941515915611412, ,0.010361565293696197,0.019569737607930546,-0.07967010608461368, ,0.000322751976013732, ,0.0010385465083976113,0.003091614653458365,-0.0057293637635290814,0.008776562281266304,0.003058765509829004,-0.00640541267826819, ,0.006592591990289061, ,0.009294303940993016, ,2.695823926819541e-05, ,0.1749662359984305,-0.23298712808247923,0.08963067576000001,1.6865362154460295,0.42876533626395213,-1.2979195548312978, ,0.00024170595435620161,-0.019510061998040867,0.006422907870967743,0.013931391393546422,0.0,0.013508792777678547, ,0.2356400489807129
0.01024975582811757,0.01950751953478601,-0.07956081736723268, ,0.010394533556899982,0.019651078078424155,-0.07982400634643169, ,0.0003329235422356246, ,0.0010238379813292098,0.00289703376805817,-0.005710983904256277,0.0017242764451402444,-0.009873200177928443,0.03934947906167826, ,0.006485089515184494, ,0.010022634630554694, ,2.7950540244259872e-05, ,0.1749662359984305,-0.23347366025355537,0.08979271201000001,1.687165285276483,0.42862869976418666,-1.2973997432268987, ,0.00018057025608544968,-0.019502043065859183,0.006315944298176051,-0.03470442022543665,-0.001802364518347051,0.011894052621094556, ,0.26439404487609863
0.010272540199373775,0.019575996106830577,-0.07969023307649109, ,0.010427736291147705,0.019731298841696204,-0.07997730670808434, ,0.000361408406535849, ,0.0008306299922929574,0.0026235284624272193,-0.004553344989750795,-0.006889984002958076,-0.0008919517217168737,0.0069410242314258495, ,0.005320319386366856, ,0.00694747835387867, ,2.904907568763497e-05, ,0.1749662359984305,-0.23402969702049956,0.08996382229000001,1.6869555953329984,0.42862869976418666,-1.2969913495261958, ,0.00013823492662391854,-0.01779095267312913,0.0051119420795892176,0.0026756264187443074,-0.0015858210344361719,0.025662426877109068, ,0.2891530990600586
0.010303396083157874,0.019658922566263594,-0.07984997931808571, ,0.01046117219792073,0.019810407230747226,-0.08013001001681677, ,0.00035532815564655963, ,0.00117392324817905,0.0029951799254356883,-0.006340680715675282,0.007624975971990763,-0.0017476670514399654,0.004948384151020385, ,0.007110093565944445, ,0.007822697005967582, ,2.9910419490000523e-05, ,0.1749971269299274,-0.2344312791299592,0.09011419193,1.687165285276483,0.42862869976418666,-1.2963379196050713, ,0.0005027065044975656,-0.01710779548557252,0.006967984041994751,0.00020776766034950764,-0.00139925884057965,0.009492346772964306, ,0.3152930736541748
0.010334311295676536,0.01973742909047651,-0.0800201951822884, ,0.010494839982188572,0.01988841055665308,-0.0802821191110113, ,0.0003422995862687337, ,0.001321619989068013,0.0031292754248358197,-0.006871530113187231,0.00634781738515619,0.0004157614329392207,-0.005067074177987473, ,0.007665309529068246, ,0.00636141712231723, ,3.052996025998975e-05, ,0.1750048496628016,-0.23484830670516735,0.09030085769000001,1.687584665163452,0.42862869976418666,-1.2957661684240873, ,0.0011144088137364162,-0.016567203484369897,0.007531352964539008,0.011369845716984728,-0.0012354921956415949,0.012237494927078258, ,0.3406531810760498
0.010371193977475754,0.019816968670210627,-0.08020012362152823, ,0.01052873835240584,0.01996531610859219,-0.08043363682020051, ,0.000318363952891407, ,0.0012470367260330674,0.0028215647546965374,-0.005771806930414008,-0.0029405541893087945,-0.0011918741727069756,-0.0014407267929234632, ,0.006544469688446588, ,0.00317291925176797, ,3.087322254779683e-05, ,0.1750666315257954,-0.23526533428037547,0.09049789377,1.687584665163452,0.42862869976418666,-1.2956028109438062, ,0.002590471517118253,-0.016040727105894315,0.006389414969915765,0.00997678963647711,-0.0010948318337443105,0.021099091514950034, ,0.3658730983734131
0.010406966159140234,0.019901191839833705,-0.08037278091411164, ,0.01056286602050902,0.02004113115387335,-0.08058456596508004, ,0.0002978937498545102, ,0.0010940467543674765,0.00278118321915032,-0.00550966405169024,-0.015668826584547123,0.00197679614860113,-0.000708352393955131, ,0.006268039275699623, ,0.01579303151622637, ,3.102053686341697e-05, ,0.17511296792304076,-0.23572097551995472,0.09068585582000001,1.6882137349939055,0.42849206326442124,-1.294919641859126, ,0.0013770403989484562,-0.0161581715577168,0.006152495758980302,0.013373909893051825,0.0,0.03515690512040586, ,0.39330506324768066
0.010425191859558256,0.019950287204889887,-0.08046448070764152, ,0.010597221701913333,0.02011586293796244,-0.08073490935752124, ,0.00036075094555523357, ,0.0009891522032562103,0.0024309485942619275,-0.0050123982722357985,0.00421509659073307,-0.004009729769543533,0.016061795634493493, ,0.0056579209599165545, ,0.005817642901556949, ,3.158306178606856e-05, ,0.17513613612166343,-0.23602988483492368,0.09079085531000002,1.68842342493739,0.42849206326442124,-1.2944295694182826, ,0.0013061878853878586,-0.014550282361004412,0.005536604629822733,-0.011799448867097075,0.0,0.008414576825963417, ,0.4187150001525879
0.010459717395727418,0.020028313850969776,-0.08063208078382882, ,0.010631804115509631,0.020189518684509432,-0.0808846698005826, ,0.00034554601555595536, ,0.0011459489335355938,0.002611164555070442,-0.005700355522822311,-0.012888227294774582,0.003276432791610071,-0.005152445950002429, ,0.006373808310460741, ,0.013298173130957238, ,3.1981103730752575e-05, ,0.17518247251890878,-0.2364700806087545,0.09097492849000001,1.6882137349939055,0.42835542676465577,-1.2937464003336023, ,0.001669045308051335,-0.013339463249714757,0.006266251581431944,0.01634056188391401,0.0009623309182316247,0.02993307497095147, ,0.4485170841217041
0.010489059419279747,0.020099227076848733,-0.08077875966424151, ,0.010666611983660881,0.02026210559537622,-0.08103385008852432, ,0.0003508923616678, ,0.0011782679894471462,0.0026743065997776104,-0.006007986012704848,-0.006564710294195746,0.002302294949192074,-0.002535388534334115, ,0.006681027404032033, ,0.006956721602300011, ,3.236798979266072e-05, ,0.1752210861832799,-0.23685621725246572,0.09113696474,1.6886331148808746,0.42835542676465577,-1.2935013641131805, ,0.0014136316932646645,-0.013365766416686024,0.006582153520661158,0.01155575518348191,0.00088878849038384,0.022556688469277976, ,0.47878003120422363
0.010521560243977452,0.020175952599268895,-0.08094374262299903, ,0.010701644032199,0.020333630850663354,-0.08118245300681837, ,0.000338046223298256, ,0.0009602107300273837,0.0024383072100369954,-0.00490409284485737,0.022695432418195622,0.002890083754309903,-0.012613292184496763, ,0.005560348309913631, ,0.022878706998413205, ,3.2830576371356454e-05, ,0.17525969984765102,-0.23726552209479962,0.09131844534000001,1.6888428048243591,0.42835542676465577,-1.2931746491526184, ,0.001114495036175823,-0.013615056177685908,0.005434599631525077,0.013899605999146995,0.0008120375091147992,-0.007126717208699522, ,0.500493049621582
0.010547323036506243,0.020232542440525584,-0.08106752761670405, ,0.010736898990421635,0.02040410160873686,-0.08133048133216297, ,0.0003667645661373641, ,0.0013446579093372884,0.0028428878045615716,-0.006244425255725018,-0.006165246615038181,0.0007691737241633982,-0.002390595924241988, ,0.006991635197634721, ,0.006213041489310698, ,3.341225209854367e-05, ,0.17530603624489638,-0.23756670867689436,0.09145455579,1.6888428048243591,0.42835542676465577,-1.292847934192056, ,0.002889378680138703,-0.014481449955512097,0.006871790992234686,0.011787248292183788,0.0007626309253205204,0.02331282852036054, ,0.526648998260498
0.010580515868605225,0.020303368639919755,-0.0812284871734652, ,0.010772375591088682,0.02047352500625584,-0.08147793783249382, ,0.0003577554659344042, ,0.0009596197363553157,0.0024712151645418412,-0.0047823259778837345,-0.008409568644136407,0.0026885800740199754,-0.003443456960391729, ,0.005467944420584926, ,0.008828890365917235, ,3.3895981773121506e-05, ,0.17536009537501593,-0.23790650892336024,0.09163085123,1.6892621847113283,0.42835542676465577,-1.292112825530791, ,0.001348665490145111,-0.014259495350634227,0.005325580581745236,0.013500720262982097,0.0007109053411031487,0.025711827286149645, ,0.54864501953125
0.010609580311252982,0.02036006704166982,-0.08135987001690108, ,0.010808072570418867,0.020541908158199448,-0.08162482526699683, ,0.00037771239476990746, ,0.0015904388110452319,0.0029120105668245682,-0.00689766131609238,0.012182276320716216,-0.001084686193693161,-0.007550961219721449, ,0.007654216666942096, ,0.012230469528159815, ,3.4442364032531434e-05, ,0.17542959997088398,-0.23818452730683232,0.09177473942000001,1.6892621847113283,0.42835542676465577,-1.2916227530899476, ,0.004424243553702363,-0.0132927499031336,0.00754919977251185,0.011318563352672749,0.0006733163236263469,0.002983521262315428, ,0.5722250938415527
0.010639130855425541,0.02041885281506495,-0.08149335021449919, ,0.0108439886680865,0.020609258157893037,-0.08177114638612003, ,0.0003941974517331491, ,0.0014511838851071648,0.002914916787646977,-0.006929700060506876,-0.006324054442997043,-0.0017663003908485171,0.007216951168052841, ,0.0076565930723716735, ,0.0065660845021116715, ,3.5026888857521074e-05, ,0.175499104566752,-0.23846254569030442,0.09191862761000001,1.6894718746548125,0.42835542676465577,-1.2913777168695257, ,0.0027263187555516617,-0.013630701171857338,0.007545623647560399,0.0008656586986669168,0.0006421016376668922,0.02118563635922164, ,0.5938661098480225
0.010661610786634853,0.020464624862272456,-0.08160140254233282, ,0.010880122627217739,0.020675582077037128,-0.08191690393158738, ,0.0004379400616040314, ,0.0014473198724495584,0.002984002968671843,-0.006965224608208879,0.009968485585804949,-0.0010524264523715107,0.0003136459507018957, ,0.0077144904156417424, ,0.010023885968944553, ,3.57744004724209e-05, ,0.1755377182311231,-0.2386787822107827,0.09203918258,1.6896815645982974,0.42835542676465577,-1.2910510019089636, ,0.002579468818110652,-0.014231694894791659,0.007614154646271511,0.003792113707634116,0.0006197785683510407,0.004910303256710559, ,0.6186771392822266
0.010703137829787377,0.020541947943874726,-0.08177306126364196, ,0.01091647319438757,0.02074088696573192,-0.08206210063640862, ,0.0004106488417321256, ,0.0015023002160519665,0.002785662874431885,-0.005667279372970765,0.01504030806828943,-0.002010875706210422,-0.010065529430372049, ,0.0064911385041792015, ,0.015174138593300343, ,3.634268192425998e-05, ,0.17566900468998492,-0.23906491885449394,0.09222844092000002,1.6898912545417817,0.42835542676465577,-1.2906426082082607, ,0.005913584262384636,-0.015015338854188414,0.006323466264390632,0.014042582082738538,0.0005830785543847119,0.002253022666595666, ,0.6425039768218994
0.01075033992030046,0.020635455578613942,-0.08196546275841882, ,0.010953039119615735,0.020805179852506663,-0.08220673922489412, ,0.00035792125925442324, ,0.0014476395680126227,0.002853042134728891,-0.0060054373850129475,0.00048572889838313275,-0.003969034600728192,0.006874888055617637, ,0.006804468232472344, ,0.003998644822087093, ,3.66386281967725e-05, ,0.17581573661459518,-0.2395591737584443,0.09243714361000001,1.6901009444852664,0.42835542676465577,-1.2905609294681202, ,0.004114929992476417,-0.015412853915619746,0.006522854840294842,0.0,0.0005428889304059607,0.013071286439538563, ,0.665734052658081
0.010784928432559245,0.020700045623643946,-0.08211158632927086, ,0.010989819156363713,0.020868467744345007,-0.08235082241266516, ,0.0003571835985041926, ,0.0016670175575975897,0.0030449070362190984,-0.007447913859915127,0.0020532598392589527,-0.000544062874741187,-0.005883113349390015, ,0.008217166620026094, ,0.0021241133353400647, ,3.691128595392149e-05, ,0.17592385487483433,-0.2398758058062875,0.09260306873000002,1.6905203243722353,0.42835542676465577,-1.2903158932476986, ,0.00406671467618029,-0.012934025018191466,0.008122800367159615,0.01233343718895848,0.0005198601723933766,0.01329164910244924, ,0.6882731914520264
0.010819644494561007,0.020760377051382273,-0.08225202503081716, ,0.01102681206153103,0.020930757626712204,-0.08249435290666761, ,0.0003614840807950302, ,0.0018614219967925335,0.003048328325744489,-0.007382578675414379,0.006683024283853993,-0.003508181825608902,-0.005258575500479533, ,0.008201199017848698, ,0.007547856077723297, ,3.73373399998619e-05, ,0.1760396958679477,-0.2401615469226338,0.09275732724,1.6905203243722353,0.42835542676465577,-1.290070857027277, ,0.006505465578751717,-0.013119997450362336,0.008085691126903554,0.010337532615012562,0.000500178836111913,0.008327576255189578, ,0.7071449756622314
0.01085770325351117,0.02082228825064554,-0.0824037340448596, ,0.011064016595451486,0.020992056463583104,-0.08263733340518309, ,0.00035490153892332103, ,0.0017092978151808423,0.002889770474883647,-0.006654116344504576,0.002878661138390337,-0.0036101657177786857,-0.0025785447205089736, ,0.007453169577078882, ,0.004617355673355361, ,3.7713003288714464e-05, ,0.17617098232680953,-0.24043184257323166,0.09292325236000001,1.6905203243722353,0.42835542676465577,-1.2897441420667148, ,0.006222438299417347,-0.01340920468538516,0.00732696022079117,0.008675722666433131,0.0004824517405848217,0.012273459702517312, ,0.7288022041320801
0.01089315747231746,0.020880796300147306,-0.08254317124494795, ,0.01110143152188995,0.02105237119746767,-0.08277976659784178, ,0.0003588779543616105, ,0.0019509291582632058,0.002905703400774396,-0.007522783431599711,0.0001983636368288919,-0.003182748533832456,-0.008363366587532214, ,0.008297078244333036, ,0.003188920235584817, ,3.808365536426372e-05, ,0.1762945460527971,-0.24067897002520686,0.09307621458000001,1.6909397042592043,0.42835542676465577,-1.2896624633265743, ,0.007196023103726694,-0.010802101858109831,0.008198050190427176,0.014565669263230708,0.0004656938989773758,0.013430987469579348, ,0.7480390071868896
0.010897852295471711,0.02088831009816966,-0.08256219829500983, ,0.01113905560803854,0.02111170874943862,-0.0829216551656344, ,0.00048712958976151045, ,0.00195340868318024,0.0029915128310942377,-0.00759376152878742,0.005620499670000429,-0.0030939621246963518,-0.009507352516953848, ,0.008392268385735605, ,0.006415808048731705, ,3.892222571487841e-05, ,0.17630999151854557,-0.24070986095670374,0.09309695522000001,1.6909397042592043,0.42835542676465577,-1.2895807845864335, ,0.007072397298989406,-0.011571386606324932,0.008287623059313217,0.014565669263230708,0.00046370752595127976,0.008594012125390956, ,0.7708470821380615
0.010959813619724883,0.020986062600973472,-0.08279188690367224, ,0.011176887624512894,0.02117007601915868,-0.08306300178092468, ,0.0003930462292078578, ,0.001215760590862025,0.002002939346782722,-0.0034409239580515546,0.000598272727068043,-0.004331013572239884,-0.0031442239145208725, ,0.004162907340582631, ,0.0043721400179448705, ,3.936885774896623e-05, ,0.17655711897052073,-0.24115005673053455,0.09334973177000001,1.6911493942026892,0.42835542676465577,-1.2890907121455903, ,0.007093169695720851,-0.012270098468899765,0.00395648572280179,0.009418325796566335,0.00043524402546863485,0.01360429424734061, ,0.7904291152954102
0.010993332574508524,0.02103334803252254,-0.08290207335073797, ,0.011214926345348906,0.02122747988490643,-0.08320380910746115, ,0.0004217053974880697, ,0.0020050780767275297,0.0028076932031652385,-0.007122449033893444,-0.0026743852657086665,-0.008173824160201052,0.005880213286402974, ,0.007914086141639052, ,0.008600216254373448, ,3.9896379024220035e-05, ,0.17671929636087946,-0.2413585705181386,0.09347158303000001,1.6913590841461734,0.42835542676465577,-1.288927354665309, ,0.008679972193062742,-0.011299945410630004,0.007796775095447872,0.0,0.0004216991918353591,0.014339901483148051, ,0.8123550415039062
0.01104544178686973,0.021108777655561885,-0.08310502098086056, ,0.011253170547998672,0.021283927203604402,-0.08334407980038931, ,0.0003619084436347718, ,0.0020316750586852617,0.003080075839274883,-0.008559758045721268,-0.00043598785597406174,-0.0024894998775745318,-0.006402493156818466, ,0.009321160256162246, ,0.0025273798880817815, ,4.018734307515395e-05, ,0.17690464194986083,-0.24162114343586225,0.09369195233000001,1.691568774089658,0.42835542676465577,-1.2886823184448875, ,0.005867119147327348,-0.009821213480986832,0.009250180905923347,0.012108921722765422,0.00040603339776585013,0.01265309719380342, ,0.8321599960327148
0.01108572175788234,0.0211684603667775,-0.08326772560221173, ,0.011291619013327139,0.021339424810844786,-0.08348381650626399, ,0.00034397354512965433, ,0.0021183128398213525,0.0028769136667835017,-0.007703453650733829,0.0005993123976204288,-0.005721389040575815,-0.005075491574458681, ,0.0084915887607963, ,0.005752689873004052, ,4.0402676901970365e-05, ,0.17703592840872265,-0.2418296572234663,0.09386824777000001,1.691568774089658,0.42835542676465577,-1.2885189609646064, ,0.008663323635429375,-0.009894394812059325,0.008387999747235388,0.010370633408061903,0.0003939626269482279,0.01134606894592844, ,0.8535561561584473
0.011126249036042622,0.021218581780871004,-0.08339105236727892, ,0.011330270525608184,0.021393979520917487,-0.08362302186306186, ,0.0003552449611067782, ,0.0017340038840341413,0.0023664196855534346,-0.005051210100597364,-0.0006521763652658221,-0.00713956722033608,-0.002487123703379766, ,0.005841355585683612, ,0.007169292211701613, ,4.0645717918054216e-05, ,0.17725216492920096,-0.24203817101107036,0.09400435822000001,1.691568774089658,0.42835542676465577,-1.2882739247441846, ,0.009700806244135824,-0.011628102139256314,0.005662570750088874,0.00874590177985821,0.0003821961031342685,0.014124359940905454, ,0.8732430934906006
0.011145318466822658,0.02124499322777317,-0.08345589640847165, ,0.01136912387252123,0.02144759812683562,-0.08376169850019252, ,0.0004297121409093198, ,0.0017922944014394835,0.002504435334281162,-0.006954403871557967,-0.0015675714885104353,-0.004449662141821484,-0.0015782183607204786, ,0.007605803624454667, ,0.004717706782033725, ,4.1257026580557486e-05, ,0.17733711499081742,-0.24213084380556105,0.09407565417000001,1.691988153976627,0.42835542676465577,-1.288192246004044, ,0.006391116545529316,-0.008024161041205393,0.0075349155723746465,0.006255118735000799,0.0003767811940303014,0.010953864872485279, ,0.8918871879577637
0.011194589919812245,0.021318792842999274,-0.08365911549706853, ,0.011408177845147196,0.021500287400363693,-0.08389984903851119, ,0.00036947627011395533, ,0.0018021238608773925,0.0027928284123096303,-0.007240000318201826,0.007549946580999611,-0.0018301915945945486,-0.011204418525769377, ,0.007966501462882568, ,0.007768608289533538, ,4.1650362421301394e-05, ,0.17749929238117612,-0.24237024852466202,0.09429602347,1.6921978439201113,0.42849206326442124,-1.2881403064274592, ,0.00653729281917511,-0.006814428267766655,0.008958836625421823,0.015107583827523616,0.0,0.010978445027449733, ,0.9100081920623779
0.011217497038306415,0.02134969729633826,-0.08374250874067687, ,0.011447431237964973,0.02155205409204345,-0.08403747609033096, ,0.0004252337548956482, ,0.0021938157836642364,0.0030018792192619717,-0.007593178512545583,0.007502171616371659,-0.0062135615448038126,-0.009718946602778302, ,0.008454612141492662, ,0.009741196065724643, ,4.220520919461734e-05, ,0.17759196517566683,-0.24247836678490114,0.09438676377,1.6921978439201113,0.42849206326442124,-1.2880586276873187, ,0.009613802536979764,-0.011286733671418537,0.008322263072100313,0.013975253258677975,0.0,0.006223883234595659, ,0.9268820285797119
0.011263210075909233,0.021406769449814095,-0.08390107548134676, ,0.011486882848847685,0.021602904931221505,-0.084174582259435, ,0.00040410963126496076, ,0.002378017735041507,0.002896421964425784,-0.0074133988367490414,0.002974724585491442,-0.009234812088942253,-0.006695017249880185, ,0.00830678703572519, ,0.009702098653688982, ,4.267377558001254e-05, ,0.17779275623039667,-0.24266371237388254,0.09455917034000001,1.6921978439201113,0.42849206326442124,-1.2878135914668971, ,0.012108762296567127,-0.010595443753199492,0.008147729677749363,0.011671068551702756,0.0,0.009803633403827934, ,0.9431800842285156
0.01131230906184071,0.02146971645548019,-0.0840738527232017, ,0.011526531479058983,0.02165284662607513,-0.08431117014108794, ,0.00036843922192562986, ,0.0023907321142347684,0.0031497485254935722,-0.009060708576420726,-0.0008430330547221911,-0.008260632877532863,0.002533378814774622, ,0.009885997962912316, ,0.008303535343523075, ,4.301644804478558e-05, ,0.17800127001800073,-0.24286450342861238,0.09474713239000002,1.6924075338635962,0.42849206326442124,-1.2875685552464753, ,0.008822395621329093,-0.009280532819170456,0.00979631704797048,0.0020162484267427627,0.0,0.010700979907691727, ,0.960705041885376
0.011336070242207313,0.0215026905392119,-0.0841646782184173, ,0.011566375933249044,0.021701885863640403,-0.08444724232204805, ,0.00041540577904144625, ,0.00214205941496005,0.0030192934812603997,-0.00813743882273064,0.0008727147182395828,-0.004444638285943702,-0.008101891672977306, ,0.008939936367608236, ,0.0045295038129106084, ,4.34874273584764e-05, ,0.1780862200796172,-0.2429648989559773,0.09484565043000001,1.6926172238070805,0.42849206326442124,-1.2874051977661942, ,0.007784120235316072,-0.009926520282424875,0.008844426163242644,0.013526486670802874,0.0,0.011632955432179216, ,0.976917028427124
0.011375677775138935,0.02155292989768893,-0.08430691867314838, ,0.011606415019451246,0.021750029309837673,-0.08458280138058072, ,0.0004101208632128074, ,0.002406710953567969,0.0028833511914157827,-0.008020146884078547,0.0011381217918937775,-0.008217993366865978,-0.006947372439159512, ,0.00885599953417217, ,0.008296427123065995, ,4.3926240002776244e-05, ,0.1782483974699759,-0.2431193536134618,0.09499990894000002,1.6926172238070805,0.42849206326442124,-1.2874051977661942, ,0.011074617466711291,-0.008693962173566508,0.008732901052631581,0.011572184652305821,0.0,0.00975319498278648, ,0.9941730499267578
0.0114243251326389,0.021606986623482184,-0.08444290904618806, ,0.011646647549077916,0.02179728360949948,-0.08471784988646823, ,0.00040153787541465324, ,0.0019677185751258955,0.002022172875623177,-0.005382074774906972,0.0016517524652243023,-0.01150645955480818,0.002757891491038441, ,0.006076827166580561, ,0.011624409368947144, ,4.4325027388319585e-05, ,0.178526415853448,-0.24332014466819163,0.09515027858000001,1.6928269137505652,0.42849206326442124,-1.2872418402859132, ,0.011520400221190318,-0.006981180670511219,0.0059281025381466325,-0.00010669318488200522,0.0,0.005389633396786825, ,1.0136301517486572
0.011469758547914606,0.021660308502194612,-0.08459029662332579, ,0.011687072336916944,0.0218436553863965,-0.08485239040102331, ,0.00038669692414713096, ,0.0026020457021190798,0.0031459595758307887,-0.009075522369765018,0.0051083742317343545,-0.010487014686119473,0.0004525535286725676, ,0.009951522987602603, ,0.011665029050537849, ,4.466805795598212e-05, ,0.17874265237392628,-0.24348232205855033,0.09531101854000001,1.6930366036940496,0.42849206326442124,-1.287078482805632, ,0.011091481270862603,-0.008974157718434385,0.009838672958616432,0.002374545246825745,0.0,0.004282985553241146, ,1.0305280685424805
0.011497836582677223,0.021692841666014123,-0.08469007174574839, ,0.011727688201127703,0.021889151243265122,-0.0849864254771012, ,0.0004233140095856797, ,0.0030017811457655717,0.0034285616308723315,-0.010755974582445227,0.0016735236596715345,-0.011552138495543096,0.0006670118791957239, ,0.011681468834096652, ,0.011672722103150117, ,4.522820843162854e-05, ,0.17885849336703966,-0.24355954938729257,0.09541861061000001,1.6930366036940496,0.42849206326442124,-1.2869151253253508, ,0.012170849116253457,-0.007357049331920694,0.011576171162790699,0.002374545246825745,0.0,0.006193519879727173, ,1.0445671081542969
0.011522763045765093,0.021721359756417306,-0.08477916504529277, ,0.011768493963237609,0.02193377776183298,-0.08511995765911064, ,0.0004707915658329804, ,0.0031802174512234197,0.003601141552531358,-0.01165139314697681,-0.0002371079118236946,-0.008913052578772439,-0.009532215855502785, ,0.012603053827697957, ,0.008916193790262334, ,4.5904038607525874e-05, ,0.17908245262039216,-0.24368311311328017,0.09564546136,1.693246293637534,0.42862869976418666,-1.286863185748766, ,0.011494741475985126,-0.0072676247385355715,0.011492649004329005,0.012633118014656804,9.624876299957422e-05,0.007202413615944427, ,1.060122013092041
0.011585461243885705,0.021793006962564337,-0.08500935151885189, ,0.011809488448137687,0.021977541502847753,-0.08525298948302722, ,0.0003789467540302579, ,0.0026814477208335625,0.002951966540837394,-0.009260555049904197,-0.004226027823277578,-0.008523492964357383,-0.006605138388919343, ,0.010082764907013013, ,0.009513631029770429, ,4.6311195449467636e-05, ,0.17921373907925398,-0.2437526177091482,0.09576212746000001,1.693246293637534,0.42862869976418666,-1.2867815070086255, ,0.011471091949402748,-0.005850851613328275,0.009980458345864663,0.01144334885752622,9.624876299957422e-05,0.012405044787015509, ,1.074324131011963
0.011612538605307709,0.021820833877058764,-0.08509562442564332, ,0.011850670484079463,0.022020449006101905,-0.08538552347640442, ,0.00042496405855373457, ,0.0026009431148436863,0.0025759285329883586,-0.007976100022768941,-0.004420589184843585,-0.01047149904279934,-0.005995084922004088, ,0.008776017574442923, ,0.011366348079443072, ,4.6831109646527846e-05, ,0.1793450255381158,-0.243814399572142,0.09585546034,1.693246293637534,0.42862869976418666,-1.2867815070086255, ,0.013196626555203837,-0.0052570108800275425,0.008642871144872492,0.010537833762571235,9.624876299957422e-05,0.011839567045782508, ,1.0879411697387695
0.011640250065896248,0.021848396143378166,-0.0851778296569483, ,0.011892038902670769,0.022062506790460196,-0.08551756215838553, ,0.0004739822360077984, ,0.0027499138635982603,0.0028490270172743803,-0.008019085517243951,0.0014795636810058849,-0.012273390492320404,-0.005643545900500593, ,0.008943417340996726, ,0.012362248569835171, ,4.74672547069394e-05, ,0.17949175746272605,-0.24388390416801,0.09594490435000001,1.693246293637534,0.42862869976418666,-1.286699828268485, ,0.014790670442405047,-0.008095629522773916,0.008771371982378857,0.009779060604965386,9.624876299957422e-05,0.008484454473790587, ,1.1018650531768799
0.011665411570361231,0.021874191636923973,-0.08525274125039001, ,0.011933592538871872,0.022103721353887225,-0.08564910803971677, ,0.0005307650652800586, ,0.0028551244126114083,0.0028098562149531177,-0.009062080324574114,-0.007226593449861561,-0.013663497759814949,0.004312052993147702, ,0.009907993094932677, ,0.015456867820105573, ,4.823539290522569e-05, ,0.1798161122434435,-0.24401519062687183,0.09617823655,1.6936656735245033,0.42876533626395213,-1.2866478886919004, ,0.011843433787976983,-0.006277049997786819,0.010417796939175933,0.012328485175717,0.0010380458719432611,0.006585837142487856, ,1.1164641380310059
0.011737414799876956,0.02195186115202853,-0.08550165705513532, ,0.011975330230991715,0.0221440991734734,-0.08578016362275839, ,0.0004136727178105212, ,0.0028480152196500587,0.003055523016934511,-0.009990103029277367,-0.0022377545464877025,-0.00743052118773043,-0.009290172726112924, ,0.010828184064465831, ,0.007760160502560964, ,4.8681118365908875e-05, ,0.17993195323655686,-0.24407697248986562,0.09629101378,1.693875363467988,0.42876533626395213,-1.2865662099517599, ,0.011483172986262193,-0.004865060761381924,0.010740938314227916,0.013573224854085837,0.0010380458719432611,0.009736135794837977, ,1.1303391456604004
0.011767366884245706,0.021981235688788004,-0.0855992623217337, ,0.01201725082068426,0.02218364670546097,-0.08591073140149641, ,0.0004476887188760033, ,0.0031456053456190474,0.002985412365321488,-0.009716744780265291,0.0010985057980958713,-0.011687659149706623,-0.009139225133513621, ,0.010640613192209101, ,0.01173916542054858, ,4.9202248792047796e-05, ,0.18007868516116712,-0.24412330888711098,0.09639990214000001,1.693875363467988,0.42876533626395213,-1.2864028524714786, ,0.015721825970588268,-0.004679843557222474,0.010493288221343874,0.012361297747659747,0.0010380458719432611,0.005942239276983217, ,1.1443979740142822
0.0117973007990891,0.022010346865841166,-0.08569288768510556, ,0.01205935315294429,0.022222370385272576,-0.08604081386155538, ,0.00048443578853353905, ,0.003105244722573664,0.0029381522026897615,-0.009412912094107306,-0.0014195254534408372,-0.012076729200128004,-0.007288027655998042, ,0.010338191197914357, ,0.012159867054797378, ,4.992857907832393e-05, ,0.18022541708577738,-0.24417736801723056,0.09650101276,1.693875363467988,0.42876533626395213,-1.2863211737313383, ,0.01586374817092457,-0.005031723221558772,0.010184662097186702,0.011247282132006263,0.0010380458719432611,0.008710501638344357, ,1.1557490825653076
0.011863800964425558,0.022072967548264686,-0.0858986914793326, ,0.012101636076103723,0.022260276627536987,-0.08617041348021028, ,0.00040679611267288384, ,0.0032901288404135185,0.0029905513140024726,-0.009960322588014287,0.0011283168939529564,-0.011776819339926558,-0.006226083972536155, ,0.010907629027681054, ,0.011830742780850145, ,5.044628356922289e-05, ,0.1805806627979917,-0.24427776354459546,0.09672397464000002,1.693875363467988,0.42903860926348303,-1.2863806520584498, ,0.016939832480983717,-0.004093239731430955,0.0107554432950709,0.009445817248801044,0.0029495127694281883,0.004945891072133286, ,1.1708931922912598
0.011889876128945905,0.022096338560268616,-0.08597812501273647, ,0.012144098441827903,0.02229737182611518,-0.08629953272639762, ,0.0004564496431643887, ,0.002895851936996762,0.002591083561739248,-0.00846190327408374,-0.005108712512478341,-0.010474045499512221,-0.004076261934027994, ,0.009311470318100808, ,0.011653520037994393, ,5.107664126448897e-05, ,0.18071194925685352,-0.24430865447609237,0.09680952978000001,1.693875363467988,0.42903860926348303,-1.2862989733183094, ,0.015544134571412084,-0.003939884326762311,0.009165023889528194,0.008863392688023808,0.0029495127694281883,0.0111471236095361, ,1.184340000152588
0.011935981290774231,0.022140463571199146,-0.08612046635927878, ,0.01218673910511138,0.022333662354128727,-0.08642817406072882, ,0.00044146266060481607, ,0.003215610979642563,0.0029794644337335597,-0.01040174697321741,-0.0019467660837929552,-0.009638740091083146,0.003603996806264188, ,0.011287767820925384, ,0.00983336600360985, ,5.1657906204554806e-05, ,0.1809513539759545,-0.2443781590719604,0.09696378829,1.6940850534114722,0.42917524576324845,-1.2863287124818652, ,0.01542788840163726,-0.003159271667763381,0.011178113347368422,0.0,0.005965638382905868,0.005717229265061094, ,1.1966290473937988
0.011970391473770091,0.022173765690358168,-0.08623212443277359, ,0.012229556924274408,0.022369154563984785,-0.08655633993550062, ,0.0004587583621916049, ,0.0033350745556777585,0.0032385564109854146,-0.010541437085209984,0.003148366972823207,-0.005299189720438759,-0.007024499020779846, ,0.011520975034280054, ,0.006163886446253235, ,5.226986430497565e-05, ,0.18112125409918742,-0.2444167727363315,0.09708434326000001,1.6942947433549567,0.42931188226301387,-1.2862767729052804, ,0.01664566594605697,-0.0050018732248345195,0.011402155705082321,0.0119593736657613,0.008739299923459938,0.004706624761231921, ,1.2077641487121582
0.012035924552788183,0.022231235305077708,-0.08643173662872944, ,0.012272550760958754,0.022403854787404552,-0.08668403279470877, ,0.00038657832769031173, ,0.0033517338171954116,0.0027252021715334354,-0.00998639428302722,0.006009300399715769,-0.006095500560994591,-0.008398040050117267, ,0.010880667131804952, ,0.008559598066588564, ,5.269654428206798e-05, ,0.1814610543456533,-0.2444785545993253,0.09729952740000002,1.6942947433549567,0.42944851876277934,-1.2862248333286956, ,0.017989941527672186,-0.0009529817430434704,0.010748185910931175,0.010905022942355956,0.009632162222685826,-0.0024998162267422185, ,1.2222671508789062
0.012069719001371113,0.022261239833970093,-0.08653621982549224, ,0.012315719480123985,0.022437769335448558,-0.08681125507405824, ,0.0004090516940346729, ,0.003279537677818537,0.002962341927504206,-0.010184055731587071,-0.0008453619755759488,-0.007385923979043695,-0.005613127498655766, ,0.011101613766464414, ,0.007434137498467315, ,5.3168605036607034e-05, ,0.18163867720176047,-0.2445094455308222,0.09741230463000002,1.6942947433549567,0.42958515526254476,-1.2862545724922516, ,0.016466587117555227,-0.003065277812951252,0.01097781634734666,0.010063087863270606,0.006848906439230988,0.006378070970252366, ,1.2342309951782227
0.012095876219867118,0.022282136072142918,-0.0866108610031487, ,0.01235906195004366,0.02247090449854382,-0.0869380092009764, ,0.00046035441859109284, ,0.0032848145676721875,0.002565904737412835,-0.009143567253679699,-0.0001906980451680204,-0.011638006606658705,0.0011899490635690288, ,0.01004881565101245, ,0.011639566126349577, ,5.3752755976335015e-05, ,0.1817776863934965,-0.24451716826369643,0.09749267461000001,1.6945044332984414,0.42958515526254476,-1.286172893752111, ,0.01869153861699247,-0.0019073657152810016,0.009881396724565759,0.0017965542012852813,0.006848906439230988,0.0030203161738177643, ,1.2502310276031494
0.012149972446309998,0.02232529443179302,-0.08676800156171072, ,0.012402577042301108,0.022503266546511195,-0.08706429759462447, ,0.0004281057049999698, ,0.0032698417159715706,0.0025592069009240962,-0.009451584671546344,0.00020789802148549628,-0.006522805253926949,0.0020810993929341205, ,0.010323461513109604, ,0.006526111747559579, ,5.4250640745247696e-05, ,0.1820865957084655,-0.2445403364623191,0.09766248860000001,1.6945044332984414,0.42985842826207565,-1.2862323720792226, ,0.0182775311168087,-0.0009660605716329607,0.010191178195777351,0.0017444294581056667,0.011753065460299148,0.002034173665832537, ,1.2617650032043457
0.012149972446309998,0.02232529443179302,-0.08676800156171072, ,0.012446263631785982,0.02253486172859133,-0.08719012266590971, ,0.0005566804694690596, ,0.0032698417159715706,0.0025592069009240962,-0.009451584671546344,0.00020789802148549628,-0.006522805253926949,0.0020810993929341205, ,0.010323461513109604, ,0.006526111747559579, ,5.516462809381688e-05, ,0.1820865957084655,-0.2445403364623191,0.09766248860000001,1.6945044332984414,0.42985842826207565,-1.2862323720792226, ,0.0182775311168087,-0.0009660605716329607,0.010191178195777351,0.0017444294581056667,0.011753065460299148,0.002034173665832537, ,1.2713160514831543
0.012198635861348447,0.022361221355564065,-0.08689769233000713, ,0.01249012059668985,0.022565696273471967,-0.08731548681749764, ,0.0005489313042339139, ,0.003417900940296978,0.0025742579582222038,-0.009259234305126906,0.0025018482463762003,-0.008555100013918519,0.0018059853309780505, ,0.010200111312647146, ,0.008913411963925021, ,5.6048124453154355e-05, ,0.18236461409193758,-0.24456350466094176,0.09780248792000001,1.6945044332984414,0.42985842826207565,-1.2862323720792226, ,0.020277124264630506,-0.0015799874385438693,0.010030737732997482,0.0016673289458428804,0.011753065460299148,0.00026864538147114425, ,1.2798011302947998
0.012240665109751562,0.022394376850783188,-0.08701908129688057, ,0.012534146818502834,0.022595776389313853,-0.08744039244382265, ,0.0005515399985763323, ,0.003435325782845124,0.0025864679060625035,-0.010089392237014622,0.0011815672109324131,-0.010282480969471935,0.0004849799163378315, ,0.010967548275512752, ,0.01035014064693152, ,5.692545997996642e-05, ,0.18258085061241586,-0.244571227393816,0.09792433918000001,1.6947141232419258,0.4299950647618411,-1.2862621112427786, ,0.01806528489595865,0.00044912907943372424,0.010850689046321525,0.0013745634979883028,0.008045576496241165,-0.0007325406538159999, ,1.2882211208343506
0.012275513951897516,0.02242101631418855,-0.08712425551533039, ,0.012578341182009178,0.0226251082637787,-0.08756484193110169, ,0.0005722536543761093, ,0.00392924054806947,0.0032277429342829423,-0.012145865295004991,0.005383617122499728,-0.008243172062277933,0.0009437488352941515, ,0.013167357346818434, ,0.009845453501110065, ,5.783790833095781e-05, ,0.1827816416671457,-0.24456350466094176,0.09804619044000001,1.6947141232419258,0.4301317012616065,-1.2862101716661938, ,0.019936332260182935,-0.0007462695580655128,0.013035033977086746,0.0013745634979883028,0.011829355321471825,-0.003611191789652483, ,1.2964611053466797
0.012317890654161657,0.022458212693864426,-0.08726429901217116, ,0.01262270257528372,0.022653698064054716,-0.08768883765734539, ,0.0005579945326460939, ,0.004546907418737834,0.004042571014136199,-0.015251146376608602,0.009402407890499113,-0.00210196448133083,-0.006604110993335843, ,0.016419933412765382, ,0.009634453991221498, ,5.870581083130368e-05, ,0.18299015545474975,-0.24456350466094176,0.09819656008000001,1.6949238131854105,0.43040497426113744,-1.286351328733446, ,0.020783386237072005,-0.0006011808363005942,0.01632050360655738,0.010010894806077092,0.01693608607017742,-0.00592768226178036, ,1.304732084274292
0.012365328396493895,0.02250064996519354,-0.08742571059547008, ,0.012667229889687829,0.02268155193688388,-0.08781238199236967, ,0.0005516141713369421, ,0.005062537859030842,0.0045675103643718394,-0.01756744700305425,0.014217752908844791,0.006689330815467399,-0.005026378981539013, ,0.018844273260274182, ,0.015712732778018976, ,5.954773177041361e-05, ,0.1831986692423538,-0.244571227393816,0.09836896665000001,1.6949238131854105,0.43054161076090286,-1.2863810678970018, ,0.022713485294033216,0.00021726670114608314,0.018783975849056604,0.009893587239855988,0.0281427607009596,-0.01086450393189092, ,1.313966989517212
0.012365328396493895,0.02250064996519354,-0.08742571059547008, ,0.012711922019865408,0.022708676008588675,-0.08793547729780841, ,0.0006505874770584887, ,0.005062537859030842,0.0045675103643718394,-0.01756744700305425,0.014217752908844791,0.006689330815467399,-0.005026378981539013, ,0.018844273260274182, ,0.015712732778018976, ,6.0598832620630196e-05, ,0.1831986692423538,-0.244571227393816,0.09836896665000001,1.6949238131854105,0.43054161076090286,-1.2863810678970018, ,0.022713485294033216,0.00021726670114608314,0.018783975849056604,0.009893587239855988,0.0281427607009596,-0.01086450393189092, ,1.322141170501709
0.012427214377632168,0.02255370720752815,-0.08763093125586519, ,0.012756777863739127,0.022735076385098602,-0.08805812592712485, ,0.0005692118736465426, ,0.00542040958516898,0.0045974120290524344,-0.017702950108623713,0.002670167845099037,-0.010446727349289558,-0.005422342287637715, ,0.019076464032526785, ,0.010782493678045492, ,6.145594628387058e-05, ,0.1834766876258259,-0.244571227393816,0.09858803966000002,1.6949238131854105,0.43067824726066833,-1.2863291283204172, ,0.024874689792521828,0.00019620254285383505,0.01891782840855107,0.009019805322632655,0.01271965816872585,-0.000285487700790676, ,1.3301310539245605
0.012482407422520684,0.022597862461407256,-0.0878069831556231, ,0.012801796322506371,0.022760759151977304,-0.08818033022562391, ,0.0005176220975875436, ,0.005385029082698078,0.0043262538028898,-0.01681815394271782,-0.006497994982764106,-0.016635541560119513,-0.00410742808860305, ,0.01818145517359591, ,0.017859558680716866, ,6.218837322614736e-05, ,0.18373926054354953,-0.24455578192806754,0.09877600171,1.6949238131854105,0.4308148837604337,-1.2863588674839732, ,0.025696436923496015,0.0006546307095521493,0.01797834257336343,0.008378417115099885,0.007235800920220089,0.008185461888520422, ,1.3387210369110107
0.012534537725440975,0.02263895124954524,-0.08796706559117683, ,0.01284697630063535,0.022785730374448518,-0.08830209253046356, ,0.00048104576167418833, ,0.005289080067585297,0.004000942761882079,-0.015505557287326981,0.015781766475268556,-0.0005167414022759071,-0.003916665621821729, ,0.016864288236856116, ,0.015790195644474533, ,6.296883058987141e-05, ,0.18402500165989585,-0.24454805919519332,0.09894840828000001,1.6949238131854105,0.43122479325973007,-1.2866114424549218, ,0.02914525232139766,0.0008156691226013789,0.016696867421383647,0.007830055844871928,0.02787719416112281,-0.013492224802871116, ,1.344269037246704
0.012534537725440975,0.02263895124954524,-0.08796706559117683, ,0.012892316705861261,0.022809996097423603,-0.08842341517066764, ,0.0006045800836264392, ,0.005289080067585297,0.004000942761882079,-0.015505557287326981,0.015781766475268556,-0.0005167414022759071,-0.003916665621821729, ,0.016864288236856116, ,0.015790195644474533, ,6.401162453855703e-05, ,0.18402500165989585,-0.24454805919519332,0.09894840828000001,1.6949238131854105,0.43122479325973007,-1.2866114424549218, ,0.02914525232139766,0.0008156691226013789,0.016696867421383647,0.007830055844871928,0.02787719416112281,-0.013492224802871116, ,1.350187063217163
0.012534537725440975,0.02263895124954524,-0.08796706559117683, ,0.012937816449182148,0.02283356234552768,-0.0885443004671368, ,0.0007305527426040607, ,0.005289080067585297,0.004000942761882079,-0.015505557287326981,0.015781766475268556,-0.0005167414022759071,-0.003916665621821729, ,0.016864288236856116, ,0.015790195644474533, ,6.531862994750918e-05, ,0.18402500165989585,-0.24454805919519332,0.09894840828000001,1.6949238131854105,0.43122479325973007,-1.2866114424549218, ,0.02914525232139766,0.0008156691226013789,0.016696867421383647,0.007830055844871928,0.02787719416112281,-0.013492224802871116, ,1.3559010028839111
0.012578859124766879,0.022672949416486142,-0.08809681725215839, ,0.012983474444855196,0.02285643512312648,-0.08866475073266099, ,0.0007210610238164837, ,0.005138800418884381,0.003811431786152593,-0.014806651821783744,0.01339661549934019,0.002554685653977017,0.004186675146387423, ,0.01612982393509466, ,0.013637998898244574, ,6.659384326051451e-05, ,0.18427212911187102,-0.2445403364623191,0.09908840760000001,1.695133503128895,0.43149806625926096,-1.286752599522174, ,0.02933444870431863,0.000715128040024584,0.01597674174523571,0.0012046683019333881,0.03291767606126766,-0.011726809745763764, ,1.3619120121002197
0.012651493102267982,0.022725189117213208,-0.08829440880478288, ,0.01302928961039262,0.02287862041435332,-0.08878476827193164, ,0.0006377489878593951, ,0.00504617535288528,0.0035838833440668557,-0.013799726608792905,0.005923498647820004,-0.006503876439180806,-0.005569043932370104, ,0.015124171382041848, ,0.008797030437960238, ,6.767892132790885e-05, ,0.18465054302270803,-0.2445403364623191,0.09929192513000001,1.6953431930723792,0.43149806625926096,-1.2866709207820335, ,0.029190077378797533,0.000715128040024584,0.014970687518796997,0.010478508799547748,0.02143223780698078,-0.0035666185721771023, ,1.3676950931549072
0.012651493102267982,0.022725189117213208,-0.08829440880478288, ,0.013075260866557735,0.02290012418313544,-0.08890435538155278, ,0.0007630309442307479, ,0.00504617535288528,0.0035838833440668557,-0.013799726608792905,0.005923498647820004,-0.006503876439180806,-0.005569043932370104, ,0.015124171382041848, ,0.008797030437960238, ,6.902297507860463e-05, ,0.18465054302270803,-0.2445403364623191,0.09929192513000001,1.6953431930723792,0.43149806625926096,-1.2866709207820335, ,0.029190077378797533,0.000715128040024584,0.014970687518796997,0.010478508799547748,0.02143223780698078,-0.0035666185721771023, ,1.3734281063079834
0.012712474427965428,0.022765510627335422,-0.08845657697074037, ,0.013121387137361065,0.02292095237322118,-0.0890235143500538, ,0.000716093382410475, ,0.006375259408024446,0.0042935178554916525,-0.01664465874202548,0.0027854084923387814,-0.023614816618678234,-0.007593726651729502, ,0.018333654647492273, ,0.023778494209328774, ,7.025548559513611e-05, ,0.18502895693354504,-0.24451716826369643,0.09947599831000001,1.6953431930723792,0.4317713392587918,-1.2868120778492858, ,0.03685318118775564,0.0010440777505104776,0.01795807386696731,0.010478508799547748,0.011125235667534553,-0.0011127735168157858, ,1.379045009613037
0.012712474427965428,0.022765510627335422,-0.08845657697074037, ,0.013167667350056554,0.022941110908205588,-0.08914224745790068, ,0.000841534355761069, ,0.006375259408024446,0.0042935178554916525,-0.01664465874202548,0.0027854084923387814,-0.023614816618678234,-0.007593726651729502, ,0.018333654647492273, ,0.023778494209328774, ,7.174385796152846e-05, ,0.18502895693354504,-0.24451716826369643,0.09947599831000001,1.6953431930723792,0.4317713392587918,-1.2868120778492858, ,0.03685318118775564,0.0010440777505104776,0.01795807386696731,0.010478508799547748,0.011125235667534553,-0.0011127735168157858, ,1.3844990730285645
0.01278115688330896,0.02281507708782789,-0.0886623703758903, ,0.0132141004351372,0.022960605691558767,-0.08926055697750838, ,0.0007526260053498739, ,0.006970475644687279,0.005558720111648007,-0.022661734491426676,0.05191898618624945,0.038491771129858535,-0.004138983569624927, ,0.024352435404959728, ,0.06463119675947909, ,7.303167675524265e-05, ,0.18542281631013047,-0.24447083186645108,0.09969766390000001,1.6953431930723792,0.432454521757619,-1.2872874886276273, ,0.036767509321375735,0.004252108721613851,0.024355980917431196,0.010478508799547748,0.0759523369684327,-0.05004149789094909, ,1.3899650573730469
0.012854945571302678,0.02287231896095413,-0.08889122199544917, ,0.013260685326331463,0.022979442606651284,-0.08937844517325255, ,0.0006430292755910025, ,0.006970475644687279,0.005558720111648007,-0.022661734491426676,0.05191898618624945,0.038491771129858535,-0.004138983569624927, ,0.024352435404959728, ,0.06463119675947909, ,7.407792080172796e-05, ,0.18542281631013047,-0.24447083186645108,0.09969766390000001,1.6953431930723792,0.432454521757619,-1.2872874886276273, ,0.036767509321375735,0.004252108721613851,0.024355980917431196,0.010478508799547748,0.0759523369684327,-0.05004149789094909, ,1.396193027496338
0.012854945571302678,0.02287231896095413,-0.08889122199544917, ,0.01330742096059923,0.022997627516781027,-0.08949591430148147, ,0.0007655644956874309, ,0.00805206529907887,0.006165369833875359,-0.024319807736450774,0.023497032909564695,-0.0038746999286043775,-0.006047126664082, ,0.026349584230249655, ,0.02381418374865706, ,7.537227856710318e-05, ,0.18578578475521904,-0.2444476636678284,0.09994266271,1.6953431930723792,0.4327277947571499,-1.2874286456948796, ,0.04142162442534735,0.002159228684831658,0.026112805770491805,0.009950611151244512,0.03667705679292046,-0.021734853187327752, ,1.401921033859253
0.0129415710904373,0.022934185767316543,-0.0891431574519112, ,0.013354306278127795,0.023015166265200494,-0.08961296661052812, ,0.0006305781646360518, ,0.008761374296998213,0.006115957089522598,-0.02567807341907027,0.0015290860664547532,-0.03198617895114155,-0.004862230165471033, ,0.02781240847550147, ,0.032022532446538896, ,7.637401887504023e-05, ,0.18622598052904982,-0.24440132727058306,0.10021229103000001,1.695552883015864,0.43286443125691537,-1.2874583848584356, ,0.04381206904823212,0.005984893118713555,0.027416198829604135,0.005341587142674043,0.010989733613965382,-0.005795163134319452, ,1.4074950218200684
0.0129415710904373,0.022934185767316543,-0.0891431574519112, ,0.013401340222327918,0.023032064675143182,-0.08972960434072191, ,0.0007515902398465194, ,0.008761374296998213,0.006115957089522598,-0.02567807341907027,0.0015290860664547532,-0.03198617895114155,-0.004862230165471033, ,0.02781240847550147, ,0.032022532446538896, ,7.76190130581929e-05, ,0.18622598052904982,-0.24440132727058306,0.10021229103000001,1.695552883015864,0.43286443125691537,-1.2874583848584356, ,0.04381206904823212,0.005984893118713555,0.027416198829604135,0.005341587142674043,0.010989733613965382,-0.005795163134319452, ,1.413017988204956
0.0129415710904373,0.022934185767316543,-0.0891431574519112, ,0.013448521739829822,0.023048328549850245,-0.08984582972440035, ,0.0008739427087910813, ,0.008761374296998213,0.006115957089522598,-0.02567807341907027,0.0015290860664547532,-0.03198617895114155,-0.004862230165471033, ,0.02781240847550147, ,0.032022532446538896, ,7.927113690826114e-05, ,0.18661211717276105,-0.24434726814046348,0.10044821581,1.695552883015864,0.4331377042564462,-1.2875995419256878, ,0.045977200367476156,0.006659044462974512,0.027135965110732543,0.005341587142674043,0.014335083687063859,-0.0022106121412837462, ,1.416607141494751
0.013016292178225827,0.02298641710095287,-0.08936366767358254, ,0.013495849780479435,0.02306396367259688,-0.08996164498592175, ,0.0007704322362968688, ,0.008897816980771314,0.005984777128772364,-0.02538549870179548,-0.002332918837979185,-0.030901565411162808,-0.0031907369721950367, ,0.027557435451130773, ,0.030989332245658367, ,8.070211226931415e-05, ,0.18661211717276105,-0.24434726814046348,0.10044821581,1.695552883015864,0.4331377042564462,-1.2875995419256878, ,0.045977200367476156,0.006659044462974512,0.027135965110732543,0.005341587142674043,0.014335083687063859,-0.0022106121412837462, ,1.4203259944915771
0.013016292178225827,0.02298641710095287,-0.08936366767358254, ,0.013543323297334186,0.02307897580671942,-0.09007705234167634, ,0.0008917660002450695, ,0.008897816980771314,0.005984777128772364,-0.02538549870179548,-0.002332918837979185,-0.030901565411162808,-0.0031907369721950367, ,0.027557435451130773, ,0.030989332245658367, ,8.237786410397482e-05, ,0.18661211717276105,-0.24434726814046348,0.10044821581,1.695552883015864,0.4331377042564462,-1.2875995419256878, ,0.045977200367476156,0.006659044462974512,0.027135965110732543,0.005341587142674043,0.014335083687063859,-0.0022106121412837462, ,1.4232161045074463
0.013016292178225827,0.02298641710095287,-0.08936366767358254, ,0.013590941246659115,0.023093370695642358,-0.09019205400009862, ,0.0010138464031731102, ,0.008897816980771314,0.005984777128772364,-0.02538549870179548,-0.002332918837979185,-0.030901565411162808,-0.0031907369721950367, ,0.027557435451130773, ,0.030989332245658367, ,8.429841779277715e-05, ,0.18661211717276105,-0.24434726814046348,0.10044821581,1.695552883015864,0.4331377042564462,-1.2875995419256878, ,0.045977200367476156,0.006659044462974512,0.027135965110732543,0.005341587142674043,0.014335083687063859,-0.0022106121412837462, ,1.4262351989746094
0.013016292178225827,0.02298641710095287,-0.08936366767358254, ,0.013638702587923025,0.023107154062903815,-0.09030665216167882, ,0.0011363062425555801, ,0.008897816980771314,0.005984777128772364,-0.02538549870179548,-0.002332918837979185,-0.030901565411162808,-0.0031907369721950367, ,0.027557435451130773, ,0.030989332245658367, ,0.0004721465041803652, ,0.18661211717276105,-0.24434726814046348,0.10044821581,1.695552883015864,0.4331377042564462,-1.2875995419256878, ,0.045977200367476156,0.006659044462974512,0.027135965110732543,0.005341587142674043,0.014335083687063859,-0.0022106121412837462, ,1.4291210174560547
0.013016292178225827,0.02298641710095287,-0.08936366767358254, ,0.013686606283794315,0.023120331612183912,-0.09042084901897574, ,0.001258922751200282, ,0.008897816980771314,0.005984777128772364,-0.02538549870179548,-0.002332918837979185,-0.030901565411162808,-0.0031907369721950367, ,0.027557435451130773, ,0.030989332245658367, ,0.00048088846248058655, ,0.18661211717276105,-0.24434726814046348,0.10044821581,1.695552883015864,0.4331377042564462,-1.2875995419256878, ,0.045977200367476156,0.006659044462974512,0.027135965110732543,0.005341587142674043,0.014335083687063859,-0.0022106121412837462, ,1.4320480823516846
0.013016292178225827,0.02298641710095287,-0.08936366767358254, ,0.013734651300137186,0.02313290902732975,-0.09053464675662724, ,0.0013815540979111429, ,0.008897816980771314,0.005984777128772364,-0.02538549870179548,-0.002332918837979185,-0.030901565411162808,-0.0031907369721950367, ,0.027557435451130773, ,0.030989332245658367, ,0.0004907858870457575, ,0.18661211717276105,-0.24434726814046348,0.10044821581,1.695552883015864,0.4331377042564462,-1.2875995419256878, ,0.045977200367476156,0.006659044462974512,0.027135965110732543,0.005341587142674043,0.014335083687063859,-0.0022106121412837462, ,1.4348740577697754
0.013071104962187703,0.023023279930877143,-0.08952384320612865, ,0.013782836606007522,0.02314489197238362,-0.09064804755136367, ,0.0013361088396156749, ,0.008460756175128013,0.005574077232246583,-0.023936930803872474,0.05477296649860368,0.02858302834702254,-0.0004446495026788193, ,0.02599291034792748, ,0.06178235597640839, ,0.000499974180008474, ,0.18692874922060426,-0.2442932090103439,0.10062062238000001,1.695552883015864,0.433684250255508,-1.2880452135404734, ,0.05005112951396138,0.007697122998695618,0.025816550275526744,0.005341587142674043,0.0808028270783518,-0.057063807881475304, ,1.4376800060272217
0.013071104962187703,0.023023279930877143,-0.08952384320612865, ,0.01383116117364905,0.0231562860916086,-0.09076105357201841, ,0.0014581034163729902, ,0.008460756175128013,0.005574077232246583,-0.023936930803872474,0.05477296649860368,0.02858302834702254,-0.0004446495026788193, ,0.02599291034792748, ,0.06178235597640839, ,0.0005102766449156193, ,0.18692874922060426,-0.2442932090103439,0.10062062238000001,1.695552883015864,0.433684250255508,-1.2880452135404734, ,0.05005112951396138,0.007697122998695618,0.025816550275526744,0.005341587142674043,0.0808028270783518,-0.057063807881475304, ,1.4404830932617188
0.013071104962187703,0.023023279930877143,-0.08952384320612865, ,0.01387962397848932,0.023167097009515764,-0.09087366697954094, ,0.0015800033452807883, ,0.008460756175128013,0.005574077232246583,-0.023936930803872474,0.05477296649860368,0.02858302834702254,-0.0004446495026788193, ,0.02599291034792748, ,0.06178235597640839, ,0.0005216567161960998, ,0.18692874922060426,-0.2442932090103439,0.10062062238000001,1.695552883015864,0.433684250255508,-1.2880452135404734, ,0.05005112951396138,0.007697122998695618,0.025816550275526744,0.005341587142674043,0.0808028270783518,-0.057063807881475304, ,1.4432930946350098
0.013071104962187703,0.023023279930877143,-0.08952384320612865, ,0.013928223999135675,0.023177330330890585,-0.09098588992700794, ,0.0017017535612646212, ,0.008460756175128013,0.005574077232246583,-0.023936930803872474,0.05477296649860368,0.02858302834702254,-0.0004446495026788193, ,0.02599291034792748, ,0.06178235597640839, ,0.0005340787882494527, ,0.18692874922060426,-0.2442932090103439,0.10062062238000001,1.695552883015864,0.433684250255508,-1.2880452135404734, ,0.05005112951396138,0.007697122998695618,0.025816550275526744,0.005341587142674043,0.0808028270783518,-0.057063807881475304, ,1.446000099182129
0.013298475199667491,0.02313921846057485,-0.09006281846804624, ,0.01397696021737142,0.023186991640819738,-0.09109772455963541, ,0.00123840817762472, ,0.011167297806070708,0.004408400748719831,-0.02447566601442764,-0.031108121593108506,-0.06896366768027158,-0.0054598155917056565, ,0.02726170875606651, ,0.07565509834350699, ,0.0005414155527221116, ,0.1883574548023358,-0.24402291335974605,0.10120136030000002,1.695552883015864,0.4345040692541006,-1.288550363482371, ,0.0701900455314133,0.02120128274317935,0.026155683940886704,0.004702647064263037,0.0,0.011531783415196676, ,1.44895601272583
0.013298475199667491,0.02313921846057485,-0.09006281846804624, ,0.014025831618151553,0.023196086504718206,-0.09120917301479071, ,0.001358826729497317, ,0.011167297806070708,0.004408400748719831,-0.02447566601442764,-0.031108121593108506,-0.06896366768027158,-0.0054598155917056565, ,0.02726170875606651, ,0.07565509834350699, ,0.0005498424720703096, ,0.1883574548023358,-0.24402291335974605,0.10120136030000002,1.695552883015864,0.4345040692541006,-1.288550363482371, ,0.0701900455314133,0.02120128274317935,0.026155683940886704,0.004702647064263037,0.0,0.011531783415196676, ,1.451704978942871
0.013298475199667491,0.02313921846057485,-0.09006281846804624, ,0.014074837189599225,0.023204620468355253,-0.09132023742200453, ,0.001479228781428354, ,0.011167297806070708,0.004408400748719831,-0.02447566601442764,-0.031108121593108506,-0.06896366768027158,-0.0054598155917056565, ,0.02726170875606651, ,0.07565509834350699, ,0.0005593260058392692, ,0.1883574548023358,-0.24402291335974605,0.10120136030000002,1.695552883015864,0.4345040692541006,-1.288550363482371, ,0.0701900455314133,0.02120128274317935,0.026155683940886704,0.004702647064263037,0.0,0.011531783415196676, ,1.454531192779541
0.013298475199667491,0.02313921846057485,-0.09006281846804624, ,0.014123975923001283,0.02321259905788163,-0.0914309199029825, ,0.0015995429636494112, ,0.011167297806070708,0.004408400748719831,-0.02447566601442764,-0.031108121593108506,-0.06896366768027158,-0.0054598155917056565, ,0.02726170875606651, ,0.07565509834350699, ,0.0005698332478373515, ,0.18890576883640572,-0.2438221223050162,0.10145672943,1.695552883015864,0.4354605247524587,-1.2892486100681053, ,0.0741382355925553,0.02561320959742801,0.04105363793814434,0.004483428011522112,0.1873975143818175,-0.14646128612969117, ,1.4574780464172363
0.013298475199667491,0.02313921846057485,-0.09006281846804624, ,0.01417324681280471,0.023220027779855795,-0.09154122257161712, ,0.0017197192255390262, ,0.011167297806070708,0.004408400748719831,-0.02447566601442764,-0.031108121593108506,-0.06896366768027158,-0.0054598155917056565, ,0.02726170875606651, ,0.07565509834350699, ,0.0005813321076143683, ,0.18890576883640572,-0.2438221223050162,0.10145672943,1.695552883015864,0.4354605247524587,-1.2892486100681053, ,0.0741382355925553,0.02561320959742801,0.04105363793814434,0.004483428011522112,0.1873975143818175,-0.14646128612969117, ,1.460576057434082
0.013386859360288007,0.023182672192322694,-0.09030122379063203, ,0.014222648856612397,0.02322691212127086,-0.09165114753399983, ,0.0015883310002602264, ,0.012642276661389689,0.007604514951865318,-0.03827368978132101,0.1315581031651671,0.10626519422017429,0.0013243594355381195, ,0.041018668144066524, ,0.1691145880197757, ,0.0005913023936801689, ,0.18890576883640572,-0.2438221223050162,0.10145672943,1.695552883015864,0.4354605247524587,-1.2892486100681053, ,0.0741382355925553,0.02561320959742801,0.04105363793814434,0.004483428011522112,0.1873975143818175,-0.14646128612969117, ,1.464475154876709
0.013557292082308773,0.02330387977238587,-0.09084421189603144, ,0.014272181055179196,0.02323325754958176,-0.09176069688843298, ,0.0011644734789520894, ,0.014203836368024502,0.010111473202378412,-0.044702365667984835,0.1201546797577633,0.07996247062165883,0.0023786140966538896, ,0.04798220872580025, ,0.1443293638513217, ,0.0005969217180455798, ,0.18982477404843845,-0.2435981630516637,0.10204005993000001,1.6957625729593484,0.43778334524847123,-1.2909793569506633, ,0.07437064385460092,0.016152670903569494,0.047978347951807235,0.0029027512282440706,0.16051814481283896,-0.12751666071124038, ,1.4673101902008057
0.013557292082308773,0.02330387977238587,-0.09084421189603144, ,0.01432184241240796,0.02323906951273121,-0.09186987272544153, ,0.0012809050370724139, ,0.014203836368024502,0.010111473202378412,-0.044702365667984835,0.1201546797577633,0.07996247062165883,0.0023786140966538896, ,0.04798220872580025, ,0.1443293638513217, ,0.0006035623327934132, ,0.18982477404843845,-0.2435981630516637,0.10204005993000001,1.6957625729593484,0.43778334524847123,-1.2909793569506633, ,0.07437064385460092,0.016152670903569494,0.047978347951807235,0.0029027512282440706,0.16051814481283896,-0.12751666071124038, ,1.4700961112976074
0.013557292082308773,0.02330387977238587,-0.09084421189603144, ,0.014371631935345677,0.023244353439175885,-0.09197867712778485, ,0.0013977496709521734, ,0.014203836368024502,0.010111473202378412,-0.044702365667984835,0.1201546797577633,0.07996247062165883,0.0023786140966538896, ,0.04798220872580025, ,0.1443293638513217, ,0.0006111987495064782, ,0.18982477404843845,-0.2435981630516637,0.10204005993000001,1.6957625729593484,0.43778334524847123,-1.2909793569506633, ,0.07437064385460092,0.016152670903569494,0.047978347951807235,0.0029027512282440706,0.16051814481283896,-0.12751666071124038, ,1.4739670753479004
0.013711491828679619,0.023395946660421166,-0.09129931722182541, ,0.01442154863417919,0.02324911473791546,-0.09208711217046911, ,0.001070682568089864, ,0.015978635317041166,0.008629652265338433,-0.04660762388972394,-0.017664017483577897,-0.030147802315127023,-4.3717710974848034e-05, ,0.050020578659803826, ,0.03493833951292479, ,0.0006155747858739392, ,0.19062021553448358,-0.24332786740106585,0.10252487239000001,1.6957625729593484,0.4387398007468293,-1.2913508885758356, ,0.07875264859624131,0.035409306551668206,0.04931520594427245,0.0029027512282440706,0.04984558813460272,-0.01318610566693009, ,1.4773151874542236
0.013711491828679619,0.023395946660421166,-0.09129931722182541, ,0.014471591522231552,0.023253358798515988,-0.0921951799207584, ,0.0011834917903559524, ,0.015978635317041166,0.008629652265338433,-0.04660762388972394,-0.017664017483577897,-0.030147802315127023,-4.3717710974848034e-05, ,0.050020578659803826, ,0.03493833951292479, ,0.0006209324934633921, ,0.19062021553448358,-0.24332786740106585,0.10252487239000001,1.6957625729593484,0.4387398007468293,-1.2913508885758356, ,0.07875264859624131,0.035409306551668206,0.04931520594427245,0.0029027512282440706,0.04984558813460272,-0.01318610566693009, ,1.480036973953247
0.013711491828679619,0.023395946660421166,-0.09129931722182541, ,0.014521759615957764,0.02325709099113939,-0.09230288243818745, ,0.001297288683171211, ,0.015978635317041166,0.008629652265338433,-0.04660762388972394,-0.017664017483577897,-0.030147802315127023,-4.3717710974848034e-05, ,0.050020578659803826, ,0.03493833951292479, ,0.0006272535793485119, ,0.19062021553448358,-0.24332786740106585,0.10252487239000001,1.6957625729593484,0.4387398007468293,-1.2913508885758356, ,0.07875264859624131,0.035409306551668206,0.04931520594427245,0.0029027512282440706,0.04984558813460272,-0.01318610566693009, ,1.4828321933746338
0.013711491828679619,0.023395946660421166,-0.09129931722182541, ,0.014572051934941066,0.02326031666656858,-0.09241022177457313, ,0.0014117606443858584, ,0.015978635317041166,0.008629652265338433,-0.04660762388972394,-0.017664017483577897,-0.030147802315127023,-4.3717710974848034e-05, ,0.050020578659803826, ,0.03493833951292479, ,0.0006345175336544133, ,0.19062021553448358,-0.24332786740106585,0.10252487239000001,1.6957625729593484,0.4387398007468293,-1.2913508885758356, ,0.07875264859624131,0.035409306551668206,0.04931520594427245,0.0029027512282440706,0.04984558813460272,-0.01318610566693009, ,1.4856231212615967
0.013878079297408169,0.023484508086391406,-0.09179675378681079, ,0.0146224675018886,0.023263041156234593,-0.09251719997402597, ,0.001059341356124438, ,0.017774706918227346,0.009140823561648274,-0.05110954485191521,-0.05170953015294921,-0.04727182921486709,0.0036115585817706568, ,0.05487877947243357, ,0.07005820865030857, ,0.0006384149999156062, ,0.1914156570205287,-0.24291856255873195,0.10304986984000002,1.6957625729593484,0.43928634674589107,-1.2915515239701996, ,0.08682245339292843,0.04162146559582052,0.0539959712542373,0.0029027512282440706,0.0402301482369327,0.015000934644738489, ,1.488389015197754
0.013878079297408169,0.023484508086391406,-0.09179675378681079, ,0.01467300534262779,0.02326526977224343,-0.09262381907296294, ,0.0011679083197395604, ,0.017774706918227346,0.009140823561648274,-0.05110954485191521,-0.05170953015294921,-0.04727182921486709,0.0036115585817706568, ,0.05487877947243357, ,0.07005820865030857, ,0.0006432285755503694, ,0.1914156570205287,-0.24291856255873195,0.10304986984000002,1.6957625729593484,0.43928634674589107,-1.2915515239701996, ,0.08682245339292843,0.04162146559582052,0.0539959712542373,0.0029027512282440706,0.0402301482369327,0.015000934644738489, ,1.491197109222412
0.013878079297408169,0.023484508086391406,-0.09179675378681079, ,0.01472366448610195,0.023267007807402432,-0.09273008110011849, ,0.001278053424730258, ,0.017774706918227346,0.009140823561648274,-0.05110954485191521,-0.05170953015294921,-0.04727182921486709,0.0036115585817706568, ,0.05487877947243357, ,0.07005820865030857, ,0.0006489477183357738, ,0.1914156570205287,-0.24291856255873195,0.10304986984000002,1.6957625729593484,0.43928634674589107,-1.2915515239701996, ,0.08682245339292843,0.04162146559582052,0.0539959712542373,0.0029027512282440706,0.0402301482369327,0.015000934644738489, ,1.4941132068634033
0.01399661859506056,0.023541098785948934,-0.09212578478342291, ,0.014774443964366845,0.023268260535246933,-0.09283598807655714, ,0.001175712143680065, ,0.017737767392256416,0.007821897083046649,-0.047575294926693774,0.042291708617178674,0.01568996917796723,-0.0019230739220280845, ,0.05137333114955135, ,0.04510565398518781, ,0.0006536509721334907, ,0.19204119838334088,-0.24262509870951143,0.10339857185000001,1.6957625729593484,0.4398328927449528,-1.2919155168448446, ,0.09999677719543813,0.04667827917288282,0.05056765561904762,0.0029027512282440706,0.11999497757870746,-0.08116694483299167, ,1.4987530708312988
0.01399661859506056,0.023541098785948934,-0.09212578478342291, ,0.014825342812586106,0.02326903321006738,-0.09294154201568451, ,0.0011942626881386662, ,0.017737767392256416,0.007821897083046649,-0.047575294926693774,0.042291708617178674,0.01568996917796723,-0.0019230739220280845, ,0.05137333114955135, ,0.04510565398518781, ,0.0006584351466114126, ,0.19204119838334088,-0.24262509870951143,0.10339857185000001,1.6957625729593484,0.4398328927449528,-1.2919155168448446, ,0.09999677719543813,0.04667827917288282,0.05056765561904762,0.0029027512282440706,0.11999497757870746,-0.08116694483299167, ,1.5020229816436768
0.01399661859506056,0.023541098785948934,-0.09212578478342291, ,0.014876360069027539,0.023269331066935916,-0.09304674492326054, ,0.0013022942575642688, ,0.017737767392256416,0.007821897083046649,-0.047575294926693774,0.042291708617178674,0.01568996917796723,-0.0019230739220280845, ,0.05137333114955135, ,0.04510565398518781, ,0.0006640830335495956, ,0.19204119838334088,-0.24262509870951143,0.10339857185000001,1.6957625729593484,0.4398328927449528,-1.2919155168448446, ,0.09999677719543813,0.04667827917288282,0.05056765561904762,0.0029027512282440706,0.11999497757870746,-0.08116694483299167, ,1.5049951076507568
0.01399661859506056,0.023541098785948934,-0.09212578478342291, ,0.014927494775059284,0.023269159321732062,-0.09315159879740964, ,0.0014116571559621472, ,0.017737767392256416,0.007821897083046649,-0.047575294926693774,0.042291708617178674,0.01568996917796723,-0.0019230739220280845, ,0.05137333114955135, ,0.04510565398518781, ,0.0006705836780923134, ,0.19204119838334088,-0.24262509870951143,0.10339857185000001,1.6957625729593484,0.4398328927449528,-1.2919155168448446, ,0.09999677719543813,0.04667827917288282,0.05056765561904762,0.0029027512282440706,0.11999497757870746,-0.08116694483299167, ,1.5079081058502197
0.01399661859506056,0.023541098785948934,-0.09212578478342291, ,0.014978745975145416,0.02326852317117105,-0.09325610562863422, ,0.0015220042278532243, ,0.017737767392256416,0.007821897083046649,-0.047575294926693774,0.042291708617178674,0.01568996917796723,-0.0019230739220280845, ,0.05137333114955135, ,0.04510565398518781, ,0.0006779235104178385, ,0.19204119838334088,-0.24262509870951143,0.10339857185000001,1.6957625729593484,0.4398328927449528,-1.2919155168448446, ,0.09999677719543813,0.04667827917288282,0.05056765561904762,0.0029027512282440706,0.11999497757870746,-0.08116694483299167, ,1.5108551979064941
0.01415032010668932,0.023597929421264475,-0.09250388583251035, ,0.015030112716842356,0.02326742779282907,-0.0933602673998256, ,0.0012714777827849285, ,0.014659598614191563,0.004249815416715012,-0.032203516039107906,0.07921277256362919,0.04630929197190448,-0.0013964280073960984, ,0.035637497216926384, ,0.09175608549330923, ,0.0006829966238568736, ,0.19301426272549316,-0.24219262566855485,0.10380301433000001,1.6957625729593484,0.44133589424237263,-1.2931411137855053, ,0.10116944729048058,0.04359069433094661,0.03462785113043479,0.0029027512282440706,0.15320556697638651,-0.11366088595076612, ,1.5137031078338623
0.01415032010668932,0.023597929421264475,-0.09250388583251035, ,0.015081594050794579,0.023265878345170993,-0.09346408608627635, ,0.0013782284293383663, ,0.014659598614191563,0.004249815416715012,-0.032203516039107906,0.07921277256362919,0.04630929197190448,-0.0013964280073960984, ,0.035637497216926384, ,0.09175608549330923, ,0.0006888884188185811, ,0.19301426272549316,-0.24219262566855485,0.10380301433000001,1.6957625729593484,0.44133589424237263,-1.2931411137855053, ,0.10116944729048058,0.04359069433094661,0.03462785113043479,0.0029027512282440706,0.15320556697638651,-0.11366088595076612, ,1.516489028930664
0.01415032010668932,0.023597929421264475,-0.09250388583251035, ,0.015133189030730838,0.023263879967576402,-0.0935675636556919, ,0.0014862808855946683, ,0.014659598614191563,0.004249815416715012,-0.032203516039107906,0.07921277256362919,0.04630929197190448,-0.0013964280073960984, ,0.035637497216926384, ,0.09175608549330923, ,0.0006955891958503129, ,0.19301426272549316,-0.24219262566855485,0.10380301433000001,1.6957625729593484,0.44133589424237263,-1.2931411137855053, ,0.10116944729048058,0.04359069433094661,0.03462785113043479,0.0029027512282440706,0.15320556697638651,-0.11366088595076612, ,1.5192301273345947
0.01415032010668932,0.023597929421264475,-0.09250388583251035, ,0.015184896713459996,0.023261437780366174,-0.09367070206820262, ,0.0015953167420755796, ,0.014659598614191563,0.004249815416715012,-0.032203516039107906,0.07921277256362919,0.04630929197190448,-0.0013964280073960984, ,0.035637497216926384, ,0.09175608549330923, ,0.0007030869254021902, ,0.19301426272549316,-0.24219262566855485,0.10380301433000001,1.6957625729593484,0.44133589424237263,-1.2931411137855053, ,0.10116944729048058,0.04359069433094661,0.03462785113043479,0.0029027512282440706,0.15320556697638651,-0.11366088595076612, ,1.5219531059265137
0.01445415451676969,0.023610441710161988,-0.0930016467486851, ,0.01523671615886716,0.023258556884829976,-0.09377350327637546, ,0.0011541179113589114, ,0.015903710619360693,-0.00028114482734386333,-0.024710801524430826,-0.0017712162191363822,-0.0372003644083733,-0.0021784965449605075, ,0.02938759544192279, ,0.03724238318513844, ,0.0007068144542117499, ,0.19534652805350897,-0.24095698840867893,0.10433578952000001,1.6959722629028329,0.44338544173885425,-1.2948940610810922, ,0.12276447808340334,0.06967470011635153,0.02632861408264463,-0.004751396395670981,0.0904464879893523,-0.0627312198779388, ,1.5251901149749756
0.01445415451676969,0.023610441710161988,-0.0930016467486851, ,0.015288646429909628,0.023255242363251702,-0.0938759692252262, ,0.0012597551834092312, ,0.015903710619360693,-0.00028114482734386333,-0.024710801524430826,-0.0017712162191363822,-0.0372003644083733,-0.0021784965449605075, ,0.02938759544192279, ,0.03724238318513844, ,0.0007113467552707456, ,0.19534652805350897,-0.24095698840867893,0.10433578952000001,1.6959722629028329,0.44338544173885425,-1.2948940610810922, ,0.12276447808340334,0.06967470011635153,0.02632861408264463,-0.004751396395670981,0.0904464879893523,-0.0627312198779388, ,1.5279450416564941
0.01445415451676969,0.023610441710161988,-0.0930016467486851, ,0.015340686592612883,0.023251499278937673,-0.09397810185223121, ,0.00136683699089296, ,0.015903710619360693,-0.00028114482734386333,-0.024710801524430826,-0.0017712162191363822,-0.0372003644083733,-0.0021784965449605075, ,0.02938759544192279, ,0.03724238318513844, ,0.0007166759441782434, ,0.19534652805350897,-0.24095698840867893,0.10433578952000001,1.6959722629028329,0.44338544173885425,-1.2948940610810922, ,0.12276447808340334,0.06967470011635153,0.02632861408264463,-0.004751396395670981,0.0904464879893523,-0.0627312198779388, ,1.5306780338287354
0.014611972723456042,0.023616772756997733,-0.09326543810220825, ,0.01539283571606656,0.023247332676241947,-0.09407990308733907, ,0.0011872599540545664, ,0.016858726607822557,0.0009177686423247906,-0.029314530164555788,0.05264032250478929,0.01648798184255008,-0.00025017068748147114, ,0.03382899113019468, ,0.05516190216809498, ,0.0007204709765159556, ,0.196551274381888,-0.24030827884724407,0.10461838074000002,1.6959722629028329,0.44461517023674324,-1.2958968222143599, ,0.12772132107465783,0.06947067464016894,0.03141777420118344,-0.004491478313833015,0.15159664396094724,-0.11401161483444829, ,1.5334160327911377
0.014611972723456042,0.023616772756997733,-0.09326543810220825, ,0.015445092872420688,0.023242747580593626,-0.0941813748529829, ,0.001293415689797612, ,0.016858726607822557,0.0009177686423247906,-0.029314530164555788,0.05264032250478929,0.01648798184255008,-0.00025017068748147114, ,0.03382899113019468, ,0.05516190216809498, ,0.0007250545342222089, ,0.196551274381888,-0.24030827884724407,0.10461838074000002,1.6959722629028329,0.44461517023674324,-1.2958968222143599, ,0.12772132107465783,0.06947067464016894,0.03141777420118344,-0.004491478313833015,0.15159664396094724,-0.11401161483444829, ,1.5362250804901123
0.014611972723456042,0.023616772756997733,-0.09326543810220825, ,0.015497457136881332,0.023237748998523187,-0.09428251906409194, ,0.0014007838301942047, ,0.016858726607822557,0.0009177686423247906,-0.029314530164555788,0.05264032250478929,0.01648798184255008,-0.00025017068748147114, ,0.03382899113019468, ,0.05516190216809498, ,0.0007304174651426216, ,0.196551274381888,-0.24030827884724407,0.10461838074000002,1.6959722629028329,0.44461517023674324,-1.2958968222143599, ,0.12772132107465783,0.06947067464016894,0.03141777420118344,-0.004491478313833015,0.15159664396094724,-0.11401161483444829, ,1.5401201248168945
0.014611972723456042,0.023616772756997733,-0.09326543810220825, ,0.015549927587706795,0.023232341917690268,-0.09438333762810346, ,0.0015090545873423598, ,0.016858726607822557,0.0009177686423247906,-0.029314530164555788,0.05264032250478929,0.01648798184255008,-0.00025017068748147114, ,0.03382899113019468, ,0.05516190216809498, ,0.0007365484661048243, ,0.196551274381888,-0.24030827884724407,0.10461838074000002,1.6959722629028329,0.44461517023674324,-1.2958968222143599, ,0.12772132107465783,0.06947067464016894,0.03141777420118344,-0.004491478313833015,0.15159664396094724,-0.11401161483444829, ,1.5430262088775635
0.014779623373685349,0.02362012447251658,-0.09356994148166556, ,0.015602503306203646,0.02322653130690862,-0.09448383244497502, ,0.001291217896473444, ,0.016557525857345032,-0.00023340374610749946,-0.03132167559032717,0.05763365531328315,0.04347069112260895,-0.005310573890430118, ,0.03542955689267145, ,0.07218939718392141, ,0.0007408818210295792, ,0.19780235710751237,-0.23953600555982163,0.10494245324000001,1.6957625729593484,0.4462548082339285,-1.2971521583185763, ,0.12135158767067875,0.08549274014276646,0.03311603226611227,-0.0024340730432787553,0.1725448643650057,-0.1334612095013342, ,1.5459320545196533
0.014779623373685349,0.02362012447251658,-0.09356994148166556, ,0.01565518337672273,0.023220322116173815,-0.09458400540719551, ,0.0013981319280086787, ,0.016557525857345032,-0.00023340374610749946,-0.03132167559032717,0.05763365531328315,0.04347069112260895,-0.005310573890430118, ,0.03542955689267145, ,0.07218939718392141, ,0.0007459767830991846, ,0.19780235710751237,-0.23953600555982163,0.10494245324000001,1.6957625729593484,0.4462548082339285,-1.2971521583185763, ,0.12135158767067875,0.08549274014276646,0.03311603226611227,-0.0024340730432787553,0.1725448643650057,-0.1334612095013342, ,1.5486981868743896
0.014779623373685349,0.02362012447251658,-0.09356994148166556, ,0.01570796688665499,0.02321371927669022,-0.09468385839979808, ,0.0015059209015646636, ,0.016557525857345032,-0.00023340374610749946,-0.03132167559032717,0.05763365531328315,0.04347069112260895,-0.005310573890430118, ,0.03542955689267145, ,0.07218939718392141, ,0.0007518225070873806, ,0.19780235710751237,-0.23953600555982163,0.10494245324000001,1.6957625729593484,0.4462548082339285,-1.2971521583185763, ,0.12135158767067875,0.08549274014276646,0.03311603226611227,-0.0024340730432787553,0.1725448643650057,-0.1334612095013342, ,1.5514512062072754
0.014940650711340512,0.023616654214390288,-0.09387987543758629, ,0.015760852926427614,0.023206727700896636,-0.09478339330037128, ,0.0012872901570626582, ,0.017099817745846475,-0.0001478013249545266,-0.03298192518982807,-0.007739590536453986,-0.02722462588385087,-0.004919781795748617, ,0.03715148720307493, ,0.028302694003464655, ,0.000755910046400169, ,0.19892987610714916,-0.23869422767653115,0.10526782203000001,1.695552883015864,0.44748453673181743,-1.2979915619715632, ,0.11601093100057551,0.08730169416602647,0.034552736485900216,-0.008200954883792843,0.09462402090929102,-0.0748637490833812, ,1.5542171001434326
0.014940650711340512,0.023616654214390288,-0.09387987543758629, ,0.015813840589500146,0.023199352282493882,-0.09488261197907139, ,0.001393586035131811, ,0.017099817745846475,-0.0001478013249545266,-0.03298192518982807,-0.007739590536453986,-0.02722462588385087,-0.004919781795748617, ,0.03715148720307493, ,0.028302694003464655, ,0.0007607409251026815, ,0.19892987610714916,-0.23869422767653115,0.10526782203000001,1.695552883015864,0.44748453673181743,-1.2979915619715632, ,0.11601093100057551,0.08730169416602647,0.034552736485900216,-0.008200954883792843,0.09462402090929102,-0.0748637490833812, ,1.557042121887207
0.014940650711340512,0.023616654214390288,-0.09387987543758629, ,0.015866928972360167,0.02319159789647109,-0.09498151629863401, ,0.0015007587670810337, ,0.017099817745846475,-0.0001478013249545266,-0.03298192518982807,-0.007739590536453986,-0.02722462588385087,-0.004919781795748617, ,0.03715148720307493, ,0.028302694003464655, ,0.0007663049690273307, ,0.19892987610714916,-0.23869422767653115,0.10526782203000001,1.695552883015864,0.44748453673181743,-1.2979915619715632, ,0.11601093100057551,0.08730169416602647,0.034552736485900216,-0.008200954883792843,0.09462402090929102,-0.0748637490833812, ,1.55977201461792
0.014940650711340512,0.023616654214390288,-0.09387987543758629, ,0.01592011717451965,0.023183469399132125,-0.09508010811438578, ,0.0016085901016480732, ,0.020577159950794087,0.00039203922945994785,-0.04160370896654647,0.00045347825757354046,-0.013263751249320064,-0.005144271408397368, ,0.046415964992350414, ,0.013266804397746024, ,0.0007725906789722616, ,0.20023501796289309,-0.23769799513575618,0.10566967193000001,1.695552883015864,0.448577628729941,-1.2987195477208533, ,0.13576100366018712,0.10337357468243004,0.043640579506849325,-0.008200954883792843,0.12971967965762804,-0.0969208110162301, ,1.5625669956207275
0.015135913458956061,0.0236167123507999,-0.09426346203149635, ,0.015973404298510647,0.02317497162812315,-0.0951783892742572, ,0.0013166691429340905, ,0.020577159950794087,0.00039203922945994785,-0.04160370896654647,0.00045347825757354046,-0.013263751249320064,-0.005144271408397368, ,0.046415964992350414, ,0.013266804397746024, ,0.0007766208898164233, ,0.20023501796289309,-0.23769799513575618,0.10566967193000001,1.695552883015864,0.448577628729941,-1.2987195477208533, ,0.13576100366018712,0.10337357468243004,0.043640579506849325,-0.008200954883792843,0.12971967965762804,-0.0969208110162301, ,1.5659451484680176
0.015135913458956061,0.0236167123507999,-0.09426346203149635, ,0.016026789449881538,0.02316610940245824,-0.09527636161879309, ,0.0014222055485082125, ,0.020577159950794087,0.00039203922945994785,-0.04160370896654647,0.00045347825757354046,-0.013263751249320064,-0.005144271408397368, ,0.046415964992350414, ,0.013266804397746024, ,0.0007813678358362158, ,0.20023501796289309,-0.23769799513575618,0.10566967193000001,1.695552883015864,0.448577628729941,-1.2987195477208533, ,0.13576100366018712,0.10337357468243004,0.043640579506849325,-0.008200954883792843,0.12971967965762804,-0.0969208110162301, ,1.5686960220336914
0.015135913458956061,0.0236167123507999,-0.09426346203149635, ,0.016080271737192883,0.023156887522546552,-0.0953740269811659, ,0.001528596067568917, ,0.020577159950794087,0.00039203922945994785,-0.04160370896654647,0.00045347825757354046,-0.013263751249320064,-0.005144271408397368, ,0.046415964992350414, ,0.013266804397746024, ,0.0007868220565057976, ,0.20023501796289309,-0.23769799513575618,0.10566967193000001,1.695552883015864,0.448577628729941,-1.2987195477208533, ,0.13576100366018712,0.10337357468243004,0.043640579506849325,-0.008200954883792843,0.12971967965762804,-0.0969208110162301, ,1.5714781284332275
0.015354224761724832,0.023626012838444885,-0.09471244982151608, ,0.016133850272013455,0.023147310770219347,-0.09547138718718681, ,0.0011886789017339508, ,0.02089940468063959,0.0004910202077513307,-0.041677554385793104,0.046483671095853545,0.028608866704105926,-0.000748392991481618, ,0.046626652854674246, ,0.054580886597153974, ,0.0007897340626306392, ,0.20158649621588237,-0.23670948532785543,0.10611170682000001,1.6953431930723792,0.4502172667271263,-1.3000565625652105, ,0.14058806156810486,0.10106170560007538,0.044246698666666674,-0.011243030692265179,0.18016185935404463,-0.13850359668845083, ,1.5759789943695068
0.015354224761724832,0.023626012838444885,-0.09471244982151608, ,0.016187524168916268,0.02313738390875572,-0.0955684440553172, ,0.0012906867401718887, ,0.02089940468063959,0.0004910202077513307,-0.041677554385793104,0.046483671095853545,0.028608866704105926,-0.000748392991481618, ,0.046626652854674246, ,0.054580886597153974, ,0.0007933380387280584, ,0.20158649621588237,-0.23670948532785543,0.10611170682000001,1.6953431930723792,0.4502172667271263,-1.3000565625652105, ,0.14058806156810486,0.10106170560007538,0.044246698666666674,-0.011243030692265179,0.18016185935404463,-0.13850359668845083, ,1.5788919925689697
0.015354224761724832,0.023626012838444885,-0.09471244982151608, ,0.01624129254547462,0.023127111682910245,-0.09566519939668175, ,0.0013941030696971162, ,0.02089940468063959,0.0004910202077513307,-0.041677554385793104,0.046483671095853545,0.028608866704105926,-0.000748392991481618, ,0.046626652854674246, ,0.054580886597153974, ,0.0007976292175206945, ,0.20158649621588237,-0.23670948532785543,0.10611170682000001,1.6953431930723792,0.4502172667271263,-1.3000565625652105, ,0.14058806156810486,0.10106170560007538,0.044246698666666674,-0.011243030692265179,0.18016185935404463,-0.13850359668845083, ,1.5817501544952393
0.015558094424357464,0.02361494247236385,-0.09508253258053785, ,0.016295154522257892,0.023116498818939155,-0.09576165501507951, ,0.0011193350457544572, ,0.020193037396435822,-0.0024637186886124988,-0.03383096779518067,0.022960778630754946,0.005008859436711662,0.002629369743912716, ,0.0394761073439242, ,0.023499823637809874, ,0.0007999108191393737, ,0.20313104279072727,-0.23558196632821868,0.10653300107000001,1.695133503128895,0.45199354122407703,-1.3014233165731235, ,0.14850851574095583,0.11138138680571688,0.03563492510067114,-0.017957082031076876,0.16431606150405306,-0.12773699249773832, ,1.5845530033111572
0.015558094424357464,0.02361494247236385,-0.09508253258053785, ,0.016349109222827802,0.023105550024626883,-0.0958578127069955, ,0.0012191162174668673, ,0.020193037396435822,-0.0024637186886124988,-0.03383096779518067,0.022960778630754946,0.005008859436711662,0.002629369743912716, ,0.0394761073439242, ,0.023499823637809874, ,0.0008028629698318209, ,0.20313104279072727,-0.23558196632821868,0.10653300107000001,1.695133503128895,0.45199354122407703,-1.3014233165731235, ,0.14850851574095583,0.11138138680571688,0.03563492510067114,-0.017957082031076876,0.16431606150405306,-0.12773699249773832, ,1.5873210430145264
0.015558094424357464,0.02361494247236385,-0.09508253258053785, ,0.01640315577373419,0.023094269989313437,-0.09595367426161379, ,0.0013206499715382974, ,0.020193037396435822,-0.0024637186886124988,-0.03383096779518067,0.022960778630754946,0.005008859436711662,0.002629369743912716, ,0.0394761073439242, ,0.023499823637809874, ,0.0008064838579556424, ,0.20313104279072727,-0.23558196632821868,0.10653300107000001,1.695133503128895,0.45199354122407703,-1.3014233165731235, ,0.14850851574095583,0.11138138680571688,0.03563492510067114,-0.017957082031076876,0.16431606150405306,-0.12773699249773832, ,1.5901930332183838
0.015748127592922084,0.023586784131661015,-0.09539308238508576, ,0.0164572933045111,0.023082663383920128,-0.09604924146082788, ,0.0010897699149247735, ,0.01992469115598441,-0.0030844219635810053,-0.03271519867628515,-0.016086122246784528,-0.031211676059670297,0.004416850949487499, ,0.03842904111397517, ,0.03511259853471376, ,0.0008084511222401503, ,0.20453658017383614,-0.23450850645870147,0.10685966615,1.6949238131854105,0.45349654272149686,-1.3025672347736434, ,0.14356572096591644,0.11351308798860141,0.034255508645161296,-0.022290088062658243,0.1224034115197334,-0.09361459136408465, ,1.5932199954986572
0.015748127592922084,0.023586784131661015,-0.09539308238508576, ,0.016511520947672956,0.02307073486097693,-0.09614451607925398, ,0.0011890033055389972, ,0.01992469115598441,-0.0030844219635810053,-0.03271519867628515,-0.016086122246784528,-0.031211676059670297,0.004416850949487499, ,0.03842904111397517, ,0.03511259853471376, ,0.0008110756200560043, ,0.20453658017383614,-0.23450850645870147,0.10685966615,1.6949238131854105,0.45349654272149686,-1.3025672347736434, ,0.14356572096591644,0.11351308798860141,0.034255508645161296,-0.022290088062658243,0.1224034115197334,-0.09361459136408465, ,1.5960490703582764
0.015748127592922084,0.023586784131661015,-0.09539308238508576, ,0.01656583783871016,0.023058489054648974,-0.09623949988424191, ,0.0012900264793172674, ,0.01992469115598441,-0.0030844219635810053,-0.03271519867628515,-0.016086122246784528,-0.031211676059670297,0.004416850949487499, ,0.03842904111397517, ,0.03511259853471376, ,0.0008143561053934103, ,0.20453658017383614,-0.23450850645870147,0.10685966615,1.6949238131854105,0.45349654272149686,-1.3025672347736434, ,0.14356572096591644,0.11351308798860141,0.034255508645161296,-0.022290088062658243,0.1224034115197334,-0.09361459136408465, ,1.5987842082977295
0.015748127592922084,0.023586784131661015,-0.09539308238508576, ,0.016620243116085516,0.02304593058076285,-0.09633419463588681, ,0.0013924081003317986, ,0.01992469115598441,-0.0030844219635810053,-0.03271519867628515,-0.016086122246784528,-0.031211676059670297,0.004416850949487499, ,0.03842904111397517, ,0.03511259853471376, ,0.0008182884318895898, ,0.20453658017383614,-0.23450850645870147,0.10685966615,1.6949238131854105,0.45349654272149686,-1.3025672347736434, ,0.14356572096591644,0.11351308798860141,0.034255508645161296,-0.022290088062658243,0.1224034115197334,-0.09361459136408465, ,1.6015660762786865
0.01595991500275557,0.023553169323967758,-0.0957350112901068, ,0.016674735921229814,0.02303306403683433,-0.096428602087043, ,0.001123631010958271, ,0.020575821135638273,-0.003587713232083507,-0.03339637397253194,-0.02112973312378864,-0.0347921226447257,0.0015828976058731214, ,0.03938976892740873, ,0.04070523156954594, ,0.0008203515574238376, ,0.20605023581718415,-0.23330376013032245,0.10721744219000001,1.6949238131854105,0.45458963471962033,-1.3034585780032146, ,0.14758466805360929,0.11951755863787251,0.034931604210526324,-0.02100236846746359,0.12251635316621931,-0.09420884045415537, ,1.6043391227722168
0.01595991500275557,0.023553169323967758,-0.0957350112901068, ,0.016729315398538256,0.023019894002093356,-0.09652272398333285, ,0.0012234585505934577, ,0.020575821135638273,-0.003587713232083507,-0.03339637397253194,-0.02112973312378864,-0.0347921226447257,0.0015828976058731214, ,0.03938976892740873, ,0.04070523156954594, ,0.0008230569734853786, ,0.20605023581718415,-0.23330376013032245,0.10721744219000001,1.6949238131854105,0.45458963471962033,-1.3034585780032146, ,0.14758466805360929,0.11951755863787251,0.034931604210526324,-0.02100236846746359,0.12251635316621931,-0.09420884045415537, ,1.6070849895477295
0.01595991500275557,0.023553169323967758,-0.0957350112901068, ,0.016783980695366126,0.023006425037512455,-0.09661656206316124, ,0.0013248189861192836, ,0.020575821135638273,-0.003587713232083507,-0.03339637397253194,-0.02112973312378864,-0.0347921226447257,0.0015828976058731214, ,0.03938976892740873, ,0.04070523156954594, ,0.0008264020535696048, ,0.20605023581718415,-0.23330376013032245,0.10721744219000001,1.6949238131854105,0.45458963471962033,-1.3034585780032146, ,0.14758466805360929,0.11951755863787251,0.034931604210526324,-0.02100236846746359,0.12251635316621931,-0.09420884045415537, ,1.6098570823669434
0.016154023009209074,0.023514934401250465,-0.09605880068063176, ,0.016838730962024855,0.022992661685832194,-0.09671011805772578, ,0.001427347018398485, ,0.019217716853894007,-0.0039262915864808606,-0.03222928615960753,0.01428358346654575,0.0104020788899393,-0.009687109642981938, ,0.038438354119105025, ,0.01766887738300776, ,0.0008303818215486039, ,0.2074480504674188,-0.23211445926769186,0.10755577388000001,1.6947141232419258,0.4560926362170402,-1.304602496203735, ,0.1381323749031598,0.11966827434863908,0.03367613429175476,-0.009241857251601442,0.15687915671489666,-0.1260076961104761, ,1.6146891117095947
0.016154023009209074,0.023514934401250465,-0.09605880068063176, ,0.016893565351778113,0.02297860847158855,-0.09680339369102983, ,0.001178552981589662, ,0.019217716853894007,-0.0039262915864808606,-0.03222928615960753,0.01428358346654575,0.0104020788899393,-0.009687109642981938, ,0.037728812505250967, ,0.01766887738300776, ,0.0008326724212857163, ,0.2074480504674188,-0.23211445926769186,0.10755577388000001,1.6947141232419258,0.4560926362170402,-1.304602496203735, ,0.1381323749031598,0.11966827434863908,0.03367613429175476,-0.009241857251601442,0.15687915671489666,-0.1260076961104761, ,1.6174941062927246
0.016154023009209074,0.023514934401250465,-0.09605880068063176, ,0.016948483020837818,0.022964269901139086,-0.09689639067989372, ,0.0012790446077536606, ,0.019217716853894007,-0.0039262915864808606,-0.03222928615960753,0.01428358346654575,0.0104020788899393,-0.009687109642981938, ,0.037728812505250967, ,0.01766887738300776, ,0.0008355898865567486, ,0.2074480504674188,-0.23211445926769186,0.10755577388000001,1.6947141232419258,0.4560926362170402,-1.304602496203735, ,0.1381323749031598,0.11966827434863908,0.03367613429175476,-0.009241857251601442,0.15687915671489666,-0.1260076961104761, ,1.620661973953247
0.016308311801552712,0.023478930711873992,-0.09631787166409851, ,0.017003483128359923,0.022949650462690065,-0.09698911073396665, ,0.0011017997298549988, ,0.01857459758512629,-0.004683755581542953,-0.031174276556517506,0.014020696840148585,0.01820314717378175,0.007420953103219432, ,0.036589462425939676, ,0.022976184712070545, ,0.000837318521902841, ,0.20855240126843289,-0.23112594945979112,0.10782540220000002,1.6942947433549567,0.4573223647149292,-1.3056052573370027, ,0.1338461799132169,0.12260586764660306,0.0325077786122449,-0.027961509751964316,0.16448066577839937,-0.13220621704916188, ,1.6236929893493652
0.016308311801552712,0.023478930711873992,-0.09631787166409851, ,0.017058564836440637,0.022934754626323123,-0.09708155555573905, ,0.0012009247748278197, ,0.01857459758512629,-0.004683755581542953,-0.031174276556517506,0.014020696840148585,0.01820314717378175,0.007420953103219432, ,0.036589462425939676, ,0.022976184712070545, ,0.0008396643686959056, ,0.20855240126843289,-0.23112594945979112,0.10782540220000002,1.6942947433549567,0.4573223647149292,-1.3056052573370027, ,0.1338461799132169,0.12260586764660306,0.0325077786122449,-0.027961509751964316,0.16448066577839937,-0.13220621704916188, ,1.6265101432800293
0.016308311801552712,0.023478930711873992,-0.09631787166409851, ,0.017113727310112292,0.02291958684402098,-0.09717372684055399, ,0.0013015559100548436, ,0.01857459758512629,-0.004683755581542953,-0.031174276556517506,0.014020696840148585,0.01820314717378175,0.007420953103219432, ,0.036589462425939676, ,0.022976184712070545, ,0.0008426252119097449, ,0.20855240126843289,-0.23112594945979112,0.10782540220000002,1.6942947433549567,0.4573223647149292,-1.3056052573370027, ,0.1338461799132169,0.12260586764660306,0.0325077786122449,-0.027961509751964316,0.16448066577839937,-0.13220621704916188, ,1.6293401718139648
0.016308311801552712,0.023478930711873992,-0.09631787166409851, ,0.017168969717339527,0.022904151549695505,-0.09726562627661876, ,0.0014033324405979223, ,0.01857459758512629,-0.004683755581542953,-0.031174276556517506,0.014020696840148585,0.01820314717378175,0.007420953103219432, ,0.036589462425939676, ,0.022976184712070545, ,0.0008461965955319626, ,0.20855240126843289,-0.23112594945979112,0.10782540220000002,1.6942947433549567,0.4573223647149292,-1.3056052573370027, ,0.1338461799132169,0.12260586764660306,0.0325077786122449,-0.027961509751964316,0.16448066577839937,-0.13220621704916188, ,1.6323940753936768
0.016531473772288367,0.023419012793173623,-0.09669022246036552, ,0.017224291229014827,0.02288845315921387,-0.09735725554501826, ,0.001098372746181267, ,0.01859362163970144,-0.005264964433815506,-0.030327816008850345,-0.019742501014313903,-0.01565403365869377,0.02430301476373115, ,0.03596135481369404, ,0.025195028459975524, ,0.0008477926471183506, ,0.21014328424052314,-0.2296354620150658,0.10821169662,1.6936656735245033,0.45909863921187993,-1.307053690085056, ,0.13216844228199273,0.12486439678746157,0.03141777420118344,-0.0476472782399218,0.13245865497496873,-0.10609441440501353, ,1.6351940631866455
0.016531473772288367,0.023419012793173623,-0.09669022246036552, ,0.017279691018955153,0.02287249607042453,-0.09744861631972501, ,0.0011973599385181669, ,0.01859362163970144,-0.005264964433815506,-0.030327816008850345,-0.019742501014313903,-0.01565403365869377,0.02430301476373115, ,0.03596135481369404, ,0.025195028459975524, ,0.0008499911835422488, ,0.21014328424052314,-0.2296354620150658,0.10821169662,1.6936656735245033,0.45909863921187993,-1.307053690085056, ,0.13216844228199273,0.12486439678746157,0.03141777420118344,-0.0476472782399218,0.13245865497496873,-0.10609441440501353, ,1.6379601955413818
0.016531473772288367,0.023419012793173623,-0.09669022246036552, ,0.017335168263897457,0.02285628466318479,-0.09753971026761199, ,0.001297773986017576, ,0.01859362163970144,-0.005264964433815506,-0.030327816008850345,-0.019742501014313903,-0.01565403365869377,0.02430301476373115, ,0.03596135481369404, ,0.025195028459975524, ,0.0008527898260577196, ,0.21014328424052314,-0.2296354620150658,0.10821169662,1.6936656735245033,0.45909863921187993,-1.307053690085056, ,0.13216844228199273,0.12486439678746157,0.03141777420118344,-0.0476472782399218,0.13245865497496873,-0.10609441440501353, ,1.6406981945037842
0.016721186291002593,0.02336281062902059,-0.09699962041912776, ,0.017390722143494786,0.02283982329938748,-0.09763053904846489, ,0.0010582307506276064, ,0.01842594867056574,-0.005600326022349612,-0.02960461737442182,-0.010441408044149683,0.001574077500098489,-0.06488362985320885, ,0.03531731311768844, ,0.01055831338636083, ,0.0008540658566451102, ,0.2114870397606382,-0.22833032015932186,0.10853188025,1.6934559835810188,0.4604650042095343,-1.3081678691220202, ,0.13017413108157858,0.12928738631944245,0.030632329846153848,0.04450837883379024,0.12650836430427514,-0.1012013367546739, ,1.6435701847076416
