NicholasDascanio/dvrk_moveit_final/test/execution/third_experiment_notsharpbends/thirdexp_400vel4.0/thirdexp_400vel4.0_23.csv
Current Position (x),Current Position (y),Current Position (z), ,Planned Position (x),Planned Position (y),Planned Position (z), ,Position Error,,Cartesian linear Velocity(x),Cartesian linear Velocity(y),Cartesian linear Velocity(z),Cartesian Angular Velocity(x),Cartesian Angular Velocity(y),Cartesian Angular Velocity(z), ,Total Linear Velocity, ,Total Angular Velocity, ,MSE, ,Joint 1 Position,Joint 2 Position,Joint 3 Position,Joint 4 Position,Joint 5 Position,Joint 6 Position, ,Joint 1 Velocity,Joint 2 Velocity,Joint 3 Velocity,Joint 4 Velocity,Joint 5 Velocity,Joint 6 Velocity, ,Time Stamp
0.009966292451256884,0.020158692282931504,-0.07949523655735617, ,0.010118832637260227,0.020126874657495623,-0.07961369189753795, ,0.0001957358864692225, ,-5.1821100307271574e-05,1.1640663014275223e-05,-3.148173481660539e-05,0.22504185067910223,-0.0003456517634331907,-0.06276503675650644, ,6.174164801437747e-05, ,0.2250421161298856, ,1.6311323872435208e-05, ,0.17218605216370966,-0.2412967886551448,0.08987048941,1.6888428048243591,0.43423079625456973,-1.2825283371249983, ,-0.0006984768376100342,-0.00012154038566876994,2.6910853737152125e-05,-0.0012234727703648728,0.0,-0.2340353404848341, ,0.02702498435974121
0.009990767497680877,0.020164345701403866,-0.07952238238220236, ,0.010130303464615895,0.02016937889673079,-0.07973004895672108, ,0.0002502419335283921, ,0.0013796002237462077,0.000270290610056834,-0.0013395647368393722,0.2040215176830537,-0.13841652462917328,-0.0976129930523005, ,0.0019418515585463833, ,0.2465439392240475, ,2.0271719090800664e-05, ,0.17217832943083544,-0.24131223412089325,0.08989252634000001,1.6886331148808746,0.4317713392587918,-1.2886906888725187, ,-0.0006114701185521044,-0.0003155407244328553,0.0010313418627431415,0.0009141624373733071,-0.14355473849289177,-0.2226802396305031, ,0.05526995658874512
0.010046438268009774,0.020189850910884315,-0.07962224940813098, ,0.010142323381022255,0.020211137298387395,-0.07984606638540781, ,0.0002444199347591865, ,0.0024235939913236845,0.001468376320309473,-0.005888088632061797,0.20317804835941072,-0.16571554276938558,-0.10483036968877175, ,0.0065344873243309, ,0.26218878779119015, ,2.1574929836150036e-05, ,0.17217060669796122,-0.24133540231951592,0.08998585922,1.6890524947678438,0.42712569826676683,-1.2940504990425834, ,-0.000416372771947481,-0.0012028405549631158,0.005742181514059121,0.0021367421765512255,-0.17160813851535545,-0.22267804247241796, ,0.08506393432617188
0.01009595420270365,0.02022670317186049,-0.07976928901299501, ,0.01015488865630974,0.02025215534938029,-0.0799617462238966, ,0.0002028813968562998, ,0.0007416344084318719,0.0011138163332945524,-0.0043790915842400685,-0.17323702031884514,0.0010479662194387614,0.048725691174521496, ,0.004578979310200692, ,0.17324019002684884, ,2.1268551228883357e-05, ,0.17215516123221278,-0.2413508477852644,0.09013233999,1.6892621847113283,0.42411969527192717,-1.294621418546463, ,-0.0002357914631536532,-0.00029633543071554645,0.004579876802760207,-0.001290224284788835,0.0,0.17969344222737266, ,0.11700296401977539
0.010092737064086837,0.020251599267582635,-0.07985358325328007, ,0.010167995572766904,0.020292438518950424,-0.08007709050420628, ,0.00023934740190279918, ,2.7108999552389448e-05,0.0008190443685898967,-0.002791866369221413,-0.00939682177399014,0.04504403856386987,0.016932458309098734, ,0.0029096539999053338, ,0.046013755219780884, ,2.1781279875305772e-05, ,0.17213199303359009,-0.24138173871676127,0.09022567287000001,1.6892621847113283,0.4260326062686433,-1.290382078648233, ,-0.0008987068235379452,-0.001153105437496679,0.0030479930195177955,-0.001290224284788835,0.046019297740725336,0.014321241078947056, ,0.1471269130706787
0.01010716319755882,0.020286015318367556,-0.07997579978783269, ,0.01018164042512302,0.020331992258686538,-0.08019210125008736, ,0.00023333893597137208, ,0.0006764192827066139,0.0013264040255936082,-0.004947916563184698,0.024709631327093636,0.001789402800639336,-0.005123183740993411, ,0.005167085155226855, ,0.02477433833098733, ,2.20317014433431e-05, ,0.17206248843772207,-0.24142807511400663,0.09035400558000001,1.6892621847113283,0.42616924276840873,-1.291310283953335, ,-0.002237430841130202,-0.0011743870289266716,0.005171692051948053,-0.001290224284788835,0.0,-0.024655805926966794, ,0.17788386344909668
0.010126226895615067,0.020318565988328572,-0.08009348046892942, ,0.010195819520531337,0.02037082200254913,-0.08030678047703688, ,0.00023037082698032298, ,0.0007034666608020731,0.00106792113030404,-0.0037269785660635516,-0.01392922852821265,-0.0009082383327410979,0.005739123897759106, ,0.003940265234131708, ,0.013958807382478686, ,2.2171337728716597e-05, ,0.17203159750622518,-0.24146668877837774,0.09047715313000002,1.6892621847113283,0.4260326062686433,-1.2915255810102009, ,0.0006899661157985506,-0.0016292720330110433,0.003935955404002965,-0.001290224284788835,0.0,0.01589240383160022, ,0.20765185356140137
0.010140071493929634,0.02034400898176739,-0.0801768022278755, ,0.010210529178551687,0.020408933166893652,-0.08042113019231184, ,0.00026244159224904644, ,0.0004914018072768259,0.0009337526617428165,-0.0033240856189318954,0.0017536208217227413,0.0007314712331587365,0.0012611634503665267, ,0.0034875370924904252, ,0.0019000620372694546, ,2.2668023277032212e-05, ,0.17202387477335096,-0.2415207479084973,0.09056530085,1.6892621847113283,0.4260326062686433,-1.2914439022700603, ,-0.0010441829426615559,-0.001286290574813132,0.0034893343964950713,-0.001290224284788835,0.0,-0.0007269516518988762, ,0.23488783836364746
0.010155658142059033,0.02038000520441452,-0.08030299021432187, ,0.010225765731133546,0.020446331150493168,-0.08053515239494206, ,0.0002514229171722257, ,0.0004771422555869344,0.0009717435768780956,-0.003643141969230514,-0.002008618148112997,0.00164756772287215,0.002109345501131997, ,0.003800583339336109, ,0.0025978886859539287, ,2.318902006471283e-05, ,0.17194664744460872,-0.2415748070386169,0.09069752243000001,1.6892621847113283,0.4260326062686433,-1.291280544789779, ,-0.0018820329247103303,-0.0008197601633439342,0.003804349539049439,-0.001290224284788835,6.116210335062098e-05,0.002704028233914198, ,0.26134705543518066
0.0101678258397041,0.02040018190581527,-0.0803730542894293, ,0.010241525522598955,0.02048302133456259,-0.08064884907574421, ,0.0002972486810273048, ,0.0006140601265828249,0.0011068675614900655,-0.003904643150875608,-0.0013475727167362968,0.0003984386576099435,0.00222869274797984, ,0.004104688023884115, ,0.0014052418593055204, ,2.4074495069161722e-05, ,0.17194664744460872,-0.24160569797011378,0.09077141096,1.6892621847113283,0.4260326062686433,-1.2913622235299198, ,-0.0007821494671509996,-0.0015974576780415884,0.004105363793814433,-0.001290224284788835,-9.412037085126852e-05,0.0028009360062997285, ,0.28583502769470215
0.010194461410907933,0.02044767810639843,-0.08054472972572774, ,0.010257804909625187,0.020519009082780402,-0.08076222221733535, ,0.00023749419135430871, ,0.0007867779659961041,0.00148623020184916,-0.0053011619100593104,-0.002019280870302326,0.0011605602475724332,0.0025493571800160758, ,0.005561494167697134, ,0.0023290322313942657, ,2.4265538516242943e-05, ,0.17190803378023758,-0.24165975710023335,0.09095159527,1.6892621847113283,0.4260326062686433,-1.2911988660496385, ,-0.0016362871827648381,-0.001965805274437715,0.0055636784910932605,-0.001290224284788835,-0.0001956083133502315,0.0038663693947997508, ,0.31209301948547363
0.010202946392732636,0.02046196029473434,-0.08059435371522616, ,0.010274600261228,0.020554299741313554,-0.08087527379414622, ,0.0003042645904559985, ,0.0006342553483568104,0.0011138641010353153,-0.004023213410353175,-0.00035091361918472656,0.0004712679862454037,0.0018581991029968624, ,0.004222466012621068, ,0.0005875651699420898, ,2.4993290582427792e-05, ,0.17188486558161492,-0.2416983707646045,0.09105400218000001,1.6892621847113283,0.4258959697688779,-1.2910057694058015, ,-0.000771694284171661,-0.0013238341936431005,0.004224028512330948,-0.001290224284788835,0.0,0.001494816288377372, ,0.3378770351409912
0.010223635160770008,0.02049800721598013,-0.08071719158286508, ,0.010291907958744361,0.0205888986388395,-0.08098800577243474, ,0.0002937052109938107, ,0.000673085109995252,0.001133126174880931,-0.004141473950182776,-0.0026794315945105713,0.0005700005029746348,0.002539003619174119, ,0.004346127583670334, ,0.002739389169996753, ,2.5534751966301496e-05, ,0.17186942011586645,-0.24176015262759828,0.09117326086000001,1.6892621847113283,0.42575933326911247,-1.2908126727619647, ,-0.0005117888915563334,-0.0011887973685686527,0.004348569893529894,-0.001290224284788835,0.00035859689627076256,0.003800426346527383, ,0.36266088485717773
0.01024344193315442,0.020534226207392557,-0.08084730881797685, ,0.010309724395815234,0.020622811086569756,-0.08110042011029991, ,0.0002762353561307369, ,0.000761473160034296,0.0014971026118642873,-0.005383604019775296,-0.0010601440317275501,0.0030875832691358253,-0.001339620197023648, ,0.005639534541577364, ,0.0032645170070763484, ,2.5876094528316375e-05, ,0.17183852918436957,-0.2417987662919694,0.09126918632000001,1.6890524947678438,0.42575933326911247,-1.2908126727619647, ,-0.0020703039573701783,-0.001666475879652357,0.005644511523742028,0.002711326001282855,0.00036317518446248,0.0032983595671419097, ,0.3910238742828369
0.010268706648832513,0.020576022128727434,-0.08099233731410856, ,0.010328045978368571,0.020656042378273027,-0.08121251875769459, ,0.0002416697425553217, ,0.0006974413364055351,0.001215227039875439,-0.0043893896329541,0.0030525825615651363,0.0013775486672577301,-0.0012624617896412516, ,0.004607596176538965, ,0.0033490146306729605, ,2.59366799890093e-05, ,0.17183852918436957,-0.24185282542208897,0.09142214854000001,1.6892621847113283,0.42575933326911247,-1.2906493152816836, ,-0.0007474144970071919,-0.0013074184925841734,0.004610365128798843,0.0012070854919735677,0.00036297001555993924,-0.001593892589647271, ,0.4163198471069336
0.01028032375587495,0.020599672302951053,-0.0810732234584737, ,0.010346869124602438,0.02068859779029908,-0.08132430365644, ,0.0002745492564367205, ,0.0006408228213559853,0.0011708056134574337,-0.003793192672469863,0.003278776989647875,7.167178595432708e-07,-0.001013293331443049, ,0.004021162807367185, ,0.0032787769482306834, ,2.620368736911084e-05, ,0.17182308371862112,-0.2418914390864601,0.09150770368000001,1.6892621847113283,0.4258959697688779,-1.2905973757050988, ,-0.00027425498617781246,-0.002508202893389644,0.004015329347113688,0.0011664806873327054,-0.0005696496145260583,-0.0006815993833447788, ,0.441072940826416
0.010300081890734558,0.02063402004157138,-0.08119391848447206, ,0.010366190264967436,0.020720482581600735,-0.08143577674023804, ,0.0002652197274981666, ,0.0006488010803380799,0.0010134393873276702,-0.003812244166416705,0.0124916436000231,-0.0005439738368869016,-0.002741161485373106, ,0.003997650287107808, ,0.012503482177378268, ,2.654683692803232e-05, ,0.1718153609857469,-0.24191460728508277,0.09159585140000001,1.6894718746548125,0.4258959697688779,-1.2904340182248177, ,-0.00020636723256280658,-0.0007131959585184713,0.0039961895434019075,-0.000597235984251801,-0.0005566211161451159,-0.012376620252718361, ,0.46334099769592285
0.010312749577020008,0.020652975402037446,-0.08126692179167537, ,0.010386005842150062,0.020751701993758184,-0.08154693993468612, ,0.00030581625317956286, ,0.0008428380151224978,0.001408339421761768,-0.005296965429778251,-0.004761312483746262,0.00034711432584539535,0.0021428051998920172, ,0.005545415999804685, ,0.004773948130540232, ,2.7096493150122344e-05, ,0.17180763825287268,-0.24193777548370543,0.09171122121000001,1.6894718746548125,0.4258959697688779,-1.2901073032642554, ,-0.0009691914239439713,-0.0009980998160481454,0.005546243565459611,-0.0005860998952520489,-0.0005340009322367061,0.005816586746550107, ,0.48586583137512207
0.010335895334608287,0.020689981502873142,-0.08140401252294317, ,0.010406312311055215,0.020782261251001476,-0.08165779515728941, ,0.00027906939635558676, ,0.0008853191710901737,0.0013427982895397822,-0.00502586609764762,0.008841885514081906,-0.0007823049203164897,-0.0016358096224059785, ,0.005276952464498281, ,0.008876425926340548, ,2.744647883076621e-05, ,0.17179991551999843,-0.24196866641520234,0.09185510940000001,1.6894718746548125,0.4258959697688779,-1.2900256245241148, ,0.00011135094850418983,-0.0009880396745069896,0.005274440900662252,-0.0005569078382277775,-0.0005086173727571711,-0.008298713865518545, ,0.5099730491638184
0.010355822877022733,0.02072077050393696,-0.08151885932024353, ,0.0104271061387895,0.02081216556023473,-0.08176834431747505, ,0.0002750947537983907, ,0.0007869319908690137,0.0011779730323744355,-0.004459374988856844,0.003939521643783765,-0.0007273134237340262,-0.0004174864790758059, ,0.004678985757030734, ,0.004006097082536414, ,2.77449891702945e-05, ,0.17179991551999843,-0.241991834613825,0.09197566437000002,1.6894718746548125,0.4258959697688779,-1.2899439457839743, ,0.00011227409332480184,-0.0007211733643018934,0.004676691579565473,-0.0005316797976410995,-0.0004853348901241266,-0.003479554520530768, ,0.53153395652771
0.0103797809056729,0.02075623864085592,-0.0816495062953882, ,0.010448383804643557,0.020841420111057437,-0.08187858931660583, ,0.00025385285348616265, ,0.0006980780541015042,0.0010890859090412668,-0.004153617418161699,0.0058537138385968464,-0.00027910613672062397,-0.001022509835417527, ,0.004350397538541351, ,0.005860363871246468, ,2.790938576887082e-05, ,0.1718153609857469,-0.24202272554532192,0.09211307111000001,1.6894718746548125,0.4258959697688779,-1.2898622670438336, ,-0.0003151605043669206,-0.0005889684827458248,0.004349757378481704,-0.0005035296136033027,-0.0004584036838876388,-0.005593494587038423, ,0.5594949722290039
0.010392907691079294,0.020777689991179987,-0.08173258723682734, ,0.010470141800075567,0.020870030075790084,-0.08198853204799272, ,0.0002828419084590001, ,0.0007760291019727612,0.0011064162936190495,-0.004201781092079601,0.0015757958441324324,-0.0010692958486424773,0.00016192615821734093, ,0.004413767384859788, ,0.001904343678179782, ,2.8204271027821483e-05, ,0.17179991551999843,-0.24203044827819614,0.09219992254,1.6894718746548125,0.4258959697688779,-1.2899439457839743, ,0.0005206359403959148,-0.0006224223562537182,0.004409969966777409,-0.00048635721428562324,-0.0004416582597903949,-0.0011170934361317787, ,0.5814540386199951
0.010408558993519678,0.020801643189324398,-0.08182278912532287, ,0.010492376628693753,0.020898000609495673,-0.0820981743969098, ,0.00030355756652610156, ,0.0008861659064873224,0.0012541497713841117,-0.00483696893871591,0.0012572588685799725,-0.001048947928908214,0.0001806096397130876, ,0.005074884252570282, ,0.0016373725820648583, ,2.8575334829266862e-05, ,0.17179991551999843,-0.24204589374394458,0.09229455171,1.6894718746548125,0.4258959697688779,-1.2899439457839743, ,0.0005206359403959148,-0.0004894762663965953,0.005071254861509074,-0.00047017929654265224,-0.00042573963741453935,-0.000918487968139745, ,0.6041579246520996
0.010426806720436315,0.020827758669497324,-0.08192422798729179, ,0.010515084806239243,0.02092533685000314,-0.08220751824060597, ,0.0003123585909922559, ,0.0009438091835199488,0.0013607053352127473,-0.005222549403149875,0.0012307388254706754,-0.0009197042711429952,0.0002290821458586694, ,0.005478806170372716, ,0.0015364146958698791, ,2.8959536262102278e-05, ,0.17180763825287268,-0.2420536164768188,0.09240084749000001,1.6894718746548125,0.4258959697688779,-1.2899439457839743, ,0.00041030796643855483,-0.0006042111631619624,0.005475700075627365,-0.0004550266387486239,-0.0004107565536250044,-0.0007699126143311678, ,0.6264519691467285
0.01044914420183066,0.020859779631535937,-0.08204922553080819, ,0.010538262860569282,0.02095204391793149,-0.08231656544832039, ,0.0002965222847862871, ,0.0010012958290601583,0.0014452532887903884,-0.005652114520662001,0.0008531692442623903,-0.0006962223322605257,0.0002078451135191123, ,0.0059192692928038805, ,0.00110118914220109, ,2.937644973299815e-05, ,0.1718153609857469,-0.24206133920969303,0.09253177278000001,1.6894718746548125,0.4258959697688779,-1.2899439457839743, ,0.00020734814063613603,-0.0003447848736662046,0.005917091946508173,-0.00043847750924787764,-0.00039434859519393975,-0.0006392459943826818, ,0.6463789939880371
0.010467804308342784,0.02088605325437665,-0.08215730338349969, ,0.010561907331639716,0.02097812691671204,-0.08242531788129429, ,0.00029860460364428875, ,0.0009383421396099075,0.0013509167903058754,-0.005296888491792428,0.0007647322761839439,-0.0005608290440069805,-0.00019873666101470324, ,0.005546394309799935, ,0.000948335647935673, ,2.977718014469342e-05, ,0.1718153609857469,-0.24206133920969303,0.09264455001,1.6892621847113283,0.4258959697688779,-1.2899439457839743, ,0.00019041541852588898,-0.0002649330316218508,0.005544313094326489,0.0,-0.00038110024379906453,-0.0005524809558266085, ,0.6658658981323242
0.010487864865593733,0.020914779020242906,-0.08226861849334721, ,0.0105860147714882,0.021003590932611938,-0.08253377739278563, ,0.0002963616064154197, ,0.001063755400396181,0.0015452388009232557,-0.006027709491272386,0.0013197665435213046,0.00045420174898012905,-0.004036768065459901, ,0.006312893173096308, ,0.0013957345739613663, ,3.014505188277947e-05, ,0.17182308371862112,-0.24206133920969303,0.09276121611,1.6894718746548125,0.4258959697688779,-1.2899439457839743, ,0.00015244639863316604,-0.00021587122294532786,0.0063109395879556275,0.004025786552544859,-0.0003689051673776373,-0.0004842840973890036, ,0.685370922088623
0.010509493759551874,0.020946439821138328,-0.08238841214073435, ,0.010610581744216861,0.021028441034757536,-0.0826419458280817, ,0.00028499528118653675, ,0.0010015261131669645,0.001424235494049506,-0.005689419408140924,-0.00019666346523320789,-0.0016016113635092574,0.00420583746179561, ,0.005949873486016017, ,0.0016136385955338257, ,3.044578325679199e-05, ,0.17183080645149534,-0.24206133920969303,0.09288695624000001,1.6898912545417817,0.4258959697688779,-1.2899439457839743, ,0.00015726133599732714,-0.00018149176203415004,0.005948025212845408,-0.0045784645860533,-0.00035715511820952437,-0.0004272551137611543, ,0.7056159973144531
0.010531126982965796,0.02097501957358164,-0.08250273818326159, ,0.010635604825975371,0.02105268227515761,-0.08274982502451339, ,0.00027928304999731533, ,0.0009982575983694109,0.001396585387923284,-0.005584592678354032,3.249377602295071e-05,-0.0014703450670392874,0.004230121471776384, ,0.005842486145605187, ,0.0014707022233188866, ,3.070729538011124e-05, ,0.17183852918436957,-0.24206133920969303,0.09300621492000001,1.6898912545417817,0.42575933326911247,-1.2898325278802778, ,0.0003688438554249394,-0.00015650001120888607,0.0058411483388338846,-0.0045784645860533,0.0,-0.0006622495361314342, ,0.7262468338012695
0.01054916837547209,0.02100083124141241,-0.08260293375453695, ,0.010661080604943555,0.021076319688726163,-0.08285741681146813, ,0.00028807026755316894, ,0.000934837930392315,0.0012933205188021691,-0.005227648111875329,-0.00016737058152018624,-0.001451730145073904,0.004215943830014486, ,0.005465794059608228, ,0.0014613450726907837, ,3.098852307200505e-05, ,0.1718462519172438,-0.24206906194256725,0.09311121441,1.6898912545417817,0.42575933326911247,-1.2898325278802778, ,0.00035048308836867063,0.0,0.0054644293379073755,-0.0045784645860533,0.0,-0.0006149048300423692, ,0.7456090450286865
0.010569398042177382,0.021030040869907278,-0.08271948969712153, ,0.010687005681314572,0.02109935829330612,-0.08296472301040368, ,0.00028067034028093874, ,0.0010042253860944295,0.0013934501251642963,-0.005627190802101113,-0.0002129191772969222,-0.0014514444092833406,0.004228511884092357, ,0.005883489457851375, ,0.0014669764166387502, ,3.122728965918447e-05, ,0.1718462519172438,-0.24206906194256725,0.09323306567,1.6898912545417817,0.42575933326911247,-1.2898325278802778, ,0.00035048308836867063,0.0,0.005882131285081241,-0.0045784645860533,0.0,-0.0005676532458839648, ,0.7672438621520996
0.010588136988247879,0.021054566712050516,-0.0828199228781919, ,0.010713376667277634,0.021121803089692425,-0.08307174543486111, ,0.0002891717616388204, ,0.0007994329272089604,0.0010537670913399507,-0.00436663050342742,-0.0005166807859402746,-0.001615228817284598,0.004191446116034152, ,0.0045625628808115895, ,0.0016958542328805511, ,3.148488357898202e-05, ,0.17186169738299223,-0.24206133920969303,0.09333806516000001,1.6898912545417817,0.42575933326911247,-1.2898325278802778, ,0.0005145184011143409,0.00027291183668982466,0.004560209424563414,-0.0045784645860533,0.0,-0.0005315484558643686, ,0.7859628200531006
0.010595664211535533,0.021064510104359117,-0.0828595196412177, ,0.010740190187000814,0.021143659061654854,-0.08317848589047916, ,0.0003590150180606918, ,0.0008942443479222492,0.0011883748644756396,-0.004903618981392818,-0.0005302594462560339,-0.0016333501825994325,0.004195179564876531, ,0.005124196218626324, ,0.0017172667422803284, ,3.2092403995363446e-05, ,0.17186942011586645,-0.24206133920969303,0.09337954644,1.6898912545417817,0.42575933326911247,-1.2898325278802778, ,0.0005327247909097766,0.00027291183668982466,0.005121804347266882,-0.0045784645860533,0.0,-0.0005174957807423503, ,0.803292989730835
0.010616952883769782,0.021091543702198127,-0.0829670677298603, ,0.010767442876614144,0.021164931175961937,-0.0832849461750069, ,0.00035927658585071517, ,0.0011109265477236667,0.0013971249714539687,-0.005727517209452038,-0.0005614570074668914,-0.002498892988015693,0.004203733842517728, ,0.005999214062264051, ,0.0025611899525849694, ,3.2675348617316365e-05, ,0.17190031104736336,-0.24206133920969303,0.09349232367000002,1.6898912545417817,0.42575933326911247,-1.2898325278802778, ,0.0013984625954875569,0.00027291183668982466,0.005992780857787812,-0.0045784645860533,0.0,-0.0004852667115788636, ,0.819929838180542
0.010642891043127514,0.02112632811916961,-0.0831079230401542, ,0.010795131384192283,0.02118562438240355,-0.08339112807831763, ,0.00032695299650282035, ,0.001443494652236151,0.001772134691661526,-0.007281154880835123,0.00019022086113897524,-0.002266993053620085,0.004219953831656278, ,0.007631471324399627, ,0.002274955168055927, ,3.3123639387175686e-05, ,0.17193120197886025,-0.2420536164768188,0.09364010073000001,1.6898912545417817,0.4258959697688779,-1.2899439457839743, ,0.0022432332094110908,0.0004667842355263899,0.007625089286740067,-0.0045784645860533,0.0011224114119694122,-0.0013744782141385569, ,0.8360919952392578
0.01064977728667178,0.021135339036597027,-0.08314379915231378, ,0.010823252369737461,0.021205743613814425,-0.08349703338242218, ,0.000399780977859226, ,0.0013750089701975415,0.001755643742640444,-0.007222721863673907,0.00018434867836710324,-0.0015789060932093792,0.0042215668425559846, ,0.00755914318816553, ,0.001589625499911199, ,3.379826737890781e-05, ,0.1719389247117345,-0.2420536164768188,0.09367769314,1.6898912545417817,0.4258959697688779,-1.2899439457839743, ,0.001555182702180131,0.0004667842355263899,0.00755636220113852,-0.0045784645860533,0.0011224114119694122,-0.0013684202239537626, ,0.8531758785247803
0.010684908037063241,0.02117630108390163,-0.0833120110276977, ,0.010851802505162446,0.021225293786097537,-0.08360266386148227, ,0.00033872277475477624, ,0.0013626319868091233,0.0015393245460028392,-0.006211237166115813,0.0005118434119065682,-0.003487333503370519,0.004291155082409041, ,0.006542610574009477, ,0.003524694227502688, ,3.4245415966017444e-05, ,0.17200842930760252,-0.24203817101107036,0.09385398858,1.6898912545417817,0.4258959697688779,-1.2899439457839743, ,0.0034638493906929677,0.00010557793401884662,0.006528201442622951,-0.0045784645860533,0.0011224114119694122,-0.0013392827927899914, ,0.8692939281463623
0.010710364988847705,0.021203277130328706,-0.08342442323600968, ,0.01088077847427314,0.021244279798246318,-0.08370802128182482, ,0.00033339140118091373, ,0.001360027539681866,0.0014665672448877817,-0.00615315921717748,-0.0001710402122354585,-0.0035867507826397803,0.004183088762672777, ,0.006470074400221919, ,0.0035908254079693403, ,3.4658057596291024e-05, ,0.17207793390347054,-0.24202272554532192,0.09397195097000001,1.6898912545417817,0.4258959697688779,-1.2899439457839743, ,0.0035392020542571703,0.0007588853655087222,0.006454137568881686,-0.0045784645860533,0.0010971410862032293,-0.0013009019921903266, ,0.8888108730316162
0.010732335669665777,0.02122844240588235,-0.08352427678863139, ,0.010910176972751932,0.021262706532369887,-0.08381310740195395, ,0.0003409174132244108, ,0.0014036054386023231,0.0015920600555283052,-0.006659015802925934,-0.00020150824182946198,-0.003070260296499517,0.004126716430657422, ,0.006989081120669593, ,0.0030768637874389352, ,3.507884578504629e-05, ,0.17213199303359009,-0.24202272554532192,0.09407695046,1.6898912545417817,0.4258959697688779,-1.2899439457839743, ,0.003007919481437169,0.0007588853655087222,0.006977140394218134,-0.004516782041568611,0.0010662128037611704,-0.001261338038203627, ,0.905987024307251
0.01075914361721562,0.021256626667331153,-0.0836442856216854, ,0.01093999470814007,0.02128057885371397,-0.08391792397256578, ,0.00032887500877023027, ,0.0013054665648202127,0.001379135804952952,-0.0057983874032114125,-0.00019584219539983488,-0.0036160556612166096,0.003820060237596104, ,0.006101438764593766, ,0.003621354188154956, ,3.5446553654797693e-05, ,0.1722014976294581,-0.24199955734669923,0.09420269059000001,1.6898912545417817,0.4258959697688779,-1.2899439457839743, ,0.003595315593906927,0.0007575786742023265,0.006084343590527121,-0.004192668473904659,0.0010283926801529326,-0.0012132379078483018, ,0.9224488735198975
0.010776328501951767,0.021274281531696103,-0.08371924720715747, ,0.01097022839982077,0.021297901610685493,-0.08402247273656133, ,0.00036069488519706696, ,0.0015165708849600719,0.0013046242949957924,-0.005741492206000588,-0.0013272462203443157,-0.006556180079777658,0.003500412011596777, ,0.006080029979512218, ,0.00668917584824645, ,3.600759988392026e-05, ,0.1722632794924519,-0.2419841118809508,0.09428176428000001,1.6898912545417817,0.4260326062686433,-1.2900553636876708, ,0.0061222011514751795,0.0015093291967855549,0.0060359270632815475,-0.004009496697856439,0.0005515875034299074,-0.0008142542017005984, ,0.938835859298706
0.010808346287092253,0.02130432009367401,-0.08384619099672512, ,0.011000874779002029,0.021314679634875437,-0.08412675542905963, ,0.0003404275855187765, ,0.0016522496577542091,0.0015878136652899284,-0.006805268547463166,-0.0010492600098107225,-0.005897239583026632,0.0032733740582219814, ,0.007180721493716475, ,0.005989855313115393, ,3.649070104686958e-05, ,0.17237912048556528,-0.24196094368232812,0.09441528215000002,1.6898912545417817,0.4260326062686433,-1.2900553636876708, ,0.00552544710973253,0.0013133447935354857,0.00714616936742934,-0.0037492267737147767,0.0005515875034299074,-0.0008577902192882891, ,0.9524388313293457
0.010822248881993086,0.02131758156055728,-0.0839070136434743, ,0.011031930588699642,0.02133091774108212,-0.08423077377741207, ,0.00038595970795637203, ,0.0014626196610241303,0.0014111342730121804,-0.006711693382285391,-0.002664943735469612,-0.0038434469215358055,0.002891895045943631, ,0.007012658858599745, ,0.004676964371512934, ,3.70945770193385e-05, ,0.1724177341499364,-0.24193777548370543,0.09447880036,1.6898912545417817,0.4260326062686433,-1.2900553636876708, ,0.0034972268752475324,0.002960991442875987,0.006989386362439668,-0.0036430826392323187,0.0005515875034299074,-0.0008473957265829023, ,0.9666178226470947
0.010858656324318618,0.021355029885432364,-0.08406651756515966, ,0.011063392583719876,0.02134662072733454,-0.08433452950121534, ,0.00033736930465269827, ,0.001998605459139293,0.001968222272414737,-0.008382273401241704,-0.0012617799397893893,-0.006621965621110559,0.002944918849969629, ,0.008839164557134061, ,0.006741103464704468, ,3.753871859698763e-05, ,0.17251812967730132,-0.24190688455220855,0.09464602177,1.6898912545417817,0.4260326062686433,-1.2900553636876708, ,0.006329990567966815,0.0015071763175769273,0.008800448353591162,-0.003418802414632275,0.0005515875034299074,-0.0007787721839573084, ,0.9824478626251221
0.010876814476771423,0.021371672318952026,-0.08414295332086719, ,0.01109525753064239,0.02136179337491496,-0.0844380243123249, ,0.0003672626462350905, ,0.0019425121713255008,0.0015599653819201149,-0.007362746589384961,-0.0026249174779671472,-0.007652872133846937,0.002570289669254701, ,0.007772829785093506, ,0.00809052668409404, ,3.8056208663990955e-05, ,0.17258763427316934,-0.24187599362071163,0.09472639175000001,1.6898912545417817,0.42616924276840873,-1.290166781591367, ,0.007769328684742711,0.0032525172203155643,0.007713710179176756,-0.0033229883409066283,0.0009533379078632225,-0.0011002440433060508, ,0.996027946472168
0.01089464027465705,0.02138678433093609,-0.08421087653213251, ,0.011127522207803204,0.021376440448383098,-0.08454125991486854, ,0.00040434412358813913, ,0.0016557022621604255,0.0013459698240668911,-0.006242026174682971,-0.001816604822081671,-0.006556223897067379,0.00260316347410082, ,0.0065966563889328905, ,0.006803243005510314, ,3.8664342414752844e-05, ,0.17265713886903736,-0.24185282542208897,0.09479120625000001,1.6898912545417817,0.42616924276840873,-1.290166781591367, ,0.0066952777265242595,0.002480413509105909,0.006520184821940238,-0.0032355982500548385,0.0009533379078632225,-0.0011342464451609576, ,1.0115928649902344
0.010927288121020751,0.021411588061653726,-0.08433588193386564, ,0.011160183405277354,0.021390566695598245,-0.08464423800525965, ,0.00038699557881886854, ,0.001663048617466974,0.0013370270125258271,-0.006186883228738978,-0.00022968588304254401,-0.005144856569326561,0.0025146503346840012, ,0.006544531764941949, ,0.00514998016102811, ,3.92068462431705e-05, ,0.1727961480607734,-0.24177559809334673,0.09492861299000001,1.6898912545417817,0.4263058792681742,-1.2902781994950634, ,0.007043964778804572,0.002449190388192404,0.0064989031089351295,-0.0030541466257478435,0.0027445990354126966,-0.002576403181022818, ,1.025312900543213
0.010944002631843463,0.021424451754917508,-0.08439999350324355, ,0.011193237924862034,0.0214041768477435,-0.08474696027221121, ,0.00042768591502973733, ,0.0018645875690839948,0.0013087648825232379,-0.0067440207813064,-0.0010930371401071434,-0.005314824899948627,0.0021609212359489454, ,0.0071183824440108024, ,0.005426055653613934, ,3.984676802166189e-05, ,0.17287337538951564,-0.2417369844289756,0.09499602007,1.6898912545417817,0.4264425157679396,-1.29038961739876, ,0.00835325358337824,0.004353572941424698,0.007057515073105894,-0.002978666028440744,0.003913360403040898,-0.00352168130906008, ,1.0391359329223633
0.010963877994654266,0.021439164535526196,-0.08447178852293197, ,0.01122668258005919,0.02141727561934834,-0.08484942839674836, ,0.0004606053072396766, ,0.0018671582699473965,0.0014140292973323018,-0.006798963460193971,-0.00011220207924588879,-0.005199942352702171,0.002271222111185401, ,0.007191082185026105, ,0.005201151338862882, ,4.066976866415651e-05, ,0.17295832545113213,-0.2417060934974787,0.09506601973,1.6898912545417817,0.4264425157679396,-1.29038961739876, ,0.008257289060409715,0.003391294445327592,0.007117431420911529,-0.002906059669880127,0.003913360403040898,-0.00348574171659545, ,1.0532398223876953
0.011004798126863412,0.021471303458584664,-0.08463107305455511, ,0.011260514196058613,0.021429867708312053,-0.0849516440522231, ,0.0004121570016281957, ,0.0021433805670722653,0.001620722216749418,-0.008004071478263526,0.0037042847751240747,-0.0009802457485691516,0.0021568371342598615, ,0.008443102568861747, ,0.0038317847762283203, ,4.134403333164723e-05, ,0.17313594830723927,-0.241613420702988,0.09523453743000002,1.6898912545417817,0.4267157887674705,-1.290612453206153, ,0.009531333748230588,0.004379243434988415,0.008401271898734177,-0.002758306834199597,0.009604160146425407,-0.008115611366198107, ,1.0648689270019531
0.011028411096376861,0.021488478370967366,-0.0847125266995717, ,0.011294729609720684,0.021441957795926843,-0.08505360890432637, ,0.00043523187481165384, ,0.0023404442126402233,0.00172132253732496,-0.008511087048600088,0.0034134378827704627,-0.0021954534611896416,0.002036671666274857, ,0.008993288227274389, ,0.004058513203023924, ,4.20655727473827e-05, ,0.17324406656747843,-0.24156708430574267,0.09532398144000001,1.6898912545417817,0.4267157887674705,-1.290612453206153, ,0.010761543730016069,0.004778433878278357,0.008938727003367005,-0.002693194364793632,0.009604160146425407,-0.008132416353900553, ,1.075618028640747
0.01105236032859181,0.021505743457028395,-0.08480285432414927, ,0.011329325669559095,0.021453550546901096,-0.08515532461110267, ,0.0004512972447840691, ,0.002584004472209335,0.0018734260008931574,-0.009490146155146194,0.0010964315294748894,-0.004126214040661538,0.00031988295919583773, ,0.010012476124278972, ,0.004269394269747711, ,4.281434246641587e-05, ,0.17335218482771758,-0.2415130251756231,0.09541861061000001,1.6896815645982974,0.42685242526723594,-1.2907238711098492, ,0.011394925739489768,0.005862853075650091,0.009943078352059926,-0.001161793099635219,0.007867848785686578,-0.006710029042582763, ,1.08660888671875
0.01109133205938087,0.021535590782279346,-0.08495084073966387, ,0.011364299235724065,0.02146465060938262,-0.0852567928229629, ,0.0004161132835736107, ,0.0029593389724155103,0.00225044737645991,-0.01086543297548627,0.0049763632760384735,-0.0015272735190938528,-0.003568023384927765, ,0.011483894561195562, ,0.005205439887187054, ,4.345532653371416e-05, ,0.17352980768382473,-0.24143579784688085,0.09557416541000001,1.6894718746548125,0.42712569826676683,-1.290946706917242, ,0.013218685270716086,0.005741874882920204,0.011418502881720433,0.003065825910754517,0.01142127856919212,-0.009598988786017164, ,1.0984258651733398
0.011121636925244822,0.02155726116726928,-0.08505855476946947, ,0.01139964717998504,0.02147526261498238,-0.0853580151826979, ,0.000416761326671282, ,0.0026764400550477337,0.0019116987129470012,-0.009612227854136348,0.004721485641209661,-0.0007869425417197136,-0.00353636959578919, ,0.010159372404690252, ,0.00478660873335587, ,4.408470482525931e-05, ,0.17366109414268655,-0.24137401598388705,0.09568694264000001,1.6894718746548125,0.42712569826676683,-1.290946706917242, ,0.012460207662614336,0.005982485048971408,0.010094303878326997,0.0029908980824655423,0.01142127856919212,-0.009592860701596867, ,1.1104209423065186
0.011149750537621957,0.02157419207650942,-0.08515245391823453, ,0.01143536638571329,0.02148539117879609,-0.08545899332549228, ,0.00042828544257020616, ,0.0028019998652498647,0.0015957870561012027,-0.009237094797308231,0.002030326186733926,-0.003196946835324932,-0.003911231790386655, ,0.009783744675109791, ,0.003787165991186351, ,4.473072180800077e-05, ,0.1738078260672968,-0.2412967886551448,0.09578546068,1.6894718746548125,0.4272623347665323,-1.2910581248209385, ,0.014601775897595135,0.008468118831168287,0.009671409544626596,0.002923078671472017,0.011158387614904463,-0.00937290895615904, ,1.1211750507354736
0.011177083432065558,0.021587613871549293,-0.08523791334050629, ,0.011471453747865195,0.02149504089942947,-0.08555972887893723, ,0.0004458574646304273, ,0.002712088899479317,0.0012544835905126108,-0.008066369370266568,0.002566663339185584,-0.003393346234237015,-0.003899646224424193, ,0.008602061967640027, ,0.004254706242755683, ,4.5408220735407935e-05, ,0.17396228072478132,-0.2412041158606541,0.09587490469000001,1.6894718746548125,0.4273989712662977,-1.291169542724635, ,0.01602176963675009,0.009037444948172374,0.008454783184713377,0.0028583378739569453,0.012449575896935147,-0.01042041686290033, ,1.1329798698425293
0.011203328943973892,0.021599207031439083,-0.08531320050767807, ,0.011507906172964774,0.021504216359019883,-0.08566022346304455, ,0.00047139733539520973, ,0.0026322326717445107,0.0011150429478121076,-0.007293745649727638,0.0026262486615760824,-0.004516888327076705,-0.0037582970272263235, ,0.007833945060860818, ,0.005224886749935377, ,4.6252484395833595e-05, ,0.17412445811514002,-0.24111916579903764,0.09595397838000001,1.6894718746548125,0.4275356077660632,-1.2912809606283313, ,0.016578780845295384,0.008447691156246741,0.007665453089509144,0.0027971859675975205,0.01187433938510939,-0.009935038860761497, ,1.1415369510650635
0.011231883106400905,0.021609102996540275,-0.0853899564198347, ,0.011544720579086924,0.021512922123260808,-0.08576047869025999, ,0.0004943731359838327, ,0.002841369319723979,0.0008736473745083895,-0.007880285416888065,-0.00264475929659413,-0.006795368517893843,-0.004487679620491624, ,0.008422323764714391, ,0.007291896505187841, ,4.714152360282442e-05, ,0.1743098037041214,-0.2410110475387985,0.09603434836000001,1.6894718746548125,0.42767224426582856,-1.2913923785320276, ,0.01763883672090535,0.012698440639753733,0.008193833086419754,0.0027358075860125937,0.010620119255397178,-0.00891837164586739, ,1.150367021560669
0.01126186499174896,0.02161884202705401,-0.08547463932999036, ,0.011581893895839716,0.0215211627414237,-0.08586049616547622, ,0.0005107301046403507, ,0.003208923393105714,0.0012442299950197768,-0.009268850613052793,0.004123810218922374,-0.0013023071826641932,-0.004042956472664254, ,0.00988720836790735, ,0.0043245515730720606, ,4.805791450563304e-05, ,0.1744951492931028,-0.2408797610799367,0.09612249608000001,1.6894718746548125,0.42780888076559404,-1.2915854751758649, ,0.019766078225051192,0.012530957554267896,0.009694955276932442,0.0026796461021194114,0.018573157497788397,-0.015153889620599855, ,1.1584358215332031
0.01126186499174896,0.02161884202705401,-0.08547463932999036, ,0.01161942306434773,0.021528942746382024,-0.08596027748604718, ,0.0006097327894776144, ,0.003208923393105714,0.0012442299950197768,-0.009268850613052793,0.004123810218922374,-0.0013023071826641932,-0.004042956472664254, ,0.00988720836790735, ,0.0043245515730720606, ,4.920461166317175e-05, ,0.1744951492931028,-0.2408797610799367,0.09612249608000001,1.6894718746548125,0.42780888076559404,-1.2915854751758649, ,0.019766078225051192,0.012530957554267896,0.009694955276932442,0.0026796461021194114,0.018573157497788397,-0.015153889620599855, ,1.1665818691253662
0.011296572571871668,0.0216347947583301,-0.08558087725316503, ,0.011657305037234864,0.021536266654634956,-0.08605982424180066, ,0.0006076396273350718, ,0.0036939396241778694,0.0016404111442061596,-0.01118033535610418,0.002952020678287436,-0.0025199507815245885,-0.003941237227416425, ,0.011888483391251396, ,0.0038812888753462127, ,5.032936910166945e-05, ,0.17470366308070687,-0.2407561973539491,0.09623397702000001,1.6894718746548125,0.42808215376512493,-1.2918083109832577, ,0.021450484077412024,0.013435783881986518,0.01169516264317181,0.0026236678077742226,0.019068625307224286,-0.014833554563803615, ,1.1777520179748535
0.011343526265528196,0.021654026397912075,-0.08572285569736039, ,0.0116955367786069,0.02154313896632923,-0.08615913801505284, ,0.0005714452594361691, ,0.004241801063341792,0.00186182808598595,-0.013040638557596547,0.0013320523397702105,-0.003932662095959206,-0.004312481005312474, ,0.01383898602039208, ,0.004152085917234305, ,5.1349896169948965e-05, ,0.1749662359984305,-0.2405708517649677,0.09638175408,1.6894718746548125,0.4282187902648904,-1.291919728886954, ,0.023988104539552774,0.01611700773751202,0.01361436882051282,0.00256361732821301,0.02025594962508979,-0.01580826981917289, ,1.1859359741210938
0.011384175080010906,0.021672489199681594,-0.08585055096716633, ,0.011734115264034681,0.02154956416528354,-0.0862582203806201, ,0.0005511470286067935, ,0.004101059815048125,0.0018104685604273883,-0.012858783306513695,0.0009272835754657749,-0.0030683935821620694,-0.004288922384893708, ,0.013617811723576364, ,0.0032053927129817136, ,5.230675723042354e-05, ,0.17519791798465723,-0.24041639710748322,0.09651527195000001,1.6894718746548125,0.42849206326442124,-1.292142564694347, ,0.02263223027867178,0.01609240996412935,0.013408090505050508,0.0025140469825846753,0.019755638283264036,-0.015410699810594449, ,1.1947898864746094
0.011426930954483175,0.0216904985230746,-0.08598211159549814, ,0.011773037480536758,0.021555546719011217,-0.08635707290583408, ,0.0005278235510525178, ,0.004356635418768142,0.0016948686090908548,-0.012939305327980192,0.007223423384674775,0.001997033801886547,-0.00424071055036854, ,0.013757851363670245, ,0.007494373002065577, ,5.3194085649948044e-05, ,0.17544504543663242,-0.24024649698425027,0.09665267869000001,1.6894718746548125,0.42876533626395213,-1.2924470792418803, ,0.026149611892662104,0.017691450700684334,0.01352191130730051,0.0024645436799834467,0.028710542271545007,-0.02288216041048375, ,1.2032349109649658
0.011426930954483175,0.0216904985230746,-0.08598211159549814, ,0.011812300426562424,0.021561091078743388,-0.0864556971505545, ,0.0006241307512188579, ,0.004356635418768142,0.0016948686090908548,-0.012939305327980192,0.007223423384674775,0.001997033801886547,-0.00424071055036854, ,0.013757851363670245, ,0.007494373002065577, ,5.442680607832653e-05, ,0.17544504543663242,-0.24024649698425027,0.09665267869000001,1.6894718746548125,0.42876533626395213,-1.2924470792418803, ,0.026149611892662104,0.017691450700684334,0.01352191130730051,0.0024645436799834467,0.028710542271545007,-0.02288216041048375, ,1.2087888717651367
0.011473608631134172,0.021703917564595335,-0.0861071908131016, ,0.011851901111974369,0.02156620167945254,-0.08655409466718222, ,0.0006014930763300687, ,0.004397075384844269,0.0011997710018700045,-0.011872749867389626,0.003038594226612999,-0.0017630500667440276,-0.0045565601140335876, ,0.012717543466036665, ,0.0035129993589935495, ,5.55941981735242e-05, ,0.1757230638201045,-0.24004570592952043,0.09678230769000001,1.6894718746548125,0.42876533626395213,-1.2925287579820208, ,0.028540433551419782,0.0201994341333484,0.01237669892773893,0.0024180979762908252,0.02729354585403463,-0.021219680344495975, ,1.2191698551177979
0.011508149994836035,0.021712695805668647,-0.0861968496659398, ,0.011891836558031658,0.021570882939875295,-0.08665226700067359, ,0.0006121529355131987, ,0.004620780678068793,0.0010539876969725616,-0.01153558196393045,-0.010569540351767824,-0.018018130497285484,-0.005194244044908595, ,0.012471253160237783, ,0.020889423295011516, ,5.6775718313067004e-05, ,0.175947023073457,-0.23989125127203595,0.09687564057,1.6894718746548125,0.42890197276371755,-1.2926401758857171, ,0.03026050432349196,0.02077883546277004,0.011994586987951809,0.0023840904420492945,0.012158516179171514,-0.00888535856046595, ,1.2261629104614258
0.011569868814668436,0.021728663408493873,-0.08635328823360489, ,0.011932103797372614,0.021575139262536173,-0.0867502156885532, ,0.000558869618586024, ,0.004871548019562873,0.0013346307211275286,-0.012388466158442527,-0.00694408117529857,-0.016138891459488998,-0.004899001444828821, ,0.013378614017436936, ,0.017569399224466556, ,5.782106615804327e-05, ,0.1763563279157909,-0.2396286783543123,0.09703897311000001,1.6894718746548125,0.42917524576324845,-1.2928630116931101, ,0.031579681051071805,0.020028902819432415,0.01292923012987013,0.0023287027127387493,0.015504725873096278,-0.011626012128709487, ,1.231632947921753
0.011569868814668436,0.021728663408493873,-0.08635328823360489, ,0.01197269987399769,0.021578975033770095,-0.08684794226092743, ,0.0006552572614127888, ,0.004871548019562873,0.0013346307211275286,-0.012388466158442527,-0.00694408117529857,-0.016138891459488998,-0.004899001444828821, ,0.013378614017436936, ,0.017569399224466556, ,5.908184916995146e-05, ,0.1763563279157909,-0.2396286783543123,0.09703897311000001,1.6894718746548125,0.42917524576324845,-1.2928630116931101, ,0.031579681051071805,0.020028902819432415,0.01292923012987013,0.0023287027127387493,0.015504725873096278,-0.011626012128709487, ,1.2371129989624023
0.01161612580355921,0.0217409097430331,-0.0864785575731431, ,0.012013621843252071,0.021582394623746136,-0.08694544824049825, ,0.0006333380139210108, ,0.004907338543996018,0.0012325977424638298,-0.013565035204938986,0.01764333947103378,0.015042971614679067,-0.004424265584767307, ,0.014477964252316343, ,0.023185727579300305, ,6.027992897362845e-05, ,0.1766652372307599,-0.23941244183383403,0.09716989840000001,1.6894718746548125,0.42958515526254476,-1.2931972654041992, ,0.032689266813114286,0.024502179591652667,0.014158943573333334,0.0022887523926210006,0.04915422668244501,-0.039073692314207834, ,1.2426128387451172
0.01161612580355921,0.0217409097430331,-0.0864785575731431, ,0.012054866771808777,0.021585402386490506,-0.08704273514257638, ,0.0007314181464874067, ,0.004907338543996018,0.0012325977424638298,-0.013565035204938986,0.01764333947103378,0.015042971614679067,-0.004424265584767307, ,0.014477964252316343, ,0.023185727579300305, ,6.169395278969361e-05, ,0.1766652372307599,-0.23941244183383403,0.09716989840000001,1.6894718746548125,0.42958515526254476,-1.2931972654041992, ,0.032689266813114286,0.024502179591652667,0.014158943573333334,0.0022887523926210006,0.04915422668244501,-0.039073692314207834, ,1.2482068538665771
0.011665689498784321,0.021753781358908784,-0.08661802262082931, ,0.01209643173765174,0.021588002659910205,-0.08713980447509483, ,0.0006966188030960265, ,0.005449406817668149,0.0014875745555427509,-0.015110618799060135,0.002438576637403431,-0.0019136450467102432,-0.005219876494678862, ,0.01613194697528032, ,0.0030996621735062727, ,6.30147613093172e-05, ,0.1769818692786031,-0.23916531438185884,0.09731508288000001,1.6894718746548125,0.4299950647618411,-1.2935315191152885, ,0.03404985344760344,0.025738253745177863,0.0157243943928924,0.002250322191004354,0.03291491152950503,-0.025840127641288155, ,1.2538368701934814
0.01172551534466174,0.021771052490820418,-0.08678105633126927, ,0.012138313830057965,0.02159019976581516,-0.08723665773862244, ,0.0006408454884521144, ,0.00606768180925111,0.001691121177479047,-0.016386411312649736,-0.0016113610008420779,-0.00903963359679905,-0.005534119690485808, ,0.01755537322538516, ,0.009182062860750273, ,6.419553187315545e-05, ,0.17735256045656586,-0.2389027414641352,0.09748489687,1.6894718746548125,0.43026833776137197,-1.2937543549226813, ,0.03798916795775452,0.026959358397292833,0.01707268115755627,0.0022109827408400462,0.02960479163908521,-0.02314973802144947, ,1.2622590065002441
0.01172551534466174,0.021771052490820418,-0.08678105633126927, ,0.012180510149581106,0.02159199800994261,-0.08733329642637734, ,0.0007375973849404584, ,0.00606768180925111,0.001691121177479047,-0.016386411312649736,-0.0016113610008420779,-0.00903963359679905,-0.005534119690485808, ,0.01755537322538516, ,0.009182062860750273, ,6.558641388501424e-05, ,0.17735256045656586,-0.2389027414641352,0.09748489687,1.6894718746548125,0.43026833776137197,-1.2937543549226813, ,0.03798916795775452,0.026959358397292833,0.01707268115755627,0.0022109827408400462,0.02960479163908521,-0.02314973802144947, ,1.2679250240325928
0.011791454893831049,0.021789525591561304,-0.08695946380084388, ,0.012223017808033821,0.0215934016819798,-0.08742972202424003, ,0.0006677229466600849, ,0.006586488913733732,0.0018881656484762077,-0.017815433432812392,0.018615591887371295,0.009738305660473642,-0.005146044384704091, ,0.01908760524858455, ,0.02100888059357002, ,6.680584597340074e-05, ,0.17778503349752245,-0.23860927761491468,0.09767156263000001,1.6894718746548125,0.4308148837604337,-1.2941183477973266, ,0.043095795439814163,0.028870380760106718,0.01865200412177986,0.0021721062653092217,0.05449439577715553,-0.04414637286295449, ,1.2734620571136475
0.011791454893831049,0.021789525591561304,-0.08695946380084388, ,0.012265833928471059,0.021594415055587183,-0.08752593601076745, ,0.0007641952331504023, ,0.006586488913733732,0.0018881656484762077,-0.017815433432812392,0.018615591887371295,0.009738305660473642,-0.005146044384704091, ,0.01908760524858455, ,0.02100888059357002, ,6.823250556888399e-05, ,0.17778503349752245,-0.23860927761491468,0.09767156263000001,1.6894718746548125,0.4308148837604337,-1.2941183477973266, ,0.043095795439814163,0.028870380760106718,0.01865200412177986,0.0021721062653092217,0.05449439577715553,-0.04414637286295449, ,1.2789099216461182
0.011860176165311992,0.021808182382429476,-0.08713974418496952, ,0.012308955645172362,0.021595042388421436,-0.08762193985720608, ,0.0006923469830317471, ,0.006915179944674417,0.001688513246553362,-0.017827287246262483,-0.001905281569584094,-0.012445711806669613,-0.006251570343145272, ,0.019195910012598166, ,0.012590633010158267, ,6.964134186112522e-05, ,0.178217506538479,-0.23831581376569413,0.09785952468,1.6894718746548125,0.4310881567599646,-1.2943411836047194, ,0.04455255472228675,0.030830715256163342,0.0185867112252042,0.0021362456865106332,0.032913936698844515,-0.026548955515178, ,1.2816689014434814
0.011860176165311992,0.021808182382429476,-0.08713974418496952, ,0.012352380103625143,0.021595287922158972,-0.08771773502750488, ,0.0007884555676508236, ,0.006915179944674417,0.001688513246553362,-0.017827287246262483,-0.001905281569584094,-0.012445711806669613,-0.006251570343145272, ,0.019195910012598166, ,0.012590633010158267, ,7.126029282011103e-05, ,0.178217506538479,-0.23831581376569413,0.09785952468,1.6894718746548125,0.4310881567599646,-1.2943411836047194, ,0.04455255472228675,0.030830715256163342,0.0185867112252042,0.0021362456865106332,0.032913936698844515,-0.026548955515178, ,1.2844698429107666
0.011860176165311992,0.021808182382429476,-0.08713974418496952, ,0.012396104460507647,0.021595155882519444,-0.08781332297833044, ,0.00088673999465503, ,0.006915179944674417,0.001688513246553362,-0.017827287246262483,-0.001905281569584094,-0.012445711806669613,-0.006251570343145272, ,0.019195910012598166, ,0.012590633010158267, ,7.309283147591984e-05, ,0.178217506538479,-0.23831581376569413,0.09785952468,1.6894718746548125,0.4310881567599646,-1.2943411836047194, ,0.04455255472228675,0.030830715256163342,0.0185867112252042,0.0021362456865106332,0.032913936698844515,-0.026548955515178, ,1.2873129844665527
0.011932419128543249,0.0218207482940184,-0.0873156483025346, ,0.012440125883671296,0.02159465047928811,-0.08790870515907848, ,0.0008127747573111278, ,0.007717398021847087,0.0012643277162776357,-0.01845881333172414,-0.0216641123582776,-0.03406301913569581,-0.008005735425319203, ,0.020047058298343773, ,0.040368563188786476, ,0.0004115936390629068, ,0.17869631597668093,-0.23796829078635404,0.09804230157,1.6894718746548125,0.4313614297594955,-1.2946456981522527, ,0.05053085280003769,0.03699685830739601,0.019145206153846156,0.002101512399860766,0.016636169689572516,-0.013619629748553106, ,1.2901740074157715
0.011932419128543249,0.0218207482940184,-0.0873156483025346, ,0.012484441552123965,0.02159377590633974,-0.08800388301188804, ,0.000910995189923243, ,0.007717398021847087,0.0012643277162776357,-0.01845881333172414,-0.0216641123582776,-0.03406301913569581,-0.008005735425319203, ,0.020047058298343773, ,0.040368563188786476, ,0.0004176839018782767, ,0.17869631597668093,-0.23796829078635404,0.09804230157,1.6894718746548125,0.4313614297594955,-1.2946456981522527, ,0.05053085280003769,0.03699685830739601,0.019145206153846156,0.002101512399860766,0.016636169689572516,-0.013619629748553106, ,1.2931559085845947
0.011932419128543249,0.0218207482940184,-0.0873156483025346, ,0.012529048656012738,0.02159253634166173,-0.08809885797165586, ,0.0010106754543630365, ,0.007717398021847087,0.0012643277162776357,-0.01845881333172414,-0.0216641123582776,-0.03406301913569581,-0.008005735425319203, ,0.020047058298343773, ,0.040368563188786476, ,0.0004248283784142377, ,0.17869631597668093,-0.23796829078635404,0.09804230157,1.6894718746548125,0.4313614297594955,-1.2946456981522527, ,0.05053085280003769,0.03699685830739601,0.019145206153846156,0.002101512399860766,0.016636169689572516,-0.013619629748553106, ,1.2959489822387695
0.011932419128543249,0.0218207482940184,-0.0873156483025346, ,0.01257394439660651,0.02159093594737665,-0.08819363146604824, ,0.0011114057853214693, ,0.007717398021847087,0.0012643277162776357,-0.01845881333172414,-0.0216641123582776,-0.03406301913569581,-0.008005735425319203, ,0.020047058298343773, ,0.040368563188786476, ,0.0004330019189726571, ,0.17869631597668093,-0.23796829078635404,0.09804230157,1.6894718746548125,0.4313614297594955,-1.2946456981522527, ,0.05053085280003769,0.03699685830739601,0.019145206153846156,0.002101512399860766,0.016636169689572516,-0.013619629748553106, ,1.298846960067749
0.012011945193238576,0.021839125385879548,-0.08752480461812036, ,0.012619125986279395,0.021588978869766785,-0.08828820491551569, ,0.0010069864989285143, ,0.008579444096813976,0.002340026560396641,-0.023758366876955844,0.06229429396543739,0.04292321685592173,-0.006647117623603636, ,0.025368141082344812, ,0.07565034062143186, ,0.00043975467873684363, ,0.17923690727787664,-0.2375821541426428,0.09826137458,1.6896815645982974,0.43218124875808817,-1.2954775630547124, ,0.05737420892289647,0.040024015840772156,0.02492771755868545,0.0,0.1045445511983891,-0.09730612334643408, ,1.3016860485076904
0.012011945193238576,0.021839125385879548,-0.08752480461812036, ,0.012664590648492824,0.021586669239295572,-0.08838257973330538, ,0.001107004220607459, ,0.008579444096813976,0.002340026560396641,-0.023758366876955844,0.06229429396543739,0.04292321685592173,-0.006647117623603636, ,0.025368141082344812, ,0.07565034062143186, ,0.0004475133943399903, ,0.17923690727787664,-0.2375821541426428,0.09826137458,1.6896815645982974,0.43218124875808817,-1.2954775630547124, ,0.05737420892289647,0.040024015840772156,0.02492771755868545,0.0,0.1045445511983891,-0.09730612334643408, ,1.304569959640503
0.012011945193238576,0.021839125385879548,-0.08752480461812036, ,0.012710335617779163,0.021584011170632637,-0.0884767573254765, ,0.0012079099324675284, ,0.008579444096813976,0.002340026560396641,-0.023758366876955844,0.06229429396543739,0.04292321685592173,-0.006647117623603636, ,0.025368141082344812, ,0.07565034062143186, ,0.0004562535844334103, ,0.17923690727787664,-0.2375821541426428,0.09826137458,1.6896815645982974,0.43218124875808817,-1.2954775630547124, ,0.05737420892289647,0.040024015840772156,0.02492771755868545,0.0,0.1045445511983891,-0.09730612334643408, ,1.3081200122833252
0.012112543615304765,0.021867312342490702,-0.08780617465698116, ,0.012756358139723926,0.021581008762675474,-0.08857073909091084, ,0.0010397238360729715, ,0.010464200747834317,0.003131225348251461,-0.029109667189598776,0.0733799877952167,0.015568082232528068,-0.016298944763058026, ,0.031091426364219965, ,0.07501311146262338, ,0.0004628839282020417, ,0.17987789410643729,-0.23712651290306358,0.09855563241000001,1.6894718746548125,0.4331377042564462,-1.2966658820812902, ,0.06531104030176929,0.04542697058806643,0.030456618585086043,-0.0013924726272326253,0.08484083710709867,-0.11612710909334498, ,1.3109240531921387
0.012112543615304765,0.021867312342490702,-0.08780617465698116, ,0.01280265547094928,0.021577666098574064,-0.08866452642132892, ,0.001138822668932719, ,0.010464200747834317,0.003131225348251461,-0.029109667189598776,0.0733799877952167,0.015568082232528068,-0.016298944763058026, ,0.031091426364219965, ,0.07501311146262338, ,0.00047047874551362233, ,0.17987789410643729,-0.23712651290306358,0.09855563241000001,1.6894718746548125,0.4331377042564462,-1.2966658820812902, ,0.06531104030176929,0.04542697058806643,0.030456618585086043,-0.0013924726272326253,0.08484083710709867,-0.11612710909334498, ,1.3137528896331787
0.012112543615304765,0.021867312342490702,-0.08780617465698116, ,0.012849224879096083,0.02157398724575247,-0.08875812070130204, ,0.0012389270229096747, ,0.010464200747834317,0.003131225348251461,-0.029109667189598776,0.0733799877952167,0.015568082232528068,-0.016298944763058026, ,0.031091426364219965, ,0.07501311146262338, ,0.0004790170597069118, ,0.17987789410643729,-0.23712651290306358,0.09855563241000001,1.6894718746548125,0.4331377042564462,-1.2966658820812902, ,0.06531104030176929,0.04542697058806643,0.030456618585086043,-0.0013924726272326253,0.08484083710709867,-0.11612710909334498, ,1.3165249824523926
0.012112543615304765,0.021867312342490702,-0.08780617465698116, ,0.01289606364280751,0.021569976255933546,-0.08885152330826557, ,0.001339800800346509, ,0.010464200747834317,0.003131225348251461,-0.029109667189598776,0.0733799877952167,0.015568082232528068,-0.016298944763058026, ,0.031091426364219965, ,0.07501311146262338, ,0.0004884762216919623, ,0.17987789410643729,-0.23712651290306358,0.09855563241000001,1.6894718746548125,0.4331377042564462,-1.2966658820812902, ,0.06531104030176929,0.04542697058806643,0.030456618585086043,-0.0013924726272326253,0.08484083710709867,-0.11612710909334498, ,1.319234848022461
0.012228697403082193,0.02190149565905238,-0.08812570558296394, ,0.012943169051711318,0.021565637165161022,-0.08894473561253391, ,0.0011375767464005127, ,0.012342077598396794,0.0035300211561005396,-0.03319677600241087,0.010902501393885277,-0.04494838388315074,-0.014287300271678917, ,0.03559232874878528, ,0.046251285756781654, ,0.0004955316621779248, ,0.1805188809349979,-0.23668631712923277,0.09886414943,1.6892621847113283,0.433684250255508,-1.2975199473967787, ,0.07081861310333641,0.05010398181545448,0.034181998969957085,-0.004943203556593312,0.029662599545705805,-0.06298857363426184, ,1.3219430446624756
0.012228697403082193,0.02190149565905238,-0.08812570558296394, ,0.012990538406403275,0.021560973993823753,-0.08903775897731207, ,0.0012362031034475287, ,0.012342077598396794,0.0035300211561005396,-0.03319677600241087,0.010902501393885277,-0.04494838388315074,-0.014287300271678917, ,0.03559232874878528, ,0.046251285756781654, ,0.0005034958712238345, ,0.1805188809349979,-0.23668631712923277,0.09886414943,1.6892621847113283,0.433684250255508,-1.2975199473967787, ,0.07081861310333641,0.05010398181545448,0.034181998969957085,-0.004943203556593312,0.029662599545705805,-0.06298857363426184, ,1.3246760368347168
0.012228697403082193,0.02190149565905238,-0.08812570558296394, ,0.013038169018429397,0.02155599074667793,-0.08913059475871037, ,0.001335821917794442, ,0.012342077598396794,0.0035300211561005396,-0.03319677600241087,0.010902501393885277,-0.04494838388315074,-0.014287300271678917, ,0.03559232874878528, ,0.046251285756781654, ,0.0005123504036341601, ,0.1805188809349979,-0.23668631712923277,0.09886414943,1.6892621847113283,0.433684250255508,-1.2975199473967787, ,0.07081861310333641,0.05010398181545448,0.034181998969957085,-0.004943203556593312,0.029662599545705805,-0.06298857363426184, ,1.3274400234222412
0.012352468013922502,0.02193510663801904,-0.08846882746708505, ,0.013086058210269166,0.021550691412870755,-0.08922324430575729, ,0.0011203010345322165, ,0.013628467744114574,0.003670450472212451,-0.03811998369985554,0.0925900800263962,0.02967914190706298,-0.017762034666002124, ,0.04064899134048209, ,0.09723010793797347, ,0.0005187498839594028, ,0.18132204515391726,-0.23608394396504326,0.09924655498000001,1.6890524947678438,0.4345040692541006,-1.2985151697795194, ,0.08420314246536893,0.0631383510036399,0.039822028800000006,-0.0041078840176082205,0.11982981933715289,-0.15195167370529336, ,1.3310818672180176
0.012352468013922502,0.02193510663801904,-0.08846882746708505, ,0.013134203315318504,0.02154507996596394,-0.08931570896041367, ,0.0012167329822543615, ,0.013628467744114574,0.003670450472212451,-0.03811998369985554,0.0925900800263962,0.02967914190706298,-0.017762034666002124, ,0.04064899134048209, ,0.09723010793797347, ,0.0005260205412333086, ,0.18132204515391726,-0.23608394396504326,0.09924655498000001,1.6890524947678438,0.4345040692541006,-1.2985151697795194, ,0.08420314246536893,0.0631383510036399,0.039822028800000006,-0.0041078840176082205,0.11982981933715289,-0.15195167370529336, ,1.3338370323181152
0.012352468013922502,0.02193510663801904,-0.08846882746708505, ,0.013182601677871985,0.021539160363956027,-0.08940799005758493, ,0.0013145043641468132, ,0.013628467744114574,0.003670450472212451,-0.03811998369985554,0.0925900800263962,0.02967914190706298,-0.017762034666002124, ,0.04064899134048209, ,0.09723010793797347, ,0.0005341492404386024, ,0.18132204515391726,-0.23608394396504326,0.09924655498000001,1.6890524947678438,0.4345040692541006,-1.2985151697795194, ,0.08420314246536893,0.0631383510036399,0.039822028800000006,-0.0041078840176082205,0.11982981933715289,-0.15195167370529336, ,1.336535930633545
0.012352468013922502,0.02193510663801904,-0.08846882746708505, ,0.013231250653106598,0.021532936549306658,-0.08950008892513556, ,0.001413329367856886, ,0.013628467744114574,0.003670450472212451,-0.03811998369985554,0.0925900800263962,0.02967914190706298,-0.017762034666002124, ,0.04064899134048209, ,0.09723010793797347, ,0.0005431204662285849, ,0.18132204515391726,-0.23608394396504326,0.09924655498000001,1.6890524947678438,0.4345040692541006,-1.2985151697795194, ,0.08420314246536893,0.0631383510036399,0.039822028800000006,-0.0041078840176082205,0.11982981933715289,-0.15195167370529336, ,1.3392589092254639
0.012491048081378483,0.021972697664770554,-0.08885442448038139, ,0.013280147607063995,0.02152641244895918,-0.08959200688390276, ,0.0011687071306675874, ,0.0141464143754982,0.003567883248309384,-0.03872809560434714,0.08411311231343674,0.04250379183615053,-0.011635932916823894, ,0.04138497577257139, ,0.09424171507844864, ,0.0005494395234451405, ,0.18217926850295618,-0.23545067986935686,0.09964970117000001,1.6890524947678438,0.43573379775198956,-1.299762967133209, ,0.08960995425729064,0.06558185318484504,0.040531327022900764,-0.0041078840176082205,0.13863825332657742,-0.14422764211177933, ,1.342054843902588
0.012491048081378483,0.021972697664770554,-0.08885442448038139, ,0.013329289916633204,0.021519591974363633,-0.08968374524770878, ,0.001263220913447378, ,0.0141464143754982,0.003567883248309384,-0.03872809560434714,0.08411311231343674,0.04250379183615053,-0.011635932916823894, ,0.04138497577257139, ,0.09424171507844864, ,0.0005565773373451629, ,0.18217926850295618,-0.23545067986935686,0.09964970117000001,1.6890524947678438,0.43573379775198956,-1.299762967133209, ,0.08960995425729064,0.06558185318484504,0.040531327022900764,-0.0041078840176082205,0.13863825332657742,-0.14422764211177933, ,1.3448669910430908
0.012491048081378483,0.021972697664770554,-0.08885442448038139, ,0.013378674969534028,0.021512479021500556,-0.08977530532337526, ,0.001359302843071797, ,0.0141464143754982,0.003567883248309384,-0.03872809560434714,0.08411311231343674,0.04250379183615053,-0.011635932916823894, ,0.04138497577257139, ,0.09424171507844864, ,0.0005645251146295851, ,0.18217926850295618,-0.23545067986935686,0.09964970117000001,1.6890524947678438,0.43573379775198956,-1.299762967133209, ,0.08960995425729064,0.06558185318484504,0.040531327022900764,-0.0041078840176082205,0.13863825332657742,-0.14422764211177933, ,1.3479509353637695
0.012491048081378483,0.021972697664770554,-0.08885442448038139, ,0.013428300164299793,0.021505077470904292,-0.08986668841073656, ,0.0014566359796977229, ,0.0141464143754982,0.003567883248309384,-0.03872809560434714,0.08411311231343674,0.04250379183615053,-0.011635932916823894, ,0.04138497577257139, ,0.09424171507844864, ,0.0005732712995812335, ,0.18217926850295618,-0.23545067986935686,0.09964970117000001,1.6890524947678438,0.43573379775198956,-1.299762967133209, ,0.08960995425729064,0.06558185318484504,0.040531327022900764,-0.0041078840176082205,0.13863825332657742,-0.14422764211177933, ,1.350775957107544
0.012544666894476812,0.021984837353943038,-0.08900028402924552, ,0.01347816291025954,0.021497391187684862,-0.08995789580265288, ,0.001423389927268848, ,0.014031679203319795,0.0028182287815457854,-0.0368938876286482,0.0669686661745995,0.061690495617812,-0.0019680884109698517, ,0.039572583679680695, ,0.09105191455148243, ,0.0005815248784908219, ,0.1825345142151705,-0.23518810695163322,0.09980266339,1.6890524947678438,0.43641698025081677,-1.3004017353918318, ,0.09395736787967403,0.06886570504968853,0.03866216388349515,-0.0041078840176082205,0.16289720667294885,-0.12794770035500153, ,1.3540089130401611
0.012544666894476812,0.021984837353943038,-0.08900028402924552, ,0.01352826062752161,0.021489424021552746,-0.09004892878502432, ,0.0015207060285990317, ,0.014031679203319795,0.0028182287815457854,-0.0368938876286482,0.0669686661745995,0.061690495617812,-0.0019680884109698517, ,0.039572583679680695, ,0.09105191455148243, ,0.0005905554664726317, ,0.1825345142151705,-0.23518810695163322,0.09980266339,1.6890524947678438,0.43641698025081677,-1.3004017353918318, ,0.09395736787967403,0.06886570504968853,0.03866216388349515,-0.0041078840176082205,0.16289720667294885,-0.12794770035500153, ,1.3569748401641846
0.012544666894476812,0.021984837353943038,-0.08900028402924552, ,0.013578590746956398,0.021481179806841524,-0.0901397886368037, ,0.0016189935787781474, ,0.014031679203319795,0.0028182287815457854,-0.0368938876286482,0.0669686661745995,0.061690495617812,-0.0019680884109698517, ,0.039572583679680695, ,0.09105191455148243, ,0.0006003501151612556, ,0.1825345142151705,-0.23518810695163322,0.09980266339,1.6890524947678438,0.43641698025081677,-1.3004017353918318, ,0.09395736787967403,0.06886570504968853,0.03866216388349515,-0.0041078840176082205,0.16289720667294885,-0.12794770035500153, ,1.3597898483276367
0.012783214884778488,0.02200893585199196,-0.0895633413936281, ,0.01362915071017872,0.021472662362530523,-0.09023047663001012, ,0.001203439279655279, ,0.01537538554405263,6.142111396401328e-05,-0.03220337981675333,-0.007976765631042259,-0.02356166330387449,0.004342633145780986, ,0.03568562630532886, ,0.02487460820212831, ,0.0006060396355810105, ,0.18421034724887722,-0.23394474695888307,0.10039117905000002,1.6888428048243591,0.4387398007468293,-1.3022958397546707, ,0.11060249598889368,0.08450306461128297,0.03346388974789917,-0.016736483581030286,0.09452189786912159,-0.07377691778391932, ,1.3625998497009277
0.012783214884778488,0.02200893585199196,-0.0895633413936281, ,0.013679937969531295,0.021463875492269014,-0.09032099402974289, ,0.0012943108604510738, ,0.01537538554405263,6.142111396401328e-05,-0.03220337981675333,-0.007976765631042259,-0.02356166330387449,0.004342633145780986, ,0.03568562630532886, ,0.02487460820212831, ,0.0006124720769349365, ,0.18421034724887722,-0.23394474695888307,0.10039117905000002,1.6888428048243591,0.4387398007468293,-1.3022958397546707, ,0.11060249598889368,0.08450306461128297,0.03346388974789917,-0.016736483581030286,0.09452189786912159,-0.07377691778391932, ,1.3653779029846191
0.012783214884778488,0.02200893585199196,-0.0895633413936281, ,0.013730949988067127,0.021454822984398696,-0.090411342094195, ,0.0013872087385105138, ,0.01537538554405263,6.142111396401328e-05,-0.03220337981675333,-0.007976765631042259,-0.02356166330387449,0.004342633145780986, ,0.03568562630532886, ,0.02487460820212831, ,0.0006196455645421177, ,0.18421034724887722,-0.23394474695888307,0.10039117905000002,1.6888428048243591,0.4387398007468293,-1.3022958397546707, ,0.11060249598889368,0.08450306461128297,0.03346388974789917,-0.016736483581030286,0.09452189786912159,-0.07377691778391932, ,1.3680880069732666
0.012947416520762825,0.022002035656877465,-0.08988670951905786, ,0.013782184239532593,0.02144550861197717,-0.09050152207466552, ,0.0011766707162746783, ,0.01537538554405263,6.142111396401328e-05,-0.03220337981675333,-0.007976765631042259,-0.02356166330387449,0.004342633145780986, ,0.03568562630532886, ,0.02487460820212831, ,0.0006247558870350771, ,0.18542281631013047,-0.2330102962811019,0.10072691816000001,1.6888428048243591,0.4396962562451874,-1.3030757650805458, ,0.12324278124476726,0.09508711579005087,0.03135592818897638,-0.016025449994353645,0.10749911213809216,-0.08484722511906104, ,1.370905876159668
0.012947416520762825,0.022002035656877465,-0.08988670951905786, ,0.013833638208350332,0.02143593613280129,-0.0905915352155747, ,0.0012659529269211259, ,0.016140669358614183,-0.0014417930575066763,-0.030201654627162813,-0.006633937382169767,-0.02353541303234594,0.0018224366341284817, ,0.03427447908842972, ,0.02445198691392868, ,0.0006305849510340411, ,0.18542281631013047,-0.2330102962811019,0.10072691816000001,1.6888428048243591,0.4396962562451874,-1.3030757650805458, ,0.12324278124476726,0.09508711579005087,0.03135592818897638,-0.016025449994353645,0.10749911213809216,-0.08484722511906104, ,1.3737709522247314
0.012947416520762825,0.022002035656877465,-0.08988670951905786, ,0.013885309389601593,0.021426109289429448,-0.09068138275447558, ,0.001357512344411554, ,0.016140669358614183,-0.0014417930575066763,-0.030201654627162813,-0.006633937382169767,-0.02353541303234594,0.0018224366341284817, ,0.03427447908842972, ,0.02445198691392868, ,0.0006371338464698746, ,0.18542281631013047,-0.2330102962811019,0.10072691816000001,1.6888428048243591,0.4396962562451874,-1.3030757650805458, ,0.12324278124476726,0.09508711579005087,0.03135592818897638,-0.016025449994353645,0.10749911213809216,-0.08484722511906104, ,1.3765599727630615
0.012947416520762825,0.022002035656877465,-0.08988670951905786, ,0.013937195289010124,0.02141603180920667,-0.09077106592206946, ,0.0014509130804792314, ,0.016140669358614183,-0.0014417930575066763,-0.030201654627162813,-0.006633937382169767,-0.02353541303234594,0.0018224366341284817, ,0.03427447908842972, ,0.02445198691392868, ,0.0006443997324878153, ,0.18542281631013047,-0.2330102962811019,0.10072691816000001,1.6888428048243591,0.4396962562451874,-1.3030757650805458, ,0.12324278124476726,0.09508711579005087,0.03135592818897638,-0.016025449994353645,0.10749911213809216,-0.08484722511906104, ,1.3793249130249023
0.01311264436050143,0.02198356212908272,-0.09018407146882793, ,0.013989293422923866,0.021405707404285722,-0.09086058594221766, ,0.0012490402292649086, ,0.016294187622861334,-0.002208591704670663,-0.028248463189651494,0.042368026588923344,0.024858298053527312,-0.0025140120787109964, ,0.03268568647258373, ,0.04912195712224968, ,0.0006497505333442498, ,0.18672795816587442,-0.2320295092060754,0.10103673147000002,1.6886331148808746,0.44106262124284173,-1.30418994411751, ,0.13328222128998704,0.09854303380941928,0.02955252601113173,-0.010661296835054977,0.16689954885048847,-0.13372217822363103, ,1.3820698261260986
0.01311264436050143,0.02198356212908272,-0.09018407146882793, ,0.014041601318298402,0.02139513977165151,-0.09094994403195586, ,0.0013400607012805264, ,0.016294187622861334,-0.002208591704670663,-0.028248463189651494,0.042368026588923344,0.024858298053527312,-0.0025140120787109964, ,0.03268568647258373, ,0.04912195712224968, ,0.0006558058856945679, ,0.18672795816587442,-0.2320295092060754,0.10103673147000002,1.6886331148808746,0.44106262124284173,-1.30418994411751, ,0.13328222128998704,0.09854303380941928,0.02955252601113173,-0.010661296835054977,0.16689954885048847,-0.13372217822363103, ,1.3849828243255615
0.01311264436050143,0.02198356212908272,-0.09018407146882793, ,0.014094116512679822,0.021384332593143943,-0.09103914140150723, ,0.0014330067034090533, ,0.016294187622861334,-0.002208591704670663,-0.028248463189651494,0.042368026588923344,0.024858298053527312,-0.0025140120787109964, ,0.03268568647258373, ,0.04912195712224968, ,0.0006625641536746939, ,0.18672795816587442,-0.2320295092060754,0.10103673147000002,1.6886331148808746,0.44106262124284173,-1.30418994411751, ,0.13328222128998704,0.09854303380941928,0.02955252601113173,-0.010661296835054977,0.16689954885048847,-0.13372217822363103, ,1.3878669738769531
0.01311264436050143,0.02198356212908272,-0.09018407146882793, ,0.014146836554187702,0.02137328953548179,-0.09112817925429638, ,0.0015275227142547416, ,0.016294187622861334,-0.002208591704670663,-0.028248463189651494,0.042368026588923344,0.024858298053527312,-0.0025140120787109964, ,0.03268568647258373, ,0.04912195712224968, ,0.0006700206929900392, ,0.18672795816587442,-0.2320295092060754,0.10103673147000002,1.6886331148808746,0.44106262124284173,-1.30418994411751, ,0.13328222128998704,0.09854303380941928,0.02955252601113173,-0.010661296835054977,0.16689954885048847,-0.13372217822363103, ,1.390800952911377
0.013255179482124627,0.021957070114134974,-0.09042619052087225, ,0.014199759001497291,0.021362014250284517,-0.09121705878696229, ,0.0013681354332921033, ,0.016701914324541572,-0.0036190868047424425,-0.028102872646687795,0.044223675180495324,0.03695511014252255,-0.007254328116368167, ,0.03289108059034456, ,0.057631554579586006, ,0.0006759874856421935, ,0.18672795816587442,-0.2320295092060754,0.10103673147000002,1.6886331148808746,0.44106262124284173,-1.30418994411751, ,0.13328222128998704,0.09854303380941928,0.02955252601113173,-0.010661296835054977,0.16689954885048847,-0.13372217822363103, ,1.3936948776245117
0.013255179482124627,0.021957070114134974,-0.09042619052087225, ,0.014252881423823038,0.02135051037409655,-0.0913057811893715, ,0.001461849385817569, ,0.016701914324541572,-0.0036190868047424425,-0.028102872646687795,0.044223675180495324,0.03695511014252255,-0.007254328116368167, ,0.03289108059034456, ,0.057631554579586006, ,0.0006826473322538493, ,0.187917259028505,-0.23111050399404268,0.10128950802000002,1.68842342493739,0.44270225924002704,-1.305526958961867, ,0.13873821865273506,0.11270420612644985,0.029227177100917434,-0.00833508440839834,0.18450566821225886,-0.1483707466747959, ,1.3964979648590088
0.013255179482124627,0.021957070114134974,-0.09042619052087225, ,0.014306201400901306,0.021338781528410577,-0.09139434764463285, ,0.0015570022688726174, ,0.016701914324541572,-0.0036190868047424425,-0.028102872646687795,0.044223675180495324,0.03695511014252255,-0.007254328116368167, ,0.03289108059034456, ,0.057631554579586006, ,0.0006899948527296373, ,0.187917259028505,-0.23111050399404268,0.10128950802000002,1.68842342493739,0.44270225924002704,-1.305526958961867, ,0.13873821865273506,0.11270420612644985,0.029227177100917434,-0.00833508440839834,0.18450566821225886,-0.1483707466747959, ,1.3992819786071777
0.01344188886288802,0.021915468341620257,-0.09073385079105394, ,0.01435971652297299,0.02132683131969003,-0.0914827593291096, ,0.0013227868897054452, ,0.017711322312823897,-0.0037391435258514317,-0.02811357951236682,-0.02186295982357131,-0.03863021458806063,-0.007581071213223051, ,0.03343718716300493, ,0.044387666407389295, ,0.0006952681197044357, ,0.18943863740472722,-0.22986714400129254,0.10160839536,1.6882137349939055,0.44434189723721235,-1.306700616325943, ,0.14184894104405196,0.11283821826215314,0.029120313564899455,-0.010201721936449942,0.1095945972929522,-0.08598403890299333, ,1.4021198749542236
0.01344188886288802,0.021915468341620257,-0.09073385079105394, ,0.014413424390766342,0.021314663339392505,-0.09157101741243347, ,0.0014162259299221006, ,0.017711322312823897,-0.0037391435258514317,-0.02811357951236682,-0.02186295982357131,-0.03863021458806063,-0.007581071213223051, ,0.03343718716300493, ,0.044387666407389295, ,0.000701226448714499, ,0.18943863740472722,-0.22986714400129254,0.10160839536,1.6882137349939055,0.44434189723721235,-1.306700616325943, ,0.14184894104405196,0.11283821826215314,0.029120313564899455,-0.010201721936449942,0.1095945972929522,-0.08598403890299333, ,1.4049148559570312
0.01344188886288802,0.021915468341620257,-0.09073385079105394, ,0.014467322615480588,0.02130228116399383,-0.09165912305751817, ,0.0015111722809955817, ,0.017711322312823897,-0.0037391435258514317,-0.02811357951236682,-0.02186295982357131,-0.03863021458806063,-0.007581071213223051, ,0.03343718716300493, ,0.044387666407389295, ,0.000707865348979098, ,0.18943863740472722,-0.22986714400129254,0.10160839536,1.6882137349939055,0.44434189723721235,-1.306700616325943, ,0.14184894104405196,0.11283821826215314,0.029120313564899455,-0.010201721936449942,0.1095945972929522,-0.08598403890299333, ,1.4076409339904785
0.01344188886288802,0.021915468341620257,-0.09073385079105394, ,0.014521408818767362,0.021289688355009617,-0.09174707742057278, ,0.0016073556325686825, ,0.017711322312823897,-0.0037391435258514317,-0.02811357951236682,-0.02186295982357131,-0.03863021458806063,-0.007581071213223051, ,0.03343718716300493, ,0.044387666407389295, ,0.0007151782781139727, ,0.18943863740472722,-0.22986714400129254,0.10160839536,1.6882137349939055,0.44434189723721235,-1.306700616325943, ,0.14184894104405196,0.11283821826215314,0.029120313564899455,-0.010201721936449942,0.1095945972929522,-0.08598403890299333, ,1.4103970527648926
0.013644504980133688,0.021869596657771138,-0.09105424147227952, ,0.014575680632715159,0.021276888459020135,-0.09183488165111511, ,0.0013519579111938584, ,0.019571021230951884,-0.004666871257222093,-0.031756253885534984,0.0018799355516280665,-0.006202732860982785,0.0037225847298637126, ,0.03759340660536646, ,0.006478870025102109, ,0.0007203135977355846, ,0.19106813404118858,-0.22855427941267437,0.1019402456,1.6880040450504212,0.44570826223486676,-1.3077331166227666, ,0.15789840525535903,0.13089233318409763,0.03291076760330579,-0.023863672175395693,0.1630840530668769,-0.1276330133746424, ,1.4137680530548096
0.013644504980133688,0.021869596657771138,-0.09105424147227952, ,0.01463013569983077,0.021263885007692274,-0.09192253689198501, ,0.0014464755284944837, ,0.019571021230951884,-0.004666871257222093,-0.031756253885534984,0.0018799355516280665,-0.006202732860982785,0.0037225847298637126, ,0.03759340660536646, ,0.006478870025102109, ,0.0007261228931816559, ,0.19106813404118858,-0.22855427941267437,0.1019402456,1.6880040450504212,0.44570826223486676,-1.3077331166227666, ,0.15789840525535903,0.13089233318409763,0.03291076760330579,-0.023863672175395693,0.1630840530668769,-0.1276330133746424, ,1.4165170192718506
0.013644504980133688,0.021869596657771138,-0.09105424147227952, ,0.014684771673023159,0.021250681517803568,-0.09201004427935844, ,0.001542326083821519, ,0.019571021230951884,-0.004666871257222093,-0.031756253885534984,0.0018799355516280665,-0.006202732860982785,0.0037225847298637126, ,0.03759340660536646, ,0.006478870025102109, ,0.0007326006962819722, ,0.19106813404118858,-0.22855427941267437,0.1019402456,1.6880040450504212,0.44570826223486676,-1.3077331166227666, ,0.15789840525535903,0.13089233318409763,0.03291076760330579,-0.023863672175395693,0.1630840530668769,-0.1276330133746424, ,1.4192049503326416
0.013826736561980468,0.021828963040330933,-0.09135346816284308, ,0.014739586215585696,0.021237281491264835,-0.09209740494276042, ,0.0013178859882805576, ,0.01993046363659114,-0.004296346137081968,-0.03255193390117419,0.031151873551427726,0.01967285308384545,0.004387877170240874, ,0.03840976922093538, ,0.03684323308980073, ,0.0007372092418882604, ,0.19253545328729124,-0.22734953308429534,0.1022513552,1.6880040450504212,0.447347900232052,-1.3091518102072643, ,0.161664295670308,0.12858664167814468,0.033963350788912584,-0.023863672175395693,0.19379888730823028,-0.15338141363417457, ,1.4219679832458496
0.013826736561980468,0.021828963040330933,-0.09135346816284308, ,0.014794577001179593,0.02122368841514415,-0.09218462000507853, ,0.0014120502372421237, ,0.01993046363659114,-0.004296346137081968,-0.03255193390117419,0.031151873551427726,0.01967285308384545,0.004387877170240874, ,0.03840976922093538, ,0.03684323308980073, ,0.0007424814371644624, ,0.19253545328729124,-0.22734953308429534,0.1022513552,1.6880040450504212,0.447347900232052,-1.3091518102072643, ,0.161664295670308,0.12858664167814468,0.033963350788912584,-0.023863672175395693,0.19379888730823028,-0.15338141363417457, ,1.4248378276824951
0.013826736561980468,0.021828963040330933,-0.09135346816284308, ,0.014849741713816002,0.021209905761688887,-0.09227169058257662, ,0.0015076152914530452, ,0.01993046363659114,-0.004296346137081968,-0.03255193390117419,0.031151873551427726,0.01967285308384545,0.004387877170240874, ,0.03840976922093538, ,0.03684323308980073, ,0.000748412707352746, ,0.19253545328729124,-0.22734953308429534,0.1022513552,1.6880040450504212,0.447347900232052,-1.3091518102072643, ,0.161664295670308,0.12858664167814468,0.033963350788912584,-0.023863672175395693,0.19379888730823028,-0.15338141363417457, ,1.4276518821716309
0.013826736561980468,0.021828963040330933,-0.09135346816284308, ,0.01490507804783939,0.021195936988349776,-0.0923586177849081, ,0.0016043279294922017, ,0.01993046363659114,-0.004296346137081968,-0.03255193390117419,0.031151873551427726,0.01967285308384545,0.004387877170240874, ,0.03840976922093538, ,0.03684323308980073, ,0.0007549966705999727, ,0.19253545328729124,-0.22734953308429534,0.1022513552,1.6880040450504212,0.447347900232052,-1.3091518102072643, ,0.161664295670308,0.12858664167814468,0.033963350788912584,-0.023863672175395693,0.19379888730823028,-0.15338141363417457, ,1.4307019710540771
0.014025595491968216,0.021785510587991774,-0.09166962044680864, ,0.014960583707910277,0.021181785537804032,-0.09244540271512953, ,0.00135665951071587, ,0.020665349845691943,-0.00483520461956223,-0.03229632577237349,0.011952475818793211,-0.0029966381287559562,-0.000827298646216066, ,0.03864567953022889, ,0.012320973224553427, ,0.0007595895167077276, ,0.1941572271908784,-0.2260752821600483,0.10258190915000001,1.6880040450504212,0.4492608112287682,-1.3107116608590141, ,0.16707208020857534,0.13290888173455292,0.03367613429175476,-0.020386841158908053,0.17500409868795416,-0.13862470311338182, ,1.4337430000305176
0.014025595491968216,0.021785510587991774,-0.09166962044680864, ,0.015016256408988175,0.021167454837978283,-0.09253204646971375, ,0.0014516131053484904, ,0.020665349845691943,-0.00483520461956223,-0.03229632577237349,0.011952475818793211,-0.0029966381287559562,-0.000827298646216066, ,0.03864567953022889, ,0.012320973224553427, ,0.0007648321196519757, ,0.1941572271908784,-0.2260752821600483,0.10258190915000001,1.6880040450504212,0.4492608112287682,-1.3107116608590141, ,0.16707208020857534,0.13290888173455292,0.03367613429175476,-0.020386841158908053,0.17500409868795416,-0.13862470311338182, ,1.4364800453186035
0.014025595491968216,0.021785510587991774,-0.09166962044680864, ,0.015072093876314358,0.021152948302072126,-0.09261855013856377, ,0.0015478247555525966, ,0.020665349845691943,-0.00483520461956223,-0.03229632577237349,0.011952475818793211,-0.0029966381287559562,-0.000827298646216066, ,0.03864567953022889, ,0.012320973224553427, ,0.0007707192823279203, ,0.1941572271908784,-0.2260752821600483,0.10258190915000001,1.6880040450504212,0.4492608112287682,-1.3107116608590141, ,0.16707208020857534,0.13290888173455292,0.03367613429175476,-0.020386841158908053,0.17500409868795416,-0.13862470311338182, ,1.4392290115356445
0.014247250673243003,0.021728529831486272,-0.09199917930883426, ,0.015128093845394569,0.02113826932858088,-0.09270491480502613, ,0.001273716901749105, ,0.021809706658903562,-0.005545703219621522,-0.03232721026527693,-0.04908333019876516,-0.06887238323646282,-0.003416799488524678, ,0.039388661468536465, ,0.08457270937288762, ,0.0007744729959056903, ,0.19593345575195004,-0.224654299311191,0.10292412971,1.687584665163452,0.45062717622642257,-1.3116624824156973, ,0.17222675418960212,0.13914507559893075,0.033534340042105266,-0.020674547923419665,0.11196970469150158,-0.08644842472061946, ,1.4420199394226074
0.014247250673243003,0.021728529831486272,-0.09199917930883426, ,0.015184254061981808,0.021123421301318793,-0.0927911415459039, ,0.0013679677879006483, ,0.021809706658903562,-0.005545703219621522,-0.03232721026527693,-0.04908333019876516,-0.06887238323646282,-0.003416799488524678, ,0.039388661468536465, ,0.08457270937288762, ,0.0007788692536241714, ,0.19593345575195004,-0.224654299311191,0.10292412971,1.687584665163452,0.45062717622642257,-1.3116624824156973, ,0.17222675418960212,0.13914507559893075,0.033534340042105266,-0.020674547923419665,0.11196970469150158,-0.08644842472061946, ,1.4447729587554932
0.014247250673243003,0.021728529831486272,-0.09199917930883426, ,0.015240572282059977,0.021108407589443143,-0.09287723143147125, ,0.001463630740209654, ,0.021809706658903562,-0.005545703219621522,-0.03232721026527693,-0.04908333019876516,-0.06887238323646282,-0.003416799488524678, ,0.039388661468536465, ,0.08457270937288762, ,0.0007839042645549469, ,0.19593345575195004,-0.224654299311191,0.10292412971,1.687584665163452,0.45062717622642257,-1.3116624824156973, ,0.17222675418960212,0.13914507559893075,0.033534340042105266,-0.020674547923419665,0.11196970469150158,-0.08644842472061946, ,1.4476380348205566
0.014247250673243003,0.021728529831486272,-0.09199917930883426, ,0.015297046271825631,0.021093231547476228,-0.0929631855254856, ,0.0015604431082907172, ,0.021809706658903562,-0.005545703219621522,-0.03232721026527693,-0.04908333019876516,-0.06887238323646282,-0.003416799488524678, ,0.039388661468536465, ,0.08457270937288762, ,0.0007895724312975439, ,0.19593345575195004,-0.224654299311191,0.10292412971,1.687584665163452,0.45062717622642257,-1.3116624824156973, ,0.17222675418960212,0.13914507559893075,0.033534340042105266,-0.020674547923419665,0.11196970469150158,-0.08644842472061946, ,1.4505078792572021
0.014477670123141474,0.0216649809909817,-0.0923426636173983, ,0.015353673807671463,0.021077896515329236,-0.0930490048852019, ,0.0012692393877691622, ,0.022634015860053067,-0.006322928445843581,-0.03409115200532827,-0.014274679608333537,-0.025141378804809003,0.043796001546598955, ,0.041406336992479656, ,0.028910367662493126, ,0.0007930482788082077, ,0.19777146617601546,-0.2231483664007172,0.10328060946,1.6869555953329984,0.4521301777238424,-1.3128064006162172, ,0.1817949072001356,0.14897479051565274,0.035476194922048995,-0.07004131376114832,0.17843667942174518,-0.13755906042615193, ,1.45328688621521
0.014477670123141474,0.0216649809909817,-0.0923426636173983, ,0.015410452676169147,0.02106240581832557,-0.09313469056138604, ,0.0013639966312043957, ,0.022634015860053067,-0.006322928445843581,-0.03409115200532827,-0.014274679608333537,-0.025141378804809003,0.043796001546598955, ,0.041406336992479656, ,0.028910367662493126, ,0.0007971558209117775, ,0.19777146617601546,-0.2231483664007172,0.10328060946,1.6869555953329984,0.4521301777238424,-1.3128064006162172, ,0.1817949072001356,0.14897479051565274,0.035476194922048995,-0.07004131376114832,0.17843667942174518,-0.13755906042615193, ,1.456043004989624
0.014477670123141474,0.0216649809909817,-0.0923426636173983, ,0.01546738067405198,0.021046762767223354,-0.09322024359832794, ,0.0014600915620942938, ,0.022634015860053067,-0.006322928445843581,-0.03409115200532827,-0.014274679608333537,-0.025141378804809003,0.043796001546598955, ,0.041406336992479656, ,0.028910367662493126, ,0.0008018910762059383, ,0.19777146617601546,-0.2231483664007172,0.10328060946,1.6869555953329984,0.4521301777238424,-1.3128064006162172, ,0.1817949072001356,0.14897479051565274,0.035476194922048995,-0.07004131376114832,0.17843667942174518,-0.13755906042615193, ,1.4587788581848145
0.014690686796704846,0.021608271227994653,-0.0926636479349533, ,0.015524455608197946,0.02103097065823969,-0.09330566503385554, ,0.0012002634436409667, ,0.021723772076042196,-0.005663247624633438,-0.032371727384844035,0.03453304563727659,0.006539424463531752,0.022874130173433278, ,0.03939445875689128, ,0.03514626244905872, ,0.0008047164121451938, ,0.19949363560696753,-0.2217582744833568,0.10361634857000002,1.6867459053895137,0.4540430887205586,-1.3142845725278267, ,0.17638836720905351,0.1381323749031598,0.033963350788912584,-0.05026007670502715,0.20107388425424588,-0.17168169332687008, ,1.4620678424835205
0.014690686796704846,0.021608271227994653,-0.0926636479349533, ,0.01558167529561204,0.021015032773072366,-0.09339095589934761, ,0.0012941287589165434, ,0.021723772076042196,-0.005663247624633438,-0.032371727384844035,0.03453304563727659,0.006539424463531752,0.022874130173433278, ,0.03939445875689128, ,0.03514626244905872, ,0.0008081629779675272, ,0.19949363560696753,-0.2217582744833568,0.10361634857000002,1.6867459053895137,0.4540430887205586,-1.3142845725278267, ,0.17638836720905351,0.1381323749031598,0.033963350788912584,-0.05026007670502715,0.20107388425424588,-0.17168169332687008, ,1.4649360179901123
0.014690686796704846,0.021608271227994653,-0.0926636479349533, ,0.01563903756341026,0.02099895237892501,-0.09347611721974788, ,0.0013895124955454446, ,0.021723772076042196,-0.005663247624633438,-0.032371727384844035,0.03453304563727659,0.006539424463531752,0.022874130173433278, ,0.03939445875689128, ,0.03514626244905872, ,0.0008122283592093309, ,0.19949363560696753,-0.2217582744833568,0.10361634857000002,1.6867459053895137,0.4540430887205586,-1.3142845725278267, ,0.17638836720905351,0.1381323749031598,0.033963350788912584,-0.05026007670502715,0.20107388425424588,-0.17168169332687008, ,1.4678218364715576
0.014690686796704846,0.021608271227994653,-0.0926636479349533, ,0.015696540248801037,0.020982732728528453,-0.09356115001357812, ,0.0014861189597552842, ,0.021723772076042196,-0.005663247624633438,-0.032371727384844035,0.03453304563727659,0.006539424463531752,0.022874130173433278, ,0.03939445875689128, ,0.03514626244905872, ,0.0008169081550464556, ,0.19949363560696753,-0.2217582744833568,0.10361634857000002,1.6867459053895137,0.4540430887205586,-1.3142845725278267, ,0.17638836720905351,0.1381323749031598,0.033963350788912584,-0.05026007670502715,0.20107388425424588,-0.17168169332687008, ,1.4707629680633545
0.014856732001042774,0.021562510839517747,-0.09290589637604818, ,0.015754181199069173,0.020966377060164926,-0.09364605529295147, ,0.0013071441267875404, ,0.02172669697267386,-0.006362593293079363,-0.030466385294328335,0.0238391809927814,-0.004403457530365102,-0.03659470587438248, ,0.03795698338458945, ,0.024241921130938225, ,0.0008202890927826009, ,0.20084511385995682,-0.2206848146138396,0.10387042141000001,1.6865362154460295,0.4555460902179784,-1.3154284907283467, ,0.177046532758341,0.1424879002379441,0.03192146597194389,0.009295233982514868,0.17680700957730444,-0.1548508676234595, ,1.473747968673706
0.014856732001042774,0.021562510839517747,-0.09290589637604818, ,0.015811958271558423,0.02094988859769142,-0.09373083406358698, ,0.0014029559606008356, ,0.02172669697267386,-0.006362593293079363,-0.030466385294328335,0.0238391809927814,-0.004403457530365102,-0.03659470587438248, ,0.03795698338458945, ,0.024241921130938225, ,0.00082427996174026, ,0.20084511385995682,-0.2206848146138396,0.10387042141000001,1.6865362154460295,0.4555460902179784,-1.3154284907283467, ,0.177046532758341,0.1424879002379441,0.03192146597194389,0.009295233982514868,0.17680700957730444,-0.1548508676234595, ,1.4765539169311523
0.014856732001042774,0.021562510839517747,-0.09290589637604818, ,0.015869869333653707,0.020933270550561787,-0.09381548732482103, ,0.0014999154276374635, ,0.02172669697267386,-0.006362593293079363,-0.030466385294328335,0.0238391809927814,-0.004403457530365102,-0.03659470587438248, ,0.03795698338458945, ,0.024241921130938225, ,0.0008288761213722138, ,0.20084511385995682,-0.2206848146138396,0.10387042141000001,1.6865362154460295,0.4555460902179784,-1.3154284907283467, ,0.177046532758341,0.1424879002379441,0.03192146597194389,0.009295233982514868,0.17680700957730444,-0.1548508676234595, ,1.479400873184204
0.015167850157235822,0.021470710878691214,-0.09334278830357955, ,0.01592791226276492,0.0209165261138512,-0.09390001606962292, ,0.0010933059686527816, ,0.02207618022275625,-0.006584238351819624,-0.030893725905406642,-0.038465554796803456,-0.0468794806156317,-0.02369935153950296, ,0.03853741335662761, ,0.06064038643383576, ,0.000830662809529515, ,0.2032623292495891,-0.2187000722651639,0.10431504888000001,1.6867459053895137,0.4574590012146946,-1.3169066626399561, ,0.1738039222682615,0.1437832447855618,0.032375633170731714,0.0,0.13085277162912953,-0.09584799696253418, ,1.4827008247375488
0.015167850157235822,0.021470710878691214,-0.09334278830357955, ,0.015986084946309546,0.02089965846827894,-0.09398442128460717, ,0.0011862975629371338, ,0.02207618022275625,-0.006584238351819624,-0.030893725905406642,-0.038465554796803456,-0.0468794806156317,-0.02369935153950296, ,0.03853741335662761, ,0.06064038643383576, ,0.0008330496199550695, ,0.2032623292495891,-0.2187000722651639,0.10431504888000001,1.6867459053895137,0.4574590012146946,-1.3169066626399561, ,0.1738039222682615,0.1437832447855618,0.032375633170731714,0.0,0.13085277162912953,-0.09584799696253418, ,1.4854779243469238
0.015167850157235822,0.021470710878691214,-0.09334278830357955, ,0.016044385281694638,0.0208826707802309,-0.0940687039500471, ,0.0012810380586046827, ,0.02207618022275625,-0.006584238351819624,-0.030893725905406642,-0.038465554796803456,-0.0468794806156317,-0.02369935153950296, ,0.03853741335662761, ,0.06064038643383576, ,0.0008360362095460668, ,0.2032623292495891,-0.2187000722651639,0.10431504888000001,1.6867459053895137,0.4574590012146946,-1.3169066626399561, ,0.1738039222682615,0.1437832447855618,0.032375633170731714,0.0,0.13085277162912953,-0.09584799696253418, ,1.4881720542907715
0.015167850157235822,0.021470710878691214,-0.09334278830357955, ,0.016102811176301093,0.020865566201784033,-0.09415286503988875, ,0.0013771624834673776, ,0.02207618022275625,-0.006584238351819624,-0.030893725905406642,-0.038465554796803456,-0.0468794806156317,-0.02369935153950296, ,0.03853741335662761, ,0.06064038643383576, ,0.0008396198272541548, ,0.2032623292495891,-0.2187000722651639,0.10431504888000001,1.6867459053895137,0.4574590012146946,-1.3169066626399561, ,0.1738039222682615,0.1437832447855618,0.032375633170731714,0.0,0.13085277162912953,-0.09584799696253418, ,1.49092698097229
0.01538037142378508,0.02140205377760495,-0.09363074313426373, ,0.016161360547465125,0.02084834787072823,-0.09423690552176352, ,0.0011331227129645497, ,0.02110620890587347,-0.007412589734924776,-0.027353404596925632,-0.013473276955632914,-0.019383329708025993,-0.022336714288733264, ,0.0353359205908067, ,0.023605663507108722, ,0.0008415507672917234, ,0.20496133048191847,-0.2172868121491808,0.10461708445000001,1.6867459053895137,0.45896200271211446,-1.3181322595806169, ,0.1728541740591453,0.14334885431793168,0.028804360795660042,-0.0015176227576092914,0.15929480162287613,-0.12031267985470845, ,1.4936659336090088
0.01538037142378508,0.02140205377760495,-0.09363074313426373, ,0.01622003132246249,0.02083101891059096,-0.09432082635700292, ,0.0012277314116282757, ,0.02110620890587347,-0.007412589734924776,-0.027353404596925632,-0.013473276955632914,-0.019383329708025993,-0.022336714288733264, ,0.0353359205908067, ,0.023605663507108722, ,0.000844074823790655, ,0.20496133048191847,-0.2172868121491808,0.10461708445000001,1.6867459053895137,0.45896200271211446,-1.3181322595806169, ,0.1728541740591453,0.14334885431793168,0.028804360795660042,-0.0015176227576092914,0.15929480162287613,-0.12031267985470845, ,1.496433973312378
0.01538037142378508,0.02140205377760495,-0.09363074313426373, ,0.01627882143849002,0.020813582430659113,-0.09440462850065072, ,0.0013237860534873014, ,0.02110620890587347,-0.007412589734924776,-0.027353404596925632,-0.013473276955632914,-0.019383329708025993,-0.022336714288733264, ,0.0353359205908067, ,0.023605663507108722, ,0.000847189831775698, ,0.20496133048191847,-0.2172868121491808,0.10461708445000001,1.6867459053895137,0.45896200271211446,-1.3181322595806169, ,0.1728541740591453,0.14334885431793168,0.028804360795660042,-0.0015176227576092914,0.15929480162287613,-0.12031267985470845, ,1.4993200302124023
0.01538037142378508,0.02140205377760495,-0.09363074313426373, ,0.016337728842649016,0.02079604152600265,-0.09448831290147698, ,0.0014209890858778971, ,0.02110620890587347,-0.007412589734924776,-0.027353404596925632,-0.013473276955632914,-0.019383329708025993,-0.022336714288733264, ,0.0353359205908067, ,0.023605663507108722, ,0.0008508917624473252, ,0.206698945378619,-0.21584266110170083,0.10489708309000001,1.686326525502545,0.4604650042095343,-1.3193578565212774, ,0.17006620350980425,0.1420612897581898,0.02686140222596965,-0.015802538031928135,0.13737096855001485,-0.10370267630367296, ,1.5025348663330078
0.015584086719994575,0.021326438445123778,-0.09388842323039602, ,0.016396751491928943,0.020778399277498763,-0.09457188050199195, ,0.001194941338682198, ,0.020763797100227955,-0.007810208694013319,-0.02567942400060945,-0.03267823361073847,-0.040752991371851274,-0.009554821355150355, ,0.033934752789235884, ,0.05223659723730612, ,0.0008530972084488308, ,0.206698945378619,-0.21584266110170083,0.10489708309000001,1.686326525502545,0.4604650042095343,-1.3193578565212774, ,0.17006620350980425,0.1420612897581898,0.02686140222596965,-0.015802538031928135,0.13737096855001485,-0.10370267630367296, ,1.507714033126831
0.015584086719994575,0.021326438445123778,-0.09388842323039602, ,0.01645588735318861,0.020760658751853418,-0.09465533223845884, ,0.0012916239514667292, ,0.020763797100227955,-0.007810208694013319,-0.02567942400060945,-0.03267823361073847,-0.040752991371851274,-0.009554821355150355, ,0.033934752789235884, ,0.05223659723730612, ,0.0008558903724170977, ,0.206698945378619,-0.21584266110170083,0.10489708309000001,1.686326525502545,0.4604650042095343,-1.3193578565212774, ,0.17006620350980425,0.1420612897581898,0.02686140222596965,-0.015802538031928135,0.13737096855001485,-0.10370267630367296, ,1.5121629238128662
0.01570096099067179,0.02128053661402082,-0.09403281463707582, ,0.01651513440314044,0.02074282300162581,-0.09473866904090757, ,0.0012042610655229244, ,0.020945262975270634,-0.007980669783964656,-0.025843607413070433,-0.05630597688362786,-0.06912497916420901,0.01918807765915551, ,0.034209460320572704, ,0.08915500125602147, ,0.000858095250221565, ,0.2076488415221486,-0.21503949688278148,0.10504745273,1.6859071456155759,0.4611481867083615,-1.319833267299619, ,0.16915675857124915,0.1422742752001061,0.02695230375634518,-0.04737366012846722,0.11398908342208712,-0.087724644342999, ,1.5150020122528076
0.01570096099067179,0.02128053661402082,-0.09403281463707582, ,0.016574490628332644,0.020724895065251103,-0.09482189183314804, ,0.001301704413433525, ,0.020945262975270634,-0.007980669783964656,-0.025843607413070433,-0.05630597688362786,-0.06912497916420901,0.01918807765915551, ,0.034209460320572704, ,0.08915500125602147, ,0.0008608852449587471, ,0.2076488415221486,-0.21503949688278148,0.10504745273,1.6859071456155759,0.4611481867083615,-1.319833267299619, ,0.16915675857124915,0.1422742752001061,0.02695230375634518,-0.04737366012846722,0.11398908342208712,-0.087724644342999, ,1.517941951751709
0.01570096099067179,0.02128053661402082,-0.09403281463707582, ,0.016633954025131972,0.020706877967063286,-0.09490500153278408, ,0.00140009650618291, ,0.020945262975270634,-0.007980669783964656,-0.025843607413070433,-0.05630597688362786,-0.06912497916420901,0.01918807765915551, ,0.034209460320572704, ,0.08915500125602147, ,0.0008642553153413981, ,0.2076488415221486,-0.21503949688278148,0.10504745273,1.6859071456155759,0.4611481867083615,-1.319833267299619, ,0.16915675857124915,0.1422742752001061,0.02695230375634518,-0.04737366012846722,0.11398908342208712,-0.087724644342999, ,1.5207149982452393
0.01570096099067179,0.02128053661402082,-0.09403281463707582, ,0.0166935225997077,0.020688774717319825,-0.09498799905122711, ,0.0014992457954440493, ,0.020945262975270634,-0.007980669783964656,-0.025843607413070433,-0.05630597688362786,-0.06912497916420901,0.01918807765915551, ,0.034209460320572704, ,0.08915500125602147, ,0.000868199355590483, ,0.2076488415221486,-0.21503949688278148,0.10504745273,1.6859071456155759,0.4611481867083615,-1.319833267299619, ,0.16915675857124915,0.1422742752001061,0.02695230375634518,-0.04737366012846722,0.11398908342208712,-0.087724644342999, ,1.5235140323638916
0.01603317455345746,0.02115404592415789,-0.09442388528839152, ,0.016753194368012543,0.020670588312222526,-0.09507088529370789, ,0.0010820207034847153, ,0.019254172690956146,-0.0071665968100876176,-0.021284119170004813,-0.08434203126484913,-0.10661818983753545,-0.042017125733251885, ,0.029582038548661344, ,0.13594488689964027, ,0.0008695192404540276, ,0.2103209070966303,-0.21282307254787905,0.10545578408000002,1.6854877657286067,0.4625145517060159,-1.3209474463365831, ,0.15405347655595905,0.12486439678746157,0.022278058069930072,0.01868803599979029,0.04497914764286567,-0.03201302191752253, ,1.527298927307129
