NicholasDascanio/dvrk_moveit_final/test/execution/third_experiment_notsharpbends/thirdexp_400vel4.0/thirdexp_400vel4.0_18.csv
Current Position (x),Current Position (y),Current Position (z), ,Planned Position (x),Planned Position (y),Planned Position (z), ,Position Error,,Cartesian linear Velocity(x),Cartesian linear Velocity(y),Cartesian linear Velocity(z),Cartesian Angular Velocity(x),Cartesian Angular Velocity(y),Cartesian Angular Velocity(z), ,Total Linear Velocity, ,Total Angular Velocity, ,MSE, ,Joint 1 Position,Joint 2 Position,Joint 3 Position,Joint 4 Position,Joint 5 Position,Joint 6 Position, ,Joint 1 Velocity,Joint 2 Velocity,Joint 3 Velocity,Joint 4 Velocity,Joint 5 Velocity,Joint 6 Velocity, ,Time Stamp
0.010099927892681122,0.020191127002232575,-0.07965575617103164, ,0.010246672255767699,0.020157938853321084,-0.07974007514396661, ,0.0001724675346917919, ,-3.207103458283318e-05,-9.329880205840531e-06,-1.0308266184484716e-05,0.2361100058422834,-0.000622230201757565,-0.06642928074931753, ,3.495508940910905e-05, ,0.2361108257350075, ,1.4372294557649325e-05, ,0.173676539608435,-0.24111916579903764,0.09005585888,1.6894718746548125,0.43614370725128593,-1.282781327934499, ,-0.0004109773153782723,8.597610610658845e-05,3.7340008749467e-06,-0.0008972811583183278,0.0,-0.24573432931177708, ,0.028549909591674805
0.010129288238594575,0.020195659201637302,-0.07967473448554128, ,0.010249047299873096,0.020206630722828117,-0.0798296142851311, ,0.0001960876318295887, ,0.0011115538783486245,0.0001366493549799624,-0.0004626758480935346,0.24855734032797666,-0.1264530019118051,-0.10441692154659035, ,0.0012117318230934516, ,0.2788747265770503, ,1.6752507569153664e-05, ,0.17366109414268655,-0.2411423339976603,0.09006752549000001,1.6894718746548125,0.43286443125691537,-1.2882751722598411, ,-0.0006842068352559068,-0.001310073820761113,0.00016676380260765975,-0.0008972811583183278,-0.13046887903174773,-0.2672700921435821, ,0.058975934982299805
0.010180094754281757,0.020213405486986184,-0.07973775175004369, ,0.010252117996029804,0.020254450927093107,-0.0799192830082035, ,0.00019956370710766193, ,0.001810310179970254,0.0007887294588808142,-0.002667413779841606,0.19044321200441083,-0.15993694852843826,-0.09588917705175636, ,0.0033187969778067533, ,0.24869347499082126, ,1.775371480090758e-05, ,0.1736456486769381,-0.2412041158606541,0.09012196967000001,1.6894718746548125,0.4279455172653595,-1.2939022190633565, ,-0.0004113284200489451,-0.00275623737506613,0.002423370077590142,-0.0008972811583183278,-0.16489726619863695,-0.20785260187816823, ,0.08603191375732422
0.010210445469465958,0.020247382020578172,-0.07984555238872816, ,0.010255879499267723,0.020301406034874465,-0.08000907984636374, ,0.00017811253348787626, ,0.00030098576121234536,0.0009205651806945719,-0.0029191099820776605,-0.15226543730218695,0.013233363688947054,0.04670134891788277, ,0.0030755870606804883, ,0.1528394102027949, ,1.7767414455164735e-05, ,0.17357614408107008,-0.24130451138801903,0.09023085803000001,1.6894718746548125,0.4258959697688779,-1.292639344208613, ,-0.001401387362855046,-0.002233324353752957,0.0031117037546395786,-0.0008972811583183278,0.011497577058842294,0.16091095067890587, ,0.11771106719970703
0.01020903251983989,0.020277527609129924,-0.07992126065425914, ,0.010260326981362429,0.020347502593035575,-0.08009900333655157, ,0.00019778797047340774, ,9.138696272455212e-05,0.0012702545895398388,-0.0028023769498377723,-0.045541803288807005,0.035584770597651874,0.025998166246479232, ,0.003078183696302919, ,0.057795603164177346, ,1.8154218799813973e-05, ,0.1735220849509505,-0.24142807511400663,0.09031511688,1.6894718746548125,0.42712569826676683,-1.290211598255977, ,-0.0012614007194890722,-0.006471240988687924,0.0031405385488959,-0.0008972811583183278,0.03549404366699208,0.05647822082761926, ,0.14790606498718262
0.010213366978547016,0.020298181067964424,-0.07997825570592113, ,0.010265455630811323,0.020392747126575118,-0.08018905201946447, ,0.0002368354976335611, ,0.00024424550984411726,0.0012313271086197336,-0.0026579701291636402,0.05604010379581642,0.0029836149067120916,-0.014543356217062082, ,0.002939494433576465, ,0.0561194724781405, ,1.9046046374578833e-05, ,0.17346802582083093,-0.2415130251756231,0.09037604251,1.6892621847113283,0.4272623347665323,-1.290404694899814, ,-0.0027214677584788466,-0.006604143116867109,0.002890366815459989,0.002233186077830087,0.0,-0.050994039792281, ,0.17503809928894043
0.01022183429445159,0.020335068705379378,-0.08006118101780768, ,0.010271260652809776,0.020437146138657273,-0.08027922443955435, ,0.00024577571290131486, ,0.0003229920503068716,0.0011364239038934812,-0.0030482975371289456,0.001072161788677712,-0.0037719494044505036,0.025792773410619, ,0.00326923554195294, ,0.003921368759455627, ,1.9814313723961147e-05, ,0.17337535302634025,-0.24166747983310757,0.09046548652000001,1.6901009444852664,0.42712569826676683,-1.2907016706968204, ,-0.0024320853926642133,-0.005608377295507717,0.0032527693526648977,-0.02592586312121208,0.0,0.00011368353675138016, ,0.20230889320373535
0.010229021065792376,0.02036521104687789,-0.08013472913169363, ,0.010277737269227462,0.02048070611064002,-0.08036951914502431, ,0.00026615545944122315, ,0.000258907327481209,0.0012045870440663495,-0.00333878543727305,-0.009372155646501587,-0.001001667592836056,0.02370178125590181, ,0.0035588693635904313, ,0.00942553123245, ,2.0898593179832414e-05, ,0.17330584843047223,-0.2418064890248436,0.09054456021000001,1.6901009444852664,0.42712569826676683,-1.290783349436961, ,-0.0038598521829030096,-0.005346021351865781,0.0035413098088039135,-0.02059187183851026,0.0,0.011608563118467839, ,0.22911810874938965
0.010246249593202021,0.020420878785346326,-0.08027368821322055, ,0.010284880718584353,0.020523433502107002,-0.0804599346878261, ,0.000216096235694109, ,0.00032832828116743267,0.0012597496587968037,-0.0028957031394335536,0.0022923259842668746,-0.0008814589190259148,0.013795371320710985, ,0.0031748803654277056, ,0.0024559576625990498, ,2.1209803147339273e-05, ,0.1732054529031073,-0.2420536164768188,0.09069363356000001,1.6901009444852664,0.4269890617670014,-1.290590252793124, ,-0.0021033347269430514,-0.006844575040408118,0.0031368277904686892,-0.012512454079530956,0.0,0.0024442600458987494, ,0.25386905670166016
0.010251123359082305,0.020447355616824852,-0.08032691757104463, ,0.010292686256026915,0.020565334750895555,-0.08055046962365676, ,0.00025616805168795294, ,0.0003463163020417557,0.0012368619500323405,-0.002636095185394103,0.005091983088788202,-0.0011587346062065238,0.011282487973861855, ,0.0029323642834674637, ,0.005222160236610167, ,2.1869195302509974e-05, ,0.17315139377298774,-0.2422080711343033,0.09075196661000001,1.6901009444852664,0.4269890617670014,-1.2904268953128428, ,-0.0013396035094624026,-0.007208383318306293,0.00288356472121651,-0.010422940061725058,0.0,0.0002751576355899007, ,0.28220105171203613
0.010259770647518946,0.020484435656060784,-0.08040976035219104, ,0.01030114915330433,0.02060641627312805,-0.08064112251195636, ,0.00026480162509398943, ,0.00043917772887445945,0.0016155166769882873,-0.003874028626002263,0.001855643100942929,0.0007918152845893219,0.010917238489522576, ,0.004220292526146924, ,0.0020175187459819375, ,2.2498629259652564e-05, ,0.17306644371137125,-0.2424011394561589,0.09084141062000001,1.6901009444852664,0.42685242526723594,-1.2899070837084436, ,-0.002848121880940132,-0.007949975822860653,0.004179693392810286,-0.008679969676808414,0.0,0.004693521810222324, ,0.3089110851287842
0.010267852318993026,0.02052092975802379,-0.0804923401001505, ,0.010310264698744675,0.020646684463240344,-0.08073189191590407, ,0.0002738578614375307, ,0.00036145268954175985,0.001476549346245381,-0.0032815993769081363,-0.0009046756098237464,0.000868603098653746,0.010261051158416013, ,0.0036165923863767813, ,0.001254156657454231, ,2.310863095282058e-05, ,0.17295832545113213,-0.24267143510675676,0.09096585446000001,1.6901009444852664,0.42685242526723594,-1.2897437262281626, ,-0.0025343899372628955,-0.007960362834498561,0.003565885721961048,-0.007117502363464077,0.0,0.007839754256409837, ,0.33385300636291504
0.010279362307259027,0.02056713351744755,-0.08059537700675835, ,0.010320028197230963,0.020686145694012434,-0.0808227764024159, ,0.0002598616899878471, ,0.0003892842954446511,0.0015579190114988074,-0.003913059648228739,-0.00483861540097717,0.0015016353149344657,0.010186390927869474, ,0.004229738729480259, ,0.005066271479123669, ,2.352040882117345e-05, ,0.17289654358813833,-0.24282588976424127,0.09104233557000001,1.6901009444852664,0.4267157887674705,-1.289468950844185, ,-0.0035971382053872738,-0.007056727666081287,0.0041951044298130106,-0.006474575866049712,-0.0006238170009111028,0.011059764428731796, ,0.35993003845214844
0.010289103684962293,0.020611059427629908,-0.08070277527358727, ,0.010330434970177431,0.020724806316597982,-0.08091377454214167, ,0.00024324333745848854, ,0.00033242848044913453,0.0015555083230356281,-0.003779769195226359,0.0022195528298209317,0.00345480247116761,0.0023742074226948398, ,0.004100825527479674, ,0.0041063455903843325, ,2.375418406612106e-05, ,0.17278842532789918,-0.24303440355184533,0.09115770538000001,1.6898912545417817,0.4267157887674705,-1.2893872721040442, ,-0.0040301104486134,-0.007120100761012661,0.004059330152905199,0.0,-0.0006244459286179201,0.004924532030154959, ,0.3864328861236572
0.010297697181631737,0.020645416504338137,-0.08078092180269132, ,0.010341480355505634,0.02076267266055449,-0.08100488490946191, ,0.0002565647007665675, ,0.00028314677456104016,0.0013221187259324053,-0.0029404733283389575,-0.001962168873075904,0.0024095501975238505,-0.0008031460654796185, ,0.003236441474224157, ,0.0031074167118404898, ,2.4051246872867435e-05, ,0.17271119799915693,-0.2431888582093298,0.09124196423000001,1.6903106344287508,0.4265791522677051,-1.2891941754602074, ,-0.0029776980526487686,-0.006639806363590444,0.003184488508596562,0.0041986798555204725,-0.0016946261999448147,0.009413447939429904, ,0.4112269878387451
0.010301610179255405,0.02067077106295513,-0.08083993397193498, ,0.010353159707620588,0.0207997510338725,-0.08109610608248458, ,0.00029140579437607724, ,0.0003246640213505331,0.001376677131487452,-0.0034302351014202414,-0.0029420098435368053,0.0028657596969919653,-0.0006152558568053522, ,0.0037104123089133304, ,0.004107067090449347, ,2.4702535158348603e-05, ,0.17259535700604356,-0.2433742037983112,0.09134826001000002,1.6903106344287508,0.4265791522677051,-1.288704103019364, ,-0.0038244363472005084,-0.006126715331974077,0.0045680560711213085,0.0037470171257192753,-0.0016946261999448147,0.011456477671150989, ,0.4340081214904785
0.010317269939069095,0.02072054638171113,-0.0809773985263533, ,0.010365468397387029,0.020836047723006002,-0.0811874366430429, ,0.00024449879690430616, ,0.0006054008820554419,0.0017570665794340657,-0.004980871752689962,-0.006765372283521397,0.0027461598384702405,0.0008322704737275093, ,0.005316284097873477, ,0.007301482926596937, ,2.499552588108309e-05, ,0.17253357514304976,-0.24349004479142455,0.09145196321000001,1.6903106344287508,0.4265791522677051,-1.288540745539083, ,-0.0033499480858298412,-0.005737701136134623,0.00529548255319149,0.0034576948547799962,-0.0015692261882335548,0.0133562561310385, ,0.4555199146270752
0.010322571450348575,0.02073495288257982,-0.08101882993279103, ,0.010378401812105371,0.020871568992901497,-0.08127887517669145, ,0.0002990058858426582, ,0.0006076416158982136,0.001531645224996857,-0.004545143954682851,0.008491771901838837,0.0017230054233906564,-0.003871502361966047, ,0.004834614668969713, ,0.008664810198854728, ,2.558505968342829e-05, ,0.1725104069444271,-0.2435363811886699,0.09149603707000001,1.6903106344287508,0.4265791522677051,-1.2884590667989424, ,-0.0023969309210385924,-0.004375893942923004,0.004821068861985473,0.003348839496183506,-0.0015150587844901618,-0.0038786504644820604, ,0.48160696029663086
0.010342491054806143,0.0207869860110376,-0.08115969378824692, ,0.010391955355488097,0.020906321087029035,-0.08137042027270402, ,0.00024717044454280633, ,0.0004628447229240186,0.0012703542700871124,-0.003471593202008875,-0.0016803788178750539,0.001243527313530028,-0.0006114429167282996, ,0.0037255851311305994, ,0.002090462304565767, ,2.582647995090204e-05, ,0.17244090234855908,-0.24372944951052553,0.09164640671,1.6903106344287508,0.4264425157679396,-1.2882659701551054, ,-0.0018684897280982979,-0.004471091922277312,0.0037060985388552826,0.0029278474006679553,-0.001420387048171804,0.006706248275135145, ,0.5035979747772217
0.010354138151514012,0.02081849053627659,-0.08124442648984792, ,0.01040612444763568,0.02094031022741066,-0.08146207052406979, ,0.0002547774278950506, ,0.0006090171639297752,0.0014185455391479318,-0.00418473815973575,-0.0031667445693675275,0.00025789816238623044,0.002350946048919331, ,0.004460404333482125, ,0.0031772285637709104, ,2.6088249452466355e-05, ,0.17240228868418794,-0.24383756777076468,0.09173714701,1.6905203243722353,0.4264425157679396,-1.2881026126748243, ,-0.0015840408308035094,-0.004216688663011236,0.004446904388609716,0.0,-0.001420387048171804,0.00748237794791592, ,0.5262589454650879
0.010367364218040845,0.020846729018154306,-0.08132488810651174, ,0.01042090452501296,0.020973542614651255,-0.08155382452749119, ,0.00026713318322147273, ,0.0006014697221107809,0.0014220726060970386,-0.003936349842326317,-0.000582317110493491,-0.0011711248972611408,0.0016522194813719986, ,0.0042283455872019335, ,0.001307908940667767, ,2.6392557721225428e-05, ,0.17237912048556528,-0.24393024056525536,0.09182270215,1.6905203243722353,0.4263058792681742,-1.2879095160309872, ,-0.00126653159623931,-0.0049678397243412475,0.004203961868566905,0.0,-0.0025623074274416773,0.005478069049406522, ,0.5482020378112793
0.010381723399765286,0.020876555765877984,-0.08141105079105024, ,0.010436291040425101,0.021006024427967743,-0.08164568088338049, ,0.0002734795094653243, ,0.0007453964211149852,0.0015806108349367244,-0.004408843833843963,0.0004597698707812695,-0.0019176826724043895,0.0015489977010796688, ,0.004742557367850633, ,0.0019720277635762377, ,2.670425295970303e-05, ,0.17237139775269106,-0.24402291335974605,0.09191473874000002,1.6905203243722353,0.4263058792681742,-1.2879095160309872, ,-0.0005238163916468469,-0.005384280942548268,0.004715456341030197,0.0,-0.0025623074274416773,0.0048226543285363995, ,0.5708620548248291
0.010396682110936901,0.020907032711837956,-0.08149696959526498, ,0.010452279462993846,0.021037761825219325,-0.08173763819585667, ,0.0002794683201223063, ,0.0006941107823268843,0.0013694931037506448,-0.0040309850927812375,-0.0010531644358480964,-0.002091337097041905,0.0013717528660235005, ,0.0043134837379533, ,0.0023415475904022868, ,2.7020764000302464e-05, ,0.17237139775269106,-0.24412330888711098,0.09200677533000001,1.6905203243722353,0.4263058792681742,-1.2878278372908467, ,-0.00034919703251248325,-0.004043366811608915,0.004293480194070082,0.0,-0.0025623074274416773,0.005021773325587771, ,0.5924389362335205
0.010411362645792519,0.020937207025533287,-0.08158213566109279, ,0.010468865278133578,0.02106876094293672,-0.0818296950727428, ,0.0002861793986415543, ,0.0006812972122234322,0.0013914969922955369,-0.0039434918219572795,0.0021256874072635087,-0.001651617998734967,0.0008666144834915988, ,0.0042369278399324774, ,0.002691911590944149, ,2.7472085166067284e-05, ,0.17235595228694262,-0.24422370441447588,0.09209751563000002,1.6905203243722353,0.42616924276840873,-1.2876347406470097, ,-0.000262809700220732,-0.004532217716744407,0.004215086403810532,0.0,-0.0020003141807090987,0.002268133648882402, ,0.61598801612854
0.010422800042311007,0.02096375975947514,-0.0816546907947975, ,0.010486043987527607,0.021099027896352505,-0.0819218501255626, ,0.0003060577943390703, ,0.0006022665831861709,0.0012298306878825384,-0.0035123314363899832,0.005508516619356472,-0.0004996541922290998,-0.0045652005178261675, ,0.0037698382826235007, ,0.005531130908141839, ,2.798448695965557e-05, ,0.17234050682119414,-0.24430865447609237,0.09217529303000001,1.69073001431572,0.42616924276840873,-1.2874713831667286, ,-0.00033437382321561563,-0.0037238454064559066,0.0037506031363315285,0.004548674149722992,-0.0020003141807090987,-0.0012826079009694282, ,0.6359720230102539
0.01043591152161711,0.020990497902743006,-0.08173372011070108, ,0.010503811109104148,0.02112856877943101,-0.08201410196953819, ,0.000319824807879652, ,0.0008757495522663358,0.0014336068058210688,-0.004474420443602408,0.0035183405871179823,-0.0017769503658696553,-0.0038984547025804174, ,0.004779393691475765, ,0.003941607704515757, ,2.8525680842459338e-05, ,0.17233278408831992,-0.24438588180483461,0.09225955188000001,1.69073001431572,0.42616924276840873,-1.2873080256864475, ,0.0009449195760011853,-0.003238601267178054,0.004760553353257622,0.004207139759972935,-0.0019218359366912244,0.00023336196355236774, ,0.6558148860931396
0.010453563132346636,0.021022259625048903,-0.08183512937678854, ,0.010522162177012582,0.02115738966489753,-0.08210644922358597, ,0.0003107738983002805, ,0.001047154665887169,0.0017097626390587747,-0.005587676286429867,0.004538369697462755,-0.0014686600110590173,-0.0039053114397802373, ,0.0059364928584258545, ,0.004770089757221233, ,2.899641869162487e-05, ,0.17233278408831992,-0.24445538640070263,0.09236714395000001,1.69073001431572,0.42616924276840873,-1.2873080256864473, ,0.0006913896402334167,-0.0031846089918136514,0.005921491271375466,0.003920267755618279,-0.0017864698192118901,-0.0009187624426919346, ,0.6755568981170654
0.01046909860581401,0.021048681675976674,-0.08192066588376587, ,0.010541092741599556,0.021185496604268945,-0.0821988905103149, ,0.0003182929829724079, ,0.000888778750745692,0.0015115102257947024,-0.005015174929121392,-0.0007053749230413179,-0.000705218490370493,-0.002497418588549381, ,0.0053128683778300755, ,0.0009974385838263957, ,2.9470978576937765e-05, ,0.17234050682119414,-0.2445094455308222,0.09245788425000001,1.69073001431572,0.42616924276840873,-1.2871446682061662, ,0.0,-0.002599887278310473,0.00530253379494008,0.0037093182527455286,-0.0016870582482162483,0.003895116506409011, ,0.6961181163787842
0.010488718864778304,0.021082656550595172,-0.08203337996663948, ,0.01056059836938508,0.021212895627882297,-0.08229142445602228, ,0.0002978520420207758, ,0.0007777690713901287,0.001344056447154208,-0.004273417916825556,-0.005549200579296801,-0.0008499999018365537,-0.0007822585074101636, ,0.004546813516452322, ,0.005613922468041998, ,2.9837199344866612e-05, ,0.17234050682119414,-0.244571227393816,0.09257714293000001,1.69073001431572,0.42616924276840873,-1.2872263469463068, ,0.00022978756006798997,-0.002828933943566841,0.004534247514944492,0.003443587465652678,-0.001562553226089905,0.009118331622039995, ,0.7157950401306152
0.01051245651307809,0.02112306798313787,-0.08216547024689595, ,0.010580674643038761,0.02123959274492601,-0.0823840496906917, ,0.00025692159624128986, ,0.0008004753265693099,0.001344188409130056,-0.00442534300479137,-0.007090598067840269,-0.000767848284601496,-0.00034226642308444257, ,0.004693747323593565, ,0.007132052316873391, ,3.0024207908396668e-05, ,0.1723482295540684,-0.24464073198968403,0.09271714225000001,1.6909397042592043,0.42616924276840873,-1.2870629894660257, ,8.017261991425874e-05,-0.001976407284013953,0.005224274030829781,0.0,-0.001427260380519367,0.00597315077897625, ,0.737663984298706
0.010518224270369473,0.021132823988397692,-0.08219860323253152, ,0.010601317161355884,0.021265593943468983,-0.08247676484798955, ,0.0003192274640696404, ,0.0008866537733032619,0.0014461155830287242,-0.004987531222828072,-0.0035542344059703392,-0.0013961773137379566,0.0015123224976345152, ,0.005268099552198715, ,0.0038186241262725693, ,3.055303762938245e-05, ,0.1723482295540684,-0.24465617745543247,0.09275214208,1.6909397042592043,0.42616924276840873,-1.2870629894660257, ,8.017261991425874e-05,-0.002077147886666593,0.005260505785997359,0.0,-0.0014002790762928069,0.005698634957837304, ,0.7546100616455078
0.010538574953383551,0.021165854782033654,-0.0823155080976144, ,0.010622521539233473,0.02129090519048998,-0.08256956856526217, ,0.0002953495474050281, ,0.0009781429160228249,0.0014886126062185242,-0.0052797092175304785,-0.003203396889981241,-0.0018088154536807185,0.0012714303463512316, ,0.005572078649591608, ,0.0036787988362646505, ,3.0969510943987404e-05, ,0.1723482295540684,-0.24469479111980358,0.09287528963000001,1.6909397042592043,0.42616924276840873,-1.2870629894660257, ,0.0005713948569867246,-0.0016984053470359933,0.0055636784910932605,0.0,-0.0013141782553550815,0.004954437825687136, ,0.7728660106658936
0.010559402278411716,0.021197298382563814,-0.08243141255861647, ,0.010644283407646634,0.021315532431908788,-0.08266245948353278, ,0.0002730691817799789, ,0.0011157700260127329,0.0016488364674447356,-0.006129952253112723,-0.0006083324112421445,-0.0016459303670720295,0.0002953070626929238, ,0.0064451469395791, ,0.0017547496802823802, ,3.12867913662276e-05, ,0.17235595228694262,-0.24471795931842627,0.09299714089000001,1.6909397042592043,0.42616924276840873,-1.2869813107258852, ,0.00045338142597552074,-0.0010713558560318998,0.006438484850444625,0.0,-0.0012477670033418876,0.0016266446398471176, ,0.789341926574707
0.010570336702105228,0.021213657127217195,-0.08249048166113541, ,0.010666598413624473,0.02133948159261454,-0.08275543624749832, ,0.0003087054357018643, ,0.001137326023085415,0.0016686030281883525,-0.006218039198678584,-0.0006417222569149686,-0.0017331653354603171,0.0004449891735518811, ,0.0065377181053307915, ,0.0018481504916208946, ,3.1717341855567456e-05, ,0.17236367501981684,-0.2447334047841747,0.09305936281,1.6909397042592043,0.42616924276840873,-1.2869813107258852, ,0.0005299615520692866,-0.0010447732315324561,0.006530878031980321,-0.00015849769082041228,-0.0012188469293748477,0.0016090591662052888, ,0.805994987487793
0.010585595712079076,0.021237242310093326,-0.08257812930636568, ,0.010689462220226325,0.021362758576496492,-0.08284849750552684, ,0.0003156604944622275, ,0.0009929089152335162,0.0014653018130873692,-0.0054028921709443675,-0.0005446054414952735,-0.001627236218429269,0.0002986943106642885, ,0.005685439413821879, ,0.0017159511046398394, ,3.215412388807206e-05, ,0.17236367501981684,-0.24474885024992316,0.09315139940000002,1.6909397042592043,0.42616924276840873,-1.2869813107258852, ,0.0005030695751431025,-0.001073905727080746,0.0056787206844919795,0.0,-0.0011764167812917364,0.0015688288323601818, ,0.8235049247741699
0.01060989752791698,0.02127213898143048,-0.08271021695378009, ,0.010712870506517867,0.021385369266472973,-0.0829416419096538, ,0.0002774563785064065, ,0.0008501633216840631,0.0012604625345878837,-0.004784096161903686,-0.0010712552016238649,-0.0011712308466149653,0.00029271118124517037, ,0.0050198724646128385, ,0.0015872513653993853, ,3.2442627762399625e-05, ,0.17237912048556528,-0.2447642957156716,0.09329010243000001,1.6909397042592043,0.42616924276840873,-1.2868996319857446, ,9.422945435548337e-05,-0.0005449540918408671,0.005015368866498741,-7.100982979272105e-05,-0.0011095709222216426,0.00156763927394798, ,0.8397219181060791
0.010617931936705651,0.021283579223083014,-0.08275205818689965, ,0.010736818967547326,0.02140731952452234,-0.0830348681155801, ,0.0003307978900520436, ,0.0008283905809916713,0.0011580994372501338,-0.004397687774296309,-0.0011010148673436411,-0.001670548020852872,0.00021203373285753828, ,0.0046224542205878065, ,0.002000740558706604, ,3.289795259008406e-05, ,0.1723868432184395,-0.2447642957156716,0.09333417629000001,1.6911493942026892,0.42616924276840873,-1.2868996319857446, ,0.0006335901528153436,-0.00047545036937534583,0.004615708930744713,0.0,-0.0010860292210074353,0.0015414015108595656, ,0.8564059734344482
0.010636046322408613,0.021309023877200413,-0.0828523359173352, ,0.010761303314321465,0.021428615191712127,-0.083128174782668, ,0.0003256969084252805, ,0.0009673841590753967,0.0013543036240636452,-0.005221219983317091,-0.0016980795952203538,-0.0015741536415036575,0.00032721565764344914, ,0.005480064646659897, ,0.0023154762185154725, ,3.3318638468394794e-05, ,0.17239456595131372,-0.2447642957156716,0.09343917578000001,1.6911493942026892,0.42616924276840873,-1.286817953245604, ,0.0005849970635440826,-0.000334124529405008,0.005473818391752578,0.0,-0.0010393277341525038,0.002020104132875347, ,0.8728599548339844
0.010647035382989885,0.02132315979615452,-0.08290792688566838, ,0.010786319273781826,0.021449262088228376,-0.08322156057393873, ,0.0003656061825495919, ,0.0011651503980612927,0.0015915912838388472,-0.006167385788774609,-0.0017074275198446212,-0.0019441924576244988,0.00031716915640171185, ,0.006475135962470069, ,0.002587505386451578, ,3.396061585616131e-05, ,0.1724100114170622,-0.2447642957156716,0.09349750883,1.6911493942026892,0.42616924276840873,-1.286817953245604, ,0.0009749838822922449,-0.0002925777389295916,0.006467239756394642,0.0,-0.0010184268860103526,0.0019890036350968037, ,0.8867568969726562
0.010671052137505153,0.02135332661941075,-0.08302423218781034, ,0.010811862588780814,0.021469266013406756,-0.08331502415606917, ,0.00034326301151225443, ,0.0013949310891403569,0.0017364676636548015,-0.0068227892116887,-0.0010862566619207431,-0.0024269760678870675,0.00029971467624900116, ,0.00717715858244088, ,0.0026589756646229873, ,3.451128230768971e-05, ,0.17244090234855908,-0.24477201844854585,0.09361936009,1.6911493942026892,0.4260326062686433,-1.2867065353419076, ,0.002433650986554002,0.0,0.007165457273954117,0.0,0.0,0.0011268659979187627, ,0.9043610095977783
0.010687214741062125,0.02137311751783419,-0.08310195887859702, ,0.010837929018057826,0.02148863274576053,-0.08340856419938882, ,0.00036064578731915365, ,0.0011732899146016352,0.0014627387708619284,-0.005747480003705595,-0.0010560983872149009,-0.0020184045864305913,0.00029135844398966277, ,0.006045638124175499, ,0.002278002327977758, ,3.509906160700442e-05, ,0.17247179328005596,-0.24477201844854585,0.09370102636000001,1.6911493942026892,0.4260326062686433,-1.2867065353419076, ,0.0020248941307585556,0.0,0.0060359270632815475,0.0,0.0,0.0010955709290354399, ,0.9177930355072021
0.010714400770344546,0.021404512516599774,-0.08322783691161498, ,0.010864514336215417,0.021507368043012683,-0.08350217937787727, ,0.00032920682065689413, ,0.001525920509825348,0.0017471760454397002,-0.006887824717860153,-0.001111308732336956,-0.0038198856297487044,0.00025897737192283305, ,0.007267956169380032, ,0.003978255625285876, ,3.557202010737941e-05, ,0.17253357514304976,-0.2447642957156716,0.09383324794,1.6911493942026892,0.4260326062686433,-1.2867065353419076, ,0.0038260687448415033,0.00010721333172346516,0.007246957015468609,0.0,0.0,0.0010432578816527154, ,0.9317619800567627
0.01072970851675414,0.021422103882409334,-0.08329680548653215, ,0.010891614333695275,0.021525477642123373,-0.08359586836916037, ,0.00035544090299611625, ,0.0014926410463821011,0.0016771208042461578,-0.006607428236565803,-0.0010812102556101058,-0.003996705973827124,0.0002533033837033367, ,0.006978453939573364, ,0.004140369749684549, ,3.611014375119522e-05, ,0.1725721888074209,-0.2447642957156716,0.09390584018,1.6911493942026892,0.4260326062686433,-1.2867065353419076, ,0.004002740479401567,0.00010118702123461612,0.006955812890829694,0.0,0.0,0.0010181834573558424, ,0.9455609321594238
0.010758309478697861,0.021456330801551685,-0.08343341629763862, ,0.0109192248167546,0.021542967259321626,-0.08368962985450765, ,0.0003147141696211276, ,0.0016545507500719957,0.0019307279018891694,-0.007619067530509246,0.0001177134934556749,-0.0026270531637623074,0.00028943189133162026, ,0.008032150300520865, ,0.002629684223790791, ,3.6510631664225525e-05, ,0.17264169340328891,-0.24475657298279738,0.09404972837000002,1.6911493942026892,0.42616924276840873,-1.286817953245604, ,0.003955638920820757,0.0001420425196002852,0.00801651309511827,0.0,0.0013803392473983843,-0.0001570846841506705, ,0.9594271183013916
0.010774309481363023,0.021474214387231412,-0.08350626222754998, ,0.010947341607441985,0.02155984259013404,-0.08378346251882964, ,0.00033780513210024946, ,0.001619577935093642,0.0017802326777313002,-0.007026828945556489,0.00011378372247618792,-0.0034193822848088765,0.00027828448325379414, ,0.007427555863459733, ,0.003421272396873048, ,3.696725511651706e-05, ,0.17268030706766005,-0.24474885024992316,0.09412620948000001,1.6911493942026892,0.42616924276840873,-1.286817953245604, ,0.004468900445675406,0.00016960215289209155,0.007513590339622642,0.0,0.0013803392473983843,-0.00017953642648548896, ,0.9730739593505859
0.010795462701235842,0.021496516346846274,-0.08359347769595044, ,0.01097596054357366,0.021576109309414646,-0.08387736505067377, ,0.0003456971809992497, ,0.0016028441835828462,0.0016967012352611963,-0.006692095937022996,0.00014017887550393844,-0.0038970634612566246,0.000271008988555671, ,0.007087457413551204, ,0.0038995820694528445, ,3.74335186104784e-05, ,0.17274981166352807,-0.24474885024992316,0.09421824607000001,1.6911493942026892,0.42616924276840873,-1.286817953245604, ,0.00522534760194727,0.00016960215289209155,0.0070606434042553195,0.0,0.0013803392473983843,-0.00020858241730879366, ,0.9881830215454102
0.010811255376347105,0.021512199378809885,-0.0836574817629392, ,0.011005077478709619,0.02159177307137551,-0.08397133614222256, ,0.00037736395072674193, ,0.001631154039517845,0.0016482087213176878,-0.006585563438029539,-9.258166377682985e-05,-0.00443841880125587,0.0002212666114381143, ,0.0069818981148377195, ,0.0044393828887414775, ,3.808575321301373e-05, ,0.17280387079364762,-0.24474112751704893,0.09428565315000001,1.6911493942026892,0.42616924276840873,-1.286817953245604, ,0.005765028481037627,0.00042540197582958755,0.0069497432460732984,0.0,0.0013787218869961574,-0.00022867180209699462, ,0.9992198944091797
0.01082813426373401,0.0215285095847476,-0.08372387882682619, ,0.011034688282129671,0.021606839509615897,-0.08406537448928966, ,0.00040671787165876146, ,0.0017763777910847327,0.0016716243833023248,-0.006692395936489509,-0.0001809584703599803,-0.005932139526124383,0.00019983636493879265, ,0.007123061806993621, ,0.0059348978003494444, ,3.8806361878188535e-05, ,0.1728579299237672,-0.2447334047841747,0.09435046765,1.6911493942026892,0.42616924276840873,-1.286817953245604, ,0.006912856054732153,0.0005104536891457412,0.006986320842105265,0.0,0.0013517845452035396,-0.00022638333440707292, ,1.0101919174194336
0.010846346411826434,0.021545109109787804,-0.08379407124175874, ,0.011064788838809608,0.021621314237151797,-0.0841594787913173, ,0.00043248929769100145, ,0.0018523533982749303,0.0018128040161770745,-0.007407197161553991,-0.0006222979515971056,-0.005406858142542111,0.00025002581050660657, ,0.00784755001916534, ,0.005442549716442691, ,3.9583011318463735e-05, ,0.17293515725250944,-0.24471795931842627,0.09442954134,1.6911493942026892,0.42616924276840873,-1.286817953245604, ,0.006646636488581311,0.0009312489536879592,0.007808240941176472,-0.0001350600505363292,0.0013225113141902133,-0.00022398208392055763, ,1.025749921798706
0.010895953164221227,0.021596026694353534,-0.08400048111813277, ,0.011095375049397293,0.02163520284644677,-0.08425364775137321, ,0.00032464935448312627, ,0.0019496265421919314,0.0020101437587866492,-0.008301433263543758,-0.0010395531242139067,-0.0046855630312533005,-0.0011941033850321183, ,0.008761022532448993, ,0.004799492910035621, ,4.0043724086356456e-05, ,0.1731050573757424,-0.24468706838692936,0.09464731806000001,1.6913590841461734,0.4263058792681742,-1.2869293711493006, ,0.00587994302358525,0.0012879598051268957,0.008728115901369864,0.0012806709014218855,0.000917574176273175,5.763141320309174e-05, ,1.036808967590332
0.010914075627805879,0.021613352443542254,-0.08407319086329855, ,0.011126442830188868,0.02164851090944062,-0.08434788007614696, ,0.00034898439797157853, ,0.0019972397517685698,0.0016485918853142776,-0.007516182719803744,-0.0034001193577818606,-0.007890930951793775,0.00262386616839412, ,0.007949831728272308, ,0.008592297652290004, ,4.0561010392181534e-05, ,0.1731668392387362,-0.2446639001883067,0.09472379917000001,1.691568774089658,0.4263058792681742,-1.2869293711493006, ,0.008042849121439096,0.0029706119147405578,0.007889455928677564,-0.003022291171322902,0.000917574176273175,4.103812808234597e-05, ,1.0475521087646484
0.010935425019740614,0.021630202003247397,-0.08414964616483327, ,0.011157988113104686,0.021661243977579774,-0.0844421744759482, ,0.00036887768637042207, ,0.0020562333023682842,0.001632454646955156,-0.007177412090981483,-0.002658041942855432,-0.00924940039326355,0.002745690325084049, ,0.007642528893756375, ,0.009623750597211047, ,4.1120993169421906e-05, ,0.17325951203322687,-0.24463300925680978,0.09480416915,1.691568774089658,0.4263058792681742,-1.2869293711493006, ,0.009401304109385743,0.002234532920940434,0.007567131363420429,-0.003022291171322902,0.000917574176273175,2.3133263781471597e-05, ,1.0584769248962402
0.010943793189883073,0.021637717968906192,-0.08418118394731014, ,0.011190006845665599,0.0216734075818475,-0.08453652966470236, ,0.0004337804647914534, ,0.002120192064478539,0.0016527310936402038,-0.007117405233837844,-0.0018486776371940824,-0.009662896213380338,0.0028272868089954544, ,0.0076081661207432405, ,0.009838147893394012, ,4.184296767911028e-05, ,0.17330584843047223,-0.24462528652393556,0.09483787269,1.691568774089658,0.4264425157679396,-1.287040789052997, ,0.010308525629343205,0.001871729583766007,0.007524237846008504,-0.003022291171322902,0.001432932584457039,-0.0004045685836905875, ,1.0697789192199707
0.010979167263470823,0.021662610759477813,-0.08429956834162884, ,0.011222494990969027,0.021685007232792756,-0.08463094435994814, ,0.0004117281269278786, ,0.0024605603061960374,0.0018888368317188764,-0.00863115279682412,-0.0034523196880719424,-0.01050424905933473,0.002535360441980335, ,0.00917163345317562, ,0.011057020920132374, ,4.2604135827755355e-05, ,0.17347574855370515,-0.24456350466094176,0.09496231653000001,1.691568774089658,0.4264425157679396,-1.287040789052997, ,0.011149916761657946,0.0035232846484143693,0.00908142047890536,-0.003022291171322902,0.001432932584457039,-0.0004290440187377264, ,1.0779609680175781
0.010979167263470823,0.021662610759477813,-0.08429956834162884, ,0.011255448527665007,0.021696048420560565,-0.08472541728283402, ,0.0005087206845106562, ,0.0024605603061960374,0.0018888368317188764,-0.00863115279682412,-0.0034523196880719424,-0.01050424905933473,0.002535360441980335, ,0.00917163345317562, ,0.011057020920132374, ,4.3609170859489895e-05, ,0.17347574855370515,-0.24456350466094176,0.09496231653000001,1.691568774089658,0.4264425157679396,-1.287040789052997, ,0.011149916761657946,0.0035232846484143693,0.00908142047890536,-0.003022291171322902,0.001432932584457039,-0.0004290440187377264, ,1.0861930847167969
0.011004200193709015,0.021682219767785536,-0.0843918665032035, ,0.01128886344993239,0.021706536614922237,-0.08481994715811658, ,0.0005146625356572748, ,0.002633728602179766,0.001962435271975442,-0.009555236549757363,-0.0032262767904015404,-0.008634315491702042,0.0023149233472207938, ,0.010103970708016333, ,0.009217385002515536, ,4.461397458482708e-05, ,0.17359158954681853,-0.24451716826369643,0.09505953828000001,1.691568774089658,0.4265791522677051,-1.2871522069566934, ,0.011475832431068493,0.005317516838173808,0.010018120452830188,-0.003022291171322902,0.0037247787447701295,-0.0023134736071396948, ,1.0944271087646484
0.011029143251320506,0.021703396535121034,-0.08449002570654728, ,0.011322735767454874,0.021716477265303707,-0.08491453271415535, ,0.000516307922213654, ,0.0028792652084434125,0.002397766000379775,-0.011053118325154378,0.0033543079276904266,-0.0031013893487744477,0.002472427946901694, ,0.011670941463437876, ,0.004568351189345532, ,4.5607392762643114e-05, ,0.1737074305399319,-0.24447083186645108,0.09516324148000001,1.691568774089658,0.42685242526723594,-1.2872116852838051, ,0.011843878123641224,0.004746152182826434,0.011618389146608317,-0.003022291171322902,0.00988791543308724,-0.008062932023092738, ,1.103281021118164
0.011061895034728583,0.02172982720676975,-0.08461460131174661, ,0.011357061505397207,0.021725875800817807,-0.08500917268291164, ,0.0004927731993108156, ,0.003307248672841254,0.002674882900019279,-0.01303161389671722,0.008151748602336863,0.0033225933726319387,0.0023735887575028515, ,0.01370824033440978, ,0.008802855000846318, ,4.652479230136189e-05, ,0.17384643973166794,-0.24440905000345728,0.09529416677000001,1.691568774089658,0.4269890617670014,-1.2873231031875014, ,0.013556705936924398,0.0073172589683513445,0.013672799587982834,-0.003022291171322902,0.01837956462800532,-0.0149873025525439, ,1.1147840023040771
0.011101495944262348,0.021760881540428018,-0.08476269803729472, ,0.011391836704381226,0.0217347376302908,-0.08510386579994392, ,0.000448750156874323, ,0.0031641686054074353,0.002617477771250647,-0.011931354898537814,0.015320853239127777,0.007609499591103522,0.0030124654693141207, ,0.012618255923910388, ,0.017106512976233917, ,4.731552319642644e-05, ,0.17401633985490086,-0.24433182267471504,0.09544972157,1.691568774089658,0.42712569826676683,-1.287434521091198, ,0.014624278249109382,0.004934684286530207,0.012601907848101265,-0.003022291171322902,0.023967054762286735,-0.019543526100093623, ,1.1229031085968018
0.01113888850318184,0.021786228330063013,-0.08489146414283863, ,0.01142705742046197,0.02174306814229573,-0.08519861080440656, ,0.00042337123001786074, ,0.003323356548369271,0.0020599139788814724,-0.011321986249722972,0.005785736798631829,-0.0005572073700792554,0.001997995615409217, ,0.011978118257343106, ,0.005812490371037763, ,4.8029798984316246e-05, ,0.17418623997813382,-0.24424687261309858,0.09558453573,1.691568774089658,0.42712569826676683,-1.287434521091198, ,0.01707086554388753,0.009383650720987357,0.011878308366890382,-0.003022291171322902,0.017997233135146774,-0.01467553685652161, ,1.1309700012207031
0.011170355828017781,0.021804004881580838,-0.08499280786660841, ,0.011462719725103753,0.021750872705179183,-0.08529340643904469, ,0.000517372486688041, ,0.003323356548369271,0.0020599139788814724,-0.011321986249722972,0.005785736798631829,-0.0005572073700792554,0.001997995615409217, ,0.011978118257343106, ,0.005812490371037763, ,4.8970058656193055e-05, ,0.17435614010136677,-0.24415419981860786,0.09569083151,1.691568774089658,0.4272623347665323,-1.2875459389948944, ,0.019063266685108632,0.009887157903570618,0.011618389146608317,-0.003022291171322902,0.0,0.0, ,1.1397321224212646
0.011170355828017781,0.021804004881580838,-0.08499280786660841, ,0.011498819705156519,0.02175815666709359,-0.08538825145019291, ,0.0005161067768929492, ,0.00361251423664963,0.0019508874363405268,-0.011105165682245108,-0.010245996838059802,-0.019793873116566094,0.0011729869441630017, ,0.011839802605169649, ,0.02228851038678842, ,5.001809539699647e-05, ,0.17435614010136677,-0.24415419981860786,0.09569083151,1.691568774089658,0.4272623347665323,-1.2875459389948944, ,0.019063266685108632,0.009887157903570618,0.011618389146608317,-0.003022291171322902,0.0,0.0, ,1.1458089351654053
0.011203295958841807,0.021824291190362596,-0.08510263430556322, ,0.01153535346283153,0.02176492535602461,-0.0854831445877713, ,0.000508502274437982, ,0.003234543015583513,0.0017906032931413191,-0.010233897212144877,0.031505414740285696,0.02429300836555011,0.0031657756440286737, ,0.010881230666694613, ,0.039783681342369676, ,5.103671405945031e-05, ,0.17456465388897083,-0.24406152702411718,0.09580749761000001,1.691568774089658,0.42780888076559404,-1.28799161060968, ,0.021041450456423676,0.00961961899379247,0.010858085562372189,-0.003022291171322902,0.04806896591809468,-0.03919701854660264, ,1.1513969898223877
0.011203295958841807,0.021824291190362596,-0.08510263430556322, ,0.011572317115677775,0.021771184079823005,-0.08557808460528255, ,0.000604193650153337, ,0.003234543015583513,0.0017906032931413191,-0.010233897212144877,0.031505414740285696,0.02429300836555011,0.0031657756440286737, ,0.010881230666694613, ,0.039783681342369676, ,5.228266994539184e-05, ,0.17456465388897083,-0.24406152702411718,0.09580749761000001,1.691568774089658,0.42780888076559404,-1.28799161060968, ,0.021041450456423676,0.00961961899379247,0.010858085562372189,-0.003022291171322902,0.04806896591809468,-0.03919701854660264, ,1.1569910049438477
0.011242568609230726,0.02184111790023643,-0.08521396480402081, ,0.011609706796558091,0.021776938126233623,-0.08567307025980879, ,0.0005913436492593473, ,0.00402290028271943,0.0017252641495148775,-0.011272075461453987,0.0034391282806120497,-0.007086322010960621,0.0004869248943582798, ,0.012092144072868901, ,0.007876762088275877, ,5.348459169691916e-05, ,0.17480405860807177,-0.24393796329812958,0.09592416371000001,1.6913590841461734,0.4279455172653595,-1.2881030285133765, ,0.02517160253540339,0.013143620714469636,0.011842982542750931,-0.002079192951718157,0.019392306415324863,-0.015813125572912656, ,1.1627130508422852
0.011242568609230726,0.02184111790023643,-0.08521396480402081, ,0.011647518653624973,0.021782192762924837,-0.08576810031200921, ,0.0006888562052240314, ,0.00402290028271943,0.0017252641495148775,-0.011272075461453987,0.0034391282806120497,-0.007086322010960621,0.0004869248943582798, ,0.012092144072868901, ,0.007876762088275877, ,5.491428953925378e-05, ,0.17480405860807177,-0.24393796329812958,0.09592416371000001,1.6913590841461734,0.4279455172653595,-1.2881030285133765, ,0.02517160253540339,0.013143620714469636,0.011842982542750931,-0.002079192951718157,0.019392306415324863,-0.015813125572912656, ,1.1681830883026123
0.01128777626671288,0.02186134205942347,-0.08534654506703494, ,0.011685748850297138,0.021786953237519155,-0.0858631735261155, ,0.0006563694377718927, ,0.0048752833855771685,0.0023352435766232416,-0.01472535996306673,-0.011510210913093018,-0.021997016691626077,-0.0005732151878675578, ,0.015686235261965616, ,0.02482645778679148, ,5.625057525733052e-05, ,0.1750666315257954,-0.2437835086406451,0.09606286674000002,1.6913590841461734,0.42808215376512493,-1.2882144464170728, ,0.026507525574991836,0.01591429507940144,0.015375300694980696,-0.002079192951718157,0.005229350310533294,-0.004264184535567401, ,1.1735880374908447
0.01128777626671288,0.02186134205942347,-0.08534654506703494, ,0.011724393565235108,0.021791224777622503,-0.08595828866993084, ,0.0007548386147118193, ,0.0048752833855771685,0.0023352435766232416,-0.01472535996306673,-0.011510210913093018,-0.021997016691626077,-0.0005732151878675578, ,0.015686235261965616, ,0.02482645778679148, ,5.781344013372264e-05, ,0.1750666315257954,-0.2437835086406451,0.09606286674000002,1.6913590841461734,0.42808215376512493,-1.2882144464170728, ,0.026507525574991836,0.01591429507940144,0.015375300694980696,-0.002079192951718157,0.005229350310533294,-0.004264184535567401, ,1.1789960861206055
0.01133535526181004,0.02188762175582236,-0.08550813712991497, ,0.011763448992317734,0.02179501259085385,-0.08605344451482477, ,0.0006994289410464301, ,0.004808706799142113,0.002822023479020436,-0.01670056382618388,0.047254033269974086,0.04302848703832482,-0.0039016823760022476, ,0.017606712064116334, ,0.06390925643400933, ,5.922700444553616e-05, ,0.17533692717639326,-0.24362133125028637,0.09623268073,1.6911493942026892,0.42862869976418666,-1.2886601180318584, ,0.028092641077107988,0.0167929466569582,0.01762036672566372,0.004093327430349398,0.07314850038489232,-0.0596476972508262, ,1.1844549179077148
0.011388209343714196,0.021916714125334035,-0.08568312189949637, ,0.011802911340618154,0.0217983218648755,-0.08614863983573168, ,0.0006345876003590007, ,0.005745213405207372,0.002992969435987366,-0.018280774450924655,0.005398616384033193,-0.004088296066172231,-0.006145917186837827, ,0.019394639920393177, ,0.006771793113780416, ,6.0470699846663696e-05, ,0.17563811375848803,-0.24344370839417923,0.09641675391000001,1.6911493942026892,0.42917524576324845,-1.2891057896466442, ,0.031072999855425925,0.018971799591857415,0.019145206153846156,0.004093327430349398,0.0271127444497433,-0.022108625112857633, ,1.1902940273284912
0.011388209343714196,0.021916714125334035,-0.08568312189949637, ,0.011842776834379757,0.02180115776742305,-0.0862438734111469, ,0.0007310452333761586, ,0.005745213405207372,0.002992969435987366,-0.018280774450924655,0.005398616384033193,-0.004088296066172231,-0.006145917186837827, ,0.019394639920393177, ,0.006771793113780416, ,6.193377858451222e-05, ,0.17563811375848803,-0.24344370839417923,0.09641675391000001,1.6911493942026892,0.42917524576324845,-1.2891057896466442, ,0.031072999855425925,0.018971799591857415,0.019145206153846156,0.004093327430349398,0.0271127444497433,-0.022108625112857633, ,1.1976358890533447
0.01147002637913774,0.02195316720077324,-0.08592978107574537, ,0.011883041712992513,0.0218035254463343,-0.08633914402312379, ,0.0006004601097134452, ,0.006627241783279535,0.002900428744017526,-0.019750105927561164,-0.010714410522373744,-0.022168067476279443,-0.007546331116498381, ,0.021033295146102422, ,0.02462151099052122, ,6.307123097721966e-05, ,0.1760705867994446,-0.24315024454495868,0.09667341933000001,1.6911493942026892,0.42917524576324845,-1.2891057896466442, ,0.03671061568993066,0.023975983213357956,0.020606483208279434,0.004093327430349398,0.014138795902726665,-0.011529240012570949, ,1.203613042831421
0.01147002637913774,0.02195316720077324,-0.08592978107574537, ,0.011923702230968936,0.021805430029580065,-0.0864344504572711, ,0.0006945064686066627, ,0.006627241783279535,0.002900428744017526,-0.019750105927561164,-0.010714410522373744,-0.022168067476279443,-0.007546331116498381, ,0.021033295146102422, ,0.02462151099052122, ,6.442126424717743e-05, ,0.1760705867994446,-0.24315024454495868,0.09667341933000001,1.6911493942026892,0.42917524576324845,-1.2891057896466442, ,0.03671061568993066,0.023975983213357956,0.020606483208279434,0.004093327430349398,0.014138795902726665,-0.011529240012570949, ,1.209177017211914
0.01147002637913774,0.02195316720077324,-0.08592978107574537, ,0.011964754657920178,0.021806876625293414,-0.08652979150274903, ,0.0007913087354594128, ,0.006720150887048999,0.0023001065774163553,-0.017911708245412113,-0.014593082100096176,-0.029162143383200296,-0.007933031691752853, ,0.019268632812966875, ,0.032609612205677194, ,6.614374640644813e-05, ,0.17646444617603005,-0.24291856255873195,0.09686656654,1.6911493942026892,0.42944851876277934,-1.289328625454037, ,0.04104538994743546,0.025489374579229326,0.01869578816901409,0.004093327430349398,0.011365935955550988,-0.009268158653721433, ,1.2121949195861816
0.011535276617847905,0.02197957471651138,-0.08611416711336682, ,0.012006195278532243,0.0218078703217998,-0.08662516595226719, ,0.0007157978747534262, ,0.006720150887048999,0.0023001065774163553,-0.017911708245412113,-0.014593082100096176,-0.029162143383200296,-0.007933031691752853, ,0.019268632812966875, ,0.032609612205677194, ,6.767957176897054e-05, ,0.17646444617603005,-0.24291856255873195,0.09686656654,1.6911493942026892,0.42944851876277934,-1.289328625454037, ,0.04104538994743546,0.025489374579229326,0.01869578816901409,0.004093327430349398,0.011365935955550988,-0.009268158653721433, ,1.2153708934783936
0.011535276617847905,0.02197957471651138,-0.08611416711336682, ,0.01204802039254193,0.021808416187646087,-0.08672057260208081, ,0.0008123601647257589, ,0.006720150887048999,0.0023001065774163553,-0.017911708245412113,-0.014593082100096176,-0.029162143383200296,-0.007933031691752853, ,0.019268632812966875, ,0.032609612205677194, ,6.943589392217051e-05, ,0.17646444617603005,-0.24291856255873195,0.09686656654,1.6911493942026892,0.42944851876277934,-1.289328625454037, ,0.04104538994743546,0.025489374579229326,0.01869578816901409,0.004093327430349398,0.011365935955550988,-0.009268158653721433, ,1.2182130813598633
0.011535276617847905,0.02197957471651138,-0.08611416711336682, ,0.012090226314713097,0.021808519271631972,-0.08681601025198803, ,0.0009109406800134267, ,0.006720150887048999,0.0023001065774163553,-0.017911708245412113,-0.014593082100096176,-0.029162143383200296,-0.007933031691752853, ,0.019268632812966875, ,0.032609612205677194, ,0.0003891251243976118, ,0.17646444617603005,-0.24291856255873195,0.09686656654,1.6911493942026892,0.42944851876277934,-1.289328625454037, ,0.04104538994743546,0.025489374579229326,0.01869578816901409,0.004093327430349398,0.011365935955550988,-0.009268158653721433, ,1.2209439277648926
0.011600907603852417,0.021998312504440298,-0.08629222630664458, ,0.012132809374812595,0.021808184602837927,-0.08691147770532633, ,0.0008381768355708649, ,0.007086319094544436,0.001782286187126416,-0.018871414546613532,0.03809847814466858,0.030423070317094573,-0.006703102935817906, ,0.020236668435112126, ,0.048755049492541405, ,0.0003948093232732226, ,0.17691236468273508,-0.24261737597663718,0.09705323230000001,1.6911493942026892,0.4301317012616065,-1.2899673937126597, ,0.049788531772545004,0.03438294984002565,0.019787343503105594,0.004093327430349398,0.08261534178710712,-0.06736727163594265, ,1.2236618995666504
0.011600907603852417,0.021998312504440298,-0.08629222630664458, ,0.012175765917586484,0.0218074171906559,-0.08700697376896997, ,0.0009368922225072643, ,0.007086319094544436,0.001782286187126416,-0.018871414546613532,0.03809847814466858,0.030423070317094573,-0.006703102935817906, ,0.020236668435112126, ,0.048755049492541405, ,0.00040158535951364817, ,0.17691236468273508,-0.24261737597663718,0.09705323230000001,1.6911493942026892,0.4301317012616065,-1.2899673937126597, ,0.049788531772545004,0.03438294984002565,0.019787343503105594,0.004093327430349398,0.08261534178710712,-0.06736727163594265, ,1.2264630794525146
0.011600907603852417,0.021998312504440298,-0.08629222630664458, ,0.012219092302736042,0.021806222024819983,-0.08710249725332715, ,0.0010371065911141753, ,0.007086319094544436,0.001782286187126416,-0.018871414546613532,0.03809847814466858,0.030423070317094573,-0.006703102935817906, ,0.020236668435112126, ,0.048755049492541405, ,0.00040943130064451886, ,0.17691236468273508,-0.24261737597663718,0.09705323230000001,1.6911493942026892,0.4301317012616065,-1.2899673937126597, ,0.049788531772545004,0.03438294984002565,0.019787343503105594,0.004093327430349398,0.08261534178710712,-0.06736727163594265, ,1.2292311191558838
0.011682768981507004,0.022019439951534717,-0.08651278976151137, ,0.012262784904893978,0.021804604075434157,-0.08719804697233574, ,0.0009231199109699292, ,0.008920444409845045,0.0025527924163906116,-0.02441663608970036,0.02523190238500772,0.014999302565430986,-0.008239364253286868, ,0.026120168367129167, ,0.029353352401828747, ,0.00041569579589238975, ,0.17746840144967924,-0.24222351660005176,0.09728397192,1.6911493942026892,0.4309515202601992,-1.2906359011348383, ,0.05832633162782469,0.04115218627860832,0.02552694153846154,0.004093327430349398,0.07542610359177243,-0.061504929946324546, ,1.232578992843628
0.011682768981507004,0.022019439951534717,-0.08651278976151137, ,0.01230684011360045,0.021802568293004195,-0.08729362174346166, ,0.0010228375619924105, ,0.008920444409845045,0.0025527924163906116,-0.02441663608970036,0.02523190238500772,0.014999302565430986,-0.008239364253286868, ,0.026120168367129167, ,0.029353352401828747, ,0.00042301075692973935, ,0.17746840144967924,-0.24222351660005176,0.09728397192,1.6911493942026892,0.4309515202601992,-1.2906359011348383, ,0.05832633162782469,0.04115218627860832,0.02552694153846154,0.004093327430349398,0.07542610359177243,-0.061504929946324546, ,1.2372920513153076
0.011682768981507004,0.022019439951534717,-0.08651278976151137, ,0.012351254333279089,0.021800119608465902,-0.08738922038769496, ,0.0011238793177784832, ,0.008920444409845045,0.0025527924163906116,-0.02441663608970036,0.02523190238500772,0.014999302565430986,-0.008239364253286868, ,0.026120168367129167, ,0.029353352401828747, ,0.00043135443027317685, ,0.17746840144967924,-0.24222351660005176,0.09728397192,1.6911493942026892,0.4309515202601992,-1.2906359011348383, ,0.05832633162782469,0.04115218627860832,0.02552694153846154,0.004093327430349398,0.07542610359177243,-0.061504929946324546, ,1.2402501106262207
0.011712294454011602,0.02202784025925568,-0.08659463678391544, ,0.012396023983213305,0.021797262933216124,-0.08748484172954736, ,0.0011459130933947272, ,0.008920444409845045,0.0025527924163906116,-0.02441663608970036,0.02523190238500772,0.014999302565430986,-0.008239364253286868, ,0.026120168367129167, ,0.029353352401828747, ,0.0004397610027804892, ,0.17766146977153485,-0.24208450740831572,0.09736952706000002,1.6911493942026892,0.43122479325973007,-1.290858736942231, ,0.06075348371220921,0.04219517188015597,0.0275109007253886,0.004093327430349398,0.06739436973124752,-0.05495558953345198, ,1.2431941032409668
0.011712294454011602,0.02202784025925568,-0.08659463678391544, ,0.012441145497522139,0.0217940031591417,-0.08758048459704784, ,0.0012481184013041638, ,0.010922637022649001,0.003954648778692801,-0.030921005585489367,0.018002953312451594,-0.0006830265483680044,-0.00022065313514909855, ,0.03303107374744611, ,0.01801512106525594, ,0.0004491605074144854, ,0.17766146977153485,-0.24208450740831572,0.09736952706000002,1.6911493942026892,0.43122479325973007,-1.290858736942231, ,0.06075348371220921,0.04219517188015597,0.0275109007253886,0.004093327430349398,0.06739436973124752,-0.05495558953345198, ,1.2461779117584229
0.011712294454011602,0.02202784025925568,-0.08659463678391544, ,0.01248661532513653,0.021790345158649596,-0.0876761478217412, ,0.001351163520529814, ,0.010922637022649001,0.003954648778692801,-0.030921005585489367,0.018002953312451594,-0.0006830265483680044,-0.00022065313514909855, ,0.03303107374744611, ,0.01801512106525594, ,0.00045952835813994897, ,0.17766146977153485,-0.24208450740831572,0.09736952706000002,1.6911493942026892,0.43122479325973007,-1.290858736942231, ,0.06075348371220921,0.04219517188015597,0.0275109007253886,0.004093327430349398,0.06739436973124752,-0.05495558953345198, ,1.2490620613098145
0.011712294454011602,0.02202784025925568,-0.08659463678391544, ,0.01253242992977531,0.021786293784697045,-0.08777183023868407, ,0.0014549059515748693, ,0.010922637022649001,0.003954648778692801,-0.030921005585489367,0.018002953312451594,-0.0006830265483680044,-0.00022065313514909855, ,0.03303107374744611, ,0.01801512106525594, ,0.00047083946715625484, ,0.17766146977153485,-0.24208450740831572,0.09736952706000002,1.6911493942026892,0.43122479325973007,-1.290858736942231, ,0.06075348371220921,0.04219517188015597,0.0275109007253886,0.004093327430349398,0.06739436973124752,-0.05495558953345198, ,1.2518630027770996
0.011901388828615349,0.022094768267413904,-0.08712841530890389, ,0.01257858578992139,0.021781853870820215,-0.08786753068644186, ,0.0010501441259707293, ,0.011667593458534123,0.003972107378339814,-0.03369929503479835,0.013050894760367797,-0.0013074176682457968,-0.0015745605310742465, ,0.03588248681433708, ,0.013114561890077904, ,0.00047734850826652983, ,0.17879671150404586,-0.2413276795866417,0.09791526515000001,1.6913590841461734,0.43231788525785353,-1.291995116392224, ,0.06896580055121422,0.049788531772545004,0.03500837696703297,-0.005192039384735761,0.06826636246439044,-0.056954079698334305, ,1.2546229362487793
0.011901388828615349,0.022094768267413904,-0.08712841530890389, ,0.012625079398797763,0.021777030231165746,-0.08796324800708616, ,0.001149622170543032, ,0.011667593458534123,0.003972107378339814,-0.03369929503479835,0.013050894760367797,-0.0013074176682457968,-0.0015745605310742465, ,0.03588248681433708, ,0.013114561890077904, ,0.0004848182156251577, ,0.17879671150404586,-0.2413276795866417,0.09791526515000001,1.6913590841461734,0.43231788525785353,-1.291995116392224, ,0.06896580055121422,0.049788531772545004,0.03500837696703297,-0.005192039384735761,0.06826636246439044,-0.056954079698334305, ,1.257390022277832
0.011901388828615349,0.022094768267413904,-0.08712841530890389, ,0.012671907264343656,0.021771827660519327,-0.08805898104619143, ,0.0012505766217198156, ,0.011667593458534123,0.003972107378339814,-0.03369929503479835,0.013050894760367797,-0.0013074176682457968,-0.0015745605310742465, ,0.03588248681433708, ,0.013114561890077904, ,0.0004932331431646594, ,0.17879671150404586,-0.2413276795866417,0.09791526515000001,1.6913590841461734,0.43231788525785353,-1.291995116392224, ,0.06896580055121422,0.049788531772545004,0.03500837696703297,-0.005192039384735761,0.06826636246439044,-0.056954079698334305, ,1.2601490020751953
0.011901388828615349,0.022094768267413904,-0.08712841530890389, ,0.01271906590919057,0.0217662509343354,-0.08815472865283143, ,0.001352715242079706, ,0.012485292915457023,0.003375827176503784,-0.03595759964035862,0.029634461869222264,0.0163370797055093,-0.006542011060655388, ,0.03821292608799673, ,0.03383846025826788, ,0.0005025753398919969, ,0.1795072029284745,-0.24076392008682332,0.09827304119000001,1.6911493942026892,0.43327434075621163,-1.2929383991983803, ,0.07549478246497278,0.06272104531293508,0.03739157633802818,-0.003573419985934617,0.09665260322510916,-0.08779583908692291, ,1.263139009475708
0.012015968829090893,0.02212808477946801,-0.08745983078780721, ,0.012766551870638436,0.021760304808767828,-0.088250489679577, ,0.0011505557319146289, ,0.012485292915457023,0.003375827176503784,-0.03595759964035862,0.029634461869222264,0.0163370797055093,-0.006542011060655388, ,0.03821292608799673, ,0.03383846025826788, ,0.0005095428709890145, ,0.1795072029284745,-0.24076392008682332,0.09827304119000001,1.6911493942026892,0.43327434075621163,-1.2929383991983803, ,0.07549478246497278,0.06272104531293508,0.03739157633802818,-0.003573419985934617,0.09665260322510916,-0.08779583908692291, ,1.2661011219024658
0.012015968829090893,0.02212808477946801,-0.08745983078780721, ,0.012814361700631686,0.021753994020699025,-0.0883462629824919, ,0.00125025481758601, ,0.012485292915457023,0.003375827176503784,-0.03595759964035862,0.029634461869222264,0.0163370797055093,-0.006542011060655388, ,0.03821292608799673, ,0.03383846025826788, ,0.0005174227853145145, ,0.1795072029284745,-0.24076392008682332,0.09827304119000001,1.6911493942026892,0.43327434075621163,-1.2929383991983803, ,0.07549478246497278,0.06272104531293508,0.03739157633802818,-0.003573419985934617,0.09665260322510916,-0.08779583908692291, ,1.2689270973205566
0.012015968829090893,0.02212808477946801,-0.08745983078780721, ,0.012862491965735287,0.021747323287770327,-0.08844204742113156, ,0.001351417866247564, ,0.012485292915457023,0.003375827176503784,-0.03595759964035862,0.029634461869222264,0.0163370797055093,-0.006542011060655388, ,0.03821292608799673, ,0.03383846025826788, ,0.0005262016809032834, ,0.1795072029284745,-0.24076392008682332,0.09827304119000001,1.6911493942026892,0.43327434075621163,-1.2929383991983803, ,0.07549478246497278,0.06272104531293508,0.03739157633802818,-0.003573419985934617,0.09665260322510916,-0.08779583908692291, ,1.2716429233551025
0.012152202294235286,0.022159114612756204,-0.08783406801471375, ,0.012910939247110923,0.021740297308410896,-0.08853784185853764, ,0.001116417180685039, ,0.013508598371103244,0.0029502066449827815,-0.036162041682407074,0.03949312226807344,0.010113962713262472,-0.0023348146909420034, ,0.03871536139363832, ,0.04076686287814259, ,0.00053234975902601, ,0.1803567035446392,-0.24008431959389157,0.09866192819000001,1.69073001431572,0.43423079625456973,-1.2938816820045362, ,0.08642708702957265,0.06735056178741716,0.03765676482269504,-0.011556917660631279,0.10354030861727535,-0.10369515784328313, ,1.2744901180267334
0.012152202294235286,0.022159114612756204,-0.08783406801471375, ,0.012959700140493087,0.021732920761868817,-0.08863364516123687, ,0.0012136793577742296, ,0.013508598371103244,0.0029502066449827815,-0.036162041682407074,0.03949312226807344,0.010113962713262472,-0.0023348146909420034, ,0.03871536139363832, ,0.04076686287814259, ,0.0005393737755079505, ,0.1803567035446392,-0.24008431959389157,0.09866192819000001,1.69073001431572,0.43423079625456973,-1.2938816820045362, ,0.08642708702957265,0.06735056178741716,0.03765676482269504,-0.011556917660631279,0.10354030861727535,-0.10369515784328313, ,1.2774178981781006
0.012152202294235286,0.022159114612756204,-0.08783406801471375, ,0.013008771256165005,0.02172519830823964,-0.0887294561992368, ,0.0013129027941360203, ,0.013508598371103244,0.0029502066449827815,-0.036162041682407074,0.03949312226807344,0.010113962713262472,-0.0023348146909420034, ,0.03871536139363832, ,0.04076686287814259, ,0.0005472669287592572, ,0.1803567035446392,-0.24008431959389157,0.09866192819000001,1.69073001431572,0.43423079625456973,-1.2938816820045362, ,0.08642708702957265,0.06735056178741716,0.03765676482269504,-0.011556917660631279,0.10354030861727535,-0.10369515784328313, ,1.2802610397338867
0.012152202294235286,0.022159114612756204,-0.08783406801471375, ,0.013058149218934957,0.02171713458849692,-0.08882527384602382, ,0.0014137097199355025, ,0.013508598371103244,0.0029502066449827815,-0.036162041682407074,0.03949312226807344,0.010113962713262472,-0.0023348146909420034, ,0.03871536139363832, ,0.04076686287814259, ,0.0005560188761448759, ,0.1803567035446392,-0.24008431959389157,0.09866192819000001,1.69073001431572,0.43423079625456973,-1.2938816820045362, ,0.08642708702957265,0.06735056178741716,0.03765676482269504,-0.011556917660631279,0.10354030861727535,-0.10369515784328313, ,1.283371925354004
0.012223881524575767,0.022172755791533716,-0.08801951829625355, ,0.01310783066811222,0.02170873422452173,-0.08892109697855859, ,0.001345186315496096, ,0.013907109896311876,0.002109958628750961,-0.03466016424221711,0.023667484000395804,-0.008472094849142091,0.012326293953034882, ,0.03740570299273363, ,0.02513714719215054, ,0.000563910550538388, ,0.1808277902499669,-0.23972907388167722,0.0988550754,1.6905203243722353,0.43477734225363146,-1.294490711099603, ,0.09276338373262051,0.071512390021455,0.03603803511312218,-0.02771435443821575,0.09473635583018745,-0.09516740417060723, ,1.286341905593872
0.012223881524575767,0.022172755791533716,-0.08801951829625355, ,0.013157812257483142,0.021700001819132633,-0.08901692447727444, ,0.0014458706796351382, ,0.013907109896311876,0.002109958628750961,-0.03466016424221711,0.023667484000395804,-0.008472094849142091,0.012326293953034882, ,0.03740570299273363, ,0.02513714719215054, ,0.0005726428290442965, ,0.1808277902499669,-0.23972907388167722,0.0988550754,1.6905203243722353,0.43477734225363146,-1.294490711099603, ,0.09276338373262051,0.071512390021455,0.03603803511312218,-0.02771435443821575,0.09473635583018745,-0.09516740417060723, ,1.2891919612884521
0.012223881524575767,0.022172755791533716,-0.08801951829625355, ,0.013208090655287516,0.02169094195611616,-0.08911275522607374, ,0.001547895077096257, ,0.013907109896311876,0.002109958628750961,-0.03466016424221711,0.023667484000395804,-0.008472094849142091,0.012326293953034882, ,0.03740570299273363, ,0.02513714719215054, ,0.0005822041255938255, ,0.1808277902499669,-0.23972907388167722,0.0988550754,1.6905203243722353,0.43477734225363146,-1.294490711099603, ,0.09276338373262051,0.071512390021455,0.03603803511312218,-0.02771435443821575,0.09473635583018745,-0.09516740417060723, ,1.2920160293579102
0.012472376594124602,0.022186037142914353,-0.08856892461538016, ,0.013258662544194154,0.0216815592002547,-0.08920858811232431, ,0.0011322159596250676, ,0.0156463122647315,0.00017628002751119418,-0.03173757634490793,0.009611228865465862,-0.028057414490925064,-0.05118167790554441, ,0.03538519343429461, ,0.02965741100065718, ,0.0005875440463125754, ,0.1825962960781643,-0.2383698728958137,0.09942544300000002,1.6903106344287508,0.43628034375105135,-1.296043023000826, ,0.11502659582844943,0.0866638735693797,0.03297890583850932,0.034962388154450005,0.08205024353061488,-0.08561111276692021, ,1.2950379848480225
0.012472376594124602,0.022186037142914353,-0.08856892461538016, ,0.013309524621277432,0.021671858097357964,-0.08930442202685697, ,0.0012272543960174863, ,0.0156463122647315,0.00017628002751119418,-0.03173757634490793,0.009611228865465862,-0.028057414490925064,-0.05118167790554441, ,0.03538519343429461, ,0.02965741100065718, ,0.0005936951073674303, ,0.1825962960781643,-0.2383698728958137,0.09942544300000002,1.6903106344287508,0.43628034375105135,-1.296043023000826, ,0.11502659582844943,0.0866638735693797,0.03297890583850932,0.034962388154450005,0.08205024353061488,-0.08561111276692021, ,1.2980151176452637
0.012472376594124602,0.022186037142914353,-0.08856892461538016, ,0.013360673597993197,0.021661843174292556,-0.08940025586396218, ,0.001324749987239227, ,0.0156463122647315,0.00017628002751119418,-0.03173757634490793,0.009611228865465862,-0.028057414490925064,-0.05118167790554441, ,0.03538519343429461, ,0.02965741100065718, ,0.0006006575347947807, ,0.1825962960781643,-0.2383698728958137,0.09942544300000002,1.6903106344287508,0.43628034375105135,-1.296043023000826, ,0.11502659582844943,0.0866638735693797,0.03297890583850932,0.034962388154450005,0.08205024353061488,-0.08561111276692021, ,1.3007690906524658
0.012472376594124602,0.022186037142914353,-0.08856892461538016, ,0.013412106200154887,0.021651518939011866,-0.08949608852138748, ,0.0014242311439354655, ,0.0156463122647315,0.00017628002751119418,-0.03173757634490793,0.009611228865465862,-0.028057414490925064,-0.05118167790554441, ,0.03538519343429461, ,0.02965741100065718, ,0.0006084270971451646, ,0.1825962960781643,-0.2383698728958137,0.09942544300000002,1.6903106344287508,0.43628034375105135,-1.296043023000826, ,0.11502659582844943,0.0866638735693797,0.03297890583850932,0.034962388154450005,0.08205024353061488,-0.08561111276692021, ,1.303596019744873
0.012626648958950609,0.022179757321231102,-0.0888756864352465, ,0.013463819167909554,0.021640889880584605,-0.08959191890033354, ,0.0012264668855708752, ,0.01590292482512268,-0.0013128661052865874,-0.03090906004959719,0.0731509485588634,0.0291714932475847,-0.0019563733355497004, ,0.03478500580068255, ,0.07875283538814717, ,0.0006142031699341899, ,0.18377787420792066,-0.237450867683781,0.09974433034,1.6905203243722353,0.43751007224894034,-1.2974541778347966, ,0.12669818632639623,0.09833879954245676,0.03217941721212122,-0.019109753096042202,0.16713278325688458,-0.16672280994955954, ,1.3063340187072754
0.012626648958950609,0.022179757321231102,-0.0888756864352465, ,0.013515809255714044,0.021629960469226252,-0.0896877459054517, ,0.0013237534494628636, ,0.01590292482512268,-0.0013128661052865874,-0.03090906004959719,0.0731509485588634,0.0291714932475847,-0.0019563733355497004, ,0.03478500580068255, ,0.07875283538814717, ,0.0006207730799298257, ,0.18377787420792066,-0.237450867683781,0.09974433034,1.6905203243722353,0.43751007224894034,-1.2974541778347966, ,0.12669818632639623,0.09833879954245676,0.03217941721212122,-0.019109753096042202,0.16713278325688458,-0.16672280994955954, ,1.309108018875122
0.012626648958950609,0.022179757321231102,-0.0888756864352465, ,0.013568073232311045,0.021618735156328187,-0.08978356844484092, ,0.0014231216656806912, ,0.01590292482512268,-0.0013128661052865874,-0.03090906004959719,0.0731509485588634,0.0291714932475847,-0.0019563733355497004, ,0.03478500580068255, ,0.07875283538814717, ,0.000628134076129375, ,0.18377787420792066,-0.237450867683781,0.09974433034,1.6905203243722353,0.43751007224894034,-1.2974541778347966, ,0.12669818632639623,0.09833879954245676,0.03217941721212122,-0.019109753096042202,0.16713278325688458,-0.16672280994955954, ,1.3118469715118408
0.012790806818489379,0.02216427344349206,-0.08919591050794869, ,0.013620607880705269,0.021607218374487456,-0.08987938543004427, ,0.0012107923529209744, ,0.01650800884085587,-0.0019383475289649012,-0.03211004228266889,0.04431305979938115,0.018931111587163936,-0.012700842589766627, ,0.03615696837993478, ,0.04818713645110129, ,0.0006334309695547531, ,0.18503667966641926,-0.23645463514300605,0.10006581026000001,1.6903106344287508,0.43928634674589107,-1.2991476468032719, ,0.12858664167814468,0.10698640536467957,0.033323873472803356,-0.007111106385667613,0.1606210960888823,-0.14942673252662353, ,1.3152780532836914
0.012790806818489379,0.02216427344349206,-0.08919591050794869, ,0.013673409998139256,0.02159541453753635,-0.08997519577604643, ,0.001307621641258424, ,0.01650800884085587,-0.0019383475289649012,-0.03211004228266889,0.04431305979938115,0.018931111587163936,-0.012700842589766627, ,0.03615696837993478, ,0.04818713645110129, ,0.0006395047593899214, ,0.18503667966641926,-0.23645463514300605,0.10006581026000001,1.6903106344287508,0.43928634674589107,-1.2991476468032719, ,0.12858664167814468,0.10698640536467957,0.033323873472803356,-0.007111106385667613,0.1606210960888823,-0.14942673252662353, ,1.318113088607788
0.012790806818489379,0.02216427344349206,-0.08919591050794869, ,0.013726476396069857,0.021583328040572648,-0.09007099840126967, ,0.0014066818903432949, ,0.01650800884085587,-0.0019383475289649012,-0.03211004228266889,0.04431305979938115,0.018931111587163936,-0.012700842589766627, ,0.03615696837993478, ,0.04818713645110129, ,0.0006463545552020051, ,0.18503667966641926,-0.23645463514300605,0.10006581026000001,1.6903106344287508,0.43928634674589107,-1.2991476468032719, ,0.12858664167814468,0.10698640536467957,0.033323873472803356,-0.007111106385667613,0.1606210960888823,-0.14942673252662353, ,1.3209519386291504
0.012790806818489379,0.02216427344349206,-0.08919591050794869, ,0.01377980390014398,0.021570963259989313,-0.09016679222757218, ,0.0015075621097880023, ,0.01650800884085587,-0.0019383475289649012,-0.03211004228266889,0.04431305979938115,0.018931111587163936,-0.012700842589766627, ,0.03615696837993478, ,0.04818713645110129, ,0.0006539758609948015, ,0.18503667966641926,-0.23645463514300605,0.10006581026000001,1.6903106344287508,0.43928634674589107,-1.2991476468032719, ,0.12858664167814468,0.10698640536467957,0.033323873472803356,-0.007111106385667613,0.1606210960888823,-0.14942673252662353, ,1.3238499164581299
0.012790806818489379,0.02216427344349206,-0.08919591050794869, ,0.013833389350175024,0.0215583245535047,-0.09026257618024382, ,0.0016099465982155393, ,0.017259590897467463,-0.0026797120322989785,-0.032101744969844664,-0.02086901527502726,-0.02798006635692032,0.0033421132794632558, ,0.036545811861729616, ,0.0349050973443043, ,0.0006623615692160359, ,0.18602518947431998,-0.23560513452684134,0.10031599423000001,1.6901009444852664,0.4402428022442491,-1.3000092508692873, ,0.13253762787495918,0.11433366452827805,0.03304732680497926,-0.020918896050271432,0.11384283117843629,-0.09005940200856459, ,1.3272900581359863
0.012912602877552403,0.022146206262567587,-0.08942727256694344, ,0.013887229600118456,0.021545416260190638,-0.09035834918800337, ,0.0014757200105644415, ,0.017259590897467463,-0.0026797120322989785,-0.032101744969844664,-0.02086901527502726,-0.02798006635692032,0.0033421132794632558, ,0.036545811861729616, ,0.0349050973443043, ,0.0006694342513147177, ,0.18602518947431998,-0.23560513452684134,0.10031599423000001,1.6901009444852664,0.4402428022442491,-1.3000092508692873, ,0.13253762787495918,0.11433366452827805,0.03304732680497926,-0.020918896050271432,0.11384283117843629,-0.09005940200856459, ,1.3304269313812256
0.012912602877552403,0.022146206262567587,-0.08942727256694344, ,0.013941321518048578,0.02153224270050496,-0.09045411018299564, ,0.0015778494182223757, ,0.017259590897467463,-0.0026797120322989785,-0.032101744969844664,-0.02086901527502726,-0.02798006635692032,0.0033421132794632558, ,0.036545811861729616, ,0.0349050973443043, ,0.0006772654165466803, ,0.18602518947431998,-0.23560513452684134,0.10031599423000001,1.6901009444852664,0.4402428022442491,-1.3000092508692873, ,0.13253762787495918,0.11433366452827805,0.03304732680497926,-0.020918896050271432,0.11384283117843629,-0.09005940200856459, ,1.3331739902496338
0.01313940508670658,0.022103982909190002,-0.08983520940286137, ,0.013995661986133955,0.021518808176319078,-0.09054985810078853, ,0.0012594951795288955, ,0.018227036401642447,-0.003787682217507059,-0.03197518859128409,-0.013602191401160667,-0.03149645420655955,0.04673545710448099, ,0.036999784837425775, ,0.03430762034810029, ,0.000682241739307212, ,0.18780141803539163,-0.2340837561506191,0.10073599219000001,1.6894718746548125,0.44188244024143436,-1.3015096231939254, ,0.14400142876854444,0.12308293327946923,0.03291076760330579,-0.06991628893512412,0.13385038164357915,-0.11430370668852458, ,1.3359429836273193
0.01313940508670658,0.022103982909190002,-0.08983520940286137, ,0.01405024790061397,0.021505116970948635,-0.09064559188036916, ,0.001358305857855336, ,0.018227036401642447,-0.003787682217507059,-0.03197518859128409,-0.013602191401160667,-0.03149645420655955,0.04673545710448099, ,0.036999784837425775, ,0.03430762034810029, ,0.0006879710962440606, ,0.18780141803539163,-0.2340837561506191,0.10073599219000001,1.6894718746548125,0.44188244024143436,-1.3015096231939254, ,0.14400142876854444,0.12308293327946923,0.03291076760330579,-0.06991628893512412,0.13385038164357915,-0.11430370668852458, ,1.3388381004333496
0.01313940508670658,0.022103982909190002,-0.08983520940286137, ,0.014105076171774698,0.021491173349183323,-0.09074131046414177, ,0.0014591351324074447, ,0.018227036401642447,-0.003787682217507059,-0.03197518859128409,-0.013602191401160667,-0.03149645420655955,0.04673545710448099, ,0.036999784837425775, ,0.03430762034810029, ,0.0006944514662958537, ,0.18780141803539163,-0.2340837561506191,0.10073599219000001,1.6894718746548125,0.44188244024143436,-1.3015096231939254, ,0.14400142876854444,0.12308293327946923,0.03291076760330579,-0.06991628893512412,0.13385038164357915,-0.11430370668852458, ,1.3415820598602295
0.01313940508670658,0.022103982909190002,-0.08983520940286137, ,0.014160143723925019,0.0214769815573166,-0.09083701279792433, ,0.0015616171435794738, ,0.018227036401642447,-0.003787682217507059,-0.03197518859128409,-0.013602191401160667,-0.03149645420655955,0.04673545710448099, ,0.036999784837425775, ,0.03430762034810029, ,0.0007016778469398838, ,0.18780141803539163,-0.2340837561506191,0.10073599219000001,1.6894718746548125,0.44188244024143436,-1.3015096231939254, ,0.14400142876854444,0.12308293327946923,0.03291076760330579,-0.06991628893512412,0.13385038164357915,-0.11430370668852458, ,1.3443019390106201
0.013327358765481006,0.022065905458812592,-0.09016077400750863, ,0.01421544749537271,0.021462545823175472,-0.09093269783094493, ,0.0013223504948633455, ,0.019188671148384694,-0.004340030993344885,-0.03310271791076944,0.003260675585729646,-0.01607760531564089,0.023163532511287156, ,0.038507543449875135, ,0.01640370841266504, ,0.0007068073729557802, ,0.18928418274724274,-0.23280950522637206,0.10107173130000001,1.6894718746548125,0.44324880523908883,-1.302542123490749, ,0.15256743015831317,0.13216844228199273,0.03410880411134904,-0.04816667980098341,0.15348818698936667,-0.13551315460768787, ,1.3470900058746338
0.013327358765481006,0.022065905458812592,-0.09016077400750863, ,0.014270984438400592,0.021447870356150516,-0.0910283645158392, ,0.0014230636278328415, ,0.019188671148384694,-0.004340030993344885,-0.03310271791076944,0.003260675585729646,-0.01607760531564089,0.023163532511287156, ,0.038507543449875135, ,0.01640370841266504, ,0.0007126783258646085, ,0.18928418274724274,-0.23280950522637206,0.10107173130000001,1.6894718746548125,0.44324880523908883,-1.302542123490749, ,0.15256743015831317,0.13216844228199273,0.03410880411134904,-0.04816667980098341,0.15348818698936667,-0.13551315460768787, ,1.3498361110687256
0.013327358765481006,0.022065905458812592,-0.09016077400750863, ,0.01432675151924261,0.02143295934722533,-0.09112401180864788, ,0.0015255273573385048, ,0.019188671148384694,-0.004340030993344885,-0.03310271791076944,0.003260675585729646,-0.01607760531564089,0.023163532511287156, ,0.038507543449875135, ,0.01640370841266504, ,0.0007192868545757785, ,0.18928418274724274,-0.23280950522637206,0.10107173130000001,1.6894718746548125,0.44324880523908883,-1.302542123490749, ,0.15256743015831317,0.13216844228199273,0.03410880411134904,-0.04816667980098341,0.15348818698936667,-0.13551315460768787, ,1.3525938987731934
0.013523099447394786,0.022021014647943378,-0.09049249935406237, ,0.014382745718059803,0.021417816969006548,-0.09121963866881204, ,0.001277329532108952, ,0.019746537760521005,-0.004771376710486017,-0.032993209603143545,0.038106946027894266,0.022496767661385638,0.003946899001945832, ,0.038745885835247254, ,0.044251607831106175, ,0.0007237871987494331, ,0.190875065719333,-0.23145030424050855,0.10141524815000001,1.6894718746548125,0.44516171623580497,-1.3041019741424988, ,0.16138935639195712,0.13693642360529693,0.034181998969957085,-0.0274382098956904,0.1976909583324776,-0.1692646423970923, ,1.3553409576416016
0.013523099447394786,0.022021014647943378,-0.09049249935406237, ,0.014438964028916482,0.02140244737575345,-0.09131524405917137, ,0.0013778034154752605, ,0.019746537760521005,-0.004771376710486017,-0.032993209603143545,0.038106946027894266,0.022496767661385638,0.003946899001945832, ,0.038745885835247254, ,0.044251607831106175, ,0.0007290193284832397, ,0.190875065719333,-0.23145030424050855,0.10141524815000001,1.6894718746548125,0.44516171623580497,-1.3041019741424988, ,0.16138935639195712,0.13693642360529693,0.034181998969957085,-0.0274382098956904,0.1976909583324776,-0.1692646423970923, ,1.358402967453003
0.013523099447394786,0.022021014647943378,-0.09049249935406237, ,0.014495403459756398,0.021386854703408363,-0.09141082694596127, ,0.0014801552262347277, ,0.019746537760521005,-0.004771376710486017,-0.032993209603143545,0.038106946027894266,0.022496767661385638,0.003946899001945832, ,0.038745885835247254, ,0.044251607831106175, ,0.0007349807244971403, ,0.190875065719333,-0.23145030424050855,0.10141524815000001,1.6894718746548125,0.44516171623580497,-1.3041019741424988, ,0.16138935639195712,0.13693642360529693,0.034181998969957085,-0.0274382098956904,0.1976909583324776,-0.1692646423970923, ,1.361203908920288
0.013523099447394786,0.022021014647943378,-0.09049249935406237, ,0.014552061032378657,0.02137104306962573,-0.09150638629880879, ,0.0015840428443449667, ,0.019746537760521005,-0.004771376710486017,-0.032993209603143545,0.038106946027894266,0.022496767661385638,0.003946899001945832, ,0.038745885835247254, ,0.044251607831106175, ,0.0007416662529998791, ,0.190875065719333,-0.23145030424050855,0.10141524815000001,1.6894718746548125,0.44516171623580497,-1.3041019741424988, ,0.16138935639195712,0.13693642360529693,0.034181998969957085,-0.0274382098956904,0.1976909583324776,-0.1692646423970923, ,1.3640520572662354
0.013719691546359656,0.021972408517012005,-0.09081512579264543, ,0.01460893378241399,0.02135501657380209,-0.0916019210907297, ,0.0013382717986309604, ,0.020397473942859647,-0.005398641190754793,-0.032437726206624426,0.0013826159766163635,-0.00814503930407589,-0.0027308581723041255, ,0.03869636095826172, ,0.008259381282890756, ,0.0007463272338251219, ,0.1924813941571717,-0.23008338052177083,0.10174969097000001,1.6894718746548125,0.44707462723252117,-1.3057435035343894, ,0.16561420865352666,0.141426142412028,0.033534340042105266,-0.020281698412148323,0.16841729150583404,-0.13661393211112183, ,1.366905927658081
0.013719691546359656,0.021972408517012005,-0.09081512579264543, ,0.014666018759300629,0.021338779297106456,-0.09169743029812642, ,0.001440653470707928, ,0.020397473942859647,-0.005398641190754793,-0.032437726206624426,0.0013826159766163635,-0.00814503930407589,-0.0027308581723041255, ,0.03869636095826172, ,0.008259381282890756, ,0.000751709607754446, ,0.1924813941571717,-0.23008338052177083,0.10174969097000001,1.6894718746548125,0.44707462723252117,-1.3057435035343894, ,0.16561420865352666,0.141426142412028,0.033534340042105266,-0.020281698412148323,0.16841729150583404,-0.13661393211112183, ,1.3699090480804443
0.013719691546359656,0.021972408517012005,-0.09081512579264543, ,0.014723313026260638,0.021322335302509113,-0.09179291290078406, ,0.0015446419934647855, ,0.020397473942859647,-0.005398641190754793,-0.032437726206624426,0.0013826159766163635,-0.00814503930407589,-0.0027308581723041255, ,0.03869636095826172, ,0.008259381282890756, ,0.0007578090876445254, ,0.1924813941571717,-0.23008338052177083,0.10174969097000001,1.6894718746548125,0.44707462723252117,-1.3057435035343894, ,0.16561420865352666,0.141426142412028,0.033534340042105266,-0.020281698412148323,0.16841729150583404,-0.13661393211112183, ,1.3736350536346436
0.013929749677386647,0.02191130334062919,-0.09113978823430842, ,0.01478081366027575,0.02130568863481239,-0.09188836788186709, ,0.0012850877649451418, ,0.020727273871666528,-0.006269371875979694,-0.031788941384269034,-0.027107601885106265,-0.03348612409369472,-0.011595345775538647, ,0.038463771268596215, ,0.04308259653737159, ,0.0007618341157155225, ,0.19418039538950108,-0.22860833854279394,0.10208413379,1.6890524947678438,0.448577628729941,-1.30696910047505, ,0.1667784561660295,0.1480451506372399,0.03270803186858317,-0.013487561380449205,0.1415987921520005,-0.11455816287541638, ,1.376389980316162
0.013929749677386647,0.02191130334062919,-0.09113978823430842, ,0.01483851775206372,0.021288843320679905,-0.09198379422791743, ,0.0013876822428911713, ,0.020727273871666528,-0.006269371875979694,-0.031788941384269034,-0.027107601885106265,-0.03348612409369472,-0.011595345775538647, ,0.038463771268596215, ,0.04308259653737159, ,0.0007665753894062471, ,0.19418039538950108,-0.22860833854279394,0.10208413379,1.6890524947678438,0.448577628729941,-1.30696910047505, ,0.1667784561660295,0.1480451506372399,0.03270803186858317,-0.013487561380449205,0.1415987921520005,-0.11455816287541638, ,1.3791530132293701
0.013929749677386647,0.02191130334062919,-0.09113978823430842, ,0.014896422406054198,0.021271803368666634,-0.09207919092885024, ,0.001491942961712046, ,0.020727273871666528,-0.006269371875979694,-0.031788941384269034,-0.027107601885106265,-0.03348612409369472,-0.011595345775538647, ,0.038463771268596215, ,0.04308259653737159, ,0.0007720292809273433, ,0.19418039538950108,-0.22860833854279394,0.10208413379,1.6890524947678438,0.448577628729941,-1.30696910047505, ,0.1667784561660295,0.1480451506372399,0.03270803186858317,-0.013487561380449205,0.1415987921520005,-0.11455816287541638, ,1.3818910121917725
0.013929749677386647,0.02191130334062919,-0.09113978823430842, ,0.014954524740364914,0.021254572769248598,-0.0921745569779514, ,0.0015975623073634642, ,0.020727273871666528,-0.006269371875979694,-0.031788941384269034,-0.027107601885106265,-0.03348612409369472,-0.011595345775538647, ,0.038463771268596215, ,0.04308259653737159, ,0.0007781899751544785, ,0.19418039538950108,-0.22860833854279394,0.10208413379,1.6890524947678438,0.448577628729941,-1.30696910047505, ,0.1667784561660295,0.1480451506372399,0.03270803186858317,-0.013487561380449205,0.1415987921520005,-0.11455816287541638, ,1.3847029209136963
0.014143067710820396,0.02184266883411055,-0.0914657447541526, ,0.01501282188677771,0.0212371554948524,-0.09226989137187452, ,0.0013303272204267442, ,0.02142107169387597,-0.006664825492208342,-0.03333632110979021,-0.04401074964652962,-0.05078736937054293,0.042986186585302705, ,0.04018199244052998, ,0.06720313832939444, ,0.0007822798806750138, ,0.19588711935470468,-0.22707151470082326,0.10241857661,1.68842342493739,0.44994399372759536,-1.3080832795120143, ,0.16976197058760426,0.15256743015831317,0.034255508645161296,-0.07191102131925418,0.14028178552190687,-0.11328180433616701, ,1.3877720832824707
0.014143067710820396,0.02184266883411055,-0.0914657447541526, ,0.01507131099071476,0.02121955549988575,-0.0923651931106375, ,0.0014348913408133638, ,0.02142107169387597,-0.006664825492208342,-0.03333632110979021,-0.04401074964652962,-0.05078736937054293,0.042986186585302705, ,0.04018199244052998, ,0.06720313832939444, ,0.0007870784943525016, ,0.19588711935470468,-0.22707151470082326,0.10241857661,1.68842342493739,0.44994399372759536,-1.3080832795120143, ,0.16976197058760426,0.15256743015831317,0.034255508645161296,-0.07191102131925418,0.14028178552190687,-0.11328180433616701, ,1.3905029296875
0.014143067710820396,0.02184266883411055,-0.0914657447541526, ,0.015129989211214459,0.02120177672076629,-0.0924604611976195, ,0.0015408496201091042, ,0.02142107169387597,-0.006664825492208342,-0.03333632110979021,-0.04401074964652962,-0.05078736937054293,0.042986186585302705, ,0.04018199244052998, ,0.06720313832939444, ,0.0007925804733726228, ,0.19588711935470468,-0.22707151470082326,0.10241857661,1.68842342493739,0.44994399372759536,-1.3080832795120143, ,0.16976197058760426,0.15256743015831317,0.034255508645161296,-0.07191102131925418,0.14028178552190687,-0.11328180433616701, ,1.3932149410247803
0.014358919437004222,0.0217803848651399,-0.09180842507864378, ,0.015188853720907777,0.021183823075952502,-0.09255569463955833, ,0.0012661313836195647, ,0.021667043495638794,-0.006269647653042077,-0.03518608056830282,-0.005934971054010481,-0.008204604515903838,0.030593617276888942, ,0.041795089679223046, ,0.010123511430750713, ,0.0007960120017077456, ,0.1975938433199083,-0.22555013632460102,0.10277246378,1.6882137349939055,0.45158363172478067,-1.3094202943563715, ,0.17067795244329276,0.15281311040011397,0.0363671495890411,-0.05833870434230928,0.18211274165957944,-0.14734877732731658, ,1.3959379196166992
0.014358919437004222,0.0217803848651399,-0.09180842507864378, ,0.015247901705994032,0.021165698465972844,-0.09265089244654724, ,0.001370357657650517, ,0.021667043495638794,-0.006269647653042077,-0.03518608056830282,-0.005934971054010481,-0.008204604515903838,0.030593617276888942, ,0.041795089679223046, ,0.010123511430750713, ,0.0008001439848440245, ,0.1975938433199083,-0.22555013632460102,0.10277246378,1.6882137349939055,0.45158363172478067,-1.3094202943563715, ,0.17067795244329276,0.15281311040011397,0.0363671495890411,-0.05833870434230928,0.18211274165957944,-0.14734877732731658, ,1.398664951324463
0.014358919437004222,0.0217803848651399,-0.09180842507864378, ,0.0153071303662171,0.0211474067734547,-0.09274605363203076, ,0.001476113997955013, ,0.021667043495638794,-0.006269647653042077,-0.03518608056830282,-0.005934971054010481,-0.008204604515903838,0.030593617276888942, ,0.041795089679223046, ,0.010123511430750713, ,0.0008049723420805316, ,0.1975938433199083,-0.22555013632460102,0.10277246378,1.6882137349939055,0.45158363172478067,-1.3094202943563715, ,0.17067795244329276,0.15281311040011397,0.0363671495890411,-0.05833870434230928,0.18211274165957944,-0.14734877732731658, ,1.4014320373535156
0.014358919437004222,0.0217803848651399,-0.09180842507864378, ,0.015366536914841846,0.02112895186315694,-0.0928411772128038, ,0.0015831092534403473, ,0.021667043495638794,-0.006269647653042077,-0.03518608056830282,-0.005934971054010481,-0.008204604515903838,0.030593617276888942, ,0.041795089679223046, ,0.010123511430750713, ,0.0008104910435795374, ,0.1975938433199083,-0.22555013632460102,0.10277246378,1.6882137349939055,0.45158363172478067,-1.3094202943563715, ,0.17067795244329276,0.15281311040011397,0.0363671495890411,-0.05833870434230928,0.18211274165957944,-0.14734877732731658, ,1.4043118953704834
0.014585437472059943,0.021716889330613297,-0.0921834506645473, ,0.015426118578629579,0.021110337581996264,-0.09293626220900628, ,0.0012811615698904758, ,0.0220109966830167,-0.006044020987767541,-0.036441364812371355,0.027934595980203602,0.03169421929169545,-0.03202881461428941, ,0.04299985155868197, ,0.04224690431600766, ,0.0008138056247507412, ,0.19937779461385416,-0.22394380788676232,0.10316135078000001,1.6880040450504212,0.4537698157210277,-1.3112029808155141, ,0.17222675418960212,0.15531414330355284,0.03783565681710214,0.006745696917655111,0.209942540955453,-0.17005928127764006, ,1.4071719646453857
0.014585437472059943,0.021716889330613297,-0.0921834506645473, ,0.015485872597814596,0.021091567759079357,-0.09303130764412178, ,0.0013858830907878266, ,0.0220109966830167,-0.006044020987767541,-0.036441364812371355,0.027934595980203602,0.03169421929169545,-0.03202881461428941, ,0.04299985155868197, ,0.04224690431600766, ,0.0008178061664712803, ,0.19937779461385416,-0.22394380788676232,0.10316135078000001,1.6880040450504212,0.4537698157210277,-1.3112029808155141, ,0.17222675418960212,0.15531414330355284,0.03783565681710214,0.006745696917655111,0.209942540955453,-0.17005928127764006, ,1.4099719524383545
0.014585437472059943,0.021716889330613297,-0.0921834506645473, ,0.015545796226080169,0.021072646205732116,-0.09312631254497332, ,0.0014920880221824808, ,0.0220109966830167,-0.006044020987767541,-0.036441364812371355,0.027934595980203602,0.03169421929169545,-0.03202881461428941, ,0.04299985155868197, ,0.04224690431600766, ,0.0008224886793581636, ,0.19937779461385416,-0.22394380788676232,0.10316135078000001,1.6880040450504212,0.4537698157210277,-1.3112029808155141, ,0.17222675418960212,0.15531414330355284,0.03783565681710214,0.006745696917655111,0.209942540955453,-0.17005928127764006, ,1.4127559661865234
0.014585437472059943,0.021716889330613297,-0.0921834506645473, ,0.015605886730534601,0.021053576715529154,-0.09322127594172135, ,0.0015994941764172245, ,0.0220109966830167,-0.006044020987767541,-0.036441364812371355,0.027934595980203602,0.03169421929169545,-0.03202881461428941, ,0.04299985155868197, ,0.04224690431600766, ,0.0008278473379585709, ,0.19937779461385416,-0.22394380788676232,0.10316135078000001,1.6880040450504212,0.4537698157210277,-1.3112029808155141, ,0.17222675418960212,0.15531414330355284,0.03783565681710214,0.006745696917655111,0.209942540955453,-0.17005928127764006, ,1.4155299663543701
0.014797892544893998,0.021657049971445384,-0.09253204680984348, ,0.015666141391687347,0.021034363064323762,-0.09331619686785952, ,0.0013253250007998956, ,0.022289460928970068,-0.006401911085833544,-0.03612871239380021,0.007467117396698043,0.009088065966826174,-0.0161582462958386, ,0.042931205355649336, ,0.011759644142717332, ,0.0008312547192109086, ,0.20103045944893821,-0.22244559770916278,0.10352301569000001,1.6880040450504212,0.4556827267177439,-1.3127628314672641, ,0.1728541740591453,0.15633763024459765,0.03747955651764706,-0.011094782467483308,0.19120624504692008,-0.15481950677808404, ,1.4182701110839844
0.014797892544893998,0.021657049971445384,-0.09253204680984348, ,0.015726557503424932,0.021015009010277665,-0.09341107436021251, ,0.0014308475234378441, ,0.022289460928970068,-0.006401911085833544,-0.03612871239380021,0.007467117396698043,0.009088065966826174,-0.0161582462958386, ,0.042931205355649336, ,0.011759644142717332, ,0.0008353335818246973, ,0.20103045944893821,-0.22244559770916278,0.10352301569000001,1.6880040450504212,0.4556827267177439,-1.3127628314672641, ,0.1728541740591453,0.15633763024459765,0.03747955651764706,-0.011094782467483308,0.19120624504692008,-0.15481950677808404, ,1.4210131168365479
0.014797892544893998,0.021657049971445384,-0.09253204680984348, ,0.01578713237298748,0.020995518293891048,-0.09350590745893267, ,0.0015377334495089512, ,0.022289460928970068,-0.006401911085833544,-0.03612871239380021,0.007467117396698043,0.009088065966826174,-0.0161582462958386, ,0.042931205355649336, ,0.011759644142717332, ,0.000840079526876618, ,0.20103045944893821,-0.22244559770916278,0.10352301569000001,1.6880040450504212,0.4556827267177439,-1.3127628314672641, ,0.1728541740591453,0.15633763024459765,0.03747955651764706,-0.011094782467483308,0.19120624504692008,-0.15481950677808404, ,1.4237511157989502
0.0150214159743795,0.02158864049956898,-0.0928875858743364, ,0.015847863320944268,0.020975894638032417,-0.09360069520749681, ,0.001251797758631404, ,0.022219852831536987,-0.007314881656442392,-0.034641095329480565,-0.024343804495693927,-0.022412411033321058,0.019802058908700727, ,0.04179993826704867, ,0.03308907828903302, ,0.0008428427364857104, ,0.2027603516127645,-0.22087016020282096,0.10389116205000001,1.687584665163452,0.4574590012146946,-1.3142112642153174, ,0.17191474920012823,0.15922305630615904,0.03579508206741574,-0.05042227910889747,0.16640317153490347,-0.13464280322314656, ,1.4264841079711914
0.0150214159743795,0.02158864049956898,-0.0928875858743364, ,0.01590874768117008,0.02095614174796745,-0.09369543665270323, ,0.0013564789378244196, ,0.022219852831536987,-0.007314881656442392,-0.034641095329480565,-0.024343804495693927,-0.022412411033321058,0.019802058908700727, ,0.04179993826704867, ,0.03308907828903302, ,0.0008462669778279686, ,0.2027603516127645,-0.22087016020282096,0.10389116205000001,1.687584665163452,0.4574590012146946,-1.3142112642153174, ,0.17191474920012823,0.15922305630615904,0.03579508206741574,-0.05042227910889747,0.16640317153490347,-0.13464280322314656, ,1.4291839599609375
0.0150214159743795,0.02158864049956898,-0.0928875858743364, ,0.01596978280082145,0.020936263311390594,-0.09379013084466914, ,0.0014627313685786699, ,0.022219852831536987,-0.007314881656442392,-0.034641095329480565,-0.024343804495693927,-0.022412411033321058,0.019802058908700727, ,0.04179993826704867, ,0.03308907828903302, ,0.0008503495234620792, ,0.2027603516127645,-0.22087016020282096,0.10389116205000001,1.687584665163452,0.4574590012146946,-1.3142112642153174, ,0.17191474920012823,0.15922305630615904,0.03579508206741574,-0.05042227910889747,0.16640317153490347,-0.13464280322314656, ,1.4319300651550293
0.0150214159743795,0.02158864049956898,-0.0928875858743364, ,0.016030966040312476,0.020916262998453082,-0.09388477683682647, ,0.001570246049287819, ,0.022219852831536987,-0.007314881656442392,-0.034641095329480565,-0.024343804495693927,-0.022412411033321058,0.019802058908700727, ,0.04179993826704867, ,0.03308907828903302, ,0.0008550856848161958, ,0.2027603516127645,-0.22087016020282096,0.10389116205000001,1.687584665163452,0.4574590012146946,-1.3142112642153174, ,0.17191474920012823,0.15922305630615904,0.03579508206741574,-0.05042227910889747,0.16640317153490347,-0.13464280322314656, ,1.4346909523010254
0.015239994585226605,0.021514109557329707,-0.09322914946846256, ,0.016092294773290897,0.020896144461793217,-0.09397937368591953, ,0.0012927230354313269, ,0.02179399209105482,-0.007539275328265006,-0.03409519586038529,-0.022049802082974506,-0.01745352481963243,0.05362899267698057, ,0.04116188946705897, ,0.02812069034472272, ,0.0008579460596568175, ,0.20444390737934545,-0.21928699996360496,0.10424375293000002,1.6869555953329984,0.45909863921187993,-1.3155482790596746, ,0.16825698857884888,0.15763611554563253,0.03524073345132744,-0.08581865756492892,0.1755430972371842,-0.14216832914069352, ,1.4374439716339111
0.015239994585226605,0.021514109557329707,-0.09322914946846256, ,0.016153766386614494,0.02087591133656724,-0.09407392045200248, ,0.001398539913133357, ,0.02179399209105482,-0.007539275328265006,-0.03409519586038529,-0.022049802082974506,-0.01745352481963243,0.05362899267698057, ,0.04116188946705897, ,0.02812069034472272, ,0.0008614564093547171, ,0.20444390737934545,-0.21928699996360496,0.10424375293000002,1.6869555953329984,0.45909863921187993,-1.3155482790596746, ,0.16825698857884888,0.15763611554563253,0.03524073345132744,-0.08581865756492892,0.1755430972371842,-0.14216832914069352, ,1.440290927886963
0.015239994585226605,0.021514109557329707,-0.09322914946846256, ,0.016215378280326903,0.020855567240477976,-0.09416841619843519, ,0.0015057467668188559, ,0.02179399209105482,-0.007539275328265006,-0.03409519586038529,-0.022049802082974506,-0.01745352481963243,0.05362899267698057, ,0.04116188946705897, ,0.02812069034472272, ,0.0008656131213383568, ,0.20444390737934545,-0.21928699996360496,0.10424375293000002,1.6869555953329984,0.45909863921187993,-1.3155482790596746, ,0.16825698857884888,0.15763611554563253,0.03524073345132744,-0.08581865756492892,0.1755430972371842,-0.14216832914069352, ,1.4432730674743652
0.015239994585226605,0.021514109557329707,-0.09322914946846256, ,0.016277127867633856,0.020835115773804935,-0.09426285999188079, ,0.0016140741772817384, ,0.02179399209105482,-0.007539275328265006,-0.03409519586038529,-0.022049802082974506,-0.01745352481963243,0.05362899267698057, ,0.04116188946705897, ,0.02812069034472272, ,0.0008704109486200451, ,0.20444390737934545,-0.21928699996360496,0.10424375293000002,1.6869555953329984,0.45909863921187993,-1.3155482790596746, ,0.16825698857884888,0.15763611554563253,0.03524073345132744,-0.08581865756492892,0.1755430972371842,-0.14216832914069352, ,1.446187973022461
0.015239994585226605,0.021514109557329707,-0.09322914946846256, ,0.01633901257487908,0.020814560519434224,-0.09435725090230239, ,0.0017233172206624478, ,0.02179399209105482,-0.007539275328265006,-0.03409519586038529,-0.022049802082974506,-0.01745352481963243,0.05362899267698057, ,0.04116188946705897, ,0.02812069034472272, ,0.0008758434726457928, ,0.20537835805712662,-0.2184220538816918,0.10443301127000001,1.6869555953329984,0.4601917312100034,-1.3164396222892458, ,0.17067795244329276,0.15842561195070248,0.033963350788912584,-0.05934724408486678,0.19032001561439105,-0.15426546026944854, ,1.4492039680480957
0.015358981492678808,0.02147352990278022,-0.09341129826689458, ,0.016401029841520566,0.02079390504288791,-0.09445158800296012, ,0.0016217143541545135, ,0.02171233667067542,-0.007848014994218775,-0.03276582394506561,-0.004923015655778036,0.0002153568782455716,0.028132260549355647, ,0.04008261620514901, ,0.004923890265086852, ,0.0008805641744274935, ,0.20537835805712662,-0.2184220538816918,0.10443301127000001,1.6869555953329984,0.4601917312100034,-1.3164396222892458, ,0.17067795244329276,0.15842561195070248,0.033963350788912584,-0.05934724408486678,0.19032001561439105,-0.15426546026944854, ,1.4519619941711426
0.015358981492678808,0.02147352990278022,-0.09341129826689458, ,0.01646317712010671,0.02077315289235509,-0.09454587037040807, ,0.0017311931719002256, ,0.02171233667067542,-0.007848014994218775,-0.03276582394506561,-0.004923015655778036,0.0002153568782455716,0.028132260549355647, ,0.04008261620514901, ,0.004923890265086852, ,0.0008859140423361271, ,0.20537835805712662,-0.2184220538816918,0.10443301127000001,1.6869555953329984,0.4601917312100034,-1.3164396222892458, ,0.17067795244329276,0.15842561195070248,0.033963350788912584,-0.05934724408486678,0.19032001561439105,-0.15426546026944854, ,1.4547369480133057
0.015685384982928218,0.021359555339580047,-0.09389433175562875, ,0.0165254518762521,0.020752307598719637,-0.09464009708449107, ,0.0012769605043900277, ,0.022969933269601513,-0.007732804327767715,-0.03344329405527415,-0.08428233121089258,-0.09106304497770024,0.0002241076787900839, ,0.04130215508238069, ,0.12408040812081056, ,0.000888358082723964, ,0.20788824624124957,-0.21608206582080178,0.10493337921000001,1.6869555953329984,0.46237791520625043,-1.3182223087483886, ,0.1716038726192962,0.15789840525535903,0.034552736485900216,-0.03253928870254772,0.0906366467225682,-0.07308778237022746, ,1.457515001296997
0.015685384982928218,0.021359555339580047,-0.09389433175562875, ,0.016587851588613933,0.020731372675592136,-0.09473426722834176, ,0.0013836730220808916, ,0.022969933269601513,-0.007732804327767715,-0.03344329405527415,-0.08428233121089258,-0.09106304497770024,0.0002241076787900839, ,0.04130215508238069, ,0.12408040812081056, ,0.0008914345730305288, ,0.20788824624124957,-0.21608206582080178,0.10493337921000001,1.6869555953329984,0.46237791520625043,-1.3182223087483886, ,0.1716038726192962,0.15789840525535903,0.034552736485900216,-0.03253928870254772,0.0906366467225682,-0.07308778237022746, ,1.4603230953216553
0.015685384982928218,0.021359555339580047,-0.09389433175562875, ,0.016650373748868054,0.020710351619338437,-0.0948283798883777, ,0.0014916818370743214, ,0.022969933269601513,-0.007732804327767715,-0.03344329405527415,-0.08428233121089258,-0.09106304497770024,0.0002241076787900839, ,0.04130215508238069, ,0.12408040812081056, ,0.0008951398030554905, ,0.20788824624124957,-0.21608206582080178,0.10493337921000001,1.6869555953329984,0.46237791520625043,-1.3182223087483886, ,0.1716038726192962,0.15789840525535903,0.034552736485900216,-0.03253928870254772,0.0906366467225682,-0.07308778237022746, ,1.4630870819091797
