NicholasDascanio/dvrk_moveit_final/test/execution/third_experiment_notsharpbends/thirdexp_400vel4.0/thirdexp_400vel4.0_6.csv
Current Position (x),Current Position (y),Current Position (z), ,Planned Position (x),Planned Position (y),Planned Position (z), ,Position Error,,Cartesian linear Velocity(x),Cartesian linear Velocity(y),Cartesian linear Velocity(z),Cartesian Angular Velocity(x),Cartesian Angular Velocity(y),Cartesian Angular Velocity(z), ,Total Linear Velocity, ,Total Angular Velocity, ,MSE, ,Joint 1 Position,Joint 2 Position,Joint 3 Position,Joint 4 Position,Joint 5 Position,Joint 6 Position, ,Joint 1 Velocity,Joint 2 Velocity,Joint 3 Velocity,Joint 4 Velocity,Joint 5 Velocity,Joint 6 Velocity, ,Time Stamp
0.009991750233769999,0.020169778917627643,-0.07990299869728598, ,0.010153646942729523,0.02012262121058541,-0.07994337411899978, ,0.0001733913734416252, ,-0.00012485154406064516,-0.00018164764228103674,0.0008553098027819858,0.12397120531965486,0.0014594138524853376,-0.04473593345500344, ,0.000883254568477031, ,0.12397979527810693, ,1.4449281120135434e-05, ,0.17900522529164992,-0.23929660084072066,0.09054456021000001,1.6924075338635962,0.508151142627673,-1.165970950620445, ,0.00022579312361582936,-0.00012484786123933924,0.0,0.0008564948383638499,0.0,-0.13323107378973376, ,0.0287630558013916
0.01001796043294827,0.02017644297431423,-0.07991685987816857, ,0.01017784331545428,0.020159915992533296,-0.07999811363281473, ,0.00018010510789346083, ,0.0009166960874798804,0.0001615159385946219,-0.0007967080426200854,0.24364605799714817,-0.10017010287920913,-0.11793769188921754, ,0.0012252194988639994, ,0.2634339596338724, ,1.606802187886755e-05, ,0.1790361162231468,-0.23931976903934332,0.09055233795,1.6930366036940496,0.5055550491321297,-1.1717768482438475, ,-0.0012362734323713173,-0.00035304246858705173,0.0004850698570976477,0.0016725455125055906,-0.1086637306964548,-0.2667562113969344, ,0.0555570125579834
0.010057308362850438,0.020186393102209772,-0.0799512792144182, ,0.010202356595390635,0.020196563289978906,-0.08005370788748578, ,0.0001778596512666064, ,0.0007388109867010957,0.00033260238360204383,-0.0006484762398401347,0.2818291466347397,-0.061164717867455067,-0.1171161913934798, ,0.0010377800601694019, ,0.2883899974074532, ,1.6604879143802888e-05, ,0.17905156168889524,-0.23936610543658868,0.09057696746,1.6930366036940496,0.5015925906389319,-1.1772036754915507, ,0.0011063939637073281,-0.002393882105003112,0.0005350390893510991,0.0016725455125055906,-0.06586107526340304,-0.30117076922991537, ,0.08536505699157715
0.010086816730998769,0.02020110435941063,-0.07998911673183048, ,0.010227184887770191,0.020232567962763254,-0.08011014939916158, ,0.00018799490507090502, ,0.00022729419558737682,0.00046552165613249853,-0.0011784219912531315,-0.18822116840722988,0.015900545523209703,0.07035160069263152, ,0.0012872651060077144, ,0.18889159744286185, ,1.712740565887137e-05, ,0.17911334355188904,-0.23944333276533092,0.09061196729000001,1.6930366036940496,0.4994064066426849,-1.1759110614732515, ,0.0021625921234028136,-0.001720425300057467,0.0013567029399882372,0.0016725455125055906,0.0203408198182025,0.2029990066623798, ,0.11606001853942871
0.010085495009098765,0.020214840200550813,-0.0800184449240161, ,0.010252326304385396,0.020267934854778836,-0.08016743071072062, ,0.00022988799019212525, ,0.00034016665249667045,0.0007574509448226383,-0.0015462151754797927,-0.01540278113765018,0.023033198789695297,0.006543468356916212, ,0.0017550574503894464, ,0.027708733519436344, ,1.8254596689706205e-05, ,0.17918284814775706,-0.23952828282694738,0.09066770776000001,1.693246293637534,0.5009094081401047,-1.173787830068149, ,0.0031614315809116124,-0.0036279981644988203,0.001815652276557712,0.008713496170325054,0.0252668403221993,0.023781986011638383, ,0.14453697204589844
0.01010011337486107,0.02023704669139584,-0.08006849606755242, ,0.010277778963579225,0.020302668793992996,-0.08022554439173249, ,0.00024603962666937734, ,0.0005229779422067982,0.0005973496430152887,-0.0010417160468898685,0.007261116117965078,-0.002239313480971865,-0.007391382386191722, ,0.0013097728224364732, ,0.007598574349403173, ,1.927868797635645e-05, ,0.17926007547649933,-0.23960551015568965,0.09070530017,1.693246293637534,0.5010460446398701,-1.174144284192267, ,0.004031491578128787,-0.0034515274811171425,0.0012129414968862964,0.00743751853663624,0.0,-0.0027286251081292496, ,0.1729140281677246
0.010120713987215693,0.02026168445330786,-0.08012154563367445, ,0.010303540990235529,0.02033677459246847,-0.08028448303842001, ,0.000256150033959773, ,0.0007170712921308907,0.0008814688968026501,-0.002066664292117038,0.00513997236766886,-0.003393792393847378,-0.0025471692492306567, ,0.002358448632118233, ,0.006159313493826648, ,2.0158731784637125e-05, ,0.17939136193536115,-0.23971362841592878,0.09076492951000001,1.6936656735245033,0.5010460446398701,-1.174144284192267, ,0.004155373340677535,-0.0040117123442245375,0.0022935653736501083,0.0031800943839784056,0.0,-0.0006792540611831365, ,0.20145010948181152
0.010137856277508774,0.020280854779932793,-0.08017159134138002, ,0.01032961051576872,0.020370257046386175,-0.08034423927362119, ,0.000273074644822265, ,0.0007432441436213939,0.0009860009765204401,-0.002425565069009947,0.0031858585731905868,-0.0030223448391487094,-0.001438632561320567, ,0.0027217596673343495, ,0.0043913850993897476, ,2.1290164608841214e-05, ,0.1794763119969776,-0.23979085574467102,0.09081937369000001,1.6936656735245033,0.5009094081401047,-1.1741145450287112, ,0.0036779444863643262,-0.004218634321174713,0.0026681426331658293,0.0028228083783929,0.0,0.001540170923729787, ,0.22591805458068848
0.010163108614556642,0.02031050620185458,-0.08024026634510645, ,0.010355985678114321,0.02040312093606599,-0.08040480574675099, ,0.0002699115879935999, ,0.0007279926874937161,0.0008734193536365619,-0.0017409281485476704,0.006323770965266019,-0.004927233301870374,0.00011189369697200936, ,0.0020793425736893027, ,0.008016714240648091, ,2.2160165792330424e-05, ,0.1796307666544621,-0.23992214220353283,0.09089585480000001,1.693875363467988,0.5009094081401047,-1.17395118754843, ,0.005015288459957963,-0.004974495771332007,0.001979286145083436,0.00031226242071481173,0.0,-0.001456052263100771, ,0.2568209171295166
0.010183960167604809,0.02033865896966768,-0.08029507445687888, ,0.010382664621718435,0.020435371025989735,-0.08046617513376324, ,0.00027948546214950345, ,0.0006376921479791639,0.0009654044760042887,-0.001846715926702199,0.0066250332675383454,-0.0018192758060631533,-0.006301324466857597, ,0.0021792238966703162, ,0.0068702860372067635, ,2.296869074201254e-05, ,0.1797620531133239,-0.24007659686101734,0.09095807672,1.6940850534114722,0.5009094081401047,-1.1739511875484303, ,0.00362697350959139,-0.005391603866115785,0.0020927669637208395,0.0076023769027084255,0.0,0.0, ,0.2853059768676758
0.010208995218505035,0.020370839384212847,-0.08036581779348002, ,0.010409645497528602,0.02046701206482113,-0.08052834013711249, ,0.00027554170491489677, ,0.0009063415055637073,0.0011347696297768486,-0.0025246371337370745,0.0004441562800954872,-0.003681848050717836,-0.0040182472893790415, ,0.0029125503762880266, ,0.0037085414608925456, ,2.36059452627235e-05, ,0.17990878503793417,-0.24023105151850183,0.09103715041,1.6942947433549567,0.5009094081401047,-1.1737061513280085, ,0.005389010318158844,-0.005345858405195604,0.002820256997167139,0.007428050185567712,0.0,0.0064653887273831145, ,0.3096799850463867
0.010236374466743385,0.020405254093948257,-0.0804464560346937, ,0.010436926462982934,0.020498048785429664,-0.08059129348571599, ,0.0002642155278961292, ,0.0007494568708688365,0.0011221290131109216,-0.002482739484456532,-0.009377531727247996,-0.0022775567342970737,0.0006259732132638177, ,0.0028257484797903163, ,0.009650148490005396, ,2.4048355694617668e-05, ,0.18006323969541868,-0.24039322890886053,0.09112659442000001,1.6942947433549567,0.5009094081401047,-1.173216078887165, ,0.0035738436919937706,-0.005431415577648276,0.0027577582271468147,0.00610363006612431,0.0,0.01670966628309055, ,0.3388240337371826
0.01025335430366589,0.020426894335904198,-0.08049049965383819, ,0.01046450568200112,0.020528485904910278,-0.08065502793491552, ,0.0002863133017172763, ,0.0007076354823492804,0.0010606799063899973,-0.0020948121848163984,0.011151191368368773,-0.001414670041151984,-0.010119664018783323, ,0.0024523515101539674, ,0.01124056761106734, ,2.4602943793551933e-05, ,0.18015591248990936,-0.24049362443622546,0.09117585344000001,1.6947141232419258,0.5007727716403392,-1.1727779460229064, ,0.0038912554096345144,-0.005609054103806252,0.0023640266429207483,0.010242845241365204,0.0,-0.004076279173571434, ,0.3636801242828369
0.01027148195290215,0.020447392465835466,-0.08053412361757219, ,0.010492381324973581,0.02055832812460688,-0.08071953626643942, ,0.00030900016719827923, ,0.0009544241741036476,0.0010658826064014486,-0.0022102184258232225,0.01002564901751578,-0.004154811173817284,-0.009915295409460493, ,0.0026328875260046825, ,0.010852469491306931, ,2.5251637668043134e-05, ,0.18033353534601654,-0.24064807909370994,0.09125103826000001,1.6947141232419258,0.5007727716403392,-1.1726962672827659, ,0.006870244423343138,-0.004910206137615126,0.0027238049794801643,0.009931803661841165,0.0,0.002432501097761562, ,0.38832902908325195
0.010301687026280927,0.020480923395732556,-0.0806159581460719, ,0.01052055156875213,0.020587580130133096,-0.0807848112883639, ,0.0002962916310090393, ,0.0011645628404797722,0.0011928297503265438,-0.0031000904708222894,0.0038253788174659586,-0.005159107506569979,-0.006876910956005019, ,0.003519887832015896, ,0.006422609522237101, ,2.5910928085278758e-05, ,0.18046482180487836,-0.24074847462107488,0.09131585276000001,1.6947141232419258,0.5007727716403392,-1.1726962672827659, ,0.007202751940855422,-0.004198332630879504,0.003421136494845361,0.008644936069034638,0.0,0.0019177987781821117, ,0.4116959571838379
0.010326578436991852,0.020508152101113324,-0.08068122553616595, ,0.010549014596639969,0.020616246591393782,-0.08085084583507579, ,0.0002998888289854376, ,0.0013413928970967318,0.0013056569240162022,-0.0034797734014704257,0.0018883420030693086,-0.006279533445967197,-0.006826612196332179, ,0.003951315962207284, ,0.006557314641631861, ,2.6524182418412585e-05, ,0.18061927646236284,-0.24084887014843978,0.09138844500000001,1.695133503128895,0.5007727716403392,-1.1725329098024848, ,0.008487122178449052,-0.004320484551968002,0.003836418959537573,0.009412543753104309,0.0,0.00423832162420886, ,0.4331779479980469
0.010354148993475403,0.020534238542221958,-0.08075181960300716, ,0.010577768598381138,0.020644332162608293,-0.08091763276723371, ,0.0002993665618915845, ,0.001299970549234759,0.0012239786808296278,-0.003036675373189437,-0.0016265701452673697,-0.006778121849546445,-0.005443727265338309, ,0.003522704154784839, ,0.006970557078638182, ,2.7072440924980407e-05, ,0.18079689931846998,-0.24094154294293046,0.0914662224,1.695133503128895,0.5007727716403392,-1.1722061948419225, ,0.008950282138288893,-0.004633259401291945,0.0033847878283042926,0.009412543753104309,0.0,0.008285670605654504, ,0.45620203018188477
0.01037870117867156,0.020556923821601517,-0.08080829411605818, ,0.010606811770151624,0.02067184148232976,-0.08098516497173039, ,0.00031068281297628135, ,0.0012746913502781787,0.0012102467497881499,-0.002964337527929991,0.008283256652233667,-0.006563075586960986,-0.008708825453039306, ,0.003446278023221701, ,0.010568174000178109, ,2.763593365298303e-05, ,0.18098224490745138,-0.24103421573742118,0.09152974061000001,1.695133503128895,0.5009094081401047,-1.1718275403047755, ,0.008791869570080798,-0.004688216181870521,0.0033088515828832575,0.009254864157340888,0.0,-0.0021739599714123373, ,0.4788680076599121
0.010415649266405988,0.020591670569585482,-0.08088567580158894, ,0.010636142314548486,0.020698779173468882,-0.08105343536165374, ,0.00029703990859505247, ,0.001195993373355025,0.0010232097410588002,-0.0023694351992818202,0.005100318913097011,-0.006934848661619848,-0.003821126632617405, ,0.0028445705276723987, ,0.008608448112185044, ,2.806994759224696e-05, ,0.18126798602379768,-0.24118094766203144,0.09161788833000001,1.695552883015864,0.5010460446398701,-1.1716122432479097, ,0.009251184138850576,-0.004322488969797194,0.002665463775100402,0.005229858784548802,0.001134793436386513,0.0001512546592639082, ,0.502479076385498
0.01045759188064445,0.02062747510678411,-0.08097481014034803, ,0.010665758440580162,0.020725149843315086,-0.08112243687625005, ,0.00027325322319224013, ,0.0013250255600321425,0.0011253132528336362,-0.0029241268787395906,0.002005901655335697,-0.007267058202728923,-0.0029787107189342176, ,0.0034018437140334434, ,0.007538817955020623, ,2.8336033070139117e-05, ,0.18157689533876667,-0.2413276795866417,0.09171770266000001,1.695552883015864,0.5010460446398701,-1.1716939219880502, ,0.009583132501313119,-0.003974780552266551,0.0032607597789150464,0.005229858784548802,0.001134793436386513,0.003080635804010189, ,0.5314300060272217
0.010480986259487523,0.020647107678932616,-0.08102198415041167, ,0.01069565836365672,0.020750958083557796,-0.08119216248088465, ,0.0002929670340018023, ,0.0010960463753136882,0.0009207477510516008,-0.0021564754283194187,0.0027152232387736837,-0.00620828786005579,-0.0032915123259535948, ,0.00258833544017198, ,0.006776081119869848, ,2.8683042334226493e-05, ,0.18175451819487384,-0.2414126296482582,0.09177085055,1.695552883015864,0.5010460446398701,-1.1716122432479097, ,0.008508441497243708,-0.0038578201340198418,0.0024430692515337426,0.005229858784548802,0.0011099366598107633,0.002206690984662872, ,0.553441047668457
0.01050523056918493,0.020668551103635635,-0.08107205996297408, ,0.010725840305579612,0.020776208470308807,-0.08126260516700427, ,0.00031075108876726763, ,0.0011616917843788358,0.0010161315975541299,-0.002613208720032196,0.00441556686452828,-0.005580642093354349,-0.004362228126387369, ,0.0030349482763127114, ,0.007116234733858622, ,2.9238445326285495e-05, ,0.18194758651672946,-0.24149757970987465,0.09182788731000001,1.6957625729593484,0.5011826811396356,-1.171560303671325, ,0.00830132041102513,-0.0036113366635238788,0.0029157626798462385,0.00572100261995942,0.0014062473317010124,0.0002680796491023815, ,0.5728640556335449
0.01053199507455811,0.020691580361868987,-0.08114081249980402, ,0.010756302494532043,0.02080090556412302,-0.0813337579520989, ,0.00031542632430493805, ,0.0014261911715597194,0.0013547247509824592,-0.004227768174483307,0.0003966307519986644,-0.0053681189291299985,-0.0027399805639316244, ,0.004662973744932871, ,0.00538275166063087, ,2.9778724384924222e-05, ,0.18211748663996238,-0.24155936157286845,0.09190307213000001,1.6957625729593484,0.5011826811396356,-1.1714786249311844, ,0.00789747682523023,-0.0028934363602147566,0.004586470348401959,0.005044239131970386,0.0014062473317010124,0.0036485609600149594, ,0.5921239852905273
0.010554083481018876,0.020713571087950584,-0.08120370105676003, ,0.010787043165068524,0.02082505391002167,-0.08140561387966337, ,0.0003278222415612476, ,0.001606892403829968,0.0015041478161838364,-0.004659553348495433,-0.002634103762898854,-0.005308235218431872,-0.0063272016564152695, ,0.0051532515228632165, ,0.005925863782729718, ,3.0341795945616572e-05, ,0.18224105036594998,-0.24160569797011378,0.0919717755,1.6961819528463176,0.5011826811396356,-1.1713152674509033, ,0.009065300463127203,-0.0030537436471083745,0.005061586120114395,0.010323947178484831,0.0014062473317010124,0.008006619201468085, ,0.6130480766296387
0.010580373381843889,0.020737191611377957,-0.08128256831946103, ,0.01081806055810542,0.020848658037512718,-0.08147816601915996, ,0.00032738115101811995, ,0.0015469941989810587,0.001270186910556235,-0.004012085755511232,-0.0017398215362640962,-0.0050727746504412065,-0.006137643000371037, ,0.004483681294316711, ,0.005362836991056481, ,3.0866857952003806e-05, ,0.18239550502343446,-0.2416443116344849,0.09205733064,1.6961819528463176,0.501319317639401,-1.1712633278743185, ,0.00988666430417071,-0.0022216693927112636,0.004378452864211106,0.009676054176744291,0.0026481722085695994,0.006180109746077108, ,0.6321170330047607
0.010608571020094814,0.020759601754764483,-0.08135071918618338, ,0.010849352920910653,0.020871722460612866,-0.08155140746597866, ,0.0003329005288184752, ,0.0014887220139614596,0.0010217633724454813,-0.003085443514107185,-0.003955870071122271,-0.004664722296647396,-0.0037377066597500705, ,0.003574948293733872, ,0.006116252271187606, ,3.1383816019058885e-05, ,0.1825962960781643,-0.2416983707646045,0.09213251546000001,1.6961819528463176,0.5014559541391664,-1.171211388297734, ,0.01145908178609758,-0.0020254592954066647,0.003427762324080052,0.008487800915910117,0.005018135922381619,0.008300947582620812, ,0.6546680927276611
0.010644686055161777,0.020784192013833126,-0.08142670124103368, ,0.010880918507093882,0.02089425167786983,-0.08162533134140117, ,0.0003276779177267262, ,0.0014695494302750872,0.0009835657475994204,-0.0032115917826218707,-0.007585636026615836,-0.006737941195571034,-0.002594826132055674, ,0.0036662377017968933, ,0.010146020162684448, ,3.1847297588128905e-05, ,0.18287431446163638,-0.24175242989472406,0.09221677431000001,1.6961819528463176,0.5015925906389319,-1.1710777699810087, ,0.010677913998275121,-0.001320663208133757,0.003527194756421613,0.007357802737254071,0.002359979940672548,0.010974175377979022, ,0.6736259460449219
0.010678374167960667,0.020808417698906494,-0.0815036485484689, ,0.01091275557659635,0.020916250172383404,-0.08169993079256081, ,0.0003241746541541383, ,0.0016880243499662112,0.001195979943297436,-0.0037746965493715037,0.011811269366180583,-0.009718839863471043,-0.002121635604180489, ,0.00430443123660789, ,0.01529581418447379, ,3.226914580078405e-05, ,0.18310599644786313,-0.24179104355909517,0.09230103316,1.696391642789802,0.5015925906389319,-1.1708327337605868, ,0.012074715473851305,-0.0024688026612525995,0.0041492085230528785,0.0,0.002359979940672548,-0.00972862560082512, ,0.6950929164886475
0.01071310133687727,0.020831680578360066,-0.08158148271532137, ,0.010944862395681246,0.02093772241182748,-0.08177519899240564, ,0.00032013130873199524, ,0.0019004356367404865,0.001167236015604584,-0.004019245758582955,-0.0010125371086064172,-0.007343141868473878,-0.004852162911384389, ,0.004596567414212997, ,0.007412621860581201, ,3.278344024764296e-05, ,0.18336084663271254,-0.24181421175771783,0.0923865883,1.6966013327332867,0.5017292271386973,-1.1709441516642833, ,0.014272362995709248,-0.0009283540348726639,0.00441608303853618,0.008028037858775088,0.005232462791994937,0.003983777166909173, ,0.7114100456237793
0.010731561117538318,0.020843504627883577,-0.08162183211107192, ,0.010977237236923348,0.02095867284847177,-0.08185112913965953, ,0.00035524301821238406, ,0.0017951400315921074,0.0012038712619906419,-0.003990682564441153,0.0004874703639697559,-0.00612431065821094,-0.005089837196839403, ,0.0045384337693312295, ,0.006143680279921458, ,3.341257666322442e-05, ,0.18349213309157436,-0.2418296572234663,0.09243066216000001,1.6966013327332867,0.5017292271386973,-1.1709441516642833, ,0.01306220806035386,-0.0014647719383433315,0.004384478810900083,0.008028037858775088,0.005232462791994937,0.0029554815702790374, ,0.727694034576416
0.010768202429620583,0.020868363018193573,-0.08170920795597447, ,0.011009878379199298,0.02097910591920341,-0.08192771445878456, ,0.00034411676288600756, ,0.0020167922722460884,0.0013361826101934704,-0.004740087751035262,0.0023723307506492977,-0.00785251025467411,-0.006118027186724955, ,0.005321772911792602, ,0.00820304017406338, ,3.3969325899296745e-05, ,0.18376242874217222,-0.24185282542208897,0.09252658762,1.6966013327332867,0.5020025001382282,-1.1710853087315356, ,0.013936986570490641,-0.0008138221001871702,0.005163310055105349,0.007800436957583805,0.0043787156188023835,0.0001711138419663574, ,0.7447640895843506
0.01081150020933811,0.02089728308575674,-0.08181329725413664, ,0.011042784107677723,0.020999026045548343,-0.08200494819994213, ,0.00031713397252023225, ,0.002087551288620684,0.001395372056898546,-0.004981678598237677,-0.0020747046700839355,-0.008381544767559384,-0.003780571452039476, ,0.005578714477004041, ,0.008634505723578304, ,3.4398560812646944e-05, ,0.18403272439277008,-0.24187599362071163,0.09263547598,1.6966013327332867,0.5020025001382282,-1.1708402725111138, ,0.014311105648992727,-0.0008295622722459498,0.00545694125385406,0.006939091442678773,0.0043787156188023835,0.004726414933500213, ,0.7615201473236084
0.01083237413245202,0.020912440043728463,-0.08186806682904602, ,0.011075952713808684,0.021018437633694067,-0.082082823638956, ,0.0003415940599263308, ,0.0019865614448341014,0.0014038980304599126,-0.005129817117842588,-0.0012396357489907197,-0.00644178375442314,-0.0002642669906333569, ,0.005677356754383277, ,0.006559974937195072, ,3.489931153505601e-05, ,0.18418717905025456,-0.24187599362071163,0.09269899419000001,1.696811022676771,0.5021391366379937,-1.1708700116746698, ,0.012834317224570027,-0.0007287566510955244,0.0055578546824843,0.0030779271003835255,0.005898608374315073,0.003147597140108184, ,0.7808380126953125
0.0108715560190504,0.02093845459491239,-0.08196421905537891, ,0.01110938249531445,0.021037345074510265,-0.08216133407727273, ,0.0003243379281297106, ,0.0018603865924859202,0.001128477600318118,-0.004077995196339602,0.005871323892314732,-0.0013413023895275298,-0.0016583653463055994, ,0.004622179657833518, ,0.0060225854266099275, ,3.531576827027114e-05, ,0.18446519743372664,-0.24187599362071163,0.09280399368000002,1.6970207126202554,0.5024124096375245,-1.1710111687419222, ,0.014255211290141321,-0.0004631095778098671,0.0044882534573119194,0.00381626189132534,0.012424947513613204,-0.003956794734324335, ,0.7973611354827881
0.010911733938407168,0.02095925794399432,-0.0820438288043051, ,0.011143071756179155,0.021055752743570584,-0.0822404728419244, ,0.0003185864243937458, ,0.0019444768916560928,0.0011526890440383538,-0.004215674255106579,0.0015093388778157947,-0.0036601873395563068,-0.0007474566464974394, ,0.004783470689739722, ,0.003959175908854359, ,3.5694108038966595e-05, ,0.1847663840158214,-0.24187599362071163,0.09289084511000001,1.6970207126202554,0.5024124096375245,-1.170847811261641, ,0.014740127610821805,-0.00034173608103485096,0.004630468465116279,0.00381626189132534,0.010557800350421575,0.00037325486245838157, ,0.8136880397796631
0.010920577188799433,0.02096511091071968,-0.08206271248490794, ,0.011177018806638768,0.021073665001174902,-0.08232023328549033, ,0.0003792931012386213, ,0.001963099015763959,0.0011495716034774133,-0.004420342982879324,-0.0009523768392166909,-0.0067440347267987205,0.010232994312745398, ,0.0049713886091821, ,0.006810948858456019, ,3.639383821681951e-05, ,0.1848281658788152,-0.24187599362071163,0.09291158575000001,1.6972304025637401,0.5024124096375245,-1.170847811261641, ,0.014523560079349674,-0.0003229265186936606,0.004826912581818183,-0.0077180560079129195,0.010002843164332274,0.000735865035269569, ,0.8280119895935059
0.010973503679603864,0.02099924556796987,-0.08219400730919617, ,0.011211221963171099,0.021091086192371038,-0.08240060878605843, ,0.0003280683661589692, ,0.0021224977591338214,0.001436635561700062,-0.005586619106101464,-0.0012092625129534686,-0.004442218282421979,0.01044327481128742, ,0.006146481230047584, ,0.0046038694217021775, ,3.689417785748688e-05, ,0.18519113432390374,-0.24187599362071163,0.09305417765000001,1.6972304025637401,0.5026856826370554,-1.1709072895887527, ,0.013936986570490641,-0.00024239215835763583,0.0060473847835990895,-0.007362932234954371,0.011698798908415946,0.0011309827984180868, ,0.8420979976654053
0.010993756928037487,0.021014158303104588,-0.08224890367122348, ,0.011245679548486024,0.02110802064697571,-0.08248159274718779, ,0.0003555549920388739, ,0.0022010168918723877,0.001531867266853136,-0.006055828935547083,-0.0030956829812749166,-0.006915646947705439,0.009704574193264325, ,0.006623002097098641, ,0.007576900268665006, ,3.7470218607491727e-05, ,0.18532242078276556,-0.24188371635358588,0.09311380699,1.6972304025637401,0.5028223191368209,-1.1710187074924492, ,0.013506538792836717,0.0,0.006520184821940238,-0.00693969419580136,0.008591850474892582,0.002689554055056485, ,0.8558290004730225
0.011015790141552921,0.02102905249508294,-0.08230625917585153, ,0.011280389891515318,0.02112447267959679,-0.08256317859786984, ,0.00038095357814704853, ,0.002307598337748895,0.0014726803166420764,-0.005795957419803554,-0.003610172243554388,-0.009372209066720066,0.009308526784501657, ,0.006409907941272038, ,0.010043487436031107, ,3.811128643898044e-05, ,0.18563905283060878,-0.24188371635358588,0.09324862115000002,1.6970207126202554,0.5029589556365863,-1.1708850891757239, ,0.016224472825862674,0.0,0.00657129188118812,0.0026116306044527537,0.007757034835255528,0.004668059134745288, ,0.8722560405731201
0.011065446045026184,0.021059807533910988,-0.08243130998242977, ,0.011315351327402839,0.02114044658965489,-0.08264535979249074, ,0.0003387810925334552, ,0.0021692674682533657,0.0013040802444686918,-0.0049597992722671845,0.00328923257535367,-0.004804028083894445,-0.00047786300832885716, ,0.005568299152705248, ,0.0058221760334292195, ,3.85941029221679e-05, ,0.18579350748809326,-0.24187599362071163,0.09331084307000001,1.6970207126202554,0.5030955921363518,-1.1709148283392796, ,0.01562604010513268,3.635406907052057e-05,0.005414279918422842,0.0026116306044527537,0.010567822723586,-0.0021289470898433185, ,0.886193037033081
0.01108695880308076,0.021072171800516435,-0.08247455149948232, ,0.01135056219749427,0.021155946661405158,-0.08272812981079243, ,0.000375242504029241, ,0.002054396038388473,0.0011203844388034264,-0.00408426057481432,0.0020682258521699834,-0.0029575758144405515,-0.00657207094283627, ,0.0047071210751627925, ,0.00360899040415097, ,3.917830801645765e-05, ,0.18596340761132618,-0.24187599362071163,0.09335880580000001,1.6972304025637401,0.5032322286361172,-1.1709445675028356, ,0.01621061523035032,3.665924787440553e-05,0.004514969251700681,0.010129528039308836,0.011246653709300856,0.0006491165500619976, ,0.9009780883789062
0.01112923740142164,0.021095427305945432,-0.08256611063477556, ,0.01138602084932726,0.021170977163959086,-0.0828114821578351, ,0.0003631152771403835, ,0.002081743701285854,0.0012585347145125062,-0.0047003273847199215,0.0005114642396315749,-0.004476868914735085,-0.005820729910355256, ,0.005292508288989675, ,0.0045059903077896485, ,3.970582769171979e-05, ,0.18627231692629517,-0.2418682708878374,0.09345862013,1.6972304025637401,0.5033688651358826,-1.1710559854065319, ,0.014881126165668931,0.00010581492942478826,0.00513501338491296,0.008998774653343311,0.008579923440912797,0.0017854177019901466, ,0.9179861545562744
0.011149112007742747,0.021106604874953565,-0.08260908584908049, ,0.011421725636621895,0.021185542351304883,-0.08289541036395902, ,0.0004031513904773243, ,0.0022639637541175613,0.001328139821029367,-0.004971978458551604,-0.00021982811148314892,-0.0071395929225541175,-0.005418790626895048, ,0.005622282192887794, ,0.007142976162635179, ,4.0466974357484414e-05, ,0.1864113261180312,-0.2418682708878374,0.09350528657000001,1.6972304025637401,0.5033688651358826,-1.1710559854065319, ,0.016305316418981235,0.00010034007185698135,0.005432746084583902,0.0084676088848154,0.007431097989290804,0.0023671941582384236, ,0.9290609359741211
0.011175489206330092,0.02112148591681885,-0.0826691000317274, ,0.011457674919269781,0.02119964646233163,-0.08297990798474603, ,0.00042701221425360726, ,0.0024349451072721165,0.0015348220757363236,-0.005800046507193435,0.003093078949365516,-0.008308681455257929,-0.006337149691370791, ,0.006474965325405438, ,0.008865738454755152, ,4.128280302463417e-05, ,0.18658894897413839,-0.2418605481549632,0.09357010107000001,1.6972304025637401,0.5033688651358826,-1.1709743066663914, ,0.016358721178843436,7.988661280594046e-05,0.0062984624436536185,0.00789890405759191,0.006382518659165224,-0.001310560681739504, ,0.9409329891204834
0.0112262580652191,0.02115396390682854,-0.08279508020798189, ,0.011493867063324737,0.021213293720849014,-0.08306496860098163, ,0.0003846743393765547, ,0.002956506289244015,0.0017969450456453379,-0.007100251767161555,0.005382362556178481,-0.009628349655470287,0.00024253723459810844, ,0.007898323625459362, ,0.011030635780799505, ,4.1950107362865224e-05, ,0.1869441946863527,-0.24184510268921475,0.09370750781000001,1.6974400925072246,0.503778774635179,-1.1713085603774807, ,0.01999514149988849,0.0005867954744394153,0.0076987972547124224,0.0006734412887217993,0.01055121430417048,-0.005280878647912252, ,0.9551069736480713
0.011257998628651874,0.021174719999318452,-0.08287732751429898, ,0.011530300440992857,0.02122648833560898,-0.0831505858186164, ,0.00038922787480459743, ,0.002993917280314231,0.0020579503608516812,-0.008118751587251314,0.02029483024880791,0.005912950721999924,-0.0004717056308677966, ,0.00889453920698478, ,0.021138663292540848, ,4.261505464620797e-05, ,0.18716043120683098,-0.24183737995634053,0.09379695182000002,1.6974400925072246,0.5040520476347098,-1.171449717444733, ,0.019602755950933855,0.0006331387445982044,0.00881018336283186,0.0006734412887217993,0.02615497456013269,-0.019781045130938618, ,0.9659531116485596
0.011290235659335192,0.021194849568013926,-0.08296079540037223, ,0.011566973430621855,0.021239234500329284,-0.08323675326872837, ,0.00039332754973560633, ,0.003020512946375472,0.0020886415905362644,-0.008400739589171922,0.014790837084405511,0.003739100772363892,0.0003738577514909577, ,0.009168333970685193, ,0.015256136286875164, ,4.3276382038346776e-05, ,0.1873534995286866,-0.24182193449059208,0.09388639583000001,1.6974400925072246,0.5040520476347098,-1.1713680387045924, ,0.018975593193055543,0.001044319900306365,0.00908142047890536,0.00069364233698714,0.023286091723671246,-0.01462637658041266, ,0.9767971038818359
0.011324053348895694,0.02121464046319002,-0.08304547712959194, ,0.011603884416691966,0.02125153639371265,-0.08332346460748413, ,0.00039616129803148856, ,0.0030871027050201755,0.001818743259682759,-0.007647198081086891,0.009871911350789528,-0.003174335991309747,6.820904378040314e-05, ,0.008444978901534532, ,0.01036971631970531, ,4.393050453065792e-05, ,0.18756201331629066,-0.2417987662919694,0.09397713613000001,1.6974400925072246,0.5040520476347098,-1.1712863599644519, ,0.020907015104311696,0.0019769276835743532,0.008279008066528067,0.0007428080323430483,0.01813389201758862,-0.010819442847713858, ,0.9885821342468262
0.011353567634665341,0.021231934002498638,-0.0831200293560906, ,0.011641031789805148,0.021263398179470636,-0.08341071351610195, ,0.00041002794515041614, ,0.0031335838317180756,0.0018054600042357372,-0.007836926549885775,-0.005314958568963291,-0.01912184817342503,-0.0001595414408296458, ,0.00863113267222816, ,0.01984675874281869, ,4.4609652145231215e-05, ,0.18775508163814628,-0.24177559809334673,0.09405750611000001,1.6974400925072246,0.5041886841344753,-1.1713160991280076, ,0.019280158788799427,0.0024733103079294856,0.008392419135932562,0.000772004976685695,0.0,0.0031984310266625167, ,1.0028431415557861
0.011386622126629706,0.021252006609482742,-0.08320494637815995, ,0.011678413946675742,0.021274824006343788,-0.08349849370081164, ,0.0004145275991791946, ,0.0031133835268633016,0.0017572616124567056,-0.007452282733023279,0.007293842719715706,-0.007254155705808266,-0.00027035090390302744, ,0.00826544876536505, ,0.010287025500063118, ,4.541625744047116e-05, ,0.18797904089149878,-0.24175242989472406,0.0941495427,1.6974400925072246,0.5044619571340061,-1.1715389349354006, ,0.02119654714283466,0.0020972052045491237,0.008065221022784811,0.0007907141314120604,0.014205263982828101,-0.008541698936011591, ,1.0117559432983398
0.01141641888648841,0.02126773055581451,-0.08327254385321439, ,0.011716029290119853,0.021285818008124523,-0.08358679889281811, ,0.0004345684984114706, ,0.0028330462777410854,0.0014422296060273051,-0.0064023421945923085,0.027966375093725182,0.01570322140369476,-0.0006701519320597789, ,0.007148158016229171, ,0.03207349821237635, ,4.6266171190015485e-05, ,0.1882030001448513,-0.24172926169610137,0.09422343123000002,1.6974400925072246,0.5047352301335369,-1.1717617707427934, ,0.022578382478817695,0.0029054728078125795,0.007041914907161805,0.000799155655103169,0.039293085371243694,-0.029125702077086837, ,1.0198860168457031
0.011448691185129261,0.021281525667346785,-0.083341424042889, ,0.011753876229045918,0.02129638430367776,-0.08367562284826259, ,0.00045282174375483084, ,0.0031240351470929423,0.0014016020659660413,-0.007209882374189229,0.014908340496360294,0.00468603461147879,-0.0006446328418358513, ,0.007981634406638582, ,0.0156274603583904, ,4.715324246172392e-05, ,0.1884269593982038,-0.24168292529885604,0.09429731976000001,1.6974400925072246,0.5047352301335369,-1.1716800920026529, ,0.023128672083468384,0.005565101372240125,0.007804415247427732,0.0008012702517249708,0.028513964906117364,-0.0189881850531124, ,1.028101921081543
0.01148616865932362,0.021298726245528803,-0.08342353987463844, ,0.01179195317844449,0.021306526996962994,-0.08376495934818377, ,0.0004584018769299432, ,0.0035324605603141335,0.00188614832537712,-0.008767758404969971,0.011572076248229916,-0.00280441211579152,-0.0009536602876808545, ,0.009638953291899455, ,0.011907040950486069, ,4.804103559770367e-05, ,0.18868180958305322,-0.2416365889016107,0.09438546748000001,1.6974400925072246,0.5047352301335369,-1.1715984132625124, ,0.023706455547956723,0.004475765082380266,0.00944769366548043,0.0007988057552391946,0.021373030722095104,-0.014930476730045317, ,1.039963960647583
0.01152268961074305,0.021320848931326464,-0.08351821537045144, ,0.011830258559378122,0.021316250177056243,-0.08385480219848074, ,0.00045597203807705666, ,0.0038442522753859556,0.002179059780294133,-0.009709179680123865,0.003428547683182105,-0.01353119003960211,-0.0008898804349941974, ,0.010667462076043945, ,0.013958794963146823, ,4.8907282629047964e-05, ,0.18892121430215417,-0.24159797523723955,0.09448787439,1.6976497824507093,0.5050085031330679,-1.1718212490699051, ,0.024196058530971645,0.0037781828905721006,0.01042461486910995,0.0008974289543681061,0.010794540463017548,-0.00646548689379072, ,1.0481750965118408
0.011563081643066495,0.02134256137924153,-0.08362536531408668, ,0.011868790798971407,0.02132555791817179,-0.0839451452298741, ,0.00044272610069144997, ,0.003922768651881931,0.002128275995074926,-0.010355750711803434,0.02919660622506598,0.016183204599896535,-0.001706002885185389, ,0.011276490828818028, ,0.03338169868482913, ,4.9722721342007484e-05, ,0.18919150995275205,-0.24152847064137153,0.0946032442,1.6976497824507093,0.5054184126323642,-1.1721555027809945, ,0.02671648129461452,0.006475035865989152,0.011178113347368422,0.0008974289543681061,0.044025773571226265,-0.033711830076597636, ,1.056218147277832
0.011605312677376675,0.02136516888150361,-0.0837331607468373, ,0.011907548330401169,0.021334454279683196,-0.08403598229786788, ,0.00042894133455834377, ,0.004110933530161042,0.0021802261245231006,-0.011146652524269171,0.017569813133084606,0.006189409686776392,0.004855385908565617, ,0.012078949579340565, ,0.018628122657033265, ,5.0487128911767924e-05, ,0.18945408287047566,-0.24145896604550351,0.09471861401000001,1.6978594723941938,0.5055550491321297,-1.1721035632044097, ,0.02625814652973735,0.007683187822978429,0.01194063832083958,-0.005618990398604331,0.0348745903489995,-0.024697290918197674, ,1.0643320083618164
0.011605312677376675,0.02136516888150361,-0.0837331607468373, ,0.011946529592886381,0.021342943306145314,-0.08412730728271148, ,0.0005217992443187118, ,0.004110933530161042,0.0021802261245231006,-0.011146652524269171,0.017569813133084606,0.006189409686776392,0.004855385908565617, ,0.012078949579340565, ,0.018628122657033265, ,5.163067507072221e-05, ,0.18945408287047566,-0.24145896604550351,0.09471861401000001,1.6978594723941938,0.5055550491321297,-1.1721035632044097, ,0.02625814652973735,0.007683187822978429,0.01194063832083958,-0.005618990398604331,0.0348745903489995,-0.024697290918197674, ,1.0705740451812744
0.011631858924486062,0.021378644992331674,-0.08379883893910148, ,0.011985733031678061,0.02135102902731648,-0.08421911408936159, ,0.0005501097410433765, ,0.004317364703103128,0.002180180006457022,-0.01094128684709898,0.011126149448823505,-0.003841342895249978,0.005028474366040757, ,0.011962632683095173, ,0.011770597265980218, ,5.2838373424511214e-05, ,0.1896162602608344,-0.2414203523811324,0.09478861367000001,1.6978594723941938,0.5055550491321297,-1.1721035632044097, ,0.028302100077086424,0.007106761575881088,0.011738254620486369,-0.005618990398604331,0.02663903903122468,-0.017981751035472594, ,1.0764241218566895
0.011631858924486062,0.021378644992331674,-0.08379883893910148, ,0.012025157098049319,0.021358715458179287,-0.08431139664744328, ,0.0006463714443261867, ,0.004317364703103128,0.002180180006457022,-0.01094128684709898,0.011126149448823505,-0.003841342895249978,0.005028474366040757, ,0.011962632683095173, ,0.011770597265980218, ,5.429185379407348e-05, ,0.1896162602608344,-0.2414203523811324,0.09478861367000001,1.6978594723941938,0.5055550491321297,-1.1721035632044097, ,0.028302100077086424,0.007106761575881088,0.011738254620486369,-0.005618990398604331,0.02663903903122468,-0.017981751035472594, ,1.081989049911499
0.01169509747347191,0.0214103717338276,-0.08395820240861765, ,0.01206480024928538,0.021366006598962945,-0.084404148911213, ,0.0005809618669179359, ,0.005136382176638158,0.0024818300011603856,-0.01280761651026549,0.006245269153466778,-0.018840230271756207,0.002462859675056199, ,0.014020589955246928, ,0.019848358090058003, ,5.555489700083762e-05, ,0.1900332878360425,-0.24131223412089325,0.09495972395,1.6978594723941938,0.505964958631426,-1.1723561381753584, ,0.03247670826778603,0.008988593638645374,0.013672799587982834,-0.005560026282010543,0.015403436275119753,-0.015714389880299124, ,1.0875740051269531
0.01169509747347191,0.0214103717338276,-0.08395820240861765, ,0.012104660948673698,0.021372906435164537,-0.08449736485951923, ,0.0006781165366553687, ,0.005136382176638158,0.0024818300011603856,-0.01280761651026549,0.006245269153466778,-0.018840230271756207,0.002462859675056199, ,0.014020589955246928, ,0.019848358090058003, ,5.706289365683148e-05, ,0.1900332878360425,-0.24131223412089325,0.09495972395,1.6978594723941938,0.505964958631426,-1.1723561381753584, ,0.03247670826778603,0.008988593638645374,0.013672799587982834,-0.005560026282010543,0.015403436275119753,-0.015714389880299124, ,1.0930020809173584
0.011748178021948842,0.021436407039259427,-0.08410096861259311, ,0.012144737665493765,0.021379418937571018,-0.0845910384957651, ,0.000632989482546695, ,0.0052995973773792785,0.0026941510346188127,-0.014778648483508811,0.04983124074308381,0.03237502738273318,0.0010871967554685006, ,0.015929614972082038, ,0.05942469391636016, ,5.8435548935225744e-05, ,0.1903808108153826,-0.24118867039490566,0.09511268617000002,1.6978594723941938,0.5065115046304878,-1.172801809790144, ,0.035004404853733226,0.012589140562280549,0.015865350119521913,-0.0052943181102833355,0.07074224082320892,-0.060827202695444706, ,1.0983970165252686
0.011748178021948842,0.021436407039259427,-0.08410096861259311, ,0.012185028875007163,0.02138554806228078,-0.08468516384786971, ,0.0007312382486419722, ,0.0052995973773792785,0.0026941510346188127,-0.014778648483508811,0.04983124074308381,0.03237502738273318,0.0010871967554685006, ,0.015929614972082038, ,0.05942469391636016, ,6.0052304595150806e-05, ,0.1903808108153826,-0.24118867039490566,0.09511268617000002,1.6978594723941938,0.5065115046304878,-1.172801809790144, ,0.035004404853733226,0.012589140562280549,0.015865350119521913,-0.0052943181102833355,0.07074224082320892,-0.060827202695444706, ,1.1038100719451904
0.011803955156076306,0.021466465617896485,-0.08425714614275236, ,0.012225533058447573,0.0213912977507253,-0.08477973496823024, ,0.0006756309765968237, ,0.005952425517312725,0.003194237884355888,-0.016742491610886454,0.01632427537648811,-0.0029555279920254795,0.002101513167260104, ,0.01805396218400862, ,0.01658962919266101, ,6.150656210145061e-05, ,0.1907283337947227,-0.24107282940179228,0.09527990758,1.6978594723941938,0.5070580506295495,-1.1731658026647893, ,0.034608658482301526,0.012187369202017021,0.01781746255033557,-0.0050618589813799875,0.03387174454858501,-0.028048503142138213, ,1.1092979907989502
0.011803955156076306,0.021466465617896485,-0.08425714614275236, ,0.012266248703010865,0.021396671929690636,-0.08487474593368362, ,0.0007746069869353417, ,0.0069062956670280585,0.0033749502029289786,-0.01900325538393204,-0.014602199883132844,-0.031550693502007475,0.0029623877013492447, ,0.020499046902224576, ,0.0347659031762966, ,6.3203421118983e-05, ,0.19109130223981127,-0.24092609747718202,0.09546786963000001,1.6978594723941938,0.5071946871293149,-1.1732772205684856, ,0.03800438188164629,0.01633056987755477,0.020061475465994964,-0.004850453215262392,0.007885572920900334,-0.0017963608238382273, ,1.1151809692382812
0.011868628247151531,0.02149883649504451,-0.08443475484684183, ,0.012307174301844966,0.021401674511339324,-0.08497019084546818, ,0.0006988954154876822, ,0.0069062956670280585,0.0033749502029289786,-0.01900325538393204,-0.014602199883132844,-0.031550693502007475,0.0029623877013492447, ,0.020499046902224576, ,0.0347659031762966, ,6.468655213776465e-05, ,0.19109130223981127,-0.24092609747718202,0.09546786963000001,1.6978594723941938,0.5071946871293149,-1.1732772205684856, ,0.03800438188164629,0.01633056987755477,0.020061475465994964,-0.004850453215262392,0.007885572920900334,-0.0017963608238382273, ,1.1208570003509521
0.011920663178424449,0.02152531050824708,-0.08458673945542092, ,0.012348308354040098,0.021406309393231803,-0.08506606382918554, ,0.0006532943569992499, ,0.007042040050005187,0.0035359432247921005,-0.02034146173400954,0.0035199773347097062,-0.016809102516251846,-0.0002078343189816905, ,0.021814405516332656, ,0.017173604315374253, ,6.603686464478454e-05, ,0.19137704335615757,-0.24078708828544598,0.09562860959000001,1.6978594723941938,0.5074679601288459,-1.173418377635738, ,0.03782261520863722,0.018305737183346986,0.021467400970350405,-0.004698019526823584,0.022788737806263067,-0.02172494736080026, ,1.1265161037445068
0.011920663178424449,0.02152531050824708,-0.08458673945542092, ,0.012389649364618205,0.021410580458348778,-0.08516235903476298, ,0.0007512981613927729, ,0.007042040050005187,0.0035359432247921005,-0.02034146173400954,0.0035199773347097062,-0.016809102516251846,-0.0002078343189816905, ,0.021814405516332656, ,0.017173604315374253, ,6.779846180866111e-05, ,0.19137704335615757,-0.24078708828544598,0.09562860959000001,1.6978594723941938,0.5074679601288459,-1.173418377635738, ,0.03782261520863722,0.018305737183346986,0.021467400970350405,-0.004698019526823584,0.022788737806263067,-0.02172494736080026, ,1.1293361186981201
0.011920663178424449,0.02152531050824708,-0.08458673945542092, ,0.012431195844523596,0.02141449157511218,-0.08525907063641457, ,0.0008514421037462119, ,0.007042040050005187,0.0035359432247921005,-0.02034146173400954,0.0035199773347097062,-0.016809102516251846,-0.0002078343189816905, ,0.021814405516332656, ,0.017173604315374253, ,6.980780448029586e-05, ,0.19137704335615757,-0.24078708828544598,0.09562860959000001,1.6978594723941938,0.5074679601288459,-1.173418377635738, ,0.03782261520863722,0.018305737183346986,0.021467400970350405,-0.004698019526823584,0.022788737806263067,-0.02172494736080026, ,1.1321771144866943
0.012010839175398625,0.02156778066527082,-0.08484483868205817, ,0.012472946310612604,0.02141804659740675,-0.08535619283260262, ,0.0007052987755368898, ,0.007324527840080844,0.00320168958388516,-0.020441120010931027,0.028849075297528972,0.013662918634728719,-0.0037265981024284123, ,0.021948551468672434, ,0.03192085403512268, ,7.143310108146361e-05, ,0.19190218919160484,-0.24053223810059657,0.09590212678000001,1.6976497824507093,0.508151142627673,-1.1738937884140794, ,0.04397448635703002,0.022789851478979536,0.02167185240816327,-0.0014250781477015998,0.05973963195330677,-0.04943379288742103, ,1.1352050304412842
0.012010839175398625,0.02156778066527082,-0.08484483868205817, ,0.012514899285643841,0.021421249364601845,-0.08545371984600073, ,0.0008039180857650903, ,0.007324527840080844,0.00320168958388516,-0.020441120010931027,0.028849075297528972,0.013662918634728719,-0.0037265981024284123, ,0.021948551468672434, ,0.03192085403512268, ,0.00039908695289746335, ,0.19190218919160484,-0.24053223810059657,0.09590212678000001,1.6976497824507093,0.508151142627673,-1.1738937884140794, ,0.04397448635703002,0.022789851478979536,0.02167185240816327,-0.0014250781477015998,0.05973963195330677,-0.04943379288742103, ,1.1379640102386475
0.012010839175398625,0.02156778066527082,-0.08484483868205817, ,0.012557053298267614,0.021424103701574125,-0.08555164592345449, ,0.0009047482602408919, ,0.007324527840080844,0.00320168958388516,-0.020441120010931027,0.028849075297528972,0.013662918634728719,-0.0037265981024284123, ,0.021948551468672434, ,0.03192085403512268, ,0.00040601382012134593, ,0.19190218919160484,-0.24053223810059657,0.09590212678000001,1.6976497824507093,0.508151142627673,-1.1738937884140794, ,0.04397448635703002,0.022789851478979536,0.02167185240816327,-0.0014250781477015998,0.05973963195330677,-0.04943379288742103, ,1.1407039165496826
0.012010839175398625,0.02156778066527082,-0.08484483868205817, ,0.012599406883016532,0.021426613418727716,-0.08564996533594396, ,0.0010072581926916738, ,0.007324527840080844,0.00320168958388516,-0.020441120010931027,0.028849075297528972,0.013662918634728719,-0.0037265981024284123, ,0.021948551468672434, ,0.03192085403512268, ,0.00041413874407499903, ,0.19190218919160484,-0.24053223810059657,0.09590212678000001,1.6976497824507093,0.508151142627673,-1.1738937884140794, ,0.04397448635703002,0.022789851478979536,0.02167185240816327,-0.0014250781477015998,0.05973963195330677,-0.04943379288742103, ,1.1434869766235352
0.012091970283102459,0.021598587741866772,-0.08505917388831331, ,0.012641958580295407,0.021428782312016597,-0.08574867237854475, ,0.0008981810391492524, ,0.008888668717099497,0.00335367112292674,-0.023696543938897856,0.019331964771365343,0.001008579675428215,-0.00515635074812303, ,0.025530016377025937, ,0.01935806351591552, ,0.00042059264134265576, ,0.19240416682842942,-0.2402619424499987,0.09612897753,1.6976497824507093,0.5086976886267348,-1.174339460028865, ,0.05413402256615561,0.030250858003975385,0.025045301132075475,-0.0014250781477015998,0.05716399849793278,-0.04733353650804381, ,1.146247148513794
0.012091970283102459,0.021598587741866772,-0.08505917388831331, ,0.0126847069363709,0.021430614162965968,-0.08584776137039066, ,0.0010007107875034133, ,0.008888668717099497,0.00335367112292674,-0.023696543938897856,0.019331964771365343,0.001008579675428215,-0.00515635074812303, ,0.025530016377025937, ,0.01935806351591552, ,0.00042822577484477093, ,0.19240416682842942,-0.2402619424499987,0.09612897753,1.6976497824507093,0.5086976886267348,-1.174339460028865, ,0.05413402256615561,0.030250858003975385,0.025045301132075475,-0.0014250781477015998,0.05716399849793278,-0.04733353650804381, ,1.1490530967712402
0.012091970283102459,0.021598587741866772,-0.08505917388831331, ,0.01272765050336177,0.02143211273869483,-0.08594722665463513, ,0.001104735708159127, ,0.008888668717099497,0.00335367112292674,-0.023696543938897856,0.019331964771365343,0.001008579675428215,-0.00515635074812303, ,0.025530016377025937, ,0.01935806351591552, ,0.00043701161813456774, ,0.19240416682842942,-0.2402619424499987,0.09612897753,1.6976497824507093,0.5086976886267348,-1.174339460028865, ,0.05413402256615561,0.030250858003975385,0.025045301132075475,-0.0014250781477015998,0.05716399849793278,-0.04733353650804381, ,1.1519269943237305
0.012185637859886796,0.021633996122102633,-0.08531868096069509, ,0.01277078783922889,0.02143328179193635,-0.08604706259841269, ,0.0009556288771391996, ,0.010224659985264558,0.004068751220755538,-0.029079131046429445,0.07029323749697329,0.04769832702654889,-0.010686762869002001, ,0.03109170742699871, ,0.08494850702877434, ,0.0004436605573525759, ,0.19298337179399627,-0.2399144194706586,0.09640379101,1.6976497824507093,0.5096541441250929,-1.174956027874459, ,0.06218672448130458,0.03761273942071771,0.03081008030947776,-0.0014250781477015998,0.11345711904068835,-0.1041661055843, ,1.1555471420288086
0.012185637859886796,0.021633996122102633,-0.08531868096069509, ,0.012814117507765146,0.021434125061060266,-0.08614726359280123, ,0.0010590015519664896, ,0.010224659985264558,0.004068751220755538,-0.029079131046429445,0.07029323749697329,0.04769832702654889,-0.010686762869002001, ,0.03109170742699871, ,0.08494850702877434, ,0.00045144968386667605, ,0.19298337179399627,-0.2399144194706586,0.09640379101,1.6976497824507093,0.5096541441250929,-1.174956027874459, ,0.06218672448130458,0.03761273942071771,0.03081008030947776,-0.0014250781477015998,0.11345711904068835,-0.1041661055843, ,1.1606450080871582
0.012185637859886796,0.021633996122102633,-0.08531868096069509, ,0.012857638078585514,0.02143464627009419,-0.08624782405278328, ,0.0011638863960894627, ,0.010224659985264558,0.004068751220755538,-0.029079131046429445,0.07029323749697329,0.04769832702654889,-0.010686762869002001, ,0.03109170742699871, ,0.08494850702877434, ,0.0004603551427694609, ,0.19298337179399627,-0.2399144194706586,0.09640379101,1.6976497824507093,0.5096541441250929,-1.174956027874459, ,0.06218672448130458,0.03761273942071771,0.03081008030947776,-0.0014250781477015998,0.11345711904068835,-0.1041661055843, ,1.1635749340057373
0.012295629130705893,0.021679222489406187,-0.08562646653471755, ,0.012901348127116859,0.02143484912874627,-0.08634873841720898, ,0.0009738020919319566, ,0.011358993224799493,0.004717877722261501,-0.03162513169188982,0.024728005055353663,0.0007281359628226017,-0.007662103661456563, ,0.03393278726854936, ,0.02473808362513445, ,0.00046669399399368924, ,0.19362435862255692,-0.23954372829269585,0.0967291598,1.6976497824507093,0.5104739631236854,-1.175706214036778, ,0.06477606932318823,0.036968033330140544,0.033393734842767295,-0.0014250781477015998,0.0677933602074232,-0.05913642320575492, ,1.1664929389953613
0.012295629130705893,0.021679222489406187,-0.08562646653471755, ,0.01294524623458826,0.021434737332425128,-0.0864500011487563, ,0.0010770258279913826, ,0.011358993224799493,0.004717877722261501,-0.03162513169188982,0.024728005055353663,0.0007281359628226017,-0.007662103661456563, ,0.03393278726854936, ,0.02473808362513445, ,0.0004741370651400026, ,0.19362435862255692,-0.23954372829269585,0.0967291598,1.6976497824507093,0.5104739631236854,-1.175706214036778, ,0.06477606932318823,0.036968033330140544,0.033393734842767295,-0.0014250781477015998,0.0677933602074232,-0.05913642320575492, ,1.1692640781402588
0.012295629130705893,0.021679222489406187,-0.08562646653471755, ,0.012989330988020553,0.02143431456226326,-0.08655160673389385, ,0.0011819841571489983, ,0.011358993224799493,0.004717877722261501,-0.03162513169188982,0.024728005055353663,0.0007281359628226017,-0.007662103661456563, ,0.03393278726854936, ,0.02473808362513445, ,0.0004826653433569785, ,0.19362435862255692,-0.23954372829269585,0.0967291598,1.6976497824507093,0.5104739631236854,-1.175706214036778, ,0.06477606932318823,0.036968033330140544,0.033393734842767295,-0.0014250781477015998,0.0677933602074232,-0.05913642320575492, ,1.1719939708709717
0.012295629130705893,0.021679222489406187,-0.08562646653471755, ,0.013033600980216793,0.021433584485137647,-0.08665354968284271, ,0.001288347885073851, ,0.011358993224799493,0.004717877722261501,-0.03162513169188982,0.024728005055353663,0.0007281359628226017,-0.007662103661456563, ,0.03393278726854936, ,0.02473808362513445, ,0.0004922568021869413, ,0.1942498999853691,-0.23915759164898462,0.09704675085000002,1.6974400925072246,0.5110205091227473,-1.1761518856515636, ,0.06977716291064028,0.04876512926951222,0.03508548792951543,-0.003914128271629756,0.0363498155117872,-0.03349632088473071, ,1.1749241352081299
0.012405587772255502,0.021720153105309566,-0.0859283375519896, ,0.013078054809751936,0.021432550753691472,-0.08675582452953744, ,0.001104382962195063, ,0.012466017161378823,0.004063346644409228,-0.033516389763190706,-0.01404706827956012,-0.03537658631101007,-0.007293923861696621, ,0.03598973121014573, ,0.03806285185781938, ,0.0004994582864223309, ,0.1942498999853691,-0.23915759164898462,0.09704675085000002,1.6974400925072246,0.5110205091227473,-1.1761518856515636, ,0.06977716291064028,0.04876512926951222,0.03508548792951543,-0.003914128271629756,0.0363498155117872,-0.03349632088473071, ,1.1777539253234863
0.012405587772255502,0.021720153105309566,-0.0859283375519896, ,0.013122691080962902,0.02143121700635624,-0.08685842583158901, ,0.0012094566682959971, ,0.012466017161378823,0.004063346644409228,-0.033516389763190706,-0.01404706827956012,-0.03537658631101007,-0.007293923861696621, ,0.03598973121014573, ,0.03806285185781938, ,0.0005077140815603968, ,0.1942498999853691,-0.23915759164898462,0.09704675085000002,1.6974400925072246,0.5110205091227473,-1.1761518856515636, ,0.06977716291064028,0.04876512926951222,0.03508548792951543,-0.003914128271629756,0.0363498155117872,-0.03349632088473071, ,1.1805551052093506
0.012405587772255502,0.021720153105309566,-0.0859283375519896, ,0.013167508403938542,0.021429586867373545,-0.0869613481702454, ,0.0013160785406053069, ,0.012466017161378823,0.004063346644409228,-0.033516389763190706,-0.01404706827956012,-0.03537658631101007,-0.007293923861696621, ,0.03598973121014573, ,0.03806285185781938, ,0.0005170056270666602, ,0.1942498999853691,-0.23915759164898462,0.09704675085000002,1.6974400925072246,0.5110205091227473,-1.1761518856515636, ,0.06977716291064028,0.04876512926951222,0.03508548792951543,-0.003914128271629756,0.0363498155117872,-0.03349632088473071, ,1.1833491325378418
0.01253340230471256,0.021758165006616793,-0.0862893512179389, ,0.013212505394509846,0.021427663946815598,-0.08706458615035415, ,0.0010823128741444404, ,0.01248051368263557,0.003890879983285678,-0.0360848520368336,0.07807379684000476,0.07589364989495827,-0.004046264029325066, ,0.03837992594243716, ,0.10888205850945117, ,0.0005234295730561804, ,0.19499128234129465,-0.238586109416292,0.09742526753000001,1.6970207126202554,0.5121136011208708,-1.177043228881135, ,0.07460451380382924,0.05782872733605776,0.03801625661097852,-0.010371998873439255,0.1574178079825487,-0.13161960458467592, ,1.186094045639038
0.01253340230471256,0.021758165006616793,-0.0862893512179389, ,0.013257680674239573,0.021425451840608335,-0.08716813440032435, ,0.0011863966828357102, ,0.01248051368263557,0.003890879983285678,-0.0360848520368336,0.07807379684000476,0.07589364989495827,-0.004046264029325066, ,0.03837992594243716, ,0.10888205850945117, ,0.0005308786417053886, ,0.19499128234129465,-0.238586109416292,0.09742526753000001,1.6970207126202554,0.5121136011208708,-1.177043228881135, ,0.07460451380382924,0.05782872733605776,0.03801625661097852,-0.010371998873439255,0.1574178079825487,-0.13161960458467592, ,1.188844919204712
0.01253340230471256,0.021758165006616793,-0.0862893512179389, ,0.013303032870412413,0.021422954130552195,-0.0872719875720878, ,0.0012923899348054805, ,0.01248051368263557,0.003890879983285678,-0.0360848520368336,0.07807379684000476,0.07589364989495827,-0.004046264029325066, ,0.03837992594243716, ,0.10888205850945117, ,0.0005393398782953895, ,0.19499128234129465,-0.238586109416292,0.09742526753000001,1.6970207126202554,0.5121136011208708,-1.177043228881135, ,0.07460451380382924,0.05782872733605776,0.03801625661097852,-0.010371998873439255,0.1574178079825487,-0.13161960458467592, ,1.1916189193725586
0.01253340230471256,0.021758165006616793,-0.0862893512179389, ,0.013348560616025126,0.021420174384344084,-0.08737614034106092, ,0.0013999397599120365, ,0.01248051368263557,0.003890879983285678,-0.0360848520368336,0.07807379684000476,0.07589364989495827,-0.004046264029325066, ,0.03837992594243716, ,0.10888205850945117, ,0.0005487970198516165, ,0.19499128234129465,-0.238586109416292,0.09742526753000001,1.6970207126202554,0.5121136011208708,-1.177043228881135, ,0.07460451380382924,0.05782872733605776,0.03801625661097852,-0.010371998873439255,0.1574178079825487,-0.13161960458467592, ,1.1945569515228271
0.012672709549445518,0.021795511298256694,-0.086676859909537, ,0.013394262549776168,0.02141711615559916,-0.0874805874061069, ,0.0011444647242337786, ,0.01363940605826087,0.0031107056402865916,-0.03663269077637459,0.055509906732453734,0.05134877008892895,0.0016128444939172617, ,0.03921305803836413, ,0.07561732582849998, ,0.0005552716688122922, ,0.1958562284232078,-0.23792195438910868,0.09783359888000001,1.696811022676771,0.5138898756178215,-1.1784916616291885, ,0.08450306461128297,0.06706497636641044,0.03847539014492755,-0.018031193284376308,0.14413334059091512,-0.12004663872928946, ,1.1974201202392578
0.012672709549445518,0.021795511298256694,-0.086676859909537, ,0.013440137316056075,0.02141378298387205,-0.08758532348949759, ,0.0012489867729814533, ,0.01363940605826087,0.0031107056402865916,-0.03663269077637459,0.055509906732453734,0.05134877008892895,0.0016128444939172617, ,0.03921305803836413, ,0.07561732582849998, ,0.0005627309710076595, ,0.1958562284232078,-0.23792195438910868,0.09783359888000001,1.696811022676771,0.5138898756178215,-1.1784916616291885, ,0.08450306461128297,0.06706497636641044,0.03847539014492755,-0.018031193284376308,0.14413334059091512,-0.12004663872928946, ,1.2002930641174316
0.012672709549445518,0.021795511298256694,-0.086676859909537, ,0.013486183564937254,0.02141017839467862,-0.08769034333687459, ,0.0013554962478546772, ,0.01363940605826087,0.0031107056402865916,-0.03663269077637459,0.055509906732453734,0.05134877008892895,0.0016128444939172617, ,0.03921305803836413, ,0.07561732582849998, ,0.0005711646441656066, ,0.1958562284232078,-0.23792195438910868,0.09783359888000001,1.696811022676771,0.5138898756178215,-1.1784916616291885, ,0.08450306461128297,0.06706497636641044,0.03847539014492755,-0.018031193284376308,0.14413334059091512,-0.12004663872928946, ,1.2032661437988281
0.012770862681345925,0.021815909329516964,-0.08692816302593855, ,0.013532399952163838,0.02140630589951855,-0.08779564171721176, ,0.0012248400975328746, ,0.014818922665182735,0.003043069686467003,-0.0367147998187488,0.002744341852605746,-0.01677065758885303,0.018918471950642255, ,0.039709410318010986, ,0.01699175258413455, ,0.0005780454384115778, ,0.1964586015873973,-0.23745859041665524,0.09809674575,1.6966013327332867,0.5145730581166488,-1.1790487511476706, ,0.09186538389009755,0.06664111064499352,0.03847539014492755,-0.03533019202760779,0.0857785676285736,-0.07209451347094405, ,1.2062530517578125
0.012770862681345925,0.021815909329516964,-0.08692816302593855, ,0.013578785139141944,0.021402168995895348,-0.08790121342277679, ,0.0013306941182193426, ,0.014818922665182735,0.003043069686467003,-0.0367147998187488,0.002744341852605746,-0.01677065758885303,0.018918471950642255, ,0.039709410318010986, ,0.01699175258413455, ,0.000585885528826242, ,0.1964586015873973,-0.23745859041665524,0.09809674575,1.6966013327332867,0.5145730581166488,-1.1790487511476706, ,0.09186538389009755,0.06664111064499352,0.03847539014492755,-0.03533019202760779,0.0857785676285736,-0.07209451347094405, ,1.2090239524841309
0.012770862681345925,0.021815909329516964,-0.08692816302593855, ,0.013625337792929574,0.0213977711673394,-0.08800705326909247, ,0.0014383919478910677, ,0.014818922665182735,0.003043069686467003,-0.0367147998187488,0.002744341852605746,-0.01677065758885303,0.018918471950642255, ,0.039709410318010986, ,0.01699175258413455, ,0.0005946742547959825, ,0.1964586015873973,-0.23745859041665524,0.09809674575,1.6966013327332867,0.5145730581166488,-1.1790487511476706, ,0.09186538389009755,0.06664111064499352,0.03847539014492755,-0.03533019202760779,0.0857785676285736,-0.07209451347094405, ,1.2118000984191895
0.012770862681345925,0.021815909329516964,-0.08692816302593855, ,0.01367205658622642,0.021393115883428907,-0.08811315609489948, ,0.0015476153675038934, ,0.014818922665182735,0.003043069686467003,-0.0367147998187488,0.002744341852605746,-0.01677065758885303,0.018918471950642255, ,0.039709410318010986, ,0.01699175258413455, ,0.0006043981437011652, ,0.1964586015873973,-0.23745859041665524,0.09809674575,1.6966013327332867,0.5145730581166488,-1.1790487511476706, ,0.09186538389009755,0.06664111064499352,0.03847539014492755,-0.03533019202760779,0.0857785676285736,-0.07209451347094405, ,1.214595079421997
0.012974344492349636,0.021847504937986262,-0.08741139471282651, ,0.013718940197364065,0.02138820659981221,-0.08821951676211769, ,0.0011909823566812197, ,0.015921824497466586,0.0013272425298425415,-0.03676403202291588,-0.017369292927857615,-0.02610180817616871,0.011561911506837236, ,0.040085659763101494, ,0.031351707546916664, ,0.0006103232367615698, ,0.1977482979773928,-0.2364700806087545,0.09860229885,1.6966013327332867,0.5156661501147722,-1.1800217731173825, ,0.10292509930419824,0.08503310175490213,0.03829041230769231,-0.030300918204280894,0.08634060859658041,-0.06886921424067012, ,1.2172811031341553
0.012974344492349636,0.021847504937986262,-0.08741139471282651, ,0.01376598731029587,0.021383046758228715,-0.08832613015580792, ,0.0012958243255148257, ,0.015921824497466586,0.0013272425298425415,-0.03676403202291588,-0.017369292927857615,-0.02610180817616871,0.011561911506837236, ,0.040085659763101494, ,0.031351707546916664, ,0.0006171782476491024, ,0.1977482979773928,-0.2364700806087545,0.09860229885,1.6966013327332867,0.5156661501147722,-1.1800217731173825, ,0.10292509930419824,0.08503310175490213,0.03829041230769231,-0.030300918204280894,0.08634060859658041,-0.06886921424067012, ,1.2200050354003906
0.012974344492349636,0.021847504937986262,-0.08741139471282651, ,0.013813196614587173,0.021377639786530258,-0.08843299118413307, ,0.0014028918325092686, ,0.015921824497466586,0.0013272425298425415,-0.03676403202291588,-0.017369292927857615,-0.02610180817616871,0.011561911506837236, ,0.040085659763101494, ,0.031351707546916664, ,0.0006249575900734605, ,0.1977482979773928,-0.2364700806087545,0.09860229885,1.6966013327332867,0.5156661501147722,-1.1800217731173825, ,0.10292509930419824,0.08503310175490213,0.03829041230769231,-0.030300918204280894,0.08634060859658041,-0.06886921424067012, ,1.2227461338043213
0.01313823363690965,0.021857727317712187,-0.0877876987703711, ,0.013860566805404768,0.021371989098704424,-0.08854009477832148, ,0.001150567936496015, ,0.016016917467842128,0.0009673740024716596,-0.03694143951391359,0.034063491357278035,0.033895653263606704,-0.01096814903130973, ,0.040275891188060145, ,0.048053802728624834, ,0.0006301106326854463, ,0.19883720331265844,-0.235558798129596,0.09899507472,1.696391642789802,0.5168958786126612,-1.1810245342506502, ,0.10796011553864708,0.09029204715363537,0.03866216388349515,-0.008894589021209145,0.14802595410978758,-0.1193900134249527, ,1.2260470390319824
0.01313823363690965,0.021857727317712187,-0.0877876987703711, ,0.013908096583507303,0.02136609809489498,-0.08864743589262788, ,0.0012544066998618328, ,0.016016917467842128,0.0009673740024716596,-0.03694143951391359,0.034063491357278035,0.033895653263606704,-0.01096814903130973, ,0.040275891188060145, ,0.048053802728624834, ,0.0006361717595512365, ,0.19883720331265844,-0.235558798129596,0.09899507472,1.696391642789802,0.5168958786126612,-1.1810245342506502, ,0.10796011553864708,0.09029204715363537,0.03866216388349515,-0.008894589021209145,0.14802595410978758,-0.1193900134249527, ,1.2287960052490234
0.01313823363690965,0.021857727317712187,-0.0877876987703711, ,0.013955784655235478,0.021359970161422496,-0.08875500950429437, ,0.001360823982066149, ,0.016016917467842128,0.0009673740024716596,-0.03694143951391359,0.034063491357278035,0.033895653263606704,-0.01096814903130973, ,0.040275891188060145, ,0.048053802728624834, ,0.0006431395693831106, ,0.19883720331265844,-0.235558798129596,0.09899507472,1.696391642789802,0.5168958786126612,-1.1810245342506502, ,0.10796011553864708,0.09029204715363537,0.03866216388349515,-0.008894589021209145,0.14802595410978758,-0.1193900134249527, ,1.2315800189971924
0.01313823363690965,0.021857727317712187,-0.0877876987703711, ,0.014003629732501282,0.0213536086708089,-0.08886281061351387, ,0.001469323479594157, ,0.016016917467842128,0.0009673740024716596,-0.03694143951391359,0.034063491357278035,0.033895653263606704,-0.01096814903130973, ,0.040275891188060145, ,0.048053802728624834, ,0.0006510079875755967, ,0.19883720331265844,-0.235558798129596,0.09899507472,1.696391642789802,0.5168958786126612,-1.1810245342506502, ,0.10796011553864708,0.09029204715363537,0.03866216388349515,-0.008894589021209145,0.14802595410978758,-0.1193900134249527, ,1.234349012374878
0.01313823363690965,0.021857727317712187,-0.0877876987703711, ,0.014051630532778634,0.02134701698179635,-0.08897083424339054, ,0.0015795342617719033, ,0.016016917467842128,0.0009673740024716596,-0.03694143951391359,0.034063491357278035,0.033895653263606704,-0.01096814903130973, ,0.040275891188060145, ,0.048053802728624834, ,0.0006597676694076373, ,0.19991066318217565,-0.2346166247189406,0.09937359140000002,1.695552883015864,0.5186721531096119,-1.1823912882585632, ,0.10970744688840552,0.10203972210588257,0.03801625661097852,-0.08861498904677169,0.18827609867755157,-0.15656518888331417, ,1.237725019454956
0.013294079615544192,0.021858386157218735,-0.08815019328357954, ,0.014099785779093245,0.02134019843937011,-0.08907907543990234, ,0.0013343548977858203, ,0.015806259610626337,-0.0006504248944121751,-0.036507501578702715,0.04521541344268186,0.052973467103672414,0.06037774009680521, ,0.03978766852858772, ,0.06964594015224061, ,0.000666072222943882, ,0.19991066318217565,-0.2346166247189406,0.09937359140000002,1.695552883015864,0.5186721531096119,-1.1823912882585632, ,0.10970744688840552,0.10203972210588257,0.03801625661097852,-0.08861498904677169,0.18827609867755157,-0.15656518888331417, ,1.2405979633331299
0.013294079615544192,0.021858386157218735,-0.08815019328357954, ,0.014148094200012253,0.021333156374780535,-0.08918752927186244, ,0.0014426618409839136, ,0.015806259610626337,-0.0006504248944121751,-0.036507501578702715,0.04521541344268186,0.052973467103672414,0.06037774009680521, ,0.03978766852858772, ,0.06964594015224061, ,0.0006732628675553638, ,0.19991066318217565,-0.2346166247189406,0.09937359140000002,1.695552883015864,0.5186721531096119,-1.1823912882585632, ,0.10970744688840552,0.10203972210588257,0.03801625661097852,-0.08861498904677169,0.18827609867755157,-0.15656518888331417, ,1.2436881065368652
0.013294079615544192,0.021858386157218735,-0.08815019328357954, ,0.014196554529634704,0.021325894105563854,-0.0892961908308813, ,0.0015528422759765307, ,0.015806259610626337,-0.0006504248944121751,-0.036507501578702715,0.04521541344268186,0.052973467103672414,0.06037774009680521, ,0.03978766852858772, ,0.06964594015224061, ,0.0006813324034124388, ,0.19991066318217565,-0.2346166247189406,0.09937359140000002,1.695552883015864,0.5186721531096119,-1.1823912882585632, ,0.10970744688840552,0.10203972210588257,0.03801625661097852,-0.08861498904677169,0.18827609867755157,-0.15656518888331417, ,1.246500015258789
0.013489284503510657,0.021848682784766194,-0.08858527606836858, ,0.014245165507581124,0.021318414935564575,-0.08940505523132838, ,0.0012347380127924166, ,0.01679351616478697,-0.0010282265151335796,-0.03683573178926407,0.001925833327516755,0.006121236677042092,0.025700685784212553, ,0.04049630318182123, ,0.006411751260180773, ,0.0006863633634977113, ,0.20125441870229072,-0.23336554199331624,0.09982599661000001,1.6949238131854105,0.5205850641063281,-1.1839511389103132, ,0.11378530162886184,0.10747105499260563,0.038198588776978425,-0.05284701387919678,0.13562459057424092,-0.11349652230281053, ,1.2493250370025635
0.013489284503510657,0.021848682784766194,-0.08858527606836858, ,0.014293925878983753,0.021310722154956545,-0.08951411761029361, ,0.0013414902132904663, ,0.01679351616478697,-0.0010282265151335796,-0.03683573178926407,0.001925833327516755,0.006121236677042092,0.025700685784212553, ,0.04049630318182123, ,0.006411751260180773, ,0.0006922654071895379, ,0.20125441870229072,-0.23336554199331624,0.09982599661000001,1.6949238131854105,0.5205850641063281,-1.1839511389103132, ,0.11378530162886184,0.10747105499260563,0.038198588776978425,-0.05284701387919678,0.13562459057424092,-0.11349652230281053, ,1.2520620822906494
0.013489284503510657,0.021848682784766194,-0.08858527606836858, ,0.01434283439447647,0.02130281904026508,-0.0896233731275498, ,0.0014505723519387852, ,0.01679351616478697,-0.0010282265151335796,-0.03683573178926407,0.001925833327516755,0.006121236677042092,0.025700685784212553, ,0.04049630318182123, ,0.006411751260180773, ,0.0006990360049105133, ,0.20125441870229072,-0.23336554199331624,0.09982599661000001,1.6949238131854105,0.5205850641063281,-1.1839511389103132, ,0.11378530162886184,0.10747105499260563,0.038198588776978425,-0.05284701387919678,0.13562459057424092,-0.11349652230281053, ,1.254796028137207
0.01366462913530262,0.02183456359442762,-0.08896026584752585, ,0.01439188981018474,0.021294708854388108,-0.08973281696551397, ,0.0011904564080544116, ,0.018166051611410536,-0.0014188002227439485,-0.03779721012159886,-0.02053929216969374,-0.018167022857712704,-0.03156829914263322, ,0.04196007052182807, ,0.0274194474589435, ,0.0007033848580356806, ,0.20242827409917286,-0.23222257752793102,0.10021358732,1.6947141232419258,0.5216781561044516,-1.1848424821398846, ,0.12260586764660306,0.11615292724415029,0.039137129041769046,0.005738325385797456,0.10582202679861367,-0.08904229590150262, ,1.2576160430908203
0.01366462913530262,0.02183456359442762,-0.08896026584752585, ,0.014441090887715509,0.021286394846618848,-0.08984244432920935, ,0.0012967731885644952, ,0.018166051611410536,-0.0014188002227439485,-0.03779721012159886,-0.02053929216969374,-0.018167022857712704,-0.03156829914263322, ,0.04196007052182807, ,0.0274194474589435, ,0.000708590018829793, ,0.20242827409917286,-0.23222257752793102,0.10021358732,1.6947141232419258,0.5216781561044516,-1.1848424821398846, ,0.12260586764660306,0.11615292724415029,0.039137129041769046,0.005738325385797456,0.10582202679861367,-0.08904229590150262, ,1.2603809833526611
0.01366462913530262,0.02183456359442762,-0.08896026584752585, ,0.014490436394147432,0.021277880252666023,-0.08995225044622726, ,0.001405662625175912, ,0.018166051611410536,-0.0014188002227439485,-0.03779721012159886,-0.02053929216969374,-0.018167022857712704,-0.03156829914263322, ,0.04196007052182807, ,0.0274194474589435, ,0.0007146515197545419, ,0.20242827409917286,-0.23222257752793102,0.10021358732,1.6947141232419258,0.5216781561044516,-1.1848424821398846, ,0.12260586764660306,0.11615292724415029,0.039137129041769046,0.005738325385797456,0.10582202679861367,-0.08904229590150262, ,1.2631940841674805
0.01366462913530262,0.02183456359442762,-0.08896026584752585, ,0.014539925102020616,0.021269168294676694,-0.09006223056668806, ,0.0015166216128657416, ,0.018166051611410536,-0.0014188002227439485,-0.03779721012159886,-0.02053929216969374,-0.018167022857712704,-0.03156829914263322, ,0.04196007052182807, ,0.0274194474589435, ,0.0007215650550399833, ,0.20242827409917286,-0.23222257752793102,0.10021358732,1.6947141232419258,0.5216781561044516,-1.1848424821398846, ,0.12260586764660306,0.11615292724415029,0.039137129041769046,0.005738325385797456,0.10582202679861367,-0.08904229590150262, ,1.2659249305725098
0.013846170656953857,0.021818687160111302,-0.08934058213039581, ,0.014589555789326802,0.021260262181257383,-0.09017237996320454, ,0.0012475365913296687, ,0.018614435304886826,-0.00216786195183575,-0.03847549858185044,-0.007527464904355122,0.0020922199421491644,-0.02855769951875078, ,0.04279673840707968, ,0.007807419162655695, ,0.0007260605382561345, ,0.20365618862617454,-0.23103327666530044,0.10060765948000001,1.6949238131854105,0.5229078846023405,-1.1858452432731523, ,0.12720769645907612,0.12486439678746157,0.039822028800000006,0.0,0.13271849421345608,-0.11083411371525341, ,1.268660068511963
0.013846170656953857,0.021818687160111302,-0.08934058213039581, ,0.01463932723949903,0.0212511651074959,-0.09028269393084248, ,0.0013560063750515396, ,0.018614435304886826,-0.00216786195183575,-0.03847549858185044,-0.007527464904355122,0.0020922199421491644,-0.02855769951875078, ,0.04279673840707968, ,0.007807419162655695, ,0.0007313990622967735, ,0.20365618862617454,-0.23103327666530044,0.10060765948000001,1.6949238131854105,0.5229078846023405,-1.1858452432731523, ,0.12720769645907612,0.12486439678746157,0.039822028800000006,0.0,0.13271849421345608,-0.11083411371525341, ,1.2714319229125977
0.013846170656953857,0.021818687160111302,-0.08934058213039581, ,0.014689238241402156,0.021241880254982703,-0.09039316778708265, ,0.0014667670988996124, ,0.018614435304886826,-0.00216786195183575,-0.03847549858185044,-0.007527464904355122,0.0020922199421491644,-0.02855769951875078, ,0.04279673840707968, ,0.007807419162655695, ,0.0007375786256295705, ,0.20365618862617454,-0.23103327666530044,0.10060765948000001,1.6949238131854105,0.5229078846023405,-1.1858452432731523, ,0.12720769645907612,0.12486439678746157,0.039822028800000006,0.0,0.13271849421345608,-0.11083411371525341, ,1.2743549346923828
0.014032774531449004,0.021788321690625487,-0.08972617285157299, ,0.014739287589322246,0.021232410791833058,-0.09050379687178295, ,0.001188653332620201, ,0.01841838657350261,-0.0033408934036525543,-0.03784667299891451,-0.009512123002862902,0.006558067536965289,0.04042704946139138, ,0.04222285151185688, ,0.011550371611477884, ,0.0007413375815211591, ,0.20494588501617003,-0.22973585754243073,0.10100562051,1.6940850534114722,0.5244108860997605,-1.1871525189539538, ,0.12772132107465783,0.13107312369954527,0.03904120470588236,-0.07449201804503643,0.1551269038238427,-0.12910849982427708, ,1.2779669761657715
0.014032774531449004,0.021788321690625487,-0.08972617285157299, ,0.014789474082956926,0.021222759872708528,-0.09061457654713986, ,0.0012968097421883875, ,0.01841838657350261,-0.0033408934036525543,-0.03784667299891451,-0.009512123002862902,0.006558067536965289,0.04042704946139138, ,0.04222285151185688, ,0.011550371611477884, ,0.0007459282605349379, ,0.20494588501617003,-0.22973585754243073,0.10100562051,1.6940850534114722,0.5244108860997605,-1.1871525189539538, ,0.12772132107465783,0.13107312369954527,0.03904120470588236,-0.07449201804503643,0.1551269038238427,-0.12910849982427708, ,1.280914068222046
0.014032774531449004,0.021788321690625487,-0.08972617285157299, ,0.014839796527405268,0.021212930638838046,-0.09072550219765052, ,0.0014074865918956533, ,0.01841838657350261,-0.0033408934036525543,-0.03784667299891451,-0.009512123002862902,0.006558067536965289,0.04042704946139138, ,0.04222285151185688, ,0.011550371611477884, ,0.0007513508698083865, ,0.20494588501617003,-0.22973585754243073,0.10100562051,1.6940850534114722,0.5244108860997605,-1.1871525189539538, ,0.12772132107465783,0.13107312369954527,0.03904120470588236,-0.07449201804503643,0.1551269038238427,-0.12910849982427708, ,1.2838420867919922
0.014032774531449004,0.021788321690625487,-0.08972617285157299, ,0.014890253733157686,0.02120292621804071,-0.09083656923007448, ,0.001520177146938785, ,0.01841838657350261,-0.0033408934036525543,-0.03784667299891451,-0.009512123002862902,0.006558067536965289,0.04042704946139138, ,0.04222285151185688, ,0.011550371611477884, ,0.0007576014899476579, ,0.20494588501617003,-0.22973585754243073,0.10100562051,1.6940850534114722,0.5244108860997605,-1.1871525189539538, ,0.12772132107465783,0.13107312369954527,0.03904120470588236,-0.07449201804503643,0.1551269038238427,-0.12910849982427708, ,1.2867650985717773
0.01421687399821572,0.021753078409053436,-0.09010084222907927, ,0.014940844516086127,0.02119274972474625,-0.09094777307339501, ,0.0012471541204904617, ,0.018713233702530804,-0.003892369803811896,-0.03816740276116395,-0.03109721346704575,-0.012522556033510525,0.05367683685892239, ,0.04268590272945, ,0.033522680369068886, ,0.0007615494950326806, ,0.20622013594041708,-0.22841527022093833,0.10139191493000001,1.6934559835810188,0.5259138875971804,-1.1883781158946143, ,0.12772132107465783,0.13576100366018712,0.03923352591133005,-0.0893812767078855,0.13883335956646423,-0.11571623078412988, ,1.2897679805755615
0.01421687399821572,0.021753078409053436,-0.09010084222907927, ,0.014991567697433851,0.02118240426001739,-0.09105910917878178, ,0.0013579745427946869, ,0.018713233702530804,-0.003892369803811896,-0.03816740276116395,-0.03109721346704575,-0.012522556033510525,0.05367683685892239, ,0.04268590272945, ,0.033522680369068886, ,0.0007663208954147765, ,0.20622013594041708,-0.22841527022093833,0.10139191493000001,1.6934559835810188,0.5259138875971804,-1.1883781158946143, ,0.12772132107465783,0.13576100366018712,0.03923352591133005,-0.0893812767078855,0.13883335956646423,-0.11571623078412988, ,1.2925500869750977
0.01421687399821572,0.021753078409053436,-0.09010084222907927, ,0.015042422103805408,0.02117189291157175,-0.09117057301955209, ,0.0014709283535275796, ,0.018713233702530804,-0.003892369803811896,-0.03816740276116395,-0.03109721346704575,-0.012522556033510525,0.05367683685892239, ,0.04268590272945, ,0.033522680369068886, ,0.0007719130180982115, ,0.20622013594041708,-0.22841527022093833,0.10139191493000001,1.6934559835810188,0.5259138875971804,-1.1883781158946143, ,0.12772132107465783,0.13576100366018712,0.03923352591133005,-0.0893812767078855,0.13883335956646423,-0.11571623078412988, ,1.2953650951385498
0.01421687399821572,0.021753078409053436,-0.09010084222907927, ,0.015093406567156915,0.021161218753802225,-0.09128216009113238, ,0.0015855973912486316, ,0.018713233702530804,-0.003892369803811896,-0.03816740276116395,-0.03109721346704575,-0.012522556033510525,0.05367683685892239, ,0.04268590272945, ,0.033522680369068886, ,0.000778319981666325, ,0.20622013594041708,-0.22841527022093833,0.10139191493000001,1.6934559835810188,0.5259138875971804,-1.1883781158946143, ,0.12772132107465783,0.13576100366018712,0.03923352591133005,-0.0893812767078855,0.13883335956646423,-0.11571623078412988, ,1.2981970310211182
0.014430212265495852,0.0217106222571952,-0.09053958770239477, ,0.015144519924785592,0.0211503848478004,-0.09139386591102072, ,0.0012465523032502675, ,0.01895329040089191,-0.003880394672403439,-0.03852943193966015,-0.030146487207664337,-0.008233189591867461,0.00010462110085721532, ,0.04311382383211981, ,0.031249179045191807, ,0.0007819780466786995, ,0.2076488415221486,-0.22684755544747076,0.10184302385,1.693246293637534,0.5274168890946002,-1.1896037128352748, ,0.12703740503142005,0.13793160110242844,0.03962390925373134,-0.03379466739685645,0.12955090211720055,-0.10800595211247677, ,1.3010070323944092
0.014430212265495852,0.0217106222571952,-0.09053958770239477, ,0.015195761019320044,0.021139394241376782,-0.09150568601874855, ,0.001358569945714692, ,0.01895329040089191,-0.003880394672403439,-0.03852943193966015,-0.030146487207664337,-0.008233189591867461,0.00010462110085721532, ,0.04311382383211981, ,0.031249179045191807, ,0.0007864477513223894, ,0.2076488415221486,-0.22684755544747076,0.10184302385,1.693246293637534,0.5274168890946002,-1.1896037128352748, ,0.12703740503142005,0.13793160110242844,0.03962390925373134,-0.03379466739685645,0.12955090211720055,-0.10800595211247677, ,1.303760051727295
0.014430212265495852,0.0217106222571952,-0.09053958770239477, ,0.015247128698710232,0.02112824996908303,-0.0916176159758415, ,0.0014726353585213321, ,0.01895329040089191,-0.003880394672403439,-0.03852943193966015,-0.030146487207664337,-0.008233189591867461,0.00010462110085721532, ,0.04311382383211981, ,0.031249179045191807, ,0.0007917261175316121, ,0.2076488415221486,-0.22684755544747076,0.10184302385,1.693246293637534,0.5274168890946002,-1.1896037128352748, ,0.12703740503142005,0.13793160110242844,0.03962390925373134,-0.03379466739685645,0.12955090211720055,-0.10800595211247677, ,1.306514024734497
0.01462475052052362,0.0216694855725681,-0.09093056105829972, ,0.015298621816217285,0.021116955052234033,-0.09172965136578265, ,0.0011823442047786497, ,0.01904617244439438,-0.0045502140721605236,-0.03817494819897113,-0.04349947040438356,-0.015636055518607847,-0.011105842457905598, ,0.0429044030709929, ,0.04622346894867138, ,0.0007947079349915132, ,0.20894626064501834,-0.2254188498657392,0.10224487375,1.693246293637534,0.5286466175924891,-1.1907698314488238, ,0.12669818632639623,0.14334885431793168,0.039137129041769046,-0.022785203565231383,0.1190634508882212,-0.09795365112175668, ,1.3092989921569824
0.01462475052052362,0.0216694855725681,-0.09093056105829972, ,0.015350239230403568,0.021105512498928593,-0.09184178779397321, ,0.0012941150102521175, ,0.01904617244439438,-0.0045502140721605236,-0.03817494819897113,-0.04349947040438356,-0.015636055518607847,-0.011105842457905598, ,0.0429044030709929, ,0.04622346894867138, ,0.0007984913219253057, ,0.20894626064501834,-0.2254188498657392,0.10224487375,1.693246293637534,0.5286466175924891,-1.1907698314488238, ,0.12669818632639623,0.14334885431793168,0.039137129041769046,-0.022785203565231383,0.1190634508882212,-0.09795365112175668, ,1.3120861053466797
0.01462475052052362,0.0216694855725681,-0.09093056105829972, ,0.01540197980512287,0.021093925304071733,-0.09195402088769465, ,0.001408128192280581, ,0.01904617244439438,-0.0045502140721605236,-0.03817494819897113,-0.04349947040438356,-0.015636055518607847,-0.011105842457905598, ,0.0429044030709929, ,0.04622346894867138, ,0.0008030750577926385, ,0.20894626064501834,-0.2254188498657392,0.10224487375,1.693246293637534,0.5286466175924891,-1.1907698314488238, ,0.12669818632639623,0.14334885431793168,0.039137129041769046,-0.022785203565231383,0.1190634508882212,-0.09795365112175668, ,1.3148560523986816
0.01462475052052362,0.0216694855725681,-0.09093056105829972, ,0.015453842409510001,0.021082196449395966,-0.09206634629607056, ,0.0015239127208988954, ,0.01904617244439438,-0.0045502140721605236,-0.03817494819897113,-0.04349947040438356,-0.015636055518607847,-0.011105842457905598, ,0.0429044030709929, ,0.04622346894867138, ,0.0008084544433382076, ,0.20894626064501834,-0.2254188498657392,0.10224487375,1.693246293637534,0.5286466175924891,-1.1907698314488238, ,0.12669818632639623,0.14334885431793168,0.039137129041769046,-0.022785203565231383,0.1190634508882212,-0.09795365112175668, ,1.3176331520080566
0.01482218963014342,0.021619771124407775,-0.09133212461617976, ,0.01550582591797096,0.021070328903484044,-0.09217875969002877, ,0.0012190308759172342, ,0.019307610679612848,-0.004561028322198023,-0.04057858182698589,-0.03526014100165812,-0.00950875740975746,0.030204231398614063, ,0.045168662949004616, ,0.03651826923227856, ,0.0008114957502462004, ,0.21024367976788805,-0.22392836242101388,0.10265579768000001,1.6924075338635962,0.529876346090378,-1.1920176288025133, ,0.12437344896260916,0.14577103157983223,0.04158958621409923,-0.07029853428028507,0.1335679762241931,-0.11837457578391869, ,1.320439100265503
0.01482218963014342,0.021619771124407775,-0.09133212461617976, ,0.015557929210172995,0.02105832562178923,-0.09229125676226266, ,0.0013328421720827529, ,0.019307610679612848,-0.004561028322198023,-0.04057858182698589,-0.03526014100165812,-0.00950875740975746,0.030204231398614063, ,0.045168662949004616, ,0.03651826923227856, ,0.000815329179818528, ,0.21024367976788805,-0.22392836242101388,0.10265579768000001,1.6924075338635962,0.529876346090378,-1.1920176288025133, ,0.12437344896260916,0.14577103157983223,0.04158958621409923,-0.07029853428028507,0.1335679762241931,-0.11837457578391869, ,1.3232951164245605
0.01482218963014342,0.021619771124407775,-0.09133212461617976, ,0.015610151171034497,0.021046189546657185,-0.09240383322719259, ,0.001448598827549347, ,0.019307610679612848,-0.004561028322198023,-0.04057858182698589,-0.03526014100165812,-0.00950875740975746,0.030204231398614063, ,0.045168662949004616, ,0.03651826923227856, ,0.0008199515860063441, ,0.21024367976788805,-0.22392836242101388,0.10265579768000001,1.6924075338635962,0.529876346090378,-1.1920176288025133, ,0.12437344896260916,0.14577103157983223,0.04158958621409923,-0.07029853428028507,0.1335679762241931,-0.11837457578391869, ,1.3261780738830566
0.01482218963014342,0.021619771124407775,-0.09133212461617976, ,0.015662490690714976,0.021033923607348078,-0.09251648482092867, ,0.0015658966377879383, ,0.019307610679612848,-0.004561028322198023,-0.04057858182698589,-0.03526014100165812,-0.00950875740975746,0.030204231398614063, ,0.045168662949004616, ,0.03651826923227856, ,0.0008253569849322978, ,0.21069159827459308,-0.22341093931844083,0.10280616732000002,1.691988153976627,0.5304228920894398,-1.19262665789758, ,0.12535923587644754,0.1462202489344696,0.04191792505263159,-0.1277724990426111,0.14873163009494547,-0.14924547869490068, ,1.3292319774627686
0.014891259305251968,0.02160334846016305,-0.09147863709802528, ,0.01571494666460501,0.02102153072005876,-0.09262920730123247, ,0.0015299622678897312, ,0.019307610679612848,-0.004561028322198023,-0.04057858182698589,-0.03526014100165812,-0.00950875740975746,0.030204231398614063, ,0.045168662949004616, ,0.03651826923227856, ,0.0008304260876873873, ,0.21069159827459308,-0.22341093931844083,0.10280616732000002,1.691988153976627,0.5304228920894398,-1.19262665789758, ,0.12535923587644754,0.1462202489344696,0.04191792505263159,-0.1277724990426111,0.14873163009494547,-0.14924547869490068, ,1.3322100639343262
0.014891259305251968,0.02160334846016305,-0.09147863709802528, ,0.01576751799331634,0.021009013787942815,-0.09274199644747765, ,0.0016483749078592905, ,0.019355199817355742,-0.004831708213994316,-0.0408946649972488,-0.017215394553013692,-0.008145919332405743,0.07836649445805281, ,0.04550101965310398, ,0.019042358987668154, ,0.0008362685792600437, ,0.21069159827459308,-0.22341093931844083,0.10280616732000002,1.691988153976627,0.5304228920894398,-1.19262665789758, ,0.12535923587644754,0.1462202489344696,0.04191792505263159,-0.1277724990426111,0.14873163009494547,-0.14924547869490068, ,1.3352680206298828
0.014891259305251968,0.02160334846016305,-0.09147863709802528, ,0.01582020358267168,0.020996375701133926,-0.09285484806061317, ,0.0017678546360776772, ,0.019355199817355742,-0.004831708213994316,-0.0408946649972488,-0.017215394553013692,-0.008145919332405743,0.07836649445805281, ,0.04550101965310398, ,0.019042358987668154, ,0.000842875572570807, ,0.21069159827459308,-0.22341093931844083,0.10280616732000002,1.691988153976627,0.5304228920894398,-1.19262665789758, ,0.12535923587644754,0.1462202489344696,0.04191792505263159,-0.1277724990426111,0.14873163009494547,-0.14924547869490068, ,1.338118076324463
0.01520638694860293,0.02153252182316026,-0.09215815193610377, ,0.015873002343694834,0.020983619336766516,-0.09296775796312405, ,0.0011836941934175113, ,0.01990850210675885,-0.0045167555872807725,-0.04228401797902648,-0.0006529310947241534,-0.0038213966001980695,-0.014285406702093998, ,0.04695410220226437, ,0.0038593031366972196, ,0.0008452757037035304, ,0.21269178608901723,-0.22102461486030547,0.10350486763000001,1.6913590841461734,0.5330189855849832,-1.1952336705086555, ,0.12404828961891604,0.14850851574095583,0.0434027561852861,-0.036884935289301875,0.13086336146365748,-0.15100772095325307, ,1.3412070274353027
0.01520638694860293,0.02153252182316026,-0.09215815193610377, ,0.01592591319260078,0.020970747558997214,-0.09308072199899409, ,0.0012978612640105359, ,0.01990850210675885,-0.0045167555872807725,-0.04228401797902648,-0.0006529310947241534,-0.0038213966001980695,-0.014285406702093998, ,0.04695410220226437, ,0.0038593031366972196, ,0.0008484406376916912, ,0.21269178608901723,-0.22102461486030547,0.10350486763000001,1.6913590841461734,0.5330189855849832,-1.1952336705086555, ,0.12404828961891604,0.14850851574095583,0.0434027561852861,-0.036884935289301875,0.13086336146365748,-0.15100772095325307, ,1.3439500331878662
0.01520638694860293,0.02153252182316026,-0.09215815193610377, ,0.01597893505078521,0.020957763219027536,-0.09319373603366658, ,0.0014140765348222924, ,0.01990850210675885,-0.0045167555872807725,-0.04228401797902648,-0.0006529310947241534,-0.0038213966001980695,-0.014285406702093998, ,0.04695410220226437, ,0.0038593031366972196, ,0.0008523686647550982, ,0.21269178608901723,-0.22102461486030547,0.10350486763000001,1.6913590841461734,0.5330189855849832,-1.1952336705086555, ,0.12404828961891604,0.14850851574095583,0.0434027561852861,-0.036884935289301875,0.13086336146365748,-0.15100772095325307, ,1.3466849327087402
0.01540412641414896,0.0214851780604385,-0.0925711893655289, ,0.016032066844815007,0.020944669155124895,-0.09330679595400718, ,0.0011079603396336097, ,0.018891602796264177,-0.005001339784770336,-0.03833608234709947,-0.07660191037740263,-0.04219837116968885,-0.03293981393218447, ,0.04302977185133724, ,0.08745554528592342, ,0.0008541313659611569, ,0.21390425515027048,-0.21954185014845437,0.10392745817000001,1.6911493942026892,0.5339754410833412,-1.196095274574671, ,0.11643796510241813,0.14422027592472764,0.039137129041769046,0.0,0.07597816878753719,-0.062311876672441986, ,1.349708080291748
0.01540412641414896,0.0214851780604385,-0.0925711893655289, ,0.016085307506418026,0.020931468192643795,-0.09341989766826474, ,0.0012210274695070766, ,0.018891602796264177,-0.005001339784770336,-0.03833608234709947,-0.07660191037740263,-0.04219837116968885,-0.03293981393218447, ,0.04302977185133724, ,0.08745554528592342, ,0.0008566443529717454, ,0.21390425515027048,-0.21954185014845437,0.10392745817000001,1.6911493942026892,0.5339754410833412,-1.196095274574671, ,0.11643796510241813,0.14422027592472764,0.039137129041769046,0.0,0.07597816878753719,-0.062311876672441986, ,1.3524670600891113
0.01540412641414896,0.0214851780604385,-0.0925711893655289, ,0.01613865597247293,0.02091816314404877,-0.09353303710603428, ,0.0013364844418755366, ,0.018891602796264177,-0.005001339784770336,-0.03833608234709947,-0.07660191037740263,-0.04219837116968885,-0.03293981393218447, ,0.04302977185133724, ,0.08745554528592342, ,0.000859908571263608, ,0.21390425515027048,-0.21954185014845437,0.10392745817000001,1.6911493942026892,0.5339754410833412,-1.196095274574671, ,0.11643796510241813,0.14422027592472764,0.039137129041769046,0.0,0.07597816878753719,-0.062311876672441986, ,1.3551900386810303
0.01540412641414896,0.0214851780604385,-0.0925711893655289, ,0.016192111184999386,0.020904756808934694,-0.09364621021821738, ,0.0014537808163559314, ,0.018891602796264177,-0.005001339784770336,-0.03833608234709947,-0.07660191037740263,-0.04219837116968885,-0.03293981393218447, ,0.04302977185133724, ,0.08745554528592342, ,0.0008639212215682859, ,0.21390425515027048,-0.21954185014845437,0.10392745817000001,1.6911493942026892,0.5339754410833412,-1.196095274574671, ,0.11643796510241813,0.14422027592472764,0.039137129041769046,0.0,0.07597816878753719,-0.062311876672441986, ,1.3579881191253662
0.015590153937157774,0.021426488843286778,-0.09295548267373048, ,0.01624567209114804,0.020891251974049074,-0.09375941297698506, ,0.0011672559654562445, ,0.018137831344085167,-0.005831416066845457,-0.03786525277683511,-0.03977251172786818,0.009610643323764347,-0.002462077567785278, ,0.04238824963435929, ,0.04091624755492268, ,0.0008659570252185407, ,0.21506266508140415,-0.2180436399708548,0.10431893775000001,1.6905203243722353,0.5350685330814648,-1.1972316540246641, ,0.11364903180655184,0.14897479051565274,0.03866216388349515,-0.035157087845306814,0.1338756429466879,-0.10959570659177262, ,1.36073899269104
0.015590153937157774,0.021426488843286778,-0.09295548267373048, ,0.01629933764319026,0.02087765141331387,-0.09387264137573925, ,0.001282709685825928, ,0.018137831344085167,-0.005831416066845457,-0.03786525277683511,-0.03977251172786818,0.009610643323764347,-0.002462077567785278, ,0.04238824963435929, ,0.04091624755492268, ,0.0008687353762892565, ,0.21506266508140415,-0.2180436399708548,0.10431893775000001,1.6905203243722353,0.5350685330814648,-1.1972316540246641, ,0.11364903180655184,0.14897479051565274,0.03866216388349515,-0.035157087845306814,0.1338756429466879,-0.10959570659177262, ,1.3636400699615479
0.015590153937157774,0.021426488843286778,-0.09295548267373048, ,0.016353106798508366,0.020863957887847014,-0.09398589142907451, ,0.0014001001205487668, ,0.018137831344085167,-0.005831416066845457,-0.03786525277683511,-0.03977251172786818,0.009610643323764347,-0.002462077567785278, ,0.04238824963435929, ,0.04091624755492268, ,0.0008722543481055445, ,0.21506266508140415,-0.2180436399708548,0.10431893775000001,1.6905203243722353,0.5350685330814648,-1.1972316540246641, ,0.11364903180655184,0.14897479051565274,0.03866216388349515,-0.035157087845306814,0.1338756429466879,-0.10959570659177262, ,1.3666329383850098
0.015765149029591093,0.0213681042754226,-0.09332171780629954, ,0.01640697851958544,0.02085017414598375,-0.09409915917273967, ,0.0011334071604940782, ,0.018024681101201583,-0.00603094460787814,-0.03751233407995444,-0.037219256728651395,-0.024360738978891173,0.05354387167164464, ,0.04205278385302713, ,0.04448195583919631, ,0.0008739724587133638, ,0.2161515704166698,-0.2166226571219975,0.10469226927000001,1.6894718746548125,0.5362982615793538,-1.198397772638213, ,0.11086091303559671,0.14554745637802266,0.038198588776978425,-0.1046496261187162,0.11103758534675162,-0.12597994775169366, ,1.3697340488433838
0.015765149029591093,0.0213681042754226,-0.09332171780629954, ,0.016460951773995494,0.02083630292329843,-0.09421244066359975, ,0.0012491362398709162, ,0.018024681101201583,-0.00603094460787814,-0.03751233407995444,-0.037219256728651395,-0.024360738978891173,0.05354387167164464, ,0.04205278385302713, ,0.04448195583919631, ,0.0008764245095706027, ,0.2161515704166698,-0.2166226571219975,0.10469226927000001,1.6894718746548125,0.5362982615793538,-1.198397772638213, ,0.11086091303559671,0.14554745637802266,0.038198588776978425,-0.1046496261187162,0.11103758534675162,-0.12597994775169366, ,1.3745460510253906
0.015765149029591093,0.0213681042754226,-0.09332171780629954, ,0.016515025534393265,0.020822346942626548,-0.09432573197959848, ,0.001366824896956498, ,0.018024681101201583,-0.00603094460787814,-0.03751233407995444,-0.037219256728651395,-0.024360738978891173,0.05354387167164464, ,0.04205278385302713, ,0.04448195583919631, ,0.0008796089276705111, ,0.2161515704166698,-0.2166226571219975,0.10469226927000001,1.6894718746548125,0.5362982615793538,-1.198397772638213, ,0.11086091303559671,0.14554745637802266,0.038198588776978425,-0.1046496261187162,0.11103758534675162,-0.12597994775169366, ,1.3775200843811035
0.015955493900946457,0.021307980521705475,-0.09370408582308273, ,0.016569198778504227,0.02080830891408589,-0.09443902921971876, ,0.0010800218462874915, ,0.018123518466668327,-0.005802848113433938,-0.03575687310873744,-0.054204817410183063,-0.046442839139214896,-0.011306166683031901, ,0.04050541867890767, ,0.07137955649912868, ,0.0008809019142422336, ,0.21732542581355194,-0.21511672421152372,0.10508245256000001,1.6892621847113283,0.5372547170777118,-1.1995044129246502, ,0.11138138680571688,0.141426142412028,0.03645036961098399,-0.03319984661940472,0.07330553462183291,-0.09072192051342153, ,1.3803510665893555
0.015955493900946457,0.021307980521705475,-0.09370408582308273, ,0.01662347048911465,0.020794191535098785,-0.09455232850394546, ,0.0011956954004830548, ,0.018123518466668327,-0.005802848113433938,-0.03575687310873744,-0.054204817410183063,-0.046442839139214896,-0.011306166683031901, ,0.04050541867890767, ,0.07137955649912868, ,0.0008829198212053158, ,0.21732542581355194,-0.21511672421152372,0.10508245256000001,1.6892621847113283,0.5372547170777118,-1.1995044129246502, ,0.11138138680571688,0.141426142412028,0.03645036961098399,-0.03319984661940472,0.07330553462183291,-0.09072192051342153, ,1.3830959796905518
0.015955493900946457,0.021307980521705475,-0.09370408582308273, ,0.016677839654061607,0.020779997490412646,-0.09466562597322685, ,0.0013134340214551417, ,0.018123518466668327,-0.005802848113433938,-0.03575687310873744,-0.054204817410183063,-0.046442839139214896,-0.011306166683031901, ,0.04050541867890767, ,0.07137955649912868, ,0.0008856619498693274, ,0.21732542581355194,-0.21511672421152372,0.10508245256000001,1.6892621847113283,0.5372547170777118,-1.1995044129246502, ,0.11138138680571688,0.141426142412028,0.03645036961098399,-0.03319984661940472,0.07330553462183291,-0.09072192051342153, ,1.3858449459075928
0.015955493900946457,0.021307980521705475,-0.09370408582308273, ,0.01673230526622266,0.020765729452123103,-0.09477891778943637, ,0.001432737196969886, ,0.018123518466668327,-0.005802848113433938,-0.03575687310873744,-0.054204817410183063,-0.046442839139214896,-0.011306166683031901, ,0.04050541867890767, ,0.07137955649912868, ,0.000889124451433255, ,0.21732542581355194,-0.21511672421152372,0.10508245256000001,1.6892621847113283,0.5372547170777118,-1.1995044129246502, ,0.11138138680571688,0.141426142412028,0.03645036961098399,-0.03319984661940472,0.07330553462183291,-0.09072192051342153, ,1.3885619640350342
0.016129866261362966,0.021252370995282665,-0.09404726559580617, ,0.016786866323506306,0.020751390079694416,-0.09489220013533456, ,0.0011817551927231118, ,0.017619699243093985,-0.0057144029911713155,-0.035463613123006825,-0.04604607755886149,-0.03988902430588049,-0.03390902032402273, ,0.04000969955774345, ,0.06092059934723652, ,0.0008909648963470277, ,0.21839116295019492,-0.21374980049278597,0.10543245086000001,1.6892621847113283,0.537937899576539,-1.2003882174036944, ,0.10555833321298196,0.13975985501983915,0.03611975401360545,-0.01110506095575321,0.06919032508162566,-0.0929735348531102, ,1.391252040863037
0.016129866261362966,0.021252370995282665,-0.09404726559580617, ,0.016841521828841497,0.020736982019982,-0.09500546921453108, ,0.0013000898497881489, ,0.017619699243093985,-0.0057144029911713155,-0.035463613123006825,-0.04604607755886149,-0.03988902430588049,-0.03390902032402273, ,0.04000969955774345, ,0.06092059934723652, ,0.0008935219273060348, ,0.21839116295019492,-0.21374980049278597,0.10543245086000001,1.6892621847113283,0.537937899576539,-1.2003882174036944, ,0.10555833321298196,0.13975985501983915,0.03611975401360545,-0.01110506095575321,0.06919032508162566,-0.0929735348531102, ,1.3939850330352783
0.016129866261362966,0.021252370995282665,-0.09404726559580617, ,0.016896270790167957,0.020722507907253437,-0.09511872125144585, ,0.001419911270407742, ,0.017619699243093985,-0.0057144029911713155,-0.035463613123006825,-0.04604607755886149,-0.03988902430588049,-0.03390902032402273, ,0.04000969955774345, ,0.06092059934723652, ,0.0008967914263315113, ,0.21839116295019492,-0.21374980049278597,0.10543245086000001,1.6892621847113283,0.537937899576539,-1.2003882174036944, ,0.10555833321298196,0.13975985501983915,0.03611975401360545,-0.01110506095575321,0.06919032508162566,-0.0929735348531102, ,1.3967361450195312
0.016309385456372845,0.021192218481951755,-0.09441728648382283, ,0.01695111222042603,0.020707970363210496,-0.09523195249127117, ,0.0011445480260340486, ,0.01782030704173289,-0.005682342084950091,-0.03771756051826706,0.03630232138016727,0.002638048875337857,-0.03413328180617857, ,0.042100673701036755, ,0.036396998577697154, ,0.0008983207880580703, ,0.21946462281971213,-0.212305649445306,0.10580967125000001,1.6888428048243591,0.5388943550748971,-1.2017398939105535, ,0.10555833321298196,0.1427021677570989,0.038568550895883784,-0.031428828610677396,0.11651011461014187,-0.18418380348335955, ,1.3997149467468262
