NicholasDascanio/dvrk_moveit_final/test/execution/third_experiment_notsharpbends/thirdexp_400vel4.0/thirdexp_400vel4.0_27.csv
Current Position (x),Current Position (y),Current Position (z), ,Planned Position (x),Planned Position (y),Planned Position (z), ,Position Error,,Cartesian linear Velocity(x),Cartesian linear Velocity(y),Cartesian linear Velocity(z),Cartesian Angular Velocity(x),Cartesian Angular Velocity(y),Cartesian Angular Velocity(z), ,Total Linear Velocity, ,Total Angular Velocity, ,MSE, ,Joint 1 Position,Joint 2 Position,Joint 3 Position,Joint 4 Position,Joint 5 Position,Joint 6 Position, ,Joint 1 Velocity,Joint 2 Velocity,Joint 3 Velocity,Joint 4 Velocity,Joint 5 Velocity,Joint 6 Velocity, ,Time Stamp
0.009160017127227825,0.020268965309861133,-0.08053496952651637, ,0.009346227817222053,0.020195029439051573,-0.08059412958105315, ,0.00020890391598361478, ,7.1712420079155e-05,-1.3486639212990947e-05,4.762239013190575e-06,0.08259121741096145,-0.001486437031555134,-0.022328826785691272, ,7.312482171800032e-05, ,0.08260459241757374, ,1.740865966530123e-05, ,0.1589029516200435,-0.24021560605275338,0.09076363322000001,1.6846490059546686,0.42152360177638376,-1.284663319322737, ,0.000890574201649373,0.00010929173680872602,0.0,-0.0012940888136662133,0.0,-0.1366038790875903, ,0.02867722511291504
0.009184079087490582,0.020271053770842103,-0.08055216952115107, ,0.009406725130266323,0.02021214845498694,-0.0806750355021286, ,0.0002610309289744461, ,0.0014102830088684533,8.395509671867947e-05,-0.000606155799621062,0.24278985320008314,-0.12226106572135588,-0.10049242959848811, ,0.0015373260801737378, ,0.2718357610915818, ,2.1360674770820947e-05, ,0.15899562441453421,-0.2402001605870049,0.09077789241,1.6846490059546686,0.4198839637791985,-1.2912491422720145, ,0.003618088613099062,-0.00010298172200645165,0.0003541280481885103,-0.00124296488449038,-0.12161397744362712,-0.2618196542622422, ,0.0563812255859375
0.00923584331177209,0.02028049392465541,-0.08059636976400245, ,0.009467228133321723,0.020229018485503826,-0.0807558537767431, ,0.00028569880433643104, ,0.0019315099040429769,0.0007359412069934239,-0.0031197924373234168,0.1710911760107102,-0.09076257873846477,-0.07185629875191317, ,0.0037423849109287826, ,0.19367507895361316, ,2.361355154045287e-05, ,0.15912691087339603,-0.24020788331987916,0.09080122563000001,1.6844393160111841,0.417561143283186,-1.294255762317609, ,0.008824393052386645,9.055158953543926e-05,0.0031214602233980014,0.0010902248112014468,-0.08437542434296198,-0.18410521726172568, ,0.08411121368408203
0.009298326864974445,0.020297452975518646,-0.08066772212188526, ,0.009527736291279221,0.0202456411395343,-0.08083658591314222, ,0.0002895308812945995, ,0.0016917494723608015,0.0006903603017933891,-0.00273792966175427,-0.15002051051482382,-0.014177914386306237,0.04048749586650815, ,0.0032916367442716336, ,0.1506889738213116, ,2.488486977593075e-05, ,0.15957482938010104,-0.2401924378541307,0.09088937335000001,1.6848586958981533,0.41414523078904997,-1.2975962202357407, ,0.015222480198663905,0.0003140317450683479,0.0029969541900282223,0.0008149943220418316,0.0,0.15543127560731324, ,0.11414813995361328
0.009326372279620136,0.02031167477628637,-0.0807221344777397, ,0.00958824907148287,0.020262018021846052,-0.08091723341146614, ,0.00033031627468088973, ,0.0012844341923275908,0.0007451255442611563,-0.00288157952463905,-0.053638079180634755,0.061124979128412804,0.03600723660872837, ,0.0032416791679544302, ,0.08132223934102077, ,2.6451553947499638e-05, ,0.1599069068936927,-0.24018471512125647,0.09095159527,1.6848586958981533,0.41510168628740807,-1.2948639597355713, ,0.018298677508382332,0.0007910142196972874,0.0033740333658123286,0.0007949798327896175,0.08177790987312074,0.06130787602544316, ,0.14288616180419922
0.009378213965201946,0.02032845560644336,-0.08078925630577216, ,0.009648765943725992,0.020278150733046965,-0.08099779776376488, ,0.000345280310867029, ,0.002091678784250175,0.0006478112921410278,-0.0028155051866377797,0.02213201915626624,-0.010141096111370132,-0.0038357514644639986, ,0.003566770116322603, ,0.024344775663301156, ,2.775421155059694e-05, ,0.16050155732500798,-0.24015382418975958,0.09102937267000001,1.6850683858416375,0.41605814178576617,-1.2948270976600407, ,0.021027463230328114,0.001252090070331601,0.0031448788785784798,0.00027681036444491213,0.011338395440502311,-0.023322539611147147, ,0.1698920726776123
0.009446588322639407,0.02035074324659579,-0.08088004144757542, ,0.009709286380247682,0.02029404086959017,-0.08107828045401201, ,0.00033395229105699246, ,0.0022859645206702943,0.0007586362644967764,-0.003092850289660058,0.005899084282661745,-0.019609381741627793,-0.009840608233937224, ,0.003920061949232855, ,0.02047747658721228, ,2.8537686211027814e-05, ,0.1611657123521913,-0.24012293325826267,0.09113048329000001,1.6852780757851225,0.4161947782855316,-1.2955102667447211, ,0.021592023107729414,0.0010563459635220605,0.003424814345302086,0.008467367137867953,0.0,-0.005832655208638832, ,0.2018721103668213
0.009515018373451211,0.020367939414037733,-0.08095687067058686, ,0.00976980985572918,0.02030969002377744,-0.08115868295811829, ,0.00033021188698435225, ,0.0022939978045906973,0.000547017958179833,-0.002268666342590025,-0.002634464407730959,-0.021536098060218913,-0.00640829134098975, ,0.003272384688272296, ,0.021696633893645092, ,2.9084454807053107e-05, ,0.1618298673793746,-0.24008431959389157,0.09121603843000001,1.6852780757851225,0.41605814178576617,-1.2954805275811654, ,0.023276169133792195,0.0011349215405450895,0.0025808184575502272,0.007255473639085673,0.0,0.0027486149416159756, ,0.22940301895141602
0.009582968125986278,0.02038622191486812,-0.08103021777968845, ,0.009830335847290124,0.020325099783764736,-0.08123900674394614, ,0.00032942303509237944, ,0.002282282168005792,0.0007055119622795848,-0.0028980907372126363,0.009484025054235222,-0.01070418083130821,-0.0009188331460833174, ,0.0037557274853794293, ,0.014301266317856973, ,2.9828003618359714e-05, ,0.1625480815366775,-0.24005342866239465,0.09130029728000001,1.6854877657286067,0.41646805128506253,-1.295733102552114, ,0.023145595502066043,0.0009480831021308101,0.003268118900287239,0.0014480498995281489,0.012591089508055577,-0.009595265209887939, ,0.25496721267700195
0.009632500106439908,0.0204029523580902,-0.08109810154492395, ,0.009890863834485097,0.02034027173356578,-0.08131925327132342, ,0.000345816082259987, ,0.002537872227931326,0.0009160682848448532,-0.0037739081022754592,0.009939236778217413,-0.010953257721757093,-0.0051775837826641274, ,0.004639219644748895, ,0.01479061464872846, ,3.0601644115307214e-05, ,0.16301144550913096,-0.240030260463772,0.0913754821,1.6856974556720912,0.41646805128506253,-1.295733102552114, ,0.024432786189101642,0.0012543355485547746,0.004193999873617694,0.005825260354187788,0.012591089508055577,-0.009662095234490315, ,0.2796311378479004
0.009709295498070012,0.02042938831253285,-0.08121262934988527, ,0.009951393299299836,0.0203552074530573,-0.0813994239920575, ,0.0003146527985210053, ,0.0024219407493367372,0.0006966726145962101,-0.0029956671193720357,0.0027267129265395587,-0.015510880061027422,-0.004729221179630697, ,0.003914737694317828, ,0.015748725770997656, ,3.096162578029107e-05, ,0.16375282786505652,-0.23998392406652663,0.09150251852,1.6856974556720912,0.4168779607843588,-1.2958223200427814, ,0.023982042344824556,0.0015095337649862323,0.003361217877189281,0.005825260354187788,0.007360531943839451,-0.00284578391099048, ,0.3080270290374756
0.009757275029282813,0.020443644063581453,-0.08127226143035372, ,0.01001192372614764,0.020369908517982843,-0.08147952034994915, ,0.0003365102513320261, ,0.002361305826762084,0.0006331352371502024,-0.002768679896121363,0.008372466104554529,-0.007627459391619727,-0.003610247016290688, ,0.0036935367607766425, ,0.011325913882774818, ,3.1451927638845364e-05, ,0.16423936003613265,-0.23995303313502975,0.0915699256,1.6859071456155759,0.4171512337838897,-1.2958001196297526, ,0.02456560744459508,0.0016626887083801157,0.0031504769620253163,0.005484420761717161,0.016251765743128053,-0.008220191431540354, ,0.33322715759277344
0.009827578345489606,0.020459372452980785,-0.08134628660691164, ,0.010072454601865774,0.02038437649995756,-0.08155954378080645, ,0.00033326775440217684, ,0.002358933013249313,0.0005883196388046916,-0.002833116465984285,-0.003779247005351061,-0.015365094450875276,-0.004080070976187398, ,0.0037332604875941955, ,0.01582304759612535, ,3.1847206423511255e-05, ,0.16496529692630976,-0.23989125127203595,0.09165418445000001,1.6861168355590603,0.4174245067834206,-1.2958595979568646, ,0.023385150704403838,0.002304234933766513,0.003171174899462473,0.006490766498998807,0.006694294646036976,0.0031539769504029844, ,0.3577840328216553
0.009896520911581526,0.02047895353590272,-0.08144184857363955, ,0.010132985415711754,0.020398612966472527,-0.08163949571245882, ,0.0003184877710264023, ,0.0022693482702879383,0.0005937943356037476,-0.0028600865185036254,-0.0005597664934907182,-0.0106475782732684,-0.0038542742923957482, ,0.0036990036737181192, ,0.010662282186344183, ,3.208149255009068e-05, ,0.16564489741924152,-0.23982174667616793,0.09176048023000001,1.6861168355590603,0.4178344162827169,-1.2958671367073915, ,0.022610660366564398,0.0023271686386350256,0.0032030588216368392,0.006490766498998807,0.010799417640690099,0.00011357031967846329, ,0.3908500671386719
0.009941227019994468,0.02048818917436563,-0.0814927755308377, ,0.010193515659359725,0.020412619480899334,-0.0817193775647714, ,0.0003474317456800061, ,0.002291606439991667,0.0004352591808702953,-0.0026691756467059425,-0.00900486391969974,-0.014877595942542237,-0.002525158766077186, ,0.003544772103155751, ,0.017390527165856016, ,3.248630849994716e-05, ,0.16609281592594652,-0.23975996481317413,0.09181751699000001,1.686326525502545,0.41797105278248237,-1.2956518396505257, ,0.022828227461744233,0.0035501652913463625,0.002970684729578516,0.005780232165409988,0.00677282366930294,0.007191916443814615, ,0.4168400764465332
0.01001256047861173,0.020505972350223934,-0.08158748145423048, ,0.010254044826896775,0.020426397602494234,-0.08179919074965868, ,0.00033085896801145236, ,0.0019563610349793083,0.0004537862072375433,-0.0027241985166178728,-0.017943927673825265,-0.0006224845234988701,0.007724072742752906, ,0.003384453867170797, ,0.017954721585015803, ,3.273619286041422e-05, ,0.16682647554899785,-0.2396595692858092,0.09192381277000002,1.6865362154460295,0.4186542352813096,-1.2956371779880238, ,0.01995309957074659,0.0033055227076600165,0.003032903945163747,0.0011819232163353857,0.019637431643660146,0.016941003786623512, ,0.44239211082458496
0.010046629735820004,0.020515537116548823,-0.08163555365685848, ,0.010314572414819326,0.02043994888640309,-0.08187893667109805, ,0.0003697866295395709, ,0.0024056035089075616,0.000655086646774837,-0.0034385457842271067,0.005543234269517213,-0.019851911991761936,-0.010847451142720873, ,0.004247312546431812, ,0.02061130406875585, ,3.340222425952692e-05, ,0.16715083032971528,-0.23961323288856387,0.09197696066000001,1.6867459053895137,0.418790871781075,-1.295585238411439, ,0.021860617728281684,0.0032599111588154806,0.003758568079282681,0.008661759035878961,0.0,-0.0076270079244227336, ,0.4647231101989746
0.010101394927534039,0.020532930977333136,-0.08172292351984886, ,0.01037509792202947,0.0204532748836654,-0.08195861672514432, ,0.0003698779656543695, ,0.0022899994719231213,0.0007125359010730424,-0.0036358916114404448,-0.0021448719275332182,0.0032724727089608534,-0.0015032960283963212, ,0.004355630012049823, ,0.003912742335115204, ,3.4006107621751354e-05, ,0.16769914436378522,-0.23954372829269585,0.09207418241000001,1.6867459053895137,0.4194740542799022,-1.295815612969359, ,0.022508762229238796,0.003335923403744877,0.004032610511392406,0.008057596382027797,0.024724202219454715,0.0020835360936667397, ,0.48709702491760254
0.01017544486681048,0.020555902510553066,-0.08183700651149674, ,0.010435620849831176,0.02046637714121906,-0.08203823229994425, ,0.0003408785001015747, ,0.002454289842042282,0.0007578138354869191,-0.0035686333066602877,-0.000988744979173119,-0.0072511136713596545,0.0025475870790211434, ,0.0043969266670496636, ,0.007318214640883672, ,3.439279098763655e-05, ,0.16839419032246544,-0.23945105549820514,0.09219992254,1.6869555953329984,0.4198839637791985,-1.295823151719886, ,0.023783694626183155,0.002312198374092816,0.003973263038164131,0.0014016699244728326,0.01678782128041542,0.0001998442107750461, ,0.5112130641937256
0.010228360091473107,0.02056909876846244,-0.08190281372882188, ,0.01049614070192689,0.020479257201904487,-0.08211778477574874, ,0.0003549514240475973, ,0.0024492611311386307,0.0005788450395489468,-0.0028699705949501247,0.010017964942757385,0.003271716145071772,-0.003957160394200035, ,0.003817155077304992, ,0.010538678661650603, ,3.482187214971453e-05, ,0.16891933615791271,-0.23938927363521134,0.09227381107,1.687165285276483,0.4201572367787294,-1.2958009513068571, ,0.026243623218603643,0.0028481508702762376,0.0032965255629139076,0.008492237936905945,0.028564403380223723,-0.009639651357400407, ,0.5330400466918945
0.01028356567051374,0.020579661227431288,-0.08196406470673312, ,0.010556656984413503,0.02049191660446906,-0.08219727552492832, ,0.00036968266162961836, ,0.0030080732589669195,0.0007498150956427225,-0.0037510270549070634,-0.010197365161002211,-0.02615037986583228,-0.0063907353771335, ,0.004866305721552061, ,0.028068284995908722, ,3.5291499389054237e-05, ,0.16946765019198265,-0.23931976903934332,0.09234251444000001,1.687165285276483,0.4202938732784948,-1.2957490117302723, ,0.02821794277682747,0.0032321448922935244,0.004160044794985636,0.008492237936905945,0.0,0.008708688190441724, ,0.5554690361022949
0.010328533196478026,0.020592111708540476,-0.08202958237263475, ,0.01061716920577901,0.020504356883571932,-0.08227670591198716, ,0.0003899765363102251, ,0.002633832492450682,0.0007639618376705246,-0.004061529416380825,0.03015121349142385,0.019709937926392234,-0.004962077964952197, ,0.004900686940402607, ,0.03602190065727288, ,3.582439315736013e-05, ,0.16993873689731034,-0.23925798717634952,0.09241640297,1.687165285276483,0.42097705577732203,-1.2961427437684734, ,0.027796409361004918,0.004284560027552428,0.0045772446896551735,0.008492237936905945,0.04733979160302848,-0.03051867980168851, ,0.5802040100097656
0.010429078430825956,0.02061181081995534,-0.08214193636422933, ,0.010677676876898618,0.020516579569788425,-0.08235607729357575, ,0.0003416526247805583, ,0.0030436411808203423,0.00038697507081048835,-0.0026313992957693348,-0.010591108267916427,-0.02953787557337236,-0.003694392754622527, ,0.004041999950122412, ,0.03137925537046078, ,3.608657163127288e-05, ,0.17091952397233684,-0.2391267007174877,0.09254214310000002,1.6873749752199676,0.4211136922770875,-1.2960908041918888, ,0.030820702032630976,0.004142430506439492,0.0030014719276427364,0.005212523174823247,0.0,0.007637266979517962, ,0.6027162075042725
0.010456583750456482,0.020616728119144903,-0.08217123195587113, ,0.010738179511031185,0.020528586189613986,-0.0824353910185061, ,0.00039603684486075644, ,0.0029295593391369295,0.0005321567236572976,-0.0030696803843862147,0.0026979198335484707,-0.018551336649181002,-0.0030938856882564416, ,0.004276499311626692, ,0.01874648934139238, ,3.6578976547835145e-05, ,0.1712129878215574,-0.23908036432024238,0.09257584664000001,1.687584665163452,0.42138696527661834,-1.2961502825190006, ,0.02959056487635509,0.0037091980230159975,0.003480946573426574,0.003939456447091992,0.010507560188169613,-0.00509336428816659, ,0.6248722076416016
0.010560455370728757,0.020638470643373583,-0.08229906814842478, ,0.010798676623815465,0.020540378265469367,-0.08251464842776526, ,0.0003359260883968791, ,0.0029034803177494825,0.0007330403058922773,-0.004096121570239418,-0.00880518664802346,-0.011652999051086844,-0.0019304930607359013, ,0.005074027785083751, ,0.014605605007601325, ,3.6770544140818316e-05, ,0.1722246658280808,-0.23892590966275787,0.09271843854,1.6877943551069365,0.42179687477591465,-1.2959944637892462, ,0.02745860577502048,0.004407857617183852,0.004531667573257468,0.0069709534269548614,0.014622542016245455,0.006958039464249182, ,0.6473631858825684
0.010613606322975106,0.0206541990958899,-0.08238230096886562, ,0.010859167733266381,0.02055195731570396,-0.08259385085452893, ,0.00033986341663084336, ,0.0025023681107073266,0.0007662077691361516,-0.004152901326732615,0.03314273078761675,0.03407978525273937,-0.0004686519561978726, ,0.004908717748714737, ,0.047538114873204765, ,3.712449095474585e-05, ,0.1727652571292765,-0.23884868233401563,0.09281177142000001,1.6877943551069365,0.42261669377450733,-1.2966629712114248, ,0.027230112355371816,0.004529094115495387,0.004705705028064994,0.0069709534269548614,0.06204530932696684,-0.03296058905933863, ,0.6682791709899902
0.010672299819646326,0.020667506009193506,-0.08245971508048852, ,0.010919652359771492,0.02056332485460174,-0.08267299962417549, ,0.00034282253230235877, ,0.0028715055555348194,0.0006494456367781795,-0.0038698682472088535,-0.006305853782127947,-0.014544233859697987,-0.0013280850852645846, ,0.004862427792919178, ,0.015852398229266144, ,3.747012051982559e-05, ,0.17331357116334645,-0.23875600953952494,0.09289732656000001,1.6880040450504212,0.42275333027427275,-1.2963659954144184, ,0.027175527364968723,0.004587311928311574,0.004283089948910998,0.004672601372071768,0.011920218962146758,0.003585090422570835, ,0.6877210140228271
0.010728457205489143,0.02068288320161591,-0.08254220353865796, ,0.0109801300260872,0.02057448239238462,-0.08275209605430085, ,0.00034517359718362313, ,0.0028181364161015115,0.0008230261435371789,-0.00425565239037714,0.009768233992661093,0.000987855995660827,-0.0009094602675436903, ,0.0051700911172266415, ,0.009818057517030469, ,3.7805678226484876e-05, ,0.17386188519741638,-0.2386787822107827,0.09298936315,1.6880040450504212,0.42329987627333454,-1.2966483095489232, ,0.027300616098524386,0.0038199518937669374,0.0047463681525625745,0.004672601372071768,0.02824420342582774,-0.011022520732920678, ,0.7079942226409912
0.010786946872494825,0.02069830568090732,-0.08262847787790545, ,0.011040600257335033,0.020585431435216645,-0.08283114145473092, ,0.00034373414196559797, ,0.002799127781295367,0.0007077355553775725,-0.004137457593195688,0.000961217019175132,-0.0015405917451105913,-0.0014891707332237727, ,0.005045251360225551, ,0.001815863395356001, ,3.811707347995024e-05, ,0.17438703103286365,-0.238586109416292,0.09308399232,1.6882137349939055,0.42343651277309996,-1.2965146912321979, ,0.026905852440734554,0.004829199443356293,0.004591758869991353,0.006393075329821181,0.024740012676649985,-0.002892862416479654, ,0.727668046951294
0.01081574750702461,0.020705627528718178,-0.0826681564038957, ,0.011101062580997943,0.02059617348520999,-0.08291013712753702, ,0.0003897942401968961, ,0.003030699603832495,0.0006573809298407567,-0.003924013958133473,-0.015349207361949122,-0.025156775471278786,-0.007025796353231715, ,0.005001517301701061, ,0.029469671152255558, ,3.858824101189371e-05, ,0.1746573266834615,-0.23853977301904666,0.09312806618000001,1.68842342493739,0.42357314927286543,-1.2965444303957536, ,0.02759434183148322,0.004794642960588532,0.004320263498779496,0.00994719425742866,0.0,0.012748897924942281, ,0.7468440532684326
0.01087356020485553,0.020718127317600234,-0.08274656212530539, ,0.011161516526916772,0.020606710040427523,-0.08298908436704888, ,0.0003926190148323299, ,0.0025593642057620365,0.0006098481204597473,-0.0035690640920041884,0.018018831926305465,0.015434406668865738,-0.0047041496130272725, ,0.004434013797971079, ,0.023725497099728977, ,3.9045335518420104e-05, ,0.17524425438190258,-0.23843937749168173,0.09321621390000001,1.68842342493739,0.4242563317716926,-1.2967748049536736, ,0.026807045637986096,0.0046173740288396135,0.0040490115709201835,0.00994719425742866,0.041467141746161375,-0.01842288840667486, ,0.7662630081176758
0.010934018967124643,0.02072932780757812,-0.0828236623008547, ,0.011221961627286274,0.02061704259488836,-0.08306798445986824, ,0.0003939698743746545, ,0.0030693493941464775,0.0004407997931844207,-0.003256949833155195,-0.002508226996556072,-0.02715324776629384,-0.010150374903763183, ,0.0044969914806132815, ,0.027268847914011875, ,3.9484071975677246e-05, ,0.1758234593474694,-0.2383312592314426,0.09330176904000001,1.68842342493739,0.4245296047712235,-1.296507568320223, ,0.02933444870431863,0.005398308821426972,0.003633396788321168,0.009275083019874227,0.0,-0.0012743682247081034, ,0.7853291034698486
0.010990332738135905,0.02073944227182594,-0.08289376217115396, ,0.011282397416651659,0.02062717263857228,-0.08314683868488426, ,0.00040243504915613926, ,0.002767282025444916,0.00047379133619368334,-0.0035755058754703595,0.027479432808371597,0.019960512001619073,-0.00014855320165789578, ,0.004546049967183134, ,0.03396382290396973, ,3.9931045540664475e-05, ,0.17642583251165891,-0.23821541823832923,0.09338084273000001,1.6886331148808746,0.4254860602695815,-1.2972874936460979, ,0.03002117733580221,0.006088003275868363,0.004090603882896764,0.004270934071148253,0.05104466845404127,-0.02997570293823404, ,0.8065710067749023
0.011055275465322438,0.02074976138291215,-0.08296955818326424, ,0.011342823431904743,0.020637101657423426,-0.08322564831328556, ,0.00040119596399658966, ,0.003355896757591256,0.0006039502792219131,-0.004313020980118429,-0.022135351629089643,-0.014650052766911925,-0.0014272913854844224, ,0.005498085936244127, ,0.026544261834232037, ,4.049219030022212e-05, ,0.17705137387447112,-0.23809185451234163,0.09346639787000001,1.6888428048243591,0.425622696769347,-1.296908839108951, ,0.031887413158088296,0.006687731377662541,0.0047819908495947165,0.009479314899830555,0.015410405695996391,0.018981681789232294, ,0.8228621482849121
0.011118985319655961,0.020764831907151244,-0.08306735598277125, ,0.011403239212280326,0.020646831133355595,-0.0833044146085762, ,0.00038848584292996605, ,0.0028111626725885225,0.0007735272336148337,-0.00474061857582445,0.06034032279937741,0.0633587546687993,-0.0014014905123596187, ,0.005565468932116205, ,0.08749449323425951, ,4.0987199487734477e-05, ,0.17771552890165443,-0.23796056805347982,0.09357658252,1.6888428048243591,0.42685242526723594,-1.2977482427619376, ,0.03256586875719657,0.006574935487697397,0.00544574752820513,0.009479314899830555,0.09749241744161914,-0.059998651256854885, ,0.8413701057434082
0.011151507259968435,0.020771256313826755,-0.08311378665591221, ,0.01146364429935239,0.020656362544256325,-0.08338313882658747, ,0.0004279961465819071, ,0.003341726586569712,0.000616488643822513,-0.004497447614008508,0.010349481899269826,0.005424494823759834,-0.004243465222125772, ,0.00563686347786602, ,0.011684901276273455, ,4.159410931991948e-05, ,0.17803988368237184,-0.2378910634576118,0.09362843412,1.6888428048243591,0.4272623347665323,-1.2978374602526053, ,0.03343796390361902,0.0072560215543042835,0.005040763139240507,0.00940121979085615,0.03806448507464364,-0.013507192539192307, ,0.8576412200927734
0.011206688740489242,0.020780411488710047,-0.08317763590986564, ,0.011524038237030522,0.020665697363991167,-0.08346182221549373, ,0.0004411710435551742, ,0.0038056573192016205,0.0006654755358033554,-0.00434294826906851,-0.03069290103916618,-0.033872789237628646,0.0003323488663837274, ,0.005812665910556945, ,0.04571017417809604, ,4.222027398539548e-05, ,0.1785650295178191,-0.2377906679302469,0.09369973007000001,1.6890524947678438,0.4273989712662977,-1.2974588057154581, ,0.03543575114207273,0.005903640017012495,0.004835704772313298,0.005871308836911929,0.0,0.02682569126873673, ,0.8752720355987549
0.011298835697260833,0.02079924847622731,-0.0833056574909917, ,0.011584420571556016,0.020674837062408177,-0.08354046601582509, ,0.000390092250178215, ,0.003444769615781248,0.0007998061356482717,-0.0048830633907781034,0.03416938033506582,0.007973640696502877,-0.003599941405008952, ,0.0060291322459196115, ,0.03508739796084969, ,4.2658641313170616e-05, ,0.17945314379835492,-0.2376053223412655,0.09384232197,1.6892621847113283,0.4282187902648904,-1.2976372406967933, ,0.03417246725188001,0.006057054364610457,0.00549080024819028,0.0036848762581450953,0.0430349412454749,-0.03758182170670111, ,0.8922650814056396
0.011342943742286846,0.020806793553314978,-0.08335971365662573, ,0.011644790851498367,0.020683783105342742,-0.08361907146048145, ,0.00041654497724800856, ,0.0037722353974928174,0.000572997327786954,-0.004471846175865419,0.0009502300161295561,-0.014011075515649587,-0.0007098741244005113, ,0.005878392131556975, ,0.014043260746725243, ,4.3163651153953585e-05, ,0.1798547259078146,-0.23752809501252325,0.09390195131000001,1.6892621847113283,0.4282187902648904,-1.2973922044763717, ,0.03685318118775564,0.007400736820391854,0.005015368866498741,0.0036848762581450953,0.022812399561250137,-0.006102378072271382, ,0.9130802154541016
0.011392919516768654,0.02081439130320142,-0.08341686896843842, ,0.011705148627751388,0.020692536954621525,-0.08369763977474715, ,0.00043722733867880705, ,0.0033872568952658497,0.0006533165172634931,-0.00454502780156665,0.04158695351151368,0.015659428443947934,-0.007423206366256022, ,0.005705927572557254, ,0.04443751117716267, ,4.37137913754199e-05, ,0.18085868118146378,-0.23732730395779342,0.09403417289,1.6894718746548125,0.42917524576324845,-1.297927093581825, ,0.034786268899732686,0.006996931447120809,0.005153287453898416,0.007535303755656925,0.050749464744988426,-0.044923048367948575, ,0.9297280311584473
0.011477456973472388,0.02082818318081822,-0.08352280740038902, ,0.011765493453529532,0.020701100068067038,-0.08377617217630426, ,0.0004041148859728127, ,0.003590124781214958,0.000591653163335304,-0.004340817797371224,0.02231393681863993,-0.0033268322069232603,-0.006814859528251639, ,0.005664075260830596, ,0.022560575953155117, ,4.414358573214806e-05, ,0.18119848142792966,-0.2372577993619254,0.09408602449,1.6894718746548125,0.42944851876277934,-1.2980682506490773, ,0.03572927016508689,0.006993221794582893,0.00490570111487527,0.00700876911209971,0.032051412673062635,-0.02649408308750071, ,0.9460949897766113
0.011561504080017266,0.020840503523327156,-0.08362384306892168, ,0.011825824884364204,0.020709473899502076,-0.08385466987524647, ,0.00037458679160970893, ,0.003619535337819761,0.0007014272304169399,-0.004975311183386444,0.015329269000847296,-0.018010619264542834,-0.00370947722877716, ,0.006192475885526451, ,0.023650980769178553, ,4.447014905719812e-05, ,0.182001645646849,-0.23708017650581822,0.09419880172,1.6896815645982974,0.42985842826207565,-1.2982391468798853, ,0.03304211057049818,0.007023099346619903,0.005492693627586208,0.0007319295759064611,0.01555145196131219,-0.021696262157756947, ,0.9654481410980225
0.011594777136556546,0.020848575321312738,-0.08367048910973206, ,0.011886142478100117,0.020717659898754546,-0.08393313407409356, ,0.0004135395838621079, ,0.003252925313218535,0.0006572906068952789,-0.004359914601449094,0.023231084577634956,0.018216217935210093,-0.005265048486936827, ,0.005479270879160811, ,0.02952141400646151, ,4.50308201380665e-05, ,0.18234144589331489,-0.23701839464282443,0.09425194961000001,1.6898912545417817,0.43040497426113744,-1.2986031397545306, ,0.033449750284973837,0.006535652093570691,0.004963792932377689,0.010920189392135063,0.051053891185230155,-0.024780494108539074, ,0.9793272018432617
0.011668478626812794,0.020862648559409155,-0.08377464866914483, ,0.011946445794891302,0.020725659511661162,-0.08401156596780464, ,0.00039007890501377863, ,0.003926790559217407,0.0008778818709574059,-0.005595652250665433,-0.021130137758872018,-0.019893258722346888,-0.0037418632893210387, ,0.006892146602161895, ,0.0290211036802043, ,4.5507481422238313e-05, ,0.1830287691191209,-0.23686393998533994,0.09436731942000001,1.6898912545417817,0.4309515202601992,-1.2986404176686133, ,0.03482456570953056,0.007207873978569497,0.006166787270615564,0.010642309913750035,0.012757254967220426,0.01747645513824312, ,0.9938070774078369
0.011705147621842542,0.02087047703228114,-0.08382721288432202, ,0.01200673439719773,0.02073347418007252,-0.08408996674379232, ,0.0004228048666335076, ,0.0038427129087800645,0.0008094995738875761,-0.005487929387013054,-0.020901864433769672,-0.009557473151084421,-0.00035059351580945836, ,0.0067482665193567, ,0.022983324930556204, ,4.606379897073494e-05, ,0.18336856936558676,-0.23679443538947192,0.09442565247000001,1.6898912545417817,0.43122479325973007,-1.2986998959957252, ,0.035120999836591706,0.007729321569222903,0.006075061601830665,0.00991684503979237,0.023950580673469623,0.017440495453521276, ,1.0083670616149902
0.01174006726779503,0.020877623880056803,-0.08388140628680689, ,0.012067007849781276,0.020741105341857163,-0.08416833758193705, ,0.0004559133947875874, ,0.00348569001211942,0.0007120492668193402,-0.005487606301911726,0.05281482103524593,0.033058380586516924,-0.008063165285630771, ,0.006539944337970189, ,0.062307799214959124, ,4.669749110538076e-05, ,0.18372381507780108,-0.23670948532785543,0.09448657810000001,1.6898912545417817,0.43190797575855727,-1.2990119492937855, ,0.035290792695600884,0.009108836767566792,0.0061596332250580055,0.009268667806501592,0.06895663448779282,-0.056966335011166304, ,1.0219221115112305
0.011818351569691549,0.020894118378052003,-0.08399818625883768, ,0.012127265719702147,0.02074855443090587,-0.08424667965460023, ,0.00042233373358415983, ,0.004272692631720915,0.0009528541495405883,-0.0063986912536622914,-0.040731533290767806,-0.03474417317390174,0.00452120303287652, ,0.007752875796448259, ,0.053537046640887424, ,4.722061098919587e-05, ,0.18441886103648128,-0.2365395852046225,0.09461491081000001,1.6901009444852664,0.43231788525785353,-1.298937809304172, ,0.035702385838401345,0.00815024590935489,0.0069649372627896815,0.0030776216892489773,0.0,0.03445364200535058, ,1.0391960144042969
0.011892254358153996,0.020906875458301798,-0.0841032358243187, ,0.012187507576315204,0.02075582287713675,-0.0843249941266386, ,0.000398958756964904, ,0.0036076538277098583,0.0005775829430182351,-0.0054260200417399025,-0.005431990018209848,0.019710525666876477,0.00942701930649953, ,0.006541441866287454, ,0.02044532545398046, ,4.766557192367381e-05, ,0.1851525206595326,-0.23635423961564112,0.09473287320000001,1.6903106344287508,0.4334109772559771,-1.299502437573181, ,0.03753834713547103,0.009700172680130697,0.004502207891464105,0.007230816643058267,0.06573309646218238,-0.033193355375956454, ,1.0530061721801758
0.01192968144139304,0.02090834576494126,-0.08414324105435209, ,0.012247732991266132,0.020762912106499224,-0.08440328215541845, ,0.0004358085722290462, ,0.003926779959490268,0.00019142258824206369,-0.0042894068333373435,-0.0333176078810507,-0.012785682477106968,0.004021304157237683, ,0.005818526827249727, ,0.035686645539596266, ,4.8197864949578594e-05, ,0.18553865730324384,-0.236246121355402,0.09477824335000001,1.6903106344287508,0.43382088675527347,-1.2995099763237081, ,0.038482133640904616,0.011296833008478675,0.0047949462733293206,0.007230816643058267,0.02468237934742593,0.026251613038645517, ,1.0667760372161865
0.011973099712699407,0.02091121508658219,-0.08419464835826887, ,0.012307941538487611,0.020769823540978137,-0.08448154489082844, ,0.0004630553291564497, ,0.004226191864744805,0.0003816998622691467,-0.00491957901921215,-0.01704544401409241,-0.01883378086796853,-0.0014102440952431245, ,0.006496818466662267, ,0.025401938125634748, ,4.8788466025133266e-05, ,0.18592479394695507,-0.2361302803622886,0.09483009495000001,1.6903106344287508,0.4340941597548043,-1.299487775910679, ,0.03988942478287969,0.011243101189541607,0.005383173883068606,0.007230816643058267,0.02020296472104543,0.004503377546109893, ,1.0859131813049316
0.012050461694976061,0.020922311954648096,-0.08429595736420377, ,0.012368132794195874,0.020776558598598886,-0.08455978347529503, ,0.0004379077356848903, ,0.004004386802330879,0.0004997453230951444,-0.005634450053397685,0.002812868605811033,0.004164135003377433,-0.002227822927747396, ,0.006930504054891705, ,0.005025161135833973, ,4.942729200298683e-05, ,0.1867202354330002,-0.23592948930755878,0.09494935363000001,1.6905203243722353,0.4350506152531624,-1.2997776287957108, ,0.03792843387628728,0.011652312406420144,0.006236809522317934,0.008250809133433672,0.04167672894405848,-0.010023693079519204, ,1.0970170497894287
0.012092679320349131,0.020925800361868148,-0.08434733528911675, ,0.012428306336886602,0.020783118693431312,-0.08463799904379493, ,0.00046635712819831403, ,0.004396928433195737,0.00033853519046199285,-0.005080368368215598,-0.028892940031400614,-0.025016117902305207,-0.0005225452959101032, ,0.00672738645230017, ,0.038217903333068806, ,5.012689606597216e-05, ,0.18712181754245988,-0.2358136483144454,0.09500639039000001,1.6905203243722353,0.4353238882526933,-1.299755428382682, ,0.04100991424307294,0.011808977296972471,0.005626567121158602,0.007637008388684824,0.014575723001071106,0.020458546293048486, ,1.107755184173584
0.0121391698918625,0.020929828705931037,-0.08440333770475353, ,0.012488461747331571,0.020789505235594346,-0.08471619272386993, ,0.0004894627050252996, ,0.004592420352941872,0.0005643367809492493,-0.006085145880389477,-0.012084556390012659,-0.014016943664857878,-0.0012098559311804888, ,0.0076444621188196055, ,0.018507058234726727, ,5.087162575865621e-05, ,0.18756201331629066,-0.2356900845884578,0.09506861231000001,1.6905203243722353,0.43559716125222414,-1.2997332279696532, ,0.042251532305641486,0.012127404672009044,0.006721017518987343,0.007084394538165777,0.027507793703051904,0.0036175687229694567, ,1.1193091869354248
0.01219879407356911,0.02094122441295873,-0.08449354370281144, ,0.012548598608574584,0.020795719631260444,-0.08479436563564047, ,0.0004837651180877505, ,0.004423654142265861,0.0008970530591471084,-0.006826490377854911,0.041978128982741184,0.03714357742607977,-0.0046768204201572865, ,0.008183788306173174, ,0.05605183888218197, ,5.1586622225628474e-05, ,0.1881412182818575,-0.2355279071980991,0.09516972293,1.6909397042592043,0.43655361675058224,-1.300349795815247, ,0.04373130947394967,0.011053313159670517,0.007680236991321119,0.011394063233875198,0.08135410144097077,-0.046311021570820204, ,1.1343750953674316
0.012246395133716113,0.02095095093457272,-0.08456360205754032, ,0.012608716505927958,0.020801763282659997,-0.08487251889181954, ,0.0004989622658536439, ,0.004912746720040304,0.0008480051022087754,-0.006951990186047704,-0.023550379470872327,-0.026458572156984408,-0.007441092695288585, ,0.008554785826398138, ,0.03542141156941577, ,5.232555095530304e-05, ,0.18855824585706563,-0.23541978893785995,0.09524490775000001,1.6911493942026892,0.43696352624987855,-1.300357334565774, ,0.04242152058939239,0.011486688533859831,0.007654402460355599,0.01342859179537687,0.01320898064762527,0.01626338487598163, ,1.145348072052002
0.012294160894323485,0.020958106692047763,-0.08463035269985204, ,0.012668815026968563,0.020807637588085622,-0.08495065359772647, ,0.0005153633044119136, ,0.004819134792885809,0.0005574080096783683,-0.006869526040239096,-0.0347179779171004,-0.03554035147087291,0.021644979412650617, ,0.008409824722238817, ,0.049683544137143404, ,5.309070370677979e-05, ,0.18897527343227374,-0.23529622521187235,0.09532009257000001,1.6913590841461734,0.43696352624987855,-1.3001122983453524, ,0.041349429872972014,0.013069403878043076,0.007450332797006549,-0.01711455591799726,0.00999752543108162,0.02019726533956772, ,1.1561059951782227
0.012340520473952466,0.020964794450629574,-0.08469726574428255, ,0.012728893761534363,0.020813343941896784,-0.08502877085130124, ,0.0005326037017164525, ,0.004977790416998925,0.0006869782813994485,-0.006824017214371097,-0.03180017435169864,-0.025278906095195033,0.025226548462329263, ,0.008474523440094667, ,0.040623566650039536, ,5.3883379169377156e-05, ,0.1894000237403561,-0.23517266148588478,0.09539398110000001,1.6913590841461734,0.43737343574917487,-1.3002015158360198, ,0.04453164784536405,0.011705223568782966,0.007510047864214994,-0.01711455591799726,0.02392573813866195,0.01963135245629716, ,1.1674211025238037
0.012439088221410415,0.020982276433169158,-0.08485043324924012, ,0.012788952301720431,0.02081888373452416,-0.08510687174311783, ,0.0004635329004546912, ,0.005552019800903536,0.0009449746267253126,-0.00828329236596579,-0.044552075707125716,-0.015381168566791344,0.0320975270325152, ,0.01001652800798993, ,0.047132449090811844, ,5.449122079628202e-05, ,0.19034991988388572,-0.23491008856816115,0.09556509138000001,1.6913590841461734,0.43901307374636017,-1.3009667794993929, ,0.049143936591647217,0.013010274411635697,0.009112592402745997,-0.01711455591799726,0.038861341780410286,0.03264837519137014, ,1.179049015045166
0.012497565086170725,0.020992749606710256,-0.08493577924432293, ,0.012848990241875313,0.02082425835247432,-0.08518495735639887, ,0.00046257828997233163, ,0.00560952013085712,0.0008551368510964835,-0.008072226222534918,-0.0462156749347286,-0.044397642526907005,0.02379661390468476, ,0.009867056872258051, ,0.06408618601028913, ,5.5218969281886605e-05, ,0.19034991988388572,-0.23491008856816115,0.09556509138000001,1.6913590841461734,0.43901307374636017,-1.3009667794993929, ,0.049143936591647217,0.013010274411635697,0.009112592402745997,-0.01711455591799726,0.038861341780410286,0.03264837519137014, ,1.1876320838928223
0.012497565086170725,0.020992749606710256,-0.08493577924432293, ,0.012909007178597252,0.020829469178333164,-0.08526302876702825, ,0.0005504882776428469, ,0.00560952013085712,0.0008551368510964835,-0.008072226222534918,-0.0462156749347286,-0.044397642526907005,0.02379661390468476, ,0.009867056872258051, ,0.06408618601028913, ,5.61485136533774e-05, ,0.19084417478783608,-0.23477880210929933,0.09565842426000001,1.6913590841461734,0.4391497102461256,-1.3006698037023865, ,0.04709525635656118,0.013119997450362336,0.008785886111417542,-0.01711455591799726,0.0066884234281726004,0.03177023493786655, ,1.1958301067352295
0.012552707208941827,0.021000511461820807,-0.08501806996102527, ,0.012969002710730378,0.020834517590771588,-0.08534108704356641, ,0.0005524454232308133, ,0.005675279098089945,0.0009051901326404169,-0.008235166952034564,-0.03532581398861264,-0.0054769243270845055,0.004178333329174303, ,0.010042217720470339, ,0.035747864218255765, ,5.706937668040541e-05, ,0.1913461524246607,-0.23463207018468904,0.09574916456000002,1.6911493942026892,0.4396962562451874,-1.3006254028763289, ,0.05077417953904269,0.014628787044623214,0.009096979737292977,0.011630741599393663,0.043922702196604844,0.0273072391003317, ,1.2060410976409912
0.01258369717487824,0.021005603180899834,-0.08506548774573676, ,0.013028976439361134,0.020839404964549346,-0.08541913324726359, ,0.0005924192866937035, ,0.004972176153691125,0.0007719893814914559,-0.00787359906939009,0.08097443181350607,0.0713342670986546,-0.00512617464619518, ,0.00934409255165908, ,0.10791402244269514, ,5.807226038672086e-05, ,0.19164733900675543,-0.23454712012307258,0.09580231245000001,1.6911493942026892,0.4402428022442491,-1.3008260382706929, ,0.05118497387188284,0.015659561313279006,0.008903751548351036,0.010798914556610136,0.12488964595374584,-0.0881637911907772, ,1.2145781517028809
0.012645011731583743,0.021014685624748564,-0.0851547728282187, ,0.013088927967814428,0.02084413267051949,-0.08549716843207344, ,0.000585990345077915, ,0.005597661451008683,0.0007567520441028422,-0.007360880856922847,0.024520734394033194,0.02378025221828414,0.004005911281673083, ,0.009278418742769466, ,0.03415796816524982, ,5.9045720348701364e-05, ,0.19226515763669338,-0.23436949726696543,0.09590342307000001,1.6913590841461734,0.4414725307421381,-1.301420405703258, ,0.05517264044097138,0.014015203302092862,0.00834406051335778,0.005197088886750999,0.08073564649406201,-0.0324650806726693, ,1.223452091217041
0.0127237881661506,0.021026461004344285,-0.08525808317614951, ,0.01314885690164978,0.020848702075632785,-0.0855751936446676, ,0.0005593216569017306, ,0.006676605376497558,0.0008592763618733584,-0.008848447972135132,-0.04324750697366979,-0.04487381648439783,-0.004288698577181699, ,0.011118023508480845, ,0.06232179563420052, ,5.9942867052587805e-05, ,0.19298337179399627,-0.23417642894510982,0.09601879288000001,1.6917784640331426,0.44201907674119983,-1.3014576836173408, ,0.05723579104853485,0.01671309291272821,0.00970677118829982,0.012110295195816773,0.009672994613516872,0.03089488178880618, ,1.2315411567687988
0.012790062506984832,0.021034089998755154,-0.08534502494333975, ,0.013208762848657726,0.020853114542942145,-0.08565320992444875, ,0.0005504907576925164, ,0.006761814510441928,0.0008123086606685706,-0.00849042563719494,-0.05060084921207066,-0.03482205388827073,0.0013965438387961472, ,0.010884360722364785, ,0.06142492436999124, ,6.080688140348467e-05, ,0.19357029949243734,-0.23400652882187686,0.09611471834000002,1.6917784640331426,0.44229234974073073,-1.3013538044641715, ,0.06013747880764941,0.016443760450263523,0.00941419120567376,0.012110295195816773,0.02302566806871557,0.039816684286984205, ,1.2397119998931885
0.012847261168386918,0.02104100820719991,-0.08541983222329896, ,0.013268645418855973,0.020857371431607073,-0.08573121830356564, ,0.0005552012633967511, ,0.006170247422357382,0.0008427793846471449,-0.008424731090428536,0.05914056387880326,0.0399548396750084,-0.0070414892716817645, ,0.010476560709046042, ,0.07137223176360649, ,6.166979950345295e-05, ,0.19411861352650728,-0.2338597968972666,0.09619897719,1.6917784640331426,0.44297553223955793,-1.3016658577622318, ,0.060909461847542215,0.01649520972683309,0.009555375836832634,0.012110295195816773,0.10201780853055317,-0.06785134271751003, ,1.2507481575012207
0.012917833259638762,0.021049310282841308,-0.08551600891004216, ,0.013328504224485751,0.020861474096898334,-0.08580921980692592, ,0.0005384289221144618, ,0.006651395221925751,0.0008488002202927835,-0.008973956782470146,-0.0016949807531002846,-0.0013962648913667121,-0.0027361421431358044, ,0.011202384591945936, ,0.0021960093808227016, ,6.248225817840491e-05, ,0.1947827685536906,-0.233666728575411,0.09630656926000002,1.6917784640331426,0.44379535123815056,-1.3020076502238482, ,0.060909461847542215,0.017560499918295853,0.010005534874371861,0.012110295195816773,0.05878572632731064,-0.00922813347196033, ,1.2589621543884277
0.012917833259638762,0.021049310282841308,-0.08551600891004216, ,0.013388338880007858,0.020865423890201542,-0.08588721545220984, ,0.0006268843921689732, ,0.006651395221925751,0.0008488002202927835,-0.008973956782470146,-0.0016949807531002846,-0.0013962648913667121,-0.0027361421431358044, ,0.011202384591945936, ,0.0021960093808227016, ,6.363081624662496e-05, ,0.1947827685536906,-0.233666728575411,0.09630656926000002,1.6917784640331426,0.44379535123815056,-1.3020076502238482, ,0.060909461847542215,0.017560499918295853,0.010005534874371861,0.012110295195816773,0.05878572632731064,-0.00922813347196033, ,1.2644221782684326
0.012981144394941265,0.02105661928504719,-0.08559882355512521, ,0.013448149002099211,0.020869222159023152,-0.08596520624988589, ,0.000622452620661936, ,0.007477792571157262,0.000846954409622401,-0.009422437294451545,-0.014323738051672563,-0.03783929999255497,-0.008576901093636706, ,0.012058898709131979, ,0.040459634469789944, ,6.475881394177003e-05, ,0.1953542507863832,-0.23350455118505228,0.09639860585000001,1.6917784640331426,0.44420526073744687,-1.3020151889743752, ,0.06608422114099637,0.018698904740585377,0.010445122308196723,0.012110295195816773,0.026343530295935776,0.0002193623530234931, ,1.270085096359253
0.012981144394941265,0.02105661928504719,-0.08559882355512521, ,0.013507934209648733,0.020872870246992702,-0.08604319320322268, ,0.000713257037831203, ,0.007477792571157262,0.000846954409622401,-0.009422437294451545,-0.014323738051672563,-0.03783929999255497,-0.008576901093636706, ,0.012058898709131979, ,0.040459634469789944, ,6.608248607317063e-05, ,0.1953542507863832,-0.23350455118505228,0.09639860585000001,1.6917784640331426,0.44420526073744687,-1.3020151889743752, ,0.06608422114099637,0.018698904740585377,0.010445122308196723,0.012110295195816773,0.026343530295935776,0.0002193623530234931, ,1.2756600379943848
0.013066586193162505,0.021067080764008025,-0.08571419538846033, ,0.013567694123753853,0.020876369493869593,-0.08612117730830368, ,0.0006731376008950473, ,0.007696841991985723,0.0010933158661539043,-0.011275832901309582,0.010531506919545198,0.01454390763848278,0.002383167169010049, ,0.013696025841499945, ,0.01795655047918196, ,6.73036432486756e-05, ,0.19612652407380565,-0.23327286919882553,0.09652693856000001,1.691988153976627,0.44488844323627413,-1.302000527311873, ,0.06977716291064028,0.02126780402475813,0.012532503162863888,0.008773336430039419,0.08537700367172164,-0.024262476083487187, ,1.281191110610962
0.013066586193162505,0.021067080764008025,-0.08571419538846033, ,0.013627428367716708,0.020879721235545514,-0.08619915955404137, ,0.0007647468728684649, ,0.007696841991985723,0.0010933158661539043,-0.011275832901309582,0.010531506919545198,0.01454390763848278,0.002383167169010049, ,0.013696025841499945, ,0.01795655047918196, ,6.871968726299271e-05, ,0.19612652407380565,-0.23327286919882553,0.09652693856000001,1.691988153976627,0.44488844323627413,-1.302000527311873, ,0.06977716291064028,0.02126780402475813,0.012532503162863888,0.008773336430039419,0.08537700367172164,-0.024262476083487187, ,1.2868390083312988
0.013143484468717192,0.02107908724040003,-0.08583245454780104, ,0.013687136567040238,0.020882926804050305,-0.0862771409221906, ,0.0007292341821168958, ,0.00833399003442588,0.0014672191596727074,-0.013199559413497312,0.06505782676725129,0.05030969699529959,-0.007657151671415207, ,0.015679173787762735, ,0.08224102403762362, ,7.004361300704396e-05, ,0.19684473823110854,-0.23304890994547303,0.09665916014,1.6921978439201113,0.44611817173416307,-1.3026765734845789, ,0.07640655520005699,0.023038830191422863,0.014721637264325326,0.015305029193158275,0.1280800109728331,-0.07798153068436202, ,1.29270601272583
0.013233772617764372,0.021096712390744655,-0.08597334330100109, ,0.013746818349424691,0.020885987527555355,-0.08635512238736279, ,0.0006733321331439572, ,0.00833399003442588,0.0014672191596727074,-0.013199559413497312,0.06505782676725129,0.05030969699529959,-0.007657151671415207, ,0.015679173787762735, ,0.08224102403762362, ,7.123124086256707e-05, ,0.19684473823110854,-0.23304890994547303,0.09665916014,1.6921978439201113,0.44611817173416307,-1.3026765734845789, ,0.07640655520005699,0.023038830191422863,0.014721637264325326,0.015305029193158275,0.1280800109728331,-0.07798153068436202, ,1.2984850406646729
0.013233772617764372,0.021096712390744655,-0.08597334330100109, ,0.013806473344763578,0.02088890473037876,-0.08643310491703954, ,0.000763250214539406, ,0.00870693023322397,0.0017273604256479271,-0.013750281038043983,0.0005752706714855759,0.015225744685469297,0.003978863431389171, ,0.01636657070835293, ,0.015236592336664077, ,7.260771033665636e-05, ,0.1976479024500279,-0.23282495069212053,0.09681601123000001,1.6924075338635962,0.4472112637322866,-1.3030778442733069, ,0.07567539199240093,0.021172900838570007,0.015242881837320576,0.011764165311911044,0.0913945539806426,-0.012772152529926882, ,1.3041131496429443
0.013324012011594263,0.021112783692836305,-0.08611557078634025, ,0.01386610118514004,0.020891679732989235,-0.08651108947158695, ,0.0007065286006347361, ,0.009634832986443641,0.001693365280831654,-0.015145546469118499,0.01628362743851741,0.002057449502803589,-0.002726219953436163, ,0.01803011565407212, ,0.01641306869767657, ,7.384681227917606e-05, ,0.19842017573745033,-0.23259326870589378,0.09697286232,1.6924075338635962,0.44803108273087927,-1.3030929217743608, ,0.08209077989487092,0.02527215487575786,0.016696867421383647,0.010399532601132118,0.08486874931185369,-0.033983579274700595, ,1.3096530437469482
0.013324012011594263,0.021112783692836305,-0.08611557078634025, ,0.013925701504823177,0.020894313852010918,-0.08658907700426884, ,0.0007962207332325468, ,0.009634832986443641,0.001693365280831654,-0.015145546469118499,0.01628362743851741,0.002057449502803589,-0.002726219953436163, ,0.01803011565407212, ,0.01641306869767657, ,7.527214658395451e-05, ,0.19842017573745033,-0.23259326870589378,0.09697286232,1.6924075338635962,0.44803108273087927,-1.3030929217743608, ,0.08209077989487092,0.02527215487575786,0.016696867421383647,0.010399532601132118,0.08486874931185369,-0.033983579274700595, ,1.3152141571044922
0.013419903534363767,0.02112901320392331,-0.0862719778672775, ,0.013985273940264092,0.020896808400227635,-0.08666706846126142, ,0.0007277769879446659, ,0.009842089960058661,0.0016488318993342858,-0.01611638938350744,0.01794085933938491,0.02632863411523247,0.003759441259419341, ,0.01895582728806583, ,0.03186016825027749, ,7.653523781978985e-05, ,0.19924650815499234,-0.23232297305529592,0.09714526889000001,1.6924075338635962,0.44912417472900273,-1.3033308350828077, ,0.08450306461128297,0.028454855040021224,0.017757872374581943,0.009313268176966268,0.11276362637353106,-0.03702328248399235, ,1.3215320110321045
0.013419903534363767,0.02112901320392331,-0.0862719778672775, ,0.014044818130092321,0.02089916468658698,-0.08674506478166646, ,0.0008167985194908005, ,0.009842089960058661,0.0016488318993342858,-0.01611638938350744,0.01794085933938491,0.02632863411523247,0.003759441259419341, ,0.01895582728806583, ,0.03186016825027749, ,7.79812684164156e-05, ,0.19924650815499234,-0.23232297305529592,0.09714526889000001,1.6924075338635962,0.44912417472900273,-1.3033308350828077, ,0.08450306461128297,0.028454855040021224,0.017757872374581943,0.009313268176966268,0.11276362637353106,-0.03702328248399235, ,1.3272311687469482
0.013419903534363767,0.02112901320392331,-0.0862719778672775, ,0.01410433371511195,0.02090138401620577,-0.08682306689752592, ,0.0009077217848438371, ,0.01019190862879235,0.001558794116275897,-0.015175933714541704,-0.025688092547094248,-0.001293279415457221,0.010400384576647973, ,0.01834703803622677, ,0.025720611683809652, ,7.978505214777955e-05, ,0.19924650815499234,-0.23232297305529592,0.09714526889000001,1.6924075338635962,0.44912417472900273,-1.3033308350828077, ,0.08450306461128297,0.028454855040021224,0.017757872374581943,0.009313268176966268,0.11276362637353106,-0.03702328248399235, ,1.3302490711212158
0.013523228571599101,0.02114588698271,-0.0864364292554951, ,0.014163820338297816,0.020903467690372896,-0.08690107573383452, ,0.0008276601202743893, ,0.01019190862879235,0.001558794116275897,-0.015175933714541704,-0.025688092547094248,-0.001293279415457221,0.010400384576647973, ,0.01834703803622677, ,0.025720611683809652, ,8.140734079881342e-05, ,0.20013462243552818,-0.23203723193894962,0.09732674949,1.6924075338635962,0.4502172667271263,-1.3036504271313953, ,0.08786753848006552,0.026799475164775707,0.016802543797468355,0.008394479908485053,0.08757198463038983,0.007756160899101836, ,1.3333191871643066
0.013523228571599101,0.02114588698271,-0.0864364292554951, ,0.014223277644791893,0.02090541700655523,-0.08697909220855526, ,0.0009178113068239748, ,0.01019190862879235,0.001558794116275897,-0.015175933714541704,-0.025688092547094248,-0.001293279415457221,0.010400384576647973, ,0.01834703803622677, ,0.025720611683809652, ,8.321773899367307e-05, ,0.20013462243552818,-0.23203723193894962,0.09732674949,1.6924075338635962,0.4502172667271263,-1.3036504271313953, ,0.08786753848006552,0.026799475164775707,0.016802543797468355,0.008394479908485053,0.08757198463038983,0.007756160899101836, ,1.336327075958252
0.013543216768811914,0.02114862075894135,-0.08646583342509409, ,0.014282705281899385,0.02090723325840103,-0.08705711723263207, ,0.0009771016976047235, ,0.010462286679928462,0.0014796323813110602,-0.015028271426168825,-0.02727423224874556,-0.01847199233421463,0.006528068805792284, ,0.01837111038057948, ,0.03294081782523873, ,8.514837389348096e-05, ,0.2003045225587611,-0.23198317280883005,0.09735915674000001,1.6924075338635962,0.4503539032268917,-1.3035984875548103, ,0.08969465175658865,0.027206691960570746,0.016627151899791234,0.008239611468339679,0.07171679400636884,0.007747350814525843, ,1.339142084121704
0.013543216768811914,0.02114862075894135,-0.08646583342509409, ,0.014342102899085045,0.020908917735745183,-0.08713515171000469, ,0.0010694220658784932, ,0.010462286679928462,0.0014796323813110602,-0.015028271426168825,-0.02727423224874556,-0.01847199233421463,0.006528068805792284, ,0.01837111038057948, ,0.03294081782523873, ,0.0004763896373948256, ,0.2003045225587611,-0.23198317280883005,0.09735915674000001,1.6924075338635962,0.4503539032268917,-1.3035984875548103, ,0.08969465175658865,0.027206691960570746,0.016627151899791234,0.008239611468339679,0.07171679400636884,0.007747350814525843, ,1.341858148574829
0.013543216768811914,0.02114862075894135,-0.08646583342509409, ,0.014401470147969291,0.02091047172461283,-0.08721319653762097, ,0.0011626974874628935, ,0.010462286679928462,0.0014796323813110602,-0.015028271426168825,-0.02727423224874556,-0.01847199233421463,0.006528068805792284, ,0.01837111038057948, ,0.03294081782523873, ,0.00048436996123282636, ,0.2003045225587611,-0.23198317280883005,0.09735915674000001,1.6924075338635962,0.4503539032268917,-1.3035984875548103, ,0.08969465175658865,0.027206691960570746,0.016627151899791234,0.008239611468339679,0.07171679400636884,0.007747350814525843, ,1.34462308883667
0.013543216768811914,0.02114862075894135,-0.08646583342509409, ,0.014460806682324677,0.02091189650722436,-0.08729125260545273, ,0.0012567125542602244, ,0.010462286679928462,0.0014796323813110602,-0.015028271426168825,-0.02727423224874556,-0.01847199233421463,0.006528068805792284, ,0.01837111038057948, ,0.03294081782523873, ,0.0004932474623021068, ,0.2003045225587611,-0.23198317280883005,0.09735915674000001,1.6924075338635962,0.4503539032268917,-1.3035984875548103, ,0.08969465175658865,0.027206691960570746,0.016627151899791234,0.008239611468339679,0.07171679400636884,0.007747350814525843, ,1.3473281860351562
0.01373964758404925,0.02116831971646421,-0.08673077249989322, ,0.014520112158071849,0.020913193361999562,-0.08736932079650826, ,0.0010401722622511457, ,0.012271984647999236,0.0009352399139424818,-0.016565630196436552,0.0015909132081381632,-0.003183947783541842,-0.0019130962433042563, ,0.020637257199115647, ,0.0035591123649423373, ,0.0004994625168469822, ,0.20199580105821627,-0.23141169057613745,0.09765211828,1.6930366036940496,0.45144699522501525,-1.303509685902695, ,0.10895171246667139,0.038095921942380886,0.018393546789838337,0.013552008892484166,0.1064692831341649,-0.029434671974507103, ,1.3500890731811523
0.01373964758404925,0.02116831971646421,-0.08673077249989322, ,0.01457938623327586,0.020914363563561956,-0.08744740198684627, ,0.001132789719309116, ,0.012271984647999236,0.0009352399139424818,-0.016565630196436552,0.0015909132081381632,-0.003183947783541842,-0.0019130962433042563, ,0.020637257199115647, ,0.0035591123649423373, ,0.0005065785528297027, ,0.20199580105821627,-0.23141169057613745,0.09765211828,1.6930366036940496,0.45144699522501525,-1.303509685902695, ,0.10895171246667139,0.038095921942380886,0.018393546789838337,0.013552008892484166,0.1064692831341649,-0.029434671974507103, ,1.3529021739959717
0.01373964758404925,0.02116831971646421,-0.08673077249989322, ,0.014638628568142626,0.020915408382743993,-0.08752549704559084, ,0.0012262618219694864, ,0.012271984647999236,0.0009352399139424818,-0.016565630196436552,0.0015909132081381632,-0.003183947783541842,-0.0019130962433042563, ,0.020637257199115647, ,0.0035591123649423373, ,0.0005145750335979226, ,0.20199580105821627,-0.23141169057613745,0.09765211828,1.6930366036940496,0.45144699522501525,-1.303509685902695, ,0.10895171246667139,0.038095921942380886,0.018393546789838337,0.013552008892484166,0.1064692831341649,-0.029434671974507103, ,1.3556501865386963
0.013873276026200964,0.02118569712896416,-0.08694222081994299, ,0.01469783882501474,0.02091632908658986,-0.0876036068349436, ,0.0010908228143372135, ,0.014065072688976474,0.0026461616339573273,-0.02463604627145496,0.11259057418997304,0.07755113620247583,-0.006536803300544221, ,0.02849145866796731, ,0.13671432641660783, ,0.0005209074267928599, ,0.20317737918797263,-0.23098694026805508,0.09788674677,1.693246293637534,0.4533599062217314,-1.3048245003340233, ,0.11862117694808846,0.04131342688657849,0.027182272218430035,0.011564279125911773,0.2012693969213297,-0.14086289405551916, ,1.3588201999664307
0.013873276026200964,0.02118569712896416,-0.08694222081994299, ,0.014757016668368077,0.020917126938361834,-0.08768173221019929, ,0.0011832178861971763, ,0.014065072688976474,0.0026461616339573273,-0.02463604627145496,0.11259057418997304,0.07755113620247583,-0.006536803300544221, ,0.02849145866796731, ,0.13671432641660783, ,0.0005281064535255155, ,0.20317737918797263,-0.23098694026805508,0.09788674677,1.693246293637534,0.4533599062217314,-1.3048245003340233, ,0.11862117694808846,0.04131342688657849,0.027182272218430035,0.011564279125911773,0.2012693969213297,-0.14086289405551916, ,1.3615682125091553
0.013873276026200964,0.02118569712896416,-0.08694222081994299, ,0.014816161764807817,0.020917803197543154,-0.08775987401975863, ,0.001276462858734693, ,0.014065072688976474,0.0026461616339573273,-0.02463604627145496,0.11259057418997304,0.07755113620247583,-0.006536803300544221, ,0.02849145866796731, ,0.13671432641660783, ,0.0005361532965922808, ,0.20317737918797263,-0.23098694026805508,0.09788674677,1.693246293637534,0.4533599062217314,-1.3048245003340233, ,0.11862117694808846,0.04131342688657849,0.027182272218430035,0.011564279125911773,0.2012693969213297,-0.14086289405551916, ,1.3643271923065186
0.013873276026200964,0.02118569712896416,-0.08694222081994299, ,0.014875273783064753,0.020918359119843254,-0.08783803310514213, ,0.0013703827079303418, ,0.014065072688976474,0.0026461616339573273,-0.02463604627145496,0.11259057418997304,0.07755113620247583,-0.006536803300544221, ,0.02849145866796731, ,0.13671432641660783, ,0.0005450280775639623, ,0.20317737918797263,-0.23098694026805508,0.09788674677,1.693246293637534,0.4533599062217314,-1.3048245003340233, ,0.11862117694808846,0.04131342688657849,0.027182272218430035,0.011564279125911773,0.2012693969213297,-0.14086289405551916, ,1.3671550750732422
0.01397034839341649,0.02120565220404337,-0.08711329283496759, ,0.014934352393991487,0.02091879595720204,-0.08791621030100458, ,0.0012869602467612381, ,0.014065072688976474,0.0026461616339573273,-0.02463604627145496,0.11259057418997304,0.07755113620247583,-0.006536803300544221, ,0.02849145866796731, ,0.13671432641660783, ,0.0005528378898713021, ,0.20396509794114354,-0.23072436735033144,0.09807470882000001,1.693246293637534,0.4544529982198549,-1.3053074498628918, ,0.12535923587644754,0.04043329423028154,0.02999776180790961,0.011564279125911773,0.14019784465530233,-0.0358064199081997, ,1.370009183883667
0.01397034839341649,0.02120565220404337,-0.08711329283496759, ,0.014993397270558663,0.020919114957794218,-0.08799440643514857, ,0.0013802513448404204, ,0.015781720591758974,0.0033492643759909925,-0.02733958717257701,0.007559750759928765,0.0125149991779243,0.006019512166782132, ,0.0317448153792642, ,0.014620525357535757, ,0.0005614567800272304, ,0.20396509794114354,-0.23072436735033144,0.09807470882000001,1.693246293637534,0.4544529982198549,-1.3053074498628918, ,0.12535923587644754,0.04043329423028154,0.02999776180790961,0.011564279125911773,0.14019784465530233,-0.0358064199081997, ,1.3733270168304443
0.01397034839341649,0.02120565220404337,-0.08711329283496759, ,0.015052408087851167,0.02091931736603368,-0.08807262232853841, ,0.001474162100656825, ,0.015781720591758974,0.0033492643759909925,-0.02733958717257701,0.007559750759928765,0.0125149991779243,0.006019512166782132, ,0.0317448153792642, ,0.014620525357535757, ,0.0005708661132295973, ,0.20396509794114354,-0.23072436735033144,0.09807470882000001,1.693246293637534,0.4544529982198549,-1.3053074498628918, ,0.12535923587644754,0.04043329423028154,0.02999776180790961,0.011564279125911773,0.14019784465530233,-0.0358064199081997, ,1.3762760162353516
0.01397034839341649,0.02120565220404337,-0.08711329283496759, ,0.015111384523064451,0.02091940442257791,-0.08815085879531383, ,0.001568580365689022, ,0.015781720591758974,0.0033492643759909925,-0.02733958717257701,0.007559750759928765,0.0125149991779243,0.006019512166782132, ,0.0317448153792642, ,0.014620525357535757, ,0.0005810468709077548, ,0.20396509794114354,-0.23072436735033144,0.09807470882000001,1.693246293637534,0.4544529982198549,-1.3053074498628918, ,0.12535923587644754,0.04043329423028154,0.02999776180790961,0.011564279125911773,0.14019784465530233,-0.0358064199081997, ,1.3792641162872314
0.01397034839341649,0.02120565220404337,-0.08711329283496759, ,0.015170326255500613,0.020919377364332855,-0.08822911664280404, ,0.0016634190462652227, ,0.015781720591758974,0.0033492643759909925,-0.02733958717257701,0.007559750759928765,0.0125149991779243,0.006019512166782132, ,0.0317448153792642, ,0.014620525357535757, ,0.0005919799231840928, ,0.20622013594041708,-0.22994437133003479,0.09865544674000001,1.693246293637534,0.4565025457163365,-1.3055901798359486, ,0.13309528970332507,0.04911849977146521,0.037043747720930234,0.011564279125911773,0.12338670255650172,-0.016599527732697725, ,1.382390022277832
0.014267919715411363,0.021269386877570438,-0.0876463304148187, ,0.01522923296656482,0.020919237424456446,-0.08830739667154151, ,0.001218087189874669, ,0.01818471766225459,0.004137806922660879,-0.03412224887849825,-0.020717334296869155,-0.011324315003763647,0.004976533820992704, ,0.03888615783426423, ,0.02360935815573463, ,0.0005982409958509986, ,0.20622013594041708,-0.22994437133003479,0.09865544674000001,1.693246293637534,0.4565025457163365,-1.3055901798359486, ,0.13309528970332507,0.04911849977146521,0.037043747720930234,0.011564279125911773,0.12338670255650172,-0.016599527732697725, ,1.3857331275939941
0.014267919715411363,0.021269386877570438,-0.0876463304148187, ,0.015288104339761275,0.020918985832364113,-0.08838569967527615, ,0.001307755506029722, ,0.01818471766225459,0.004137806922660879,-0.03412224887849825,-0.020717334296869155,-0.011324315003763647,0.004976533820992704, ,0.03888615783426423, ,0.02360935815573463, ,0.0006052658919913819, ,0.20622013594041708,-0.22994437133003479,0.09865544674000001,1.693246293637534,0.4565025457163365,-1.3055901798359486, ,0.13309528970332507,0.04911849977146521,0.037043747720930234,0.011564279125911773,0.12338670255650172,-0.016599527732697725, ,1.3886361122131348
0.014267919715411363,0.021269386877570438,-0.0876463304148187, ,0.015346940060689589,0.02091862381373184,-0.08846402644098844, ,0.0013985515448819061, ,0.01818471766225459,0.004137806922660879,-0.03412224887849825,-0.020717334296869155,-0.011324315003763647,0.004976533820992704, ,0.03888615783426423, ,0.02360935815573463, ,0.000613043202313838, ,0.20622013594041708,-0.22994437133003479,0.09865544674000001,1.693246293637534,0.4565025457163365,-1.3055901798359486, ,0.13309528970332507,0.04911849977146521,0.037043747720930234,0.011564279125911773,0.12338670255650172,-0.016599527732697725, ,1.3913660049438477
0.014464935719120556,0.021307617104533542,-0.08800524440006721, ,0.015405739817041181,0.020918152590502403,-0.0885423777489042, ,0.0011512198716086268, ,0.019212341395762188,0.003229965217335887,-0.033913342812993304,0.007381621919116301,0.01302669863319876,-0.0028100538144076067, ,0.03911088797207399, ,0.014971251119547281, ,0.0006182682185205835, ,0.20769517791939396,-0.22936516636446794,0.09904563003000001,1.6934559835810188,0.45800554721375636,-1.306080668115344, ,0.14712704117592368,0.05894219972575825,0.036957799350348035,0.017832691606241066,0.16184817269696425,-0.05143033036564787, ,1.3940930366516113
0.014464935719120556,0.021307617104533542,-0.08800524440006721, ,0.015464503298595129,0.020917573380887847,-0.08862075437250787, ,0.0012369809935750637, ,0.019212341395762188,0.003229965217335887,-0.033913342812993304,0.007381621919116301,0.01302669863319876,-0.0028100538144076067, ,0.03911088797207399, ,0.014971251119547281, ,0.0006242173798191844, ,0.20769517791939396,-0.22936516636446794,0.09904563003000001,1.6934559835810188,0.45800554721375636,-1.306080668115344, ,0.14712704117592368,0.05894219972575825,0.036957799350348035,0.017832691606241066,0.16184817269696425,-0.05143033036564787, ,1.3968760967254639
0.014464935719120556,0.021307617104533542,-0.08800524440006721, ,0.015523230197214582,0.020916887399375445,-0.08869915707855607, ,0.001324451475224674, ,0.019212341395762188,0.003229965217335887,-0.033913342812993304,0.007381621919116301,0.01302669863319876,-0.0028100538144076067, ,0.03911088797207399, ,0.014971251119547281, ,0.0006308862759659032, ,0.20769517791939396,-0.22936516636446794,0.09904563003000001,1.6934559835810188,0.45800554721375636,-1.306080668115344, ,0.14712704117592368,0.05894219972575825,0.036957799350348035,0.017832691606241066,0.16184817269696425,-0.05143033036564787, ,1.399576187133789
0.014653499114334136,0.021333028242378635,-0.08831794084547068, ,0.01558192020684309,0.02091609585673114,-0.08877758662709302, ,0.0011167240410148102, ,0.019212341395762188,0.003229965217335887,-0.033913342812993304,0.007381621919116301,0.01302669863319876,-0.0028100538144076067, ,0.03911088797207399, ,0.014971251119547281, ,0.0006354696511078742, ,0.20769517791939396,-0.22936516636446794,0.09904563003000001,1.6934559835810188,0.45800554721375636,-1.306080668115344, ,0.14712704117592368,0.05894219972575825,0.036957799350348035,0.017832691606241066,0.16184817269696425,-0.05143033036564787, ,1.4025239944458008
0.014653499114334136,0.021333028242378635,-0.08831794084547068, ,0.015640573023500644,0.020915199960004353,-0.08885604377146211, ,0.0011993540489236851, ,0.019376089668454895,0.0020987674971110646,-0.030181098991321268,0.040753239515423804,0.025160358885720845,-0.004694684156206391, ,0.03592682023462232, ,0.04789410347736026, ,0.0006407395987510125, ,0.20918566536411928,-0.22877823866602687,0.09938785059000001,1.6934559835810188,0.45964518521094166,-1.3068459317787173, ,0.15869053772319527,0.061661430512326684,0.03325430379958247,0.015677288777857526,0.1870791021351125,-0.08731158200032646, ,1.4053840637207031
0.014653499114334136,0.021333028242378635,-0.08831794084547068, ,0.015699188345280043,0.020914200912532686,-0.08893452925832156, ,0.001284158701564607, ,0.019376089668454895,0.0020987674971110646,-0.030181098991321268,0.040753239515423804,0.025160358885720845,-0.004694684156206391, ,0.03592682023462232, ,0.04789410347736026, ,0.0006466971830363236, ,0.20918566536411928,-0.22877823866602687,0.09938785059000001,1.6934559835810188,0.45964518521094166,-1.3068459317787173, ,0.15869053772319527,0.061661430512326684,0.03325430379958247,0.015677288777857526,0.1870791021351125,-0.08731158200032646, ,1.4081931114196777
0.014653499114334136,0.021333028242378635,-0.08831794084547068, ,0.015757765872342944,0.02091309991394567,-0.08901304382765761, ,0.0013707344854890584, ,0.019376089668454895,0.0020987674971110646,-0.030181098991321268,0.040753239515423804,0.025160358885720845,-0.004694684156206391, ,0.03592682023462232, ,0.04789410347736026, ,0.0006533397270955231, ,0.20918566536411928,-0.22877823866602687,0.09938785059000001,1.6934559835810188,0.45964518521094166,-1.3068459317787173, ,0.15869053772319527,0.061661430512326684,0.03325430379958247,0.015677288777857526,0.1870791021351125,-0.08731158200032646, ,1.4109830856323242
0.01485875920510947,0.02134671969283662,-0.08860963064336652, ,0.015816305306916217,0.02091189816016941,-0.08909158821279842, ,0.0011568264351617577, ,0.02064825262170409,0.0006680229348339103,-0.02704267134797591,-0.01964708280400434,-0.029682394994629126,-0.00038793109232659667, ,0.03403090749018914, ,0.035595476856928106, ,0.0006579168789870342, ,0.21090783479507136,-0.22811408363884356,0.09971062680000001,1.6934559835810188,0.4614214597078924,-1.3076409346056463, ,0.17508660804145898,0.0688157661772812,0.02999776180790961,0.01347468766934269,0.1474704495955068,-0.03542216625901326, ,1.413776159286499
0.01485875920510947,0.02134671969283662,-0.08860963064336652, ,0.01587480635328818,0.020910596843431637,-0.08917016314042814, ,0.0012396578670574177, ,0.02064825262170409,0.0006680229348339103,-0.02704267134797591,-0.01964708280400434,-0.029682394994629126,-0.00038793109232659667, ,0.03403090749018914, ,0.035595476856928106, ,0.0006631577887894701, ,0.21090783479507136,-0.22811408363884356,0.09971062680000001,1.6934559835810188,0.4614214597078924,-1.3076409346056463, ,0.17508660804145898,0.0688157661772812,0.02999776180790961,0.01347468766934269,0.1474704495955068,-0.03542216625901326, ,1.4165971279144287
0.01485875920510947,0.02134671969283662,-0.08860963064336652, ,0.015933268717804774,0.020909197152265253,-0.08924876933060015, ,0.0013245734890520234, ,0.02064825262170409,0.0006680229348339103,-0.02704267134797591,-0.01964708280400434,-0.029682394994629126,-0.00038793109232659667, ,0.03403090749018914, ,0.035595476856928106, ,0.0006690632861132428, ,0.21090783479507136,-0.22811408363884356,0.09971062680000001,1.6934559835810188,0.4614214597078924,-1.3076409346056463, ,0.17508660804145898,0.0688157661772812,0.02999776180790961,0.01347468766934269,0.1474704495955068,-0.03542216625901326, ,1.4193921089172363
0.01485875920510947,0.02134671969283662,-0.08860963064336652, ,0.015991692108865727,0.02090770027151334,-0.08932740749675203, ,0.001411197586438061, ,0.02064825262170409,0.0006680229348339103,-0.02704267134797591,-0.01964708280400434,-0.029682394994629126,-0.00038793109232659667, ,0.03403090749018914, ,0.035595476856928106, ,0.0006756308462931086, ,0.21090783479507136,-0.22811408363884356,0.09971062680000001,1.6934559835810188,0.4614214597078924,-1.3076409346056463, ,0.17508660804145898,0.0688157661772812,0.02999776180790961,0.01347468766934269,0.1474704495955068,-0.03542216625901326, ,1.4221839904785156
0.015069175210021494,0.021347864015639654,-0.08886690925389348, ,0.016050076236920872,0.020906107382332974,-0.08940607834571807, ,0.001203336635036784, ,0.021475884303617573,-8.909366870867429e-05,-0.024967656341915646,-0.0034430446733228395,-0.05566905880409575,-0.008889471228319287, ,0.03293334795480369, ,0.05577534367567205, ,0.0006802598444399829, ,0.2127149542876399,-0.22738814674866648,0.09999710689,1.693875363467988,0.4627878247055468,-1.3080200049813455, ,0.18643799913255554,0.07156632093399003,0.02794528336842106,0.012090937798080521,0.13280000326295643,-0.056326588889010966, ,1.4252750873565674
0.015069175210021494,0.021347864015639654,-0.08886690925389348, ,0.016108420814466312,0.020904419662200465,-0.08948478257774423, ,0.0012878050183476304, ,0.021475884303617573,-8.909366870867429e-05,-0.024967656341915646,-0.0034430446733228395,-0.05566905880409575,-0.008889471228319287, ,0.03293334795480369, ,0.05577534367567205, ,0.0006855428459522233, ,0.2127149542876399,-0.22738814674866648,0.09999710689,1.693875363467988,0.4627878247055468,-1.3080200049813455, ,0.18643799913255554,0.07156632093399003,0.02794528336842106,0.012090937798080521,0.13280000326295643,-0.056326588889010966, ,1.4280672073364258
0.015069175210021494,0.021347864015639654,-0.08886690925389348, ,0.01616672555604064,0.02090263828491507,-0.08956352088650156, ,0.0013740853248728334, ,0.021475884303617573,-8.909366870867429e-05,-0.024967656341915646,-0.0034430446733228395,-0.05566905880409575,-0.008889471228319287, ,0.03293334795480369, ,0.05577534367567205, ,0.000691478556977401, ,0.2127149542876399,-0.22738814674866648,0.09999710689,1.693875363467988,0.4627878247055468,-1.3080200049813455, ,0.18643799913255554,0.07156632093399003,0.02794528336842106,0.012090937798080521,0.13280000326295643,-0.056326588889010966, ,1.4308371543884277
0.015276205047065897,0.021344734534515977,-0.08909895098857036, ,0.016224990178221207,0.020900764420603696,-0.08964229395910023, ,0.001180052655932311, ,0.021773903054339735,-0.0009608145004267916,-0.02421678306300428,-0.03644998160544529,-0.05251236538551661,-0.003492156722090733, ,0.03258034070792733, ,0.06392293288501939, ,0.0006956544039770157, ,0.21452207378020843,-0.22669310078998625,0.10025766118000001,1.6940850534114722,0.46401755320343574,-1.3084510149336293, ,0.1909395202383718,0.07888357569282692,0.027135965110732543,0.014117445100108218,0.14006093595828817,-0.02850949019857806, ,1.4335920810699463
0.015276205047065897,0.021344734534515977,-0.08909895098857036, ,0.016283214399620303,0.020898799235725653,-0.08972110247610324, ,0.0012649105107787782, ,0.021773903054339735,-0.0009608145004267916,-0.02421678306300428,-0.03644998160544529,-0.05251236538551661,-0.003492156722090733, ,0.03258034070792733, ,0.06392293288501939, ,0.0007004786082719458, ,0.21452207378020843,-0.22669310078998625,0.10025766118000001,1.6940850534114722,0.46401755320343574,-1.3084510149336293, ,0.1909395202383718,0.07888357569282692,0.027135965110732543,0.014117445100108218,0.14006093595828817,-0.02850949019857806, ,1.436371088027954
0.015276205047065897,0.021344734534515977,-0.08909895098857036, ,0.016341397940881255,0.02089674389307595,-0.08979994711153977, ,0.0013515646785377036, ,0.021773903054339735,-0.0009608145004267916,-0.02421678306300428,-0.03644998160544529,-0.05251236538551661,-0.003492156722090733, ,0.03258034070792733, ,0.06392293288501939, ,0.000705949919786784, ,0.21452207378020843,-0.22669310078998625,0.10025766118000001,1.6940850534114722,0.46401755320343574,-1.3084510149336293, ,0.1909395202383718,0.07888357569282692,0.027135965110732543,0.014117445100108218,0.14006093595828817,-0.02850949019857806, ,1.4391040802001953
0.015276205047065897,0.021344734534515977,-0.08909895098857036, ,0.016399540524675026,0.02089459955179151,-0.08987882853292023, ,0.0014396920094620468, ,0.021773903054339735,-0.0009608145004267916,-0.02421678306300428,-0.03644998160544529,-0.05251236538551661,-0.003492156722090733, ,0.03258034070792733, ,0.06392293288501939, ,0.0007120644372007446, ,0.21452207378020843,-0.22669310078998625,0.10025766118000001,1.6940850534114722,0.46401755320343574,-1.3084510149336293, ,0.1909395202383718,0.07888357569282692,0.027135965110732543,0.014117445100108218,0.14006093595828817,-0.02850949019857806, ,1.441831111907959
0.015503329180531102,0.021328012574701138,-0.0893490528485128, ,0.01645764187569584,0.020892367367353348,-0.08995774740124932, ,0.001212851402839109, ,0.021873396703797458,-0.0016043145520750872,-0.024423971447283945,0.024874268390724666,-0.03438451861789217,-0.01831984866932331, ,0.03282605199839662, ,0.042438374819548375, ,0.0007162031724539542, ,0.2165299843275068,-0.22581270924232466,0.10053765982000001,1.6940850534114722,0.46565719120062105,-1.3091345998568618, ,0.19209907198071008,0.08595737460006411,0.02732214668953688,0.014117445100108218,0.16045481531887662,-0.0976408630783904, ,1.4445531368255615
0.015503329180531102,0.021328012574701138,-0.0893490528485128, ,0.016515701720657992,0.020890048491593042,-0.09003670437103971, ,0.0012998366491714496, ,0.021873396703797458,-0.0016043145520750872,-0.024423971447283945,0.024874268390724666,-0.03438451861789217,-0.01831984866932331, ,0.03282605199839662, ,0.042438374819548375, ,0.000720987053410655, ,0.2165299843275068,-0.22581270924232466,0.10053765982000001,1.6940850534114722,0.46565719120062105,-1.3091345998568618, ,0.19209907198071008,0.08595737460006411,0.02732214668953688,0.014117445100108218,0.16045481531887662,-0.0976408630783904, ,1.447275161743164
0.015503329180531102,0.021328012574701138,-0.0893490528485128, ,0.016573719788291735,0.020887644072696346,-0.09011570009032668, ,0.0013883113714584908, ,0.021873396703797458,-0.0016043145520750872,-0.024423971447283945,0.024874268390724666,-0.03438451861789217,-0.01831984866932331, ,0.03282605199839662, ,0.042438374819548375, ,0.0007264124543703935, ,0.2165299843275068,-0.22581270924232466,0.10053765982000001,1.6940850534114722,0.46565719120062105,-1.3091345998568618, ,0.19209907198071008,0.08595737460006411,0.02732214668953688,0.014117445100108218,0.16045481531887662,-0.0976408630783904, ,1.4507651329040527
0.015503329180531102,0.021328012574701138,-0.0893490528485128, ,0.01663169580933955,0.02088515525520722,-0.09019473520068153, ,0.0014780096397545943, ,0.021873396703797458,-0.0016043145520750872,-0.024423971447283945,0.024874268390724666,-0.03438451861789217,-0.01831984866932331, ,0.03282605199839662, ,0.042438374819548375, ,0.0007324737219944596, ,0.2165299843275068,-0.22581270924232466,0.10053765982000001,1.6940850534114722,0.46565719120062105,-1.3091345998568618, ,0.19209907198071008,0.08595737460006411,0.02732214668953688,0.014117445100108218,0.16045481531887662,-0.0976408630783904, ,1.454517126083374
0.015503329180531102,0.021328012574701138,-0.0893490528485128, ,0.01668962951655236,0.020882583180032614,-0.09027381033722491, ,0.0015687231259237716, ,0.021873396703797458,-0.0016043145520750872,-0.024423971447283945,0.024874268390724666,-0.03438451861789217,-0.01831984866932331, ,0.03282605199839662, ,0.042438374819548375, ,0.0007391637172258942, ,0.2165299843275068,-0.22581270924232466,0.10053765982000001,1.6940850534114722,0.46565719120062105,-1.3091345998568618, ,0.19209907198071008,0.08595737460006411,0.02732214668953688,0.014117445100108218,0.16045481531887662,-0.0976408630783904, ,1.4574551582336426
0.01565135006509283,0.021317003354513153,-0.08951473937744645, ,0.016747520644685814,0.020879928984446988,-0.0903529261286416, ,0.0014474739978365897, ,0.022472915016036557,-0.0014509014783053765,-0.02534666872660052,-0.008679058071466732,-0.044263464384691274,-0.01163247290190889, ,0.03390561369380857, ,0.04510620651961508, ,0.0007447852273894712, ,0.21782740345037652,-0.2252335042767578,0.10072302929000002,1.6940850534114722,0.46675028319874456,-1.3096175493857305, ,0.1948602496067162,0.08642708702957265,0.028343080996441283,0.014117445100108218,0.15285432704078333,-0.06391103653062882, ,1.4606781005859375
0.01565135006509283,0.021317003354513153,-0.08951473937744645, ,0.016805368930496462,0.02087719380209675,-0.09043208319719426, ,0.0015384120604486026, ,0.022472915016036557,-0.0014509014783053765,-0.02534666872660052,-0.008679058071466732,-0.044263464384691274,-0.01163247290190889, ,0.03390561369380857, ,0.04510620651961508, ,0.0007510342575710392, ,0.21782740345037652,-0.2252335042767578,0.10072302929000002,1.6940850534114722,0.46675028319874456,-1.3096175493857305, ,0.1948602496067162,0.08642708702957265,0.028343080996441283,0.014117445100108218,0.15285432704078333,-0.06391103653062882, ,1.4647362232208252
0.016074771961842326,0.021288503427416113,-0.08999701098095346, ,0.016863174112737862,0.020874378763003913,-0.09051128215873602, ,0.0010283734893068229, ,0.02295649321526359,-0.0017877561241206581,-0.0243137568753224,-0.07731835192922082,-0.09845526741332429,-0.006047050874324617, ,0.03348664548882228, ,0.1251860963908658, ,0.0007532009703189749, ,0.2214416424355136,-0.22360400764029645,0.10126098964000001,1.6940850534114722,0.46934637669428797,-1.310509308453854, ,0.19526119662236785,0.08626994687133707,0.02722873764102564,0.011913093299017673,0.09728795667855622,0.0027710982051743086, ,1.4684700965881348
0.016074771961842326,0.021288503427416113,-0.08999701098095346, ,0.01692093593215711,0.020871484993572137,-0.09059052362272677, ,0.001114520118602302, ,0.02295649321526359,-0.0017877561241206581,-0.0243137568753224,-0.07731835192922082,-0.09845526741332429,-0.006047050874324617, ,0.03348664548882228, ,0.1251860963908658, ,0.0007560018939490782, ,0.2214416424355136,-0.22360400764029645,0.10126098964000001,1.6940850534114722,0.46934637669428797,-1.310509308453854, ,0.19526119662236785,0.08626994687133707,0.02722873764102564,0.011913093299017673,0.09728795667855622,0.0027710982051743086, ,1.4712471961975098
0.016074771961842326,0.021288503427416113,-0.08999701098095346, ,0.016978654131490634,0.02086851361658928,-0.09066980819224436, ,0.0012025184012427034, ,0.02295649321526359,-0.0017877561241206581,-0.0243137568753224,-0.07731835192922082,-0.09845526741332429,-0.006047050874324617, ,0.03348664548882228, ,0.1251860963908658, ,0.0007594366363128754, ,0.2214416424355136,-0.22360400764029645,0.10126098964000001,1.6940850534114722,0.46934637669428797,-1.310509308453854, ,0.19526119662236785,0.08626994687133707,0.02722873764102564,0.011913093299017673,0.09728795667855622,0.0027710982051743086, ,1.4740450382232666
0.016074771961842326,0.021288503427416113,-0.08999701098095346, ,0.01703632845546071,0.02086546575123295,-0.09074913646400017, ,0.0012919924566878764, ,0.02295649321526359,-0.0017877561241206581,-0.0243137568753224,-0.07731835192922082,-0.09845526741332429,-0.006047050874324617, ,0.03348664548882228, ,0.1251860963908658, ,0.0007635019479187914, ,0.2214416424355136,-0.22360400764029645,0.10126098964000001,1.6940850534114722,0.46934637669428797,-1.310509308453854, ,0.19526119662236785,0.08626994687133707,0.02722873764102564,0.011913093299017673,0.09728795667855622,0.0027710982051743086, ,1.4769370555877686
0.016313279872619966,0.021262367430188157,-0.09024457787516382, ,0.01709395865077163,0.020862342513075,-0.0908285090283524, ,0.0010537812299675443, ,0.0234930533398022,-0.0029722204626435956,-0.024784907657349167,-0.04045031609471158,-0.056044018433848805,-0.007892018171813977, ,0.03427899206932249, ,0.06911693512943094, ,0.0007657010333888577, ,0.22349588938005732,-0.22264638876389262,0.1015383957,1.6940850534114722,0.4705761051921769,-1.3108586396659971, ,0.20320544230935927,0.09989151742996924,0.02775054271777004,0.010620921223232887,0.14993616061981727,-0.04551436295525103, ,1.4796581268310547
0.016313279872619966,0.021262367430188157,-0.09024457787516382, ,0.017151544466105787,0.020859145014084916,-0.0909079264693201, ,0.0011425004170280153, ,0.0234930533398022,-0.0029722204626435956,-0.024784907657349167,-0.04045031609471158,-0.056044018433848805,-0.007892018171813977, ,0.03427899206932249, ,0.06911693512943094, ,0.0007685341114613325, ,0.22349588938005732,-0.22264638876389262,0.1015383957,1.6940850534114722,0.4705761051921769,-1.3108586396659971, ,0.20320544230935927,0.09989151742996924,0.02775054271777004,0.010620921223232887,0.14993616061981727,-0.04551436295525103, ,1.4823660850524902
0.016313279872619966,0.021262367430188157,-0.09024457787516382, ,0.01720908565212002,0.020855874362635474,-0.09098738936459691, ,0.0012326692652077813, ,0.0234930533398022,-0.0029722204626435956,-0.024784907657349167,-0.04045031609471158,-0.056044018433848805,-0.007892018171813977, ,0.03427899206932249, ,0.06911693512943094, ,0.0007719978066385449, ,0.22349588938005732,-0.22264638876389262,0.1015383957,1.6940850534114722,0.4705761051921769,-1.3108586396659971, ,0.20320544230935927,0.09989151742996924,0.02775054271777004,0.010620921223232887,0.14993616061981727,-0.04551436295525103, ,1.4851131439208984
0.016542403925770197,0.02123729076988276,-0.09049554375549755, ,0.01726658196144185,0.020852531663506476,-0.0910668982855648, ,0.0009994595521165917, ,0.02283042499467759,-0.0022971559500530965,-0.02547225277767693,0.01064171118831749,-0.022135491292487746,-0.010872782195959831, ,0.03428324506907614, ,0.024560441125310663, ,0.0007736827084569008, ,0.22546518626298456,-0.221696492620363,0.10181969063000001,1.6940850534114722,0.47221574318936216,-1.3117872608096515, ,0.1956637970277748,0.09395736787967403,0.02859750721723519,0.00961932735051481,0.17769571310261176,-0.09057042922968245, ,1.4884190559387207
0.016542403925770197,0.02123729076988276,-0.09049554375549755, ,0.017324033148665513,0.020849118017889096,-0.09114645379730814, ,0.0010887176906820843, ,0.02283042499467759,-0.0022971559500530965,-0.02547225277767693,0.01064171118831749,-0.022135491292487746,-0.010872782195959831, ,0.03428324506907614, ,0.024560441125310663, ,0.000775999142149733, ,0.22546518626298456,-0.221696492620363,0.10181969063000001,1.6940850534114722,0.47221574318936216,-1.3117872608096515, ,0.1956637970277748,0.09395736787967403,0.02859750721723519,0.00961932735051481,0.17769571310261176,-0.09057042922968245, ,1.491150140762329
0.016542403925770197,0.02123729076988276,-0.09049554375549755, ,0.017381438970348388,0.020845634523390843,-0.09122605645862758, ,0.0011794164789762798, ,0.02283042499467759,-0.0022971559500530965,-0.02547225277767693,0.01064171118831749,-0.022135491292487746,-0.010872782195959831, ,0.03428324506907614, ,0.024560441125310663, ,0.0007789437942433574, ,0.22546518626298456,-0.221696492620363,0.10181969063000001,1.6940850534114722,0.47221574318936216,-1.3117872608096515, ,0.1956637970277748,0.09395736787967403,0.02859750721723519,0.00961932735051481,0.17769571310261176,-0.09057042922968245, ,1.493901014328003
0.016542403925770197,0.02123729076988276,-0.09049554375549755, ,0.017438799185007074,0.020842082274039192,-0.09130570682205377, ,0.0012712507267966706, ,0.02283042499467759,-0.0022971559500530965,-0.02547225277767693,0.01064171118831749,-0.022135491292487746,-0.010872782195959831, ,0.03428324506907614, ,0.024560441125310663, ,0.0007825112357835988, ,0.22546518626298456,-0.221696492620363,0.10181969063000001,1.6940850534114722,0.47221574318936216,-1.3117872608096515, ,0.1956637970277748,0.09395736787967403,0.02859750721723519,0.00961932735051481,0.17769571310261176,-0.09057042922968245, ,1.4967150688171387
0.016770417078957725,0.021213104688910266,-0.09074603643668278, ,0.017496113553113615,0.020838462360286653,-0.09138540543386112, ,0.0010372005406630146, ,0.02297985468297317,-0.0025365035448072413,-0.025374924325510046,-0.01516546426660854,-0.04058802676313012,-0.009532663683724307, ,0.03432774906702659, ,0.04332861297978066, ,0.0007843435329410046, ,0.22741131494728914,-0.22076204194258184,0.10210098556000001,1.6940850534114722,0.47385538118654746,-1.3125525244730245, ,0.1944609458165385,0.09556590287862111,0.02844430628571429,0.008784659897284384,0.15739469919909524,-0.06713654229089236, ,1.5002360343933105
0.016770417078957725,0.021213104688910266,-0.09074603643668278, ,0.017553381837091826,0.020834775869015082,-0.09146515283408195, ,0.0011284036961352272, ,0.02297985468297317,-0.0025365035448072413,-0.025374924325510046,-0.01516546426660854,-0.04058802676313012,-0.009532663683724307, ,0.03432774906702659, ,0.04332861297978066, ,0.0007868011055352491, ,0.22741131494728914,-0.22076204194258184,0.10210098556000001,1.6940850534114722,0.47385538118654746,-1.3125525244730245, ,0.1944609458165385,0.09556590287862111,0.02844430628571429,0.008784659897284384,0.15739469919909524,-0.06713654229089236, ,1.503514051437378
0.016770417078957725,0.021213104688910266,-0.09074603643668278, ,0.01761060380131337,0.020831023883539804,-0.09154494955651996, ,0.0012207217714545917, ,0.02297985468297317,-0.0025365035448072413,-0.025374924325510046,-0.01516546426660854,-0.04058802676313012,-0.009532663683724307, ,0.03432774906702659, ,0.04332861297978066, ,0.000789878557066592, ,0.22741131494728914,-0.22076204194258184,0.10210098556000001,1.6940850534114722,0.47385538118654746,-1.3125525244730245, ,0.1944609458165385,0.09556590287862111,0.02844430628571429,0.008784659897284384,0.15739469919909524,-0.06713654229089236, ,1.5074191093444824
0.017002265203191178,0.02118906943026019,-0.09100937493875554, ,0.01766777921209399,0.02082720748361429,-0.09162479612876484, ,0.0009760103511688385, ,0.02281705356181506,-0.0018845320908635415,-0.027556646648101108,-0.006805984703002446,-0.04762564143963683,-0.014591214289224653, ,0.035826500930631416, ,0.04810932612315256, ,0.0007911893443490022, ,0.22934199816584527,-0.219804423066178,0.10239524339000002,1.6940850534114722,0.4753583826839673,-1.3132063702327013, ,0.18462439991920385,0.09303621721418705,0.030632329846153848,0.00807300994510225,0.14016603023029314,-0.07463225623986679, ,1.5101962089538574
0.017002265203191178,0.02118906943026019,-0.09100937493875554, ,0.017724907837689825,0.02082332774543453,-0.09170469307220479, ,0.0010674486703901081, ,0.02281705356181506,-0.0018845320908635415,-0.027556646648101108,-0.006805984703002446,-0.04762564143963683,-0.014591214289224653, ,0.035826500930631416, ,0.04810932612315256, ,0.000793121227747891, ,0.22934199816584527,-0.219804423066178,0.10239524339000002,1.6940850534114722,0.4753583826839673,-1.3132063702327013, ,0.18462439991920385,0.09303621721418705,0.030632329846153848,0.00807300994510225,0.14016603023029314,-0.07463225623986679, ,1.512951135635376
0.017002265203191178,0.02118906943026019,-0.09100937493875554, ,0.01778198944829357,0.020819385741643492,-0.09178464090204243, ,0.0011600315693380484, ,0.02281705356181506,-0.0018845320908635415,-0.027556646648101108,-0.006805984703002446,-0.04762564143963683,-0.014591214289224653, ,0.035826500930631416, ,0.04810932612315256, ,0.0007956692162311561, ,0.22934199816584527,-0.219804423066178,0.10239524339000002,1.6940850534114722,0.4753583826839673,-1.3132063702327013, ,0.18462439991920385,0.09303621721418705,0.030632329846153848,0.00807300994510225,0.14016603023029314,-0.07463225623986679, ,1.515714168548584
0.017236985622028154,0.021171934489665804,-0.09130309234110165, ,0.017839023816030607,0.020815382541335196,-0.09186464012730601, ,0.0008971706610712959, ,0.022560162997581117,-0.0015974669942893298,-0.02885036401254526,-0.05770683939997125,-0.057476520849282654,-0.005313825200510022, ,0.03665864644161918, ,0.08144697523581666, ,0.0007963692261955709, ,0.23120317678853336,-0.21885452692264837,0.10272061218,1.6940850534114722,0.4767247476816217,-1.3137487980886817, ,0.17573507696013105,0.0921329529693891,0.031857623040000005,0.007451823032623729,0.12056886882611838,-0.022587583950932952, ,1.5187201499938965
0.017236985622028154,0.021171934489665804,-0.09130309234110165, ,0.01789601071495529,0.020811319210059655,-0.09194469125086566, ,0.0009879304702272336, ,0.022560162997581117,-0.0015974669942893298,-0.02885036401254526,-0.05770683939997125,-0.057476520849282654,-0.005313825200510022, ,0.03665864644161918, ,0.08144697523581666, ,0.0007976812895108562, ,0.23120317678853336,-0.21885452692264837,0.10272061218,1.6940850534114722,0.4767247476816217,-1.3137487980886817, ,0.17573507696013105,0.0921329529693891,0.031857623040000005,0.007451823032623729,0.12056886882611838,-0.022587583950932952, ,1.5215070247650146
0.017236985622028154,0.021171934489665804,-0.09130309234110165, ,0.01795294992104722,0.020807196809826865,-0.09202479476944568, ,0.0010800429841639763, ,0.022560162997581117,-0.0015974669942893298,-0.02885036401254526,-0.05770683939997125,-0.057476520849282654,-0.005313825200510022, ,0.03665864644161918, ,0.08144697523581666, ,0.0007996021173656393, ,0.23120317678853336,-0.21885452692264837,0.10272061218,1.6940850534114722,0.4767247476816217,-1.3137487980886817, ,0.17573507696013105,0.0921329529693891,0.031857623040000005,0.007451823032623729,0.12056886882611838,-0.022587583950932952, ,1.5243041515350342
0.017236985622028154,0.021171934489665804,-0.09130309234110165, ,0.018009841212207268,0.02080301639911138,-0.0921049511736394, ,0.0011731938919582862, ,0.022560162997581117,-0.0015974669942893298,-0.02885036401254526,-0.05770683939997125,-0.057476520849282654,-0.005313825200510022, ,0.03665864644161918, ,0.08144697523581666, ,0.0008021263861128869, ,0.23120317678853336,-0.21885452692264837,0.10272061218,1.6940850534114722,0.4767247476816217,-1.3137487980886817, ,0.17573507696013105,0.0921329529693891,0.031857623040000005,0.007451823032623729,0.12056886882611838,-0.022587583950932952, ,1.5270841121673584
0.017458540267270416,0.021155958145288367,-0.09159210682984015, ,0.01806668436825405,0.02079877903285714,-0.09218516094792231, ,0.000921482150067251, ,0.02170009741482539,-0.00156007629164912,-0.028845045526528078,0.031998560659773294,0.008066195174898254,-0.012345357007465892, ,0.03612983140392652, ,0.03299926392974105, ,0.0008029274315085538, ,0.2329485144181081,-0.21793552171061567,0.10304079581000002,1.6940850534114722,0.478364385678807,-1.3145140617520548, ,0.17098548028553293,0.0914228724070046,0.031985565301204825,0.006933656231667815,0.1840479499415474,-0.11018414690577918, ,1.5298521518707275
0.017458540267270416,0.021155958145288367,-0.09159210682984015, ,0.018123479170919898,0.020794485762480892,-0.09226542457066653, ,0.0010129969443342995, ,0.02170009741482539,-0.00156007629164912,-0.028845045526528078,0.031998560659773294,0.008066195174898254,-0.012345357007465892, ,0.03612983140392652, ,0.03299926392974105, ,0.000804327894927392, ,0.2329485144181081,-0.21793552171061567,0.10304079581000002,1.6940850534114722,0.478364385678807,-1.3145140617520548, ,0.17098548028553293,0.0914228724070046,0.031985565301204825,0.006933656231667815,0.1840479499415474,-0.11018414690577918, ,1.532628059387207
0.017458540267270416,0.021155958145288367,-0.09159210682984015, ,0.018180225403847262,0.020790137635877854,-0.09234574251415405, ,0.001105721857490657, ,0.02170009741482539,-0.00156007629164912,-0.028845045526528078,0.031998560659773294,0.008066195174898254,-0.012345357007465892, ,0.03612983140392652, ,0.03299926392974105, ,0.0008063238814344335, ,0.2329485144181081,-0.21793552171061567,0.10304079581000002,1.6940850534114722,0.478364385678807,-1.3145140617520548, ,0.17098548028553293,0.0914228724070046,0.031985565301204825,0.006933656231667815,0.1840479499415474,-0.11018414690577918, ,1.535353183746338
0.017458540267270416,0.021155958145288367,-0.09159210682984015, ,0.018236922852584693,0.020785735697424798,-0.09242611524459116, ,0.0011993807343367332, ,0.021546007020254422,-0.0014247439076045527,-0.028247067958318547,-0.04708955865586106,-0.05352449437359586,-0.0075340999494718855, ,0.03555498786332201, ,0.071290111861022, ,0.0008089097817824749, ,0.23450078372582725,-0.21710918929307363,0.10333634993000002,1.6940850534114722,0.479594114176696,-1.3149450717043387, ,0.16361541648012204,0.08746261894789933,0.031171842504892373,0.0065116323313725594,0.11237106519783338,-0.0296351614953153, ,1.538506031036377
0.01766099504555857,0.021142726689289577,-0.09185972035094483, ,0.01829357130458332,0.020781280987985686,-0.09250654322212173, ,0.0009742564062659976, ,0.021546007020254422,-0.0014247439076045527,-0.028247067958318547,-0.04708955865586106,-0.05352449437359586,-0.0075340999494718855, ,0.03555498786332201, ,0.071290111861022, ,0.0008099904786745241, ,0.23450078372582725,-0.21710918929307363,0.10333634993000002,1.6940850534114722,0.479594114176696,-1.3149450717043387, ,0.16361541648012204,0.08746261894789933,0.031171842504892373,0.0065116323313725594,0.11237106519783338,-0.0296351614953153, ,1.5420331954956055
0.01766099504555857,0.021142726689289577,-0.09185972035094483, ,0.018350170549192833,0.020776774544915205,-0.09258702690084149, ,0.0010667045815521345, ,0.021546007020254422,-0.0014247439076045527,-0.028247067958318547,-0.04708955865586106,-0.05352449437359586,-0.0075340999494718855, ,0.03555498786332201, ,0.071290111861022, ,0.0008116574533685346, ,0.23450078372582725,-0.21710918929307363,0.10333634993000002,1.6940850534114722,0.479594114176696,-1.3149450717043387, ,0.16361541648012204,0.08746261894789933,0.031171842504892373,0.0065116323313725594,0.11237106519783338,-0.0296351614953153, ,1.546598196029663
0.01776348571001709,0.021134674474871835,-0.09199647133488564, ,0.018406720377657868,0.02077221740206372,-0.09266756672881175, ,0.0009977449549020087, ,0.02063700176743612,-0.0018790795929715751,-0.02761392036156561,-0.013889813874862298,-0.03908018737828889,-0.015732858084741768, ,0.03555498786332201, ,0.0414749553211368, ,0.000812858017894557, ,0.2352730570132497,-0.21667671625211707,0.10348671957000001,1.6940850534114722,0.48014066017575774,-1.3151457070987025, ,0.1558242061715448,0.09012055228724672,0.030340593371428574,0.006313275860625151,0.11954594651565395,-0.06617196431539966, ,1.551259994506836
0.01776348571001709,0.021134674474871835,-0.09199647133488564, ,0.018463220583114056,0.020767610589781473,-0.09274816314807355, ,0.0010905986293680086, ,0.02063700176743612,-0.0018790795929715751,-0.02761392036156561,-0.013889813874862298,-0.03908018737828889,-0.015732858084741768, ,0.03452456197840563, ,0.0414749553211368, ,0.0008146384064296431, ,0.2352730570132497,-0.21667671625211707,0.10348671957000001,1.6940850534114722,0.48014066017575774,-1.3151457070987025, ,0.1558242061715448,0.09012055228724672,0.030340593371428574,0.006313275860625151,0.11954594651565395,-0.06617196431539966, ,1.5539581775665283
0.01776348571001709,0.021134674474871835,-0.09199647133488564, ,0.018519670960584527,0.020762955134923208,-0.09282881659466101, ,0.0011843943736518272, ,0.02063700176743612,-0.0018790795929715751,-0.02761392036156561,-0.013889813874862298,-0.03908018737828889,-0.015732858084741768, ,0.03452456197840563, ,0.0414749553211368, ,0.0008169935399788291, ,0.2352730570132497,-0.21667671625211707,0.10348671957000001,1.6940850534114722,0.48014066017575774,-1.3151457070987025, ,0.1558242061715448,0.09012055228724672,0.030340593371428574,0.006313275860625151,0.11954594651565395,-0.06617196431539966, ,1.5567622184753418
0.018064982937208412,0.02110154052577285,-0.09238831542303066, ,0.01857607130697571,0.020758252060852064,-0.09290952749861518, ,0.0008066723743839155, ,0.017296229869455,-0.0018734070142918642,-0.021828129358784473,-0.02262661517306212,-0.019709802283242654,-0.006546613361769027, ,0.027913015832081885, ,0.030007250203744357, ,0.00081692821614595, ,0.2376053223412655,-0.215332960732002,0.10391968043000001,1.6940850534114722,0.4823268441720048,-1.3162749636367208, ,0.1340352281899305,0.07525530654914415,0.0242079202431611,0.005743104482235409,0.11697820119930176,-0.042468264859651036, ,1.5594780445098877
0.018064982937208412,0.02110154052577285,-0.09238831542303066, ,0.018632421421073738,0.020753502387444424,-0.09299029628399838, ,0.000897495368051518, ,0.017296229869455,-0.0018734070142918642,-0.021828129358784473,-0.02262661517306212,-0.019709802283242654,-0.006546613361769027, ,0.027913015832081885, ,0.030007250203744357, ,0.0008174349277931548, ,0.2376053223412655,-0.215332960732002,0.10391968043000001,1.6940850534114722,0.4823268441720048,-1.3162749636367208, ,0.1340352281899305,0.07525530654914415,0.0242079202431611,0.005743104482235409,0.11697820119930176,-0.042468264859651036, ,1.56215500831604
0.018064982937208412,0.02110154052577285,-0.09238831542303066, ,0.01868872110354086,0.020748707131094495,-0.09307112336890795, ,0.0009898320036719236, ,0.017296229869455,-0.0018734070142918642,-0.021828129358784473,-0.02262661517306212,-0.019709802283242654,-0.006546613361769027, ,0.027913015832081885, ,0.030007250203744357, ,0.0008185124095173972, ,0.2376053223412655,-0.215332960732002,0.10391968043000001,1.6940850534114722,0.4823268441720048,-1.3162749636367208, ,0.1340352281899305,0.07525530654914415,0.0242079202431611,0.005743104482235409,0.11697820119930176,-0.042468264859651036, ,1.5648891925811768
0.018064982937208412,0.02110154052577285,-0.09238831542303066, ,0.018744970156911234,0.020743867304718118,-0.09315200916548952, ,0.001083300920469309, ,0.017296229869455,-0.0018734070142918642,-0.021828129358784473,-0.02262661517306212,-0.019709802283242654,-0.006546613361769027, ,0.027913015832081885, ,0.030007250203744357, ,0.0008201570586537445, ,0.2376053223412655,-0.215332960732002,0.10391968043000001,1.6940850534114722,0.4823268441720048,-1.3162749636367208, ,0.1340352281899305,0.07525530654914415,0.0242079202431611,0.005743104482235409,0.11697820119930176,-0.042468264859651036, ,1.5677151679992676
0.018239906290317735,0.02107439358783573,-0.09260324460675164, ,0.01880116838558761,0.020738983917758084,-0.0932329540799518, ,0.0009077713407055518, ,0.017383639322924523,-0.003209476595607475,-0.02159155586800097,-0.049345261912301194,-0.026582213800950237,-0.0073401001647763016, ,0.027904962657711748, ,0.056049658973864616, ,0.0008206978875552988, ,0.238964523327129,-0.21450662831446,0.10415690150000001,1.6940850534114722,0.4834199361701283,-1.3166762344254486, ,0.13422481125667718,0.08786753848006552,0.023703588571428576,0.005427331725129244,0.11003419713490316,-0.028059330738284136, ,1.5705430507659912
