NicholasDascanio/dvrk_moveit_final/test/execution/third_experiment_notsharpbends/thirdexp_400vel4.0/thirdexp_400vel4.0_7.csv
Current Position (x),Current Position (y),Current Position (z), ,Planned Position (x),Planned Position (y),Planned Position (z), ,Position Error,,Cartesian linear Velocity(x),Cartesian linear Velocity(y),Cartesian linear Velocity(z),Cartesian Angular Velocity(x),Cartesian Angular Velocity(y),Cartesian Angular Velocity(z), ,Total Linear Velocity, ,Total Angular Velocity, ,MSE, ,Joint 1 Position,Joint 2 Position,Joint 3 Position,Joint 4 Position,Joint 5 Position,Joint 6 Position, ,Joint 1 Velocity,Joint 2 Velocity,Joint 3 Velocity,Joint 4 Velocity,Joint 5 Velocity,Joint 6 Velocity, ,Time Stamp
0.00938982611897445,0.02026250111808731,-0.07927170269325198, ,0.009534322160853642,0.020203898030001978,-0.07934729653458403, ,0.00017328547803905741, ,0.00014489428023389445,0.00015573362095740238,-0.0006488282831151067,-0.38607745134533017,-0.0017232235111375698,0.0038897228723876755, ,0.000682807040173942, ,0.38608129705617056, ,1.4440456503254784e-05, ,0.13332526034061193,-0.24811596178308504,0.08893197545,1.6037086877696423,0.1358166807668478,-1.3935956889219132, ,0.0007193726577721034,0.00011687416886280841,0.000679429810291735,-0.0015023366612339018,0.0,0.3857763962230405, ,0.029025793075561523
0.009361158374966112,0.020270077823937884,-0.07930326376504027, ,0.00959383441851777,0.020230496116329103,-0.0794650141647532, ,0.0002861259244237986, ,0.0001267855203807625,0.0004923471061571542,-0.0019023024586615495,0.051407397594953545,0.039143325763513634,0.011834464742900723, ,0.0019690695481240175, ,0.064613624563936, ,2.0882336475584365e-05, ,0.13339476493647995,-0.24810823905021082,0.08896567899,1.6037086877696423,0.14005241225957646,-1.3880649825210405, ,0.0033835856151426666,0.0,0.0020168158419853126,-0.0015023366612339018,0.04413141073379729,-0.05160542148275217, ,0.055960893630981445
0.009389014110460043,0.020285163097830412,-0.07936725686858001, ,0.009653301687996557,0.020256598832590976,-0.07958263140634682, ,0.0003421257552524417, ,0.0025710324207325447,0.0008347583512247382,-0.003129265756681124,0.43959081172946507,-0.18568710475743017,-0.05177049167325545, ,0.004135134023140529, ,0.47719993988879206, ,2.5048036178603053e-05, ,0.13352605139534177,-0.24809279358446237,0.08903308607,1.6034989978261578,0.13909595676121836,-1.3964330760909087, ,0.005541005877668457,-0.00022838071735566018,0.0032999402361715354,0.0013472397005774136,-0.18748076024016158,-0.43916075933054477, ,0.08487296104431152
0.00947544395796647,0.020316855767156354,-0.07948261843754732, ,0.009712723881862895,0.02028221007203193,-0.07970014775053946, ,0.0003237608507614533, ,0.0021155091097787453,0.0013087645871829889,-0.00507327990749849,-0.06106241566676342,-0.04658209412021148,-0.011572525640308477, ,0.005650346233466495, ,0.07680175841947906, ,2.679280972563693e-05, ,0.13383496071031076,-0.2481005163173366,0.08915623362000001,1.6041280676566114,0.13404040626989708,-1.4020303837308679, ,0.013839425631977653,0.0003011715758585694,0.005410601739130436,0.0033557408986894387,-0.03459566436462204,0.06118898826051239, ,0.11349296569824219
0.009520635879423237,0.020352410015445625,-0.07962265569070523, ,0.009772100914565159,0.02030733371518641,-0.07981756268974728, ,0.00032133358837750734, ,0.0010340518338171844,0.000968106876146621,-0.0037924743361218193,-0.038472983525119,0.0741427087085672,0.05139087080127649, ,0.00404837692276864, ,0.08353030417269525, ,2.781983840104343e-05, ,0.13432921561426112,-0.24807734811871393,0.08930660326,1.6045474475435806,0.1355434077673169,-1.3969667176807052, ,0.017911842498767608,0.0001296929786943646,0.004119165120248255,-0.027045392159919246,0.10189799407835202,0.034892163128668566, ,0.1427288055419922
0.009574648073130585,0.020372843575966658,-0.07970730615610835, ,0.009831432702422694,0.02033197362989639,-0.07993487571762797, ,0.00034553813633621434, ,0.002168379264567027,0.0007816951264983258,-0.003214311227957754,0.060450447310989384,-0.015570209268211045,0.018043684958088616, ,0.0039553397548087775, ,0.06242345710076841, ,2.890596343855601e-05, ,0.13491614331270219,-0.24804645718721702,0.08939993614000001,1.6045474475435806,0.1360899537663787,-1.3966772806342258, ,0.022670076817599326,0.00087302351342719,0.003549200427807487,-0.016313487494852494,0.011403371428826766,-0.06343868729176955, ,0.17051291465759277
0.009619671164075135,0.020392321024981428,-0.07978984409579083, ,0.009890719163621385,0.02035613367132813,-0.08005208632908327, ,0.0003788766706260196, ,0.0024193186070242726,0.0011119211840973755,-0.004920386960611995,0.05263935255759224,-0.018829877408253027,0.013537544918574465, ,0.005594611611550789, ,0.055905864790809945, ,3.057811836361257e-05, ,0.1353331708879103,-0.24801556625572013,0.08948938015,1.6045474475435806,0.1360899537663787,-1.3974940680356314, ,0.022344464694718808,0.002152427892533924,0.00529724360492185,-0.012915242807723182,0.0068479060737456675,-0.05645975680884422, ,0.1971127986907959
0.0096990486441345,0.020431867337417076,-0.07995332399173868, ,0.00994996021820918,0.020379817681989765,-0.08016919402025809, ,0.0003350606718904856, ,0.002558406199636527,0.0010182340656310215,-0.004452534326671097,0.002268509119770925,-0.022742963864101334,0.010177586682596745, ,0.005235198642356805, ,0.022855820641585145, ,3.132633844633722e-05, ,0.13603593957946475,-0.24796922985847478,0.08966567559000001,1.6045474475435806,0.1360899537663787,-1.3977391042560532, ,0.02445797462847185,0.001957049806010214,0.004838642624544351,-0.009801490340266155,0.004248089446509456,-0.005495446328972357, ,0.2215127944946289
0.009749209250059933,0.020451077896319676,-0.08003510704061384, ,0.010009155788091592,0.020403029491747902,-0.08028619828854337, ,0.00036459246646543335, ,0.002537340303682765,0.0009362620087399979,-0.0040192570853902106,-0.008222890004011543,-0.02440234157803465,-0.0002162916387132075, ,0.004844492737548712, ,0.02575053773147784, ,3.2255051035645066e-05, ,0.1365301944834151,-0.2479383389269779,0.0897551196,1.6043377576000957,0.13622659026614414,-1.3978505221597497, ,0.02439510065770457,0.001766403601956792,0.004395367417218543,0.0,0.0,0.006472974085080612, ,0.24959897994995117
0.009820991764503632,0.02048029667756575,-0.0801585029830974, ,0.010068305797027126,0.02042577291784561,-0.08040309863257619, ,0.0003520853629462645, ,0.0023311782080319603,0.0007020632842992197,-0.003419917628459698,1.6864796563307156e-05,-0.019408238124831348,-0.004699362039732371, ,0.004197990147465036, ,0.01940824544011387, ,3.2885560256313016e-05, ,0.137248408640718,-0.24788427979685831,0.08988993376000001,1.6047571374870648,0.13663649976544046,-1.3981030971306982, ,0.02307804998990048,0.0027485968783205585,0.0037409139314232035,0.0051351673564458255,0.0024855613814901314,-0.00205829212912218, ,0.2748849391937256
0.009869132159374858,0.020496588790187058,-0.08023330491134902, ,0.010127410170622828,0.020448051764918908,-0.08051989455224097, ,0.00038884057939297825, ,0.0025289347649112203,0.0009103091976550565,-0.004662702524097147,-0.0011501910066118053,-0.01982079793034745,-0.0043040109880152925, ,0.005381911250544166, ,0.019854142332104738, ,3.375350920104349e-05, ,0.13771177261317147,-0.24783794339961296,0.08997160003000002,1.6047571374870648,0.13663649976544046,-1.3981030971306982, ,0.02312303644212251,0.004016748731835222,0.004946835875776399,0.004559770001458619,0.0024855613814901314,-0.0022209658617128683, ,0.2998178005218506
0.009945571067356754,0.02053285669987037,-0.08038809663753226, ,0.010186468836329735,0.020469869825013937,-0.08063658554867056, ,0.0003517752413957552, ,0.0026257532762721768,0.0012344425653528894,-0.005731700814075989,0.0017344647020244494,-0.014345193092052356,0.0013561062281424875, ,0.006424237148260363, ,0.014449668732006505, ,3.416724763713283e-05, ,0.13841454130472589,-0.24777616153661916,0.09013882144,1.6049668274305493,0.13690977276497132,-1.3982442541979505, ,0.02336787529142349,0.003359128424516782,0.006140636669236701,0.000460365325654784,0.00919241581939891,-0.004999740393928396, ,0.32465195655822754
0.009995891722376374,0.02055709154436802,-0.08049915465777623, ,0.010245481723438171,0.020491230877604363,-0.08075317112424683, ,0.00036215626640277097, ,0.002542789184533418,0.0011678321359150812,-0.005409503595402948,0.004639108128755559,-0.00750006523267662,0.003192129324072089, ,0.006090347927937576, ,0.00881886036245574, ,3.460445593848144e-05, ,0.13888562801005358,-0.24771437967362536,0.09025808012000001,1.6049668274305493,0.13731968226426766,-1.3983334716886182, ,0.023653275562928906,0.00318119029197669,0.005813434861313869,0.000460365325654784,0.01654903904675985,-0.007729401993340649, ,0.34915995597839355
0.010038426404193652,0.02057621164627055,-0.08058567999300295, ,0.010304448763073439,0.020512138689608495,-0.08086965078260243, ,0.00039435092055824396, ,0.0021529155257090727,0.0006273135627925447,-0.003514547761921803,-0.048763081738762544,-0.001913087341964328,-0.00544097243234014, ,0.004169006300994543, ,0.048800594702349646, ,3.548802942006334e-05, ,0.13958839670160803,-0.24762170687913468,0.09040844976000001,1.6053862073175185,0.13759295526379853,-1.3977395200946052, ,0.022265823922682025,0.0039331770049554245,0.0038143705747126443,0.009973175826152082,0.018502144414537198,0.046216643767393095, ,0.3713819980621338
0.010106014018212277,0.020599397284709258,-0.08070915751133868, ,0.010363369888190912,0.020532597015406034,-0.08098602402862112, ,0.0003838611574300673, ,0.0019953008610283404,0.00103031901143365,-0.004976297170132505,0.040324892309964055,0.04299277825404464,0.0068591759079416025, ,0.0054595161247871435, ,0.05894468524608495, ,3.619694376098221e-05, ,0.1399899788110677,-0.24754447955039244,0.09048493087000001,1.6053862073175185,0.13841277426239118,-1.3978362763357999, ,0.023038830191422863,0.0035953246394570515,0.005354222359663867,0.00916686292620819,0.06580411353253104,-0.04264015986453203, ,0.39313387870788574
0.01016790049114659,0.020625209702161622,-0.08084152608905361, ,0.010422245033571665,0.02055260959685581,-0.08110229036843868, ,0.0003714295773831823, ,0.0027789086730159373,0.0012563013608214888,-0.006417521347406651,0.010459809710639437,-0.006664176992958262,-0.0041595747646967956, ,0.007105294277268549, ,0.012402373292682992, ,3.6746299648870295e-05, ,0.14050740191364072,-0.2474440840230275,0.09062104132000001,1.6053862073175185,0.13854941076215663,-1.3976209792789343, ,0.024439078433806535,0.0048820720938454396,0.006836399793991417,0.007817201801052052,0.016933426596119506,-0.014850167764331308, ,0.41542482376098633
0.010211828749913348,0.020641144614228217,-0.08093148876312121, ,0.01048107413581783,0.020572180163312633,-0.0812184493094448, ,0.00039949409065375715, ,0.002699711839076751,0.0008004451265249376,-0.004651087599044619,-0.013504218514709449,-0.02304040230940287,-0.007482424875518867, ,0.005437073870071598, ,0.026706254962004478, ,3.741842508493905e-05, ,0.14092442948884884,-0.2473436884956626,0.09072215194000001,1.6053862073175185,0.13868604726192205,-1.3975690397023495, ,0.024757876743665738,0.005294329202758653,0.0049980582114841545,0.0070388649134372335,0.0,0.009220999797736797, ,0.43915700912475586
0.010270721932433507,0.020658606815230917,-0.08104007484552275, ,0.010539857133347843,0.020591312431643655,-0.08133450036028222, ,0.0004045351334247367, ,0.0024548387108935445,0.0008285157238336521,-0.004688411165128704,0.01416228899402623,0.007399696287131158,0.0076119706839839815, ,0.00535666600176309, ,0.0159789215038683, ,3.8055926495516165e-05, ,0.14152680265303835,-0.24720467930392656,0.09083881804,1.6055958972610032,0.13936922976074928,-1.398207807960972, ,0.025387089769521344,0.004984371213383672,0.005050352415979709,0.0,0.033823744747742156,-0.019098598607916413, ,0.4610788822174072
0.010355450910733982,0.02068682837016178,-0.08120000508550933, ,0.010598593966391977,0.020610010106247054,-0.08145044303085018, ,0.0003574055898445458, ,0.00279478869731716,0.0009575157703239927,-0.005652526667096587,-0.008837659368822639,-0.020206506540419285,-0.004853518359789685, ,0.006377988557163532, ,0.022054639510018077, ,3.836204313066308e-05, ,0.14227590774183815,-0.2470347791806936,0.09100992832,1.6058055872044876,0.13936922976074928,-1.3981261292208316, ,0.02433878983289838,0.006353292438224651,0.006017684744994334,0.004901615032071115,0.0030285756784695864,0.003222500603726041, ,0.483914852142334
0.010410284808084093,0.02070675304850296,-0.08131412941217629, ,0.010657284576987527,0.02062827687906746,-0.08156627683230255, ,0.00036158777148010465, ,0.0027560787427699353,0.0009704993147053127,-0.005672692380514978,0.008167299124820443,-0.00694599730892951,-0.005314961077069265, ,0.0063810091521752646, ,0.010721550621798297, ,3.8664205707650927e-05, ,0.14278560811153695,-0.246911215454706,0.09113177958,1.6060152771479719,0.1397791392600456,-1.3983787041917801, ,0.025258701506114128,0.006338315744554876,0.006051980060790275,0.008862836235810682,0.016658573130931036,-0.013216589606102816, ,0.5056149959564209
0.010459755105084897,0.02072322638440162,-0.08140855672591406, ,0.010715928908974274,0.020646116429614583,-0.08168200127705123, ,0.0003825478865096801, ,0.002768658668382047,0.0009825111427112768,-0.005164167945106505,0.008272014801349146,-0.008740919524707177,-0.0043342235650978625, ,0.005941332302844574, ,0.012034529460610762, ,3.925941021060903e-05, ,0.14323352661824199,-0.2468108199273411,0.09123289020000001,1.6060152771479719,0.139915775759811,-1.3983267646151956, ,0.026156819613690954,0.004720755790486631,0.005567567815449144,0.0079073070427805,0.015974638190100997,-0.011849933631342667, ,0.5275969505310059
0.010506591068105576,0.020737781673216292,-0.08149301105332446, ,0.010774526907989804,0.020663532424979165,-0.08179761587876555, ,0.000412415645726787, ,0.0026516479689648064,0.0010768024156128761,-0.005648482762079791,-0.03391907038187238,-0.0019051711371634128,-0.0018689478047041637, ,0.006332147969456924, ,0.03397253312431101, ,3.996505007857069e-05, ,0.14392084984404796,-0.24666408800273085,0.09138325984000001,1.6060152771479719,0.14046232175887277,-1.3979556488285754, ,0.024420211414943587,0.0049704481833725755,0.006049681549563237,0.006764716855292361,0.02153939101483222,0.02993763276460755, ,0.5464789867401123
0.01057031480217428,0.020765482568946655,-0.08163834265303696, ,0.010833078521464687,0.020680528519850302,-0.08191312015237319, ,0.0003895698098860654, ,0.0027309060184227147,0.0012395153452328497,-0.006336798639979312,-0.0033372246896312746,0.009164459482620334,-0.0020159609259302676, ,0.00701065353416989, ,0.009753172613055677, ,4.0508686015877974e-05, ,0.14428381828913653,-0.2465868606739886,0.09147918530000002,1.606434657034941,0.14100886775793453,-1.3981562842229396, ,0.025387089769521344,0.005181775826927183,0.006775334547001277,0.009845461210984842,0.033172115063344616,-0.0004117567445154381, ,0.5674338340759277
0.010629412855150903,0.02078809957723242,-0.08175685799491274, ,0.01089158369861801,0.020697108356533236,-0.08202851361406216, ,0.00038834228307517313, ,0.0030028222042135766,0.0008054686791166374,-0.0050618071776753456,-0.028730416322448712,-0.029932086533739116,0.009932791717430018, ,0.00594033777550752, ,0.04148935553851725, ,4.101003281474891e-05, ,0.14480124139170955,-0.24647874241374945,0.09160622172,1.6068540369219102,0.14114550425769998,-1.3978593084259332, ,0.02719110073308618,0.006161614026008302,0.005440167868852459,-0.01125876936316011,0.0,0.021057765859440053, ,0.5870778560638428
0.010686070347434918,0.02080572918805556,-0.08186549892609864, ,0.010950042390452571,0.020713275564965557,-0.08214379578128068, ,0.00039456058029357097, ,0.0027110227123806558,0.0009314345827533457,-0.005838742516915146,0.0024013529562467856,0.01000494567704038,0.019813679590195143, ,0.006504469902138474, ,0.010289092634206064, ,4.150767332674118e-05, ,0.14536500089152796,-0.24634745595488763,0.09172288782000002,1.6068540369219102,0.14182868675652718,-1.3980080042437124, ,0.026693935740779398,0.0069503157405618856,0.006229492186155652,-0.01125876936316011,0.04070049676237805,-0.010845113570227338, ,0.6063668727874756
0.01074779534109167,0.020826177631415928,-0.08198298792491951, ,0.011008454549750048,0.020729033762734984,-0.08225896617273837, ,0.0003918470971563783, ,0.0029930112293882725,0.0010197147502479511,-0.006141219664817059,0.0025942834500080267,-0.010345967704292717,0.014794176167625767, ,0.006907424510094431, ,0.010666271402043325, ,4.1961903747679246e-05, ,0.14589786945984945,-0.24622389222890004,0.09184862795000001,1.6068540369219102,0.14182868675652718,-1.3976812892831503, ,0.027230112355371816,0.006822616262444328,0.006555066469135804,-0.01125876936316011,0.02025380821449231,-0.010926771040615377, ,0.6253149509429932
0.010808016503109181,0.02084594099712792,-0.08210555900231166, ,0.011066820131066524,0.02074438655509581,-0.08237402430840708, ,0.00038647929196432295, ,0.002992140425138534,0.0008461666119451861,-0.005722720285583946,0.014425574026783315,-0.015554676873145325,0.013365877089207726, ,0.006512943246025794, ,0.02121426766335264, ,4.236514707694258e-05, ,0.14646162895966783,-0.24607716030428978,0.09197955324000001,1.6068540369219102,0.14237523275558894,-1.3979636034176548, ,0.027292764325128206,0.007572562286241242,0.006105332127251822,-0.01125876936316011,0.014941363965240545,-0.023508674760260147, ,0.6456317901611328
0.010871185100234862,0.020860641797271443,-0.08221719307143198, ,0.011125139090727557,0.020759337534986717,-0.08248896970952183, ,0.0003855096935949018, ,0.003218187606273359,0.000777801195409244,-0.005471132382455498,-0.018774416532429294,-0.02280565642424943,-0.008075443421016262, ,0.006394919523739503, ,0.029539408866324987, ,4.292158271733769e-05, ,0.1470485566581089,-0.24590726018105682,0.09209881192000001,1.6066443469784255,0.1426485057551198,-1.3980230817447665, ,0.02920804603215475,0.007964002950284682,0.0058648054197349055,0.008356185450604858,0.004509020997889872,0.012083034261487432, ,0.6622529029846191
0.010890933989395682,0.020864940500683396,-0.08224988958048472, ,0.011183411386823657,0.02077389028304711,-0.08260380189858177, ,0.00046806740864824373, ,0.0033507356606871123,0.0008237833813564905,-0.005795140644306777,-0.020800034003699626,-0.02451422807532548,-0.004295711145041021, ,0.006744605519561229, ,0.032149475674542786, ,4.379157409066091e-05, ,0.14722617951421604,-0.24585320105093728,0.09213381175,1.6068540369219102,0.1426485057551198,-1.397941403004626, ,0.030221955910341013,0.008342071351091586,0.006205224589014414,0.004424425958154304,0.004777414248060838,0.013177649886342667, ,0.6785929203033447
0.010970591202560822,0.020889770669191874,-0.08241268530170867, ,0.011241636979205306,0.020788048367634735,-0.0827185203993509, ,0.0004211274707505159, ,0.0033964900038433586,0.0011056532792349527,-0.007572662010561152,0.005785911111053911,0.010781504076752215,-0.0018678264596859156, ,0.008372802604044056, ,0.012235913232756532, ,4.4430195164074415e-05, ,0.14797528460301582,-0.24563696453045897,0.09230751461000002,1.6072734168088794,0.14346832475371246,-1.3982831954662425, ,0.031391644577727675,0.010362549554851415,0.008032683570347959,0.010804717960762595,0.04080027966588243,-0.014480184502743701, ,0.6953568458557129
0.011002657451830726,0.020900986116795472,-0.0824836015492192, ,0.011299815829478385,0.020801815344842198,-0.08283312473685851, ,0.00046936595755715175, ,0.0033784191349367234,0.0012191084824805822,-0.007732823753028545,-0.016057482165092975,-0.00885160696613125,-0.007496052069226163, ,0.008526224518435177, ,0.018335584302536793, ,4.5228560465541756e-05, ,0.1482455802536137,-0.2455520144688425,0.09238269943,1.6072734168088794,0.1436049612534779,-1.3981495771495172, ,0.028302100077086424,0.009427453353480268,0.00818541188078109,0.010804717960762595,0.017353849053367856,0.008284721581576827, ,0.7123298645019531
0.0110746211136109,0.02092459720981328,-0.08263738201952986, ,0.011357947900999374,0.020815194758515343,-0.08294761443740115, ,0.0004341510312093432, ,0.0035456202497629844,0.001147748466296425,-0.007589087175189031,-0.010316069463443336,-0.010974135549035905,-0.00756782162451648, ,0.008454761596286069, ,0.015061637196847616, ,4.585463611329596e-05, ,0.14887112161642588,-0.2453589461469869,0.09254603197000001,1.6072734168088794,0.14401487075277425,-1.3977487221993412, ,0.03042543813993933,0.009861224983512148,0.008052988634984834,0.010804717960762595,0.017357501394443274,0.002119582409070935, ,0.7286388874053955
0.01114441360205521,0.02094306502940543,-0.08277890302361737, ,0.011416033158870534,0.020828190140268113,-0.08306198902854199, ,0.00040879225773373523, ,0.00351081178434598,0.0007845636491255556,-0.006311143937237221,-0.015443637660574046,-0.0029779528842952883,-0.00461493305949527, ,0.007264425462564672, ,0.015728132042926522, ,4.6357134011995054e-05, ,0.14951983117786075,-0.2451427096265086,0.09269640161,1.6072734168088794,0.14469805325160143,-1.397979096757261, ,0.03340265454363632,0.010372379631623812,0.006746637662007625,0.010546612249568578,0.02874286909066737,0.006709163939796968, ,0.7454679012298584
0.011182378413918842,0.020951283566608973,-0.08284451621819132, ,0.011474071569935265,0.020840805009502153,-0.08317624803911297, ,0.00045534208004446603, ,0.0035867866188009296,0.0007804458571624155,-0.006866031768799658,-0.02395786738406778,-0.013228561105446724,-0.0047286274374330915, ,0.007785661579784825, ,0.027367393431856315, ,4.7008601938364524e-05, ,0.14985190869145237,-0.24503459136626946,0.09276640127,1.6074831067523636,0.14469805325160143,-1.397652381796699, ,0.03204895020549503,0.011897811128193428,0.007276752635906807,0.0075476909335486595,0.017521120278266758,0.013287869087720984, ,0.7617948055267334
0.011251848903013121,0.02096892797350099,-0.08299010776515152, ,0.01153206310277325,0.02085304287342163,-0.0832903909992146, ,0.00042675446667492516, ,0.0032453591064920727,0.0009441543389720293,-0.007418655387035729,0.0074815435850184245,0.028259539355036327,0.0038945094005665573, ,0.008152314450356106, ,0.029233115408765307, ,4.770070106104721e-05, ,0.15050061825288724,-0.2447951866471685,0.09292065978000001,1.607692796695848,0.14551787225019408,-1.3979124955181745, ,0.031391644577727675,0.011600880319403746,0.00785444355029586,0.00925843486705086,0.05921658283079877,-0.017595196285693816, ,0.7756669521331787
0.011285705211491042,0.02097679420487439,-0.08306139512754854, ,0.011590007727695632,0.020864907227052018,-0.08340441744021784, ,0.0004719989662739395, ,0.003718600250509776,0.0008954980054294198,-0.007938020433019059,-0.011387970291854574,-0.0014538612586335784,-0.0027818339592257223, ,0.008811473934356698, ,0.011480398442969782, ,4.852869914958871e-05, ,0.150801804834982,-0.24467162292118091,0.09299584460000002,1.607692796695848,0.14579114524972495,-1.3979719738452863, ,0.03288182313183326,0.0136385371598837,0.008370368638991068,0.008497509838787682,0.03029191706423675,-0.0008541129229679596, ,0.7916929721832275
0.011368531020574807,0.020995879148376986,-0.08322176629110496, ,0.011647905416740382,0.020876401553255902,-0.08351832689476357, ,0.00042458584598542234, ,0.004053238867578655,0.0007624860111735146,-0.007266255158845537,-0.036317471501405435,-0.03290484930910765,-0.008902802551012856, ,0.008355153754918875, ,0.04900701811021049, ,4.9162644620799435e-05, ,0.15150457352653643,-0.24440905000345728,0.09316565859,1.607692796695848,0.1459277817494904,-1.3975933193081396, ,0.03464656500856911,0.013224211476932939,0.00770252007736944,0.007174993547967474,0.0,0.024295494341017965, ,0.8061299324035645
0.011402478660405167,0.021002345355333477,-0.08329167816561679, ,0.011705756143667319,0.02088752932275091,-0.08363211889676465, ,0.00047017001671343983, ,0.0035497201410494084,0.0007262251167118388,-0.007670079991757663,0.013516391107317822,0.022071388177204068,0.011988355100101522, ,0.008482808678726415, ,0.025881247614610484, ,4.993098980439342e-05, ,0.15183665104012808,-0.24427004081172124,0.09323954712000002,1.6079024866393328,0.14647432774855218,-1.3977122759623628, ,0.034147873896535,0.014626532299394387,0.008085691126903554,0.0,0.05798823791544597,-0.02796802905224897, ,0.8195488452911377
0.011466869847579378,0.021014754316408042,-0.08341775940013296, ,0.011763559883953422,0.020898293994126214,-0.08374579298140597, ,0.00045737732212300836, ,0.003889094886638492,0.0006808786363336822,-0.006999219627790003,-0.0258788585739324,-0.010844710928208027,-0.0006250395592444777, ,0.008036027012942036, ,0.02805927759954549, ,5.063039173402656e-05, ,0.1524390242043176,-0.2440306360926203,0.09337306499,1.6081121765828172,0.14715751024737936,-1.3980243292604233, ,0.03563535169300442,0.013328222128998705,0.007436419943977593,0.004742123596592407,0.02437848501616599,0.013409082644218702, ,0.8359298706054688
0.01151787795088997,0.021025136204736252,-0.08351296183278926, ,0.011821316614788116,0.020908699013860235,-0.08385934868514597, ,0.00047499104586610325, ,0.003966167967212982,0.0007248965514895488,-0.007298184583841462,-0.024964905507164414,-0.018670340249941842,-0.012853885342044858, ,0.008337833146227441, ,0.031174157427672284, ,5.13649582479205e-05, ,0.15289466544389685,-0.24386073596938734,0.09347417561000002,1.608321866526302,0.14743078324691022,-1.397838771367113, ,0.034684554663183764,0.013773141009937704,0.00773243277669903,0.014487779365310599,0.012899209380068562,0.013497965751085033, ,0.8494198322296143
0.0115566701244827,0.021031471871796655,-0.08358775663714471, ,0.011879026315068217,0.02091874781633681,-0.08397278554571623, ,0.0005146527826835255, ,0.003647865698189218,0.0008594621659447617,-0.008225543126855184,0.017299310470888132,0.03386961243717303,0.024524805561796058, ,0.009039090612360877, ,0.03803178607109404, ,5.220478883894305e-05, ,0.1536128796011997,-0.24355954938729257,0.09364010073000001,1.6085315564697864,0.14852387524503374,-1.3981583634157007, ,0.03566213512155985,0.014501366375071939,0.008690022651391162,-0.009058371401518944,0.07396781637539457,-0.032944930376461415, ,0.8636069297790527
0.011593515853186236,0.02104004060033768,-0.08366999471376581, ,0.011936688965393419,0.020928443823863153,-0.08408610310212343, ,0.000550788358921144, ,0.003647865698189218,0.0008594621659447617,-0.008225543126855184,0.017299310470888132,0.03386961243717303,0.024524805561796058, ,0.009039090612360877, ,0.03803178607109404, ,5.3304368271629124e-05, ,0.1536128796011997,-0.24355954938729257,0.09364010073000001,1.6085315564697864,0.14852387524503374,-1.3981583634157007, ,0.03566213512155985,0.014501366375071939,0.008690022651391162,-0.009058371401518944,0.07396781637539457,-0.032944930376461415, ,0.8751859664916992
0.011618616617532633,0.021045027226103047,-0.08372020535888489, ,0.011994304548061257,0.020937790446686016,-0.08419930089464991, ,0.0006182019737873674, ,0.0038570682707503496,0.0007522487589521512,-0.00793676454736865,0.00039580205557837947,0.017835329885970815,0.02073814779241117, ,0.008856358468407996, ,0.017839720286914634, ,5.459003335321914e-05, ,0.15384456158742646,-0.2434668765928019,0.09369324862,1.6085315564697864,0.14879714824456466,-1.3982178417428122, ,0.036968033330140544,0.014913867917408577,0.0083968431839747,-0.009058371401518944,0.05876870084021488,-0.016459278843081817, ,0.8867127895355225
0.01174346467174553,0.021075366105989847,-0.08397634746366793, ,0.012051873047062345,0.020946791083009786,-0.08431237846485388, ,0.0004738819433761071, ,0.004689588470067497,0.0013278185240584895,-0.010339646691305,-0.04112304606276703,-0.0025092223660508122,-0.004482636361047119, ,0.011430819557338717, ,0.041199526650035234, ,5.5391042161881305e-05, ,0.154894853258321,-0.243057571750468,0.09396417323,1.608321866526302,0.1493436942436264,-1.3971116172949274, ,0.039589879665611505,0.015546681120326145,0.010932609142072754,0.011146433870305754,0.03545903234542431,0.02743030337054295, ,0.8979098796844482
0.01178594380983509,0.02108901897365601,-0.08408308787634526, ,0.012109394448075572,0.020955449119012367,-0.08442533535557047, ,0.0004894839716310502, ,0.0040618701991698885,0.0015134371662730143,-0.011123962139714488,0.06772996482548742,0.08110182765006041,0.021340522674891643, ,0.011938668906413406, ,0.10566387468340052, ,5.62205152361337e-05, ,0.15529643536778068,-0.2428953943601093,0.09407695046,1.6085315564697864,0.1503001497419845,-1.397728185140521, ,0.04005780563886483,0.01558242061715448,0.011755580457564578,0.006547531486692097,0.12330555210334053,-0.08212996792138866, ,0.9087579250335693
0.01178594380983509,0.02108901897365601,-0.08408308787634526, ,0.01216686873846335,0.02096376792886345,-0.08453817111091327, ,0.0006065413224644787, ,0.0040618701991698885,0.0015134371662730143,-0.011123962139714488,0.06772996482548742,0.08110182765006041,0.021340522674891643, ,0.011938668906413406, ,0.10566387468340052, ,5.7387668941087654e-05, ,0.15529643536778068,-0.2428953943601093,0.09407695046,1.6085315564697864,0.1503001497419845,-1.397728185140521, ,0.04005780563886483,0.01558242061715448,0.011755580457564578,0.006547531486692097,0.12330555210334053,-0.05114759065266624, ,0.9206998348236084
0.011884262350528845,0.021118364656661677,-0.08430748382125089, ,0.012224295907266602,0.020971750874740396,-0.08465088527627379, ,0.0005050178017345884, ,0.0050879912533221,0.0013811849821863261,-0.010823466242473401,-0.03687764525812304,-0.0170085574227906,-0.013801649315999915, ,0.01203921710290418, ,0.040610978772399615, ,5.821989590776511e-05, ,0.1561304905181969,-0.24256331684651763,0.09431417153,1.6089509363567556,0.1512566052403426,-1.3979363592854122, ,0.04147593599583513,0.016353083156724242,0.011451338260244429,0.01705658713623956,0.02099014285434677,0.023305663254838804, ,0.9317948818206787
0.011934760743689212,0.021130348945534862,-0.08441181155141292, ,0.012281675945200072,0.02097940130684639,-0.08476347739832321, ,0.0005165309424885208, ,0.00523725609865782,0.001116796406244856,-0.010147073171219682,-0.045769242001083545,-0.038013465767996454,-0.019080870442005772, ,0.011473411855155215, ,0.05949661322693268, ,5.906661638196649e-05, ,0.1565397953605308,-0.24239341672328468,0.09442435618000002,1.6089509363567556,0.15139324174010801,-1.3977210622285463, ,0.042120258126263105,0.0173899471428387,0.010733700485175203,0.01705658713623956,0.0,0.031173408023656854, ,0.9424548149108887
0.011984144873617082,0.02113973567367269,-0.08451100823268294, ,0.01233900884464745,0.02098672256342649,-0.08487594702501283, ,0.0005315277716073332, ,0.004940022790057484,0.0008591155612378489,-0.009613992407503845,-0.015434456021134104,0.004776891452943376,-0.008003885045093884, ,0.010843004875282032, ,0.016156764604595242, ,6.011492384487014e-05, ,0.15698771386723584,-0.2422080711343033,0.09452935567000001,1.6089509363567556,0.15193978773916977,-1.39784001888277, ,0.044448216186637364,0.018806369710358855,0.010178154325878597,0.01705658713623956,0.04652519235287728,-0.000542255659483893, ,0.9512410163879395
0.012032887221736165,0.021148385438667924,-0.08461280433235477, ,0.01239629459965651,0.020993717970785315,-0.08498829370557455, ,0.0005449579959493601, ,0.004847239713332283,0.000986478067619496,-0.010380237969572213,0.04801803444981503,0.04271010654217165,0.0017784960028246867, ,0.01149861783525953, ,0.06426417907943383, ,6.118417083728876e-05, ,0.1574510778396893,-0.24200728007957345,0.09463694774,1.6089509363567556,0.15275960673776243,-1.3982634900845266, ,0.04615609997980096,0.019534158410553885,0.010985387255172415,0.01705658713623956,0.08739594051829719,-0.0647032994393772, ,0.9600498676300049
0.012087502301980345,0.021160378187255118,-0.08472674652102666, ,0.012453533205934236,0.021000390843303962,-0.08510051699052248, ,0.0005470639238160186, ,0.005763348555176713,0.001197491457285406,-0.011508235848846525,-0.0534040853548878,-0.022269878046632705,-0.007288376614941856, ,0.012926316749616085, ,0.05786141718750981, ,6.224089005619617e-05, ,0.15792988727789123,-0.2418064890248436,0.09475750271000001,1.6091606263002398,0.15330615273682416,-1.3983007679986095, ,0.04785524032197215,0.020220954945337904,0.012168687181054242,0.010306837471918424,0.023819023230974696,0.0350144662107921, ,0.9687027931213379
0.012087502301980345,0.021160378187255118,-0.08472674652102666, ,0.012510724660842088,0.021006744483456963,-0.08521261643165286, ,0.0006624122961080573, ,0.005763348555176713,0.001197491457285406,-0.011508235848846525,-0.0534040853548878,-0.022269878046632705,-0.007288376614941856, ,0.012926316749616085, ,0.05786141718750981, ,6.361175353152605e-05, ,0.15792988727789123,-0.2418064890248436,0.09475750271000001,1.6091606263002398,0.15330615273682416,-1.3983007679986095, ,0.04785524032197215,0.020220954945337904,0.012168687181054242,0.010306837471918424,0.023819023230974696,0.0350144662107921, ,0.9770328998565674
0.012147461747118423,0.02117195731777981,-0.08484593190421348, ,0.012567868963390936,0.021012782181829216,-0.08532459158204461, ,0.0006566536671490506, ,0.006116700348539545,0.0010949679646542671,-0.012035464501792268,-0.0488585460507891,-0.04584565707804887,-0.01348139380594391, ,0.013544939415565678, ,0.06699986225795075, ,6.494266326453883e-05, ,0.15841641944896737,-0.24159025250436533,0.09488324284,1.6091606263002398,0.15344278923658963,-1.397840434721322, ,0.04831819834952687,0.022762518963413476,0.012672085536992842,0.010306837471918424,0.0,0.027959833589982157, ,0.9851388931274414
0.01220447093964383,0.021184017017785956,-0.08497277554372215, ,0.012624966114236472,0.021018507217133473,-0.08543644199606168, ,0.0006474536778742133, ,0.0055997407656649435,0.0013374174560120398,-0.01312646217946878,0.027628137730951085,0.04303390907936362,0.009659882134743097, ,0.014333519855336294, ,0.05113932865636889, ,6.622488900980965e-05, ,0.15891067435291772,-0.2413585705181386,0.09501676071000001,1.6091606263002398,0.1541259717354168,-1.3979891305391012, ,0.049998388597719066,0.02307804998990048,0.013827093333333334,0.009711475306986406,0.09349315791131214,-0.04891617244714845, ,0.9983689785003662
0.012226888695504859,0.021189690892156575,-0.08502694686437155, ,0.012682016115674134,0.021023922856227003,-0.08554816722935168, ,0.0007115410593886417, ,0.005724319045641665,0.0013936577318215473,-0.013813444240582015,0.03362901072417803,0.05274696356686803,0.012642263228931402, ,0.015017368351260161, ,0.06255519182992456, ,6.766552494340295e-05, ,0.15911146540764756,-0.2412658977236479,0.09507379747000001,1.6091606263002398,0.15453588123471315,-1.39824170551005, ,0.051295644085659876,0.02435128087207359,0.014533587153284672,0.009255443994695394,0.10494722262580447,-0.05624446654528783, ,1.0081799030303955
0.01233687094722136,0.021214360242000272,-0.08526668516053712, ,0.012739018971634307,0.02102903235412857,-0.08565976683884804, ,0.0005921002156611294, ,0.006499965495230784,0.0011837902049264232,-0.012921949563233037,-0.03767032855851539,-0.03494432123438047,-0.008949606883874677, ,0.014513017990866304, ,0.05138247638989415, ,6.894141646791223e-05, ,0.1600304706196803,-0.24084114741556556,0.09532657402000001,1.6097896961306934,0.15549233673307122,-1.3985315583950815, ,0.05219853771093002,0.024134522268176698,0.013626014987168523,0.009232615672057564,0.015503882456110106,0.015280804876398556, ,1.013981819152832
0.01233687094722136,0.021214360242000272,-0.08526668516053712, ,0.012795974687677522,0.021033838954035797,-0.08577124038277065, ,0.0007056487456180418, ,0.006499965495230784,0.0011837902049264232,-0.012921949563233037,-0.03767032855851539,-0.03494432123438047,-0.008949606883874677, ,0.014513017990866304, ,0.05138247638989415, ,7.051854400314061e-05, ,0.1600304706196803,-0.24084114741556556,0.09532657402000001,1.6097896961306934,0.15549233673307122,-1.3985315583950815, ,0.05219853771093002,0.024134522268176698,0.013626014987168523,0.009232615672057564,0.015503882456110106,0.015280804876398556, ,1.0195269584655762
0.012406561750070592,0.021223147662156522,-0.08539736379507172, ,0.012852883270989482,0.021038345887341953,-0.08588258742062588, ,0.0006846872007025439, ,0.006890953600902031,0.0006737607900016482,-0.012686648729926548,-0.04844574941119099,-0.04396759420406795,-0.010972822846232494, ,0.014453036052278954, ,0.06542277621329433, ,7.202033989456676e-05, ,0.16058650738662444,-0.24056312903209348,0.09546398076000001,1.6097896961306934,0.15549233673307122,-1.3981231646943786, ,0.05641910913107657,0.02914525232139766,0.013329549389121339,0.009232615672057564,0.010552776772999685,0.02111366888928296, ,1.0249137878417969
0.012479420166305343,0.021233869490748066,-0.08554387600988422, ,0.012909744730376291,0.02104255637365331,-0.085993807513208, ,0.0008009690593629692, ,0.007502442319366653,0.0013673720879670236,-0.0152952715531467,-0.0241397585800945,-0.02497501011408351,-0.005092217030189906, ,0.016789417113659038, ,0.03473439559553627, ,7.382508819009927e-05, ,0.16120432601656243,-0.2402619424499987,0.09561823927000002,1.6097896961306934,0.15603888273213298,-1.3984871575690239, ,0.06087039227611981,0.028713144193183295,0.016122278866396764,0.009232615672057564,0.03472259892690273,-0.002750901863998182, ,1.0309948921203613
0.012479420166305343,0.021233869490748066,-0.08554387600988422, ,0.01296655907625949,0.021046473620805695,-0.08610490022259978, ,0.0007662699895701833, ,0.007502442319366653,0.0013673720879670236,-0.0152952715531467,-0.0241397585800945,-0.02497501011408351,-0.005092217030189906, ,0.017090982390338877, ,0.03473439559553627, ,7.551530625892436e-05, ,0.16120432601656243,-0.2402619424499987,0.09561823927000002,1.6097896961306934,0.15603888273213298,-1.3984871575690239, ,0.06087039227611981,0.028713144193183295,0.016122278866396764,0.009232615672057564,0.03472259892690273,-0.002750901863998182, ,1.0371270179748535
0.01253705665512726,0.0212457914409131,-0.08567689624412203, ,0.01302332632067123,0.02105010082488168,-0.08621586511217255, ,0.0007518247439122111, ,0.007214340609278087,0.0016035738463123694,-0.017460071760677744,0.05689692615758741,0.07021409844141571,0.018706106384759537, ,0.018959753832665453, ,0.09037299487929505, ,7.714789900727861e-05, ,0.16171402638626123,-0.24001481499802355,0.09575823859,1.6097896961306934,0.15699533823049108,-1.399103725414618, ,0.06386066053732892,0.03201651199678501,0.01835116534562212,0.009232615672057564,0.13589627407258742,-0.08702079378505315, ,1.0436248779296875
0.01253705665512726,0.0212457914409131,-0.08567689624412203, ,0.01308004647724943,0.021053441170228334,-0.08632670174658867, ,0.0008683799655661653, ,0.007214340609278087,0.0016035738463123694,-0.017460071760677744,0.05689692615758741,0.07021409844141571,0.018706106384759537, ,0.018959753832665453, ,0.09037299487929505, ,7.907785621687755e-05, ,0.16171402638626123,-0.24001481499802355,0.09575823859,1.6097896961306934,0.15699533823049108,-1.399103725414618, ,0.06386066053732892,0.03201651199678501,0.01835116534562212,0.009232615672057564,0.13589627407258742,-0.08702079378505315, ,1.0495519638061523
0.012628482231971909,0.02126508186899361,-0.08588267606131555, ,0.013136719561232794,0.021056497829473258,-0.08643740969180003, ,0.0007807316345501501, ,0.008087571339029091,0.0015814711633784081,-0.0170685519108393,-0.028040827755453756,-0.0209040840985883,-0.0036140644624331384, ,0.01895376810920452, ,0.03497523844801411, ,8.075144740536249e-05, ,0.16247085420793522,-0.23964412382006076,0.09597471902000002,1.6097896961306934,0.15795179372884915,-1.3994752570397897, ,0.06455574255678284,0.03109336224065229,0.01797834257336343,0.009232615672057564,0.04271246736679841,-0.001187814619648328, ,1.0551528930664062
0.012628482231971909,0.02126508186899361,-0.08588267606131555, ,0.013193345589456004,0.02105927396354169,-0.08654798851505026, ,0.0008966984820268202, ,0.008087571339029091,0.0015814711633784081,-0.0170685519108393,-0.028040827755453756,-0.0209040840985883,-0.0036140644624331384, ,0.01895376810920452, ,0.03497523844801411, ,8.271721100754455e-05, ,0.16247085420793522,-0.23964412382006076,0.09597471902000002,1.6097896961306934,0.15795179372884915,-1.3994752570397897, ,0.06455574255678284,0.03109336224065229,0.01797834257336343,0.009232615672057564,0.04271246736679841,-0.001187814619648328, ,1.0608749389648438
0.012713623596190713,0.02127920330641682,-0.08605663191493478, ,0.013249924580344777,0.02106177272167466,-0.08665843778487535, ,0.0008349042519240553, ,0.008891198002207322,0.0013018334647304957,-0.01834060010152987,-0.10278149292775178,-0.053197225592202343,-0.012515150444940866, ,0.020423657467960658, ,0.1157323551299641, ,8.449771587432372e-05, ,0.1631272865022443,-0.23930432357359488,0.09615749591000002,1.6099993860741781,0.1580884302286146,-1.3991782812427833, ,0.06792909202467486,0.03755320204134183,0.0192144891676719,0.009864736237383999,0.012747140022397569,0.0672859588166215, ,1.0667338371276855
0.012713623596190713,0.02127920330641682,-0.08605663191493478, ,0.013306456553911121,0.021063997241444924,-0.08676875707110392, ,0.0009512553832747219, ,0.008891198002207322,0.0013018334647304957,-0.01834060010152987,-0.10278149292775178,-0.053197225592202343,-0.012515150444940866, ,0.020423657467960658, ,0.1157323551299641, ,8.679680783029293e-05, ,0.1631272865022443,-0.23930432357359488,0.09615749591000002,1.6099993860741781,0.1580884302286146,-1.3991782812427833, ,0.06792909202467486,0.03755320204134183,0.0192144891676719,0.009864736237383999,0.012747140022397569,0.0672859588166215, ,1.0695250034332275
0.012804229741158102,0.021294627275013047,-0.08625582987008011, ,0.013362941531748234,0.02106595064877405,-0.08687894594485797, ,0.0008675975489701698, ,0.009437785064519434,0.0018432529884640152,-0.020882113636695645,-0.03009641180964345,-0.025708599187212414,-0.008419869683160127, ,0.022989824671785078, ,0.039581840599406934, ,8.886241825658891e-05, ,0.16383777792667298,-0.23891046419700943,0.09636619860000001,1.6102090760176624,0.15863497622767636,-1.3990522016765852, ,0.07232998594395638,0.038544655385244014,0.02191033221458047,0.013419529486123996,0.044753074130372134,-0.0057917096231676, ,1.0723419189453125
0.012804229741158102,0.021294627275013047,-0.08625582987008011, ,0.013419379537025754,0.021067636057950312,-0.0869890039785538, ,0.0009836048786559712, ,0.009437785064519434,0.0018432529884640152,-0.020882113636695645,-0.03009641180964345,-0.025708599187212414,-0.008419869683160127, ,0.022989824671785078, ,0.039581840599406934, ,9.12232163051361e-05, ,0.16383777792667298,-0.23891046419700943,0.09636619860000001,1.6102090760176624,0.15863497622767636,-1.3990522016765852, ,0.07232998594395638,0.038544655385244014,0.02191033221458047,0.013419529486123996,0.044753074130372134,-0.0057917096231676, ,1.0750758647918701
0.012804229741158102,0.021294627275013047,-0.08625582987008011, ,0.013475770594484807,0.021069056571644467,-0.087098930745903, ,0.0011012122169310832, ,0.009437785064519434,0.0018432529884640152,-0.020882113636695645,-0.03009641180964345,-0.025708599187212414,-0.008419869683160127, ,0.022989824671785078, ,0.039581840599406934, ,0.0005096401599511095, ,0.16383777792667298,-0.23891046419700943,0.09636619860000001,1.6102090760176624,0.15863497622767636,-1.3990522016765852, ,0.07232998594395638,0.038544655385244014,0.02191033221458047,0.013419529486123996,0.044753074130372134,-0.0057917096231676, ,1.0778939723968506
0.012896731282035492,0.021314974965147948,-0.08648068753957851, ,0.013532114730433194,0.02107021528092811,-0.08720872582191277, ,0.000996824543267962, ,0.009945815651686764,0.002158175516628425,-0.024398490913617607,0.025075917299431455,0.057729330147112776,0.01665851278475277, ,0.02643602332802331, ,0.062940198137997, ,0.0005165019118288116, ,0.1646023284812212,-0.23850115935467553,0.09660212338000002,1.6104187659611469,0.16000134122533075,-1.3997579870128467, ,0.08090105844711916,0.0445734812393005,0.02556791576243981,0.010039212370708133,0.14036334768732545,-0.06739307574156962, ,1.0840389728546143
0.012896731282035492,0.021314974965147948,-0.08648068753957851, ,0.013588411972740314,0.021071115265289687,-0.08731838878288663, ,0.0011133881192777432, ,0.009945815651686764,0.002158175516628425,-0.024398490913617607,0.025075917299431455,0.057729330147112776,0.01665851278475277, ,0.02643602332802331, ,0.062940198137997, ,0.0005247919980433801, ,0.1646023284812212,-0.23850115935467553,0.09660212338000002,1.6104187659611469,0.16000134122533075,-1.3997579870128467, ,0.08090105844711916,0.0445734812393005,0.02556791576243981,0.010039212370708133,0.14036334768732545,-0.06739307574156962, ,1.0869169235229492
0.012896731282035492,0.021314974965147948,-0.08648068753957851, ,0.013644662350832523,0.0210717595926522,-0.0874279192064253, ,0.0012311792849814636, ,0.009945815651686764,0.002158175516628425,-0.024398490913617607,0.025075917299431455,0.057729330147112776,0.01665851278475277, ,0.02643602332802331, ,0.062940198137997, ,0.000534468536220614, ,0.1646023284812212,-0.23850115935467553,0.09660212338000002,1.6104187659611469,0.16000134122533075,-1.3997579870128467, ,0.08090105844711916,0.0445734812393005,0.02556791576243981,0.010039212370708133,0.14036334768732545,-0.06739307574156962, ,1.0897889137268066
0.013001436784136922,0.021340985173404773,-0.08674020655071601, ,0.013700865895687992,0.021072151319389578,-0.08753731667142729, ,0.001094009720107701, ,0.011507871067463935,0.003141019357334303,-0.02921146981837603,-0.005461727608402747,0.03211492668428776,0.012677961522614497, ,0.03155324179951113, ,0.0325757227767426, ,0.0005420299035704396, ,0.165420938165889,-0.23806096358084475,0.09687434428000001,1.6106284559046316,0.1612310697232197,-1.4003523544454115, ,0.08690196113413075,0.046701250766963964,0.030632329846153848,0.008756934162451834,0.12045526617669915,-0.039143353417344186, ,1.0928409099578857
0.013001436784136922,0.021340985173404773,-0.08674020655071601, ,0.013757022639831924,0.021072293490344514,-0.0876465807580902, ,0.0012102146130605481, ,0.011507871067463935,0.003141019357334303,-0.02921146981837603,-0.005461727608402747,0.03211492668428776,0.012677961522614497, ,0.03155324179951113, ,0.0325757227767426, ,0.0005509390330303076, ,0.165420938165889,-0.23806096358084475,0.09687434428000001,1.6106284559046316,0.1612310697232197,-1.4003523544454115, ,0.08690196113413075,0.046701250766963964,0.030632329846153848,0.008756934162451834,0.12045526617669915,-0.039143353417344186, ,1.095627784729004
0.013001436784136922,0.021340985173404773,-0.08674020655071601, ,0.013813132617331645,0.021072189138845038,-0.08775571104791033, ,0.0013275356182199367, ,0.011507871067463935,0.003141019357334303,-0.02921146981837603,-0.005461727608402747,0.03211492668428776,0.012677961522614497, ,0.03155324179951113, ,0.0325757227767426, ,0.0005611574091512238, ,0.165420938165889,-0.23806096358084475,0.09687434428000001,1.6106284559046316,0.1612310697232197,-1.4003523544454115, ,0.08690196113413075,0.046701250766963964,0.030632329846153848,0.008756934162451834,0.12045526617669915,-0.039143353417344186, ,1.0984017848968506
0.013121987672233146,0.02137662156833996,-0.0870478754258651, ,0.013869195863791716,0.021071841286721245,-0.0878647071236845, ,0.0011482269480195626, ,0.013196710979525765,0.003663894356919081,-0.03241861756100494,-0.04530700597671262,-0.011588939902588595,-0.017533784328705445, ,0.035192954793573344, ,0.0467652917372175, ,0.0005687816888767866, ,0.16629360698067636,-0.23759759960839127,0.09719712049000001,1.610838145848116,0.1621875252215778,-1.4003971711100216, ,0.09489694155847078,0.049867021312911604,0.03403592205128206,0.02926745016640579,0.0786910212501594,0.0008796787311695434, ,1.101409912109375
0.013121987672233146,0.02137662156833996,-0.0870478754258651, ,0.013925212416348911,0.021071252944322993,-0.08797356856950996, ,0.0012630628576143547, ,0.013196710979525765,0.003663894356919081,-0.03241861756100494,-0.04530700597671262,-0.011588939902588595,-0.017533784328705445, ,0.035192954793573344, ,0.0467652917372175, ,0.0005776827295016273, ,0.16629360698067636,-0.23759759960839127,0.09719712049000001,1.610838145848116,0.1621875252215778,-1.4003971711100216, ,0.09489694155847078,0.049867021312911604,0.03403592205128206,0.02926745016640579,0.0786910212501594,0.0008796787311695434, ,1.1042959690093994
0.013121987672233146,0.02137662156833996,-0.0870478754258651, ,0.0139811823136674,0.02107042711053649,-0.08808229497078544, ,0.001379128084251822, ,0.013196710979525765,0.003663894356919081,-0.03241861756100494,-0.04530700597671262,-0.011588939902588595,-0.017533784328705445, ,0.035192954793573344, ,0.0467652917372175, ,0.0005878276074098576, ,0.16629360698067636,-0.23759759960839127,0.09719712049000001,1.610838145848116,0.1621875252215778,-1.4003971711100216, ,0.09489694155847078,0.049867021312911604,0.03403592205128206,0.02926745016640579,0.0786910212501594,0.0008796787311695434, ,1.107029914855957
0.013121987672233146,0.02137662156833996,-0.0870478754258651, ,0.01403710559593391,0.021069366772801527,-0.08819088591421213, ,0.0014961013669304213, ,0.013196710979525765,0.003663894356919081,-0.03241861756100494,-0.04530700597671262,-0.011588939902588595,-0.017533784328705445, ,0.035192954793573344, ,0.0467652917372175, ,0.0005991810294038647, ,0.16629360698067636,-0.23759759960839127,0.09719712049000001,1.610838145848116,0.1621875252215778,-1.4003971711100216, ,0.09489694155847078,0.049867021312911604,0.03403592205128206,0.02926745016640579,0.0786910212501594,0.0008796787311695434, ,1.1097469329833984
0.013274217187634737,0.021416658001146945,-0.08742915370691808, ,0.014092982304852708,0.021068074907128455,-0.08829934098779388, ,0.0012446334377665116, ,0.015008052522207774,0.003976076635643162,-0.03854975582833426,-0.044918430858168656,0.01175853404731774,-0.009205521645361035, ,0.04155880773489593, ,0.04643106092583444, ,0.0006071495776552554, ,0.1673747895830678,-0.23698750371132754,0.09759637781000001,1.610838145848116,0.1631439807199359,-1.4002786302943502, ,0.10638670578303898,0.06255566351909743,0.04032610511392406,0.027289465174383448,0.11504682439680598,-0.012298928773962953, ,1.112473964691162
0.013274217187634737,0.021416658001146945,-0.08742915370691808, ,0.014148812483640636,0.02106655447811504,-0.0884076597808382, ,0.0013582943515061728, ,0.015008052522207774,0.003976076635643162,-0.03854975582833426,-0.044918430858168656,0.01175853404731774,-0.009205521645361035, ,0.04155880773489593, ,0.04643106092583444, ,0.0006163098797753886, ,0.1673747895830678,-0.23698750371132754,0.09759637781000001,1.610838145848116,0.1631439807199359,-1.4002786302943502, ,0.10638670578303898,0.06255566351909743,0.04032610511392406,0.027289465174383448,0.11504682439680598,-0.012298928773962953, ,1.1152048110961914
0.013274217187634737,0.021416658001146945,-0.08742915370691808, ,0.01420459617702237,0.02106480843896416,-0.08851584188395663, ,0.001473191899386344, ,0.015008052522207774,0.003976076635643162,-0.03854975582833426,-0.044918430858168656,0.01175853404731774,-0.009205521645361035, ,0.04155880773489593, ,0.04643106092583444, ,0.0006266337595297374, ,0.1673747895830678,-0.23698750371132754,0.09759637781000001,1.610838145848116,0.1631439807199359,-1.4002786302943502, ,0.10638670578303898,0.06255566351909743,0.04032610511392406,0.027289465174383448,0.11504682439680598,-0.012298928773962953, ,1.1179828643798828
0.013274217187634737,0.021416658001146945,-0.08742915370691808, ,0.014260333431225349,0.02106283973149956,-0.08862388688906624, ,0.001589024855166023, ,0.015008052522207774,0.003976076635643162,-0.03854975582833426,-0.044918430858168656,0.01175853404731774,-0.009205521645361035, ,0.04155880773489593, ,0.04643106092583444, ,0.0006380907963825503, ,0.16843280398683655,-0.23635423961564112,0.09800082029000001,1.610838145848116,0.16464698221735574,-1.4008507973138866, ,0.11601093100057551,0.06802648140392172,0.042476830720000004,0.022826588397409288,0.17755430364080002,-0.08645421592527994, ,1.1209988594055176
0.01342122052427361,0.0214553694904898,-0.0878160436298392, ,0.01431602429397492,0.02106065128618423,-0.08873179438938966, ,0.001339804351649571, ,0.01573944919706323,0.003937278405504132,-0.040583674951707845,0.023153411936394443,0.06181259427584655,0.00878181080052546, ,0.04370660241720079, ,0.06600581188902756, ,0.000646346249973927, ,0.16843280398683655,-0.23635423961564112,0.09800082029000001,1.610838145848116,0.16464698221735574,-1.4008507973138866, ,0.11601093100057551,0.06802648140392172,0.042476830720000004,0.022826588397409288,0.17755430364080002,-0.08645421592527994, ,1.1238038539886475
0.01342122052427361,0.0214553694904898,-0.0878160436298392, ,0.014371668814489444,0.021058246022136854,-0.08883956397945567, ,0.0014521201422643638, ,0.01573944919706323,0.003937278405504132,-0.040583674951707845,0.023153411936394443,0.06181259427584655,0.00878181080052546, ,0.04370660241720079, ,0.06600581188902756, ,0.0006557157138377692, ,0.16843280398683655,-0.23635423961564112,0.09800082029000001,1.610838145848116,0.16464698221735574,-1.4008507973138866, ,0.11601093100057551,0.06802648140392172,0.042476830720000004,0.022826588397409288,0.17755430364080002,-0.08645421592527994, ,1.1265869140625
0.01342122052427361,0.0214553694904898,-0.0878160436298392, ,0.014427267043475397,0.021055626847148557,-0.08894719525510021, ,0.0015657036051034989, ,0.01573944919706323,0.003937278405504132,-0.040583674951707845,0.023153411936394443,0.06181259427584655,0.00878181080052546, ,0.04370660241720079, ,0.06600581188902756, ,0.0006661753447718581, ,0.16843280398683655,-0.23635423961564112,0.09800082029000001,1.610838145848116,0.16464698221735574,-1.4008507973138866, ,0.11601093100057551,0.06802648140392172,0.042476830720000004,0.022826588397409288,0.17755430364080002,-0.08645421592527994, ,1.1294689178466797
0.01359214354793863,0.02149732798515084,-0.08825304022974947, ,0.014482819033122304,0.02105279665770047,-0.08905468781346745, ,0.0012781039744374626, ,0.017155812632827755,0.0038893806934132127,-0.0422097983348477,-0.012647681845837458,0.040490032737536916,0.022884563598491385, ,0.04572872472242692, ,0.042417833737848444, ,0.0006731290791998763, ,0.16969160944533515,-0.23562057999258978,0.09845841066000001,1.6110478357916007,0.1665598932140719,-1.4015121818240899, ,0.12669818632639623,0.07221989464114975,0.044246698666666674,0.00547280653638523,0.17075662386065238,-0.05759027780681308, ,1.1323118209838867
0.01359214354793863,0.02149732798515084,-0.08825304022974947, ,0.014538324837097974,0.02104975833898026,-0.08916204125300965, ,0.0013863118265442843, ,0.017155812632827755,0.0038893806934132127,-0.0422097983348477,-0.012647681845837458,0.040490032737536916,0.022884563598491385, ,0.04572872472242692, ,0.042417833737848444, ,0.000681142368495881, ,0.16969160944533515,-0.23562057999258978,0.09845841066000001,1.6110478357916007,0.1665598932140719,-1.4015121818240899, ,0.12669818632639623,0.07221989464114975,0.044246698666666674,0.00547280653638523,0.17075662386065238,-0.05759027780681308, ,1.1350858211517334
0.01359214354793863,0.02149732798515084,-0.08825304022974947, ,0.014593784510543604,0.021046514764899805,-0.08926925517348878, ,0.001496399007417613, ,0.017155812632827755,0.0038893806934132127,-0.0422097983348477,-0.012647681845837458,0.040490032737536916,0.022884563598491385, ,0.04572872472242692, ,0.042417833737848444, ,0.0006902007755950113, ,0.16969160944533515,-0.23562057999258978,0.09845841066000001,1.6110478357916007,0.1665598932140719,-1.4015121818240899, ,0.12669818632639623,0.07221989464114975,0.044246698666666674,0.00547280653638523,0.17075662386065238,-0.05759027780681308, ,1.137840986251831
0.01359214354793863,0.02149732798515084,-0.08825304022974947, ,0.014649198110068548,0.021043068798111634,-0.08937632917597602, ,0.0016079470802995753, ,0.017155812632827755,0.0038893806934132127,-0.0422097983348477,-0.012647681845837458,0.040490032737536916,0.022884563598491385, ,0.04572872472242692, ,0.042417833737848444, ,0.0007002858998225339, ,0.16969160944533515,-0.23562057999258978,0.09845841066000001,1.6110478357916007,0.1665598932140719,-1.4015121818240899, ,0.12669818632639623,0.07221989464114975,0.044246698666666674,0.00547280653638523,0.17075662386065238,-0.05759027780681308, ,1.140584945678711
0.013775341249003231,0.02153388153725251,-0.08868462828935166, ,0.014704565693745876,0.02103942329002609,-0.08948326286285384, ,0.0013212737070533542, ,0.018512573022000024,0.002752166536716618,-0.04168540836940664,-0.1071104132747903,-0.007768894062205826,-0.006186904442755808, ,0.04569423433503293, ,0.10739120297959963, ,0.0007070357672924342, ,0.171027642232576,-0.23484058397229313,0.09891081587000002,1.6116769056220543,0.1679262582117263,-1.4013195010188055, ,0.13693642360529693,0.08287942494189587,0.043640579506849325,0.023163545908257678,0.12736851826208156,0.029363891447590974, ,1.1432998180389404
0.013775341249003231,0.02153388153725251,-0.08868462828935166, ,0.014759887321107104,0.021035581080828654,-0.08959005583781604, ,0.0014273868986667965, ,0.018512573022000024,0.002752166536716618,-0.04168540836940664,-0.1071104132747903,-0.007768894062205826,-0.006186904442755808, ,0.04569423433503293, ,0.10739120297959963, ,0.000714781478382481, ,0.171027642232576,-0.23484058397229313,0.09891081587000002,1.6116769056220543,0.1679262582117263,-1.4013195010188055, ,0.13693642360529693,0.08287942494189587,0.043640579506849325,0.023163545908257678,0.12736851826208156,0.029363891447590974, ,1.1460227966308594
0.013775341249003231,0.02153388153725251,-0.08868462828935166, ,0.01481516305313728,0.02103154499949653,-0.08969670770586795, ,0.001535537732148974, ,0.018512573022000024,0.002752166536716618,-0.04168540836940664,-0.1071104132747903,-0.007768894062205826,-0.006186904442755808, ,0.04569423433503293, ,0.10739120297959963, ,0.0007235129278906353, ,0.171027642232576,-0.23484058397229313,0.09891081587000002,1.6116769056220543,0.1679262582117263,-1.4013195010188055, ,0.13693642360529693,0.08287942494189587,0.043640579506849325,0.023163545908257678,0.12736851826208156,0.029363891447590974, ,1.148789882659912
0.013969201521896412,0.021554592683020013,-0.08910447115944731, ,0.014870392952270295,0.021027317863816057,-0.08980321807332799, ,0.0012563486692808107, ,0.018512573022000024,0.002752166536716618,-0.04168540836940664,-0.1071104132747903,-0.007768894062205826,-0.006186904442755808, ,0.04569423433503293, ,0.10739120297959963, ,0.0007291217251684266, ,0.1724486250814333,-0.2339601924246315,0.09933599899000001,1.6120962855090233,0.1692926232093807,-1.4011268202135208, ,0.14735549931439562,0.09231219995960192,0.0416984594764398,0.07366593219257338,0.15251338173651208,-0.0003058234791927378, ,1.1517348289489746
0.013969201521896412,0.021554592683020013,-0.08910447115944731, ,0.014925577082383595,0.021022902480399328,-0.089909586547828, ,0.001358513699918923, ,0.018997170654899944,0.0013929241053933469,-0.039623905756934634,-0.07529956153839548,0.021266448669470184,-0.049436272946909436, ,0.0439646066499999, ,0.0782444127795288, ,0.0007356778915720776, ,0.1724486250814333,-0.2339601924246315,0.09933599899000001,1.6120962855090233,0.1692926232093807,-1.4011268202135208, ,0.14735549931439562,0.09231219995960192,0.0416984594764398,0.07366593219257338,0.15251338173651208,-0.0003058234791927378, ,1.1546549797058105
0.013969201521896412,0.021554592683020013,-0.08910447115944731, ,0.014980715508793704,0.02101830164470212,-0.09001581273831409, ,0.001463322280579483, ,0.018997170654899944,0.0013929241053933469,-0.039623905756934634,-0.07529956153839548,0.021266448669470184,-0.049436272946909436, ,0.0439646066499999, ,0.0782444127795288, ,0.0007431793801185456, ,0.1724486250814333,-0.2339601924246315,0.09933599899000001,1.6120962855090233,0.1692926232093807,-1.4011268202135208, ,0.14735549931439562,0.09231219995960192,0.0416984594764398,0.07366593219257338,0.15251338173651208,-0.0003058234791927378, ,1.157498836517334
0.013969201521896412,0.021554592683020013,-0.08910447115944731, ,0.015035808298250854,0.021013518141039234,-0.09012189625504674, ,0.0015702119285308086, ,0.018997170654899944,0.0013929241053933469,-0.039623905756934634,-0.07529956153839548,0.021266448669470184,-0.049436272946909436, ,0.0439646066499999, ,0.0782444127795288, ,0.0007516184877554054, ,0.1724486250814333,-0.2339601924246315,0.09933599899000001,1.6120962855090233,0.1692926232093807,-1.4011268202135208, ,0.14735549931439562,0.09231219995960192,0.0416984594764398,0.07366593219257338,0.15251338173651208,-0.0003058234791927378, ,1.160301923751831
0.014160023916165,0.02155932662891674,-0.08948635203982891, ,0.01509085551893431,0.0210085547426038,-0.09022783670960233, ,0.001311333923520546, ,0.019006664451777844,-0.00045783537216871574,-0.03622466660442371,-0.0797709692145468,0.008746143434928832,0.0344609997104689, ,0.04091074892265032, ,0.08024861480281964, ,0.0007572721790257605, ,0.17401633985490086,-0.23295623715098235,0.09974951550000001,1.6123059754525078,0.17106889770633144,-1.4013500718594658, ,0.1543039700137736,0.10127741895247683,0.03783565681710214,-0.01255450076396347,0.17071363779965015,-0.021932452390480903, ,1.1639068126678467
0.014160023916165,0.02155932662891674,-0.08948635203982891, ,0.015145857240447404,0.021003414211481965,-0.09033363371487332, ,0.0014137864746806485, ,0.019006664451777844,-0.00045783537216871574,-0.03622466660442371,-0.0797709692145468,0.008746143434928832,0.0344609997104689, ,0.04091074892265032, ,0.08024861480281964, ,0.0007638373219823093, ,0.17401633985490086,-0.23295623715098235,0.09974951550000001,1.6123059754525078,0.17106889770633144,-1.4013500718594658, ,0.1543039700137736,0.10127741895247683,0.03783565681710214,-0.01255450076396347,0.17071363779965015,-0.021932452390480903, ,1.1668198108673096
0.014160023916165,0.02155932662891674,-0.08948635203982891, ,0.015200813533812555,0.020998099298671857,-0.09043928688506916, ,0.0015186520219226687, ,0.019006664451777844,-0.00045783537216871574,-0.03622466660442371,-0.0797709692145468,0.008746143434928832,0.0344609997104689, ,0.04091074892265032, ,0.08024861480281964, ,0.0007713107348530059, ,0.17401633985490086,-0.23295623715098235,0.09974951550000001,1.6123059754525078,0.17106889770633144,-1.4013500718594658, ,0.1543039700137736,0.10127741895247683,0.03783565681710214,-0.01255450076396347,0.17071363779965015,-0.021932452390480903, ,1.1715259552001953
0.014255964674145666,0.021557052542203383,-0.08966856933699496, ,0.015255724471466375,0.02099261274409905,-0.09054479583571665, ,0.0014442592617272233, ,0.019312495255484823,-0.0007674294902137611,-0.035449081213174506,-0.09562704894666482,-0.018324651970051606,0.02739854953002115, ,0.04037572017777287, ,0.09736667490008877, ,0.0007779082694302042, ,0.17480405860807177,-0.23244653678128352,0.09994007013000002,1.6123059754525078,0.17202535320468954,-1.4013948885240755, ,0.1558242061715448,0.10225963530007626,0.037043747720930234,-0.011959022492342384,0.1442576803187725,-0.006977605982703958, ,1.1743319034576416
0.014255964674145666,0.021557052542203383,-0.08966856933699496, ,0.015310590127254727,0.020986957276635052,-0.09065016018366139, ,0.0015494399144297983, ,0.019312495255484823,-0.0007674294902137611,-0.035449081213174506,-0.09562704894666482,-0.018324651970051606,0.02739854953002115, ,0.04037572017777287, ,0.09736667490008877, ,0.0007853988679253458, ,0.17480405860807177,-0.23244653678128352,0.09994007013000002,1.6123059754525078,0.17202535320468954,-1.4013948885240755, ,0.1558242061715448,0.10225963530007626,0.037043747720930234,-0.011959022492342384,0.1442576803187725,-0.006977605982703958, ,1.1770758628845215
0.014255964674145666,0.021557052542203383,-0.08966856933699496, ,0.015365410576427794,0.020981135614112904,-0.09075537954706739, ,0.0016564138827205742, ,0.019312495255484823,-0.0007674294902137611,-0.035449081213174506,-0.09562704894666482,-0.018324651970051606,0.02739854953002115, ,0.04037572017777287, ,0.09736667490008877, ,0.0007937740122983769, ,0.17480405860807177,-0.23244653678128352,0.09994007013000002,1.6123059754525078,0.17202535320468954,-1.4013948885240755, ,0.1558242061715448,0.10225963530007626,0.037043747720930234,-0.011959022492342384,0.1442576803187725,-0.006977605982703958, ,1.1798028945922852
0.014552969052438797,0.02153006599505285,-0.09015959770547688, ,0.015420185895635133,0.02097515046334569,-0.09086045354541882, ,0.0012454698747195677, ,0.020455693325367633,-0.0028732536072597586,-0.031539905445554774,-0.15607528431124315,-0.10828557426936684,0.0028246019485541427, ,0.03770220963322517, ,0.18996112433099324, ,0.0007980758776547692, ,0.1772058285319556,-0.23085565380919326,0.10045340097000001,1.6123059754525078,0.17339171820234395,-1.4012022077187907, ,0.16561420865352666,0.11378530162886184,0.03291076760330579,-0.009030856000524548,0.06105248706628188,0.042555555241501085, ,1.1825048923492432
0.014552969052438797,0.02153006599505285,-0.09015959770547688, ,0.015474916162920724,0.020969004520142026,-0.09096538179951974, ,0.0013468721020822865, ,0.020455693325367633,-0.0028732536072597586,-0.031539905445554774,-0.15607528431124315,-0.10828557426936684,0.0028246019485541427, ,0.03770220963322517, ,0.18996112433099324, ,0.0008032532005267269, ,0.1772058285319556,-0.23085565380919326,0.10045340097000001,1.6123059754525078,0.17339171820234395,-1.4012022077187907, ,0.16561420865352666,0.11378530162886184,0.03291076760330579,-0.009030856000524548,0.06105248706628188,0.042555555241501085, ,1.1852948665618896
0.014552969052438797,0.02153006599505285,-0.09015959770547688, ,0.015529601457718123,0.02096270046932452,-0.09107016393149579, ,0.0014508085148609347, ,0.020455693325367633,-0.0028732536072597586,-0.031539905445554774,-0.15607528431124315,-0.10828557426936684,0.0028246019485541427, ,0.03770220963322517, ,0.18996112433099324, ,0.0008093051193522802, ,0.1772058285319556,-0.23085565380919326,0.10045340097000001,1.6123059754525078,0.17339171820234395,-1.4012022077187907, ,0.16561420865352666,0.11378530162886184,0.03291076760330579,-0.009030856000524548,0.06105248706628188,0.042555555241501085, ,1.1880338191986084
0.014552969052438797,0.02153006599505285,-0.09015959770547688, ,0.015584241860845373,0.020956240984745536,-0.09117479956479388, ,0.0015567381163746421, ,0.020455693325367633,-0.0028732536072597586,-0.031539905445554774,-0.15607528431124315,-0.10828557426936684,0.0028246019485541427, ,0.03770220963322517, ,0.18996112433099324, ,0.0008162257952506355, ,0.1772058285319556,-0.23085565380919326,0.10045340097000001,1.6123059754525078,0.17339171820234395,-1.4012022077187907, ,0.16561420865352666,0.11378530162886184,0.03291076760330579,-0.009030856000524548,0.06105248706628188,0.042555555241501085, ,1.190842866897583
0.014768248293528184,0.02149532512500607,-0.0904837704059636, ,0.015638837454500204,0.02094962872930526,-0.09127928832418374, ,0.0012994455747325927, ,0.02119311469285156,-0.003385440140995207,-0.032304666785459984,-0.08936187697745797,-0.07228864336074464,0.0029302449913465927, ,0.03878402778789516, ,0.11493980091074213, ,0.0008206590042367084, ,0.178974334360153,-0.2296354620150658,0.10079173266000001,1.6120962855090233,0.17421153720093657,-1.401135606479704, ,0.17508660804145898,0.12073402233902134,0.03374748203389831,0.0,0.10566369466838747,-0.02942873076431926, ,1.1935758590698242
0.014768248293528184,0.02149532512500607,-0.0904837704059636, ,0.015693388322255128,0.02094286635496793,-0.09138362983575805, ,0.001403866716869854, ,0.02119311469285156,-0.003385440140995207,-0.032304666785459984,-0.08936187697745797,-0.07228864336074464,0.0029302449913465927, ,0.03878402778789516, ,0.11493980091074213, ,0.0008259608925333734, ,0.178974334360153,-0.2296354620150658,0.10079173266000001,1.6120962855090233,0.17421153720093657,-1.401135606479704, ,0.17508660804145898,0.12073402233902134,0.03374748203389831,0.0,0.10566369466838747,-0.02942873076431926, ,1.1963379383087158
0.014768248293528184,0.02149532512500607,-0.0904837704059636, ,0.015747894549052267,0.02093595650277929,-0.09148782372693304, ,0.0015102063146616755, ,0.02119311469285156,-0.003385440140995207,-0.032304666785459984,-0.08936187697745797,-0.07228864336074464,0.0029302449913465927, ,0.03878402778789516, ,0.11493980091074213, ,0.0008321252657057005, ,0.178974334360153,-0.2296354620150658,0.10079173266000001,1.6120962855090233,0.17421153720093657,-1.401135606479704, ,0.17508660804145898,0.12073402233902134,0.03374748203389831,0.0,0.10566369466838747,-0.02942873076431926, ,1.1991078853607178
0.01498623209708242,0.021459946036265515,-0.09082413474200066, ,0.015802356221198747,0.020928901802884172,-0.09159186962645025, ,0.001239952989662529, ,0.021685483055719088,-0.0036643752987241965,-0.03427291554295093,-0.07536895114448613,-0.05995756311496524,0.0012923774089661179, ,0.040722482261080634, ,0.0963085711805339, ,0.0008357665846696008, ,0.1807660083869731,-0.22836893382369297,0.10114691612000001,1.6123059754525078,0.1754412656988255,-1.401566616431988, ,0.17638836720905351,0.12772132107465783,0.03571482403587444,0.003250510218834414,0.11889585262120231,-0.04968367821875392, ,1.202150821685791
0.01498623209708242,0.021459946036265515,-0.09082413474200066, ,0.015856773426361458,0.020921704874541897,-0.09169576716437554, ,0.001344354430160294, ,0.021685483055719088,-0.0036643752987241965,-0.03427291554295093,-0.07536895114448613,-0.05995756311496524,0.0012923774089661179, ,0.040722482261080634, ,0.0963085711805339, ,0.0008402673620633237, ,0.1807660083869731,-0.22836893382369297,0.10114691612000001,1.6123059754525078,0.1754412656988255,-1.401566616431988, ,0.17638836720905351,0.12772132107465783,0.03571482403587444,0.003250510218834414,0.11889585262120231,-0.04968367821875392, ,1.2105348110198975
0.01498623209708242,0.021459946036265515,-0.09082413474200066, ,0.01591114625356223,0.02091436832614474,-0.09179951597210101, ,0.001450685968316185, ,0.021685483055719088,-0.0036643752987241965,-0.03427291554295093,-0.07536895114448613,-0.05995756311496524,0.0012923774089661179, ,0.040722482261080634, ,0.0963085711805339, ,0.0008456219112409803, ,0.1807660083869731,-0.22836893382369297,0.10114691612000001,1.6123059754525078,0.1754412656988255,-1.401566616431988, ,0.17638836720905351,0.12772132107465783,0.03571482403587444,0.003250510218834414,0.11889585262120231,-0.04968367821875392, ,1.2133967876434326
0.015117198033163129,0.021438747585609978,-0.09103169023828503, ,0.015965474793173052,0.020906894755234943,-0.0919031156823456, ,0.0013273368823727605, ,0.022235490028349826,-0.0037470678264615426,-0.035124222141590195,-0.10613470470760025,-0.06754616386578437,-0.008139210512611749, ,0.04173929222146349, ,0.12580543047016698, ,0.0008498107370769088, ,0.18182402279074186,-0.22760438326914476,0.10136339655000001,1.6125156653959922,0.17612444819765274,-1.401796990989908, ,0.17905083312919012,0.1303529417011961,0.03661795751724139,0.010731668984401728,0.11207812102907098,-0.020150599650736185, ,1.2162549495697021
0.015117198033163129,0.021438747585609978,-0.09103169023828503, ,0.01601975913691086,0.02089928674852059,-0.09200656592915497, ,0.001433881847782675, ,0.022235490028349826,-0.0037470678264615426,-0.035124222141590195,-0.10613470470760025,-0.06754616386578437,-0.008139210512611749, ,0.04173929222146349, ,0.12580543047016698, ,0.000854845832858855, ,0.18182402279074186,-0.22760438326914476,0.10136339655000001,1.6125156653959922,0.17612444819765274,-1.401796990989908, ,0.17905083312919012,0.1303529417011961,0.03661795751724139,0.010731668984401728,0.11207812102907098,-0.020150599650736185, ,1.2190330028533936
0.015430065063763085,0.021387379786472847,-0.09152077207691528, ,0.016073999377832788,0.02089154688189379,-0.09210986634790307, ,0.0010037597970681794, ,0.021853059721987696,-0.004154922670931274,-0.03295846102520239,-0.12399545046840434,-0.08942898122463759,-0.02049039136655447, ,0.03993391650272651, ,0.15288026533871696, ,0.0008561186017837211, ,0.18431846550911637,-0.22580498650945044,0.10187413481000002,1.612725355339477,0.17749081319530713,-1.402012703885326, ,0.17444290727660072,0.12806604798714005,0.03440348060475163,0.016711531061380864,0.08346186257889958,0.0011011925637345876, ,1.2222368717193604
0.015430065063763085,0.021387379786472847,-0.09152077207691528, ,0.0161281956103311,0.020883677720447105,-0.09221301657529249, ,0.0011046739233382267, ,0.021853059721987696,-0.004154922670931274,-0.03295846102520239,-0.12399545046840434,-0.08942898122463759,-0.02049039136655447, ,0.039762793598588676, ,0.15288026533871696, ,0.000858225002813844, ,0.18431846550911637,-0.22580498650945044,0.10187413481000002,1.612725355339477,0.17749081319530713,-1.402012703885326, ,0.17444290727660072,0.12806604798714005,0.03440348060475163,0.016711531061380864,0.08346186257889958,0.0011011925637345876, ,1.224970817565918
0.015430065063763085,0.021387379786472847,-0.09152077207691528, ,0.01618234793012842,0.0208756818184908,-0.09231601624935466, ,0.0012083780928428805, ,0.021853059721987696,-0.004154922670931274,-0.03295846102520239,-0.12399545046840434,-0.08942898122463759,-0.02049039136655447, ,0.039762793598588676, ,0.15288026533871696, ,0.0008611674657552646, ,0.18431846550911637,-0.22580498650945044,0.10187413481000002,1.612725355339477,0.17749081319530713,-1.402012703885326, ,0.17444290727660072,0.12806604798714005,0.03440348060475163,0.016711531061380864,0.08346186257889958,0.0011011925637345876, ,1.227747917175293
0.015430065063763085,0.021387379786472847,-0.09152077207691528, ,0.016236456434272552,0.020867561719569945,-0.09241886500945191, ,0.0013141722796433722, ,0.021853059721987696,-0.004154922670931274,-0.03295846102520239,-0.12399545046840434,-0.08942898122463759,-0.02049039136655447, ,0.039762793598588676, ,0.15288026533871696, ,0.0008649425058709987, ,0.18431846550911637,-0.22580498650945044,0.10187413481000002,1.612725355339477,0.17749081319530713,-1.402012703885326, ,0.17444290727660072,0.12806604798714005,0.03440348060475163,0.016711531061380864,0.08346186257889958,0.0011011925637345876, ,1.2305049896240234
0.01563073980721925,0.02134299317037701,-0.09182094422220427, ,0.0162905212211318,0.020859319956481093,-0.09252156249627642, ,0.0010770873956874108, ,0.021002911691042184,-0.005193061064321437,-0.03079545195655892,-0.16559573456901394,-0.08858660674211852,-0.023040811768738734, ,0.03763575486061382, ,0.1878017744978002, ,0.0008666957694232005, ,0.18592479394695507,-0.22457707198244875,0.10218654070000001,1.612725355339477,0.17831063219389978,-1.4019461026462392, ,0.16795918859906334,0.13253762787495918,0.031985565301204825,0.016711531061380864,0.07763967537534702,0.038359124360718005, ,1.233292818069458
0.01563073980721925,0.02134299317037701,-0.09182094422220427, ,0.016344542390389807,0.020850959051289673,-0.09262410835185193, ,0.0011818139960415503, ,0.021002911691042184,-0.005193061064321437,-0.03079545195655892,-0.16559573456901394,-0.08858660674211852,-0.023040811768738734, ,0.03763575486061382, ,0.1878017744978002, ,0.0008692787057069574, ,0.18592479394695507,-0.22457707198244875,0.10218654070000001,1.612725355339477,0.17831063219389978,-1.4019461026462392, ,0.16795918859906334,0.13253762787495918,0.031985565301204825,0.016711531061380864,0.07763967537534702,0.038359124360718005, ,1.2360479831695557
0.01563073980721925,0.02134299317037701,-0.09182094422220427, ,0.01639852004304078,0.020842481515346803,-0.09272650221953485, ,0.0012884229483630788, ,0.021002911691042184,-0.005193061064321437,-0.03079545195655892,-0.16559573456901394,-0.08858660674211852,-0.023040811768738734, ,0.03763575486061382, ,0.1878017744978002, ,0.0008726863824765194, ,0.18592479394695507,-0.22457707198244875,0.10218654070000001,1.612725355339477,0.17831063219389978,-1.4019461026462392, ,0.16795918859906334,0.13253762787495918,0.031985565301204825,0.016711531061380864,0.07763967537534702,0.038359124360718005, ,1.238778829574585
0.01563073980721925,0.02134299317037701,-0.09182094422220427, ,0.01645245428138433,0.02083388984930632,-0.09282874374401325, ,0.0013964457543119947, ,0.021002911691042184,-0.005193061064321437,-0.03079545195655892,-0.16559573456901394,-0.08858660674211852,-0.023040811768738734, ,0.03763575486061382, ,0.1878017744978002, ,0.0008769102483784185, ,0.1876392406450329,-0.223210148263711,0.10251839094000001,1.612725355339477,0.17926708769225788,-1.4018275618305682, ,0.1676624409160261,0.1319846196918926,0.033534340042105266,0.015895686266484448,0.10191278540947846,-0.016526395449712777, ,1.2414958477020264
0.01584523002885608,0.021289141993549685,-0.09214056003139248, ,0.01650634520902089,0.020825186543142072,-0.09293083257130962, ,0.0011299816939908175, ,0.021145691649671804,-0.004888641109263663,-0.03222974706733217,-0.11025773273986712,-0.0648590232313276,-0.016849419948349223, ,0.03885608939744695, ,0.12791960657799398, ,0.0008789348199433176, ,0.1876392406450329,-0.223210148263711,0.10251839094000001,1.612725355339477,0.17926708769225788,-1.4018275618305682, ,0.1676624409160261,0.1319846196918926,0.033534340042105266,0.015895686266484448,0.10191278540947846,-0.016526395449712777, ,1.2470338344573975
0.01584523002885608,0.021289141993549685,-0.09214056003139248, ,0.016560192930846356,0.020816374076164323,-0.09303276834877972, ,0.001237221538992192, ,0.021145691649671804,-0.004888641109263663,-0.03222974706733217,-0.11025773273986712,-0.0648590232313276,-0.016849419948349223, ,0.03885608939744695, ,0.12791960657799398, ,0.0008817783653325944, ,0.1876392406450329,-0.223210148263711,0.10251839094000001,1.612725355339477,0.17926708769225788,-1.4018275618305682, ,0.1676624409160261,0.1319846196918926,0.033534340042105266,0.015895686266484448,0.10191278540947846,-0.016526395449712777, ,1.2500028610229492
0.015983585060685118,0.021257452751811953,-0.09235494249713778, ,0.016613997553047426,0.020807454917037883,-0.09313455072511478, ,0.0010989572107035126, ,0.020822653139452335,-0.004686058510650108,-0.03264516889844135,-0.1386194533698971,-0.0534815566907071,-0.013592338774274243, ,0.03900319320951739, ,0.14857857410300804, ,0.0008834884349811842, ,0.18872814598029858,-0.22234520218179785,0.10274135282,1.612725355339477,0.17995027019108506,-1.4016495426877853, ,0.16333380646896864,0.13017413108157858,0.033963350788912584,0.014269829746038012,0.10948447715415043,0.013350295458082861, ,1.2529778480529785
0.015983585060685118,0.021257452751811953,-0.09235494249713778, ,0.016667759183096546,0.020798431523797633,-0.09323617935034113, ,0.0012063884569196446, ,0.020822653139452335,-0.004686058510650108,-0.03264516889844135,-0.1386194533698971,-0.0534815566907071,-0.013592338774274243, ,0.03900319320951739, ,0.14857857410300804, ,0.0008860110914025785, ,0.18872814598029858,-0.22234520218179785,0.10274135282,1.612725355339477,0.17995027019108506,-1.4016495426877853, ,0.16333380646896864,0.13017413108157858,0.033963350788912584,0.014269829746038012,0.10948447715415043,0.013350295458082861, ,1.2557528018951416
0.015983585060685118,0.021257452751811953,-0.09235494249713778, ,0.016721477929746976,0.020789306343867137,-0.09333765387582135, ,0.001315054599352488, ,0.020822653139452335,-0.004686058510650108,-0.03264516889844135,-0.1386194533698971,-0.0534815566907071,-0.013592338774274243, ,0.03900319320951739, ,0.14857857410300804, ,0.0008893370100688569, ,0.18872814598029858,-0.22234520218179785,0.10274135282,1.612725355339477,0.17995027019108506,-1.4016495426877853, ,0.16333380646896864,0.13017413108157858,0.033963350788912584,0.014269829746038012,0.10948447715415043,0.013350295458082861, ,1.2584748268127441
0.015983585060685118,0.021257452751811953,-0.09235494249713778, ,0.016775153903027938,0.02078008181407424,-0.09343897395425488, ,0.0014246362498490425, ,0.020822653139452335,-0.004686058510650108,-0.03264516889844135,-0.1386194533698971,-0.0534815566907071,-0.013592338774274243, ,0.03900319320951739, ,0.14857857410300804, ,0.0008934546965287044, ,0.18872814598029858,-0.22234520218179785,0.10274135282,1.612725355339477,0.17995027019108506,-1.4016495426877853, ,0.16333380646896864,0.13017413108157858,0.033963350788912584,0.014269829746038012,0.10948447715415043,0.013350295458082861, ,1.2612059116363525
0.01625382457633896,0.021195280763869645,-0.09277414281059615, ,0.01682878721423947,0.020770760360669254,-0.09354013923967851, ,0.0010476402708381638, ,0.01930940318327443,-0.004651021227121367,-0.03021904487120064,-0.11294159750151786,-0.01625453441648622,-0.003800290303003169, ,0.03616179921791807, ,0.11410516699567184, ,0.0008946316856455705, ,0.19086734298645874,-0.2206616464152169,0.10317820255000001,1.612725355339477,0.18158990818827037,-1.4015980189497528, ,0.15355492161564852,0.12276447808340334,0.031479864664031625,0.011800780831720472,0.1381906174245273,-0.005454904650556619, ,1.2639639377593994
0.01625382457633896,0.021195280763869645,-0.09277414281059615, ,0.016882377975947674,0.020761344399341113,-0.09364114938746751, ,0.001155456857246563, ,0.01930940318327443,-0.004651021227121367,-0.03021904487120064,-0.11294159750151786,-0.01625453441648622,-0.003800290303003169, ,0.03616179921791807, ,0.11410516699567184, ,0.000896607633915275, ,0.19086734298645874,-0.2206616464152169,0.10317820255000001,1.612725355339477,0.18158990818827037,-1.4015980189497528, ,0.15355492161564852,0.12276447808340334,0.031479864664031625,0.011800780831720472,0.1381906174245273,-0.005454904650556619, ,1.2667438983917236
0.01625382457633896,0.021195280763869645,-0.09277414281059615, ,0.016935926301979664,0.02075183633523498,-0.09374200405433586, ,0.0012643817115659843, ,0.01930940318327443,-0.004651021227121367,-0.03021904487120064,-0.11294159750151786,-0.01625453441648622,-0.003800290303003169, ,0.03616179921791807, ,0.11410516699567184, ,0.0008993728525442277, ,0.19086734298645874,-0.2206616464152169,0.10317820255000001,1.612725355339477,0.18158990818827037,-1.4015980189497528, ,0.15355492161564852,0.12276447808340334,0.031479864664031625,0.011800780831720472,0.1381906174245273,-0.005454904650556619, ,1.26948881149292
0.01625382457633896,0.021195280763869645,-0.09277414281059615, ,0.01698943230741874,0.020742238562969122,-0.0938427028983369, ,0.0013741130342637977, ,0.019217359197637007,-0.0043949969096928445,-0.03343542780352119,-0.1369319113688698,-0.020597514262443016,-0.006786346122821107, ,0.0388143108243814, ,0.1384722505001457, ,0.0009029156897212393, ,0.19235010769830987,-0.21941056368959255,0.10350486763000001,1.612725355339477,0.18295627318592475,-1.401568695624749, ,0.14488082680682562,0.12686756892843687,0.034552736485900216,0.010467676292796978,0.12385544250169837,0.01471976665153063, ,1.2724509239196777
0.016444941614624252,0.021148557095708752,-0.09308891582159487, ,0.017042896108599194,0.020732553466651454,-0.09394324557886449, ,0.0011227145364740064, ,0.019217359197637007,-0.0043949969096928445,-0.03343542780352119,-0.1369319113688698,-0.020597514262443016,-0.006786346122821107, ,0.0388143108243814, ,0.1384722505001457, ,0.0009045438293268154, ,0.19235010769830987,-0.21941056368959255,0.10350486763000001,1.612725355339477,0.18295627318592475,-1.401568695624749, ,0.14488082680682562,0.12686756892843687,0.034552736485900216,0.010467676292796978,0.12385544250169837,0.01471976665153063, ,1.2752978801727295
0.016444941614624252,0.021148557095708752,-0.09308891582159487, ,0.017096317823101708,0.020722783419897514,-0.09404363175665338, ,0.0012316885582966692, ,0.019217359197637007,-0.0043949969096928445,-0.03343542780352119,-0.1369319113688698,-0.020597514262443016,-0.006786346122821107, ,0.0388143108243814, ,0.1384722505001457, ,0.0009069493052751231, ,0.19235010769830987,-0.21941056368959255,0.10350486763000001,1.612725355339477,0.18295627318592475,-1.401568695624749, ,0.14488082680682562,0.12686756892843687,0.034552736485900216,0.010467676292796978,0.12385544250169837,0.01471976665153063, ,1.2780230045318604
0.016444941614624252,0.021148557095708752,-0.09308891582159487, ,0.017149697569748063,0.020712930785846646,-0.09414386109378, ,0.0013414025366877476, ,0.019217359197637007,-0.0043949969096928445,-0.03343542780352119,-0.1369319113688698,-0.020597514262443016,-0.006786346122821107, ,0.0388143108243814, ,0.1384722505001457, ,0.0009101204967452882, ,0.19235010769830987,-0.21941056368959255,0.10350486763000001,1.612725355339477,0.18295627318592475,-1.401568695624749, ,0.14488082680682562,0.12686756892843687,0.034552736485900216,0.010467676292796978,0.12385544250169837,0.01471976665153063, ,1.2807879447937012
0.016647757372932514,0.021106704597220957,-0.09345408682881229, ,0.01720303546859643,0.02070299791717944,-0.0942439332536626, ,0.0010465038088239905, ,0.019013901550128255,-0.003505394261723629,-0.03521323268173134,-0.1264837615501959,-0.012060470911743388,0.0025546802303861283, ,0.04017198024725501, ,0.12705724203326524, ,0.0009111087816154239, ,0.19374019961567027,-0.21819037189546509,0.10385616222,1.6129350452829614,0.18418600168381372,-1.4015096331361894, ,0.1375317993601026,0.12104201729396784,0.03661795751724139,0.0024561742235108485,0.1268374168534441,0.011527067469101947, ,1.2836008071899414
0.016647757372932514,0.021106704597220957,-0.09345408682881229, ,0.017256331640936384,0.020692987156134615,-0.09434384790106304, ,0.0011546425968360428, ,0.019013901550128255,-0.003505394261723629,-0.03521323268173134,-0.1264837615501959,-0.012060470911743388,0.0025546802303861283, ,0.04017198024725501, ,0.12705724203326524, ,0.0009128608234515433, ,0.19374019961567027,-0.21819037189546509,0.10385616222,1.6129350452829614,0.18418600168381372,-1.4015096331361894, ,0.1375317993601026,0.12104201729396784,0.03661795751724139,0.0024561742235108485,0.1268374168534441,0.011527067469101947, ,1.2863538265228271
0.016647757372932514,0.021106704597220957,-0.09345408682881229, ,0.017309586209283884,0.02068290083452627,-0.09444360470208636, ,0.0012636347017351284, ,0.019013901550128255,-0.003505394261723629,-0.03521323268173134,-0.1264837615501959,-0.012060470911743388,0.0025546802303861283, ,0.04017198024725501, ,0.12705724203326524, ,0.0009153663511535689, ,0.19374019961567027,-0.21819037189546509,0.10385616222,1.6129350452829614,0.18418600168381372,-1.4015096331361894, ,0.1375317993601026,0.12104201729396784,0.03661795751724139,0.0024561742235108485,0.1268374168534441,0.011527067469101947, ,1.289259910583496
0.01682699816413068,0.02107593476061829,-0.09379385953600015, ,0.017362799297376212,0.020672741273759832,-0.09454320332418203, ,0.001005566484683658, ,0.017881941386996544,-0.002917289850839529,-0.034801284721590636,-0.11229848461616765,0.013566372414423638,-0.001686007476032542, ,0.039235237046754405, ,0.11311474289344657, ,0.0009160060684126476, ,0.19511484606728224,-0.2169701801013376,0.10423597519000001,1.613144735226446,0.18555236668146813,-1.4013169523309048, ,0.12652925541129437,0.11243713454795115,0.03611975401360545,0.011269425272156249,0.14109762804861298,0.0041048912320656855, ,1.2926509380340576
0.01682699816413068,0.02107593476061829,-0.09379385953600015, ,0.017415971030167503,0.020662510784851713,-0.09464264343614473, ,0.0011127634653469306, ,0.017881941386996544,-0.002917289850839529,-0.034801284721590636,-0.11229848461616765,0.013566372414423638,-0.001686007476032542, ,0.039235237046754405, ,0.11311474289344657, ,0.000917391683884016, ,0.19511484606728224,-0.2169701801013376,0.10423597519000001,1.613144735226446,0.18555236668146813,-1.4013169523309048, ,0.12652925541129437,0.11243713454795115,0.03611975401360545,0.011269425272156249,0.14109762804861298,0.0041048912320656855, ,1.2954468727111816
0.01682699816413068,0.02107593476061829,-0.09379385953600015, ,0.017469101533823212,0.020652211668442916,-0.09474192470811442, ,0.001220928157914796, ,0.017881941386996544,-0.002917289850839529,-0.034801284721590636,-0.11229848461616765,0.013566372414423638,-0.001686007476032542, ,0.039235237046754405, ,0.11311474289344657, ,0.0009195143165695459, ,0.19511484606728224,-0.2169701801013376,0.10423597519000001,1.613144735226446,0.18555236668146813,-1.4013169523309048, ,0.12652925541129437,0.11243713454795115,0.03611975401360545,0.011269425272156249,0.14109762804861298,0.0041048912320656855, ,1.2981679439544678
0.01682699816413068,0.02107593476061829,-0.09379385953600015, ,0.01752219093571542,0.0206418462148186,-0.09484104681157773, ,0.001329784586085188, ,0.017881941386996544,-0.002917289850839529,-0.034801284721590636,-0.11229848461616765,0.013566372414423638,-0.001686007476032542, ,0.039235237046754405, ,0.11311474289344657, ,0.0009223634156634045, ,0.19511484606728224,-0.2169701801013376,0.10423597519000001,1.613144735226446,0.18555236668146813,-1.4013169523309048, ,0.12652925541129437,0.11243713454795115,0.03611975401360545,0.011269425272156249,0.14109762804861298,0.0041048912320656855, ,1.3009898662567139
0.017013595488955317,0.021042282542696227,-0.09416324224341192, ,0.017575239364418016,0.020631416703923926,-0.09494000941936809, ,0.0010428910901708487, ,0.017667950185621922,-0.0033011989759341638,-0.03558516079391895,-0.10826232526246911,0.02082680012845776,-0.0011675044238394837, ,0.03986675365726927, ,0.11024712972741324, ,0.0009231946410048352, ,0.1963350378614097,-0.21584266110170083,0.10459245494000001,1.613144735226446,0.1869187316791225,-1.4013693077460414, ,0.12244766652705909,0.1168681546286586,0.03661795751724139,0.010274229416139223,0.1456471544339032,-0.005925120137773458, ,1.3037359714508057
0.017013595488955317,0.021042282542696227,-0.09416324224341192, ,0.01762824694970157,0.02062092540538174,-0.0950388122056671, ,0.0011497656344520327, ,0.017667950185621922,-0.0033011989759341638,-0.03558516079391895,-0.10826232526246911,0.02082680012845776,-0.0011675044238394837, ,0.03986675365726927, ,0.11024712972741324, ,0.0009247464971243366, ,0.1963350378614097,-0.21584266110170083,0.10459245494000001,1.613144735226446,0.1869187316791225,-1.4013693077460414, ,0.12244766652705909,0.1168681546286586,0.03661795751724139,0.010274229416139223,0.1456471544339032,-0.005925120137773458, ,1.306471824645996
0.017013595488955317,0.021042282542696227,-0.09416324224341192, ,0.017681213822528356,0.020610374578508773,-0.09513745484600394, ,0.0012575169676392085, ,0.017667950185621922,-0.0033011989759341638,-0.03558516079391895,-0.10826232526246911,0.02082680012845776,-0.0011675044238394837, ,0.03986675365726927, ,0.11024712972741324, ,0.0009270102418217167, ,0.1963350378614097,-0.21584266110170083,0.10459245494000001,1.613144735226446,0.1869187316791225,-1.4013693077460414, ,0.12244766652705909,0.1168681546286586,0.03661795751724139,0.010274229416139223,0.1456471544339032,-0.005925120137773458, ,1.309175968170166
0.017013595488955317,0.021042282542696227,-0.09416324224341192, ,0.01773414011504762,0.02059976647233371,-0.09523593701725812, ,0.001365898645052597, ,0.017667950185621922,-0.0033011989759341638,-0.03558516079391895,-0.10826232526246911,0.02082680012845776,-0.0011675044238394837, ,0.03986675365726927, ,0.11024712972741324, ,0.0009299757040057092, ,0.19757067512128562,-0.21466108297194447,0.10498263823000001,1.613144735226446,0.1884217331765424,-1.4012880448444531, ,0.1181780094127905,0.11151226975143451,0.038107204593301434,0.009293380407707004,0.13264125494186263,0.015402614177603996, ,1.3120508193969727
0.01718388066939947,0.02101495726960292,-0.09451521044056695, ,0.017787025960590327,0.020589103325612985,-0.0953342583976572, ,0.0011027127368046555, ,0.017731020520538918,-0.0025767608986467976,-0.0367773135072178,-0.12299804171855702,0.013293607414974337,-0.002078870511714536, ,0.0409096513580445, ,0.12371406946071381, ,0.0009311350129506685, ,0.19757067512128562,-0.21466108297194447,0.10498263823000001,1.613144735226446,0.1884217331765424,-1.4012880448444531, ,0.1181780094127905,0.11151226975143451,0.038107204593301434,0.009293380407707004,0.13264125494186263,0.015402614177603996, ,1.3150479793548584
0.01718388066939947,0.02101495726960292,-0.09451521044056695, ,0.017839871493664634,0.020578387366849464,-0.09543241866678104, ,0.0012092097302556963, ,0.017731020520538918,-0.0025767608986467976,-0.0367773135072178,-0.12299804171855702,0.013293607414974337,-0.002078870511714536, ,0.0409096513580445, ,0.12371406946071381, ,0.0009329888443993687, ,0.19757067512128562,-0.21466108297194447,0.10498263823000001,1.613144735226446,0.1884217331765424,-1.4012880448444531, ,0.1181780094127905,0.11151226975143451,0.038107204593301434,0.009293380407707004,0.13264125494186263,0.015402614177603996, ,1.3178648948669434
0.01718388066939947,0.02101495726960292,-0.09451521044056695, ,0.01789267684995026,0.020567620814307123,-0.0955304175055588, ,0.0013164905296314754, ,0.017731020520538918,-0.0025767608986467976,-0.0367773135072178,-0.12299804171855702,0.013293607414974337,-0.002078870511714536, ,0.0409096513580445, ,0.12371406946071381, ,0.000935528590659184, ,0.19757067512128562,-0.21466108297194447,0.10498263823000001,1.613144735226446,0.1884217331765424,-1.4012880448444531, ,0.1181780094127905,0.11151226975143451,0.038107204593301434,0.009293380407707004,0.13264125494186263,0.015402614177603996, ,1.320887804031372
0.017354862776790814,0.02099239412031656,-0.09487135877083522, ,0.01794544216629445,0.020556805876031096,-0.09562825459627303, ,0.0010542354691582716, ,0.01747886319390112,-0.0022966085958918314,-0.03654001379724538,-0.11349617556664617,0.020150783738703836,0.00021168648886214152, ,0.04057040396516552, ,0.11527085847763874, ,0.0009363095569650991, ,0.1986981941209224,-0.21361079130104993,0.10535208088,1.613144735226446,0.18965146167443137,-1.4011473036157533, ,0.11558701773260752,0.10734948140098505,0.03792574171428572,0.008537648883556383,0.13715893785694225,0.009863983791103627, ,1.3237428665161133
0.017354862776790814,0.02099239412031656,-0.09487135877083522, ,0.017998167580706114,0.020545944749861298,-0.09572592962255759, ,0.0011590726688753827, ,0.01747886319390112,-0.0022966085958918314,-0.03654001379724538,-0.11349617556664617,0.020150783738703836,0.00021168648886214152, ,0.04057040396516552, ,0.11527085847763874, ,0.0009377655250168003, ,0.1986981941209224,-0.21361079130104993,0.10535208088,1.613144735226446,0.18965146167443137,-1.4011473036157533, ,0.11558701773260752,0.10734948140098505,0.03792574171428572,0.008537648883556383,0.13715893785694225,0.009863983791103627, ,1.3285198211669922
0.017354862776790814,0.02099239412031656,-0.09487135877083522, ,0.018050853232351605,0.020535039623452545,-0.09582344226939984, ,0.0012649264161493795, ,0.01747886319390112,-0.0022966085958918314,-0.03654001379724538,-0.11349617556664617,0.020150783738703836,0.00021168648886214152, ,0.04057040396516552, ,0.11527085847763874, ,0.0009398899463877912, ,0.1986981941209224,-0.21361079130104993,0.10535208088,1.613144735226446,0.18965146167443137,-1.4011473036157533, ,0.11558701773260752,0.10734948140098505,0.03792574171428572,0.008537648883556383,0.13715893785694225,0.009863983791103627, ,1.3313899040222168
0.01753138470809138,0.020965257665647028,-0.09523781811749002, ,0.018103499261549236,0.020524092674289514,-0.09592079222314129, ,0.0009941806882392686, ,0.01643738354279369,-0.002843599313620656,-0.03477384706383481,-0.10904761708725946,0.03017282189909659,0.001082578307200259, ,0.03856804473146521, ,0.11314473530375006, ,0.000940240209238446, ,0.19986432678493032,-0.21249871776716162,0.10573189385000001,1.613144735226446,0.19101782667208575,-1.4009546228104683, ,0.10796011553864708,0.10783743358917133,0.03595668514672686,0.00785016981108416,0.13974019169815577,0.00483256877752164, ,1.3342440128326416
0.01753138470809138,0.020965257665647028,-0.09523781811749002, ,0.018156105809764712,0.0205131060697048,-0.09601797917147735, ,0.0010969816729315333, ,0.01643738354279369,-0.002843599313620656,-0.03477384706383481,-0.10904761708725946,0.03017282189909659,0.001082578307200259, ,0.03856804473146521, ,0.11314473530375006, ,0.0009412449622108376, ,0.19986432678493032,-0.21249871776716162,0.10573189385000001,1.613144735226446,0.19101782667208575,-1.4009546228104683, ,0.10796011553864708,0.10783743358917133,0.03595668514672686,0.00785016981108416,0.13974019169815577,0.00483256877752164, ,1.337000846862793
0.01753138470809138,0.020965257665647028,-0.09523781811749002, ,0.01820867301960598,0.02050208196689553,-0.09611500280345912, ,0.0012011262040797178, ,0.01643738354279369,-0.002843599313620656,-0.03477384706383481,-0.10904761708725946,0.03017282189909659,0.001082578307200259, ,0.03856804473146521, ,0.11314473530375006, ,0.0009429002567450343, ,0.19986432678493032,-0.21249871776716162,0.10573189385000001,1.613144735226446,0.19101782667208575,-1.4009546228104683, ,0.10796011553864708,0.10783743358917133,0.03595668514672686,0.00785016981108416,0.13974019169815577,0.00483256877752164, ,1.3398089408874512
0.017690095680035087,0.020936494285086628,-0.09556856575465894, ,0.018261201034818268,0.020491022512940594,-0.09621186280949337, ,0.0009687298523322187, ,0.01643738354279369,-0.002843599313620656,-0.03477384706383481,-0.10904761708725946,0.03017282189909659,0.001082578307200259, ,0.03856804473146521, ,0.11314473530375006, ,0.0009430637351981177, ,0.20091461845582484,-0.2114561488291413,0.10607411441000002,1.6133544251699303,0.19238419166974016,-1.4009252994854648, ,0.10236994774376568,0.10292509930419824,0.033393734842767295,0.0,0.12057113908037914,0.016126949190623345, ,1.34266996383667
0.017690095680035087,0.020936494285086628,-0.09556856575465894, ,0.018313690000279163,0.0204799298448171,-0.09630855888134324, ,0.0010700050429317143, ,0.015632127553732004,-0.002992205236881449,-0.032298050013523434,-0.11700071047420517,0.015420093594773681,0.005194279721882944, ,0.0360066763074826, ,0.11801233152296609, ,0.0009438621082027316, ,0.20091461845582484,-0.2114561488291413,0.10607411441000002,1.6133544251699303,0.19238419166974016,-1.4009252994854648, ,0.10236994774376568,0.10292509930419824,0.033393734842767295,0.0,0.12057113908037914,0.016126949190623345, ,1.3455989360809326
0.017690095680035087,0.020936494285086628,-0.09556856575465894, ,0.018366140061993823,0.020468806089418427,-0.09640509071212905, ,0.0011728351372702448, ,0.015632127553732004,-0.002992205236881449,-0.032298050013523434,-0.11700071047420517,0.015420093594773681,0.005194279721882944, ,0.0360066763074826, ,0.11801233152296609, ,0.0009452931896344035, ,0.20091461845582484,-0.2114561488291413,0.10607411441000002,1.6133544251699303,0.19238419166974016,-1.4009252994854648, ,0.10236994774376568,0.10292509930419824,0.033393734842767295,0.0,0.12057113908037914,0.016126949190623345, ,1.3484129905700684
0.017690095680035087,0.020936494285086628,-0.09556856575465894, ,0.018418551367089767,0.02045765336357042,-0.09650145799632937, ,0.0012768023538080068, ,0.015632127553732004,-0.002992205236881449,-0.032298050013523434,-0.11700071047420517,0.015420093594773681,0.005194279721882944, ,0.0360066763074826, ,0.11801233152296609, ,0.0009473522527659165, ,0.20091461845582484,-0.2114561488291413,0.10607411441000002,1.6133544251699303,0.19238419166974016,-1.4009252994854648, ,0.10236994774376568,0.10292509930419824,0.033393734842767295,0.0,0.12057113908037914,0.016126949190623345, ,1.3512167930603027
0.017850329271921393,0.02090460943645279,-0.09589701705193873, ,0.018470924063812053,0.020446473774048568,-0.09659766042978092, ,0.0010420783673997266, ,0.015804845347745,-0.0031251753689358827,-0.03234169357853465,-0.11090047232762866,0.01665144640072398,0.005343751388887416, ,0.0361323262616811, ,0.11214343514075208, ,0.0009479369818685944, ,0.20196491012671938,-0.21039813442537253,0.10641374239000001,1.6133544251699303,0.1936139201676291,-1.4007845582567646, ,0.10348630486201829,0.10371250443548719,0.03346388974789917,0.0,0.12295208883427723,0.009274361581057683, ,1.3540198802947998
0.017850329271921393,0.02090460943645279,-0.09589701705193873, ,0.018523258301518398,0.020435269417595492,-0.09669369770968, ,0.0011435967832214302, ,0.015804845347745,-0.0031251753689358827,-0.03234169357853465,-0.11090047232762866,0.01665144640072398,0.005343751388887416, ,0.0361323262616811, ,0.11214343514075208, ,0.0009491373487480596, ,0.20196491012671938,-0.21039813442537253,0.10641374239000001,1.6133544251699303,0.1936139201676291,-1.4007845582567646, ,0.10348630486201829,0.10371250443548719,0.03346388974789917,0.0,0.12295208883427723,0.009274361581057683, ,1.3567349910736084
