NicholasDascanio/dvrk_moveit_final/test/execution/third_experiment_notsharpbends/thirdexp_400vel4.0/thirdexp_400vel4.0_26.csv
Current Position (x),Current Position (y),Current Position (z), ,Planned Position (x),Planned Position (y),Planned Position (z), ,Position Error,,Cartesian linear Velocity(x),Cartesian linear Velocity(y),Cartesian linear Velocity(z),Cartesian Angular Velocity(x),Cartesian Angular Velocity(y),Cartesian Angular Velocity(z), ,Total Linear Velocity, ,Total Angular Velocity, ,MSE, ,Joint 1 Position,Joint 2 Position,Joint 3 Position,Joint 4 Position,Joint 5 Position,Joint 6 Position, ,Joint 1 Velocity,Joint 2 Velocity,Joint 3 Velocity,Joint 4 Velocity,Joint 5 Velocity,Joint 6 Velocity, ,Time Stamp
0.00905590875629812,0.02056062392193719,-0.07665948488965219, ,0.00925388140466121,0.02048939430624441,-0.07685802911030046, ,0.0002892864241620522, ,0.0001959111188919396,0.00025708721712188376,-0.001002777506461123,0.10383026464815148,-0.0009625545198877572,-0.028628626417121727, ,0.0010535832815574448, ,0.10383472621482621, ,2.410720201350435e-05, ,0.16610053865882077,-0.25482701665078616,0.08711328058000001,1.693246293637534,0.4273989712662977,-1.2678911017845746, ,0.0003618977204411165,5.474912833983105e-05,0.0010518544583006711,-0.0010612318294665887,0.0,-0.10819166958807358, ,0.028553009033203125
0.009086775463066972,0.02057140544286354,-0.07674101045715198, ,0.00932010500912425,0.020490035428664857,-0.0770833366835, ,0.00042219782273202294, ,0.0033634563128096305,0.000992946273982718,-0.006875592016480001,0.06891559723761638,-0.24669985413324114,-0.09524961224889289, ,0.007718325352579966, ,0.25614483706804275, ,3.234019304063978e-05, ,0.16615459778894032,-0.2546571165275532,0.08725457619,1.6930366036940496,0.4237097857726308,-1.2792582766495102, ,0.001051996549989608,0.007799517397361941,0.006389414969915765,-0.0013424722186961687,-0.2549718009290406,-0.10069135372805726, ,0.05996298789978027
0.009179099616754987,0.020605018195157816,-0.07696279411506574, ,0.009386448809594328,0.0204905764785466,-0.07730788070262719, ,0.0004185395407686776, ,0.0025663348793582884,0.001318614948202849,-0.008497566065970009,0.2531685438317754,-0.10061179036716898,-0.10191499248852352, ,0.008974043076571448, ,0.27242805270838333, ,3.531324336446102e-05, ,0.16622410238480834,-0.25446404820569757,0.08740494583000001,1.6930366036940496,0.4198839637791985,-1.2822644808565526, ,0.00402262951958371,0.010382918927531909,0.00846826768740032,-0.0013004329404135853,-0.09870550093390898,-0.2816149404006114, ,0.08748197555541992
0.009243383977230537,0.020629393969770284,-0.07719126894622141, ,0.009452910797414954,0.020491018531344808,-0.07753166135888331, ,0.0004229849228209258, ,0.0017021759767851126,0.0006878771568425226,-0.007797256014884642,-0.18076045728098117,0.022766365001980184,0.052597539216192916, ,0.008010479348984356, ,0.18218850200551026, ,3.697639786865901e-05, ,0.1663940025080413,-0.25403929789761526,0.08763309287000001,1.6930366036940496,0.4183809622817786,-1.2831625311595467, ,0.008361980264152651,0.016894595256982517,0.007968389954977489,-0.001244231966484894,0.03169713205019325,0.1725847038296087, ,0.11471700668334961
0.009285794999040335,0.02063846875429976,-0.07744017045181313, ,0.00951948897301809,0.02049136265948391,-0.07775467884967888, ,0.00041853149096999066, ,0.0012978115889270571,-0.0002452226426687762,-0.0068318274986840875,0.013626570399195745,0.058210012028194855,0.00579756588935526, ,0.006958327100432035, ,0.05978368428161678, ,3.7914234643339796e-05, ,0.1666488526928907,-0.25334425193893506,0.08788716571,1.6928269137505652,0.42070378277779114,-1.2804009473343736, ,0.009357150015577539,0.025326111971836346,0.0068866457068741905,-0.0004429794501324028,0.0706196242363005,-0.03435839271520149, ,0.14449381828308105
0.009350711970972815,0.020630261508229233,-0.07766562879099707, ,0.009586181345909292,0.02049160993236197,-0.07797693337861969, ,0.00041422292584831317, ,0.0021371348098834426,-0.00019358908896055407,-0.007390295282758348,0.03791790147063612,-0.012250300478833019,-0.01946273020455126, ,0.00769553677772645, ,0.03984767360478681, ,3.8480050440354554e-05, ,0.16701954387085347,-0.25253336498714146,0.08811012759,1.6926172238070805,0.42097705577732203,-1.2820123217241561, ,0.01126105868737045,0.025703396955165436,0.0073000969385884525,-0.002561159046838595,0.0,-0.06607370787570435, ,0.1746959686279297
0.009395509550514203,0.020623091224132806,-0.07781859001009168, ,0.009652985934652632,0.02049176141635332,-0.07819842515549466, ,0.0004773011046328057, ,0.002249721167810161,-0.00010625965318200424,-0.00803436225586785,0.0020270273785691667,-0.012025763281294866,-0.009997604117206104, ,0.008344070547718385, ,0.012195400321981985, ,3.9764780999094275e-05, ,0.16725894858995444,-0.25196188275444886,0.08826049723000001,1.6926172238070805,0.42097705577732203,-1.2825023941649993, ,0.012612565332066823,0.026799475164775707,0.007747476420233463,-0.0024695240095874175,0.0,-0.020806123687117282, ,0.20201492309570312
0.009462824966120543,0.020617961755642778,-0.07804828601819583, ,0.00971990076685561,0.02049181817481123,-0.07841915439626151, ,0.00046855471842427785, ,0.0023861174701884287,8.789411513507184e-05,-0.008408893680001557,-0.02751819123454623,-0.015190298732239173,0.007784363646016882, ,0.008741325693427967, ,0.0314324033817439, ,4.1131098152581064e-05, ,0.16760647156929454,-0.25120505493277484,0.08848734798,1.691988153976627,0.42084041927755655,-1.2826360124817247, ,0.012164714979934722,0.02486165615888676,0.008383585010526317,-0.012194745988676101,0.0,0.0010730775959894546, ,0.2292649745941162
0.00953024366880845,0.02061540757064889,-0.07828832922711194, ,0.009786923879154402,0.020491781268072884,-0.07863912132303486, ,0.0004519107075892816, ,0.0023215064499703592,0.00017910159021124585,-0.008200582244236242,-0.006443507448502419,0.009821672141092697,-0.01663051347855287, ,0.008524729832748537, ,0.01174665887811824, ,4.20392184216483e-05, ,0.16800033094588,-0.2504250589124782,0.08872716163000001,1.6917784640331426,0.42138696527661834,-1.2836534352774944, ,0.013731289474529125,0.024432786189101642,0.008270410965732087,0.014899502295040726,0.020729304057125766,-0.014127409306649337, ,0.2542128562927246
0.00958234744469845,0.020622606415180312,-0.07847153780865099, ,0.00985405331719854,0.020491651753461147,-0.07885832616407176, ,0.000490487957513866, ,0.0025554684983802624,0.0005224495035815581,-0.009190574124822102,-0.018872106665766816,0.0060725091352947765,-0.013720200346042117, ,0.009553534710977715, ,0.019825027405557524, ,4.3171895105678926e-05, ,0.16826290386360362,-0.24993852674140205,0.08891123481,1.6917784640331426,0.42138696527661834,-1.283735114017635, ,0.014119467573050258,0.02328187967577791,0.00932600206088993,0.014899502295040726,0.017163370792851268,-0.000339061823291794, ,0.27922987937927246
0.009656775488067674,0.020633531664290848,-0.07874116600593464, ,0.009921287135636142,0.02049143068528865,-0.07907676915375957, ,0.0004503205222536115, ,0.002313971569578516,0.00014930458744493157,-0.007764798412890978,0.011266704455112391,0.012775440597143252,0.005131855910644322, ,0.008103631943609236, ,0.01703380414070451, ,4.3743871645516905e-05, ,0.1687030996374344,-0.24921258985122494,0.089184752,1.691988153976627,0.42220678427521097,-1.2845669789200946, ,0.015753144349015733,0.02223973319861045,0.007885550257425744,-0.009743261016995462,0.032355497126741684,-0.03345842672939011, ,0.30575990676879883
0.00973037010345557,0.020634535323261864,-0.07896236204724723, ,0.009988623398098882,0.020491119114861057,-0.07929445053260185, ,0.0004444611739300952, ,0.002548701023997309,0.00011098970914407769,-0.008138163249109128,-0.002479281802818789,-0.005561570463563145,5.8700428831641005e-05, ,0.008528651516764608, ,0.00608915992415574, ,4.417777189440958e-05, ,0.16915101814413944,-0.24855615755691585,0.08940641759000001,1.691568774089658,0.42220678427521097,-1.2848120151405162, ,0.01570101614137505,0.023676881626364967,0.008198050190427176,-0.006901191740876055,0.012431634197088289,-0.0218047037148591, ,0.331820011138916
0.009786036616205581,0.0206388998897246,-0.0791402751980689, ,0.010056060177186844,0.020490718090479868,-0.07951137054720628, ,0.0004822678998894664, ,0.0026511892418524608,0.000246029958288748,-0.008310101981212358,-2.7149074101961194e-05,-0.009785686398712594,-0.0023151188508125187, ,0.008726232295477778, ,0.009785722034447487, ,4.484973977409038e-05, ,0.16950626385635376,-0.24805417992009124,0.0895866019,1.691568774089658,0.42261669377450733,-1.2855546625523082, ,0.016084227382791656,0.02253548837769432,0.0083968431839747,-0.005819718203525664,0.008170982877247976,-0.023342470165668844, ,0.357637882232666
0.009853140680032464,0.02064248325454289,-0.07934214758545927, ,0.01012359555445368,0.020490228657446267,-0.07972752945027059, ,0.0004948196471045831, ,0.0026849814449943377,0.00012944897072146322,-0.00794528487361061,0.0020138213461291686,-0.014457411657048768,-0.008642975876447837, ,0.008387695399739447, ,0.014596992723600207, ,4.552508784177756e-05, ,0.16992329143156187,-0.24748269768739864,0.08979011943000001,1.6913590841461734,0.42275333027427275,-1.2860744741567076, ,0.016599080209632813,0.02287224428982183,0.008004427899497488,-0.0013399244500427435,0.0027207051894162794,-0.025480050820363524, ,0.38452792167663574
0.009925990734327848,0.02064738070713399,-0.07956534271871366, ,0.010191227620391603,0.02048965185806439,-0.07994292750056917, ,0.000487646657987617, ,0.0027246599057092146,0.00015456581916091635,-0.00792645608394996,-0.01528771728968625,-0.012682302608810665,0.010282131386346888, ,0.008383100157162598, ,0.019863410283774485, ,4.606620497658047e-05, ,0.17037893267114113,-0.2468726017903349,0.09001567389000001,1.6909397042592043,0.4230266032738036,-1.286950739885225, ,0.017751017874760713,0.021895925601862203,0.008020549607250755,-0.014499683923001333,0.008994490740479954,-0.00827918961841113, ,0.40863895416259766
0.0100103511953571,0.020653581673459646,-0.07983520579142887, ,0.010258954474416255,0.0204889887316442,-0.08015756496294103, ,0.00043910119825893635, ,0.002849799590369451,0.0003477352194402165,-0.008934467535108266,-0.004927081439878987,-0.007974620242654665,-0.013586070291693557, ,0.009384401292784351, ,0.009373934211390128, ,4.6530491545306076e-05, ,0.1708731875750915,-0.24613121943440935,0.09028789479,1.69073001431572,0.42329987627333454,-1.2874186119130395, ,0.016751445994434382,0.023442920345472032,0.009050461090909092,0.007323889765243022,0.007362660148679091,-0.01700903549152638, ,0.43200182914733887
0.01003686358100095,0.020655531232577486,-0.07992830088855542, ,0.010326774224851796,0.020488240314505034,-0.08037144210827563, ,0.0005553454540217731, ,0.0027367816308865103,0.00013256494550265967,-0.009338670275080325,0.009175101125698406,0.011400397449172265,0.0048064488884796835, ,0.009732333207746371, ,0.014633915116557204, ,4.767487605567685e-05, ,0.1712207105544316,-0.24559062813321364,0.09048233829,1.6909397042592043,0.4238464222723963,-1.2880276410081064, ,0.01711088019445921,0.026433688456398544,0.009458914204275535,-0.010865580508179052,0.03257219174131793,-0.03579187253054486, ,0.45438385009765625
0.01012616538797911,0.020657913075503576,-0.08021371377865762, ,0.01039468498891602,0.02048740763997908,-0.0805845592134998, ,0.0004885705846384987, ,0.002844899242576461,9.8514280368943e-05,-0.009942833028260559,-0.006836397227067145,0.0007989551654755346,-0.0009719993826729273, ,0.010342295943924528, ,0.006882917929813317, ,4.831280210444521e-05, ,0.17154506533514904,-0.24503459136626946,0.09066900405000002,1.69073001431572,0.4238464222723963,-1.288109319748247, ,0.01560035205629965,0.028600645436549364,0.009999253935969869,-0.005082985612875548,0.018441720354426157,-0.02153909700954008, ,0.47661900520324707
0.010179345095553025,0.02065515419797936,-0.08040015906936679, ,0.010462684892705064,0.02048649173841394,-0.08079691656156529, ,0.0005158924049959062, ,0.002494782928315365,-8.053856955641288e-05,-0.009015407100363379,0.028336525260401493,0.031809956811528185,0.008272107829705552, ,0.009354570728038908, ,0.04260084455299563, ,4.9047972491719884e-05, ,0.17188486558161492,-0.24445538640070263,0.0908569661,1.6903106344287508,0.4246662412709889,-1.2891045421309875, ,0.01694285691099282,0.027723325024385268,0.009143979058553388,-0.014428004483756801,0.05456263936087296,-0.055878059486896246, ,0.49912285804748535
0.010239622669605639,0.02065114136112288,-0.08058616283466945, ,0.010530772071178852,0.020485493637177304,-0.08100851444143459, ,0.0005390621691622262, ,0.0028005206414032997,-0.0003076400542175872,-0.009056508950030425,0.0005809820681457124,-6.663830969170847e-06,0.005670057864543074, ,0.00948461452183831, ,0.0005809678510455214, ,4.984513765057025e-05, ,0.17240228868418794,-0.2435363811886699,0.09113955732000001,1.6903106344287508,0.4248028777707544,-1.2892976387748245, ,0.01723518735170192,0.03027015679696038,0.009578359302465424,-0.014428004483756801,0.0,-0.012610928939154114, ,0.5215499401092529
0.010326230829167162,0.02064770537227104,-0.0808775117454619, ,0.01059894466814558,0.020484414360658426,-0.08121935314806852, ,0.0004667893925314505, ,0.0026947840448588497,-6.754939683659584e-05,-0.009478942833387571,0.030483665524077573,0.029922472217437084,0.004989440927813007, ,0.009854784686032892, ,0.04271543199901884, ,5.019945166789779e-05, ,0.17274208893065382,-0.24294173075735462,0.09133529711,1.6903106344287508,0.4254860602695815,-1.290181443253869, ,0.018037814400013452,0.02872183461212796,0.009618847536231887,-0.01245665455422142,0.05324950020528859,-0.05889415764815783, ,0.54374098777771
0.010389084940044074,0.020644860032720213,-0.0810752742442314, ,0.010667200836247226,0.020483254930272782,-0.08142943298241224, ,0.00047842770894647636, ,0.003367253600963339,-5.343025417549811e-05,-0.009875225571333905,-0.028085878132347992,-0.03456164402163365,-0.003590278663490246, ,0.01043366338780339, ,0.04453452249691461, ,5.058361214591426e-05, ,0.1731127801086166,-0.24233163486029088,0.09153362948,1.6901009444852664,0.42575933326911247,-1.2905676365415428, ,0.01828809819974384,0.029325383670726447,0.00985693782178218,-0.006472940604601875,-0.015251806113059206,-0.003158599620622921, ,0.5676498413085938
0.010450628902908701,0.020639304847203884,-0.08125816568040431, ,0.010735538736944113,0.02048201636446486,-0.08163875425138326, ,0.0005007603625410325, ,0.0029456929434040096,-0.00017099356095198048,-0.009052373919266896,0.000632261540962025,-0.003858127018011436,0.0008376408692994131, ,0.00952112489619429, ,0.003909582836576006, ,5.1292187399632294e-05, ,0.1734834712865794,-0.2417369844289756,0.09171640637,1.6898912545417817,0.4258959697688779,-1.2910057694058017, ,0.018162094078176226,0.028285228482405594,0.009096979737292977,-0.009599624936128703,0.017411688769156924,-0.0298421312114674, ,0.587134838104248
0.010514523258640121,0.020640105453932252,-0.08145563292070979, ,0.01080395654050033,0.020480699678711283,-0.08184731726785704, ,0.0005124436101878367, ,0.0029103265227546204,0.00019878084894657503,-0.009198732760617548,0.01590389997927526,0.012987598797344164,-0.005171495980165902, ,0.009650191640388052, ,0.020533185120891362, ,5.200900187809216e-05, ,0.17387733066316483,-0.24117322492915721,0.09191603503000001,1.6896815645982974,0.4263058792681742,-1.291503380597172, ,0.01891507704972509,0.02486165615888676,0.009380925512367492,-0.001065991629551343,0.03360060546814478,-0.039427983403520564, ,0.610541820526123
0.010576440722883496,0.02064118706052142,-0.08164208481111701, ,0.010872452425968505,0.020479305885524532,-0.08205512235065439, ,0.0005333183404391337, ,0.0032685543514933716,-3.500269346463381e-05,-0.009556969086941756,-0.022635400412264424,-0.019302950049907265,-0.0052809830580601794, ,0.01010051141606089, ,0.029748363866380693, ,5.277486308756043e-05, ,0.1742402991082534,-0.24064035636083572,0.09210399708000001,1.6896815645982974,0.4264425157679396,-1.2917781559811496, ,0.019002190940823144,0.02820117133981301,0.009601453598553349,-0.0011161385864811649,0.0,-0.005523106542897447, ,0.6299209594726562
0.010613101605903355,0.020640779285831242,-0.08175714707658603, ,0.010941024581174758,0.02047783599445562,-0.08226216982452816, ,0.0006238044323778035, ,0.003155562338577394,0.0003058402178140972,-0.009690887245397045,-0.0017492033169430078,-0.00650681168039222,0.007070626762812708, ,0.010196293812679181, ,0.0067378204945891884, ,5.3890566555827454e-05, ,0.17447970382735434,-0.2403160015801183,0.09222066318000001,1.6892621847113283,0.42685242526723594,-1.2922757671725198, ,0.019040317327141006,0.024165251224464168,0.00985693782178218,-0.014017603182657982,0.01660303772622429,-0.02401580988939085, ,0.6501998901367188
0.010708860222441727,0.020650836492064926,-0.08205520927634334, ,0.011009671202704012,0.02047629101209781,-0.0824684600201503, ,0.0005401199382362374, ,0.003324938873397688,0.000414529195782432,-0.010194912123839335,0.006435338628758024,0.001925526672363051,-0.025910869125248318, ,0.010731415851545096, ,0.006717226071807906, ,5.458369835304212e-05, ,0.17505118606004696,-0.23958234195706696,0.09252399504000001,1.6888428048243591,0.4273989712662977,-1.2931298324880085, ,0.019807334910972817,0.025696436923496015,0.010397396553524807,0.01937782145524913,0.01792968023105644,-0.028116281244192874, ,0.6690199375152588
0.010766899343142993,0.02065646771871647,-0.08223551185053199, ,0.011078390495884731,0.02047467194208981,-0.08267399327409833, ,0.0005677520598363612, ,0.003626612379260204,0.0003829603976117939,-0.010757325555968842,-0.01103978493300369,-0.015830257193474456,-0.026790313484801057, ,0.01135865437156368, ,0.019299579014210973, ,5.535091393719528e-05, ,0.1753755408407644,-0.2391267007174877,0.09270677193000001,1.6888428048243591,0.4275356077660632,-1.2933229291318453, ,0.02034232402110842,0.02741893717378526,0.010910144876712331,0.01937782145524913,0.0,-0.013140005554453896, ,0.6897499561309814
0.010849075679147719,0.020666016777676433,-0.08249179069145733, ,0.011147180674773972,0.02047297978511868,-0.08287876992884217, ,0.0005252454655492281, ,0.003608683692769283,0.00028025541022842494,-0.011084538918048536,0.000884208244152127,0.0003433203336442588,0.0032777801595187213, ,0.011660537899906412, ,0.000948433305504678, ,5.5904283688154564e-05, ,0.17587751847758898,-0.2384857138889271,0.09296862251000002,1.6890524947678438,0.4282187902648904,-1.2942067336108898, ,0.022017851869714798,0.02829366176460071,0.011289023047484055,-0.009973172475111414,0.025805752930661584,-0.029548941228241775, ,0.7091779708862305
0.01092277359790855,0.02066910669038205,-0.08270471154885727, ,0.011216039962142568,0.020471215538923546,-0.08308279033273129, ,0.000517793042664996, ,0.003481182438394237,8.03155913973889e-05,-0.010320962164424583,-0.00882311681053789,-0.008359928887662653,-0.002184409021808153, ,0.010892536057461079, ,0.012154656891385252, ,5.639828000396673e-05, ,0.17630226878567135,-0.23792195438910868,0.09318380665,1.6888428048243591,0.4282187902648904,-1.2943700910911708, ,0.020824433082833174,0.02840375383372367,0.010451976062992127,-0.00459663289216653,0.014164974624993346,-0.019555541729146912, ,0.7284419536590576
0.010988609934233404,0.0206684834455614,-0.08290501135483055, ,0.011284966589460087,0.0204693801982989,-0.08328605483998121, ,0.000522171913974101, ,0.0032962673944160283,-0.0002553324233956996,-0.010064714356295315,0.036224162950419386,0.019579740021230616,0.002337918039202231, ,0.010593821239559613, ,0.041177130758221214, ,5.7099738912173984e-05, ,0.17672701909375368,-0.2373581948892903,0.09338732418000001,1.68842342493739,0.42890197276371755,-1.295498931790637, ,0.022407778408139498,0.031205834119852276,0.010217326183450932,-0.014587494457063683,0.047473857032268696,-0.06832322033249102, ,0.7451119422912598
0.011026817425605108,0.02066886206049565,-0.08301508745411526, ,0.011353958796879738,0.020467474755097144,-0.0834885638106603, ,0.000609719758399124, ,0.0036266581044594737,0.00014477210692382514,-0.010981666310325763,-0.005982777340155398,0.0021829776133724392,0.009912797910861424, ,0.011565924213867589, ,0.006368583535529193, ,5.809646027383846e-05, ,0.1769587010799804,-0.2370492855743213,0.09349880512000001,1.68842342493739,0.42903860926348303,-1.2957737071746145, ,0.0225194450779475,0.02902934890133704,0.011178113347368422,-0.014587494457063683,0.02928743800001648,-0.02374973139292982, ,0.7626099586486816
0.01110413874690598,0.020671915940678808,-0.08324037017796629, ,0.011423014833223541,0.020465500198232706,-0.0836903176106769, ,0.0005888481207897749, ,0.004040169200858743,0.00015424210708895605,-0.011872861556795495,-0.014487479193039887,-0.02579343775443792,0.0024623026933233943, ,0.012542392090267277, ,0.02958358072705479, ,5.897335574517695e-05, ,0.17740661958668544,-0.23644691241013183,0.09372695216000002,1.68842342493739,0.42917524576324845,-1.2961301612987326, ,0.022498089511254336,0.031062828660710567,0.011994586987951809,-0.013556785797775141,0.0,-0.019088341266572082, ,0.7791659832000732
0.011178021180081647,0.020677714849615784,-0.08349194000233308, ,0.011492132955967292,0.020463457513684894,-0.08389131661176567, ,0.0005514291340799021, ,0.003650004075552656,0.0004746732670546915,-0.012845359266586184,0.04793647986714531,0.055898458331913294,0.0018371951545082662, ,0.01336230141666019, ,0.07363792091177732, ,5.967903074377995e-05, ,0.17787770629201313,-0.23580592558157118,0.09398491387,1.6882137349939055,0.43054161076090286,-1.297571055296259, ,0.023988104539552774,0.030921127910873505,0.013251923061564062,-0.0065226085508842775,0.08477988303465923,-0.07589552469422176, ,0.795630931854248
0.011224222446613417,0.020682189622027256,-0.08363703613777759, ,0.011561311431225517,0.02046134768450079,-0.08409156119147503, ,0.0006074480795557046, ,0.004341045885404986,0.0003305533021490769,-0.013386750847219938,-0.004908764891860616,-0.0005203141483933559,0.004737790563375192, ,0.014076897495907858, ,0.004936220180280675, ,6.0550967439909414e-05, ,0.17812483374398833,-0.23548157080085375,0.09412232061,1.6880040450504212,0.4308148837604337,-1.2977938911036517, ,0.025265426400018845,0.03340265454363632,0.013487562675698563,-0.011598482859231629,0.030237095294109773,-0.030101536391016762, ,0.8122119903564453
0.01131396596971108,0.020684140653996444,-0.08389170358201305, ,0.011630548533736835,0.0204591716907997,-0.08429105173315322, ,0.0005570587940837284, ,0.004462472664368029,-0.0001747359461063482,-0.012345337886244437,-0.02933346482957479,-0.027668290273376205,-0.0017832016580280224, ,0.013128273399675825, ,0.04032351868081613, ,6.121450507499253e-05, ,0.17866542504518404,-0.23477880210929933,0.09439065264,1.6877943551069365,0.4309515202601992,-1.2978236302672077, ,0.026020548823271393,0.03597306351723684,0.012434669414519907,-0.0068899203465101,0.0,-0.007524329306315913, ,0.8285508155822754
0.01135336794601563,0.020683688022934472,-0.08401368174353636, ,0.01169984254684844,0.02045693050977467,-0.08448978862593554, ,0.0006309844548517279, ,0.0039114416780615625,-6.314236221331182e-05,-0.012107927890536664,0.024579245203436455,0.029798768570317463,-0.0005304392901030698, ,0.012724200594191314, ,0.038627783302345044, ,6.209939576090452e-05, ,0.17892027523003345,-0.2344312791299592,0.09451509648,1.6877943551069365,0.43149806625926096,-1.2983509806221338, ,0.025794221679388635,0.034432852524844265,0.012367089689440995,-0.006241257297892231,0.059404740653795994,-0.057187771794398864, ,0.8451189994812012
0.011432233544499397,0.020680519383916674,-0.0842443100721097, ,0.011769191762501633,0.020454625115697164,-0.08468777226473168, ,0.0006010222769405174, ,0.004499806618101179,-0.0002825326364977622,-0.011225268778571395,-0.06640528049116597,-0.04848810750421959,0.0020194028048770357, ,0.012096889825164289, ,0.08222382664544371, ,6.305822512768999e-05, ,0.17942997559973226,-0.23375167863702745,0.09474972497,1.6877943551069365,0.43231788525785353,-1.2993462030048746, ,0.02647055552537539,0.033807246725497245,0.01126507179632249,-0.005258153012250922,-0.02172748071478445,0.03175370465121981, ,0.8605790138244629
0.01147859596726207,0.020675950000052328,-0.08435798149923376, ,0.011838594481216646,0.020452256479919835,-0.08488500305021093, ,0.0006763057268670358, ,0.0044326060179635356,-0.0005762373879639351,-0.010959802265405263,-0.048702948462043524,-0.02816399812426148,-0.003120695123768536, ,0.011836271006299087, ,0.05626000196507389, ,6.423035045635423e-05, ,0.17971571671607856,-0.23339643292481313,0.09486379849000001,1.687584665163452,0.43218124875808817,-1.2992347851011783, ,0.028243137368592495,0.03671061568993066,0.011008162764340015,0.0,0.0,0.01304595018235544, ,0.8739750385284424
0.011563001550888796,0.02066990640843202,-0.08459700173923357, ,0.011908049012077732,0.020449825570879744,-0.08508148138879118, ,0.0006342033241525208, ,0.004302864554414361,0.00011457696292789592,-0.013257287014717156,0.02206926679694353,0.02696751915198866,0.006221204835000072, ,0.013938559116517653, ,0.03484679636134817, ,6.523051522271445e-05, ,0.18025630801727427,-0.23268594150038446,0.09510620472,1.687165285276483,0.43286443125691537,-1.2999552320999417, ,0.02759434183148322,0.034837350058175766,0.013579549462915603,-0.013114295577817648,0.05992311156596578,-0.056239187616343285, ,0.8879239559173584
0.0116112445947112,0.020673539183647432,-0.08474575017956174, ,0.011977553672717932,0.020447333354100924,-0.08527720769262362, ,0.0006839579710339577, ,0.004690351900397264,0.0003681493711634843,-0.014535333760557476,-0.0007203865397596328,0.019641986181065958,0.00952458253055903, ,0.015277789841461043, ,0.019655175630928282, ,6.635568942057729e-05, ,0.18056521733224326,-0.2323152503224217,0.09525916694000001,1.687165285276483,0.4335476137557425,-1.300839036578986, ,0.028600645436549364,0.03534336743332245,0.014900665594013098,-0.012206996314890821,0.05302123505245183,-0.03349337972727624, ,0.9016318321228027
0.01166164001559367,0.02067829495411008,-0.08489806804575976, ,0.012047106789304707,0.02044478079219933,-0.0854721823795811, ,0.0007298772264889402, ,0.005645113340249379,0.0005685664356154408,-0.016287000879140576,-0.02657659106768796,-0.030639982334248236,5.740021217865365e-05, ,0.017246940889708406, ,0.040560110504864126, ,6.758819338152483e-05, ,0.18085095844858956,-0.23195228187733316,0.09541472174000001,1.687165285276483,0.43382088675527347,-1.3011435511265192, ,0.029109491275604533,0.03744946391415579,0.01608970860606061,-0.010863920948932553,0.007201025337386221,0.0009865379198223823, ,0.915276050567627
0.011761668637482186,0.020689942647915127,-0.08520491127935884, ,0.012116706696524513,0.020442168844884537,-0.08566640587324417, ,0.0006327883856568291, ,0.0052436024778637035,0.0008355634329727374,-0.0164240458183139,0.014044060229651075,0.010811146199517027,-0.007511159066657119, ,0.017261020081051234, ,0.017723298643058757, ,6.848711843868704e-05, ,0.18140699521553375,-0.23125723591865294,0.09572842392000001,1.6869555953329984,0.4343674327543352,-1.3016709014814456, ,0.029581340884810094,0.03526456393848784,0.016873741016949155,-0.0010827413247493191,0.04232444624400384,-0.04752110003886697, ,0.9297008514404297
0.011779877518123885,0.020693593579334237,-0.08526506845851875, ,0.012186351737567894,0.0204394984689635,-0.08585987860288805, ,0.0007639271719421653, ,0.00503458642188134,0.0008776926001514198,-0.016519312219555427,0.044766977801120586,0.044448131478485635,-0.006481472226164985, ,0.017291763384539638, ,0.06308500188808627, ,6.975285891841296e-05, ,0.18207887297559128,-0.23046951716548203,0.09604601497000001,1.686326525502545,0.4353238882526933,-1.302532505547461, ,0.03094129167214567,0.037229086527450286,0.011825398307349667,-0.01489244385963564,0.014136810071203874,-0.009360857277908833, ,0.9456348419189453
0.011917886736405573,0.020686002496290608,-0.08563253495781073, ,0.01225604026411464,0.020436770618343657,-0.08605260100346966, ,0.0005940705513679176, ,0.004668701162800528,-0.00039954206877534687,-0.011348468928610835,-0.02238582994892432,-0.011584272586055903,-0.04388135091381621, ,0.012277790983556523, ,0.025205566163474233, ,7.047861707455454e-05, ,0.18238778229056024,-0.23009110325464505,0.09616397736000001,1.6861168355590603,0.4353238882526933,-1.302532505547461, ,0.030049696503632293,0.03672482258454752,0.011509256878612718,0.03964029311730867,0.009779421296769886,-0.0062459005678454005, ,0.9594109058380127
0.01195820240083462,0.020680211788580722,-0.08573707934091496, ,0.01232577063631892,0.02043398624403677,-0.08624457351561392, ,0.0006732635174108171, ,0.0045427228152456174,-0.0005260234708855425,-0.01119472384935141,-0.011970606685784847,-0.0029204570778863155,-0.03786033748815883, ,0.012092761195496784, ,0.012321701106181734, ,7.162291253979605e-05, ,0.18266580067403232,-0.22974358027530495,0.09627027314000002,1.6861168355590603,0.43573379775198956,-1.3028667592585503, ,0.02989821725219621,0.03739044190641086,0.011353393813257305,0.03259044208964086,0.020320596213181146,-0.01821492133539847, ,0.9705588817596436
0.01198895657260345,0.02067654627414686,-0.08582396212248385, ,0.01239554122279407,0.020431146294161383,-0.08643579658560138, ,0.0007745150987591035, ,0.004189390766108468,-0.0002809925247346541,-0.012068743993508943,0.05276188018494356,0.06812014970658731,-0.030922395729424734, ,0.012778283662956065, ,0.08616362655237243, ,7.303338493459351e-05, ,0.18289748266025907,-0.22946556189183287,0.09635971715000001,1.6861168355590603,0.43641698025081677,-1.3034238487770324, ,0.031236649624249765,0.03725832020356135,0.012473619044635868,0.027564772547072805,0.09668081412437397,-0.08041207345594173, ,0.9831879138946533
0.012066119763430303,0.0206759766410675,-0.08604339150769659, ,0.012465350400597756,0.02042825171394611,-0.0866262706653541, ,0.0007486660494519259, ,0.005583028101125272,0.00038871513798031585,-0.016318819253573265,-0.005917227864863996,0.0002591972887975538,-0.028305531795582387, ,0.01725181625415837, ,0.0059228043649398555, ,7.43377635337751e-05, ,0.18337629209846099,-0.22887091146051758,0.09658397532000002,1.6861168355590603,0.437100162749644,-1.3041442957757958, ,0.03149583191452731,0.040040903611169104,0.01667938379057592,0.02110696383448225,0.02803625086458382,-0.028706911821117457, ,0.9942278861999512
0.012129697091861907,0.020683721159164593,-0.08622971202656117, ,0.01253519655521727,0.020425303445733716,-0.08681599621242288, ,0.0007582471074708135, ,0.006198402310205451,0.0007839098542954619,-0.018214095809160176,-0.03292839811753201,-0.031836826757494836,-0.008779324700838115, ,0.019255856044437185, ,0.04580241190074619, ,7.563972978613586e-05, ,0.18371609234492686,-0.22845388388530943,0.09677452995000001,1.686326525502545,0.43723679924940945,-1.3042557136794923, ,0.03180192411476903,0.03937632429812066,0.0185867112252042,0.0,0.0,-0.005998752220803829, ,1.0049898624420166
0.012187964935184653,0.02069071534215137,-0.08641056104381718, ,0.01260507808055435,0.02042230242898364,-0.0870049736899744, ,0.0007741803807298472, ,0.006212744366347165,0.0007228129727573679,-0.018930329229883577,-0.010005798818603173,-0.008904560651647228,-0.009756807372681342, ,0.01993685070182724, ,0.013394206933011321, ,7.695710817045235e-05, ,0.18403272439277008,-0.22805230177584976,0.09695989942000001,1.686326525502545,0.43764670874870576,-1.3047533248708625, ,0.03264428674182002,0.04191561022900653,0.019354570498177404,0.0,0.02471996360263967,-0.03050269483052858, ,1.015955924987793
0.012266797551089862,0.020701713628676142,-0.0866675171358877, ,0.012674993378910007,0.020419249600275087,-0.08719320356677765, ,0.000723018661454969, ,0.006190811209648915,0.0011634967802492868,-0.01959189503216468,0.03826154852331017,0.03224407864025632,0.002724421773084761, ,0.02057965546705105, ,0.05003622503936293, ,7.810404250407987e-05, ,0.18447292016660086,-0.22751171047465404,0.09722434258000001,1.6859071456155759,0.43860316424706386,-1.3058599651572997, ,0.03542252391133661,0.0384665348838552,0.020265663511450382,-0.012693087856940195,0.0733096366376185,-0.07578593058745703, ,1.0281059741973877
0.012336531157114057,0.02071040764968264,-0.08687180098466453, ,0.012744940860970055,0.02041614589331055,-0.08738068631719077, ,0.0007157882013048808, ,0.0064781679654192644,0.00036060207240813094,-0.018220591147425316,-0.041090744267996034,-0.02615621108079353,0.00458585250475906, ,0.019341319391511097, ,0.0487092869417745, ,7.920615187918523e-05, ,0.1848667795431863,-0.22707923743369748,0.09743434156000001,1.6856974556720912,0.43901307374636017,-1.3063575763486701, ,0.03563535169300442,0.04317422272905859,0.0185867112252042,-0.01066557443987421,0.012288132111243407,-0.0024664176120970348, ,1.0390088558197021
0.012398756951784131,0.02071113788803673,-0.08703480992305133, ,0.01281491894579009,0.020412992238919736,-0.0875674224211479, ,0.0007387541583443527, ,0.006125502796911336,-0.00022977616518499129,-0.015629080858767703,-0.023795435848577438,-0.02995461001492299,-0.0007269644739785969, ,0.01678817292295248, ,0.03825572500725203, ,8.0564243214434e-05, ,0.18522202525540063,-0.22666220985848937,0.09760026668,1.6856974556720912,0.43901307374636017,-1.3062758976085296, ,0.03672482258454752,0.042842863006081616,0.015897017485029943,-0.01066557443987421,0.00958744946049977,-0.020263892812930825, ,1.0478930473327637
0.012451290953709235,0.020707286995135,-0.08717238326041278, ,0.012884926060780032,0.020409789565061058,-0.08775341236414605, ,0.0007836701770323962, ,0.00615297848033888,-0.0004749373277930542,-0.016017836664342887,-0.02964695997791713,-0.025645361170709396,0.0003522534213537699, ,0.01716554109401774, ,0.03919981799797781, ,8.202117183644769e-05, ,0.18554638003611806,-0.2262606277490297,0.097740266,1.6856974556720912,0.43928634674589107,-1.306580412156063, ,0.036484791064387075,0.0463590334921694,0.016237320611620795,-0.01066557443987421,0.013771383418171928,-0.01746999657282945, ,1.0564298629760742
0.012503155179636594,0.02070459694431169,-0.08732034752047674, ,0.01295496064168998,0.020406538796826783,-0.08793865663723187, ,0.0008217499611718386, ,0.005615408695175176,-0.0002476322716215423,-0.01687108620533417,0.05229033286878205,0.06835753644831995,0.0033717423825843362, ,0.017782791859087096, ,0.08606410595584638, ,8.355633569154768e-05, ,0.18587845754970972,-0.22584360017382157,0.09789193193000001,1.6856974556720912,0.43996952924471827,-1.3072191804146855, ,0.03774739123248639,0.046609499783138886,0.017389532227074237,-0.01066557443987421,0.11262271301539482,-0.09536065074258332, ,1.0664260387420654
0.012576513643204489,0.02070544780873152,-0.08754248261422733, ,0.013025021132594601,0.020403240856444932,-0.08812315573698863, ,0.0007935170354483489, ,0.006363167833090738,0.0001567145782941212,-0.018683028223067537,0.03238121973020887,0.03304192840273867,0.001433411808417309, ,0.019737527907898414, ,0.04626348611434149, ,8.49924415867162e-05, ,0.18635726698791164,-0.22527984067400317,0.09812137526,1.6854877657286067,0.44133589424237263,-1.3085783956720716, ,0.03882853582588821,0.046313783093445964,0.0192144891676719,-0.012531888829734389,0.07754736562565324,-0.07740151925216265, ,1.0753979682922363
0.01264847729689019,0.02070557280046771,-0.08774475050537019, ,0.013095105985878661,0.02039989666328335,-0.0883069101655223, ,0.0007803451609216661, ,0.007573675467542328,0.00014056695815191876,-0.020958567473608435,-0.023051803925978057,-0.024300061809380488,0.0006259317342412618, ,0.02228546319247536, ,0.03349439690770651, ,8.637135979186455e-05, ,0.1867588490973713,-0.22477014030430437,0.09832748537000001,1.6852780757851225,0.4416091672419035,-1.3088012314794644, ,0.04215768172299901,0.051658650821159925,0.02138095506040269,-0.013470924386789327,0.02170527578568972,-0.02966601541630056, ,1.083648920059204
0.01264847729689019,0.02070557280046771,-0.08774475050537019, ,0.013165213662221849,0.020396507133852358,-0.08848992043044981, ,0.0009580272828994723, ,0.007573675467542328,0.00014056695815191876,-0.020958567473608435,-0.023051803925978057,-0.024300061809380488,0.0006259317342412618, ,0.02228546319247536, ,0.03349439690770651, ,8.819144625937465e-05, ,0.1867588490973713,-0.22477014030430437,0.09832748537000001,1.6852780757851225,0.4416091672419035,-1.3088012314794644, ,0.04215768172299901,0.051658650821159925,0.02138095506040269,-0.013470924386789327,0.02170527578568972,-0.02966601541630056, ,1.0919008255004883
0.012806665575031517,0.020715434215826053,-0.088195875082122, ,0.013235342630583893,0.02039307318180831,-0.08867218704488426, ,0.0007173240133164969, ,0.008031433721158682,0.00041433229017777434,-0.022591826088486876,-0.02441516865792441,-0.018222388825966593,-0.0005659790849834644, ,0.023980538043932312, ,0.03046555481164262, ,8.936134205921541e-05, ,0.1876006269806618,-0.22376618503065518,0.09878118687000001,1.6848586958981533,0.4421557132409653,-1.3093285818343905, ,0.04391343894422526,0.05245823192839733,0.02311873950653121,-0.010154797181267388,0.02910622525871021,-0.028016429785001, ,1.103018045425415
0.012806665575031517,0.020715434215826053,-0.088195875082122, ,0.013305491368189497,0.02038959571795637,-0.08885371052742257, ,0.0008875502079924588, ,0.008031433721158682,0.00041433229017777434,-0.022591826088486876,-0.02441516865792441,-0.018222388825966593,-0.0005659790849834644, ,0.023980538043932312, ,0.03046555481164262, ,9.09497168843816e-05, ,0.1876006269806618,-0.22376618503065518,0.09878118687000001,1.6848586958981533,0.4421557132409653,-1.3093285818343905, ,0.04391343894422526,0.05245823192839733,0.02311873950653121,-0.010154797181267388,0.02910622525871021,-0.028016429785001, ,1.1113719940185547
0.012878490914908669,0.020718603679330053,-0.08840772584790943, ,0.013375658360513883,0.02038607565025477,-0.08903449140213247, ,0.0008663633297011275, ,0.007548900223335112,4.9162000593350565e-05,-0.021147962002627956,0.03444850520061853,0.04331904044093688,0.00024190680083957517, ,0.022454946188952826, ,0.055346495329503496, ,9.2695798251556e-05, ,0.18806399095311527,-0.2232333164623337,0.09900803762000002,1.6848586958981533,0.44324880523908883,-1.310383282544243, ,0.047686905305764214,0.05319335289151949,0.021820289753424663,-0.010154797181267388,0.0967177019437627,-0.08476009314528407, ,1.1168558597564697
0.012960131230714413,0.02071656951998202,-0.08862400805190365, ,0.013445842101267261,0.020382513883816886,-0.08921453019853913, ,0.001042006228151059, ,0.007548900223335112,4.9162000593350565e-05,-0.021147962002627956,0.03444850520061853,0.04331904044093688,0.00024190680083957517, ,0.022454946188952826, ,0.055346495329503496, ,9.48699470628452e-05, ,0.18855824585706563,-0.22266183422964106,0.09922970321,1.6848586958981533,0.44379535123815056,-1.3108289541590288, ,0.05179964058868492,0.057166832264139024,0.022498321355932206,-0.010154797181267388,0.040928911690016015,-0.039268075488930264, ,1.1225309371948242
0.012960131230714413,0.02071656951998202,-0.08862400805190365, ,0.013516041092380339,0.020378911320915148,-0.08939382745161134, ,0.0010078049126000619, ,0.0085639131883135,-0.00018354408783685845,-0.021956454730704185,-0.01725876933802358,-0.014596475374197457,-0.0017173517140772838, ,0.023568203195632288, ,0.022603475608473395, ,9.693576781656835e-05, ,0.18855824585706563,-0.22266183422964106,0.09922970321,1.6848586958981533,0.44379535123815056,-1.3108289541590288, ,0.05179964058868492,0.057166832264139024,0.022498321355932206,-0.010154797181267388,0.040928911690016015,-0.039268075488930264, ,1.1284270286560059
0.013049622044610834,0.020719436225054094,-0.0888599319913811, ,0.013586253843989171,0.020375268860983987,-0.0895723837017493, ,0.000956039906176289, ,0.009560027932816998,0.0004985992388827829,-0.025480047009803535,-0.024755726317100855,-0.029436372215098604,0.00033592506544047345, ,0.027219028838278814, ,0.03846212753802231, ,9.885076372245566e-05, ,0.1890833916925129,-0.2221057974626969,0.09947210944000001,1.6846490059546686,0.44420526073744687,-1.3112448866102586, ,0.05394936984563433,0.05807646362207514,0.026155683940886704,-0.014102538263771251,0.028689400998091183,-0.034071483965085116, ,1.1341679096221924
0.013049622044610834,0.020719436225054094,-0.0888599319913811, ,0.013656478874420239,0.020371587400623083,-0.08975019949477046, ,0.001132188254724221, ,0.009560027932816998,0.0004985992388827829,-0.025480047009803535,-0.024755726317100855,-0.029436372215098604,0.00033592506544047345, ,0.027219028838278814, ,0.03846212753802231, ,0.00010118698054065394, ,0.1890833916925129,-0.2221057974626969,0.09947210944000001,1.6846490059546686,0.44420526073744687,-1.3112448866102586, ,0.05394936984563433,0.05807646362207514,0.026155683940886704,-0.014102538263771251,0.028689400998091183,-0.034071483965085116, ,1.1398279666900635
0.013125857651735906,0.020722921676755192,-0.0890777839735362, ,0.013726714710175872,0.020367867833601103,-0.0899272753818978, ,0.0010994217066693727, ,0.009631259743718293,0.0006786388637415686,-0.027792011749052017,0.028495531286368912,0.03732893402601614,0.0052875104107509, ,0.02942138052535595, ,0.046961985032824845, ,0.00010341844259435559, ,0.18952358746634368,-0.2216038198258723,0.09969636761000002,1.6844393160111841,0.44488844323627413,-1.3119653336090218, ,0.056185282154215976,0.06190276683527121,0.0287005612972973,-0.017395035444358577,0.10090669790852042,-0.08857957782002657, ,1.145617961883545
0.013125857651735906,0.020722921676755192,-0.0890777839735362, ,0.013796959885918768,0.020364111050857964,-0.09010361191974457, ,0.0012772808028010398, ,0.009631259743718293,0.0006786388637415686,-0.027792011749052017,0.028495531286368912,0.03732893402601614,0.0052875104107509, ,0.02942138052535595, ,0.046961985032824845, ,0.00010606805625181184, ,0.18952358746634368,-0.2216038198258723,0.09969636761000002,1.6844393160111841,0.44488844323627413,-1.3119653336090218, ,0.056185282154215976,0.06190276683527121,0.0287005612972973,-0.017395035444358577,0.10090669790852042,-0.08857957782002657, ,1.1513969898223877
0.013247257108256373,0.020736229513996753,-0.08944343254127551, ,0.013867212944457528,0.020360317940509003,-0.09027920967030317, ,0.0011064258489965003, ,0.010519496481542767,0.0014615804393302949,-0.032153015623818754,0.0416574853745878,0.04495544534916865,0.005003595895821639, ,0.03386166619219078, ,0.061288692186181694, ,0.00010827074033184356, ,0.1902186334250239,-0.2208469920041983,0.10007488429000001,1.684019936124215,0.44639144473369397,-1.313435966770104, ,0.05709803944552995,0.06368922252246362,0.03325430379958247,-0.0195931995188165,0.11021649302952345,-0.10386640420641324, ,1.156877040863037
0.013354866978988925,0.020749912911222988,-0.08976779407879182, ,0.013937472436731567,0.020356489387847683,-0.0904540692009307, ,0.0009824381565285885, ,0.01127479869658608,0.0012378484559231796,-0.034381116866977084,-0.021617735870676,-0.0006566376134770698,0.030704897100657585, ,0.0362037919487601, ,0.02162659560523076, ,0.00011014793806680655, ,0.19078239292484228,-0.22019828244276343,0.10040932711000002,1.6838102461807307,0.4472112637322866,-1.3142678316725638, ,0.05648627473718499,0.069623581480903,0.03531887254988914,-0.04371331906048023,0.06768141600059484,-0.05200098903640364, ,1.1631379127502441
0.013354866978988925,0.020749912911222988,-0.08976779407879182, ,0.01400773692179617,0.020352626275348923,-0.09062819108433576, ,0.001150807907695392, ,0.01127479869658608,0.0012378484559231796,-0.034381116866977084,-0.021617735870676,-0.0006566376134770698,0.030704897100657585, ,0.0362037919487601, ,0.02162659560523076, ,0.00011241747960720115, ,0.19078239292484228,-0.22019828244276343,0.10040932711000002,1.6838102461807307,0.4472112637322866,-1.3142678316725638, ,0.05648627473718499,0.069623581480903,0.03531887254988914,-0.04371331906048023,0.06768141600059484,-0.05200098903640364, ,1.1685669422149658
0.013472747815968767,0.020764679451478838,-0.09011094032564555, ,0.014078004966807563,0.02034872948267228,-0.09080157589856601, ,0.0010081309884012297, ,0.011764050389940096,0.0012261074964407539,-0.03358418164969787,0.0009915352173015853,-0.004538296865214631,0.015185396820381676, ,0.035606087657165886, ,0.004640749544269631, ,0.00011431868356153811, ,0.19140021155478024,-0.21951095921695746,0.10076321428000001,1.6838102461807307,0.4478944462311138,-1.3147432424509053, ,0.06292900633850848,0.06802648140392172,0.03462785113043479,-0.03270885796899628,0.06791791691573297,-0.07171561095465465, ,1.1739728450775146
0.013472747815968767,0.020764679451478838,-0.09011094032564555, ,0.014148275147008227,0.020344799886665547,-0.09097422422699447, ,0.0011738377733985666, ,0.011764050389940096,0.0012261074964407539,-0.03358418164969787,0.0009915352173015853,-0.004538296865214631,0.015185396820381676, ,0.035606087657165886, ,0.004640749544269631, ,0.00011688410508656723, ,0.19140021155478024,-0.21951095921695746,0.10076321428000001,1.6838102461807307,0.4478944462311138,-1.3147432424509053, ,0.06292900633850848,0.06802648140392172,0.03462785113043479,-0.03270885796899628,0.06791791691573297,-0.07171561095465465, ,1.1767408847808838
0.013472747815968767,0.020764679451478838,-0.09011094032564555, ,0.014218546045711667,0.020340838361367436,-0.09114613665830645, ,0.0013444283976132925, ,0.011764050389940096,0.0012261074964407539,-0.03358418164969787,0.0009915352173015853,-0.004538296865214631,0.015185396820381676, ,0.035606087657165886, ,0.004640749544269631, ,0.00011984918791875739, ,0.19140021155478024,-0.21951095921695746,0.10076321428000001,1.6838102461807307,0.4478944462311138,-1.3147432424509053, ,0.06292900633850848,0.06802648140392172,0.03462785113043479,-0.03270885796899628,0.06791791691573297,-0.07171561095465465, ,1.1796379089355469
0.013472747815968767,0.020764679451478838,-0.09011094032564555, ,0.014288816254287826,0.02033684577801138,-0.09131731378648654, ,0.0015180073370028976, ,0.011764050389940096,0.0012261074964407539,-0.03358418164969787,0.0009915352173015853,-0.004538296865214631,0.015185396820381676, ,0.035606087657165886, ,0.004640749544269631, ,0.00012321824369968302, ,0.19140021155478024,-0.21951095921695746,0.10076321428000001,1.6838102461807307,0.4478944462311138,-1.3147432424509053, ,0.06292900633850848,0.06802648140392172,0.03462785113043479,-0.03270885796899628,0.06791791691573297,-0.07171561095465465, ,1.182736873626709
0.013595705813834022,0.020773324447480087,-0.09045412183550267, ,0.01435908437214756,0.020332823005027784,-0.09148775621080485, ,0.001358377107397556, ,0.012399394425603569,0.0003804512537882327,-0.03406937888619613,0.0030915968714840115,0.009725004731393046,0.009155933070197707, ,0.03625758269616694, ,0.010202342248431763, ,0.0006907098452995529, ,0.19207981204771202,-0.21876185412815768,0.10111710145000001,1.6838102461807307,0.4487142652297064,-1.3154934286132245, ,0.0700346432165836,0.07810447864894715,0.03508548792951543,-0.026213707966252223,0.08852025941028943,-0.08143380982130767, ,1.1870849132537842
0.013595705813834022,0.020773324447480087,-0.09045412183550267, ,0.01442934900672882,0.020328770908048695,-0.0916574645358045, ,0.0015299093034721162, ,0.012399394425603569,0.0003804512537882327,-0.03406937888619613,0.0030915968714840115,0.009725004731393046,0.009155933070197707, ,0.03625758269616694, ,0.010202342248431763, ,0.0007016085395615342, ,0.19207981204771202,-0.21876185412815768,0.10111710145000001,1.6838102461807307,0.4487142652297064,-1.3154934286132245, ,0.0700346432165836,0.07810447864894715,0.03508548792951543,-0.026213707966252223,0.08852025941028943,-0.08143380982130767, ,1.1899540424346924
0.013595705813834022,0.020773324447480087,-0.09045412183550267, ,0.014499608773480627,0.02032469034991001,-0.09182643937128784, ,0.0017033991114779627, ,0.012399394425603569,0.0003804512537882327,-0.03406937888619613,0.0030915968714840115,0.009725004731393046,0.009155933070197707, ,0.03625758269616694, ,0.010202342248431763, ,0.0007144520084322576, ,0.19207981204771202,-0.21876185412815768,0.10111710145000001,1.6838102461807307,0.4487142652297064,-1.3154934286132245, ,0.0700346432165836,0.07810447864894715,0.03508548792951543,-0.026213707966252223,0.08852025941028943,-0.08143380982130767, ,1.1928479671478271
0.013731474857154292,0.020779590686192867,-0.09082649339264723, ,0.014569862295848914,0.020320582190655013,-0.09199468133230418, ,0.0015093857554306003, ,0.012399394425603569,0.0003804512537882327,-0.03406937888619613,0.0030915968714840115,0.009725004731393046,0.009155933070197707, ,0.03625758269616694, ,0.010202342248431763, ,0.0007245144609259076, ,0.1928675308008829,-0.21792779897774145,0.10150209958,1.6836005562372458,0.44994399372759536,-1.3164961897464922, ,0.08412849428942444,0.08503310175490213,0.04105363793814434,0.0,0.14268140114156,-0.12396351691145353, ,1.1957850456237793
0.013731474857154292,0.020779590686192867,-0.09082649339264723, ,0.014640108205260951,0.020316447287537072,-0.09216219103913517, ,0.0016805369891327558, ,0.014411382177900651,0.0010787687093907765,-0.03957199755566223,0.045901206157858164,0.05368127745618692,-0.016203765213593548, ,0.042128311961805574, ,0.07062933695366448, ,0.0007364647425284932, ,0.1928675308008829,-0.21792779897774145,0.10150209958,1.6836005562372458,0.44994399372759536,-1.3164961897464922, ,0.08412849428942444,0.08503310175490213,0.04105363793814434,0.0,0.14268140114156,-0.12396351691145353, ,1.1988799571990967
0.013731474857154292,0.020779590686192867,-0.09082649339264723, ,0.014710345141111176,0.020312286495023854,-0.09232896911728317, ,0.0018531037593772892, ,0.014411382177900651,0.0010787687093907765,-0.03957199755566223,0.045901206157858164,0.05368127745618692,-0.016203765213593548, ,0.042128311961805574, ,0.07062933695366448, ,0.0007502504094031697, ,0.1928675308008829,-0.21792779897774145,0.10150209958,1.6836005562372458,0.44994399372759536,-1.3164961897464922, ,0.08412849428942444,0.08503310175490213,0.04105363793814434,0.0,0.14268140114156,-0.12396351691145353, ,1.201624870300293
0.01388582232098931,0.020797270890272397,-0.09126426361194909, ,0.01478057175074593,0.020308100664800134,-0.09249501619745698, ,0.0015983166076446636, ,0.016460454541964143,0.002398863252948298,-0.04689831440843499,0.06925008209624499,0.07359400415479124,0.007193873087254533, ,0.04976095862206469, ,0.10105159297665373, ,0.0007605926801134319, ,0.1937479223485445,-0.21707829836157674,0.10195709737000001,1.6829714864067924,0.45158363172478067,-1.3179965620711305, ,0.09303621721418705,0.08714136047609806,0.04886138503067485,-0.024640107363120587,0.1778703355546828,-0.15274513583193672, ,1.2043650150299072
0.01388582232098931,0.020797270890272397,-0.09126426361194909, ,0.014850786689448406,0.020303890645770605,-0.09266033291555896, ,0.0017673680427522911, ,0.016460454541964143,0.002398863252948298,-0.04689831440843499,0.06925008209624499,0.07359400415479124,0.007193873087254533, ,0.04976095862206469, ,0.10105159297665373, ,0.0007727225037596832, ,0.1937479223485445,-0.21707829836157674,0.10195709737000001,1.6829714864067924,0.45158363172478067,-1.3179965620711305, ,0.09303621721418705,0.08714136047609806,0.04886138503067485,-0.024640107363120587,0.1778703355546828,-0.15274513583193672, ,1.2070980072021484
0.01388582232098931,0.020797270890272397,-0.09126426361194909, ,0.01492098862042418,0.020299657284063813,-0.092824919912672, ,0.001937740090299966, ,0.016460454541964143,0.002398863252948298,-0.04689831440843499,0.06925008209624499,0.07359400415479124,0.007193873087254533, ,0.04976095862206469, ,0.10105159297665373, ,0.0007865917607423056, ,0.1937479223485445,-0.21707829836157674,0.10195709737000001,1.6829714864067924,0.45158363172478067,-1.3179965620711305, ,0.09303621721418705,0.08714136047609806,0.04886138503067485,-0.024640107363120587,0.1778703355546828,-0.15274513583193672, ,1.2098560333251953
0.01406734296139288,0.02082204518907469,-0.09179576066704032, ,0.014991176214785571,0.020295401423034442,-0.09298877783504608, ,0.001598158784207527, ,0.018977573731982805,0.0028170501088515543,-0.05622086985903215,0.05505205068042288,0.05794410657223181,0.04560898515389918, ,0.0594042951626804, ,0.07992300102016374, ,0.0007961396080771906, ,0.1937479223485445,-0.21707829836157674,0.10195709737000001,1.6829714864067924,0.45158363172478067,-1.3179965620711305, ,0.09303621721418705,0.08714136047609806,0.04886138503067485,-0.024640107363120587,0.1778703355546828,-0.15274513583193672, ,1.2131328582763672
0.01406734296139288,0.02082204518907469,-0.09179576066704032, ,0.015061348151537795,0.02029112390326779,-0.09315190733408556, ,0.0017632519707335632, ,0.018977573731982805,0.0028170501088515543,-0.05622086985903215,0.05505205068042288,0.05794410657223181,0.04560898515389918, ,0.0594042951626804, ,0.07992300102016374, ,0.0008073851006662181, ,0.19473643215644523,-0.21609751128655022,0.10250931691000001,1.6821327266328545,0.45349654272149686,-1.3198831276834426, ,0.099368525192116,0.10160272115467964,0.05834729494505495,-0.07049998977297452,0.17823790175413814,-0.16190246983599632, ,1.2164058685302734
0.01406734296139288,0.02082204518907469,-0.09179576066704032, ,0.01513150311756303,0.02028682556258189,-0.09331430906633523, ,0.0019299964061013969, ,0.018977573731982805,0.0028170501088515543,-0.05622086985903215,0.05505205068042288,0.05794410657223181,0.04560898515389918, ,0.0594042951626804, ,0.07992300102016374, ,0.0008202886788896108, ,0.19473643215644523,-0.21609751128655022,0.10250931691000001,1.6821327266328545,0.45349654272149686,-1.3198831276834426, ,0.099368525192116,0.10160272115467964,0.05834729494505495,-0.07049998977297452,0.17823790175413814,-0.16190246983599632, ,1.219132900238037
0.01406734296139288,0.02082204518907469,-0.09179576066704032, ,0.015201639807606183,0.020282507236031387,-0.09347598369346775, ,0.002097827437288535, ,0.018977573731982805,0.0028170501088515543,-0.05622086985903215,0.05505205068042288,0.05794410657223181,0.04560898515389918, ,0.0594042951626804, ,0.07992300102016374, ,0.0008348061647805077, ,0.19473643215644523,-0.21609751128655022,0.10250931691000001,1.6821327266328545,0.45349654272149686,-1.3198831276834426, ,0.099368525192116,0.10160272115467964,0.05834729494505495,-0.07049998977297452,0.17823790175413814,-0.16190246983599632, ,1.221890926361084
0.014273276751626558,0.020860674526755368,-0.09240110486628399, ,0.015271756924259876,0.02027816975591073,-0.09363693188227028, ,0.0016922006017727942, ,0.02172363356074821,0.004271629474973053,-0.06386903760947243,-0.01948288814986107,-0.0391901994036356,0.007137097076287107, ,0.06759746325575634, ,0.04375376394306539, ,0.0008444398101399715, ,0.19566316010135218,-0.2151476151430206,0.10308746225000001,1.6821327266328545,0.45458963471962033,-1.3208561496531546, ,0.10160272115467964,0.10193011982649922,0.06609465360995852,-0.03695300861958962,0.0741084432997766,-0.08966744890241231, ,1.224694013595581
0.014273276751626558,0.020860674526755368,-0.09240110486628399, ,0.015341853177949264,0.020273813951756817,-0.0937971543046313, ,0.0018534332865496085, ,0.02172363356074821,0.004271629474973053,-0.06386903760947243,-0.01948288814986107,-0.0391901994036356,0.007137097076287107, ,0.06759746325575634, ,0.04375376394306539, ,0.0008556508487667453, ,0.19566316010135218,-0.2151476151430206,0.10308746225000001,1.6821327266328545,0.45458963471962033,-1.3208561496531546, ,0.10160272115467964,0.10193011982649922,0.06609465360995852,-0.03695300861958962,0.0741084432997766,-0.08966744890241231, ,1.2275259494781494
0.014273276751626558,0.020860674526755368,-0.09240110486628399, ,0.01541192728691748,0.020269440650353,-0.09395665163752719, ,0.002016384957206638, ,0.02172363356074821,0.004271629474973053,-0.06386903760947243,-0.01948288814986107,-0.0391901994036356,0.007137097076287107, ,0.06759746325575634, ,0.04375376394306539, ,0.0008684061686397112, ,0.19566316010135218,-0.2151476151430206,0.10308746225000001,1.6821327266328545,0.45458963471962033,-1.3208561496531546, ,0.10160272115467964,0.10193011982649922,0.06609465360995852,-0.03695300861958962,0.0741084432997766,-0.08966744890241231, ,1.230435848236084
0.014273276751626558,0.020860674526755368,-0.09240110486628399, ,0.015481977977210456,0.020265050675731852,-0.09411542456300948, ,0.0021805087588031083, ,0.02172363356074821,0.004271629474973053,-0.06386903760947243,-0.01948288814986107,-0.0391901994036356,0.007137097076287107, ,0.06759746325575634, ,0.04375376394306539, ,0.0008826681533154003, ,0.19566316010135218,-0.2151476151430206,0.10308746225000001,1.6821327266328545,0.45458963471962033,-1.3208561496531546, ,0.10160272115467964,0.10193011982649922,0.06609465360995852,-0.03695300861958962,0.0741084432997766,-0.08966744890241231, ,1.2333998680114746
0.014273276751626558,0.020860674526755368,-0.09240110486628399, ,0.015552003982662384,0.02026064484917855,-0.09427347376819124, ,0.0023454091860898975, ,0.02172363356074821,0.004271629474973053,-0.06386903760947243,-0.01948288814986107,-0.0391901994036356,0.007137097076287107, ,0.06759746325575634, ,0.04375376394306539, ,0.0008983965515172767, ,0.19566316010135218,-0.2151476151430206,0.10308746225000001,1.6821327266328545,0.45458963471962033,-1.3208561496531546, ,0.10160272115467964,0.10193011982649922,0.06609465360995852,-0.03695300861958962,0.0741084432997766,-0.08966744890241231, ,1.2363579273223877
0.014273276751626558,0.020860674526755368,-0.09240110486628399, ,0.01562200404488035,0.02025622398923397,-0.09443079994523423, ,0.002510794272215957, ,0.02172363356074821,0.004271629474973053,-0.06386903760947243,-0.01948288814986107,-0.0391901994036356,0.007137097076287107, ,0.06759746325575634, ,0.04375376394306539, ,0.0009155497187587519, ,0.19566316010135218,-0.2151476151430206,0.10308746225000001,1.6821327266328545,0.45458963471962033,-1.3208561496531546, ,0.10160272115467964,0.10193011982649922,0.06609465360995852,-0.03695300861958962,0.0741084432997766,-0.08966744890241231, ,1.2392678260803223
0.014493851940007652,0.02090036284800421,-0.09304149149866922, ,0.01569197691322988,0.020251788911698123,-0.09458740379133525, ,0.002060581572986197, ,0.022970264542032638,0.00356654036328113,-0.06586431899067335,-0.024566887930290614,-0.045806516559982094,-0.01019620034739761, ,0.06984598613663529, ,0.05196661841127071, ,0.0009276026856453566, ,0.19677523363524052,-0.21398920521188694,0.10379912546000002,1.6821327266328545,0.45527281721844753,-1.321739954132199, ,0.1087021094598749,0.11488733844851184,0.06807184410256412,-0.021487576257610955,0.06985016078142355,-0.09079309924302953, ,1.242339849472046
0.014771251539584125,0.020931904298023774,-0.09380481095295234, ,0.015761921344819893,0.02024734042963334,-0.09474328600871396, ,0.0015266924324166646, ,0.023220251064317774,0.0015498330891339685,-0.061286265564642325,0.008591376253623422,-0.014741567283199695,-0.014909670756467546, ,0.06555599430222983, ,0.017037046421744705, ,0.0009338432038408911, ,0.19677523363524052,-0.21398920521188694,0.10379912546000002,1.6821327266328545,0.45527281721844753,-1.321739954132199, ,0.1087021094598749,0.11488733844851184,0.06807184410256412,-0.021487576257610955,0.06985016078142355,-0.09079309924302953, ,1.2451260089874268
0.014771251539584125,0.020931904298023774,-0.09380481095295234, ,0.015831836104487712,0.020242879353367358,-0.09489844730459814, ,0.001672015389675473, ,0.023220251064317774,0.0015498330891339685,-0.061286265564642325,0.008591376253623422,-0.014741567283199695,-0.014909670756467546, ,0.06555599430222983, ,0.017037046421744705, ,0.0009414532263752682, ,0.1981884937512236,-0.21256822236302964,0.10458986236000001,1.6817133467458854,0.456639182216102,-1.3235892418304283, ,0.12276447808340334,0.12404828961891604,0.06346140047808765,-0.018958251659346947,0.11586117835471876,-0.1308383452985652, ,1.2478790283203125
0.014771251539584125,0.020931904298023774,-0.09380481095295234, ,0.015901719964784268,0.020238406490496626,-0.09505288839121206, ,0.0018211522070690296, ,0.023220251064317774,0.0015498330891339685,-0.061286265564642325,0.008591376253623422,-0.014741567283199695,-0.014909670756467546, ,0.06555599430222983, ,0.017037046421744705, ,0.0009504297465864291, ,0.1981884937512236,-0.21256822236302964,0.10458986236000001,1.6817133467458854,0.456639182216102,-1.3235892418304283, ,0.12276447808340334,0.12404828961891604,0.06346140047808765,-0.018958251659346947,0.11586117835471876,-0.1308383452985652, ,1.250581979751587
0.014771251539584125,0.020931904298023774,-0.09380481095295234, ,0.015971571705959215,0.020233922645889676,-0.09520660998576216, ,0.0019730654872327767, ,0.023220251064317774,0.0015498330891339685,-0.061286265564642325,0.008591376253623422,-0.014741567283199695,-0.014909670756467546, ,0.06555599430222983, ,0.017037046421744705, ,0.0009607594005323518, ,0.1981884937512236,-0.21256822236302964,0.10458986236000001,1.6817133467458854,0.456639182216102,-1.3235892418304283, ,0.12276447808340334,0.12404828961891604,0.06346140047808765,-0.018958251659346947,0.11586117835471876,-0.1308383452985652, ,1.2533879280090332
0.015008199170916272,0.020932972959260377,-0.09438505152104022, ,0.01604139011594616,0.020229428621690224,-0.09535961281042443, ,0.0015850009055470582, ,0.023912031157603687,-0.001267750636283547,-0.0550660775786913,-0.005803202397476123,-0.07267236530900871,0.03592343339574865, ,0.0600471924877463, ,0.0729002299226024, ,0.0009670018155824989, ,0.19950908107271598,-0.21127852597303415,0.10519004463,1.6810842769154317,0.4575956377144601,-1.3249409183372869, ,0.13894134928033788,0.1347967919864642,0.05688861257142858,-0.08440811563315857,0.08697466525427701,-0.14204339299242014, ,1.2561109066009521
0.015008199170916272,0.020932972959260377,-0.09438505152104022, ,0.01611117399034736,0.020224925217320316,-0.09551189759233143, ,0.00172848694688444, ,0.023912031157603687,-0.001267750636283547,-0.0550660775786913,-0.005803202397476123,-0.07267236530900871,0.03592343339574865, ,0.0600471924877463, ,0.0729002299226024, ,0.0009745412723280625, ,0.19950908107271598,-0.21127852597303415,0.10519004463,1.6810842769154317,0.4575956377144601,-1.3249409183372869, ,0.13894134928033788,0.1347967919864642,0.05688861257142858,-0.08440811563315857,0.08697466525427701,-0.14204339299242014, ,1.258821964263916
0.015008199170916272,0.020932972959260377,-0.09438505152104022, ,0.016180922132419097,0.02022041322948338,-0.09566346506355759, ,0.0018754630624535464, ,0.023912031157603687,-0.001267750636283547,-0.0550660775786913,-0.005803202397476123,-0.07267236530900871,0.03592343339574865, ,0.0600471924877463, ,0.0729002299226024, ,0.0009833738388979204, ,0.19950908107271598,-0.21127852597303415,0.10519004463,1.6810842769154317,0.4575956377144601,-1.3249409183372869, ,0.13894134928033788,0.1347967919864642,0.05688861257142858,-0.08440811563315857,0.08697466525427701,-0.14204339299242014, ,1.2616150379180908
0.015008199170916272,0.020932972959260377,-0.09438505152104022, ,0.01625063335305744,0.02021589345216864,-0.09581431596110893, ,0.002025004334832058, ,0.023912031157603687,-0.001267750636283547,-0.0550660775786913,-0.005803202397476123,-0.07267236530900871,0.03592343339574865, ,0.0600471924877463, ,0.0729002299226024, ,0.0009934867563341741, ,0.19950908107271598,-0.21127852597303415,0.10519004463,1.6810842769154317,0.4575956377144601,-1.3249409183372869, ,0.13894134928033788,0.1347967919864642,0.05688861257142858,-0.08440811563315857,0.08697466525427701,-0.14204339299242014, ,1.2643940448760986
0.015253088246791818,0.020912726804295897,-0.09492132748885627, ,0.01632030647078178,0.020211366676652347,-0.09596445102690664, ,0.0016489291925062073, ,0.024682444694348674,-0.0024746250864936445,-0.052251278110093446,0.014499104787821404,-0.050836240844100704,-0.005488415866172764, ,0.05784066830134845, ,0.052859795150184574, ,0.000999789087451213, ,0.20098412305169286,-0.20987298858992529,0.10574485675,1.6806648970284628,0.45855209321281815,-1.3263742735842865, ,0.15305958315882384,0.14163722620667282,0.054179631020408174,-0.04122350313199942,0.11463213461435955,-0.1595212830289242, ,1.267158031463623
0.015253088246791818,0.020912726804295897,-0.09492132748885627, ,0.016389940311721654,0.020206833691503015,-0.09611387100777616, ,0.0017924502081624126, ,0.024682444694348674,-0.0024746250864936445,-0.052251278110093446,0.014499104787821404,-0.050836240844100704,-0.005488415866172764, ,0.05784066830134845, ,0.052859795150184574, ,0.001007338240981796, ,0.20098412305169286,-0.20987298858992529,0.10574485675,1.6806648970284628,0.45855209321281815,-1.3263742735842865, ,0.15305958315882384,0.14163722620667282,0.054179631020408174,-0.04122350313199942,0.11463213461435955,-0.1595212830289242, ,1.2699038982391357
0.015253088246791818,0.020912726804295897,-0.09492132748885627, ,0.016459533709600863,0.020202295282583195,-0.09626257665543307, ,0.0019388586664887432, ,0.024682444694348674,-0.0024746250864936445,-0.052251278110093446,0.014499104787821404,-0.050836240844100704,-0.005488415866172764, ,0.05784066830134845, ,0.052859795150184574, ,0.0010161261695243143, ,0.20098412305169286,-0.20987298858992529,0.10574485675,1.6806648970284628,0.45855209321281815,-1.3263742735842865, ,0.15305958315882384,0.14163722620667282,0.054179631020408174,-0.04122350313199942,0.11463213461435955,-0.1595212830289242, ,1.2726538181304932
0.015253088246791818,0.020912726804295897,-0.09492132748885627, ,0.0165290855057225,0.020197752233053326,-0.09641056872647, ,0.00208739002252367, ,0.024682444694348674,-0.0024746250864936445,-0.052251278110093446,0.014499104787821404,-0.050836240844100704,-0.005488415866172764, ,0.05784066830134845, ,0.052859795150184574, ,0.0010261379812345885, ,0.20098412305169286,-0.20987298858992529,0.10574485675,1.6806648970284628,0.45855209321281815,-1.3263742735842865, ,0.15305958315882384,0.14163722620667282,0.054179631020408174,-0.04122350313199942,0.11463213461435955,-0.1595212830289242, ,1.2755358219146729
0.015486948460117542,0.020884000718554396,-0.09540603159790802, ,0.01659859454895492,0.020193205323375128,-0.0965578479823431, ,0.0017434552728078305, ,0.0246276192588774,-0.0035197981714991744,-0.04928323635879783,0.019245871787485363,-0.019258935105702184,-0.06515253108396844, ,0.055206394516626886, ,0.02722167202951085, ,0.001032779808008415, ,0.20245916503066974,-0.2084983421383133,0.10624781727000002,1.6804552070849783,0.45978182171070714,-1.3277037496781166, ,0.15869053772319527,0.14735549931439562,0.051218043472668826,0.026361185614105935,0.13842071951582002,-0.1548759457728138, ,1.2788050174713135
0.015486948460117542,0.020884000718554396,-0.09540603159790802, ,0.016668059695716077,0.020188655331314635,-0.09670441518936036, ,0.0018879430364726062, ,0.0246276192588774,-0.0035197981714991744,-0.04928323635879783,0.019245871787485363,-0.019258935105702184,-0.06515253108396844, ,0.055206394516626886, ,0.02722167202951085, ,0.0010406253422145084, ,0.20245916503066974,-0.2084983421383133,0.10624781727000002,1.6804552070849783,0.45978182171070714,-1.3277037496781166, ,0.15869053772319527,0.14735549931439562,0.051218043472668826,0.026361185614105935,0.13842071951582002,-0.1548759457728138, ,1.2818729877471924
0.015486948460117542,0.020884000718554396,-0.09540603159790802, ,0.016737479809958846,0.02018410303194508,-0.09685027111866575, ,0.0020345793722476154, ,0.0246276192588774,-0.0035197981714991744,-0.04928323635879783,0.019245871787485363,-0.019258935105702184,-0.06515253108396844, ,0.055206394516626886, ,0.02722167202951085, ,0.0010496612879420822, ,0.20245916503066974,-0.2084983421383133,0.10624781727000002,1.6804552070849783,0.45978182171070714,-1.3277037496781166, ,0.15869053772319527,0.14735549931439562,0.051218043472668826,0.026361185614105935,0.13842071951582002,-0.1548759457728138, ,1.284898042678833
0.015659062375333925,0.02085514178328069,-0.09575194033802413, ,0.01680685376315633,0.020179549197650838,-0.09699541654622898, ,0.0018221096268031794, ,0.02429374927024785,-0.0047579583461171224,-0.04795952102614101,-0.04211968502384699,-0.032350309362005086,-0.03063987174388115, ,0.05397165995488665, ,0.05310703014614075, ,0.001056620281985876, ,0.20357123856455808,-0.2074248822687961,0.1066068896,1.6806648970284628,0.4608749137088306,-1.3289218078682499, ,0.15608049598432694,0.1545552794111902,0.04962246579439253,0.0,0.127692873437066,-0.1045864145686965, ,1.288465976715088
0.015659062375333925,0.02085514178328069,-0.09575194033802413, ,0.016876180434286694,0.020174994598129985,-0.09713985225282995, ,0.0019673017171134032, ,0.02429374927024785,-0.0047579583461171224,-0.04795952102614101,-0.04211968502384699,-0.032350309362005086,-0.03063987174388115, ,0.05397165995488665, ,0.05310703014614075, ,0.001064751366228086, ,0.20357123856455808,-0.2074248822687961,0.1066068896,1.6806648970284628,0.4608749137088306,-1.3289218078682499, ,0.15608049598432694,0.1545552794111902,0.04962246579439253,0.0,0.127692873437066,-0.1045864145686965, ,1.291321039199829
0.015659062375333925,0.02085514178328069,-0.09575194033802413, ,0.01694545870981844,0.020170440000397853,-0.09728357902404706, ,0.00211413082030895, ,0.02429374927024785,-0.0047579583461171224,-0.04795952102614101,-0.04211968502384699,-0.032350309362005086,-0.03063987174388115, ,0.05397165995488665, ,0.05310703014614075, ,0.0010740379100695095, ,0.20357123856455808,-0.2074248822687961,0.1066068896,1.6806648970284628,0.4608749137088306,-1.3289218078682499, ,0.15608049598432694,0.1545552794111902,0.04962246579439253,0.0,0.127692873437066,-0.1045864145686965, ,1.2941009998321533
0.016010750580589234,0.020787926830875273,-0.0964383674148398, ,0.01701468748369564,0.020165886168790403,-0.09742659765024324, ,0.0015399424953131864, ,0.025823897353866886,-0.004541870092964908,-0.05056466183086096,-0.043629418951906696,-0.07042330958858556,-0.013529043753822599, ,0.056958645389034224, ,0.0828410416564663, ,0.0010781247923962083, ,0.20580310836520896,-0.20525479433113902,0.10731725652000002,1.6802455171414936,0.46237791520625043,-1.3305557985096135, ,0.16138935639195712,0.1548074087413879,0.05239740631578948,-0.02658920859358282,0.09958951276331703,-0.11066909926748202, ,1.2968578338623047
0.016010750580589234,0.020787926830875273,-0.0964383674148398, ,0.017083865657323005,0.02016133386496751,-0.09756890892655315, ,0.0016799758398695869, ,0.025823897353866886,-0.004541870092964908,-0.05056466183086096,-0.043629418951906696,-0.07042330958858556,-0.013529043753822599, ,0.056958645389034224, ,0.0828410416564663, ,0.001083358279765542, ,0.20580310836520896,-0.20525479433113902,0.10731725652000002,1.6802455171414936,0.46237791520625043,-1.3305557985096135, ,0.16138935639195712,0.1548074087413879,0.05239740631578948,-0.02658920859358282,0.09958951276331703,-0.11066909926748202, ,1.2996149063110352
0.016010750580589234,0.020787926830875273,-0.0964383674148398, ,0.017152992139550526,0.02015678384791516,-0.09771051365286988, ,0.0018224744977343877, ,0.025823897353866886,-0.004541870092964908,-0.05056466183086096,-0.043629418951906696,-0.07042330958858556,-0.013529043753822599, ,0.056958645389034224, ,0.0828410416564663, ,0.0010897299712997563, ,0.20580310836520896,-0.20525479433113902,0.10731725652000002,1.6802455171414936,0.46237791520625043,-1.3305557985096135, ,0.16138935639195712,0.1548074087413879,0.05239740631578948,-0.02658920859358282,0.09958951276331703,-0.11066909926748202, ,1.3023829460144043
0.016010750580589234,0.020787926830875273,-0.0964383674148398, ,0.017222065846659432,0.020152236873950374,-0.09785141263383137, ,0.0019667443113086276, ,0.025823897353866886,-0.004541870092964908,-0.05056466183086096,-0.043629418951906696,-0.07042330958858556,-0.013529043753822599, ,0.056958645389034224, ,0.0828410416564663, ,0.0010972258203596613, ,0.20580310836520896,-0.20525479433113902,0.10731725652000002,1.6802455171414936,0.46237791520625043,-1.3305557985096135, ,0.16138935639195712,0.1548074087413879,0.05239740631578948,-0.02658920859358282,0.09958951276331703,-0.11066909926748202, ,1.3051509857177734
0.01626103590907118,0.020740692264161045,-0.09693055939256337, ,0.0172910857023467,0.020147693696723243,-0.09799160667880795, ,0.001593258052312058, ,0.026593539657625537,-0.005275342848042898,-0.051969159138066594,-0.07629484950896491,-0.07510454348012718,0.03674639465996523, ,0.05861603104274282, ,0.10705707559553457, ,0.0011014294833423088, ,0.20735537767292808,-0.203741138687791,0.10782669849000001,1.67961644731104,0.46333437070460853,-1.331417402575629, ,0.16532568215761462,0.161664295670308,0.05381355243243244,-0.0739488955953979,0.10849533695172128,-0.09309339284026887, ,1.3086838722229004
0.01626103590907118,0.020740692264161045,-0.09693055939256337, ,0.017360050637710414,0.020143155067220486,-0.09813109660188875, ,0.001733832075625641, ,0.026593539657625537,-0.005275342848042898,-0.051969159138066594,-0.07629484950896491,-0.07510454348012718,0.03674639465996523, ,0.05861603104274282, ,0.10705707559553457, ,0.001106743790840488, ,0.20735537767292808,-0.203741138687791,0.10782669849000001,1.67961644731104,0.46333437070460853,-1.331417402575629, ,0.16532568215761462,0.161664295670308,0.05381355243243244,-0.0739488955953979,0.10849533695172128,-0.09309339284026887, ,1.3114259243011475
0.01626103590907118,0.020740692264161045,-0.09693055939256337, ,0.017428959591234718,0.020138621733768663,-0.09826988322186855, ,0.0018762523739279061, ,0.026593539657625537,-0.005275342848042898,-0.051969159138066594,-0.07629484950896491,-0.07510454348012718,0.03674639465996523, ,0.05861603104274282, ,0.10705707559553457, ,0.0011131563623662166, ,0.20735537767292808,-0.203741138687791,0.10782669849000001,1.67961644731104,0.46333437070460853,-1.331417402575629, ,0.16532568215761462,0.161664295670308,0.05381355243243244,-0.0739488955953979,0.10849533695172128,-0.09309339284026887, ,1.3141858577728271
0.016526210411582285,0.020691450050001094,-0.09743918994402848, ,0.017497811508775087,0.02013409444203739,-0.09840796736223403, ,0.0014809401243196397, ,0.026751625186908705,-0.005383824167236958,-0.05054540222435681,-0.047266533083515416,-0.05750199441974128,0.017760123402673047, ,0.05744103671441339, ,0.07443302084596538, ,0.0011161958975889723, ,0.20902348797376058,-0.202157978448575,0.10835558481000002,1.67961644731104,0.4645640992024975,-1.332583521189178, ,0.16945882421155498,0.15922305630615904,0.05257033504950496,-0.05600496908077784,0.12712461460032817,-0.11574297996358035, ,1.3170058727264404
0.016526210411582285,0.020691450050001094,-0.09743918994402848, ,0.017566605343543647,0.02012957393504299,-0.0985453498511519, ,0.0016191714310531207, ,0.026751625186908705,-0.005383824167236958,-0.05054540222435681,-0.047266533083515416,-0.05750199441974128,0.017760123402673047, ,0.05744103671441339, ,0.07443302084596538, ,0.0011203186478632684, ,0.20902348797376058,-0.202157978448575,0.10835558481000002,1.67961644731104,0.4645640992024975,-1.332583521189178, ,0.16945882421155498,0.15922305630615904,0.05257033504950496,-0.05600496908077784,0.12712461460032817,-0.11574297996358035, ,1.3200058937072754
0.016526210411582285,0.020691450050001094,-0.09743918994402848, ,0.01763534005609342,0.020125060953150628,-0.09868203152145465, ,0.0017594375135092629, ,0.026751625186908705,-0.005383824167236958,-0.05054540222435681,-0.047266533083515416,-0.05750199441974128,0.017760123402673047, ,0.05744103671441339, ,0.07443302084596538, ,0.0011255147362018538, ,0.20902348797376058,-0.202157978448575,0.10835558481000002,1.67961644731104,0.4645640992024975,-1.332583521189178, ,0.16945882421155498,0.15922305630615904,0.05257033504950496,-0.05600496908077784,0.12712461460032817,-0.11574297996358035, ,1.3230669498443604
0.016526210411582285,0.020691450050001094,-0.09743918994402848, ,0.017704014614305062,0.020120556234079302,-0.0988180132106276, ,0.0019011302137213657, ,0.026751625186908705,-0.005383824167236958,-0.05054540222435681,-0.047266533083515416,-0.05750199441974128,0.017760123402673047, ,0.05744103671441339, ,0.07443302084596538, ,0.001131769699730237, ,0.20902348797376058,-0.202157978448575,0.10835558481000002,1.67961644731104,0.4645640992024975,-1.332583521189178, ,0.16945882421155498,0.15922305630615904,0.05257033504950496,-0.05600496908077784,0.12712461460032817,-0.11574297996358035, ,1.3261659145355225
0.01681383807866073,0.020634933280978623,-0.09795967191773494, ,0.017772627993370285,0.02011606051290327,-0.09895329576079559, ,0.0014750577586988074, ,0.027216690951317412,-0.005834496400374878,-0.048438239477658886,-0.0377565482397917,-0.06473135500573497,-0.002072254243732905, ,0.05586638218356852, ,0.07493623026122082, ,0.0011345160042019855, ,0.21086922113070022,-0.2004898681477425,0.10889873032000001,1.67961644731104,0.46579382770038646,-1.3335862823224458, ,0.1760611160639532,0.15869053772319527,0.05056765561904762,-0.03819998935533165,0.12279555695769236,-0.12159706504551404, ,1.3290619850158691
0.01681383807866073,0.020634933280978623,-0.09795967191773494, ,0.017841179175777704,0.02011157452205619,-0.09908788001871024, ,0.0016131297652305099, ,0.027216690951317412,-0.005834496400374878,-0.048438239477658886,-0.0377565482397917,-0.06473135500573497,-0.002072254243732905, ,0.05586638218356852, ,0.07493623026122082, ,0.0011383145261149104, ,0.21086922113070022,-0.2004898681477425,0.10889873032000001,1.67961644731104,0.46579382770038646,-1.3335862823224458, ,0.1760611160639532,0.15869053772319527,0.05056765561904762,-0.03819998935533165,0.12279555695769236,-0.12159706504551404, ,1.3317968845367432
0.01681383807866073,0.020634933280978623,-0.09795967191773494, ,0.017909667151298547,0.0201070989913347,-0.09922176683573654, ,0.0017528074554290399, ,0.027216690951317412,-0.005834496400374878,-0.048438239477658886,-0.0377565482397917,-0.06473135500573497,-0.002072254243732905, ,0.05586638218356852, ,0.07493623026122082, ,0.0011431530531173838, ,0.21086922113070022,-0.2004898681477425,0.10889873032000001,1.67961644731104,0.46579382770038646,-1.3335862823224458, ,0.1760611160639532,0.15869053772319527,0.05056765561904762,-0.03819998935533165,0.12279555695769236,-0.12159706504551404, ,1.3346319198608398
0.01681383807866073,0.020634933280978623,-0.09795967191773494, ,0.017978090916970703,0.02010263464790073,-0.09935495706783931, ,0.0018935805122548125, ,0.027216690951317412,-0.005834496400374878,-0.048438239477658886,-0.0377565482397917,-0.06473135500573497,-0.002072254243732905, ,0.05586638218356852, ,0.07493623026122082, ,0.001149015767641895, ,0.21086922113070022,-0.2004898681477425,0.10889873032000001,1.67961644731104,0.46579382770038646,-1.3335862823224458, ,0.1760611160639532,0.15869053772319527,0.05056765561904762,-0.03819998935533165,0.12279555695769236,-0.12159706504551404, ,1.337393045425415
0.017139503907532622,0.020562876077030452,-0.09851314119083862, ,0.01804644947708439,0.02009818221628523,-0.09948745157557037, ,0.001409883461900314, ,0.026775948312993875,-0.006104254213147993,-0.04386862362127692,-0.04457473391806133,-0.07476345413933781,-0.03579483608446965, ,0.05175586407339858, ,0.0870420502394361, ,0.0011510379978299447, ,0.21300841813686042,-0.19862096679218016,0.10947817195000001,1.6794067573675557,0.4671601926980409,-1.33470046135941, ,0.17770962838664942,0.1520784319847288,0.04603702751445087,0.0,0.10625519340655187,-0.10075153093385698, ,1.3401298522949219
0.017139503907532622,0.020562876077030452,-0.09851314119083862, ,0.018114741843167553,0.020093742418391847,-0.09961925122405567, ,0.00154746722949229, ,0.026775948312993875,-0.006104254213147993,-0.04386862362127692,-0.04457473391806133,-0.07476345413933781,-0.03579483608446965, ,0.05175586407339858, ,0.0870420502394361, ,0.0011540874534581166, ,0.21300841813686042,-0.19862096679218016,0.10947817195000001,1.6794067573675557,0.4671601926980409,-1.33470046135941, ,0.17770962838664942,0.1520784319847288,0.04603702751445087,0.0,0.10625519340655187,-0.10075153093385698, ,1.3429148197174072
0.017139503907532622,0.020562876077030452,-0.09851314119083862, ,0.018182967033970127,0.020089315973498913,-0.09975035688298087, ,0.0016863502414310467, ,0.026775948312993875,-0.006104254213147993,-0.04386862362127692,-0.04457473391806133,-0.07476345413933781,-0.03579483608446965, ,0.05175586407339858, ,0.0870420502394361, ,0.0011581505281754673, ,0.21300841813686042,-0.19862096679218016,0.10947817195000001,1.6794067573675557,0.4671601926980409,-1.33470046135941, ,0.17770962838664942,0.1520784319847288,0.04603702751445087,0.0,0.10625519340655187,-0.10075153093385698, ,1.3456778526306152
0.017412772124833602,0.020502707298807488,-0.09897448868836105, ,0.01825112407545034,0.0200849035982643,-0.09988076942657986, ,0.0013033567054942835, ,0.026540606505035827,-0.005333693415070995,-0.04657445279151606,-0.003416448816560992,-0.022354178605982534,-0.02805171654715677, ,0.053870508925851816, ,0.022608898137936585, ,0.0011592505749733369, ,0.21480781489655473,-0.19707642021733526,0.10996298441,1.6791970674240708,0.4685265576956953,-1.3358963191365147, ,0.17191474920012823,0.14850851574095583,0.049011727753846164,-0.0068403944324665535,0.15567024191468867,-0.13793614762981427, ,1.3484878540039062
0.017412772124833602,0.020502707298807488,-0.09897448868836105, ,0.0183192120007588,0.0200805060067273,-0.10001048973362021, ,0.0014398560155375099, ,0.026540606505035827,-0.005333693415070995,-0.04657445279151606,-0.003416448816560992,-0.022354178605982534,-0.02805171654715677, ,0.053870508925851816, ,0.022608898137936585, ,0.0011613603903159247, ,0.21480781489655473,-0.19707642021733526,0.10996298441,1.6791970674240708,0.4685265576956953,-1.3358963191365147, ,0.17191474920012823,0.14850851574095583,0.049011727753846164,-0.0068403944324665535,0.15567024191468867,-0.13793614762981427, ,1.351233959197998
0.017412772124833602,0.020502707298807488,-0.09897448868836105, ,0.018387229850224167,0.02007612391031259,-0.10013951868739081, ,0.0015776045589920259, ,0.026540606505035827,-0.005333693415070995,-0.04657445279151606,-0.003416448816560992,-0.022354178605982534,-0.02805171654715677, ,0.053870508925851816, ,0.022608898137936585, ,0.0011644666900821642, ,0.21480781489655473,-0.19707642021733526,0.10996298441,1.6791970674240708,0.4685265576956953,-1.3358963191365147, ,0.17191474920012823,0.14850851574095583,0.049011727753846164,-0.0068403944324665535,0.15567024191468867,-0.13793614762981427, ,1.3539578914642334
0.017412772124833602,0.020502707298807488,-0.09897448868836105, ,0.018455176671338003,0.020071758017833036,-0.10026785717568776, ,0.0017161371056402296, ,0.026540606505035827,-0.005333693415070995,-0.04657445279151606,-0.003416448816560992,-0.022354178605982534,-0.02805171654715677, ,0.053870508925851816, ,0.022608898137936585, ,0.0011685531376048166, ,0.21480781489655473,-0.19707642021733526,0.10996298441,1.6791970674240708,0.4685265576956953,-1.3358963191365147, ,0.17191474920012823,0.14850851574095583,0.049011727753846164,-0.0068403944324665535,0.15567024191468867,-0.13793614762981427, ,1.356760025024414
0.017674923502140172,0.020453317443975907,-0.09944596900393761, ,0.018523051518740508,0.02006740903549378,-0.1003955060908024, ,0.001330363526112809, ,0.02692812795371578,-0.00416459092959099,-0.0491448324522711,0.0021847237254391913,-0.019461307887299408,0.01934687209823618, ,0.05619325982236944, ,0.019576231705535355, ,0.0011697429198732577, ,0.21623652047828626,-0.19584850569033357,0.11038557495000001,1.678777687537102,0.4698929226933497,-1.337010498173479, ,0.16825698857884888,0.1407966491965442,0.05105388307692308,-0.018593408142843378,0.16768127291192977,-0.14603798697441753, ,1.3606958389282227
0.017674923502140172,0.020453317443975907,-0.09944596900393761, ,0.018590853454204432,0.02006307766689398,-0.10052246632950718, ,0.001466308716697756, ,0.02692812795371578,-0.00416459092959099,-0.0491448324522711,0.0021847237254391913,-0.019461307887299408,0.01934687209823618, ,0.05619325982236944, ,0.019576231705535355, ,0.0011719076337186921, ,0.21623652047828626,-0.19584850569033357,0.11038557495000001,1.678777687537102,0.4698929226933497,-1.337010498173479, ,0.16825698857884888,0.1407966491965442,0.05105388307692308,-0.018593408142843378,0.16768127291192977,-0.14603798697441753, ,1.3635640144348145
0.017674923502140172,0.020453317443975907,-0.09944596900393761, ,0.018658581546621478,0.020058764613031525,-0.1006487387930427, ,0.00160309396183222, ,0.02692812795371578,-0.00416459092959099,-0.0491448324522711,0.0021847237254391913,-0.019461307887299408,0.01934687209823618, ,0.05619325982236944, ,0.019576231705535355, ,0.0011750321723282104, ,0.21623652047828626,-0.19584850569033357,0.11038557495000001,1.678777687537102,0.4698929226933497,-1.337010498173479, ,0.16825698857884888,0.1407966491965442,0.05105388307692308,-0.018593408142843378,0.16768127291192977,-0.14603798697441753, ,1.3665978908538818
0.01793253927581808,0.020417954643976777,-0.09991457612328415, ,0.018726234871987,0.020054470572305666,-0.10077432438710465, ,0.001225251177056734, ,0.027045682425181825,-0.0033721453216589343,-0.04954831278612715,-0.01716850288497742,-0.04538501986890306,0.03559732983870234, ,0.05654976217338201, ,0.04852070570699092, ,0.0011753934601320128, ,0.21808225363522593,-0.19436574097848247,0.11095464626000001,1.6781486177066482,0.471532560690535,-1.3383475130178362, ,0.1659037439833405,0.1303529417011961,0.05239740631578948,-0.06909034929030597,0.1379520541053702,-0.12025107554877955, ,1.369433879852295
0.01793253927581808,0.020417954643976777,-0.09991457612328415, ,0.018793812513384453,0.020050196240519902,-0.10089922402183082, ,0.0013588853215682289, ,0.027045682425181825,-0.0033721453216589343,-0.04954831278612715,-0.01716850288497742,-0.04538501986890306,0.03559732983870234, ,0.05654976217338201, ,0.04852070570699092, ,0.0011767041162851286, ,0.21808225363522593,-0.19436574097848247,0.11095464626000001,1.6781486177066482,0.471532560690535,-1.3383475130178362, ,0.1659037439833405,0.1303529417011961,0.05239740631578948,-0.06909034929030597,0.1379520541053702,-0.12025107554877955, ,1.3721339702606201
0.01793253927581808,0.020417954643976777,-0.09991457612328415, ,0.018861313560971916,0.02004594231088608,-0.10102343861178699, ,0.0014935162761561403, ,0.027045682425181825,-0.0033721453216589343,-0.04954831278612715,-0.01716850288497742,-0.04538501986890306,0.03559732983870234, ,0.05654976217338201, ,0.04852070570699092, ,0.001178951011035987, ,0.21808225363522593,-0.19436574097848247,0.11095464626000001,1.6781486177066482,0.471532560690535,-1.3383475130178362, ,0.1659037439833405,0.1303529417011961,0.05239740631578948,-0.06909034929030597,0.1379520541053702,-0.12025107554877955, ,1.3748779296875
0.01793253927581808,0.020417954643976777,-0.09991457612328415, ,0.018928737111965223,0.020041709474026368,-0.1011469690759549, ,0.0016287304707801658, ,0.027045682425181825,-0.0033721453216589343,-0.04954831278612715,-0.01716850288497742,-0.04538501986890306,0.03559732983870234, ,0.05654976217338201, ,0.04852070570699092, ,0.0011821184720201008, ,0.21808225363522593,-0.19436574097848247,0.11095464626000001,1.6781486177066482,0.471532560690535,-1.3383475130178362, ,0.1659037439833405,0.1303529417011961,0.05239740631578948,-0.06909034929030597,0.1379520541053702,-0.12025107554877955, ,1.3776359558105469
0.018206844359948793,0.02038878769808715,-0.10042325091933446, ,0.018996082270625728,0.020037498417978274,-0.10126981633771867, ,0.0012095344747352747, ,0.026323839929939342,-0.0027197418545012965,-0.04875461850683336,-0.02520290966584941,-0.05421681759750164,-0.0370995835351024, ,0.05547390711099276, ,0.05978607273578912, ,0.0011823101923188082, ,0.21972719573743574,-0.19306832185561273,0.11149260661000002,1.677938927763164,0.47276228918842395,-1.3394319528912444, ,0.1558242061715448,0.12404828961891604,0.0515495518446602,0.008311133285545466,0.1030585198121499,-0.09076265015558677, ,1.3804140090942383
0.018206844359948793,0.02038878769808715,-0.10042325091933446, ,0.019063348148242874,0.02003330982819609,-0.1013919813248512, ,0.0013410450603603924, ,0.026323839929939342,-0.0027197418545012965,-0.04875461850683336,-0.02520290966584941,-0.05421681759750164,-0.0370995835351024, ,0.05547390711099276, ,0.05978607273578912, ,0.0011834125177913194, ,0.21972719573743574,-0.19306832185561273,0.11149260661000002,1.677938927763164,0.47276228918842395,-1.3394319528912444, ,0.1558242061715448,0.12404828961891604,0.0515495518446602,0.008311133285545466,0.1030585198121499,-0.09076265015558677, ,1.383188009262085
0.018206844359948793,0.02038878769808715,-0.10042325091933446, ,0.01913053386312086,0.020029144387555167,-0.10151346496950107, ,0.0014734694717778703, ,0.026323839929939342,-0.0027197418545012965,-0.04875461850683336,-0.02520290966584941,-0.05421681759750164,-0.0370995835351024, ,0.05547390711099276, ,0.05978607273578912, ,0.0011854129105774334, ,0.21972719573743574,-0.19306832185561273,0.11149260661000002,1.677938927763164,0.47276228918842395,-1.3394319528912444, ,0.1558242061715448,0.12404828961891604,0.0515495518446602,0.008311133285545466,0.1030585198121499,-0.09076265015558677, ,1.3859670162200928
0.018476169166510764,0.02035956374103518,-0.10091408038596159, ,0.019197638540563493,0.02002500277635513,-0.10163426820818013, ,0.0010729024168374143, ,0.0251457446415409,-0.002722341487835984,-0.045480346847532514,-0.009066205715931846,-0.03820051187384945,-0.035714884496842084, ,0.05204019183406069, ,0.039259146759186805, ,0.0011846422907572964, ,0.22133352417527444,-0.19180951639711416,0.11201241890000001,1.677938927763164,0.47385538118654746,-1.3403232961208158, ,0.1508695414284114,0.11672440536097266,0.048269125818181824,0.008444066965931305,0.11443918323670205,-0.09924198960508715, ,1.3887250423431396
0.018476169166510764,0.02035956374103518,-0.10091408038596159, ,0.019264661312858398,0.020020885672322113,-0.10175439198174908, ,0.0012010604801982467, ,0.0251457446415409,-0.002722341487835984,-0.045480346847532514,-0.009066205715931846,-0.03820051187384945,-0.035714884496842084, ,0.05204019183406069, ,0.039259146759186805, ,0.0011847539791208402, ,0.22133352417527444,-0.19180951639711416,0.11201241890000001,1.677938927763164,0.47385538118654746,-1.3403232961208158, ,0.1508695414284114,0.11672440536097266,0.048269125818181824,0.008444066965931305,0.11443918323670205,-0.09924198960508715, ,1.3915369510650635
0.018476169166510764,0.02035956374103518,-0.10091408038596159, ,0.019331601319263918,0.020016793750613732,-0.10187383723540543, ,0.001330559523039755, ,0.0251457446415409,-0.002722341487835984,-0.045480346847532514,-0.009066205715931846,-0.03820051187384945,-0.035714884496842084, ,0.05204019183406069, ,0.039259146759186805, ,0.0011857391517148869, ,0.22133352417527444,-0.19180951639711416,0.11201241890000001,1.677938927763164,0.47385538118654746,-1.3403232961208158, ,0.1508695414284114,0.11672440536097266,0.048269125818181824,0.008444066965931305,0.11443918323670205,-0.09924198960508715, ,1.3943028450012207
0.018476169166510764,0.02035956374103518,-0.10091408038596159, ,0.019398457705992696,0.020012727683820866,-0.10199260491866947, ,0.001460865006869716, ,0.0251457446415409,-0.002722341487835984,-0.045480346847532514,-0.009066205715931846,-0.03820051187384945,-0.035714884496842084, ,0.05204019183406069, ,0.039259146759186805, ,0.0011875856339642482, ,0.22133352417527444,-0.19180951639711416,0.11201241890000001,1.677938927763164,0.47385538118654746,-1.3403232961208158, ,0.1508695414284114,0.11672440536097266,0.048269125818181824,0.008444066965931305,0.11443918323670205,-0.09924198960508715, ,1.397186040878296
0.01869502254614291,0.02033489397346664,-0.10130487888852585, ,0.01946522962619744,0.02000868814197152,-0.10211069598537188, ,0.0011614518432707035, ,0.023873799900384362,-0.002874725172193891,-0.04181779517739334,0.018339966170818924,-0.009871075111355753,-0.026417558836175064, ,0.04823847385643185, ,0.020824615293185928, ,0.001187411408692958, ,0.22266955696251528,-0.1907901156577165,0.11242852799000001,1.6781486177066482,0.4750851096844364,-1.3413260572540835, ,0.14758466805360929,0.11021712143840974,0.044618519663865555,0.0,0.14191544034523831,-0.12109512339333686, ,1.403235912322998
0.01869502254614291,0.02033489397346664,-0.10130487888852585, ,0.019531916239955684,0.02000467579253358,-0.1022281113936393, ,0.0012891056435608286, ,0.023873799900384362,-0.002874725172193891,-0.04181779517739334,0.018339966170818924,-0.009871075111355753,-0.026417558836175064, ,0.04823847385643185, ,0.020824615293185928, ,0.0011880848804470497, ,0.22266955696251528,-0.1907901156577165,0.11242852799000001,1.6781486177066482,0.4750851096844364,-1.3413260572540835, ,0.14758466805360929,0.11021712143840974,0.044618519663865555,0.0,0.14191544034523831,-0.12109512339333686, ,1.406275987625122
0.01869502254614291,0.02033489397346664,-0.10130487888852585, ,0.019598516714255804,0.020000691300419014,-0.10234485210588257, ,0.0014175815430886032, ,0.023873799900384362,-0.002874725172193891,-0.04181779517739334,0.018339966170818924,-0.009871075111355753,-0.026417558836175064, ,0.04823847385643185, ,0.020824615293185928, ,0.0011895947269117968, ,0.22266955696251528,-0.1907901156577165,0.11242852799000001,1.6781486177066482,0.4750851096844364,-1.3413260572540835, ,0.14758466805360929,0.11021712143840974,0.044618519663865555,0.0,0.14191544034523831,-0.12109512339333686, ,1.4091768264770508
0.01893638358365037,0.020307301917247597,-0.10171830269105893, ,0.019665030222980932,0.01999673532798612,-0.10246091908878248, ,0.0010857516500292017, ,0.023086085728106834,-0.0024855480686135824,-0.03870416732887368,0.052687362469470526,0.018538514123152557,-0.02453184329261059, ,0.04513488531134581, ,0.05585291233337757, ,0.0011889160139909954, ,0.22419093533873752,-0.18970893305532507,0.11287185917,1.6781486177066482,0.4767247476816217,-1.3426630720984407, ,0.14781455071412894,0.10020796363090896,0.0416984594764398,0.0,0.17140390111760312,-0.14462196935462995, ,1.412081003189087
0.01893638358365037,0.020307301917247597,-0.10171830269105893, ,0.0197314559468951,0.019992808535043198,-0.10257631331327724, ,0.0012112920284082513, ,0.023086085728106834,-0.0024855480686135824,-0.03870416732887368,0.052687362469470526,0.018538514123152557,-0.02453184329261059, ,0.04513488531134581, ,0.05585291233337757, ,0.0011890613127859128, ,0.22419093533873752,-0.18970893305532507,0.11287185917,1.6781486177066482,0.4767247476816217,-1.3426630720984407, ,0.14781455071412894,0.10020796363090896,0.0416984594764398,0.0,0.17140390111760312,-0.14462196935462995, ,1.414820909500122
0.01893638358365037,0.020307301917247597,-0.10171830269105893, ,0.019797793073627567,0.01998891157885169,-0.10269103575454892, ,0.0013377624339968835, ,0.023086085728106834,-0.0024855480686135824,-0.03870416732887368,0.052687362469470526,0.018538514123152557,-0.02453184329261059, ,0.04513488531134581, ,0.05585291233337757, ,0.0011900206748582415, ,0.22419093533873752,-0.18970893305532507,0.11287185917,1.6781486177066482,0.4767247476816217,-1.3426630720984407, ,0.14781455071412894,0.10020796363090896,0.0416984594764398,0.0,0.17140390111760312,-0.14462196935462995, ,1.4175729751586914
0.019160974226149513,0.020280382681671594,-0.10208196585561549, ,0.019864040797659077,0.01998504511412995,-0.10280508739201047, ,0.0010509194256335074, ,0.020198555036723416,-0.0025439877245149603,-0.031332116187027526,0.02167555901262994,-0.014990685981046678,-0.011976848580914532, ,0.03736515761871506, ,0.02635375359879948, ,0.001189129000183724, ,0.22565053185196596,-0.18875131417892124,0.11326463504,1.6777292378196795,0.478364385678807,-1.3439184082026572, ,0.13161850424198443,0.08549274014276646,0.03389108834042554,-0.009306227137315052,0.1219127461673189,-0.1030128435414331, ,1.4203169345855713
0.019160974226149513,0.020280382681671594,-0.10208196585561549, ,0.019930198320304862,0.019981209793054917,-0.10291846920929201, ,0.001175137432398624, ,0.020198555036723416,-0.0025439877245149603,-0.031332116187027526,0.02167555901262994,-0.014990685981046678,-0.011976848580914532, ,0.03736515761871506, ,0.02635375359879948, ,0.001189039881917577, ,0.22565053185196596,-0.18875131417892124,0.11326463504,1.6777292378196795,0.478364385678807,-1.3439184082026572, ,0.13161850424198443,0.08549274014276646,0.03389108834042554,-0.009306227137315052,0.1219127461673189,-0.1030128435414331, ,1.4230430126190186
0.019160974226149513,0.020280382681671594,-0.10208196585561549, ,0.01999626484970311,0.01997740626526795,-0.10303118219422863, ,0.0013001987510313515, ,0.020198555036723416,-0.0025439877245149603,-0.031332116187027526,0.02167555901262994,-0.014990685981046678,-0.011976848580914532, ,0.03736515761871506, ,0.02635375359879948, ,0.0011897434190638668, ,0.22565053185196596,-0.18875131417892124,0.11326463504,1.6777292378196795,0.478364385678807,-1.3439184082026572, ,0.13161850424198443,0.08549274014276646,0.03389108834042554,-0.009306227137315052,0.1219127461673189,-0.1030128435414331, ,1.4257969856262207
0.01937897526372715,0.020252186175734155,-0.10240818937294983, ,0.020062239600796283,0.019973635177875173,-0.10314322733884593, ,0.0010414996994850367, ,0.020198555036723416,-0.0025439877245149603,-0.031332116187027526,0.02167555901262994,-0.014990685981046678,-0.011976848580914532, ,0.03736515761871506, ,0.02635375359879948, ,0.0011888110686262639, ,0.22703290103645213,-0.1878554771655112,0.11361592963000001,1.6775195478761948,0.4789109316778688,-1.344364079817443, ,0.13498853706752598,0.08754330402072949,0.036787093579676675,-0.02058651483186147,0.013592609538756998,-0.006883639464045608, ,1.4288740158081055
0.01937897526372715,0.020252186175734155,-0.10240818937294983, ,0.020128121795319285,0.019969897175452965,-0.10325460563934802, ,0.001165044248730373, ,0.022251748516494498,-0.0022594073049491004,-0.03455626103464175,-0.08202267533811716,-0.12510359619151654,0.0010474033395689631, ,0.04116285230769695, ,0.14959471840231187, ,0.0011886625260019146, ,0.22703290103645213,-0.1878554771655112,0.11361592963000001,1.6775195478761948,0.4789109316778688,-1.344364079817443, ,0.13498853706752598,0.08754330402072949,0.036787093579676675,-0.02058651483186147,0.013592609538756998,-0.006883639464045608, ,1.4318909645080566
0.01937897526372715,0.020252186175734155,-0.10240818937294983, ,0.020193910661783034,0.019966192900050115,-0.10336531809610401, ,0.0012891886011859289, ,0.022251748516494498,-0.0022594073049491004,-0.03455626103464175,-0.08202267533811716,-0.12510359619151654,0.0010474033395689631, ,0.04116285230769695, ,0.14959471840231187, ,0.0011892869115620638, ,0.22703290103645213,-0.1878554771655112,0.11361592963000001,1.6775195478761948,0.4789109316778688,-1.344364079817443, ,0.13498853706752598,0.08754330402072949,0.036787093579676675,-0.02058651483186147,0.013592609538756998,-0.006883639464045608, ,1.434701919555664
0.01937897526372715,0.020252186175734155,-0.10240818937294983, ,0.02025960543546,0.019962522991191122,-0.10347536571363374, ,0.0014136051789524972, ,0.022251748516494498,-0.0022594073049491004,-0.03455626103464175,-0.08202267533811716,-0.12510359619151654,0.0010474033395689631, ,0.04116285230769695, ,0.14959471840231187, ,0.0011906715922249678, ,0.22703290103645213,-0.1878554771655112,0.11361592963000001,1.6775195478761948,0.4789109316778688,-1.344364079817443, ,0.13498853706752598,0.08754330402072949,0.036787093579676675,-0.02058651483186147,0.013592609538756998,-0.006883639464045608, ,1.437574863433838
0.019599037000119626,0.020239126451825,-0.10277662524174047, ,0.020325205358369132,0.019958888085879686,-0.10358474950059637, ,0.0011220155275315417, ,0.021389728539835316,-0.0003872362056869744,-0.03794388725061014,0.018750399956377187,-0.014434112893275895,0.0027833467627736428, ,0.04355925870092207, ,0.023660990293314844, ,0.001190250389374088, ,0.22835348835794453,-0.18702142201509495,0.11401259437000001,1.6775195478761948,0.4797307506764614,-1.3450325872396214, ,0.12636077437878931,0.07579627920005652,0.04094810159383034,-0.02058651483186147,0.11915207197713436,-0.09296030302316227, ,1.440608024597168
