NicholasDascanio/dvrk_moveit_final/test/execution/third_experiment_notsharpbends/thirdexp_400vel4.0/thirdexp_400vel4.0_25.csv
Current Position (x),Current Position (y),Current Position (z), ,Planned Position (x),Planned Position (y),Planned Position (z), ,Position Error,,Cartesian linear Velocity(x),Cartesian linear Velocity(y),Cartesian linear Velocity(z),Cartesian Angular Velocity(x),Cartesian Angular Velocity(y),Cartesian Angular Velocity(z), ,Total Linear Velocity, ,Total Angular Velocity, ,MSE, ,Joint 1 Position,Joint 2 Position,Joint 3 Position,Joint 4 Position,Joint 5 Position,Joint 6 Position, ,Joint 1 Velocity,Joint 2 Velocity,Joint 3 Velocity,Joint 4 Velocity,Joint 5 Velocity,Joint 6 Velocity, ,Time Stamp
0.009979069873285808,0.019919473195586124,-0.07918393516696813, ,0.010134502873553872,0.01987419603672319,-0.07930666533032557, ,0.00020315543725131992, ,0.00021991955870866847,0.0003039024502595347,-0.0012387006270965014,0.22264278584492714,-0.00101787486302471,-0.06237517145688455, ,0.0012942567578133907, ,0.22264511258508224, ,1.6929619770943327e-05, ,0.17305872097849703,-0.23938927363521134,0.08951530595000001,1.6882137349939055,0.4346407057538661,-1.2854763105205853, ,4.6254800104221675e-05,0.0,0.0012940778353010673,-0.0007952908157727929,0.0,-0.23155100560653352, ,0.0274810791015625
0.010006253921817938,0.01992815828100084,-0.07922513251052168, ,0.01016239440614894,0.019921490469243807,-0.07945006457749076, ,0.00027389550071465254, ,0.0017025362889852252,0.0005514884887324348,-0.0026088271152368177,0.130352219699228,-0.14906465638679878,-0.07878032537076674, ,0.003163660583202759, ,0.19802013272419888, ,2.168413354390784e-05, ,0.17308188917711972,-0.23939699636808556,0.08955289836000001,1.6880040450504212,0.432454521757619,-1.2913714256346553, ,-0.0004946343682681586,-6.86157759911475e-05,0.002325034523427237,0.0,-0.15443789821102102,-0.14730649468409984, ,0.056162118911743164
0.010039221571189054,0.01994728431603075,-0.07930242566935002, ,0.010190533427657926,0.019968061130955228,-0.07959277368053098, ,0.0003280684708154788, ,0.0017520477025397402,0.0014393758673721258,-0.005991624044598938,0.2296735276509293,-0.08662822795809057,-0.08877088779053256, ,0.006406327554173622, ,0.24546767439941908, ,2.5159981524420355e-05, ,0.17308188917711972,-0.2394047191009598,0.08962808318000001,1.6882137349939055,0.4301317012616065,-1.29290782835772, ,-0.0004946343682681586,-0.00013837123926470417,0.006031356122680804,0.0004996783989788909,-0.0892664513079033,-0.245135331587226, ,0.0837850570678711
0.010122392365768057,0.019992777161882642,-0.07948992959841139, ,0.01021891855892404,0.020013913038062638,-0.0797347970124695, ,0.00026405317967141494, ,0.0030707212368520087,0.001372348165988002,-0.00601994685264367,-0.272291873810656,-0.2354664031054824,0.00858345251441941, ,0.006895826891084128, ,0.35998234891011754, ,2.545649020125872e-05, ,0.17308188917711972,-0.23942016456670825,0.08980956378,1.6886331148808746,0.42411969527192717,-1.301155717757708, ,-0.00046859725118616666,-0.0005570386023191078,0.0056807459058487875,-0.0013365937013462782,-0.2460057595776897,0.2633799463646531, ,0.11320805549621582
0.010122482313773107,0.020037553057816893,-0.07965367792219667, ,0.010247548425066491,0.020059051191112474,-0.07987613893006301, ,0.00025611052682416517, ,-0.0018919419015423454,0.0010908762170398554,-0.0034437621982343863,0.010469069924535073,0.2867765037681528,0.0797750702827621, ,0.004077861346061558, ,0.2869675322019649, ,2.5486213755327528e-05, ,0.17308188917711972,-0.23944333276533092,0.08998974809000002,1.6886331148808746,0.4275356077660632,-1.2903008157466445, ,-0.00013334970577232996,-0.0005790809836831287,0.004360473999452505,-0.0013365937013462782,0.2973767816361552,0.01271272603540441, ,0.14071893692016602
0.01013277636780852,0.020069294844963136,-0.07976833965513516, ,0.010276421655474918,0.02010348057501298,-0.08001680377382672, ,0.0002890277687091281, ,0.0007065909727833147,0.0010354861454734093,-0.003785019911342163,0.23477021542591428,-0.002207351879914573,-0.06335795461490187, ,0.003987214327013646, ,0.23478059215504826, ,2.603727232235741e-05, ,0.17307416644424548,-0.23947422369682783,0.09011289564000001,1.6886331148808746,0.42862869976418666,-1.2921723038579027, ,0.0005519526754234116,-0.0011868886539730657,0.003984194977488744,-0.0013365937013462782,-5.565052791803125e-05,-0.24265237119209662, ,0.16907095909118652
0.010163514065599538,0.020096918079050164,-0.07987531696561312, ,0.010305536883803524,0.02014720615905357,-0.0801567958680599, ,0.0003192643801047627, ,0.001291115267619625,0.0015082713749882512,-0.005729652954771844,0.05735094548425381,-0.03316772143351973,-0.023171456558160927, ,0.00606389183256225, ,0.06625125422853782, ,2.6855212001262807e-05, ,0.17308188917711972,-0.2394973918954505,0.09022178400000001,1.6886331148808746,0.4272623347665323,-1.2939168807258583, ,0.00011837960742949643,-0.0013437650036512718,0.005930309575577067,-0.0013365937013462782,-0.03357259980591051,-0.06097246484621145, ,0.19709110260009766
0.010198232864904365,0.020147694390680992,-0.08006666648898322, ,0.01033489274796539,0.02019023289692604,-0.08029611952087029, ,0.000270433248684366, ,0.0012609527854407234,0.0017562501934779236,-0.006537827392124423,-0.030541887310079056,-0.009507123495114345,0.007885117349652351, ,0.0068860441240536936, ,0.03198737666124628, ,2.720998163920109e-05, ,0.17309733464286817,-0.23953600555982163,0.09042270895000001,1.6886331148808746,0.4272623347665323,-1.293590165765296, ,0.0005094727339010372,-0.0016969622442730243,0.006848156285468617,-0.0013365937013462782,-0.009187469768990694,0.032467781546780934, ,0.22190499305725098
0.010219408073988032,0.020179705304066868,-0.08018777085428665, ,0.010364487890126724,0.02023256572674414,-0.08043477902419952, ,0.00029129952512862306, ,0.0008820659458975037,0.0011731152873726291,-0.004582689808841909,-0.024385955430719544,-0.006270968507237867,0.0065603044616100465, ,0.004811993941646531, ,0.025179353968413122, ,2.7725644865599013e-05, ,0.17309733464286817,-0.2395591737584443,0.09054974537,1.6886331148808746,0.4272623347665323,-1.293018414584312, ,0.0003904643330354127,-0.0005232776668018418,0.004787740162308387,-0.0013365937013462782,-0.005913284269421938,0.0251381136367938, ,0.24974298477172852
0.010247680987142502,0.02021896933107926,-0.08033622767116969, ,0.010394320956701087,0.020274209571063937,-0.08057277865384799, ,0.00028374483641429953, ,0.0006762341922608903,0.001083390632076641,-0.004074932066964697,0.0022985547978011823,0.0015764492711767284,-0.004617641823641992, ,0.004270374608255269, ,0.0027872110324684775, ,2.8071241154729404e-05, ,0.1731127801086166,-0.2395977874228154,0.09070530017,1.68842342493739,0.42712569826676683,-1.2927436392003344, ,-0.0004680870335725602,-0.0006503314000184078,0.004271604054706356,0.004691223066142092,0.0,-0.0009055076452115099, ,0.2769341468811035
0.010263740574390931,0.02024529594765636,-0.08043115898913723, ,0.010424390598343544,0.020315169336904793,-0.08071012266949962, ,0.0003294107704407444, ,0.0009270555552739039,0.0014281655049998955,-0.005253278731780639,0.002259668285634217,0.0005876299636203544,-0.0026357388402966702, ,0.005522320721038811, ,0.002334824561802443, ,2.878207078480514e-05, ,0.1731050573757424,-0.2396209556214381,0.0908051145,1.6886331148808746,0.42712569826676683,-1.2927436392003344, ,8.742060983314094e-05,-0.001325688219016142,0.005521251826689776,0.002855963171234878,0.0,-0.000493680584469016, ,0.30124592781066895
0.010290967439088715,0.02028440062063707,-0.08057123390942311, ,0.01045469546994513,0.02035544991576893,-0.08084681531474806, ,0.00032832907484371264, ,0.0011364931342703226,0.0015607272869501085,-0.005831171479965026,0.001079683470561923,-0.0023544981521054584,0.003860528579173671, ,0.0061424789081633594, ,0.0025902453943638178, ,2.9374296748740747e-05, ,0.17313594830723927,-0.23965184655293498,0.09095289156000001,1.6890524947678438,0.42712569826676683,-1.2927436392003344, ,0.0014375936886571134,-0.001457721023419917,0.006135905824345147,-0.0038552434581433847,0.0,-0.00029972807991383247, ,0.3285181522369385
0.010317160077406023,0.02031891169879537,-0.08069914079916142, ,0.010485234230626778,0.02039505618366185,-0.08098286081712013, ,0.00033844342532680894, ,0.001166525608646973,0.0014753981331922838,-0.005592128318024871,0.0006584725192138735,-0.003219208249411391,0.0038291182340031656, ,0.005899955997489484, ,0.0032858609743747235, ,2.9962191626424417e-05, ,0.17318228470448463,-0.2396827374844319,0.09108770572000001,1.6890524947678438,0.42712569826676683,-1.2927436392003344, ,0.0023027722286631733,-0.001125414376999148,0.00588865490573013,-0.0038552434581433847,0.0,-0.00020252968677827846, ,0.3532750606536865
0.010351558371142839,0.02036483196478069,-0.0808702217034842, ,0.010516005543733836,0.020433993001112767,-0.08111826338810177, ,0.0003055336296181238, ,0.0010631095965870927,0.0014805935129189735,-0.005462725120729669,0.0010504436024677897,-0.0022333908435993957,0.003923192149809928, ,0.0057587954391091455, ,0.002468088644608125, ,3.022792425590815e-05, ,0.1732363438346042,-0.239721351148803,0.09126789003,1.6890524947678438,0.42712569826676683,-1.2927436392003344, ,0.0013171622227596859,-0.0015808724850389182,0.005752550205850488,-0.0038552434581433847,0.0,-0.00014395452024894132, ,0.3782069683074951
0.010373730811834393,0.020394729988035383,-0.08098230969505864, ,0.010547008076830155,0.020472265213194552,-0.08125302722316319, ,0.0003306428612989135, ,0.0011638060091489226,0.0015238447448439147,-0.005949241470229029,0.00013514815936178522,-0.0024171047894098593,0.003773817198648711, ,0.006250601675391931, ,0.0024208785874892664, ,3.063480997115634e-05, ,0.1732672347661011,-0.2397445193474257,0.09138585242000001,1.6890524947678438,0.42712569826676683,-1.2927436392003344, ,0.0015009384800156067,-0.0006760995979999859,0.006244144068992553,-0.0038552434581433847,0.0,-0.00011910816338244227, ,0.4024500846862793
0.010401672587095838,0.020429250964582535,-0.08111267895669123, ,0.010578240501692331,0.020509877649544813,-0.08138715650178355, ,0.000336176759388367, ,0.0013232565370335108,0.0017232746503409633,-0.006579695700214064,0.000487967944090613,-0.003001065919072601,0.003887362028216073, ,0.006929147053622482, ,0.003040476448388656, ,3.123414075812421e-05, ,0.1733290166290949,-0.23976768754604835,0.09154011093000002,1.6890524947678438,0.42712569826676683,-1.2927436392003344, ,0.002097902982562875,-0.0011510939508923527,0.006678746968553461,-0.0038552434581433847,0.0,0.0, ,0.425739049911499
0.010435305906501286,0.020471150648416325,-0.08127544751021973, ,0.010609701494303878,0.0205468351243848,-0.08152065538747602, ,0.0003102722417751409, ,0.0012032134032018723,0.0014528067129858536,-0.005764896265325129,0.0007469943912865768,-0.0032710681878459027,0.0034620856559500926, ,0.006065673811614091, ,0.0033552766417717685, ,3.161163523131263e-05, ,0.1733907984920887,-0.2397831330117968,0.09169436944,1.6890524947678438,0.42712569826676683,-1.2924986029799128, ,0.0023490441331627324,-0.00035379795515655686,0.00605428031927024,-0.0038552434581433847,0.0,-0.0010835279564744553, ,0.4492981433868408
0.010459610414394681,0.020501373212242553,-0.08138852374039907, ,0.01064138973484966,0.020583142436541198,-0.08165352802781273, ,0.0003315979489307772, ,0.0011310267191977472,0.0013778720070629683,-0.005265577543828223,0.0011890313820808961,-0.003447140252356977,0.0035869844220629624, ,0.005559141982127729, ,0.0036464458722282214, ,3.2080116582980945e-05, ,0.17344485762220826,-0.2398063012104195,0.09181362812,1.6890524947678438,0.42712569826676683,-1.2924986029799128, ,0.0025256856565959605,-0.0009095461294644306,0.005546243565459611,-0.0038552434581433847,0.0,-0.0009744211231726673, ,0.47216105461120605
0.01048326530762593,0.020530204698055707,-0.08150203312244808, ,0.010673303907709847,0.020618804369465147,-0.08178577855445045, ,0.0003528116232182906, ,0.0012775551001980377,0.0015964503539252022,-0.006166951646838029,0.00015773243989020505,-0.0013524273480598683,-0.003579657842706333, ,0.006497083451905801, ,0.0013615911040482254, ,3.262654096113119e-05, ,0.17349119401945362,-0.23982174667616793,0.09193288680000002,1.6888428048243591,0.42712569826676683,-1.2925802817200533, ,0.0023385713811999074,-0.0004980665488770191,0.006485672442996744,0.004125989254633218,0.0,0.0010628613371090553, ,0.49502992630004883
0.010523021157281914,0.020578282912215116,-0.08167994943610533, ,0.010705442701454342,0.020653825691253052,-0.08191741108315452, ,0.00030882416528234946, ,0.0012304678420962765,0.0014394911814961376,-0.005447025442182657,-0.0029117729069513573,-0.0018079228685990976,-0.0043857627132166364, ,0.005766825135186898, ,0.0034273899348289394, ,3.2886387904573036e-05, ,0.17359158954681853,-0.2398449148747906,0.09212084885,1.6892621847113283,0.42712569826676683,-1.292253566759491, ,0.003263195130736477,-0.000633172454954221,0.005748398238902924,0.006005356214084098,0.0,0.0047120974771728144, ,0.5176761150360107
0.010547811215089683,0.020607577997080722,-0.08179184781697721, ,0.010737804808836862,0.02068821115466744,-0.08204842971382505, ,0.00032929248633609484, ,0.0012914243563803105,0.001446766969365345,-0.00532319632926186,-0.006807526500840547,-0.0028927496161606837,-0.002630316434810189, ,0.00566545061683233, ,0.007396648776788683, ,3.323118677488299e-05, ,0.17365337140981232,-0.23986036034053904,0.09223881124000001,1.6892621847113283,0.42712569826676683,-1.29209020927921, ,0.00424590427066011,-0.0010603571766146956,0.00563851735221239,0.00546315119701763,0.0,0.00909508135828214, ,0.5424809455871582
0.010570742792468396,0.020635036263438294,-0.08189588967550915, ,0.010770388926789278,0.020721965497155714,-0.08217883853052102, ,0.00035703686809137626, ,0.0012608892044065456,0.0014920078818957652,-0.0056163506454480665,-0.0067161691714005736,-0.0020138919050752056,-0.0023725356432361226, ,0.005946370630733756, ,0.007011610610694956, ,3.368712364434455e-05, ,0.17372287600568034,-0.2398758058062875,0.09234899589000001,1.6892621847113283,0.4272623347665323,-1.2922016271829064, ,0.00325932274559915,-0.0007917183136305704,0.0059281025381466325,0.005022342416181154,0.0,0.008649625798990146, ,0.5646390914916992
0.010608519162035167,0.02067976065541654,-0.08206682547974417, ,0.010803193756415782,0.020755093440871737,-0.08230864160148585, ,0.00031944993816853664, ,0.0013790129048326506,0.0016502944434737903,-0.006217710824928126,-0.004369047287290721,-0.002295692874265169,-0.002474564292577974, ,0.006579139475971296, ,0.0049354605335880965, ,3.392728205306465e-05, ,0.17381554880017103,-0.23989897400491017,0.0925291802,1.6892621847113283,0.4272623347665323,-1.292119948442766, ,0.003398202820535536,-0.0009093799897438646,0.006560466029654037,0.004481787450469141,0.0,0.0062414430021825625, ,0.5871479511260986
0.010623232231066537,0.020696085130072754,-0.08213214550844451, ,0.010836218002986982,0.02078759969269568,-0.08243784297917196, ,0.00038365192273957593, ,0.0013579729326204401,0.0015615810608881257,-0.006121476196383099,-0.004541515833257518,-0.002314572027641802,-0.0024661998135077235, ,0.006461818375530152, ,0.0050973131294024905, ,3.4607100417567554e-05, ,0.17385416246454216,-0.23989897400491017,0.09259788357000001,1.6892621847113283,0.4272623347665323,-1.292119948442766, ,0.004616651327853059,-0.0007216959766929348,0.006171565873692368,0.004316871081293224,0.0,0.006037710675405466, ,0.6066789627075195
0.010651774205720414,0.020728141949054417,-0.08225766419691309, ,0.010869460375934378,0.020819488944254158,-0.08256644670026665, ,0.00038868776236426116, ,0.0015884386100168634,0.0018228406394411331,-0.007169951754242502,-0.0016400722726778172,-0.0029091204685674685,-0.0031438154474460562, ,0.007566643468061357, ,0.0033395808137352467, ,3.526673131595173e-05, ,0.1739313897932844,-0.2399066967377844,0.09273010515,1.6892621847113283,0.4272623347665323,-1.2920382697026254, ,0.00388419962659462,-0.0001833997115897995,0.007545623647560399,0.004037909694145314,0.0,0.0025923692697054613, ,0.6260659694671631
0.010685353950894046,0.020769330302336925,-0.08241118593597714, ,0.01090291958884434,0.020850765871940662,-0.08269445678571596, ,0.0003663453741009412, ,0.0015165343646110752,0.0016000254116217212,-0.006626057947783921,-0.002757855492523893,-0.004159345358144946,0.00047149581486843174, ,0.00698316559479095, ,0.004990581925332871, ,3.578847042027173e-05, ,0.17400861712202664,-0.23992986493640706,0.0928921414,1.6894718746548125,0.4272623347665323,-1.2920382697026254, ,0.004172975077502159,0.0006464086519735346,0.006958851690694627,0.0,0.0,0.002200018757865363, ,0.6454589366912842
0.01071591061625158,0.020802599470399547,-0.08254421108372592, ,0.01093659435945239,0.020881435136935734,-0.08282187724075062, ,0.0003633385082649356, ,0.0016665376417468658,0.0016978884901157783,-0.007009853684641583,-0.0024894132656894177,-0.005124489389221873,0.00039744336479762053, ,0.007402582097910838, ,0.005697153059380714, ,3.6266517942826955e-05, ,0.17409356718364313,-0.23992986493640706,0.09303214072,1.6894718746548125,0.4272623347665323,-1.2920382697026254, ,0.005136394029762559,0.0006464086519735346,0.007371037260527535,0.0,0.0,0.0019215679948166719, ,0.664309024810791
0.010747564903031411,0.020836484734167052,-0.08267962884230089, ,0.010970483409637527,0.020911501385226863,-0.08294871205491074, ,0.00035738765204210366, ,0.0016727442506194311,0.001662053861072036,-0.006982718071429627,-0.0010457139428427795,-0.005249176691991453,-0.00014712879021536396, ,0.007370132158255692, ,0.005352322579352798, ,3.669253451254841e-05, ,0.17418623997813382,-0.23992986493640706,0.09317473262,1.6894718746548125,0.4272623347665323,-1.2919565909624848, ,0.0052497024377826836,0.0009786979076522018,0.007337084993090743,0.0,0.0,8.486239314699784e-05, ,0.6842391490936279
0.010779447240204498,0.020869753902229688,-0.08281247803437826, ,0.011004585465416258,0.020940969247629636,-0.08307496520207072, ,0.00035306990678213616, ,0.0014435260406113022,0.0013351843921587457,-0.005581667318958065,-0.002742067022764302,-0.0054258977064610405,0.0004227699123711866, ,0.00591789615070354, ,0.006079415437404401, ,3.70774231733256e-05, ,0.17428663550549872,-0.23992986493640706,0.09331473194,1.6894718746548125,0.4272623347665323,-1.2917932334822035, ,0.005438803970018661,0.0007445773367553962,0.0058799599557032125,0.0,0.0,0.002083243328534879, ,0.7037060260772705
0.010803181381091988,0.02089409736330702,-0.0829091140572631, ,0.011038899256936904,0.020969843339807254,-0.08320064064046447, ,0.0003824762981700616, ,0.0014652070203358583,0.0013414150973854843,-0.005548024780902425,-0.0037459101711864633,-0.005731280749810983,0.0007676299469784263, ,0.005892945362502744, ,0.006846854517755517, ,3.7555766893001795e-05, ,0.17437930829998943,-0.23992986493640706,0.09341713885000001,1.6894718746548125,0.4273989712662977,-1.2917412939056188, ,0.005751501688391049,0.0005892036521139714,0.005851877854518736,0.0,0.0,0.00328304016720079, ,0.7238819599151611
0.010840039085660967,0.02092798262707451,-0.08304384730261832, ,0.01107342351847381,0.0209981282622909,-0.08332574231271037, ,0.00037263051449670006, ,0.0018082864256824354,0.0016419716331784432,-0.006695675727651403,0.003767889729139347,-0.007414723567373331,-0.001241126956877858, ,0.00712727466085952, ,0.008317157274801137, ,3.797144926514455e-05, ,0.17453376295747391,-0.23992986493640706,0.09355973075000001,1.6894718746548125,0.4273989712662977,-1.2915779364253377, ,0.007387733059779223,0.00046478790156156985,0.007073184511545294,0.0,0.0,-0.004382136873307201, ,0.7430260181427002
0.010864011962885924,0.020950894202792503,-0.08313456203707542, ,0.011108156988421526,0.021025828600499955,-0.08345027414583603, ,0.00040607399950209606, ,0.0017676903946355835,0.0017103709481973647,-0.0067560930686761745,1.9227012301823582e-05,-0.005898233390920342,-0.003253923644239515, ,0.007189915970603461, ,0.0058982635356354405, ,3.863161705740836e-05, ,0.17462643575196463,-0.23992214220353283,0.09365565621000001,1.6896815645982974,0.4273989712662977,-1.291332900204916, ,0.006750170407654281,0.0,0.007142964807174889,0.0035689823198774753,0.0,0.0006046920088335038, ,0.7602341175079346
0.0109006707077398,0.020987218645184123,-0.08328167882168826, ,0.011143098409289,0.021052948924762966,-0.08357424005130391, ,0.0003855952971784874, ,0.0020983709427347488,0.0020379743920934047,-0.008081935513400166,-0.011454153041702785,-0.00697762121527498,4.150677930707462e-05, ,0.008595009126167395, ,0.013412113377310778, ,3.918888370535777e-05, ,0.17476544494370067,-0.2399144194706586,0.09381121101,1.6896815645982974,0.4275356077660632,-1.291525996848753, ,0.007860911962055567,4.61303815368066e-05,0.008540917705093834,0.0033870672060925464,0.0,0.01242442523478473, ,0.7773990631103516
0.010936700245279846,0.021021692603819992,-0.08342126324863006, ,0.011178246527693832,0.021079493790336783,-0.08369764392503595, ,0.00037158022283397576, ,0.0020986474613004457,0.0019757993565452945,-0.007679499599692161,-0.0076926420074284,-0.0065843921593849615,-0.00024671700053381575, ,0.008202610460446094, ,0.010125755994176078, ,3.967273803373305e-05, ,0.17491217686831093,-0.2399066967377844,0.09395898807000001,1.6896815645982974,0.42767224426582856,-1.2916374147524494, ,0.008813668385155148,-0.00034534592137929935,0.008143564171779142,0.003200651783374989,0.001464156587407751,0.009006184521135028, ,0.7952430248260498
0.01096539917058333,0.02104821609731899,-0.08352390469187682, ,0.011213600094356463,0.021105467737427188,-0.08382048964743831, ,0.0003909527909125707, ,0.002173119909560405,0.0020144052427396478,-0.007997055839967519,-0.006942250822005846,-0.006816999213966451,-0.0005310942291296335, ,0.008528375034604388, ,0.009729660428355765, ,4.02036976264767e-05, ,0.17503574059429852,-0.2399144194706586,0.09406787643,1.6896815645982974,0.42767224426582856,-1.2916374147524494, ,0.009005970814503526,0.00010800779679728534,0.00846826768740032,0.0030644899588445863,0.001464156587407751,0.007741242569308997, ,0.8125810623168945
0.01100453831520057,0.02108422818323145,-0.08366941800408856, ,0.011249157864094285,0.021130875291209786,-0.08394278108342686, ,0.00036978649181524184, ,0.001956769540064068,0.0016580108329340014,-0.006750531041041846,-0.00505034680844591,-0.0057417939188692205,-0.0007608856883253863, ,0.007221330645464072, ,0.0076468415881477455, ,4.0640991184491604e-05, ,0.17520564071753145,-0.2399066967377844,0.09422213494000001,1.6896815645982974,0.42780888076559404,-1.291748832656146, ,0.009154214704569534,0.0006376167184655285,0.007159016413483147,0.002887333258906513,0.0027922898856378954,0.005312071610659655, ,0.8298580646514893
0.011046608156250961,0.021119650331427844,-0.08380978847968025, ,0.011284918595816014,0.021155720961849648,-0.08406452208245219, ,0.00035068812977613877, ,0.0022130860671404655,0.001789748469318372,-0.007236209920348547,-0.0009756365450950957,-0.007759821895471321,-0.0017004101578351053, ,0.00777583973184565, ,0.007820913161320503, ,4.0997131793388906e-05, ,0.17540643177226128,-0.2399066967377844,0.09437120829000001,1.6896815645982974,0.42780888076559404,-1.2916671539160054, ,0.011107647681115738,0.0005674467592598581,0.0076913623949782725,0.0027253922671046614,0.0027922898856378954,0.0011302610460284636, ,0.846329927444458
0.011069330098945299,0.021138094689703766,-0.08388562308902878, ,0.011320881052515783,0.02118000924452141,-0.08418571647852416, ,0.00039381563524904406, ,0.002132169483470858,0.0017748213503716046,-0.007073191934712446,-0.0004984575843666456,-0.007154036406025911,-0.0016245599114717356, ,0.007597774784584001, ,0.00717137916707238, ,4.148024566426705e-05, ,0.17551455003250044,-0.23989897400491017,0.09445157827,1.6896815645982974,0.42780888076559404,-1.2916671539160054, ,0.010482375075496608,0.00025975613464052696,0.007520685325779038,0.002648528085957768,0.0027922898856378954,0.000936295577070448, ,0.8629980087280273
0.011088740968641611,0.021155153372899915,-0.08395233215686158, ,0.01135704400126729,0.021203744619430073,-0.08430636809023756, ,0.00044686582849541047, ,0.001983839683789276,0.0016522212511145917,-0.006701813299805909,0.000498216451143683,-0.005325979504802106,0.0008933533307330754, ,0.0071819047932332805, ,0.005349230206135395, ,4.2114810903080534e-05, ,0.17561494555986534,-0.23989125127203595,0.09452287422000001,1.6898912545417817,0.4279455172653595,-1.2917785718197017, ,0.009688368191354624,0.00047168809318670423,0.007120613106839519,0.0,0.004527299326282764,-0.0006425011378246451, ,0.87972092628479
0.011140701817957266,0.021199782437615746,-0.08413166461799222, ,0.011393406213218084,0.021226931551830804,-0.08442648072079668, ,0.00038924686287703035, ,0.0022722201906729867,0.001825138815363444,-0.007336892191902705,0.002574480090314905,-0.006104751070284672,0.0007671795370611511, ,0.007894561629745576, ,0.006625399014828887, ,4.2678447522517843e-05, ,0.17586207301184054,-0.23988352853916173,0.09471342885,1.6898912545417817,0.42808215376512493,-1.2918083109832577, ,0.011823316741031981,0.00037933398890700054,0.007815903591756624,-1.3505088327265971e-05,0.0059495814350249195,-0.0025920345897460875, ,0.8945560455322266
0.01116369217134993,0.021216682526967536,-0.08420111281227585, ,0.01142996646358384,0.021249574492049624,-0.0845460581580402, ,0.0004370024847024505, ,0.0022028777597825856,0.0016944539687468014,-0.006787807522802011,0.005238815593246318,-0.006424641158354482,4.4188149206334805e-05, ,0.007334723965041499, ,0.008289824390432339, ,4.3372889283666485e-05, ,0.17598563673782813,-0.2398758058062875,0.09478731738000001,1.6898912545417817,0.42808215376512493,-1.2917266322431171, ,0.01213046276806664,0.00032623636036408567,0.007246957015468609,5.372450011362924e-06,0.0059495814350249195,-0.005297096417032829, ,0.9079761505126953
0.011210071110283791,0.021252643004827057,-0.08434834629490562, ,0.011466723531642338,0.021271677875502968,-0.08466510417446706, ,0.00040812785491205124, ,0.0024806291629535606,0.002028473249237215,-0.00828572355096757,0.0034657189036068326,-0.007859552032579712,-0.00011220269086532913, ,0.008883773946360033, ,0.008589745433878932, ,4.395779267355553e-05, ,0.1762327641898033,-0.23986036034053904,0.09494416847,1.6898912545417817,0.4282187902648904,-1.2918380501468134, ,0.012063155282541503,0.000736890773658393,0.008800448353591162,3.688719690695919e-05,0.004375554021019672,-0.003995928205891202, ,0.922187089920044
0.011232715137570477,0.021273250794331386,-0.08443208798149254, ,0.011503676200727843,0.021293246122718105,-0.08478362252725997, ,0.00044429297515555856, ,0.0023918703801414833,0.0020044016608870945,-0.008116638055799062,0.010367735308481169,-0.00037522407949345057,0.0001971955741028696, ,0.008695888871323661, ,0.010374521353254508, ,4.463400957653078e-05, ,0.17634860518291667,-0.23985263760766481,0.09503361248000002,1.6898912545417817,0.42849206326442124,-1.2920608859542062, ,0.012119660480009039,0.000597252974010696,0.008647563257328992,5.05095965157376e-05,0.012231951359210695,-0.01039189692411505, ,0.9361310005187988
0.011284926631639642,0.02131430290354563,-0.08460870871015264, ,0.01154082325822522,0.02131428363935466,-0.08490161695831198, ,0.0003889451448581996, ,0.0026618939146888566,0.0022515808650929196,-0.009609555241370082,0.0070788313776456386,-0.0007224944108522726,0.0003558475069356212, ,0.010222467781414299, ,0.007115600459763695, ,4.512592381087958e-05, ,0.17658800990201765,-0.2398140239432937,0.09522027824000001,1.6898912545417817,0.42849206326442124,-1.2919792072140657, ,0.01207033090288359,0.0019575641387414014,0.010178154325878597,7.289842705919761e-05,0.01180231931803875,-0.008400076527348244, ,0.9500081539154053
0.01130804787615109,0.021333041556634912,-0.0846857441625675, ,0.011578163495564188,0.021334794816222958,-0.08501909119425081, ,0.00042905217083961315, ,0.0028389395881852565,0.0022061983751255716,-0.009286520565835926,0.005816744319859917,-0.004377858537043217,0.0005244759684511656, ,0.009958230438961824, ,0.007280116124544607, ,4.572072659387729e-05, ,0.17669612816225677,-0.2398063012104195,0.09530194451000001,1.6898912545417817,0.42849206326442124,-1.2920608859542062, ,0.014644589746677587,0.001643276590898771,0.009875270626162431,8.0673734584673e-05,0.010669459164248758,-0.006858166883660145, ,0.96533203125
0.011373334922463063,0.02137979661204242,-0.08489234704397292, ,0.011615695708213471,0.021354784029305303,-0.08513604894646379, ,0.0003446084691971558, ,0.002826833346165986,0.0018654709347317754,-0.008629703284345452,-0.003129166094725536,-0.013405544404215843,-0.0003904986923783994, ,0.009270531125624233, ,0.013765909100420961, ,4.6055034479259914e-05, ,0.17703592840872265,-0.2397445193474257,0.09552101752000001,1.6898912545417817,0.42862869976418666,-1.2920089463776216, ,0.014904498438585012,0.0035358659742929788,0.009128258750716333,9.969228977677204e-05,0.0015310324972127244,-0.0002269196023125495, ,0.9794759750366211
0.011398449719048543,0.021397827984554002,-0.08497149303389011, ,0.01165341869567492,0.021374255639776067,-0.08525249391112255, ,0.00038016618403749963, ,0.002628389275707224,0.0019502149211136086,-0.00831065764999975,0.004843603319945858,-0.00343292573956913,0.000840196367530736, ,0.00893189783857195, ,0.005936786387468643, ,4.661328532290794e-05, ,0.17717493760045872,-0.239721351148803,0.09560527637,1.6898912545417817,0.42876533626395213,-1.2920386855411774, ,0.014174300456829094,0.0017741305104292983,0.008849339733333334,0.00010615357514928799,0.011148874714227394,-0.005941444107513235, ,0.9904160499572754
0.011406766719170165,0.021404868679414053,-0.08500178710523024, ,0.011691331261477927,0.021393213994022185,-0.08536842976920926, ,0.00046426248338633374, ,0.0026155616591189796,0.0019664190117004614,-0.008441136205990898,0.003858638827103477,-0.0038380208892597138,0.0007745160253749737, ,0.00905321749271057, ,0.005442375868049205, ,4.739584684993527e-05, ,0.17722127399770404,-0.23971362841592878,0.09563768362000001,1.6898912545417817,0.42890197276371755,-1.292150103444874, ,0.013656201116487377,0.0019283953637198494,0.008973978321126761,0.0001084408209808129,0.010185851451924919,-0.005152838638027049, ,1.0024449825286865
0.01145089206935324,0.021435993689087843,-0.08514058448313647, ,0.011729432213173373,0.02141166342366254,-0.0854838601865402, ,0.0004427355667690712, ,0.0026946062674888293,0.002132135934843568,-0.009177310214923693,0.018717878739890132,0.012668694059113738,0.0015655952018426703, ,0.009799486178488344, ,0.022602095667995998, ,4.810100612394455e-05, ,0.17746840144967924,-0.23966729201868345,0.09578546068,1.6898912545417817,0.42917524576324845,-1.2924546179924072, ,0.014756171910818034,0.002276440610993453,0.00979631704797048,0.00011767817137479987,0.028528910564028623,-0.019479100537155042, ,1.013519048690796
0.01148374096308979,0.02145698548019724,-0.08523727884390675, ,0.011767720362327929,0.021429608245569418,-0.08559878881379158, ,0.00046052499442881026, ,0.0028916358033904566,0.0018953616518958658,-0.008875673526925209,0.010232972863734823,0.0030810014154937053,0.0009508272290580772, ,0.009525310176969986, ,0.010686732347663678, ,4.8839631385468056e-05, ,0.1776460243057864,-0.2396286783543123,0.09588786759000001,1.6898912545417817,0.42917524576324845,-1.2924546179924072, ,0.016849598998308023,0.004057274617988505,0.00944769366548043,0.0001230778364153351,0.02071704031018272,-0.013109044153054895, ,1.0253181457519531
0.011515357477634911,0.021477812568335208,-0.08533013582001639, ,0.011806194524518338,0.021447052761887728,-0.08571321928652445, ,0.00048195984878866334, ,0.00314167659636595,0.002232273118063245,-0.00983616163682412,0.004847093583398064,-0.0012925675718672943,0.0019161516815424896, ,0.010564243979363213, ,0.005016468385419334, ,4.962056142156286e-05, ,0.17781592442901933,-0.23959006468994118,0.09598638563,1.6901009444852664,0.42917524576324845,-1.2923729392522667, ,0.01731064238571156,0.0029518721475922283,0.01047259140039448,0.0,0.016651742528245493,-0.006733755596706076, ,1.0361230373382568
0.011551639796326056,0.021501814726231847,-0.08544176273932053, ,0.011844853519325427,0.021464001260055758,-0.08582715522520977, ,0.00048572781859730147, ,0.003274006876953707,0.002197757360867022,-0.010618734840828876,0.00018847969080101402,-0.003580079015719563,0.0013211902657547074, ,0.0113272586298459, ,0.0035850181789328773, ,5.039480824881637e-05, ,0.17800127001800073,-0.23954372829269585,0.09610434802000001,1.6901009444852664,0.42917524576324845,-1.2923729392522667, ,0.016900612922256593,0.0054148142070916975,0.011225378097251586,0.0,0.013841053540821978,-0.004637404439235699, ,1.0472350120544434
0.011584997040035214,0.021526496087600003,-0.08555214639435156, ,0.011883696170328386,0.02148045801282524,-0.08594060023525302, ,0.0004921758438586335, ,0.0034634294386215216,0.0025042872764566154,-0.010640252875892455,0.0015036737101700233,-0.007713250405263386,0.001760870064498175, ,0.011466550462203982, ,0.00785844323375226, ,5.1169732544452016e-05, ,0.17819433833985635,-0.23950511462832472,0.09622231041000001,1.6901009444852664,0.42958515526254476,-1.292707192963356, ,0.018743223693160338,0.0021547751857044525,0.011337232398576515,0.0,0.011454108982426502,-0.0028620124438778114, ,1.058419942855835
0.011618733178786138,0.021549263729800677,-0.08565805518960452, ,0.011922721305099035,0.02149642727828212,-0.08605355790701993, ,0.0005016202458347082, ,0.0033782873276090647,0.0021923637781867465,-0.010916039378510841,0.020757541855746575,0.01735386675396552,0.001978932870789141, ,0.01163525676197086, ,0.02705609136977631, ,5.195321886544647e-05, ,0.17838740666171196,-0.23945877823107936,0.09633508764000001,1.6901009444852664,0.42985842826207565,-1.2929300287707488, ,0.019741406606713287,0.006524797735458143,0.011609920932944608,0.0,0.03862162407535104,-0.025158605136140377, ,1.069214105606079
0.011654715991528494,0.02157103037495653,-0.08576353559174532, ,0.011961927755195906,0.021511913299865612,-0.08616603181586047, ,0.0005097814303502005, ,0.0034488309824684494,0.002214769774401248,-0.0105799781238899,0.014901281473555746,0.008724598703770969,0.0018442230176938879, ,0.011346170164475082, ,0.017267503569784265, ,5.287971565537805e-05, ,0.17858047498356755,-0.2394047191009598,0.09644656858,1.6901009444852664,0.42985842826207565,-1.2929300287707488, ,0.020394786494405927,0.005321138584656847,0.011273044246284503,0.0,0.030309545474124632,-0.018508965878720543, ,1.0774469375610352
0.011696334417036415,0.021596111631925825,-0.08588492112656558, ,0.012001314356158425,0.021526920306389304,-0.08627802552213473, ,0.0005023258589921028, ,0.0035869265353165145,0.0022158193275672857,-0.01102945170622551,0.006789665348872048,0.0007592776762678032,0.0012257355443542433, ,0.011807823770794484, ,0.006831975916289824, ,5.377240841388705e-05, ,0.17880443423692008,-0.239342937237966,0.09657490129000001,1.6901009444852664,0.42985842826207565,-1.2929300287707488, ,0.02017366954899464,0.006443492945610529,0.01169516264317181,0.0,0.021779425181259932,-0.011911264286844067, ,1.0862600803375244
0.011736781451973564,0.021620468057076278,-0.08600835802287131, ,0.012040879947501172,0.02154145251206173,-0.08638954257123806, ,0.000493984828967107, ,0.00396490769394332,0.0022508739595151137,-0.011522113046517807,-0.003983741251900937,-0.01267794949660026,0.0005241333267434891, ,0.012391368595108858, ,0.013289108123703458, ,5.46297991451382e-05, ,0.1790361162231468,-0.23926570990922377,0.09670582658000001,1.6901009444852664,0.4301317012616065,-1.2931528645781416, ,0.022271049415271246,0.00735670258846344,0.012187307972456008,0.0,0.009962001366066366,-0.0025976861298990612, ,1.0947189331054688
0.011773241103168883,0.021642711307875206,-0.08612073987492982, ,0.012080623372708096,0.021555514116505716,-0.08650058649362491, ,0.000496357394972507, ,0.003967297174387062,0.0023135942977863724,-0.011878129886671581,2.791945364610127e-05,-0.007861250670377141,0.0005813845402012135, ,0.01273507499189894, ,0.007861285209673758, ,5.548010092912053e-05, ,0.1790361162231468,-0.23926570990922377,0.09670582658000001,1.6901009444852664,0.4301317012616065,-1.2931528645781416, ,0.022271049415271246,0.00735670258846344,0.012187307972456008,0.0,0.009962001366066366,-0.0025976861298990612, ,1.103065013885498
0.011773241103168883,0.021642711307875206,-0.08612073987492982, ,0.012120543479226573,0.02156910930477925,-0.08661116080483518, ,0.0006054328069771941, ,0.003967297174387062,0.0023135942977863724,-0.011878129886671581,2.791945364610127e-05,-0.007861250670377141,0.0005813845402012135, ,0.01273507499189894, ,0.007861285209673758, ,5.6594295102191165e-05, ,0.17924463001075086,-0.23919620531335573,0.09682508526000001,1.6901009444852664,0.43040497426113744,-1.2933757003855346, ,0.021951640425276607,0.007640832988113444,0.0125621541955836,0.0,0.014650334380928732,-0.006680699340048604, ,1.1114490032196045
0.011815650064727883,0.021667221793947825,-0.08625059056905862, ,0.01216063911846169,0.021582242247395335,-0.08672126900551835, ,0.0005897263442280591, ,0.004269184802964976,0.0026738433385911854,-0.014152111865095433,0.01759029537263333,0.013194474041808357,0.0009580951587578101, ,0.015021905582294494, ,0.02198890785948565, ,5.765208719015461e-05, ,0.17948403472985183,-0.23910353251886504,0.09696249200000001,1.6901009444852664,0.43067824726066833,-1.2935985361929274, ,0.022784379725923357,0.010009028417450508,0.01495663053521127,0.0,0.037461646826633284,-0.02552470894529919, ,1.1196410655975342
0.011866441101446322,0.021694890397205232,-0.08640237002284694, ,0.012200909145770475,0.021594917100342503,-0.08683091458145904, ,0.0005527331828972002, ,0.004776228888468885,0.0028154932616105584,-0.014939247651030144,0.006021448897093033,-0.0021341452526665904,0.0003045623678636711, ,0.015934882650337556, ,0.006388401886125979, ,5.8601529493471445e-05, ,0.17974660764757547,-0.23898769152575167,0.09712193567,1.6901009444852664,0.43067824726066833,-1.2935985361929274, ,0.025578690447027166,0.010550378002391041,0.015771100514851488,0.0,0.024401014862874052,-0.01510156397642905, ,1.1292800903320312
0.011914739406242597,0.02172228456271986,-0.08655001904065757, ,0.012241352420455908,0.021607138005104998,-0.08694010100360165, ,0.0005216308355517041, ,0.004972472343314402,0.0025614595131265698,-0.014635776198148157,-0.01653268288695525,-0.025998887716014867,-0.000992283337722841, ,0.01566820031033218, ,0.03081024333496706, ,5.945965913880963e-05, ,0.18000145783242488,-0.23887957326551254,0.09727749047,1.6901009444852664,0.4308148837604337,-1.2937099540966237, ,0.026027685561840586,0.01229425391610587,0.015360473982642238,0.0,0.0,0.004598874892339907, ,1.1382300853729248
0.01195770117946056,0.021744317726071327,-0.08668173572057336, ,0.012281967805761409,0.02161890908868294,-0.08704883172807562, ,0.0005056042424547531, ,0.0044763656667609,0.0020341930146853117,-0.012898960311019473,-0.005488950188382111,-0.011898440326310511,-0.0007104269664410639, ,0.013804309758506793, ,0.013103476610530861, ,6.0414436729370456e-05, ,0.18024086255152583,-0.23875600953952494,0.09741619350000001,1.6901009444852664,0.4310881567599646,-1.2939327899040167, ,0.025225130664133646,0.013382730441188942,0.013544907755102044,0.0,0.013858496184839994,-0.006879713323648902, ,1.143773078918457
0.01195770117946056,0.021744317726071327,-0.08668173572057336, ,0.012322754168864622,0.021630234463612546,-0.08715711019622012, ,0.000610130779376448, ,0.0044763656667609,0.0020341930146853117,-0.012898960311019473,-0.005488950188382111,-0.011898440326310511,-0.0007104269664410639, ,0.013804309758506793, ,0.013103476610530861, ,6.161665271442625e-05, ,0.18024086255152583,-0.23875600953952494,0.09741619350000001,1.6901009444852664,0.4310881567599646,-1.2939327899040167, ,0.025225130664133646,0.013382730441188942,0.013544907755102044,0.0,0.013858496184839994,-0.006879713323648902, ,1.1491799354553223
0.012003693908664194,0.021762025048001683,-0.08680957651117674, ,0.012363710380871987,0.02164111822798612,-0.0872649398346093, ,0.0005929469417365821, ,0.004599894882279559,0.0017232208641487646,-0.012794703758663711,0.02204234429985005,0.017481718972787517,-3.142560638055798e-05, ,0.013705216793127447, ,0.028133167215753166, ,6.276509681297815e-05, ,0.18053432640074638,-0.23859383214916624,0.09755100766000001,1.6901009444852664,0.43149806625926096,-1.2942670436151058, ,0.030087806454810014,0.016819734413057567,0.013510442340966922,0.0,0.04953944588648847,-0.036148638589405854, ,1.1545989513397217
0.012003693908664194,0.021762025048001683,-0.08680957651117674, ,0.012404835316812735,0.021651564465473384,-0.0873723240550775, ,0.0006998576768102384, ,0.004599894882279559,0.0017232208641487646,-0.012794703758663711,0.02204234429985005,0.017481718972787517,-3.142560638055798e-05, ,0.013705216793127447, ,0.028133167215753166, ,6.41624872830129e-05, ,0.18053432640074638,-0.23859383214916624,0.09755100766000001,1.6901009444852664,0.43149806625926096,-1.2942670436151058, ,0.030087806454810014,0.016819734413057567,0.013510442340966922,0.0,0.04953944588648847,-0.036148638589405854, ,1.1600239276885986
0.01205463300822424,0.021781388776615694,-0.08695026680821374, ,0.012446127855633052,0.02166157724534025,-0.08747926625474375, ,0.0006689270759980289, ,0.0054035493803316235,0.0023795059691341497,-0.015553560059765204,0.006845965381877252,-0.0010509321663229251,-0.0007752668125617675, ,0.016636514812169965, ,0.0069260948739141145, ,6.547145120899838e-05, ,0.18084323571571534,-0.23841620929305907,0.09769878472000001,1.6901009444852664,0.4317713392587918,-1.2944898794224988, ,0.03169570526335029,0.016973160715162007,0.01637082376156218,0.0,0.03190378246559865,-0.021924394879052064, ,1.1658599376678467
0.01205463300822424,0.021781388776615694,-0.08695026680821374, ,0.012487586880190322,0.02167116062247007,-0.08758576981603737, ,0.0007768290508018159, ,0.0054035493803316235,0.0023795059691341497,-0.015553560059765204,0.006845965381877252,-0.0010509321663229251,-0.0007752668125617675, ,0.016636514812169965, ,0.0069260948739141145, ,6.702780337377868e-05, ,0.18084323571571534,-0.23841620929305907,0.09769878472000001,1.6901009444852664,0.4317713392587918,-1.2944898794224988, ,0.03169570526335029,0.016973160715162007,0.01637082376156218,0.0,0.03190378246559865,-0.021924394879052064, ,1.1715030670166016
0.012117026457107993,0.021808953040002473,-0.08712416284838173, ,0.012529211277247324,0.02168031863738305,-0.08769183810672242, ,0.0007132309124138639, ,0.006595811141875383,0.0029651678460465847,-0.018587896354662937,-0.01853729709824536,-0.0320799275643167,-0.0021617163205369123, ,0.019945095534145925, ,0.037050653398712746, ,6.841671297969308e-05, ,0.18119848142792966,-0.2382385864369519,0.09788156161000001,1.6901009444852664,0.43190797575855727,-1.294601297326195, ,0.03609621208005735,0.018618195322438844,0.01949670932680539,0.0,0.004159020145070817,0.0005547058175836474, ,1.1772871017456055
0.01218185078493986,0.021839006200447614,-0.08731679428076332, ,0.012570999937466448,0.02168905531625766,-0.08779747447992294, ,0.0006363770772471603, ,0.006611604519815569,0.0030604902552998133,-0.019956222531065663,-0.005158010507498778,-0.013379772991030806,-0.0019846691953321434, ,0.021244545950399683, ,0.014339464165580882, ,6.960894126438944e-05, ,0.181553727140144,-0.23803779538222206,0.09808378285000001,1.6901009444852664,0.43218124875808817,-1.2948241331335881, ,0.0350173216082918,0.021229740840821205,0.020903952125984254,0.0,0.022519287686870854,-0.014549526154397393, ,1.1833889484405518
0.01218185078493986,0.021839006200447614,-0.08731679428076332, ,0.012612951755403742,0.021697374670949586,-0.08790268227414813, ,0.0007410615883145832, ,0.006611604519815569,0.0030604902552998133,-0.019956222531065663,-0.005158010507498778,-0.013379772991030806,-0.0019846691953321434, ,0.021244545950399683, ,0.014339464165580882, ,7.103849876031772e-05, ,0.181553727140144,-0.23803779538222206,0.09808378285000001,1.6901009444852664,0.43218124875808817,-1.2948241331335881, ,0.0350173216082918,0.021229740840821205,0.020903952125984254,0.0,0.022519287686870854,-0.014549526154397393, ,1.1890311241149902
0.012248831295538188,0.02187183617729649,-0.08752898014122468, ,0.012655065629503278,0.02170528069901297,-0.0880074648133172, ,0.0006493955981262887, ,0.006788635829264922,0.0031970203606343293,-0.021386581175245906,0.024152807313283568,0.019644041236119465,-0.0011197397818526241, ,0.022664782592693725, ,0.031132651398287067, ,7.223783351352257e-05, ,0.18191669558523255,-0.23781383612886955,0.09830674473,1.6901009444852664,0.4327277947571499,-1.2952698047483737, ,0.03730225690191462,0.023771778947512718,0.02246658888575459,0.0,0.05930293468895439,-0.04467081605566267, ,1.1944551467895508
0.012248831295538188,0.02187183617729649,-0.08752898014122468, ,0.012697340462091151,0.02171277738371996,-0.08811182540678432, ,0.0007524418754171942, ,0.006788635829264922,0.0031970203606343293,-0.021386581175245906,0.024152807313283568,0.019644041236119465,-0.0011197397818526241, ,0.022664782592693725, ,0.031132651398287067, ,7.366834223914645e-05, ,0.18191669558523255,-0.23781383612886955,0.09830674473,1.6901009444852664,0.4327277947571499,-1.2952698047483737, ,0.03730225690191462,0.023771778947512718,0.02246658888575459,0.0,0.05930293468895439,-0.04467081605566267, ,1.1999270915985107
0.012317543936350171,0.021902672398678512,-0.08773919655212309, ,0.012739775159369846,0.021719868694081736,-0.08821576734936382, ,0.0006624319775566828, ,0.007161083376444844,0.0029697752535570946,-0.021336155899175244,-0.004376943015901712,-0.011387407250127409,-0.00150035277158747, ,0.022700930129290857, ,0.012199436561995888, ,7.487465440092253e-05, ,0.18228738676319534,-0.23756670867689436,0.09852711403000002,1.6903106344287508,0.4331377042564462,-1.295604058459463, ,0.03851336913898976,0.02573127482604956,0.022309259831932778,-0.001221182973680236,0.0285389310235821,-0.019698799998199425, ,1.2063260078430176
0.012317543936350171,0.021902672398678512,-0.08773919655212309, ,0.012782368631412265,0.02172655858486715,-0.0883192939213548, ,0.0007639312994925062, ,0.007161083376444844,0.0029697752535570946,-0.021336155899175244,-0.004376943015901712,-0.011387407250127409,-0.00150035277158747, ,0.022700930129290857, ,0.012199436561995888, ,7.648459983337951e-05, ,0.18228738676319534,-0.23756670867689436,0.09852711403000002,1.6903106344287508,0.4331377042564462,-1.295604058459463, ,0.03851336913898976,0.02573127482604956,0.022309259831932778,-0.001221182973680236,0.0285389310235821,-0.019698799998199425, ,1.210287094116211
0.012395001437260925,0.021930786653444292,-0.08795386485001298, ,0.012825119792156016,0.021732850996625124,-0.08842240838856688, ,0.0006661181359028613, ,0.007161083376444844,0.0029697752535570946,-0.021336155899175244,-0.004376943015901712,-0.011387407250127409,-0.00150035277158747, ,0.022700930129290857, ,0.012199436561995888, ,7.785903698039462e-05, ,0.1827198598041519,-0.23728869029342228,0.0987513722,1.6903106344287508,0.43327434075621163,-1.2957154763631593, ,0.04327265916938932,0.027530299262683716,0.020633175544041454,-0.001221182973680236,0.010919168750646201,-0.005444628011521316, ,1.2137179374694824
0.012395001437260925,0.021930786653444292,-0.08795386485001298, ,0.01286802755939761,0.021738749855703614,-0.08852511400234445, ,0.0007661314756290725, ,0.0074636421798594315,0.0024033266094404693,-0.019753555231685056,-0.021217035036046952,-0.03305756292118453,-0.002522186474969946, ,0.021252879279567122, ,0.03928055542333171, ,7.945967055864736e-05, ,0.1827198598041519,-0.23728869029342228,0.0987513722,1.6903106344287508,0.43327434075621163,-1.2957154763631593, ,0.04327265916938932,0.027530299262683716,0.020633175544041454,-0.001221182973680236,0.010919168750646201,-0.005444628011521316, ,1.2175841331481934
0.012395001437260925,0.021930786653444292,-0.08795386485001298, ,0.012911090854786499,0.021744259074269415,-0.08862741399959198, ,0.0008687976067953439, ,0.0074636421798594315,0.0024033266094404693,-0.019753555231685056,-0.021217035036046952,-0.03305756292118453,-0.002522186474969946, ,0.021252879279567122, ,0.03928055542333171, ,0.0004434994423672621, ,0.1827198598041519,-0.23728869029342228,0.0987513722,1.6903106344287508,0.43327434075621163,-1.2957154763631593, ,0.04327265916938932,0.027530299262683716,0.020633175544041454,-0.001221182973680236,0.010919168750646201,-0.005444628011521316, ,1.2205181121826172
0.012395001437260925,0.021930786653444292,-0.08795386485001298, ,0.01295430860381945,0.021749382550329734,-0.0887293116027992, ,0.0009731647453526145, ,0.007950311651422801,0.0021394570932911435,-0.019896844922546203,0.013508637811680194,0.00055893459241657,-0.0015966572012747911, ,0.021532978657878142, ,0.013520080809038068, ,0.00045012025865457896, ,0.18316777831085693,-0.23701839464282443,0.09893933425000001,1.6903106344287508,0.43382088675527347,-1.2961611479779451, ,0.052256025087263645,0.031195575791739243,0.020931421182654404,-0.001221182973680236,0.05530092996893928,-0.041729453884136784, ,1.2235970497131348
0.012463956155511359,0.021950966970613578,-0.0881324749789138, ,0.012997679735834534,0.021754124167751434,-0.08883081002006572, ,0.0009007107076815906, ,0.007950311651422801,0.0021394570932911435,-0.019896844922546203,0.013508637811680194,0.00055893459241657,-0.0015966572012747911, ,0.021532978657878142, ,0.013520080809038068, ,0.00045568310370429517, ,0.18316777831085693,-0.23701839464282443,0.09893933425000001,1.6903106344287508,0.43382088675527347,-1.2961611479779451, ,0.052256025087263645,0.031195575791739243,0.020931421182654404,-0.001221182973680236,0.05530092996893928,-0.041729453884136784, ,1.2264349460601807
0.012463956155511359,0.021950966970613578,-0.0881324749789138, ,0.013041203184005541,0.02175848779628158,-0.08893191244512653, ,0.0010046704070696664, ,0.007950311651422801,0.0021394570932911435,-0.019896844922546203,0.013508637811680194,0.00055893459241657,-0.0015966572012747911, ,0.021532978657878142, ,0.013520080809038068, ,0.00046237807081850703, ,0.18316777831085693,-0.23701839464282443,0.09893933425000001,1.6903106344287508,0.43382088675527347,-1.2961611479779451, ,0.052256025087263645,0.031195575791739243,0.020931421182654404,-0.001221182973680236,0.05530092996893928,-0.041729453884136784, ,1.2292771339416504
0.012463956155511359,0.021950966970613578,-0.0881324749789138, ,0.013084877885335938,0.021762477291567325,-0.08903262205737648, ,0.0011096562154740601, ,0.007950311651422801,0.0021394570932911435,-0.019896844922546203,0.013508637811680194,0.00055893459241657,-0.0015966572012747911, ,0.021532978657878142, ,0.013520080809038068, ,0.000470176602681827, ,0.18316777831085693,-0.23701839464282443,0.09893933425000001,1.6903106344287508,0.43382088675527347,-1.2961611479779451, ,0.052256025087263645,0.031195575791739243,0.020931421182654404,-0.001221182973680236,0.05530092996893928,-0.041729453884136784, ,1.2320129871368408
0.01255179717704876,0.021975577481082375,-0.08836236930529802, ,0.013128702780653206,0.02176609649517712,-0.08913294202189595, ,0.000985131803613691, ,0.008833255009573144,0.002863205193387822,-0.0246151289839974,0.07218114319834879,0.0649329160264814,6.231520692838617e-05, ,0.026308343029206933, ,0.0970896079938927, ,0.00047630702174053963, ,0.183754706009298,-0.23665542619773589,0.09918174048000002,1.6903106344287508,0.43477734225363146,-1.29694107330382, ,0.05883257381182317,0.03635898144002712,0.026027469803921573,-0.001221182973680236,0.1291991769562983,-0.10209026370813418, ,1.2347731590270996
0.01255179717704876,0.021975577481082375,-0.08836236930529802, ,0.013172676814602928,0.021769349234619807,-0.08923287548947506, ,0.0010889456509206028, ,0.008833255009573144,0.002863205193387822,-0.0246151289839974,0.07218114319834879,0.0649329160264814,6.231520692838617e-05, ,0.026308343029206933, ,0.0970896079938927, ,0.000483514535025011, ,0.183754706009298,-0.23665542619773589,0.09918174048000002,1.6903106344287508,0.43477734225363146,-1.29694107330382, ,0.05883257381182317,0.03635898144002712,0.026027469803921573,-0.001221182973680236,0.1291991769562983,-0.10209026370813418, ,1.2375099658966064
0.01255179717704876,0.021975577481082375,-0.08836236930529802, ,0.013216798935643015,0.021772239323365486,-0.08933242559663926, ,0.0011935589443709392, ,0.008833255009573144,0.002863205193387822,-0.0246151289839974,0.07218114319834879,0.0649329160264814,6.231520692838617e-05, ,0.026308343029206933, ,0.0970896079938927, ,0.0004917708653662427, ,0.183754706009298,-0.23665542619773589,0.09918174048000002,1.6903106344287508,0.43477734225363146,-1.29694107330382, ,0.05883257381182317,0.03635898144002712,0.026027469803921573,-0.001221182973680236,0.1291991769562983,-0.10209026370813418, ,1.2402369976043701
0.01255179717704876,0.021975577481082375,-0.08836236930529802, ,0.013261068096037922,0.02177477056086566,-0.08943159546567434, ,0.001298704445885873, ,0.008833255009573144,0.002863205193387822,-0.0246151289839974,0.07218114319834879,0.0649329160264814,6.231520692838617e-05, ,0.026308343029206933, ,0.0970896079938927, ,0.0005010459639929051, ,0.18436480190636173,-0.23627701228689887,0.09947081315,1.6903106344287508,0.43614370725128593,-1.2980552523407842, ,0.06309637071706833,0.04093914648769231,0.03284291035051547,-0.001221182973680236,0.1410893545285246,-0.11187492280403369, ,1.243462085723877
0.012652998988286817,0.02201267426546115,-0.08865661799035808, ,0.013305483251852724,0.021776946732573056,-0.0895303882046506, ,0.0011156960031063364, ,0.01046768618569513,0.004101875849365969,-0.031618841388334346,0.07489359663048493,0.06939964515522701,-0.0007159954348703667, ,0.03355814312959597, ,0.10210450509559203, ,0.000508030623528285, ,0.18436480190636173,-0.23627701228689887,0.09947081315,1.6903106344287508,0.43614370725128593,-1.2980552523407842, ,0.06309637071706833,0.04093914648769231,0.03284291035051547,-0.001221182973680236,0.1410893545285246,-0.11187492280403369, ,1.2464540004730225
0.012652998988286817,0.02201267426546115,-0.08865661799035808, ,0.013350043362947402,0.02177877160996277,-0.08962880690744954, ,0.0012189063142877795, ,0.01046768618569513,0.004101875849365969,-0.031618841388334346,0.07489359663048493,0.06939964515522701,-0.0007159954348703667, ,0.03355814312959597, ,0.10210450509559203, ,0.0005160179908401895, ,0.18436480190636173,-0.23627701228689887,0.09947081315,1.6903106344287508,0.43614370725128593,-1.2980552523407842, ,0.06309637071706833,0.04093914648769231,0.03284291035051547,-0.001221182973680236,0.1410893545285246,-0.11187492280403369, ,1.2492139339447021
0.012652998988286817,0.02201267426546115,-0.08865661799035808, ,0.013394747392971017,0.021780248950551747,-0.08972685465378706, ,0.0013227315444223318, ,0.01046768618569513,0.004101875849365969,-0.031618841388334346,0.07489359663048493,0.06939964515522701,-0.0007159954348703667, ,0.03355814312959597, ,0.10210450509559203, ,0.00052498147476888, ,0.18436480190636173,-0.23627701228689887,0.09947081315,1.6903106344287508,0.43614370725128593,-1.2980552523407842, ,0.06309637071706833,0.04093914648769231,0.03284291035051547,-0.001221182973680236,0.1410893545285246,-0.11187492280403369, ,1.2519969940185547
0.012765306739474937,0.02205680338449767,-0.08899121570506699, ,0.013439594309355844,0.021781382497918913,-0.08982453450923976, ,0.0011067703560575077, ,0.012392890667019627,0.004931529944221417,-0.036293685004223225,0.007638617665479159,-0.009994016588441524,-0.0048657864266846386, ,0.038666979425101625, ,0.01257640148342988, ,0.0005313747591786451, ,0.18503667966641926,-0.23582909378019384,0.09984414467000001,1.6903106344287508,0.43723679924940945,-1.2987832380900746, ,0.06668794206498298,0.04397448635703002,0.03801625661097852,-0.001221182973680236,0.05932740585259045,-0.04837752140306463, ,1.2548069953918457
0.012765306739474937,0.02205680338449767,-0.08899121570506699, ,0.013484583083311564,0.021782175981726146,-0.08992184952526909, ,0.001207831932207447, ,0.012392890667019627,0.004931529944221417,-0.036293685004223225,0.007638617665479159,-0.009994016588441524,-0.0048657864266846386, ,0.038666979425101625, ,0.01257640148342988, ,0.0005387275545376539, ,0.18503667966641926,-0.23582909378019384,0.09984414467000001,1.6903106344287508,0.43723679924940945,-1.2987832380900746, ,0.06668794206498298,0.04397448635703002,0.03801625661097852,-0.001221182973680236,0.05932740585259045,-0.04837752140306463, ,1.257655143737793
0.012765306739474937,0.02205680338449767,-0.08899121570506699, ,0.01352971268981943,0.021782633117737774,-0.09001880273924684, ,0.0013097407777540565, ,0.012392890667019627,0.004931529944221417,-0.036293685004223225,0.007638617665479159,-0.009994016588441524,-0.0048657864266846386, ,0.038666979425101625, ,0.01257640148342988, ,0.0005470180193034217, ,0.18503667966641926,-0.23582909378019384,0.09984414467000001,1.6903106344287508,0.43723679924940945,-1.2987832380900746, ,0.06668794206498298,0.04397448635703002,0.03801625661097852,-0.001221182973680236,0.05932740585259045,-0.04837752140306463, ,1.2606401443481445
0.012765306739474937,0.02205680338449767,-0.08899121570506699, ,0.013574982107626513,0.021782757607841253,-0.09011539717448017, ,0.0014122532583310185, ,0.012392890667019627,0.004931529944221417,-0.036293685004223225,0.007638617665479159,-0.009994016588441524,-0.0048657864266846386, ,0.038666979425101625, ,0.01257640148342988, ,0.000556222649505843, ,0.18503667966641926,-0.23582909378019384,0.09984414467000001,1.6903106344287508,0.43723679924940945,-1.2987832380900746, ,0.06668794206498298,0.04397448635703002,0.03801625661097852,-0.001221182973680236,0.05932740585259045,-0.04837752140306463, ,1.2635149955749512
0.012765306739474937,0.02205680338449767,-0.08899121570506699, ,0.013620390319239882,0.021782553140067332,-0.09021163584023649, ,0.0015151918793607877, ,0.012392890667019627,0.004931529944221417,-0.036293685004223225,0.007638617665479159,-0.009994016588441524,-0.0048657864266846386, ,0.038666979425101625, ,0.01257640148342988, ,0.0005663170624516844, ,0.18557727096761498,-0.23545840260223108,0.10016173572,1.6901009444852664,0.43764670874870576,-1.2990358130610231, ,0.06886570504968853,0.04896643011273001,0.04094810159383034,-0.0021026355611058873,0.041620837103561445,-0.03218978669447818, ,1.2664570808410645
0.012868246169315062,0.022096840025806617,-0.08929507487059425, ,0.013665936310920687,0.021782023388609836,-0.09030752173176809, ,0.0013268261844610444, ,0.013330247180099978,0.005133656757240482,-0.0392138449572311,-0.014364252260111105,-0.029363367120062114,-0.005128452875706606, ,0.041734584674026444, ,0.032687097554794695, ,0.0005742390324726152, ,0.18557727096761498,-0.23545840260223108,0.10016173572,1.6901009444852664,0.43764670874870576,-1.2990358130610231, ,0.06886570504968853,0.04896643011273001,0.04094810159383034,-0.0021026355611058873,0.041620837103561445,-0.03218978669447818, ,1.2692739963531494
0.012868246169315062,0.022096840025806617,-0.08929507487059425, ,0.013711619072678368,0.02178117201384692,-0.0904030578303382, ,0.001427778129467247, ,0.013330247180099978,0.005133656757240482,-0.0392138449572311,-0.014364252260111105,-0.029363367120062114,-0.005128452875706606, ,0.041734584674026444, ,0.032687097554794695, ,0.0005830384046065806, ,0.18557727096761498,-0.23545840260223108,0.10016173572,1.6901009444852664,0.43764670874870576,-1.2990358130610231, ,0.06886570504968853,0.04896643011273001,0.04094810159383034,-0.0021026355611058873,0.041620837103561445,-0.03218978669447818, ,1.2720730304718018
0.01292342108486395,0.022117641726864756,-0.089457457246409, ,0.013757437598265011,0.021780002662360118,-0.09049824710324482, ,0.0013758005700673214, ,0.0134734414453313,0.004934264741828096,-0.03947586411286164,0.006463519412632438,-0.007848904853577613,-0.005234535359713172, ,0.04200267182430585, ,0.01016299788479433, ,0.0005911278144582208, ,0.1858707348168355,-0.23524988881462702,0.10033154971000001,1.6901009444852664,0.4379199817482366,-1.2991769701282754, ,0.07194612703447369,0.0518279309440037,0.04126635108808291,-0.0021026355611058873,0.06723114792118975,-0.05472730351634052, ,1.2750189304351807
0.01292342108486395,0.022117641726864756,-0.089457457246409, ,0.01380339088516924,0.021778518966955245,-0.09059309250384623, ,0.0014761499021686481, ,0.0134734414453313,0.004934264741828096,-0.03947586411286164,0.006463519412632438,-0.007848904853577613,-0.005234535359713172, ,0.04200267182430585, ,0.01016299788479433, ,0.0006000674315058008, ,0.1858707348168355,-0.23524988881462702,0.10033154971000001,1.6901009444852664,0.4379199817482366,-1.2991769701282754, ,0.07194612703447369,0.0518279309440037,0.04126635108808291,-0.0021026355611058873,0.06723114792118975,-0.05472730351634052, ,1.2777349948883057
0.01292342108486395,0.022117641726864756,-0.089457457246409, ,0.013849477934610622,0.02177672454668262,-0.09068759697158621, ,0.0015770382227977683, ,0.0134734414453313,0.004934264741828096,-0.03947586411286164,0.006463519412632438,-0.007848904853577613,-0.005234535359713172, ,0.04200267182430585, ,0.01016299788479433, ,0.0006098371394187205, ,0.1858707348168355,-0.23524988881462702,0.10033154971000001,1.6901009444852664,0.4379199817482366,-1.2991769701282754, ,0.07194612703447369,0.0518279309440037,0.04126635108808291,-0.0021026355611058873,0.06723114792118975,-0.05472730351634052, ,1.2805070877075195
0.01292342108486395,0.022117641726864756,-0.089457457246409, ,0.013895697751533796,0.021774623006857317,-0.0907817634320188, ,0.0016783237566305711, ,0.0134734414453313,0.004934264741828096,-0.03947586411286164,0.006463519412632438,-0.007848904853577613,-0.005234535359713172, ,0.04200267182430585, ,0.01016299788479433, ,0.0006204162148366596, ,0.18730716313144125,-0.23424593354097784,0.10102247228000001,1.6901009444852664,0.4401061657444837,-1.3009596565874182, ,0.09303621721418705,0.06692308995660845,0.037043747720930234,-0.0021026355611058873,0.15138373471698915,-0.12334809538026255, ,1.283555030822754
0.013161990076487213,0.022187462799071075,-0.09011563048862604, ,0.013942049344602598,0.021772217939078777,-0.09087559479683338, ,0.0011655327130852182, ,0.014041181802654828,0.0025091724914815617,-0.03527387488248568,0.06402792365979985,0.05195653248016587,-0.005436385734796385, ,0.038048613407487886, ,0.08245605900322385, ,0.0006257604942312533, ,0.18730716313144125,-0.23424593354097784,0.10102247228000001,1.6901009444852664,0.4401061657444837,-1.3009596565874182, ,0.09303621721418705,0.06692308995660845,0.037043747720930234,-0.0021026355611058873,0.15138373471698915,-0.12334809538026255, ,1.28633713722229
0.013161990076487213,0.022187462799071075,-0.09011563048862604, ,0.013988531726194199,0.021769512921251878,-0.09096909396387946, ,0.001259465403518918, ,0.014041181802654828,0.0025091724914815617,-0.03527387488248568,0.06402792365979985,0.05195653248016587,-0.005436385734796385, ,0.038048613407487886, ,0.08245605900322385, ,0.0006319129690787063, ,0.18730716313144125,-0.23424593354097784,0.10102247228000001,1.6901009444852664,0.4401061657444837,-1.3009596565874182, ,0.09303621721418705,0.06692308995660845,0.037043747720930234,-0.0021026355611058873,0.15138373471698915,-0.12334809538026255, ,1.289067029953003
0.013161990076487213,0.022187462799071075,-0.09011563048862604, ,0.01403514391239349,0.021766511517606998,-0.0910622638171924, ,0.0013548845933424427, ,0.014041181802654828,0.0025091724914815617,-0.03527387488248568,0.06402792365979985,0.05195653248016587,-0.005436385734796385, ,0.038048613407487886, ,0.08245605900322385, ,0.0006388646193120115, ,0.18730716313144125,-0.23424593354097784,0.10102247228000001,1.6901009444852664,0.4401061657444837,-1.3009596565874182, ,0.09303621721418705,0.06692308995660845,0.037043747720930234,-0.0021026355611058873,0.15138373471698915,-0.12334809538026255, ,1.2917721271514893
0.013315481826963231,0.02220846686215557,-0.09048204215360808, ,0.014081884922987089,0.021763217278719698,-0.09115510722701721, ,0.0011129409194508054, ,0.01509525122851468,0.0017727815959377217,-0.03394963285257757,0.04632436152414471,0.02747873049858914,-0.006166960763487026, ,0.037196598434046144, ,0.05386076494584259, ,0.0006433796316942857, ,0.1883574548023358,-0.23349682845217806,0.10140747041,1.6901009444852664,0.441745803741669,-1.3023783501719157, ,0.10509074369708835,0.0710306448790949,0.03571482403587444,-0.0021026355611058873,0.13840337358346805,-0.1101936516808851, ,1.2944631576538086
0.013315481826963231,0.02220846686215557,-0.09048204215360808, ,0.014128753781457568,0.021759633741531503,-0.09124762704983454, ,0.001203736962739886, ,0.01509525122851468,0.0017727815959377217,-0.03394963285257757,0.04632436152414471,0.02747873049858914,-0.006166960763487026, ,0.037196598434046144, ,0.05386076494584259, ,0.0006486660216098102, ,0.1883574548023358,-0.23349682845217806,0.10140747041,1.6901009444852664,0.441745803741669,-1.3023783501719157, ,0.10509074369708835,0.0710306448790949,0.03571482403587444,-0.0021026355611058873,0.13840337358346805,-0.1101936516808851, ,1.2972970008850098
0.013315481826963231,0.02220846686215557,-0.09048204215360808, ,0.014175749514977614,0.021755764429369953,-0.09133982612838586, ,0.001296454139210941, ,0.01509525122851468,0.0017727815959377217,-0.03394963285257757,0.04632436152414471,0.02747873049858914,-0.006166960763487026, ,0.037196598434046144, ,0.05386076494584259, ,0.0006547201161668301, ,0.1883574548023358,-0.23349682845217806,0.10140747041,1.6901009444852664,0.441745803741669,-1.3023783501719157, ,0.10509074369708835,0.0710306448790949,0.03571482403587444,-0.0021026355611058873,0.13840337358346805,-0.1101936516808851, ,1.3002691268920898
0.013453672294541145,0.022219618493141396,-0.0907781828783185, ,0.014222871154404232,0.02175161285196885,-0.09143170729169729, ,0.0012122206196090101, ,0.015773105539602577,0.0005818055413353178,-0.03219485856584589,0.012935008700127131,-0.0097316185714503,-0.008913687315442488, ,0.03585579833341032, ,0.016185927885744612, ,0.0006598821578653688, ,0.1893305191444881,-0.23283267342499475,0.10171858001,1.6901009444852664,0.44283889573979246,-1.3031880146613464, ,0.11243713454795115,0.07855707082654866,0.03374748203389831,-0.0021026355611058873,0.10732275688766252,-0.08561817380867995, ,1.3047139644622803
0.013453672294541145,0.022219618493141396,-0.0907781828783185, ,0.014270117734272943,0.021747182505488304,-0.0915232733551058, ,0.0012020560457348564, ,0.015773105539602577,0.0005818055413353178,-0.03219485856584589,0.012935008700127131,-0.0097316185714503,-0.008913687315442488, ,0.03585579833341032, ,0.016185927885744612, ,0.0006648562302311438, ,0.1893305191444881,-0.23283267342499475,0.10171858001,1.6901009444852664,0.44283889573979246,-1.3031880146613464, ,0.11243713454795115,0.07855707082654866,0.03374748203389831,-0.0021026355611058873,0.10732275688766252,-0.08561817380867995, ,1.3084769248962402
0.013453672294541145,0.022219618493141396,-0.0907781828783185, ,0.014317488292791931,0.021742476872535412,-0.09161452712028353, ,0.0012935663477443183, ,0.015773105539602577,0.0005818055413353178,-0.03219485856584589,0.012935008700127131,-0.0097316185714503,-0.008913687315442488, ,0.03585579833341032, ,0.016185927885744612, ,0.0006705717767539909, ,0.1893305191444881,-0.23283267342499475,0.10171858001,1.6901009444852664,0.44283889573979246,-1.3031880146613464, ,0.11243713454795115,0.07855707082654866,0.03374748203389831,-0.0021026355611058873,0.10732275688766252,-0.08561817380867995, ,1.3113441467285156
0.013626363404086348,0.02222084919635642,-0.09111589618823474, ,0.01436498187183625,0.02173749942218424,-0.0917054713752631, ,0.0010615004221633815, ,0.015580504235464625,-0.0001370955863892746,-0.02956842433916735,-0.009195238117286718,-0.02619195056644953,-0.004956968629700357, ,0.033422486821482966, ,0.027758747753079484, ,0.0006740936564423637, ,0.19058160187011244,-0.23197545007595582,0.10207246718000001,1.6896815645982974,0.44393198773791603,-1.3038343216704962, ,0.11351308798860141,0.07875264859624131,0.030989905680933853,-0.004612206006115867,0.09182704721961822,-0.06456327835398087, ,1.3141651153564453
0.013626363404086348,0.02222084919635642,-0.09111589618823474, ,0.014412597516941898,0.02173225360999564,-0.09179610889446252, ,0.0011487293210076578, ,0.015580504235464625,-0.0001370955863892746,-0.02956842433916735,-0.009195238117286718,-0.02619195056644953,-0.004956968629700357, ,0.033422486821482966, ,0.027758747753079484, ,0.0006783314748759824, ,0.19058160187011244,-0.23197545007595582,0.10207246718000001,1.6896815645982974,0.44393198773791603,-1.3038343216704962, ,0.11351308798860141,0.07875264859624131,0.030989905680933853,-0.004612206006115867,0.09182704721961822,-0.06456327835398087, ,1.3170199394226074
0.013626363404086348,0.02222084919635642,-0.09111589618823474, ,0.014460334277300278,0.02172674287803841,-0.09188644243871048, ,0.0012383012538527206, ,0.015580504235464625,-0.0001370955863892746,-0.02956842433916735,-0.009195238117286718,-0.02619195056644953,-0.004956968629700357, ,0.033422486821482966, ,0.027758747753079484, ,0.0006832869596456881, ,0.19058160187011244,-0.23197545007595582,0.10207246718000001,1.6896815645982974,0.44393198773791603,-1.3038343216704962, ,0.11351308798860141,0.07875264859624131,0.030989905680933853,-0.004612206006115867,0.09182704721961822,-0.06456327835398087, ,1.3199710845947266
0.013626363404086348,0.02222084919635642,-0.09111589618823474, ,0.014508191205752051,0.02172097065490879,-0.09197647475527077, ,0.0013296970700246596, ,0.015580504235464625,-0.0001370955863892746,-0.02956842433916735,-0.009195238117286718,-0.02619195056644953,-0.004956968629700357, ,0.033422486821482966, ,0.027758747753079484, ,0.0006889572237718193, ,0.19058160187011244,-0.23197545007595582,0.10207246718000001,1.6896815645982974,0.44393198773791603,-1.3038343216704962, ,0.11351308798860141,0.07875264859624131,0.030989905680933853,-0.004612206006115867,0.09182704721961822,-0.06456327835398087, ,1.3228189945220947
0.01378302769228427,0.022208007531967767,-0.09141070384084979, ,0.014556167358781466,0.02171494035575053,-0.09206620857786763, ,0.0011271852751110003, ,0.015523262206668132,-0.0018551855563655629,-0.028831044315211073,-0.01539173412870478,-0.0012744721728023762,0.0019509307977422666, ,0.032796989180276646, ,0.015443763732751983, ,0.0006927679024791166, ,0.1917400118012461,-0.2310796130625458,0.10237968791000002,1.6894718746548125,0.4450250797360395,-1.3043989499395054, ,0.11629527151773382,0.09414379122864167,0.02999776180790961,-0.009595755300911665,0.12167996502928369,-0.07252346487176053, ,1.3256070613861084
0.01378302769228427,0.022208007531967767,-0.09141070384084979, ,0.014604261796510518,0.021708655382276044,-0.09215564662671098, ,0.0012160254016889075, ,0.015523262206668132,-0.0018551855563655629,-0.028831044315211073,-0.01539173412870478,-0.0012744721728023762,0.0019509307977422666, ,0.032796989180276646, ,0.015443763732751983, ,0.0006972787429895459, ,0.1917400118012461,-0.2310796130625458,0.10237968791000002,1.6894718746548125,0.4450250797360395,-1.3043989499395054, ,0.11629527151773382,0.09414379122864167,0.02999776180790961,-0.009595755300911665,0.12167996502928369,-0.07252346487176053, ,1.3283519744873047
0.01378302769228427,0.022208007531967767,-0.09141070384084979, ,0.01465247358269325,0.021702119122785846,-0.09224479160852088, ,0.0013067370213903878, ,0.015523262206668132,-0.0018551855563655629,-0.028831044315211073,-0.01539173412870478,-0.0012744721728023762,0.0019509307977422666, ,0.032796989180276646, ,0.015443763732751983, ,0.0007024877881040831, ,0.1917400118012461,-0.2310796130625458,0.10237968791000002,1.6894718746548125,0.4450250797360395,-1.3043989499395054, ,0.11629527151773382,0.09414379122864167,0.02999776180790961,-0.009595755300911665,0.12167996502928369,-0.07252346487176053, ,1.33115816116333
0.013936812689536695,0.022189354545837665,-0.09169802812594924, ,0.01470080178470962,0.021695334952188974,-0.09233364621655311, ,0.0011098401026971765, ,0.01577369641110913,-0.0020149464800151206,-0.029458854884521588,0.02742751356923451,0.028962207775397292,-0.002046027258609119, ,0.03347676267046238, ,0.03988804073654995, ,0.0007059399263633465, ,0.1928984217323798,-0.2301374396518904,0.10267913090000001,1.6894718746548125,0.44639144473369397,-1.3051864140159073, ,0.11997084899933096,0.09713095348871113,0.030750601389961392,-0.009595755300911665,0.15698123155432026,-0.11731062581667101, ,1.33439302444458
0.013936812689536695,0.022189354545837665,-0.09169802812594924, ,0.014749245473560131,0.0216883062320235,-0.09242221313062396, ,0.001198140376720448, ,0.01577369641110913,-0.0020149464800151206,-0.029458854884521588,0.02742751356923451,0.028962207775397292,-0.002046027258609119, ,0.03347676267046238, ,0.03988804073654995, ,0.0007100760646016414, ,0.1928984217323798,-0.2301374396518904,0.10267913090000001,1.6894718746548125,0.44639144473369397,-1.3051864140159073, ,0.11997084899933096,0.09713095348871113,0.030750601389961392,-0.009595755300911665,0.15698123155432026,-0.11731062581667101, ,1.3373749256134033
0.013936812689536695,0.022189354545837665,-0.09169802812594924, ,0.014797803723859552,0.02168103631047637,-0.09251049501713518, ,0.0012883304851079604, ,0.01577369641110913,-0.0020149464800151206,-0.029458854884521588,0.02742751356923451,0.028962207775397292,-0.002046027258609119, ,0.03347676267046238, ,0.03988804073654995, ,0.0007148948514391941, ,0.1928984217323798,-0.2301374396518904,0.10267913090000001,1.6894718746548125,0.44639144473369397,-1.3051864140159073, ,0.11997084899933096,0.09713095348871113,0.030750601389961392,-0.009595755300911665,0.15698123155432026,-0.11731062581667101, ,1.3401639461517334
0.013936812689536695,0.022189354545837665,-0.09169802812594924, ,0.014846475613831428,0.02167352852240402,-0.09259849452909903, ,0.0013800010382203844, ,0.01577369641110913,-0.0020149464800151206,-0.029458854884521588,0.02742751356923451,0.028962207775397292,-0.002046027258609119, ,0.03347676267046238, ,0.03988804073654995, ,0.0007203915967844933, ,0.1928984217323798,-0.2301374396518904,0.10267913090000001,1.6894718746548125,0.44639144473369397,-1.3051864140159073, ,0.11997084899933096,0.09713095348871113,0.030750601389961392,-0.009595755300911665,0.15698123155432026,-0.11731062581667101, ,1.3430030345916748
0.014099758609850625,0.02216832900567656,-0.09199134627863131, ,0.014895260225302083,0.021665786189351763,-0.09268621430616282, ,0.0011697066632754829, ,0.01666825198556413,-0.0024242028420769636,-0.029132502294927518,0.006095842525072033,0.023870986001566258,0.003262018782321278, ,0.03365130121760158, ,0.024636604570133426, ,0.0007240745071655669, ,0.1941572271908784,-0.22915665257686388,0.10298635163000001,1.6894718746548125,0.44803108273087927,-1.3064417501201238, ,0.12964063054435898,0.10031389171085707,0.030514964597701155,-0.009595755300911665,0.16156314634581895,-0.09810000096277721, ,1.3458311557769775
0.014099758609850625,0.02216832900567656,-0.09199134627863131, ,0.014944156643694884,0.021657812619575417,-0.09277365697463506, ,0.0012592239852860538, ,0.01666825198556413,-0.0024242028420769636,-0.029132502294927518,0.006095842525072033,0.023870986001566258,0.003262018782321278, ,0.03365130121760158, ,0.024636604570133426, ,0.0007284253159307742, ,0.1941572271908784,-0.22915665257686388,0.10298635163000001,1.6894718746548125,0.44803108273087927,-1.3064417501201238, ,0.12964063054435898,0.10031389171085707,0.030514964597701155,-0.009595755300911665,0.16156314634581895,-0.09810000096277721, ,1.3505079746246338
0.014099758609850625,0.02216832900567656,-0.09199134627863131, ,0.014993163958024386,0.021649611108060525,-0.09286082514750937, ,0.0013502721491899876, ,0.01666825198556413,-0.0024242028420769636,-0.029132502294927518,0.006095842525072033,0.023870986001566258,0.003262018782321278, ,0.03365130121760158, ,0.024636604570133426, ,0.0007334402097473807, ,0.1941572271908784,-0.22915665257686388,0.10298635163000001,1.6894718746548125,0.44803108273087927,-1.3064417501201238, ,0.12964063054435898,0.10031389171085707,0.030514964597701155,-0.009595755300911665,0.16156314634581895,-0.09810000096277721, ,1.3536031246185303
0.014282357295721717,0.022139118139722146,-0.09229813927840078, ,0.01504228126089056,0.02164118493654268,-0.0929477214244902, ,0.0011168611696109087, ,0.018165560037581373,-0.003018052374159726,-0.029618687917844916,-0.015562345098805426,-0.016159261952953006,-0.0021322738871402745, ,0.03487639438914001, ,0.02243402633034281, ,0.0007365075774262889, ,0.1953542507863832,-0.22823764736483115,0.10325727624000001,1.6894718746548125,0.4493974477285336,-1.3073108929366664, ,0.13833373405024896,0.10662577703198964,0.03092973110679612,-0.009595755300911665,0.14004798315010483,-0.10310136291625223, ,1.3566620349884033
0.014282357295721717,0.022139118139722146,-0.09229813927840078, ,0.015091507648472823,0.02163253737352804,-0.09303434839201731, ,0.0012055505899824742, ,0.018165560037581373,-0.003018052374159726,-0.029618687917844916,-0.015562345098805426,-0.016159261952953006,-0.0021322738871402745, ,0.03487639438914001, ,0.02243402633034281, ,0.0007402301410180047, ,0.1953542507863832,-0.22823764736483115,0.10325727624000001,1.6894718746548125,0.4493974477285336,-1.3073108929366664, ,0.13833373405024896,0.10662577703198964,0.03092973110679612,-0.009595755300911665,0.14004798315010483,-0.10310136291625223, ,1.3596529960632324
0.014282357295721717,0.022139118139722146,-0.09229813927840078, ,0.015140842220524439,0.021623671674313217,-0.09312070862329086, ,0.0012958787566624416, ,0.018165560037581373,-0.003018052374159726,-0.029618687917844916,-0.015562345098805426,-0.016159261952953006,-0.0021322738871402745, ,0.03487639438914001, ,0.02243402633034281, ,0.0007446053269679609, ,0.1953542507863832,-0.22823764736483115,0.10325727624000001,1.6894718746548125,0.4493974477285336,-1.3073108929366664, ,0.13833373405024896,0.10662577703198964,0.03092973110679612,-0.009595755300911665,0.14004798315010483,-0.10310136291625223, ,1.3624391555786133
0.014459286319142279,0.022105567098889573,-0.09257894813436757, ,0.015190284080366545,0.02161459108100621,-0.09320680467829705, ,0.0010814892587569075, ,0.017904740010366883,-0.0035380132190908024,-0.026853668697256833,-0.0537192449699348,-0.056153744226209085,-0.0020643858650356392, ,0.03246870454575183, ,0.07771091497657028, ,0.0007472372326850621, ,0.19695285649134767,-0.22700201010495524,0.10360079309,1.6892621847113283,0.45076381272618804,-1.3082617144933495, ,0.13914507559893075,0.10485849895963623,0.02804368225352113,-0.009739493013456125,0.08831134752331035,-0.04624757899552504, ,1.3651959896087646
0.014459286319142279,0.022105567098889573,-0.09257894813436757, ,0.015239832334882318,0.02160529882254559,-0.09329263910383225, ,0.0011699894148663324, ,0.017904740010366883,-0.0035380132190908024,-0.026853668697256833,-0.0537192449699348,-0.056153744226209085,-0.0020643858650356392, ,0.03246870454575183, ,0.07771091497657028, ,0.0007505143813841417, ,0.19695285649134767,-0.22700201010495524,0.10360079309,1.6892621847113283,0.45076381272618804,-1.3082617144933495, ,0.13914507559893075,0.10485849895963623,0.02804368225352113,-0.009739493013456125,0.08831134752331035,-0.04624757899552504, ,1.3679800033569336
0.014459286319142279,0.022105567098889573,-0.09257894813436757, ,0.015289486094511352,0.021595798114721856,-0.09337821443352871, ,0.0012601280495318726, ,0.017904740010366883,-0.0035380132190908024,-0.026853668697256833,-0.0537192449699348,-0.056153744226209085,-0.0020643858650356392, ,0.03246870454575183, ,0.07771091497657028, ,0.0007544344865237397, ,0.19695285649134767,-0.22700201010495524,0.10360079309,1.6892621847113283,0.45076381272618804,-1.3082617144933495, ,0.13914507559893075,0.10485849895963623,0.02804368225352113,-0.009739493013456125,0.08831134752331035,-0.04624757899552504, ,1.3707780838012695
0.014459286319142279,0.022105567098889573,-0.09257894813436757, ,0.01533924447324353,0.021586092160196576,-0.09346353318787878, ,0.0013515440362026005, ,0.017904740010366883,-0.0035380132190908024,-0.026853668697256833,-0.0537192449699348,-0.056153744226209085,-0.0020643858650356392, ,0.03246870454575183, ,0.07771091497657028, ,0.0007589925746892272, ,0.19695285649134767,-0.22700201010495524,0.10360079309,1.6892621847113283,0.45076381272618804,-1.3082617144933495, ,0.13914507559893075,0.10485849895963623,0.02804368225352113,-0.009739493013456125,0.08831134752331035,-0.04624757899552504, ,1.373589038848877
0.01463591373653412,0.02206258635629961,-0.09283583034053854, ,0.015389106588613475,0.021576184148523365,-0.09354859787426123, ,0.0011453925690706088, ,0.017768262954892033,-0.004986307119954835,-0.025697681832000573,-0.04130569257488222,-0.05146116626772677,-0.0025481350074738696, ,0.031637719239342034, ,0.06598788272275392, ,0.0007619198473739346, ,0.19833522567583386,-0.22592082750256381,0.10386782883000001,1.6888428048243591,0.45158363172478067,-1.3086851856951063, ,0.13996599049921946,0.11601093100057551,0.026636808561872914,-0.016800997431450294,0.09574463711389282,-0.07133415743839852, ,1.3763611316680908
0.01463591373653412,0.02206258635629961,-0.09283583034053854, ,0.015439071561694563,0.02156607725616806,-0.0936334109869647, ,0.0012360091691340641, ,0.017768262954892033,-0.004986307119954835,-0.025697681832000573,-0.04130569257488222,-0.05146116626772677,-0.0025481350074738696, ,0.031637719239342034, ,0.06598788272275392, ,0.0007654844287405522, ,0.19833522567583386,-0.22592082750256381,0.10386782883000001,1.6888428048243591,0.45158363172478067,-1.3086851856951063, ,0.13996599049921946,0.11601093100057551,0.026636808561872914,-0.016800997431450294,0.09574463711389282,-0.07133415743839852, ,1.379159927368164
0.01463591373653412,0.02206258635629961,-0.09283583034053854, ,0.015489138517093212,0.021555774646528674,-0.09371797500721353, ,0.0013277913421408446, ,0.017768262954892033,-0.004986307119954835,-0.025697681832000573,-0.04130569257488222,-0.05146116626772677,-0.0025481350074738696, ,0.031637719239342034, ,0.06598788272275392, ,0.000769680748989808, ,0.19833522567583386,-0.22592082750256381,0.10386782883000001,1.6888428048243591,0.45158363172478067,-1.3086851856951063, ,0.13996599049921946,0.11601093100057551,0.026636808561872914,-0.016800997431450294,0.09574463711389282,-0.07133415743839852, ,1.3819119930267334
0.014815965625077938,0.022015099408292032,-0.09311239124858328, ,0.015539306582942964,0.02154527946995546,-0.09380229240319332, ,0.0011044983109611075, ,0.01757150927898417,-0.004169862540112805,-0.02833064240223992,0.015539072799166633,0.017004254917440897,-0.0013584949444836027, ,0.03359718724638206, ,0.023034522307755104, ,0.0007721608790784843, ,0.19974848579181695,-0.22473152663993323,0.10415560521000002,1.6888428048243591,0.4529499967224351,-1.30971768599193, ,0.13733276636537015,0.11378530162886184,0.02960745635687733,-0.014958583701732572,0.16359457461071877,-0.12260991661235389, ,1.384793996810913
0.014815965625077938,0.022015099408292032,-0.09311239124858328, ,0.01558957489089875,0.021534594863771885,-0.09388636563007442, ,0.0011951536540014116, ,0.01757150927898417,-0.004169862540112805,-0.02833064240223992,0.015539072799166633,0.017004254917440897,-0.0013584949444836027, ,0.03359718724638206, ,0.023034522307755104, ,0.0007752711200705647, ,0.19974848579181695,-0.22473152663993323,0.10415560521000002,1.6888428048243591,0.4529499967224351,-1.30971768599193, ,0.13733276636537015,0.11378530162886184,0.02960745635687733,-0.014958583701732572,0.16359457461071877,-0.12260991661235389, ,1.3875651359558105
0.014815965625077938,0.022015099408292032,-0.09311239124858328, ,0.01563994257613101,0.0215237239522942,-0.09397019713003839, ,0.0012869416400454097, ,0.01757150927898417,-0.004169862540112805,-0.02833064240223992,0.015539072799166633,0.017004254917440897,-0.0013584949444836027, ,0.03359718724638206, ,0.023034522307755104, ,0.0007790059413842497, ,0.19974848579181695,-0.22473152663993323,0.10415560521000002,1.6888428048243591,0.4529499967224351,-1.30971768599193, ,0.13733276636537015,0.11378530162886184,0.02960745635687733,-0.014958583701732572,0.16359457461071877,-0.12260991661235389, ,1.3903789520263672
0.014815965625077938,0.022015099408292032,-0.09311239124858328, ,0.015690408777319833,0.021512669846851774,-0.09405378933230248, ,0.0013796074234150681, ,0.01757150927898417,-0.004169862540112805,-0.02833064240223992,0.015539072799166633,0.017004254917440897,-0.0013584949444836027, ,0.03359718724638206, ,0.023034522307755104, ,0.0007833581260366469, ,0.19974848579181695,-0.22473152663993323,0.10415560521000002,1.6888428048243591,0.4529499967224351,-1.30971768599193, ,0.13733276636537015,0.11378530162886184,0.02960745635687733,-0.014958583701732572,0.16359457461071877,-0.12260991661235389, ,1.394822120666504
0.01499635762725807,0.02197751487639417,-0.09341024582257043, ,0.015740972636649333,0.021501435645807667,-0.09413714465314432, ,0.001144327250351173, ,0.01757150927898417,-0.004169862540112805,-0.02833064240223992,0.015539072799166633,0.017004254917440897,-0.0013584949444836027, ,0.03359718724638206, ,0.023034522307755104, ,0.0007859550262115715, ,0.19974848579181695,-0.22473152663993323,0.10415560521000002,1.6888428048243591,0.4529499967224351,-1.30971768599193, ,0.13733276636537015,0.11378530162886184,0.02960745635687733,-0.014958583701732572,0.16359457461071877,-0.12260991661235389, ,1.3976659774780273
0.01499635762725807,0.02197751487639417,-0.09341024582257043, ,0.015791633299801575,0.021490024434578325,-0.09422026549592734, ,0.0012354117521808515, ,0.018880725220367774,-0.0035333061465961505,-0.03147949959386126,0.04527024356058328,0.018608912167695068,-0.009880167221009779, ,0.03687716002965138, ,0.048945435448524574, ,0.0007891654313970664, ,0.2011463004420516,-0.22359628490742223,0.10446801110000001,1.6888428048243591,0.4547262712193858,-1.3111661187399835, ,0.14400142876854444,0.1144715820970697,0.03304732680497926,-0.012943951675701759,0.17180856938037803,-0.15313980007791522, ,1.4005930423736572
0.01499635762725807,0.02197751487639417,-0.09341024582257043, ,0.01584238991595091,0.021478439285654353,-0.0943031542511257, ,0.001327453404292666, ,0.018880725220367774,-0.0035333061465961505,-0.03147949959386126,0.04527024356058328,0.018608912167695068,-0.009880167221009779, ,0.03687716002965138, ,0.048945435448524574, ,0.0007929830765949075, ,0.2011463004420516,-0.22359628490742223,0.10446801110000001,1.6888428048243591,0.4547262712193858,-1.3111661187399835, ,0.14400142876854444,0.1144715820970697,0.03304732680497926,-0.012943951675701759,0.17180856938037803,-0.15313980007791522, ,1.4035329818725586
0.015195541783299786,0.021942867515418796,-0.09374629663419541, ,0.015893241637758133,0.021466683258620462,-0.09438581329634918, ,0.0010594895443118248, ,0.018896010058318275,-0.0029743953403494764,-0.03203522501919679,0.015663788731971866,-0.01049865574556856,-0.019363473904720235, ,0.03731168537864954, ,0.018855829612727894, ,0.00079485988270559, ,0.20263678788677691,-0.22241470677766587,0.10482060198000001,1.6886331148808746,0.4563659092165711,-1.3125031335843405, ,0.13853568110725661,0.10945437319316122,0.03360508759493671,-0.0021972294321324125,0.13338510467355602,-0.11803343308997609, ,1.4063539505004883
0.015195541783299786,0.021942867515418796,-0.09374629663419541, ,0.015944187621364604,0.021454759400175726,-0.09446824499636823, ,0.0011488818741114911, ,0.018896010058318275,-0.0029743953403494764,-0.03203522501919679,0.015663788731971866,-0.01049865574556856,-0.019363473904720235, ,0.03731168537864954, ,0.018855829612727894, ,0.0007973355609671698, ,0.20263678788677691,-0.22241470677766587,0.10482060198000001,1.6886331148808746,0.4563659092165711,-1.3125031335843405, ,0.13853568110725661,0.10945437319316122,0.03360508759493671,-0.0021972294321324125,0.13338510467355602,-0.11803343308997609, ,1.4090960025787354
0.015195541783299786,0.021942867515418796,-0.09374629663419541, ,0.01599522702638646,0.021442670744153514,-0.09455045170313908, ,0.0012394993638169427, ,0.018896010058318275,-0.0029743953403494764,-0.03203522501919679,0.015663788731971866,-0.01049865574556856,-0.019363473904720235, ,0.03731168537864954, ,0.018855829612727894, ,0.0008004061429314043, ,0.20263678788677691,-0.22241470677766587,0.10482060198000001,1.6886331148808746,0.4563659092165711,-1.3125031335843405, ,0.13853568110725661,0.10945437319316122,0.03360508759493671,-0.0021972294321324125,0.13338510467355602,-0.11803343308997609, ,1.4118270874023438
0.015373480162249367,0.021910789736662394,-0.09403763011245718, ,0.016046359015908923,0.021430420311542766,-0.09463243575582879, ,0.0010184863718669364, ,0.018904762547419518,-0.004190345774145998,-0.030529524082759052,-0.04018019059985037,-0.061389198675735404,-0.0013324580727623145, ,0.03615246721042679, ,0.07336930495146936, ,0.00080191014451027, ,0.20393420700964662,-0.2213798605725198,0.10512523013000001,1.68842342493739,0.4573223647149292,-1.313201380170075, ,0.13673910887387722,0.11629527151773382,0.03173070023904383,-0.023262078822453534,0.08349157185437953,-0.07505799798246705, ,1.414762020111084
0.015373480162249367,0.021910789736662394,-0.09403763011245718, ,0.016097582756480166,0.02141801111050664,-0.09471419948083985, ,0.0011067526605350701, ,0.018904762547419518,-0.004190345774145998,-0.030529524082759052,-0.04018019059985037,-0.061389198675735404,-0.0013324580727623145, ,0.03615246721042679, ,0.07336930495146936, ,0.0008039981069487961, ,0.20393420700964662,-0.2213798605725198,0.10512523013000001,1.68842342493739,0.4573223647149292,-1.313201380170075, ,0.13673910887387722,0.11629527151773382,0.03173070023904383,-0.023262078822453534,0.08349157185437953,-0.07505799798246705, ,1.4175150394439697
0.015373480162249367,0.021910789736662394,-0.09403763011245718, ,0.016148897418105778,0.021405446136404285,-0.09479574519183581, ,0.0011964040072579933, ,0.018904762547419518,-0.004190345774145998,-0.030529524082759052,-0.04018019059985037,-0.061389198675735404,-0.0013324580727623145, ,0.03615246721042679, ,0.07336930495146936, ,0.000806667534842056, ,0.20393420700964662,-0.2213798605725198,0.10512523013000001,1.68842342493739,0.4573223647149292,-1.313201380170075, ,0.13673910887387722,0.11629527151773382,0.03173070023904383,-0.023262078822453534,0.08349157185437953,-0.07505799798246705, ,1.4202759265899658
0.015373480162249367,0.021910789736662394,-0.09403763011245718, ,0.016200302174242905,0.02139272837180993,-0.09487707518976593, ,0.0012871248016753211, ,0.018904762547419518,-0.004190345774145998,-0.030529524082759052,-0.04018019059985037,-0.061389198675735404,-0.0013324580727623145, ,0.03615246721042679, ,0.07336930495146936, ,0.0008099138677260646, ,0.20393420700964662,-0.2213798605725198,0.10512523013000001,1.68842342493739,0.4573223647149292,-1.313201380170075, ,0.13673910887387722,0.11629527151773382,0.03173070023904383,-0.023262078822453534,0.08349157185437953,-0.07505799798246705, ,1.4230620861053467
0.015555158234137287,0.02186570679798084,-0.09432837483166054, ,0.016251796201794257,0.02137986078653389,-0.09495819176288968, ,0.0010573647297328556, ,0.018096508585271658,-0.004734150159948614,-0.028938727622665937,-0.015002221008258008,-0.022922322190208802,-0.007793132525118872, ,0.03445788381680745, ,0.027394875330864234, ,0.0008115746117663787, ,0.20526251706401324,-0.22022145064138612,0.10542726570000001,1.6882137349939055,0.4582788202132873,-1.3138996267558094, ,0.1338461799132169,0.1178843994515165,0.030111174896030254,-0.014888499021365603,0.11841096800489823,-0.09850994704986271, ,1.4258389472961426
0.015555158234137287,0.02186570679798084,-0.09432837483166054, ,0.01630337868110254,0.021366846337642343,-0.09503909718680309, ,0.001146220686537018, ,0.018096508585271658,-0.004734150159948614,-0.028938727622665937,-0.015002221008258008,-0.022922322190208802,-0.007793132525118872, ,0.03445788381680745, ,0.027394875330864234, ,0.0008138055855981829, ,0.20526251706401324,-0.22022145064138612,0.10542726570000001,1.6882137349939055,0.4582788202132873,-1.3138996267558094, ,0.1338461799132169,0.1178843994515165,0.030111174896030254,-0.014888499021365603,0.11841096800489823,-0.09850994704986271, ,1.4286291599273682
0.015555158234137287,0.02186570679798084,-0.09432837483166054, ,0.01635504879594431,0.02135368796947758,-0.09511979372446257, ,0.0012362572772258186, ,0.018096508585271658,-0.004734150159948614,-0.028938727622665937,-0.015002221008258008,-0.022922322190208802,-0.007793132525118872, ,0.03445788381680745, ,0.027394875330864234, ,0.0008166032789202202, ,0.20526251706401324,-0.22022145064138612,0.10542726570000001,1.6882137349939055,0.4582788202132873,-1.3138996267558094, ,0.1338461799132169,0.1178843994515165,0.030111174896030254,-0.014888499021365603,0.11841096800489823,-0.09850994704986271, ,1.4314470291137695
0.015555158234137287,0.02186570679798084,-0.09432837483166054, ,0.01640680573352453,0.021340388613678495,-0.09520028362621025, ,0.0013272104595671253, ,0.018096508585271658,-0.004734150159948614,-0.028938727622665937,-0.015002221008258008,-0.022922322190208802,-0.007793132525118872, ,0.03445788381680745, ,0.027394875330864234, ,0.0008199625366876341, ,0.20526251706401324,-0.22022145064138612,0.10542726570000001,1.6882137349939055,0.4582788202132873,-1.3138996267558094, ,0.1338461799132169,0.1178843994515165,0.030111174896030254,-0.014888499021365603,0.11841096800489823,-0.09850994704986271, ,1.434298038482666
0.015555158234137287,0.02186570679798084,-0.09432837483166054, ,0.016458648684470462,0.02132695118920078,-0.09528056912979924, ,0.0014188821590403705, ,0.018096508585271658,-0.004734150159948614,-0.028938727622665937,-0.015002221008258008,-0.022922322190208802,-0.007793132525118872, ,0.03445788381680745, ,0.027394875330864234, ,0.000823877044023273, ,0.20526251706401324,-0.22022145064138612,0.10542726570000001,1.6882137349939055,0.4582788202132873,-1.3138996267558094, ,0.1338461799132169,0.1178843994515165,0.030111174896030254,-0.014888499021365603,0.11841096800489823,-0.09850994704986271, ,1.4372010231018066
0.015555158234137287,0.02186570679798084,-0.09432837483166054, ,0.01651057684282587,0.02131337860233647,-0.09536065246041815, ,0.0015111215226994933, ,0.018096508585271658,-0.004734150159948614,-0.028938727622665937,-0.015002221008258008,-0.022922322190208802,-0.007793132525118872, ,0.03445788381680745, ,0.027394875330864234, ,0.0008283396705081835, ,0.20526251706401324,-0.22022145064138612,0.10542726570000001,1.6882137349939055,0.4582788202132873,-1.3138996267558094, ,0.1338461799132169,0.1178843994515165,0.030111174896030254,-0.014888499021365603,0.11841096800489823,-0.09850994704986271, ,1.4402501583099365
0.01574112202017486,0.021815038254969946,-0.09461913425885085, ,0.0165625894060455,0.021299673746735834,-0.09544053583071711, ,0.0012708696961769494, ,0.017625962461422045,-0.004831670331475794,-0.026389169068136976,0.000437518556084096,-0.01828847914304316,-0.014312367592106414, ,0.032099966277088825, ,0.018293362027005586, ,0.000831194702931853, ,0.20666033171424789,-0.21900898158013288,0.10573059756000001,1.6880040450504212,0.45964518521094166,-1.314932127052633, ,0.1338461799132169,0.11270420612644985,0.027606259133448878,-0.008953221465067149,0.12186771908478877,-0.1077951212712682, ,1.4432260990142822
0.01591458196007763,0.021763913613547993,-0.09487104660746266, ,0.016614685574988807,0.021285839503425608,-0.09552022144083118, ,0.0010677677138123487, ,0.016964102079602746,-0.00520081702010693,-0.024051499131770515,-0.023937992054410242,-0.042662192224009715,-0.014458002504567843, ,0.02988818943210468, ,0.04891913797822955, ,0.0008327111965913433, ,0.20798091903574026,-0.2178814625804961,0.10599374443000001,1.6880040450504212,0.46073827720906524,-1.3158234702822043, ,0.1287611147333389,0.11021712143840974,0.025084742551181104,-0.008953221465067149,0.09131134212335527,-0.08220919079807577, ,1.4459710121154785
0.01591458196007763,0.021763913613547993,-0.09487104660746266, ,0.01666686455391438,0.021271878740830256,-0.09559971147840655, ,0.0011571429950994758, ,0.016964102079602746,-0.00520081702010693,-0.024051499131770515,-0.023937992054410242,-0.042662192224009715,-0.014458002504567843, ,0.02988818943210468, ,0.04891913797822955, ,0.0008347776411678282, ,0.20798091903574026,-0.2178814625804961,0.10599374443000001,1.6880040450504212,0.46073827720906524,-1.3158234702822043, ,0.1287611147333389,0.11021712143840974,0.025084742551181104,-0.008953221465067149,0.09131134212335527,-0.08220919079807577, ,1.4487121105194092
0.01591458196007763,0.021763913613547993,-0.09487104660746266, ,0.01671912555047428,0.02125779431479255,-0.09567900811862573, ,0.0012474970689111613, ,0.016964102079602746,-0.00520081702010693,-0.024051499131770515,-0.023937992054410242,-0.042662192224009715,-0.014458002504567843, ,0.02988818943210468, ,0.04891913797822955, ,0.0008373897894446848, ,0.20798091903574026,-0.2178814625804961,0.10599374443000001,1.6880040450504212,0.46073827720906524,-1.3158234702822043, ,0.1287611147333389,0.11021712143840974,0.025084742551181104,-0.008953221465067149,0.09131134212335527,-0.08220919079807577, ,1.4514391422271729
0.01591458196007763,0.021763913613547993,-0.09487104660746266, ,0.01677146777570778,0.021243589068592774,-0.09575811352423123, ,0.0013386107156064093, ,0.016964102079602746,-0.00520081702010693,-0.024051499131770515,-0.023937992054410242,-0.042662192224009715,-0.014458002504567843, ,0.02988818943210468, ,0.04891913797822955, ,0.0008405421223136265, ,0.20798091903574026,-0.2178814625804961,0.10599374443000001,1.6880040450504212,0.46073827720906524,-1.3158234702822043, ,0.1287611147333389,0.11021712143840974,0.025084742551181104,-0.008953221465067149,0.09131134212335527,-0.08220919079807577, ,1.4544460773468018
0.01609664506670128,0.021709971949122678,-0.09513043652238369, ,0.016823890444036073,0.021229265832970082,-0.09583702984555226, ,0.0011221578914340606, ,0.018058730008568495,-0.005167983294380434,-0.026103732512144397,-0.02047739166569303,-0.04113068179887666,-0.0008399999948936743, ,0.03215945633742822, ,0.04594610358212632, ,0.000842302220870629, ,0.20935556548735224,-0.21673077538223665,0.10626466904000001,1.687584665163452,0.4616947327074232,-1.3166033956080794, ,0.13576100366018712,0.11364903180655184,0.02732214668953688,-0.023780665975428373,0.10340876433342776,-0.09153682249208393, ,1.4571969509124756
0.01609664506670128,0.021709971949122678,-0.09513043652238369, ,0.016876392773255883,0.02121482742614176,-0.09591575922052817, ,0.0012123969336550174, ,0.018058730008568495,-0.005167983294380434,-0.026103732512144397,-0.02047739166569303,-0.04113068179887666,-0.0008399999948936743, ,0.03215945633742822, ,0.04594610358212632, ,0.0008446009457947557, ,0.20935556548735224,-0.21673077538223665,0.10626466904000001,1.687584665163452,0.4616947327074232,-1.3166033956080794, ,0.13576100366018712,0.11364903180655184,0.02732214668953688,-0.023780665975428373,0.10340876433342776,-0.09153682249208393, ,1.45992112159729
0.01609664506670128,0.021709971949122678,-0.09513043652238369, ,0.016928973984534225,0.021200276653824207,-0.09599430377473483, ,0.0013033907131766256, ,0.018058730008568495,-0.005167983294380434,-0.026103732512144397,-0.02047739166569303,-0.04113068179887666,-0.0008399999948936743, ,0.03215945633742822, ,0.04594610358212632, ,0.0008474329813958783, ,0.20935556548735224,-0.21673077538223665,0.10626466904000001,1.687584665163452,0.4616947327074232,-1.3166033956080794, ,0.13576100366018712,0.11364903180655184,0.02732214668953688,-0.023780665975428373,0.10340876433342776,-0.09153682249208393, ,1.4626390933990479
