NicholasDascanio/dvrk_moveit_final/test/execution/third_experiment_notsharpbends/thirdexp_400vel4.0/thirdexp_400vel4.0_15.csv
Current Position (x),Current Position (y),Current Position (z), ,Planned Position (x),Planned Position (y),Planned Position (z), ,Position Error,,Cartesian linear Velocity(x),Cartesian linear Velocity(y),Cartesian linear Velocity(z),Cartesian Angular Velocity(x),Cartesian Angular Velocity(y),Cartesian Angular Velocity(z), ,Total Linear Velocity, ,Total Angular Velocity, ,MSE, ,Joint 1 Position,Joint 2 Position,Joint 3 Position,Joint 4 Position,Joint 5 Position,Joint 6 Position, ,Joint 1 Velocity,Joint 2 Velocity,Joint 3 Velocity,Joint 4 Velocity,Joint 5 Velocity,Joint 6 Velocity, ,Time Stamp
0.008001861803113589,0.020149429444346764,-0.07422200269945523, ,0.008246800425580349,0.020108695481235474,-0.07455568621615545, ,0.00041593133308768154, ,0.00018763655000631328,0.00029251215450429074,-0.0010999579071365895,0.09513214086800514,-0.0002893946795356904,-0.027755804966283413, ,0.0011535502732448724, ,0.09513258104040333, ,3.4660944423973464e-05, ,0.15642395436741743,-0.2581786827181996,0.08451551542,1.691568774089658,0.41701459728412427,-1.2656309253543294, ,0.0001828895775137135,6.13967682287481e-05,0.001152789419416305,0.000778971850174282,0.0,-0.0988360180209904, ,0.027579069137573242
0.008037760597860343,0.02017334145261044,-0.07434352176642077, ,0.008356392627190554,0.020120931835801728,-0.07488546877095643, ,0.0006308563178524124, ,0.0023569535999730094,0.0016024256545706169,-0.007045532187358389,0.2604046911894237,-0.11853711497197174,-0.11022718680793302, ,0.0076001659227910865, ,0.28611475110867113, ,4.758125686091336e-05, ,0.15652434989478237,-0.25807828719083464,0.08463866297000001,1.691568774089658,0.4159215052860007,-1.2717639537768464, ,0.0032639211526209006,0.0025946753726316537,0.007041914907161805,0.0007552063289385317,-0.11928333726433898,-0.2830178810366233, ,0.05464911460876465
0.008155156923592777,0.020260436378872253,-0.07477826689055266, ,0.008465706807150355,0.020133052992514198,-0.07521347419757009, ,0.000549611824271491, ,0.0038762394648183315,0.0028700399845247495,-0.01493135890301536,0.3210770811223252,-0.058381090413034305,-0.10824444259277882, ,0.015691011458540266, ,0.3263416047605462, ,4.988748360036203e-05, ,0.1568487046754998,-0.25772304147862035,0.08508199415,1.6917784640331426,0.4130521387909265,-1.2785721966949644, ,0.015142323529355479,0.01387990954489846,0.015360473982642238,-0.00012074510942948424,-0.04333853124375567,-0.3512259022135744, ,0.08285212516784668
0.00830277794150209,0.02031883716669556,-0.07520440986829244, ,0.008574742894343406,0.0201450594257393,-0.07553970774599195, ,0.0004653904872423093, ,0.0036818276490908123,0.0008648441637901756,-0.010663977568847585,-0.1660867239206138,-0.0574404043899361,0.024602682596685865, ,0.011314779178319653, ,0.17573901041388468, ,4.90902372012832e-05, ,0.15738929597669551,-0.2570743319171855,0.08550717727000001,1.691568774089658,0.40840649779890154,-1.2841770430854509, ,0.021855583039721505,0.02463575845235482,0.010740938314227916,-0.0006261254302795208,-0.03779075381431201,0.143774373448865, ,0.11006402969360352
0.008366847060060951,0.02032032165046703,-0.07543234587564186, ,0.008683500820868544,0.020156951609755874,-0.07586417465797647, ,0.0005598530804489226, ,0.0014429294169653081,-5.9737771991789885e-05,-0.008391643673105458,0.02624098906593962,0.18175716466922967,0.04256472045113873, ,0.008515004253675816, ,0.18364165206766858, ,5.0416212363515715e-05, ,0.15799166914088503,-0.25630978136263727,0.08574050947,1.691568774089658,0.4105926817951486,-1.279180394112927, ,0.024946619757747313,0.030681196753466145,0.008903751548351036,-0.0006261254302795208,0.21565969623840206,-0.04099061469842766, ,0.140855073928833
0.008463168540982807,0.02030639401534895,-0.07572320588612494, ,0.008791980522031746,0.02016873001875268,-0.07618688016704901, ,0.0005848611233708746, ,0.0043774890694258245,-9.674291317737338e-06,-0.011981106171051019,-0.032283175477027436,-0.03334655097242343,-0.003155048642604111, ,0.01275575984513866, ,0.04641331310903944, ,5.171780913344664e-05, ,0.1588643379556724,-0.2551590941643778,0.08603347101000001,1.6913590841461734,0.41264222929163014,-1.2785646579444376, ,0.03191959016430231,0.039622940107920994,0.011985561715575624,-0.005483383011429807,0.0,-0.007969041884193423, ,0.16863512992858887
0.008582214070216896,0.020312753124345377,-0.07606581931291431, ,0.008900181936338415,0.020180395126825366,-0.07650782949851541, ,0.0005603527527981773, ,0.0051696396589719015,0.00042274108991341913,-0.013591042612198347,0.04019450031476029,-0.05974782196217499,-0.03094586632394686, ,0.014547175791861029, ,0.07200971893465796, ,5.231745720933151e-05, ,0.15976789770195665,-0.2541088024934833,0.08637958044,1.6911493942026892,0.41332541179045734,-1.2814904309269959, ,0.03598670517954902,0.0391812310315734,0.01366107334476844,-0.004108129405113018,-0.023174842600387973,-0.08438819546789857, ,0.19925713539123535
0.00874182836051531,0.020313383741536163,-0.07646366949232716, ,0.009008105005485548,0.020191947407973868,-0.0768270278694735, ,0.00046656119106509294, ,0.00411651477919938,-0.0005775159047301568,-0.009530049653949735,-0.05919059275483479,-0.03227381096308292,0.004098883629950897, ,0.010397166198264347, ,0.06741754271804833, ,5.1627050123621486e-05, ,0.16096492129746146,-0.25281138337061354,0.08677883776,1.6911493942026892,0.4130521387909265,-1.2817576675604463, ,0.033215590324981024,0.03815719403235657,0.0094757950743605,-0.004108129405113018,0.0019111021373852816,0.021820346523439546, ,0.22690510749816895
0.008859696009745932,0.020314382146799547,-0.07678581324046024, ,0.009115749674354159,0.020203387336100158,-0.07714448048882183, ,0.0004544507918452436, ,0.0038688299665327456,0.0006652545356056942,-0.012012435086173267,0.0015012050726576883,0.0024853279181166433,0.0019708632883017694, ,0.012637602842573122, ,0.0029034843562173104, ,5.1515042878925336e-05, ,0.1619225401738653,-0.2517842598983417,0.08710550284000002,1.69073001431572,0.41414523078904997,-1.2825673320498772, ,0.028009723010174375,0.030671280400281442,0.012262364526558892,-0.00664677301446232,0.033627578657452986,-0.03129894533499403, ,0.2562739849090576
0.008940545839837086,0.02032969240568594,-0.07702801490000052, ,0.009223115891001773,0.02021471538500528,-0.07746019255727092, ,0.0005290019627029215, ,0.004233666988111988,0.0008163995662565139,-0.012425849101612166,-0.03015602546072686,-0.029679558002232063,0.0014993042725335156, ,0.013152648794598331, ,0.04231148471236801, ,5.216870864685127e-05, ,0.162463131475061,-0.2511896094670264,0.08735179794,1.69073001431572,0.41428186728881544,-1.2827604286937142, ,0.028026267441958293,0.029692409749208632,0.012631888596352102,-0.00664677301446232,0.0,-0.00019367481000235684, ,0.28118014335632324
0.009069175761022312,0.020362701680171923,-0.07741658463912324, ,0.009330203606654867,0.020225932028387208,-0.07777416926735096, ,0.00046336620527359125, ,0.004034815478822711,0.0012701398275254982,-0.012489137396965347,-0.003799113022162726,-0.0065455895750305,0.0016740266683151768, ,0.013186035949059604, ,0.007568203141290001, ,5.2112266696868974e-05, ,0.1633744139542195,-0.2503478315837359,0.08775105526,1.6905203243722353,0.41510168628740807,-1.2835922935961739, ,0.027538288322249208,0.024413928880491584,0.012866568271405495,-0.005059250244832102,0.023251703775415418,-0.019989018267753067, ,0.3087961673736572
0.009139095898499903,0.020376720537552274,-0.07763863326770067, ,0.009437012775701505,0.02023703773983854,-0.07808641580342215, ,0.0005556752189866456, ,0.003455223740983354,0.0006337034183630513,-0.010961552799475072,-0.011554064542957234,-0.007050772861621977,0.001066286350328342, ,0.011510681600078244, ,0.013535495822204955, ,5.2846714313096305e-05, ,0.16385322339242142,-0.24980724028254023,0.08797790601000001,1.6905203243722353,0.41564823228646985,-1.2842013226912405, ,0.02264843473949183,0.026982354722340285,0.011154629915966389,-0.005059250244832102,0.017608126045811374,-0.015032253111385684, ,0.33290910720825195
0.009252732849059891,0.02039873016293861,-0.07797596768932338, ,0.00954354335568403,0.02024803299284444,-0.07839693734168321, ,0.0005333815107831659, ,0.003704290397280687,0.00034125466559185847,-0.010254164885247117,-0.006407226442492529,-0.013232884942448127,0.004298013922885128, ,0.010908075888441972, ,0.014702437934389485, ,5.330152598211441e-05, ,0.16464094214559233,-0.24901952152936932,0.08832271915,1.6901009444852664,0.4161947782855316,-1.2849737092665885, ,0.02703616568617401,0.02795197100396783,0.010431441728880159,-0.01075510668815574,0.017235363118285402,-0.02233642020242, ,0.36058497428894043
0.009343089066438019,0.02041267543948407,-0.07825380373419387, ,0.009649795307291827,0.02025891826077929,-0.07870573905018013, ,0.000567411242413765, ,0.0035660887997662778,0.0008514593018475356,-0.012014342140543779,0.0406015392962196,0.0336527533186933,-0.01011747776220751, ,0.012561305240323048, ,0.052735116846639646, ,5.394636060398746e-05, ,0.16528192897415295,-0.24831675283781487,0.08860660666,1.6898912545417817,0.41701459728412427,-1.285887252909189, ,0.0259707010285908,0.028092641077107988,0.012386323110419907,0.004389531735338789,0.0612178782373497,-0.0652135637547159, ,0.3878960609436035
0.009459374073181905,0.020439014970866223,-0.07861195670213468, ,0.009755768594354007,0.020269694016905884,-0.07901282608881394, ,0.0005265126425903577, ,0.00433863850389953,0.0008201684054170512,-0.013066729778037814,-0.005300602562099996,-0.019240323026741273,-0.013901185811248383, ,0.013792602632317949, ,0.019957104919652368, ,5.422908748091485e-05, ,0.16601558859720428,-0.24751358861889552,0.08897216044,1.6898912545417817,0.4172878702836551,-1.2864368036771439, ,0.027578303271860147,0.03105266412253625,0.01330727779448622,0.004389531735338789,0.0076999661599421705,-0.02491172427187103, ,0.41322803497314453
0.009528746983481523,0.020446849111159123,-0.07881923602868388, ,0.009861463183832372,0.020280360734372487,-0.07931820360935014, ,0.0006224042867276091, ,0.003512612380905961,8.015661219384608e-06,-0.01039771318706542,0.031384645443735225,0.017007761423715514,-0.0018804668505102856, ,0.01097501478403527, ,0.03569677571915157, ,5.510144137311858e-05, ,0.16650212076828044,-0.24694982911907715,0.08918345571000001,1.6901009444852664,0.4178344162827169,-1.2872091902524918, ,0.0270053903125984,0.0321793630242356,0.010576900079681276,-0.007926267304085112,0.0481386382086767,-0.06290947602033348, ,0.4386019706726074
0.009622627356428208,0.02044510709791333,-0.07907000189746913, ,0.009966879045814241,0.020290918886210797,-0.07962187675542577, ,0.0006684677173340751, ,0.004193626113400768,-0.0001360435726074819,-0.011098080790314354,-0.022198304228886787,-0.03065051865597875,-0.002812681881769902, ,0.01186475474086966, ,0.03784466720898102, ,5.650672647403911e-05, ,0.1674674623775585,-0.2457991419208177,0.08956845384,1.6896815645982974,0.4185175987815441,-1.2882563522118173, ,0.02769904890790157,0.033520643432875585,0.014146369023090587,-0.007225403211063003,0.023779040127241753,-0.03864131080866478, ,0.46039605140686035
0.009699687470350772,0.02045591351018243,-0.07931847148436892, ,0.01007201615350544,0.02030136894533399,-0.079923850662558, ,0.0007273215383919046, ,0.004513601983836797,0.001165962090257785,-0.014889904015449868,0.046977084176573224,0.01518917520188303,-0.006569827122303478, ,0.015602605937910624, ,0.04937161886279702, ,5.812594839521319e-05, ,0.1680621128088738,-0.2451349868936344,0.08987567457000001,1.6896815645982974,0.41906414478060583,-1.2890287387871653, ,0.031205834119852276,0.0344078830886406,0.01647240074457084,-0.006390536370402336,0.022848278337799,-0.01013374069476333, ,0.4826509952545166
0.009858989413509572,0.02048792690217337,-0.0798076805446141, ,0.010176874483223249,0.02031171138453457,-0.08022413045815094, ,0.0005527507183970211, ,0.005016526710394469,0.0008022485008114268,-0.015022750841791287,-0.01289835343003069,-0.020222905037400114,-0.003526559246819519, ,0.01585850515489074, ,0.023986092724876746, ,5.861888733473743e-05, ,0.16868765417168596,-0.2444167727363315,0.09018937675000001,1.6896815645982974,0.4194740542799022,-1.2896897074588167, ,0.03155867693996368,0.03587786070263546,0.015301451988472626,-0.00541384676110795,0.013283189288005651,-0.023151420293388632, ,0.5050041675567627
0.009953032116008191,0.020496663566139956,-0.080085345915732, ,0.010281454014389497,0.020321946676482953,-0.08052272126150414, ,0.0005741812675080007, ,0.004565737186579872,0.00014541770234556496,-0.012379722634672864,-0.017253771708730135,-0.004851342438902024,0.010673397725362507, ,0.013195629385387625, ,0.01792283099465976, ,5.9184640930598194e-05, ,0.1693595319317435,-0.2436908358461544,0.09047326426,1.6892621847113283,0.4204305097782603,-1.290632990264973, ,0.03340265454363632,0.035369713588695784,0.012611885605700713,-0.013458545722694702,0.03311396075731182,-0.017923726738338072, ,0.5294451713562012
0.010084998894334913,0.02049081161888379,-0.0804193758451659, ,0.010385754729523517,0.020332075293724144,-0.08081962818381963, ,0.0005252173149496944, ,0.004278793916386976,-0.0002772183610631393,-0.010740715682037728,-0.036031848535219686,-0.028205663698081723,0.007043074821007451, ,0.011564942747847562, ,0.04575864323349461, ,5.945134292804617e-05, ,0.17034031900677002,-0.24260965324376296,0.09081159595,1.6892621847113283,0.4211136922770875,-1.291353437263736, ,0.03124693498797194,0.03566213512155985,0.010296581460892051,-0.011255405002501447,0.03274783762214059,-0.02295608637286885, ,0.5522480010986328
0.010173912536919107,0.020493583701484703,-0.08066752626457528, ,0.010489776614235368,0.020342097708677873,-0.08111485632820943, ,0.0005681745393683673, ,0.005129276243465626,0.0006428211900810401,-0.01427930404873975,-0.01701974516442241,-0.013661334438996293,0.004951821817371454, ,0.01518621802755885, ,0.021824371479140375, ,5.990957954163032e-05, ,0.17101219676682755,-0.2418914390864601,0.09106566879000001,1.6892621847113283,0.42220678427521097,-1.2922447804933075, ,0.034850143796720814,0.0347735220075012,0.014613588550458717,-0.009689000823513172,0.02450461795160648,-0.017607292887314902, ,0.574458122253418
0.010271987042453317,0.020507049380653154,-0.08093927937401235, ,0.01059351965721893,0.020352014393634633,-0.08140841078970217, ,0.0005894941515782608, ,0.0052703787604425414,0.0008375987630354248,-0.014991969070956401,-0.035806506006215294,-0.03250082584688928,-0.0045866857077077475, ,0.015913440878417076, ,0.048357096643187866, ,6.043442485232184e-05, ,0.17164546086251395,-0.24125045225789946,0.09134307485000001,1.6890524947678438,0.42234342077497644,-1.292356198397004, ,0.032299843961358335,0.0344954349540061,0.015286767293666029,-0.0008887844451475569,0.0,0.0017314858467238085, ,0.5980889797210693
0.010377612552874428,0.02052594521606337,-0.08125775639829626, ,0.010696983850245041,0.02036182582075485,-0.08170029665525033, ,0.0005698904109788134, ,0.004836393338246638,0.0006739618395065649,-0.013620952253049979,-0.0035254445605791425,-0.0006863001483691697,0.001796699570420832, ,0.014469805298040981, ,0.0035915593256499387, ,6.083082399067156e-05, ,0.17236367501981684,-0.24053223810059657,0.09167103622000002,1.6888428048243591,0.42343651277309996,-1.2932475416265752, ,0.03327382242583127,0.03227787127839142,0.013997198172231988,-0.005863039430327209,0.03541955412286815,-0.027549215847355948, ,0.6194641590118408
0.010447658617643978,0.020535840311510636,-0.08145077609048723, ,0.010800169188154747,0.020371532462067594,-0.081990519003738, ,0.0006652692568538288, ,0.004775373814226498,0.00046921681671054663,-0.012660328185876299,-0.02254409244206521,-0.021638208016866917,0.0009642432686571068, ,0.013539138423872398, ,0.031248165145524275, ,6.189506171920101e-05, ,0.17284248445801875,-0.24007659686101734,0.09186936859000001,1.6888428048243591,0.4238464222723963,-1.2935817953376645, ,0.03207061221982791,0.03153770075057188,0.012939733160032494,-0.005863039430327209,0.012320781076330362,-0.00888706533618308, ,0.6441071033477783
0.010560323953942966,0.020537027265142317,-0.08174397210172842, ,0.010903075668852394,0.02038113478946713,-0.08227908290598655, ,0.0006543124443866885, ,0.004045289301863315,-0.00019153436908978476,-0.010678536067526612,-0.015186243404534722,-0.007564732762339426,0.0008406857507678837, ,0.011420691025318001, ,0.01696605527673779, ,6.284785056554706e-05, ,0.1736456486769381,-0.23926570990922377,0.09216103384,1.6886331148808746,0.4246662412709889,-1.2943319814999836, ,0.028251545566677815,0.033520643432875585,0.010612132924716857,-0.005597059449985325,0.023972833792719188,-0.018161689098101102, ,0.6634500026702881
0.01064389917631256,0.020547862369718003,-0.08198995290264129, ,0.01100570329329912,0.02039063327471312,-0.08256599342476237, ,0.0006981732525025635, ,0.0043699901927680435,0.0010623250802798986,-0.014395743793726535,0.04137857252503057,0.0493711005323335,0.0030135823472658974, ,0.015081869520576573, ,0.06441809694273698, ,6.392834553853339e-05, ,0.17422485364250495,-0.23864016854641157,0.09242158813000001,1.6886331148808746,0.4254860602695815,-1.295000488922162, ,0.030318511680022617,0.029785606264428992,0.01495663053521127,-0.004983133074874376,0.08426123832898565,-0.0676091136481794, ,0.6838080883026123
0.010744918636404782,0.02057579364387297,-0.08231667344429915, ,0.011108052065505821,0.020400028389426977,-0.08285125561478278, ,0.0006697293550383889, ,0.005495768500430421,0.001543550115516578,-0.017392652281803634,-0.01416639726264778,-0.011541356939427561,0.006196319499033581, ,0.018305473819739376, ,0.01827260626796928, ,6.483172332824337e-05, ,0.17486584047106557,-0.23803007264934783,0.09275991982000001,1.6882137349939055,0.4267157887674705,-1.29600325005543, ,0.031123955906353157,0.03180192411476903,0.01789754103370787,-0.011133395057234593,0.023122968445600998,-0.01794210945492953, ,0.7037861347198486
0.010850071724335697,0.020606448975602938,-0.08264767472607741, ,0.011210121992526773,0.020409320605092342,-0.08313487452272308, ,0.0006370709787270287, ,0.005243186075767207,0.0013031809565607457,-0.015788529498777418,-0.015568903039229845,-0.011776000119054488,-0.02277392252507281, ,0.016687328862476057, ,0.019520859088674705, ,6.555602734179802e-05, ,0.17546049090238086,-0.237450867683781,0.09310084409000001,1.6877943551069365,0.42712569826676683,-1.2963375037665192, ,0.030241217832527333,0.03105266412253625,0.016237320611620795,0.01889415359247928,0.014591815997796981,-0.011111315493962314, ,0.7237169742584229
0.010949261502873,0.020628288825755448,-0.0829544557859047, ,0.011311913084452608,0.020418510393050576,-0.08341685518722286, ,0.0006239682418117911, ,0.00478314057649928,0.0006395606253268572,-0.01305195189895875,-0.001969439425490729,0.002024201450711451,-0.022117343473605448, ,0.013915492084031929, ,0.002824128961682557, ,6.619093522802573e-05, ,0.17610920046381573,-0.2368176035880946,0.09341843514,1.6877943551069365,0.42835542676465577,-1.2974219436399275, ,0.0318981316162927,0.030921127910873505,0.013442035037974686,0.01889415359247928,0.03068741968717415,-0.023825705668648983, ,0.7428100109100342
0.011042743673507497,0.02062865486843206,-0.08318415280727472, ,0.011413425354403864,0.020427598224501606,-0.08369720263889259, ,0.0006641150595671359, ,0.004589286061992547,-0.00010402795670824106,-0.01165707043568895,-0.022653902498467878,-0.015372602671090895,-0.02167666328876238, ,0.012528354222210887, ,0.02737728978626931, ,6.694291467735516e-05, ,0.17672701909375368,-0.23616889402665972,0.09365176734000001,1.6877943551069365,0.42835542676465577,-1.2974219436399275, ,0.030493875822130714,0.0350173216082918,0.011834183893016346,0.016941094579029533,0.011607239511597593,-0.008357382676635813, ,0.7624659538269043
0.011132705536572432,0.020632674991483732,-0.08343624011379483, ,0.011514658818524358,0.020436584570500998,-0.08397592190031976, ,0.0006896348261955542, ,0.004586329709082266,0.0004723029932514406,-0.014197313519614473,0.042451371402620494,0.05261299450413332,0.004032378667898155, ,0.01492719670574729, ,0.06760359123484294, ,6.77496096534649e-05, ,0.17739889685381122,-0.23548157080085375,0.09391232163,1.6880040450504212,0.42985842826207565,-1.2985658618404474, ,0.03279092659242252,0.03488858145532014,0.014694475571955721,-0.007474163276845228,0.09071029772533427,-0.07396816541396294, ,0.7828271389007568
0.01124434815760628,0.020647173967989138,-0.08375609532980624, ,0.011615613495974298,0.020445469901958654,-0.08425301798607532, ,0.0006522688157809361, ,0.005846985423430229,0.0009655921993361437,-0.016431946868067072,-0.02197407042842081,-0.021569086456243426,-0.0015240363963183719, ,0.017467927315861023, ,0.030790973738782573, ,6.862736378867971e-05, ,0.1780862200796172,-0.23475563391067664,0.09424028300000001,1.6877943551069365,0.43040497426113744,-1.2990115334552332, ,0.03518611107099398,0.03487575948492127,0.016873741016949155,-0.004338249047109088,0.015220835967952633,-0.012411571131927604, ,0.7992470264434814
0.011304081609086582,0.020656514967834334,-0.08392148134357565, ,0.011716289408924024,0.020454254689637272,-0.08452849590272032, ,0.0007611117955969317, ,0.006523759914251414,0.0010960875720936983,-0.01769781975731876,-0.03733156190319266,-0.04055916062677164,0.0007748087024989515, ,0.018893746995951706, ,0.05512430760276104, ,6.984885893855681e-05, ,0.17844918852470573,-0.23440811093133654,0.09441009699000001,1.687584665163452,0.43054161076090286,-1.2991229513589295, ,0.03879678722750236,0.03658324655299568,0.01816284095781072,-0.007588095266101268,0.0,1.9873996833432802e-05, ,0.8154561519622803
0.011422330787829473,0.020680725518160775,-0.08427800541466839, ,0.011816686582547037,0.020462939404150133,-0.08480236064881105, ,0.0006913000042354906, ,0.005849446404329084,0.001290262662317882,-0.01760145159901877,0.02335481286614872,0.026243071223372928,0.0020433989352085383, ,0.018592791596946663, ,0.03513039114227434, ,7.078107418035184e-05, ,0.17920601634637975,-0.23368217404115943,0.09477953964000001,1.687584665163452,0.43190797575855727,-1.3003188091360345, ,0.03739044190641086,0.03437049676148887,0.018266985688073393,-0.006294319172820134,0.0677124016628912,-0.055239867569425914, ,0.8334341049194336
0.011545392716520206,0.02069729666161197,-0.08461080853872055, ,0.011916805045013693,0.020471524515960304,-0.08507461721490608, ,0.0006356403602777985, ,0.005918028973723708,0.0003001163358521631,-0.014492138373701202,-0.03608255686177939,-0.038066415896337254,-0.005598771169554162, ,0.015656794416207345, ,0.052449997994650006, ,7.148897322463267e-05, ,0.17997056690092797,-0.23295623715098235,0.09512176020000002,1.6873749752199676,0.43231788525785353,-1.3007347415872643, ,0.038126533370217264,0.03706911779627765,0.015013017455230917,-0.0009901394056331856,0.0,-2.745465706123634e-05, ,0.8509390354156494
0.0116540631498315,0.020699550934718064,-0.08489051351453146, ,0.0120166448274845,0.02048001049537871,-0.08534527058357208, ,0.0006216650780906028, ,0.005224893100573969,5.151702646190564e-05,-0.014551913784012629,0.044248784128658784,0.052164951593808025,0.008896790044287749, ,0.01546157678549564, ,0.06840421346027492, ,7.212295756260244e-05, ,0.18072739472260196,-0.23221485479505677,0.09540953658000001,1.687165285276483,0.43327434075621163,-1.3016780243934203, ,0.0389560515428862,0.03937632429812066,0.015069831144749293,-0.013859705101374482,0.09806929700354854,-0.0811097349821718, ,0.8671989440917969
0.011692748270779367,0.020702068440724548,-0.08499827234540314, ,0.01211620596410351,0.020488397812562863,-0.08561432572939012, ,0.0007774916895351554, ,0.005560172282476773,0.0005169141202861661,-0.015564513114811608,0.0231851933905746,0.026604069282277324,0.00846080794856301, ,0.016535924060049282, ,0.035289216221098624, ,7.323506705989128e-05, ,0.18099769037319982,-0.2319445591444589,0.09552101752000001,1.687165285276483,0.43382088675527347,-1.302123696008206, ,0.03792843387628728,0.03661147436669397,0.01610597726996967,-0.013814089272386372,0.07040250973313407,-0.058549680511606035, ,0.8845469951629639
0.011848810506821022,0.020723555490944262,-0.08541512593631942, ,0.012215488491991923,0.020496686937514972,-0.08588178761896109, ,0.0006353701373137135, ,0.006283284338310371,0.0006058355708944121,-0.01646012449329492,-0.0271554509885992,-0.02918641040868815,0.0038068248522773744, ,0.017629021446177454, ,0.03986557239855189, ,7.385519280341775e-05, ,0.18194758651672946,-0.23104872213104888,0.09595008951,1.687165285276483,0.43423079625456973,-1.3024579497192954, ,0.03837320726181592,0.0374051799599806,0.016891634697773068,-0.01098050565996139,0.01217350110950017,-0.011068538738969541, ,0.9018690586090088
0.01191045744220117,0.020729366228514706,-0.08558337020519889, ,0.01231449245124126,0.02050487834007996,-0.08614766121091168, ,0.000729426788452592, ,0.006361017270211694,0.0006308670809410403,-0.0169134145759073,-0.017178246878085782,-0.01839844892857974,0.0030314821876107284, ,0.018081043294076258, ,0.025171287307507114, ,7.474430967184038e-05, ,0.18234916862618913,-0.23065486275446342,0.09612379237000002,1.687165285276483,0.43477734225363146,-1.3029853000742215, ,0.03927853541327433,0.038326713068849265,0.017389532227074237,-0.010130264726053452,0.024126317022537935,-0.021293446274487465, ,0.918097972869873
0.012029818958576802,0.020742887067046502,-0.08590541547108534, ,0.012413217884907159,0.02051297248994507,-0.08641195145590107, ,0.000675599107006694, ,0.006213306308942458,0.0007557940876761086,-0.015581696239197402,-0.01059271632086938,-0.01282113297605702,-0.002917039020193678, ,0.016791833064985155, ,0.016630880053555952, ,7.566748263406512e-05, ,0.1831600555779827,-0.22993664859716056,0.09645823519,1.6869555953329984,0.43614370725128593,-1.3041811578513263, ,0.040519616378510155,0.03366333506863099,0.01613861349544073,-0.001843773611572429,0.029207970894063275,-0.021472568553837793, ,0.9320070743560791
0.012094875013254316,0.020748927047473255,-0.08607182184961838, ,0.012511664839002571,0.02052096985663791,-0.08667466329662571, ,0.0007675259278556591, ,0.006708726627549085,0.0007696835448500068,-0.017561749768601986,-0.04060830161735869,-0.040117364046647404,-0.001874426733890548, ,0.01881527253741999, ,0.05708270655659802, ,7.683973719637034e-05, ,0.18356163768744238,-0.22956595741919777,0.09662934547,1.6867459053895137,0.43628034375105135,-1.3042925757550228, ,0.03906831682110777,0.03815719403235657,0.01801901755656109,-0.004671259216453803,0.0,0.0023449200424705825, ,0.9456479549407959
0.012223360219339313,0.02076921277170174,-0.0864419952067794, ,0.012609833362491446,0.020528870909524596,-0.08693580166782648, ,0.0006715433880729541, ,0.00595435095565119,0.0012053981563528915,-0.01894282748623214,0.05014410180230558,0.05364237997441306,0.00288225520864791, ,0.01989316448410245, ,0.07342978575353919, ,7.769239209871782e-05, ,0.18394777433115359,-0.22918754350836076,0.09681990010000001,1.6867459053895137,0.43655361675058224,-1.304597090302556, ,0.03820327760002849,0.03682457957255366,0.01900812830548926,-0.004671259216453803,0.018047557563633524,-0.012272369970928829, ,0.9596250057220459
0.012288320257963623,0.02078351218263464,-0.08664284316903177, ,0.012707723507282014,0.020536676117808447,-0.08719537149629286, ,0.0007362843749962667, ,0.006731471665080761,0.0013594630499800255,-0.020063698409489995,0.013175386203404285,0.010895296122206336,0.0012758348390004151, ,0.021206434033778934, ,0.01709663791261482, ,7.870941670252682e-05, ,0.18471232488570183,-0.22843071568668677,0.09722045371000002,1.6865362154460295,0.43805661824800207,-1.3058226872432168, ,0.03859168017831264,0.03789813960002826,0.02076768125162973,-0.008832762672559568,0.05351593364512712,-0.04991949333112628, ,0.9736800193786621
0.012359404705126054,0.02079753601413196,-0.08684753040581702, ,0.012805335328220542,0.02054438595052885,-0.08745337770086997, ,0.0007937191066357613, ,0.0073158327838108855,0.0013306284591903406,-0.020724540981276393,-0.013165435577132999,-0.018867668861854748,-0.0004498978631833202, ,0.02201814207197542, ,0.023006820706857996, ,7.986265019855888e-05, ,0.18510618426228728,-0.22804457904297554,0.09743174898000001,1.6865362154460295,0.43832989124753297,-1.3060455230506096, ,0.04088623074470952,0.03963949104363859,0.02138095506040269,-0.008159036080914527,0.024823520214603503,-0.026405784987374024, ,0.9880120754241943
0.01248358096310172,0.02081796820857821,-0.08719079216988931, ,0.012902668883084587,0.02055200087655979,-0.08770982519246402, ,0.0007181703035489562, ,0.006808025089234883,0.0009056425631840873,-0.01824387034964636,0.011156875442609644,0.005861880139044417,-0.005550690247384702, ,0.019493798998722847, ,0.012602995172576986, ,8.076849409786617e-05, ,0.1858398438853386,-0.227372701282918,0.09778693244000002,1.686326525502545,0.43901307374636017,-1.3066026125690917, ,0.042440492646901064,0.038126533370217264,0.01891782840855107,-0.0017526458405000246,0.05060299202597414,-0.04696991428867617, ,1.0045170783996582
0.01256538455709535,0.02082232800665418,-0.08740540415879997, ,0.012999724232576674,0.02055952136460775,-0.08796471887404793, ,0.0007553484199320544, ,0.006449418004036629,0.00022109358246819673,-0.016251659249093314,0.00045459124379593733,-0.0007728606692323489,-0.005609987204510711, ,0.01748600306850141, ,0.0008960095635994373, ,8.175310460050685e-05, ,0.18636498972078586,-0.22685527818034498,0.09800859803,1.686326525502545,0.4396962562451874,-1.3072413808277146, ,0.04169461404150737,0.040193537297107486,0.016767170021052633,-0.0017526458405000246,0.04292186361880655,-0.03855260389493077, ,1.0182220935821533
0.012696230127201533,0.020824412412464976,-0.08772767072270561, ,0.013096501440317628,0.02056694788321092,-0.0882180636406663, ,0.0006833669013887717, ,0.00661137530897943,0.00023355191137075932,-0.017268083873989835,-0.003724315206049288,-0.002934750249588517,0.0037250118595392036, ,0.01849193204212679, ,0.004741492105261765, ,8.251167194411524e-05, ,0.18720676760407634,-0.2260443912285514,0.09834044827,1.6861168355590603,0.44037943874401453,-1.3077984703461967, ,0.04102764442648974,0.04187861498608596,0.017777691428571434,-0.011854188166861358,0.042323881017111875,-0.03788482549001601, ,1.0317180156707764
0.012759520872247592,0.020828810561892185,-0.08790264131898658, ,0.01319300057284031,0.020574280900737603,-0.08846986437944249, ,0.0007579129234591449, ,0.006528854075984687,0.0006092943988020504,-0.018055767010167968,0.023194362843325246,0.025318161297572216,0.003848400689696026, ,0.019209578275833736, ,0.034336363234576645, ,8.368070537494224e-05, ,0.18761607244641024,-0.2256350863862175,0.09852192887000001,1.6861168355590603,0.4411992577426072,-1.3084669777683753, ,0.04095681551940906,0.03990619914149318,0.018717757367802585,-0.010884043110419397,0.07134118092522315,-0.061456530109155354, ,1.0434651374816895
0.012852238735604397,0.02083855174290864,-0.08814964298636228, ,0.013289221699583013,0.02058152088538488,-0.08872012596958335, ,0.0007631970955603475, ,0.00738252121875142,0.0006438184574438185,-0.01999447045849742,-0.008333753170393646,-0.007493783464042821,0.0012638062351040488, ,0.021323577811126967, ,0.011207365298418516, ,8.483874395348434e-05, ,0.1881721092133544,-0.22510221781789602,0.09877729800000001,1.6861168355590603,0.441745803741669,-1.3089126493831609, ,0.04311537553769685,0.04405614742733091,0.020606483208279434,-0.009816716393751746,0.03926771588945077,-0.035175333926799356, ,1.0547759532928467
0.012929622215841954,0.02084643278836742,-0.08836078601468428, ,0.013385164892883009,0.020588668305176857,-0.08896885328238474, ,0.0008023138173114906, ,0.008082948331344311,0.0010986168863040217,-0.021695331357157926,-0.018737665949091206,-0.022069518235904247,-0.005860307741338686, ,0.023178188356446975, ,0.02895097500701954, ,8.607660181845105e-05, ,0.18862002772005942,-0.224654299311191,0.09899507472,1.6859071456155759,0.4421557132409653,-1.30924690309425, ,0.0457114362035023,0.0435307071369132,0.022403391729957808,-0.0026198003934947934,0.025158531974537494,-0.02354165591792262, ,1.065596103668213
0.013003769652737609,0.020858270376472695,-0.08857092445634693, ,0.013480830227970102,0.020595723627963716,-0.08921605118123724, ,0.0008442192125043665, ,0.007845333619866276,0.0013911842593204494,-0.022676482560292886,0.023425701457744922,0.024693255157769104,0.0022189825542885174, ,0.024035546895330932, ,0.03403695554602021, ,8.739912246720917e-05, ,0.18904477802814176,-0.22425271720173132,0.09921285144000001,1.6856974556720912,0.44270225924002704,-1.3096925747090356, ,0.04540523519544056,0.04266948811082319,0.023563330650887577,-0.009684187470146143,0.07497917737351412,-0.06405522545445783, ,1.07631516456604
0.013039588831099135,0.020864131030335617,-0.08867483297855637, ,0.013576217782960209,0.02060268732142023,-0.08946172452163254, ,0.0009876850436610534, ,0.007972031896255312,0.0015117762491233806,-0.023475967105395304,0.034006699312036114,0.03593139193521071,0.0074783089520118005, ,0.02483867531725329, ,0.04947234979301449, ,8.906951135148199e-05, ,0.1892455690828716,-0.2240596488798757,0.09932044351000001,1.6854877657286067,0.44297553223955793,-1.309997089256569, ,0.046291191004132086,0.04315458915801309,0.024430692515337426,-0.015033468784979503,0.08877153560999565,-0.07554144295890555, ,1.0875999927520752
0.013173128768841538,0.020891656086593616,-0.08906129028571103, ,0.013671327638848709,0.020609559853043906,-0.08970587815116741, ,0.0008621333512589442, ,0.008756173281492353,0.0017538710015124912,-0.024745527898684963,-0.012346057968080058,-0.013287137221079484,0.006897887663215846, ,0.026307561365699842, ,0.01813736155724275, ,9.038001732519447e-05, ,0.18999467417167137,-0.22337232565406973,0.09972229341000001,1.6854877657286067,0.44406862423768145,-1.3109701112262808, ,0.047212408735557605,0.04307623311778065,0.02565026009661836,-0.01469765998270266,0.03856013493497323,-0.031036510694607094, ,1.0987920761108398
0.01326175676025719,0.02090721806645444,-0.08929936299846271, ,0.013766159879504256,0.02061634169015426,-0.08994851690955066, ,0.000872027736529339, ,0.008926168408055607,0.0013267526145492915,-0.023824362838112276,-0.041159814265410925,-0.04413578415284149,0.004434392301907252, ,0.025476204968385863, ,0.06034973138012234, ,9.168901134372924e-05, ,0.19047348360987332,-0.22293985261311314,0.09996858851000001,1.6854877657286067,0.44420526073744687,-1.3110815291299773, ,0.04785524032197215,0.04499617902250867,0.024581499259259263,-0.013242748125398437,0.006891919617310736,-0.00516333125404447, ,1.109619140625
0.013350205690403875,0.02092048073468861,-0.08953744546576382, ,0.013860714591662143,0.0206230332998911,-0.0901896456286081, ,0.0008800337306862939, ,0.008755790873334264,0.0013001753119595639,-0.022970853497557855,-0.02207216069348457,-0.024654322708938033,0.0043550815590912475, ,0.024617360542220173, ,0.03309092791462888, ,9.29917465856363e-05, ,0.19096001578094945,-0.2224842113735339,0.10021488361000001,1.6854877657286067,0.44447853373697777,-1.3113860436775109, ,0.04864015456610496,0.04325293598836408,0.02380988269058296,-0.01202998913535725,0.019685611632950097,-0.014172380990483418, ,1.1203961372375488
0.013433743161956497,0.020929839663481605,-0.08975762705515576, ,0.013954991864918003,0.020629635149213496,-0.09042926913228774, ,0.0009016241126434936, ,0.008213877144933133,0.0005425752657787873,-0.021471971830656845,0.0229928656763386,0.024773441846510414,0.002586452154968698, ,0.022995820054253574, ,0.03379927112801948, ,9.456013165587959e-05, ,0.1914774388835225,-0.22202857013395466,0.10044432694000001,1.6854877657286067,0.4452983527355704,-1.311972872359549, ,0.051240249221636495,0.04778295143931056,0.022309259831932778,-0.011032566172486089,0.08136659967378766,-0.06863632889739761, ,1.1301870346069336
0.013521072988236444,0.020934289113316403,-0.08997799764817645, ,0.014048991791721217,0.020636147704897894,-0.09066739223666576, ,0.0009180694206457969, ,0.0081775250323666,0.000424495951960549,-0.020048621856856796,-0.009193128263057767,-0.013419412361512525,0.0068945902568214555, ,0.02165639283970092, ,0.016266253296388634, ,9.614610422007498e-05, ,0.192010307451844,-0.2215420379628785,0.10067247398000001,1.6850683858416375,0.4458448987346322,-1.3124185439743346, ,0.05002474515470257,0.044889754758027804,0.02076768125162973,-0.015876652028072896,0.04157775218175623,-0.036191191721979085, ,1.1392080783843994
0.013609397426574998,0.020937437907850114,-0.09018788822359672, ,0.01414271446736844,0.02064257143353688,-0.09090401974995162, ,0.0009403284887282684, ,0.009116410310785115,0.0001407526179148076,-0.021502664533747485,-0.04502930039356645,-0.05059037774650432,0.00394769885264324, ,0.02335579864412521, ,0.06772753958034185, ,9.776369770907757e-05, ,0.19253545328729124,-0.22106322852467658,0.10088895441000001,1.6848586958981533,0.4459815352343976,-1.312529961878031, ,0.05370511689783292,0.051074780171405154,0.022123349333333337,-0.014815453614792416,0.006609090610114851,-0.0076765929575913746, ,1.1475319862365723
0.013700330135180731,0.020942776358577074,-0.09041948464941928, ,0.014236159989997488,0.020648906801538695,-0.09113915647249426, ,0.0009441400758335373, ,0.009438223817073987,0.000947579335342906,-0.02452480134801076,-0.0017502207729811646,-0.0048692877744154275,0.004214932165546721, ,0.026295320050863463, ,0.00517342865636793, ,9.936677402116206e-05, ,0.19307604458848696,-0.22054580542210356,0.10112876806000001,1.6848586958981533,0.4465280812334594,-1.3130573122329572, ,0.05485372344420276,0.049998388597719066,0.025445385814696485,-0.014068252385878418,0.055015935222377535,-0.04779396425174281, ,1.1560990810394287
0.013700330135180731,0.020942776358577074,-0.09041948464941928, ,0.014329328460580312,0.02065515427512409,-0.09137280719678567, ,0.0011777899793946564, ,0.009438223817073987,0.000947579335342906,-0.02452480134801076,-0.0017502207729811646,-0.0048692877744154275,0.004214932165546721, ,0.026295320050863463, ,0.00517342865636793, ,0.00010151760447918448, ,0.19367841775267647,-0.22000521412090784,0.10142043331000002,1.6848586958981533,0.44748453673181743,-1.3141639525193944, ,0.059236542795549796,0.051630544917557544,0.028856542608695655,-0.012384054213790562,0.08196832508876763,-0.07934246701588922, ,1.1641521453857422
0.01380335908150431,0.02095708367016493,-0.09069933152786878, ,0.01442221998291718,0.02066131432032702,-0.09160497670746888, ,0.0011360728475471892, ,0.010278357122176623,0.0015221122716754453,-0.027693112414984462,0.029270136136833592,0.017080871721459508,0.00021532906948543712, ,0.029578200184046874, ,0.033889242549342564, ,0.00010353585698915931, ,0.19367841775267647,-0.22000521412090784,0.10142043331000002,1.6848586958981533,0.44748453673181743,-1.3141639525193944, ,0.059236542795549796,0.051630544917557544,0.028856542608695655,-0.012384054213790562,0.08196832508876763,-0.07934246701588922, ,1.1727211475372314
0.013876841482371265,0.020969878792435063,-0.09089597031196471, ,0.01451483466362999,0.020667387402992378,-0.0918356697813417, ,0.0011754026683511397, ,0.011168872348377436,0.0020926702488522145,-0.030104721735656634,0.007584789387367032,-0.023859379138890805,-0.005065844647683167, ,0.032177900010505626, ,0.025035460368239216, ,0.00010561970059731271, ,0.19408772259501036,-0.21965769114156772,0.10162524713000001,1.6848586958981533,0.4478944462311138,-1.3146615637107648, ,0.05968361104306338,0.05099244575952218,0.03129432518664047,-0.011506177956365866,0.03988301654339,-0.05909338745274428, ,1.181030035018921
0.013974216867019667,0.020987651508430138,-0.09115732192155288, ,0.01460717261215575,0.02067337398877445,-0.09206489118736193, ,0.0011502544531115221, ,0.011446473066961735,0.002018523181377547,-0.031142177782890215,-0.025938955414654335,-0.04379093568581814,-0.003757633241594606, ,0.03324050869898925, ,0.05089642585212889, ,0.00010761346938037393, ,0.19458970023183497,-0.21920977263486272,0.10189617174000001,1.6848586958981533,0.44803108273087927,-1.3150996965750235, ,0.058112027898634885,0.05376597255437438,0.03224455773279353,-0.010576732911178027,0.017314835105427525,-0.028610619830062897, ,1.189244031906128
0.013974216867019667,0.020987651508430138,-0.09115732192155288, ,0.014699233940740198,0.020679274543135784,-0.09229264568665424, ,0.001381921184986458, ,0.011446473066961735,0.002018523181377547,-0.031142177782890215,-0.025938955414654335,-0.04379093568581814,-0.003757633241594606, ,0.03324050869898925, ,0.05089642585212889, ,0.00011039131282376847, ,0.19458970023183497,-0.21920977263486272,0.10189617174000001,1.6848586958981533,0.44803108273087927,-1.3150996965750235, ,0.058112027898634885,0.05376597255437438,0.03224455773279353,-0.010576732911178027,0.017314835105427525,-0.028610619830062897, ,1.194654941558838
0.014156443256545574,0.021015331438899686,-0.0916417548249202, ,0.014791018764431407,0.02068508953134605,-0.092518938032514, ,0.0011318993649604126, ,0.01174357865270165,0.001615436193031543,-0.030908407864072257,0.005995193153963799,-0.017252557682570484,0.001943167963757557, ,0.03310363953340765, ,0.018263758617470604, ,0.00011255035722972316, ,0.1955704873068615,-0.21834482655294957,0.10239913226000001,1.6844393160111841,0.4487142652297064,-1.3158201435737866, ,0.06424979117025781,0.056926779579166635,0.03211453935483872,-0.018254607862263524,0.05291001746185057,-0.0638803364640163, ,1.2009861469268799
0.014279079886543734,0.021033681155402134,-0.09197209940004049, ,0.014882527201073447,0.02069081941848079,-0.09274377297041325, ,0.0010378742367308726, ,0.012339497110767109,0.0018476830669589975,-0.032774832630532685,0.022255051203287895,-0.007401131801817355,-0.004226100637316777, ,0.03506945644890988, ,0.023452638181516224, ,0.00011446727591432558, ,0.19623464233404478,-0.21775017612163428,0.10274264911000001,1.6842296260676997,0.4493974477285336,-1.3167856267929716, ,0.06720746569296797,0.05883257381182317,0.03410880411134904,-0.013966127974536589,0.0652342995347344,-0.08095966435903028, ,1.2065069675445557
0.014279079886543734,0.021033681155402134,-0.09197209940004049, ,0.014973759371299782,0.0206964646694199,-0.0929671552380068, ,0.0012595358929502495, ,0.012339497110767109,0.0018476830669589975,-0.032774832630532685,0.022255051203287895,-0.007401131801817355,-0.004226100637316777, ,0.03506945644890988, ,0.023452638181516224, ,0.00011688652788878942, ,0.19623464233404478,-0.21775017612163428,0.10274264911000001,1.6842296260676997,0.4493974477285336,-1.3167856267929716, ,0.06720746569296797,0.05883257381182317,0.03410880411134904,-0.013966127974536589,0.0652342995347344,-0.08095966435903028, ,1.2143981456756592
0.014340964855141589,0.021043922139359458,-0.0921324576392869, ,0.015064715398526945,0.02070202574884617,-0.09318908956513582, ,0.0013255862920307363, ,0.01304000323702792,0.002369962573001967,-0.03349316813154355,0.023694335839342117,-0.017224689445445675,-0.005060285448574833, ,0.03602014323273817, ,0.02929282043358504, ,0.0001194374933940538, ,0.19657444258051068,-0.2174721577381622,0.10290987052000002,1.6842296260676997,0.4496707207280645,-1.3170084626003644, ,0.07238515755794873,0.05514058196308587,0.03500837696703297,-0.013016000752578586,0.060218803012019095,-0.07887095869397931, ,1.2205710411071777
0.014537514902667099,0.02107516582605722,-0.09264061733201993, ,0.01515539540894811,0.02070750312124454,-0.09340958067383512, ,0.0010527377667813719, ,0.013400771331343387,0.0017855628557841628,-0.0343737805707086,0.0012194736276840673,-0.01862966488324218,-0.004835831436479811, ,0.03693677974201507, ,0.01866824954742629, ,0.00012133019753357303, ,0.1976556251829021,-0.21658404345762639,0.10344005313000001,1.6842296260676997,0.45062717622642257,-1.3181151028868017, ,0.07339283956571599,0.06263824525311602,0.03579508206741574,-0.010725787430844501,0.05919431963616866,-0.06281832855963829, ,1.2260751724243164
0.014537514902667099,0.02107516582605722,-0.09264061733201993, ,0.015245799531526716,0.020712897250900385,-0.0936286332783371, ,0.001268495623249046, ,0.013400771331343387,0.0017855628557841628,-0.0343737805707086,0.0012194736276840673,-0.01862966488324218,-0.004835831436479811, ,0.03693677974201507, ,0.01866824954742629, ,0.00012370481611732742, ,0.1976556251829021,-0.21658404345762639,0.10344005313000001,1.6842296260676997,0.45062717622642257,-1.3181151028868017, ,0.07339283956571599,0.06263824525311602,0.03579508206741574,-0.010725787430844501,0.05919431963616866,-0.06281832855963829, ,1.231511116027832
0.014676035983720229,0.021090984066036628,-0.09300047933610486, ,0.015335927897989881,0.02071820860189821,-0.09384625208507794, ,0.0011356717959373416, ,0.013753578362561287,0.0016856369899781298,-0.0360277899460981,0.043568285211567546,0.016213750961399598,-0.01806051332316455, ,0.03860056914395517, ,0.04648677765339298, ,0.00012575150313046726, ,0.19842017573745033,-0.2159044429646946,0.10381468094000001,1.684019936124215,0.45144699522501525,-1.3188652890491208, ,0.07616126930856403,0.06763858984923077,0.03756795169811321,-0.001337081621803899,0.09612095582309277,-0.10729955937334928, ,1.2371470928192139
0.014676035983720229,0.021090984066036628,-0.09300047933610486, ,0.015425780642822223,0.020723437638120727,-0.09406244179270219, ,0.0013509151304756108, ,0.013753578362561287,0.0016856369899781298,-0.0360277899460981,0.043568285211567546,0.016213750961399598,-0.01806051332316455, ,0.03860056914395517, ,0.04648677765339298, ,0.0001282730905713266, ,0.19842017573745033,-0.2159044429646946,0.10381468094000001,1.684019936124215,0.45144699522501525,-1.3188652890491208, ,0.07616126930856403,0.06763858984923077,0.03756795169811321,-0.001337081621803899,0.09612095582309277,-0.10729955937334928, ,1.2427170276641846
0.014811196328011138,0.021109348999405895,-0.09336720607419324, ,0.015515357903259138,0.020728584823247163,-0.09427720709206847, ,0.0012119928772214483, ,0.014018912747741948,0.0023576800614405103,-0.03840218295376046,0.0366542689866175,0.031616982317659505,0.003629496830681692, ,0.04094894657393528, ,0.04840542828980332, ,0.00013045447572219144, ,0.19915383536050166,-0.21524801067038554,0.10419708649000001,1.6836005562372458,0.45254008722313877,-1.3200016684991138, ,0.0749580896986341,0.06513173751439313,0.04012295093198993,-0.01714205349860536,0.11412670064737,-0.09951921907137229, ,1.2488939762115479
0.014963184861618297,0.021132152985806885,-0.09376878700495372, ,0.01560465981928075,0.020733650620752227,-0.09449055266625521, ,0.00104462429901672, ,0.014018912747741948,0.0023576800614405103,-0.03840218295376046,0.0366542689866175,0.031616982317659505,0.003629496830681692, ,0.04094894657393528, ,0.04840542828980332, ,0.00013223564696667402, ,0.199956999579421,-0.2145452419788311,0.10461578816000001,1.6836005562372458,0.4533599062217314,-1.3207518546614327, ,0.08259089778805116,0.07216497456917931,0.04148128,-0.015207310510026365,0.0598261058935215,-0.06250581920952844, ,1.2565209865570068
0.014963184861618297,0.021132152985806885,-0.09376878700495372, ,0.015693686533605037,0.020738635493904475,-0.09470248319056454, ,0.0012491105940759509, ,0.015568542214588081,0.0019293851851596444,-0.03985210710055614,-0.009289630671917069,-0.02809723741150426,-0.002475081598331732, ,0.04282864081703179, ,0.029591408673152957, ,0.00013446333769097856, ,0.199956999579421,-0.2145452419788311,0.10461578816000001,1.6836005562372458,0.4533599062217314,-1.3207518546614327, ,0.08259089778805116,0.07216497456917931,0.04148128,-0.015207310510026365,0.0598261058935215,-0.06250581920952844, ,1.2621550559997559
0.014963184861618297,0.021132152985806885,-0.09376878700495372, ,0.01578243819168205,0.02074353990576612,-0.09491300333252962, ,0.0014599408032829968, ,0.015568542214588081,0.0019293851851596444,-0.03985210710055614,-0.009289630671917069,-0.02809723741150426,-0.002475081598331732, ,0.04282864081703179, ,0.029591408673152957, ,0.00013745538614603955, ,0.199956999579421,-0.2145452419788311,0.10461578816000001,1.6836005562372458,0.4533599062217314,-1.3207518546614327, ,0.08259089778805116,0.07216497456917931,0.04148128,-0.015207310510026365,0.0598261058935215,-0.06250581920952844, ,1.2649459838867188
0.01512507603964432,0.021149751751525427,-0.09416382023482414, ,0.01587091494168675,0.02074836431919011,-0.09512211775191826, ,0.0012789533493858714, ,0.01570718686009443,0.001279260736533169,-0.03707171555176959,-0.06062076132088093,-0.08678918322458243,-0.005277888608899522, ,0.04028230779189884, ,0.1058639174096335, ,0.00014002632750468783, ,0.20082194566133416,-0.21381158235577977,0.10502671209000002,1.6836005562372458,0.45363317922126234,-1.3208930117286852, ,0.08397959429953167,0.07172860284086982,0.03847539014492755,-0.012890651955708184,0.0,-0.012622028085291994, ,1.2677221298217773
0.01512507603964432,0.021149751751525427,-0.09416382023482414, ,0.015959116934513184,0.02075310919682048,-0.09532983110073863, ,0.0014874578548473827, ,0.01570718686009443,0.001279260736533169,-0.03707171555176959,-0.06062076132088093,-0.08678918322458243,-0.005277888608899522, ,0.04028230779189884, ,0.1058639174096335, ,0.00014305426352118826, ,0.20082194566133416,-0.21381158235577977,0.10502671209000002,1.6836005562372458,0.45363317922126234,-1.3208930117286852, ,0.08397959429953167,0.07172860284086982,0.03847539014492755,-0.012890651955708184,0.0,-0.012622028085291994, ,1.2704639434814453
0.01512507603964432,0.021149751751525427,-0.09416382023482414, ,0.01604704432376763,0.02075777500108947,-0.09553614802324469, ,0.0016991041312064523, ,0.01570718686009443,0.001279260736533169,-0.03707171555176959,-0.06062076132088093,-0.08678918322458243,-0.005277888608899522, ,0.04028230779189884, ,0.1058639174096335, ,0.0001465431645698099, ,0.20082194566133416,-0.21381158235577977,0.10502671209000002,1.6836005562372458,0.45363317922126234,-1.3208930117286852, ,0.08397959429953167,0.07172860284086982,0.03847539014492755,-0.012890651955708184,0.0,-0.012622028085291994, ,1.2731940746307373
0.015281518631319319,0.02116144174893228,-0.09455076659179862, ,0.016134697265762603,0.020762362194218006,-0.09574107315594196, ,0.001517895908784323, ,0.01570718686009443,0.001279260736533169,-0.03707171555176959,-0.06062076132088093,-0.08678918322458243,-0.005277888608899522, ,0.04028230779189884, ,0.1058639174096335, ,0.0008155627720356042, ,0.2016868917432473,-0.21303930906835733,0.10542985828000001,1.6836005562372458,0.4544529982198549,-1.3216431978910044, ,0.09423728059431061,0.08412849428942444,0.04551089005714286,-0.011257089932864336,0.14955412310304242,-0.13432088487210583, ,1.2759790420532227
0.015281518631319319,0.02116144174893228,-0.09455076659179862, ,0.01622207591951031,0.020766871238213566,-0.09594461112759192, ,0.0017271758712588796, ,0.016861459906219053,0.0015364333435217163,-0.043537498765758284,0.05518171098628687,0.04781520991838595,-0.007170305210153734, ,0.04671384437580065, ,0.07301478684400134, ,0.0008265460623876919, ,0.2016868917432473,-0.21303930906835733,0.10542985828000001,1.6836005562372458,0.4544529982198549,-1.3216431978910044, ,0.09423728059431061,0.08412849428942444,0.04551089005714286,-0.011257089932864336,0.14955412310304242,-0.13432088487210583, ,1.2789201736450195
0.015281518631319319,0.02116144174893228,-0.09455076659179862, ,0.016309180446715806,0.02077130259486821,-0.09614676655921721, ,0.0019379146684923912, ,0.016861459906219053,0.0015364333435217163,-0.043537498765758284,0.05518171098628687,0.04781520991838595,-0.007170305210153734, ,0.04671384437580065, ,0.07301478684400134, ,0.0008397766410317953, ,0.2016868917432473,-0.21303930906835733,0.10542985828000001,1.6836005562372458,0.4544529982198549,-1.3216431978910044, ,0.09423728059431061,0.08412849428942444,0.04551089005714286,-0.011257089932864336,0.14955412310304242,-0.13432088487210583, ,1.2816720008850098
0.015281518631319319,0.02116144174893228,-0.09455076659179862, ,0.016396011011771006,0.02077565672575834,-0.0963475440641078, ,0.0021492632773087487, ,0.016861459906219053,0.0015364333435217163,-0.043537498765758284,0.05518171098628687,0.04781520991838595,-0.007170305210153734, ,0.04671384437580065, ,0.07301478684400134, ,0.0008551823661644653, ,0.2016868917432473,-0.21303930906835733,0.10542985828000001,1.6836005562372458,0.4544529982198549,-1.3216431978910044, ,0.09423728059431061,0.08412849428942444,0.04551089005714286,-0.011257089932864336,0.14955412310304242,-0.13432088487210583, ,1.28444504737854
0.01546294375271964,0.021186997845295145,-0.09504179162268488, ,0.01648256778174865,0.02077993409224383,-0.09654694824782573, ,0.0018630165124944443, ,0.02021492057316691,0.004235902922659509,-0.05748531121878924,0.10701329240313394,0.10002338060731551,0.0021992986690880373, ,0.0610831146330203, ,0.14647830444260318, ,0.0008669013678659767, ,0.20267540155114802,-0.21218980845219262,0.10594448541000001,1.683181176350277,0.4563659092165711,-1.323448084763176, ,0.10382597544690457,0.08730169416602647,0.06033640727272729,-0.02130947659730896,0.21555903313875108,-0.18878124818137815, ,1.2872130870819092
0.01546294375271964,0.021186997845295145,-0.09504179162268488, ,0.016568850926394835,0.020784135155465528,-0.09674498370820997, ,0.0020703121271533746, ,0.02021492057316691,0.004235902922659509,-0.05748531121878924,0.10701329240313394,0.10002338060731551,0.0021992986690880373, ,0.0610831146330203, ,0.14647830444260318, ,0.0008807336754439928, ,0.20267540155114802,-0.21218980845219262,0.10594448541000001,1.683181176350277,0.4563659092165711,-1.323448084763176, ,0.10382597544690457,0.08730169416602647,0.06033640727272729,-0.02130947659730896,0.21555903313875108,-0.18878124818137815, ,1.2900660037994385
0.01546294375271964,0.021186997845295145,-0.09504179162268488, ,0.016654860618123435,0.020788260376344455,-0.0969416550353822, ,0.0022779680353519293, ,0.02021492057316691,0.004235902922659509,-0.05748531121878924,0.10701329240313394,0.10002338060731551,0.0021992986690880373, ,0.0610831146330203, ,0.14647830444260318, ,0.0008966113386247649, ,0.20267540155114802,-0.21218980845219262,0.10594448541000001,1.683181176350277,0.4563659092165711,-1.323448084763176, ,0.10382597544690457,0.08730169416602647,0.06033640727272729,-0.02130947659730896,0.21555903313875108,-0.18878124818137815, ,1.2928831577301025
0.01546294375271964,0.021186997845295145,-0.09504179162268488, ,0.016740597032009523,0.0207923102155813,-0.0971369668117523, ,0.0024855452721712834, ,0.02021492057316691,0.004235902922659509,-0.05748531121878924,0.10701329240313394,0.10002338060731551,0.0021992986690880373, ,0.0610831146330203, ,0.14647830444260318, ,0.0009144645288893324, ,0.20267540155114802,-0.21218980845219262,0.10594448541000001,1.683181176350277,0.4563659092165711,-1.323448084763176, ,0.10382597544690457,0.08730169416602647,0.06033640727272729,-0.02130947659730896,0.21555903313875108,-0.18878124818137815, ,1.2957210540771484
0.0,0.021254121038825104,-0.09585498923462367, ,0.016826060345782514,0.02079628513365368,-0.09733092361202221, ,0.0026927436814388897, ,0.024824493077821416,0.006416030177564961,-0.07134043804239071,0.060045873426039474,0.04116382423476926,0.035519196032755815, ,0.07580817238194319, ,0.07278818200405612, ,0.0009342231861398831, ,0.20407321620138266,-0.21105456671968162,0.10679744423000001,1.6825521065198237,0.45882536621234904,-1.3254536070297114, ,0.11643796510241813,0.09303621721418705,0.07478315267605636,-0.05841391744680715,0.17558704532688021,-0.15651544085692173, ,1.298910140991211
0.015747905466124926,0.021254121038825104,-0.09585498923462367, ,0.01691125073982078,0.02080018559081719,-0.09752353000319304, ,0.0020840964260721464, ,0.024824493077821416,0.006416030177564961,-0.07134043804239071,0.060045873426039474,0.04116382423476926,0.035519196032755815, ,0.07580817238194319, ,0.07278818200405612, ,0.0009468591558094683, ,0.20407321620138266,-0.21105456671968162,0.10679744423000001,1.6825521065198237,0.45882536621234904,-1.3254536070297114, ,0.11643796510241813,0.09303621721418705,0.07478315267605636,-0.05841391744680715,0.17558704532688021,-0.15651544085692173, ,1.3017280101776123
0.015747905466124926,0.021254121038825104,-0.09585498923462367, ,0.01699616839714385,0.02080401204710156,-0.09771479054456879, ,0.0022846486298465953, ,0.024824493077821416,0.006416030177564961,-0.07134043804239071,0.060045873426039474,0.04116382423476926,0.035519196032755815, ,0.07580817238194319, ,0.07278818200405612, ,0.0009614003457446544, ,0.20407321620138266,-0.21105456671968162,0.10679744423000001,1.6825521065198237,0.45882536621234904,-1.3254536070297114, ,0.11643796510241813,0.09303621721418705,0.07478315267605636,-0.05841391744680715,0.17558704532688021,-0.15651544085692173, ,1.3045661449432373
0.015747905466124926,0.021254121038825104,-0.09585498923462367, ,0.017080813503407247,0.020807764962311504,-0.09790470978776282, ,0.0024854037758186265, ,0.024824493077821416,0.006416030177564961,-0.07134043804239071,0.060045873426039474,0.04116382423476926,0.035519196032755815, ,0.07580817238194319, ,0.07278818200405612, ,0.0009777874794013638, ,0.20407321620138266,-0.21105456671968162,0.10679744423000001,1.6825521065198237,0.45882536621234904,-1.3254536070297114, ,0.11643796510241813,0.09303621721418705,0.07478315267605636,-0.05841391744680715,0.17558704532688021,-0.15651544085692173, ,1.3072869777679443
0.016008825577359404,0.021326030075665633,-0.09660585234112923, ,0.01716518624689501,0.020811444796023558,-0.09809329227670124, ,0.0019530605648590703, ,0.027653630535346318,0.007733991509032458,-0.080061411337524,0.009219995821611267,0.005178882643543735,0.033512107800832254, ,0.0850550850437729, ,0.010418241311279478, ,0.0009881627249913394, ,0.20525479433113902,-0.21011239330902623,0.10758429226,1.6823424165763388,0.46032836770976887,-1.3268425614506532, ,0.12197550328852286,0.09763059831118392,0.08383585010526318,-0.05243145224908574,0.14262879351799876,-0.10963310697675477, ,1.309999942779541
0.016008825577359404,0.021326030075665633,-0.09660585234112923, ,0.017249286818514245,0.02081505200758727,-0.09828054254763076, ,0.00214579355125712, ,0.027653630535346318,0.007733991509032458,-0.080061411337524,0.009219995821611267,0.005178882643543735,0.033512107800832254, ,0.0850550850437729, ,0.010418241311279478, ,0.0010003483126362423, ,0.20525479433113902,-0.21011239330902623,0.10758429226,1.6823424165763388,0.46032836770976887,-1.3268425614506532, ,0.12197550328852286,0.09763059831118392,0.08383585010526318,-0.05243145224908574,0.14262879351799876,-0.10963310697675477, ,1.312757968902588
0.016008825577359404,0.021326030075665633,-0.09660585234112923, ,0.017333115411788294,0.020818587056122103,-0.09846646512912127, ,0.0023394704380467557, ,0.027653630535346318,0.007733991509032458,-0.080061411337524,0.009219995821611267,0.005178882643543735,0.033512107800832254, ,0.0850550850437729, ,0.010418241311279478, ,0.001014297501442602, ,0.20525479433113902,-0.21011239330902623,0.10758429226,1.6823424165763388,0.46032836770976887,-1.3268425614506532, ,0.12197550328852286,0.09763059831118392,0.08383585010526318,-0.05243145224908574,0.14262879351799876,-0.10963310697675477, ,1.3154771327972412
0.016008825577359404,0.021326030075665633,-0.09660585234112923, ,0.017416672222849722,0.020822050400515952,-0.09865106454207254, ,0.0025335588876261965, ,0.027653630535346318,0.007733991509032458,-0.080061411337524,0.009219995821611267,0.005178882643543735,0.033512107800832254, ,0.0850550850437729, ,0.010418241311279478, ,0.0010299599899599586, ,0.20649815432388915,-0.2090929925696286,0.10843725108,1.6823424165763388,0.4618313692071887,-1.3280681583913139, ,0.1303529417011961,0.10567588146823026,0.08752094241758242,-0.035537689891453936,0.1442229934906759,-0.11196915298446922, ,1.318235158920288
0.016291262323935535,0.02140340468746734,-0.09742014702554583, ,0.017499957450434925,0.020825442499425608,-0.09883434529971914, ,0.001948060819970502, ,0.02944166090376483,0.007604514641928174,-0.08357114673371098,0.0070360060585548355,0.0019163956942926058,0.015158313084302362, ,0.08893130273474592, ,0.007007246723738915, ,0.0010393283657763926, ,0.20649815432388915,-0.2090929925696286,0.10843725108,1.6823424165763388,0.4618313692071887,-1.3280681583913139, ,0.1303529417011961,0.10567588146823026,0.08752094241758242,-0.035537689891453936,0.1442229934906759,-0.11196915298446922, ,1.3214051723480225
0.016291262323935535,0.02140340468746734,-0.09742014702554583, ,0.017582971295877402,0.02082876381127478,-0.09901631190763595, ,0.0021322444830751083, ,0.02944166090376483,0.007604514641928174,-0.08357114673371098,0.0070360060585548355,0.0019163956942926058,0.015158313084302362, ,0.08893130273474592, ,0.007007246723738915, ,0.0010503679225167839, ,0.20649815432388915,-0.2090929925696286,0.10843725108,1.6823424165763388,0.4618313692071887,-1.3280681583913139, ,0.1303529417011961,0.10567588146823026,0.08752094241758242,-0.035537689891453936,0.1442229934906759,-0.11196915298446922, ,1.3241291046142578
0.016291262323935535,0.02140340468746734,-0.09742014702554583, ,0.017665713963100668,0.020832014794251758,-0.0991969688637424, ,0.002317908445811624, ,0.02944166090376483,0.007604514641928174,-0.08357114673371098,0.0070360060585548355,0.0019163956942926058,0.015158313084302362, ,0.08893130273474592, ,0.007007246723738915, ,0.0010630433277497324, ,0.20649815432388915,-0.2090929925696286,0.10843725108,1.6823424165763388,0.4618313692071887,-1.3280681583913139, ,0.1303529417011961,0.10567588146823026,0.08752094241758242,-0.035537689891453936,0.1442229934906759,-0.11196915298446922, ,1.326894998550415
0.016291262323935535,0.02140340468746734,-0.09742014702554583, ,0.017748185658613004,0.02083519590631037,-0.09937632065830887, ,0.0025044165195967226, ,0.02944166090376483,0.007604514641928174,-0.08357114673371098,0.0070360060585548355,0.0019163956942926058,0.015158313084302362, ,0.08893130273474592, ,0.007007246723738915, ,0.0010773143494511876, ,0.20649815432388915,-0.2090929925696286,0.10843725108,1.6823424165763388,0.4618313692071887,-1.3280681583913139, ,0.1303529417011961,0.10567588146823026,0.08752094241758242,-0.035537689891453936,0.1442229934906759,-0.11196915298446922, ,1.3304321765899658
0.016695448889445384,0.02148975657581171,-0.09851499668247587, ,0.017830386591499645,0.020838307605166122,-0.09955437177396097, ,0.0016711582599200608, ,0.029676722842510647,0.004486552004716124,-0.07559270507854328,-0.003401154446809297,-0.01375937791714721,0.0014157243233061875, ,0.08133322868701229, ,0.014086164267279553, ,0.0010831363485734316, ,0.2083670556794515,-0.20757161419340636,0.10958446773000001,1.6823424165763388,0.4637442802039049,-1.3296280090430639, ,0.14577103157983223,0.11773814089140294,0.07924781850746268,-0.024631038485110824,0.1415709871407048,-0.11132024780714317, ,1.3333091735839844
0.016695448889445384,0.02148975657581171,-0.09851499668247587, ,0.017912316973417615,0.020841350348297406,-0.0997311266856849, ,0.001838524069566337, ,0.029676722842510647,0.004486552004716124,-0.07559270507854328,-0.003401154446809297,-0.01375937791714721,0.0014157243233061875, ,0.08133322868701229, ,0.014086164267279553, ,0.0010904702099422945, ,0.2083670556794515,-0.20757161419340636,0.10958446773000001,1.6823424165763388,0.4637442802039049,-1.3296280090430639, ,0.14577103157983223,0.11773814089140294,0.07924781850746268,-0.024631038485110824,0.1415709871407048,-0.11132024780714317, ,1.3362960815429688
0.016695448889445384,0.02148975657581171,-0.09851499668247587, ,0.017993977018588566,0.0208443245929428,-0.09990658986083312, ,0.002009798328374416, ,0.029676722842510647,0.004486552004716124,-0.07559270507854328,-0.003401154446809297,-0.01375937791714721,0.0014157243233061875, ,0.08133322868701229, ,0.014086164267279553, ,0.0010993099033887574, ,0.2083670556794515,-0.20757161419340636,0.10958446773000001,1.6823424165763388,0.4637442802039049,-1.3296280090430639, ,0.14577103157983223,0.11773814089140294,0.07924781850746268,-0.024631038485110824,0.1415709871407048,-0.11132024780714317, ,1.339163064956665
0.016695448889445384,0.02148975657581171,-0.09851499668247587, ,0.018075366943793112,0.02084723079610116,-0.10008076575912948, ,0.0021837229713752996, ,0.028523880645949934,0.0015284817207102874,-0.0627817561678831,-0.008272085258323528,-0.03113291114682469,-0.010878891372190941, ,0.06897461077090955, ,0.03219798418690969, ,0.001109637646893391, ,0.20987298858992529,-0.2064132042622727,0.11030650126000001,1.6819230366893698,0.46511064520155926,-1.330742188080028, ,0.15816156926411795,0.11906768075090436,0.06609465360995852,-0.012637165514557553,0.13380467882238992,-0.10568061227821435, ,1.3422870635986328
0.016984086622738474,0.021520477672871022,-0.09920232615001583, ,0.01815648696836314,0.020850069414528268,-0.1002536588326736, ,0.001711511090498511, ,0.028523880645949934,0.0015284817207102874,-0.0627817561678831,-0.008272085258323528,-0.03113291114682469,-0.010878891372190941, ,0.06897461077090955, ,0.03219798418690969, ,0.0011153156982481563, ,0.20987298858992529,-0.2064132042622727,0.11030650126000001,1.6819230366893698,0.46511064520155926,-1.330742188080028, ,0.15816156926411795,0.11906768075090436,0.06609465360995852,-0.012637165514557553,0.13380467882238992,-0.10568061227821435, ,1.3454310894012451
0.016984086622738474,0.021520477672871022,-0.09920232615001583, ,0.018237337314176594,0.020852840904737695,-0.10042527352594681, ,0.001874026796513357, ,0.028523880645949934,0.0015284817207102874,-0.0627817561678831,-0.008272085258323528,-0.03113291114682469,-0.010878891372190941, ,0.06897461077090955, ,0.03219798418690969, ,0.0011224064561758684, ,0.20987298858992529,-0.2064132042622727,0.11030650126000001,1.6819230366893698,0.46511064520155926,-1.330742188080028, ,0.15816156926411795,0.11906768075090436,0.06609465360995852,-0.012637165514557553,0.13380467882238992,-0.10568061227821435, ,1.3481860160827637
0.016984086622738474,0.021520477672871022,-0.09920232615001583, ,0.018317918205650464,0.020855545722998574,-0.10059561427581747, ,0.002040218858611626, ,0.028523880645949934,0.0015284817207102874,-0.0627817561678831,-0.008272085258323528,-0.03113291114682469,-0.010878891372190941, ,0.06897461077090955, ,0.03219798418690969, ,0.0011309047191613848, ,0.20987298858992529,-0.2064132042622727,0.11030650126000001,1.6819230366893698,0.46511064520155926,-1.330742188080028, ,0.15816156926411795,0.11906768075090436,0.06609465360995852,-0.012637165514557553,0.13380467882238992,-0.10568061227821435, ,1.3510019779205322
0.01726397703421235,0.021516339824537673,-0.09978078742412652, ,0.01839822986973458,0.02085818432533461,-0.10076468551154535, ,0.0016394369772723477, ,0.02826484293675153,-0.0014936437284738186,-0.054903307306818805,-0.017021905679627154,-0.042146705398966276,0.04007962515150089, ,0.06176977797478169, ,0.04544877526450393, ,0.0011355701527220358, ,0.21151020795926087,-0.2051621215366483,0.11091575756000001,1.6812939668589162,0.46661364669897915,-1.3319677850206886, ,0.17129411833658983,0.1287611147333389,0.05792295098181819,-0.06838825597318567,0.14761758374420386,-0.11744995769802759, ,1.3537261486053467
0.01726397703421235,0.021516339824537673,-0.09978078742412652, ,0.018478272535905213,0.020860757167523312,-0.10093249165478797, ,0.0017974217147161136, ,0.02826484293675153,-0.0014936437284738186,-0.054903307306818805,-0.017021905679627154,-0.042146705398966276,0.04007962515150089, ,0.06176977797478169, ,0.04544877526450393, ,0.0011415869851038004, ,0.21151020795926087,-0.2051621215366483,0.11091575756000001,1.6812939668589162,0.46661364669897915,-1.3319677850206886, ,0.17129411833658983,0.1287611147333389,0.05792295098181819,-0.06838825597318567,0.14761758374420386,-0.11744995769802759, ,1.356456995010376
0.01726397703421235,0.021516339824537673,-0.09978078742412652, ,0.018558046436158136,0.02086326470509309,-0.10109903711960402, ,0.0019593123764005582, ,0.02826484293675153,-0.0014936437284738186,-0.054903307306818805,-0.017021905679627154,-0.042146705398966276,0.04007962515150089, ,0.06176977797478169, ,0.04544877526450393, ,0.0011489538805208883, ,0.21151020795926087,-0.2051621215366483,0.11091575756000001,1.6812939668589162,0.46661364669897915,-1.3319677850206886, ,0.17129411833658983,0.1287611147333389,0.05792295098181819,-0.06838825597318567,0.14761758374420386,-0.11744995769802759, ,1.3591630458831787
0.01755516298672824,0.021494779652358628,-0.10032286850691152, ,0.018637551805003236,0.020865707393324863,-0.10126432631246098, ,0.0015664099912355573, ,0.02826484293675153,-0.0014936437284738186,-0.054903307306818805,-0.017021905679627154,-0.042146705398966276,0.04007962515150089, ,0.06176977797478169, ,0.04544877526450393, ,0.0011526811672236978, ,0.21151020795926087,-0.2051621215366483,0.11091575756000001,1.6812939668589162,0.46661364669897915,-1.3319677850206886, ,0.17129411833658983,0.1287611147333389,0.05792295098181819,-0.06838825597318567,0.14761758374420386,-0.11744995769802759, ,1.3623461723327637
0.01755516298672824,0.021494779652358628,-0.10032286850691152, ,0.018716788879457186,0.020868085687248447,-0.10142836363223795, ,0.0017216966959032983, ,0.027865115278210912,-0.0029237137019678403,-0.050937540636021884,-0.01425576963686143,-0.03706007476759255,0.030691574945514007, ,0.058134721099575584, ,0.03970306275402388, ,0.0011577167028757297, ,0.2133096047189552,-0.20381064328365903,0.11148871774,1.6810842769154317,0.468116648196399,-1.3331933819613493, ,0.1741228285476528,0.133469678703897,0.05381355243243244,-0.06008207673290145,0.15392381566564042,-0.12299090389494627, ,1.3653161525726318
0.01755516298672824,0.021494779652358628,-0.10032286850691152, ,0.018795757899036997,0.020870400041641753,-0.10159115347023218, ,0.0018808169456144852, ,0.027865115278210912,-0.0029237137019678403,-0.050937540636021884,-0.01425576963686143,-0.03706007476759255,0.030691574945514007, ,0.058134721099575584, ,0.03970306275402388, ,0.0011640596874611573, ,0.2133096047189552,-0.20381064328365903,0.11148871774,1.6810842769154317,0.468116648196399,-1.3331933819613493, ,0.1741228285476528,0.133469678703897,0.05381355243243244,-0.06008207673290145,0.15392381566564042,-0.12299090389494627, ,1.3681271076202393
0.01755516298672824,0.021494779652358628,-0.10032286850691152, ,0.01887445910575468,0.020872650911031066,-0.10175270021016392, ,0.0020425486824283234, ,0.027865115278210912,-0.0029237137019678403,-0.050937540636021884,-0.01425576963686143,-0.03706007476759255,0.030691574945514007, ,0.058134721099575584, ,0.03970306275402388, ,0.0011716987222000022, ,0.2133096047189552,-0.20381064328365903,0.11148871774,1.6810842769154317,0.468116648196399,-1.3331933819613493, ,0.1741228285476528,0.133469678703897,0.05381355243243244,-0.06008207673290145,0.15392381566564042,-0.12299090389494627, ,1.3720359802246094
0.01755516298672824,0.021494779652358628,-0.10032286850691152, ,0.018952892744109332,0.020874838749687777,-0.10191300822818138, ,0.002206018932519194, ,0.027865115278210912,-0.0029237137019678403,-0.050937540636021884,-0.01425576963686143,-0.03706007476759255,0.030691574945514007, ,0.058134721099575584, ,0.03970306275402388, ,0.0011806152757372367, ,0.21424405539673635,-0.20308470639348195,0.11177519783,1.680874586971947,0.4690731036947571,-1.3339733072872242, ,0.17541024317647097,0.13773141009937706,0.05363236202020203,0.010483960801736303,0.15829746513928727,-0.12672390824433857, ,1.375028133392334
0.01770341836521078,0.02147788491032316,-0.1005937179728034, ,0.019031059061081722,0.020876964011628547,-0.10207208189286625, ,0.002075884299272046, ,0.028055863840449054,-0.0031902720316551673,-0.0507253312864538,9.144039568026441e-05,-0.01979803981099698,-0.03799682168697915, ,0.058054875467873204, ,0.01978976775659132, ,0.0011882671477332608, ,0.21424405539673635,-0.20308470639348195,0.11177519783,1.680874586971947,0.4690731036947571,-1.3339733072872242, ,0.17541024317647097,0.13773141009937706,0.05363236202020203,0.010483960801736303,0.15829746513928727,-0.12672390824433857, ,1.3778669834136963
0.01770341836521078,0.02147788491032316,-0.1005937179728034, ,0.019108958306127837,0.020879027150613877,-0.10222992556523894, ,0.0022386041247663296, ,0.028055863840449054,-0.0031902720316551673,-0.0507253312864538,9.144039568026441e-05,-0.01979803981099698,-0.03799682168697915, ,0.058054875467873204, ,0.01978976775659132, ,0.001197168308555575, ,0.21424405539673635,-0.20308470639348195,0.11177519783,1.680874586971947,0.4690731036947571,-1.3339733072872242, ,0.17541024317647097,0.13773141009937706,0.05363236202020203,0.010483960801736303,0.15829746513928727,-0.12672390824433857, ,1.380728006362915
0.018108510144129873,0.021420283112821632,-0.10131494343211021, ,0.019186590731171887,0.020881028620146676,-0.10238654359876294, ,0.0016128794366588987, ,0.026265551597992626,-0.004256372164701846,-0.045262496570907695,-0.046103765095962757,-0.0669267521194875,-0.028758087660322926, ,0.05250418555298894, ,0.08126842764570703, ,0.0012006616793799726, ,0.21676166631373353,-0.201022736716064,0.11253612006000001,1.6810842769154317,0.47112265119123864,-1.33556289710253, ,0.16249476294258697,0.1340352281899305,0.047691052455089825,0.0,0.09858471618878073,-0.08126784004595854, ,1.3835790157318115
0.018108510144129873,0.021420283112821632,-0.10131494343211021, ,0.019263956590600338,0.020882968873470943,-0.10254194033935116, ,0.0017689783754611236, ,0.026265551597992626,-0.004256372164701846,-0.045262496570907695,-0.046103765095962757,-0.0669267521194875,-0.028758087660322926, ,0.05250418555298894, ,0.08126842764570703, ,0.0012053976518473155, ,0.21676166631373353,-0.201022736716064,0.11253612006000001,1.6810842769154317,0.47112265119123864,-1.33556289710253, ,0.16249476294258697,0.1340352281899305,0.047691052455089825,0.0,0.09858471618878073,-0.08126784004595854, ,1.386418104171753
0.018108510144129873,0.021420283112821632,-0.10131494343211021, ,0.019341056141255454,0.020884848363570848,-0.10269612012537008, ,0.0019270467206945962, ,0.026265551597992626,-0.004256372164701846,-0.045262496570907695,-0.046103765095962757,-0.0669267521194875,-0.028758087660322926, ,0.05250418555298894, ,0.08126842764570703, ,0.0012113616937386154, ,0.21676166631373353,-0.201022736716064,0.11253612006000001,1.6810842769154317,0.47112265119123864,-1.33556289710253, ,0.16249476294258697,0.1340352281899305,0.047691052455089825,0.0,0.09858471618878073,-0.08126784004595854, ,1.3891470432281494
0.018108510144129873,0.021420283112821632,-0.10131494343211021, ,0.019417889642428333,0.020886667543169042,-0.10284908728764526, ,0.00208634072390296, ,0.026265551597992626,-0.004256372164701846,-0.045262496570907695,-0.046103765095962757,-0.0669267521194875,-0.028758087660322926, ,0.05250418555298894, ,0.08126842764570703, ,0.0012185336530022575, ,0.21846066754606294,-0.19965581299732624,0.11303130284000001,1.6810842769154317,0.47207910668959674,-1.3364245011685454, ,0.1793893035131773,0.145102357123044,0.05628555307420496,0.0,0.11400588173379406,-0.09296415213831666, ,1.3919651508331299
0.01838373241064932,0.02137795515243416,-0.10178405206796724, ,0.01949445735585349,0.020888426864726414,-0.1030008461494673, ,0.0017187017440901333, ,0.029886607896124767,-0.0038266616172482615,-0.053314503787284466,-0.044565430206127084,-0.06887457083944401,-0.03116717809964098, ,0.061239603074758724, ,0.08203263573856685, ,0.0012226000602468744, ,0.21846066754606294,-0.19965581299732624,0.11303130284000001,1.6810842769154317,0.47207910668959674,-1.3364245011685454, ,0.1793893035131773,0.145102357123044,0.05628555307420496,0.0,0.11400588173379406,-0.09296415213831666, ,1.3949811458587646
0.01838373241064932,0.02137795515243416,-0.10178405206796724, ,0.01957075954570162,0.02089012678044006,-0.1031514010265954, ,0.0018752741438345427, ,0.029886607896124767,-0.0038266616172482615,-0.053314503787284466,-0.044565430206127084,-0.06887457083944401,-0.03116717809964098, ,0.061239603074758724, ,0.08203263573856685, ,0.0012278635609209684, ,0.21846066754606294,-0.19965581299732624,0.11303130284000001,1.6810842769154317,0.47207910668959674,-1.3364245011685454, ,0.1793893035131773,0.145102357123044,0.05628555307420496,0.0,0.11400588173379406,-0.09296415213831666, ,1.3977410793304443
0.01838373241064932,0.02137795515243416,-0.10178405206796724, ,0.019646796478573626,0.02089176774224253,-0.1033007562272643, ,0.002032756882743071, ,0.029886607896124767,-0.0038266616172482615,-0.053314503787284466,-0.044565430206127084,-0.06887457083944401,-0.03116717809964098, ,0.061239603074758724, ,0.08203263573856685, ,0.0012343027074955453, ,0.21846066754606294,-0.19965581299732624,0.11303130284000001,1.6810842769154317,0.47207910668959674,-1.3364245011685454, ,0.1793893035131773,0.145102357123044,0.05628555307420496,0.0,0.11400588173379406,-0.09296415213831666, ,1.4005119800567627
0.018694053243691593,0.021348450410240655,-0.10235774669453745, ,0.019722568423493465,0.02089335020179973,-0.1034489160521876, ,0.0015670386855085893, ,0.03150244921617328,-0.0018028840181673238,-0.05975390900959962,0.009406959400750958,-0.019521964660411756,-0.027358219226817172, ,0.06757354763017885, ,0.021652625840531913, ,0.0012369434692258074, ,0.2203064007030026,-0.1982193846827205,0.11363926285,1.680874586971947,0.47371874468678205,-1.3377615160129026, ,0.18319872887735672,0.1375317993601026,0.06346140047808765,-0.0025691515229281136,0.16933282423903534,-0.13807956392395715, ,1.4032700061798096
0.018694053243691593,0.021348450410240655,-0.10235774669453745, ,0.01979807565190282,0.02089487461051127,-0.10359588479456477, ,0.0017197623204012616, ,0.03150244921617328,-0.0018028840181673238,-0.05975390900959962,0.009406959400750958,-0.019521964660411756,-0.027358219226817172, ,0.06757354763017885, ,0.021652625840531913, ,0.0012407451924634097, ,0.2203064007030026,-0.1982193846827205,0.11363926285,1.680874586971947,0.47371874468678205,-1.3377615160129026, ,0.18319872887735672,0.1375317993601026,0.06346140047808765,-0.0025691515229281136,0.16933282423903534,-0.13807956392395715, ,1.4061040878295898
0.018694053243691593,0.021348450410240655,-0.10235774669453745, ,0.01987331843765372,0.02089634141950763,-0.10374166674008478, ,0.0018735804305286396, ,0.03150244921617328,-0.0018028840181673238,-0.05975390900959962,0.009406959400750958,-0.019521964660411756,-0.027358219226817172, ,0.06757354763017885, ,0.021652625840531913, ,0.0012456892177607941, ,0.2203064007030026,-0.1982193846827205,0.11363926285,1.680874586971947,0.47371874468678205,-1.3377615160129026, ,0.18319872887735672,0.1375317993601026,0.06346140047808765,-0.0025691515229281136,0.16933282423903534,-0.13807956392395715, ,1.4090240001678467
0.018694053243691593,0.021348450410240655,-0.10235774669453745, ,0.019948297057002972,0.020897751079650664,-0.10388626616693233, ,0.0020279618357637932, ,0.03150244921617328,-0.0018028840181673238,-0.05975390900959962,0.009406959400750958,-0.019521964660411756,-0.027358219226817172, ,0.06757354763017885, ,0.021652625840531913, ,0.0012517533465825226, ,0.2203064007030026,-0.1982193846827205,0.11363926285,1.680874586971947,0.47371874468678205,-1.3377615160129026, ,0.18319872887735672,0.1375317993601026,0.06346140047808765,-0.0025691515229281136,0.16933282423903534,-0.13807956392395715, ,1.4120631217956543
0.018694053243691593,0.021348450410240655,-0.10235774669453745, ,0.020023011788604543,0.020899104041530264,-0.10402968734579227, ,0.002182528010012408, ,0.03150244921617328,-0.0018028840181673238,-0.05975390900959962,0.009406959400750958,-0.019521964660411756,-0.027358219226817172, ,0.06757354763017885, ,0.021652625840531913, ,0.0012589131516858294, ,0.2203064007030026,-0.1982193846827205,0.11363926285,1.680874586971947,0.47371874468678205,-1.3377615160129026, ,0.18319872887735672,0.1375317993601026,0.06346140047808765,-0.0025691515229281136,0.16933282423903534,-0.13807956392395715, ,1.4150381088256836
0.019015150193634332,0.021329795343405372,-0.10295074863698558, ,0.020097462913504324,0.020900400755465225,-0.10417193453985538, ,0.001687327930519903, ,0.03216473100588803,-0.0017627840113208274,-0.05810483020438881,-0.006833578275167496,-0.04898590273514372,-0.008462034968114464, ,0.06643680170833449, ,0.04945355547398475, ,0.0012621834935089902, ,0.22219074752431336,-0.1968679064297312,0.11427055608000002,1.6804552070849783,0.4753583826839673,-1.3390985308572594, ,0.18903773218818878,0.1319846196918926,0.061979811361867705,-0.021488122080512442,0.148720243372418,-0.12127138635885566, ,1.4185559749603271
0.019015150193634332,0.021329795343405372,-0.10295074863698558, ,0.020171650715133375,0.020901641671501173,-0.10431301200482287, ,0.0018375446950602333, ,0.03216473100588803,-0.0017627840113208274,-0.05810483020438881,-0.006833578275167496,-0.04898590273514372,-0.008462034968114464, ,0.06643680170833449, ,0.04945355547398475, ,0.001266542290490439, ,0.22219074752431336,-0.1968679064297312,0.11427055608000002,1.6804552070849783,0.4753583826839673,-1.3390985308572594, ,0.18903773218818878,0.1319846196918926,0.061979811361867705,-0.021488122080512442,0.148720243372418,-0.12127138635885566, ,1.4212820529937744
0.01933226272083231,0.021310457757485576,-0.10351550245376126, ,0.020245575479300663,0.020902827239408568,-0.10445292398891207, ,0.0013707888125503859, ,0.03052995769709852,-0.0023760035336925934,-0.05334890507515441,-0.036914307236130345,-0.0764802706916096,-0.007156282448649983, ,0.06151283916790527, ,0.08492034939115538, ,0.00126732609892698, ,0.22405192614700148,-0.19556276457398725,0.11487333093000002,1.6804552070849783,0.4767247476816217,-1.3399676736738022, ,0.17871363758657396,0.12686756892843687,0.05688861257142858,-0.021488122080512442,0.10969009693913997,-0.08750495898732169, ,1.4239580631256104
0.01933226272083231,0.021310457757485576,-0.10351550245376126, ,0.020319237494187996,0.020903957908683286,-0.1045916747328615, ,0.0015157533125877065, ,0.03052995769709852,-0.0023760035336925934,-0.05334890507515441,-0.036914307236130345,-0.0764802706916096,-0.007156282448649983, ,0.06151283916790527, ,0.08492034939115538, ,0.001269180033357284, ,0.22405192614700148,-0.19556276457398725,0.11487333093000002,1.6804552070849783,0.4767247476816217,-1.3399676736738022, ,0.17871363758657396,0.12686756892843687,0.05688861257142858,-0.021488122080512442,0.10969009693913997,-0.08750495898732169, ,1.4266819953918457
0.01933226272083231,0.021310457757485576,-0.10351550245376126, ,0.0203926370503428,0.020905034128544067,-0.10472926846993563, ,0.001661923578149348, ,0.03052995769709852,-0.0023760035336925934,-0.05334890507515441,-0.036914307236130345,-0.0764802706916096,-0.007156282448649983, ,0.06151283916790527, ,0.08492034939115538, ,0.001272089244800188, ,0.22405192614700148,-0.19556276457398725,0.11487333093000002,1.6804552070849783,0.4767247476816217,-1.3399676736738022, ,0.17871363758657396,0.12686756892843687,0.05688861257142858,-0.021488122080512442,0.10969009693913997,-0.08750495898732169, ,1.4303171634674072
0.01933226272083231,0.021310457757485576,-0.10405240465499263, ,0.020465774440671377,0.020906056347931388,-0.10486570942593074, ,0.001808714512231546, ,0.03023423521733424,-0.00249235585479579,-0.05314238789049607,0.006249210886018048,-0.02119972544387393,-0.008027400099943863, ,0.0611917821899965, ,0.022092015577824788, ,0.0012760350188254187, ,0.2258513229066958,-0.19426534545111754,0.11544629111000002,1.6804552070849783,0.4779544761795107,-1.340725398586648, ,0.17871363758657396,0.12669818632639623,0.05688861257142858,-0.01932889115881716,0.1661883770712232,-0.12780732696670877, ,1.433690071105957
0.019639757793587453,0.021284605420540288,-0.10405240465499263, ,0.02053864996043358,0.020907025015507254,-0.1050010018191793, ,0.0013602980077119982, ,0.03023423521733424,-0.00249235585479579,-0.05314238789049607,0.006249210886018048,-0.02119972544387393,-0.008027400099943863, ,0.0611917821899965, ,0.022092015577824788, ,0.0012766500771384595, ,0.2258513229066958,-0.19426534545111754,0.11544629111000002,1.6804552070849783,0.4779544761795107,-1.340725398586648, ,0.17871363758657396,0.12669818632639623,0.05688861257142858,-0.01932889115881716,0.1661883770712232,-0.12780732696670877, ,1.436661958694458
0.019639757793587453,0.021284605420540288,-0.10405240465499263, ,0.020611263907235,0.02090794057965242,-0.10513514986055561, ,0.0015026768486222386, ,0.03023423521733424,-0.00249235585479579,-0.05314238789049607,0.006249210886018048,-0.02119972544387393,-0.008027400099943863, ,0.0611917821899965, ,0.022092015577824788, ,0.001278287952294139, ,0.2258513229066958,-0.19426534545111754,0.11544629111000002,1.6804552070849783,0.4779544761795107,-1.340725398586648, ,0.17871363758657396,0.12669818632639623,0.05688861257142858,-0.01932889115881716,0.1661883770712232,-0.12780732696670877, ,1.4395699501037598
0.019933414205076157,0.0212643784037702,-0.10456141684912444, ,0.020683616581021916,0.020908803488467118,-0.1052681577534813, ,0.0016458808756221973, ,0.03023423521733424,-0.00249235585479579,-0.05314238789049607,0.006249210886018048,-0.02119972544387393,-0.008027400099943863, ,0.0611917821899965, ,0.022092015577824788, ,0.001280932505699377, ,0.22757349233764784,-0.1930837673213612,0.11599202920000001,1.6804552070849783,0.4793208411771651,-1.3414311839229096, ,0.16885576789763485,0.1131072009040176,0.05381355243243244,-0.01622459090077462,0.10835443190842615,-0.04599056908749515, ,1.4426720142364502
0.019933414205076157,0.0212643784037702,-0.10456141684912444, ,0.020755708284073308,0.020909614189767577,-0.10540002969392881, ,0.0012269053359414265, ,0.029157717647655807,-0.0017638251322033497,-0.05018689695084915,-0.06248718891252185,-0.06658009479560603,0.0008413251125973639, ,0.05806899519599563, ,0.09130848491145148, ,0.001280546597343963, ,0.22757349233764784,-0.1930837673213612,0.11599202920000001,1.6804552070849783,0.4793208411771651,-1.3414311839229096, ,0.16885576789763485,0.1131072009040176,0.05381355243243244,-0.01622459090077462,0.10835443190842615,-0.04599056908749515, ,1.4458401203155518
0.019933414205076157,0.0212643784037702,-0.10456141684912444, ,0.020827539320996617,0.020910373131087737,-0.10553076987042947, ,0.001365439392986725, ,0.029157717647655807,-0.0017638251322033497,-0.05018689695084915,-0.06248718891252185,-0.06658009479560603,0.0008413251125973639, ,0.05806899519599563, ,0.09130848491145148, ,0.001281148673908805, ,0.22757349233764784,-0.1930837673213612,0.11599202920000001,1.6804552070849783,0.4793208411771651,-1.3414311839229096, ,0.16885576789763485,0.1131072009040176,0.05381355243243244,-0.01622459090077462,0.10835443190842615,-0.04599056908749515, ,1.4486730098724365
0.019933414205076157,0.0212643784037702,-0.10456141684912444, ,0.020899109998718423,0.02091108075967447,-0.10566038246407473, ,0.0015050292402558265, ,0.029157717647655807,-0.0017638251322033497,-0.05018689695084915,-0.06248718891252185,-0.06658009479560603,0.0008413251125973639, ,0.05806899519599563, ,0.09130848491145148, ,0.0012827252976154743, ,0.22757349233764784,-0.1930837673213612,0.11599202920000001,1.6804552070849783,0.4793208411771651,-1.3414311839229096, ,0.16885576789763485,0.1131072009040176,0.05381355243243244,-0.01622459090077462,0.10835443190842615,-0.04599056908749515, ,1.452519178390503
0.020181884694607063,0.02124797263065603,-0.10497726631190164, ,0.020970420626481117,0.020911737522490075,-0.10578887164852584, ,0.0011804855722357325, ,0.02781546742255807,-0.0021233845990498573,-0.045327866952486064,-0.05143248979079607,-0.06089443551504148,-0.0005934710532023754, ,0.05322428498865109, ,0.07970722635797249, ,0.0012820103345009307, ,0.22903308885087628,-0.19212614844495735,0.11643924925000002,1.6804552070849783,0.48027729667552316,-1.341966073028363, ,0.16561420865352666,0.10674571603877478,0.04886138503067485,-0.014185934974403904,0.11046782969031033,-0.05040273106059746, ,1.4568350315093994
0.020181884694607063,0.02124797263065603,-0.10497726631190164, ,0.02104147151583398,0.020912343866208324,-0.10591624159001528, ,0.0013165146196150923, ,0.02781546742255807,-0.0021233845990498573,-0.045327866952486064,-0.05143248979079607,-0.06089443551504148,-0.0005934710532023754, ,0.05322428498865109, ,0.07970722635797249, ,0.0012822499475920015, ,0.22903308885087628,-0.19212614844495735,0.11643924925000002,1.6804552070849783,0.48027729667552316,-1.341966073028363, ,0.16561420865352666,0.10674571603877478,0.04886138503067485,-0.014185934974403904,0.11046782969031033,-0.05040273106059746, ,1.4597749710083008
0.020181884694607063,0.02124797263065603,-0.10497726631190164, ,0.021112262980627763,0.02091290023721404,-0.10604249644735321, ,0.0014534760078583758, ,0.02781546742255807,-0.0021233845990498573,-0.045327866952486064,-0.05143248979079607,-0.06089443551504148,-0.0005934710532023754, ,0.05322428498865109, ,0.07970722635797249, ,0.001283430816973149, ,0.22903308885087628,-0.19212614844495735,0.11643924925000002,1.6804552070849783,0.48027729667552316,-1.341966073028363, ,0.16561420865352666,0.10674571603877478,0.04886138503067485,-0.014185934974403904,0.11046782969031033,-0.05040273106059746, ,1.4625060558319092
0.02053613681634213,0.021215221362802787,-0.10554512157090443, ,0.021182795337008665,0.02091340708160295,-0.10616764037193321, ,0.0009469893137312197, ,0.025119454471897777,-0.0021174033960832716,-0.04051673979603742,-0.011762988450222394,-0.019196842794340613,-0.011681438991542316, ,0.047718723723579326, ,0.022511718796362882, ,0.0012811264231153273, ,0.23113367219266534,-0.19077467019196806,0.11703813523,1.6802455171414936,0.48205357117247394,-1.3432511482961351, ,0.15232253861712805,0.09733019647022642,0.044124131634349036,-0.002287234806353972,0.1371126422677868,-0.07721926057625672, ,1.4652791023254395
0.02053613681634213,0.021215221362802787,-0.10554512157090443, ,0.021253068903411464,0.020913864845179486,-0.10629167750773727, ,0.0010780320658514751, ,0.025119454471897777,-0.0021174033960832716,-0.04051673979603742,-0.011762988450222394,-0.019196842794340613,-0.011681438991542316, ,0.047718723723579326, ,0.022511718796362882, ,0.0012797448288482264, ,0.23113367219266534,-0.19077467019196806,0.11703813523,1.6802455171414936,0.48205357117247394,-1.3432511482961351, ,0.15232253861712805,0.09733019647022642,0.044124131634349036,-0.002287234806353972,0.1371126422677868,-0.07721926057625672, ,1.4680399894714355
0.02053613681634213,0.021215221362802787,-0.10554512157090443, ,0.02132308400055232,0.02091427397345498,-0.10641461199133948, ,0.0012107306856274551, ,0.025119454471897777,-0.0021174033960832716,-0.04051673979603742,-0.011762988450222394,-0.019196842794340613,-0.011681438991542316, ,0.047718723723579326, ,0.022511718796362882, ,0.0012792785170697076, ,0.23113367219266534,-0.19077467019196806,0.11703813523,1.6802455171414936,0.48205357117247394,-1.3432511482961351, ,0.15232253861712805,0.09733019647022642,0.044124131634349036,-0.002287234806353972,0.1371126422677868,-0.07721926057625672, ,1.4707729816436768
0.02053613681634213,0.021215221362802787,-0.10554512157090443, ,0.021392840951424064,0.020914634911648414,-0.10653644795191343, ,0.0013442552523120278, ,0.025119454471897777,-0.0021174033960832716,-0.04051673979603742,-0.011762988450222394,-0.019196842794340613,-0.011681438991542316, ,0.047718723723579326, ,0.022511718796362882, ,0.0012797146025411326, ,0.23113367219266534,-0.19077467019196806,0.11703813523,1.6802455171414936,0.48205357117247394,-1.3432511482961351, ,0.15232253861712805,0.09733019647022642,0.044124131634349036,-0.002287234806353972,0.1371126422677868,-0.07721926057625672, ,1.473534107208252
0.020784728265393376,0.021192304341801513,-0.10593601147395681, ,0.02146234008128817,0.020914948104683178,-0.10665718951123546, ,0.0010277071648878177, ,0.02390597778810345,-0.0020766018259965337,-0.03676981061899039,-0.011417354329080887,-0.03162408657887691,-0.002923115042170901, ,0.04390702702421841, ,0.03362099966172578, ,0.001278034552956777, ,0.2326936642332587,-0.18979388311694156,0.11747757754000002,1.6798261372545245,0.4834199361701283,-1.3441202911126777, ,0.14599529470533967,0.08885481419332471,0.040022139497487445,-0.012020492853316427,0.11999720870003919,-0.072730092422299, ,1.476243019104004
0.020784728265393376,0.021192304341801513,-0.10593601147395681, ,0.021531581717669286,0.02091521399718734,-0.10677684078369117, ,0.001158258635350149, ,0.02390597778810345,-0.0020766018259965337,-0.03676981061899039,-0.011417354329080887,-0.03162408657887691,-0.002923115042170901, ,0.04390702702421841, ,0.03362099966172578, ,0.0012772413349593822, ,0.2326936642332587,-0.18979388311694156,0.11747757754000002,1.6798261372545245,0.4834199361701283,-1.3441202911126777, ,0.14599529470533967,0.08885481419332471,0.040022139497487445,-0.012020492853316427,0.11999720870003919,-0.072730092422299, ,1.479046106338501
0.020784728265393376,0.021192304341801513,-0.10593601147395681, ,0.02160056619034811,0.020915433033491384,-0.10689540587627912, ,0.0012894521551291376, ,0.02390597778810345,-0.0020766018259965337,-0.03676981061899039,-0.011417354329080887,-0.03162408657887691,-0.002923115042170901, ,0.04390702702421841, ,0.03362099966172578, ,0.0012773216693026043, ,0.2326936642332587,-0.18979388311694156,0.11747757754000002,1.6798261372545245,0.4834199361701283,-1.3441202911126777, ,0.14599529470533967,0.08885481419332471,0.040022139497487445,-0.012020492853316427,0.11999720870003919,-0.072730092422299, ,1.4817819595336914
0.020784728265393376,0.021192304341801513,-0.10593601147395681, ,0.0216692938313556,0.02091560565762799,-0.10701288888861778, ,0.0014208037755145178, ,0.02390597778810345,-0.0020766018259965337,-0.03676981061899039,-0.011417354329080887,-0.03162408657887691,-0.002923115042170901, ,0.04390702702421841, ,0.03362099966172578, ,0.001278259460846473, ,0.2326936642332587,-0.18979388311694156,0.11747757754000002,1.6798261372545245,0.4834199361701283,-1.3441202911126777, ,0.14599529470533967,0.08885481419332471,0.040022139497487445,-0.012020492853316427,0.11999720870003919,-0.072730092422299, ,1.4846060276031494
0.02101210481776522,0.02117173663826728,-0.10628663281402967, ,0.021737764974965997,0.02091573231332984,-0.10712929391294891, ,0.0011411391702010382, ,0.022179514615149973,-0.002070919358521839,-0.034897396068299315,0.012674344054432143,0.002312018476606797,-0.0027851080848420896, ,0.041401060709852645, ,0.01288148555566997, ,0.0012773690693487754, ,0.23409147888349333,-0.18893665976790264,0.11785998309000001,1.6798261372545245,0.4847863011677827,-1.344826076448939, ,0.13518082843087004,0.08472941210577749,0.03801625661097852,-0.01142785284460318,0.14368037574160786,-0.09184254353548908, ,1.4892079830169678
0.02101210481776522,0.02117173663826728,-0.10628663281402967, ,0.02180597995769099,0.02091581344402946,-0.10724462503414414, ,0.0012702297087302374, ,0.022179514615149973,-0.002070919358521839,-0.034897396068299315,0.012674344054432143,0.002312018476606797,-0.0027851080848420896, ,0.041401060709852645, ,0.01288148555566997, ,0.001277323008957688, ,0.23409147888349333,-0.18893665976790264,0.11785998309000001,1.6798261372545245,0.4847863011677827,-1.344826076448939, ,0.13518082843087004,0.08472941210577749,0.03801625661097852,-0.01142785284460318,0.14368037574160786,-0.09184254353548908, ,1.4933860301971436
0.021211187544805433,0.021155361142439662,-0.10660809059688134, ,0.021873939118272633,0.020915849492857234,-0.1073588863297093, ,0.0010297085562680462, ,0.020247446544483953,-0.0014885478235976183,-0.032413605284956216,-0.004551029718597533,0.01707940115504285,0.005945470702663505, ,0.0382467864501557, ,0.017674332678048542, ,0.001275735736825062, ,0.23528850247899813,-0.18817983194622862,0.11820998139000001,1.6798261372545245,0.48615266616543706,-1.34545018304506, ,0.12244766652705909,0.07437064385460092,0.03539735893333334,-0.010135836206297471,0.14528423864460366,-0.06317308223402718, ,1.496485948562622
0.021211187544805433,0.021155361142439662,-0.10660809059688134, ,0.021941642797677473,0.020915840902640738,-0.10747208186978914, ,0.001156466921871324, ,0.020247446544483953,-0.0014885478235976183,-0.032413605284956216,-0.004551029718597533,0.01707940115504285,0.005945470702663505, ,0.0382467864501557, ,0.017674332678048542, ,0.001274976062844465, ,0.23528850247899813,-0.18817983194622862,0.11820998139000001,1.6798261372545245,0.48615266616543706,-1.34545018304506, ,0.12244766652705909,0.07437064385460092,0.03539735893333334,-0.010135836206297471,0.14528423864460366,-0.06317308223402718, ,1.4993600845336914
0.021211187544805433,0.021155361142439662,-0.10660809059688134, ,0.022009091339089494,0.020915788115902893,-0.10758421571717425, ,0.0012833027508907377, ,0.020247446544483953,-0.0014885478235976183,-0.032413605284956216,-0.004551029718597533,0.01707940115504285,0.005945470702663505, ,0.0382467864501557, ,0.017674332678048542, ,0.0012750287634017198, ,0.23528850247899813,-0.18817983194622862,0.11820998139000001,1.6798261372545245,0.48615266616543706,-1.34545018304506, ,0.12244766652705909,0.07437064385460092,0.03539735893333334,-0.010135836206297471,0.14528423864460366,-0.06317308223402718, ,1.5024380683898926
0.021211187544805433,0.021155361142439662,-0.10660809059688134, ,0.02207628508790427,0.02091569157486148,-0.10769529192730404, ,0.0014099085053902068, ,0.02001929549252429,-0.0005517228176709729,-0.03184645313768283,-0.017542230298930855,-0.016373660577855165,0.004407148976843794, ,0.03762011652740021, ,0.023995704771618973, ,0.0012758770636657985, ,0.23528850247899813,-0.18817983194622862,0.11820998139000001,1.6798261372545245,0.48615266616543706,-1.34545018304506, ,0.12244766652705909,0.07437064385460092,0.03539735893333334,-0.010135836206297471,0.14528423864460366,-0.06317308223402718, ,1.5053880214691162
0.021427413086173342,0.021146164082972586,-0.10694923180799105, ,0.022143224391722175,0.02091555172142743,-0.10780531454827297, ,0.0011394935474400671, ,0.02001929549252429,-0.0005517228176709729,-0.03184645313768283,-0.017542230298930855,-0.016373660577855165,0.004407148976843794, ,0.03762011652740021, ,0.023995704771618973, ,0.0012750246666893875, ,0.23657819886899362,-0.18745389505605153,0.11858331291000002,1.6798261372545245,0.4873823946633261,-1.3460445504776248, ,0.1178843994515165,0.06438055736666945,0.034855167439824954,-0.008968742780913128,0.10595782277188706,-0.0419327371750606, ,1.5082659721374512
0.021427413086173342,0.021146164082972586,-0.10694923180799105, ,0.022209909600342276,0.02091536899720417,-0.10791428762083626, ,0.0012636850431209878, ,0.02001929549252429,-0.0005517228176709729,-0.03184645313768283,-0.017542230298930855,-0.016373660577855165,0.004407148976843794, ,0.03762011652740021, ,0.023995704771618973, ,0.0012749542342448633, ,0.23657819886899362,-0.18745389505605153,0.11858331291000002,1.6798261372545245,0.4873823946633261,-1.3460445504776248, ,0.1178843994515165,0.06438055736666945,0.034855167439824954,-0.008968742780913128,0.10595782277188706,-0.0419327371750606, ,1.511017084121704
0.021427413086173342,0.021146164082972586,-0.10694923180799105, ,0.022276341065755705,0.020915143843485993,-0.10802221517841412, ,0.0013875670718111895, ,0.02001929549252429,-0.0005517228176709729,-0.03184645313768283,-0.017542230298930855,-0.016373660577855165,0.004407148976843794, ,0.03762011652740021, ,0.023995704771618973, ,0.001275649375217495, ,0.23657819886899362,-0.18745389505605153,0.11858331291000002,1.6798261372545245,0.4873823946633261,-1.3460445504776248, ,0.1178843994515165,0.06438055736666945,0.034855167439824954,-0.008968742780913128,0.10595782277188706,-0.0419327371750606, ,1.5138001441955566
0.021635696052318985,0.02114933447742528,-0.10730003427334163, ,0.02234251914213904,0.020914876701256965,-0.10812910124709685, ,0.001114415261955881, ,0.02145954578553081,0.0010526945159803347,-0.03832498082079144,-0.013646148064184859,0.010091458947690642,0.010042221227852113, ,0.04393659552103804, ,0.016969744220791755, ,0.0012746602088784668, ,0.2377674997316242,-0.18682835369323933,0.11896701475000002,1.6798261372545245,0.48861212316121505,-1.3464755604299088, ,0.1178843994515165,0.06114493657117962,0.04180790425196851,-0.008116872830335662,0.13286532491748632,-0.04077549090950092, ,1.5165901184082031
