NicholasDascanio/dvrk_moveit_final/test/execution/third_experiment_notsharpbends/thirdexp_400vel4.0/thirdexp_400vel4.0_14.csv
Current Position (x),Current Position (y),Current Position (z), ,Planned Position (x),Planned Position (y),Planned Position (z), ,Position Error,,Cartesian linear Velocity(x),Cartesian linear Velocity(y),Cartesian linear Velocity(z),Cartesian Angular Velocity(x),Cartesian Angular Velocity(y),Cartesian Angular Velocity(z), ,Total Linear Velocity, ,Total Angular Velocity, ,MSE, ,Joint 1 Position,Joint 2 Position,Joint 3 Position,Joint 4 Position,Joint 5 Position,Joint 6 Position, ,Joint 1 Velocity,Joint 2 Velocity,Joint 3 Velocity,Joint 4 Velocity,Joint 5 Velocity,Joint 6 Velocity, ,Time Stamp
0.009264423203578304,0.02032203606339917,-0.07845661894406182, ,0.009448494181693808,0.020262688417316044,-0.07860430934090006, ,0.00024334486104752922, ,0.00021660790039136065,0.00025592484068727645,-0.0010505225993619432,0.19691845009507047,-0.0016364202080343705,-0.05445659885448504, ,0.001102730356144663, ,0.19692524941952147, ,2.0278738420627434e-05, ,0.16476450587157992,-0.24659458340686283,0.08879845758,1.6892621847113283,0.4254860602695815,-1.2788280983743308, ,0.0005324236365345738,9.198512379086961e-05,0.0010999055475996015,-0.001468200206748554,0.0,-0.204997622313567, ,0.028839826583862305
0.009290838464168397,0.020330981666239308,-0.07851029295581717, ,0.009511600407952079,0.02028001381988772,-0.07876943514069992, ,0.00034422119221610216, ,0.0021847646093333564,0.0006148570740781443,-0.003442897114072005,0.160140646420101,-0.16732896680621068,-0.09218187688884533, ,0.004123685991661442, ,0.23161176517568793, ,2.670754787561961e-05, ,0.16482628773457372,-0.24654824700961747,0.08885030918,1.6892621847113283,0.4239830587721617,-1.284708551825899, ,0.0024015734945274513,0.001786807172924851,0.0031448788785784798,-0.001468200206748554,-0.17013085887595167,-0.18201771374328232, ,0.05667591094970703
0.009344859484966064,0.020354671999527004,-0.07863565382376458, ,0.009574592912207688,0.020297034726312183,-0.07893372470940276, ,0.00038071742240268714, ,0.002286426162739552,0.0012890294746146808,-0.006764981544333304,0.2991065550595432,-0.07627475262524001,-0.10316761399708901, ,0.007256329435689612, ,0.30867874749237323, ,3.0258858614572454e-05, ,0.16494212872768707,-0.24647874241374945,0.08897345673000001,1.6890524947678438,0.4211136922770875,-1.2891481112799408, ,0.007214101728037213,0.004753027025002096,0.006862908884101682,-0.0018241382200855306,-0.06969045010253243,-0.32118975961180274, ,0.0834658145904541
0.009426323460141535,0.02039397893146211,-0.07884571589912122, ,0.009637472311921379,0.020313753298905064,-0.07909718262060139, ,0.00033801701397875145, ,0.0013175679859072798,0.0009550382858998757,-0.00503097090165982,-0.09767732659078948,0.023428502503448537,0.03170022796456928, ,0.0052876035912661, ,0.10044777178342411, ,3.110239261059691e-05, ,0.1651660879810396,-0.2463397332220134,0.08918345571000001,1.6888428048243591,0.4176977797829515,-1.291263388095964, ,0.009361552280857222,0.004516097253255923,0.0053416537625754525,0.0025366548915309634,0.032838680006827416,0.09969224995210949, ,0.11379289627075195
0.009458413519817924,0.02041466977086576,-0.07897763561193491, ,0.009700239222734313,0.0203301716939027,-0.0792598134343147, ,0.0003811088021083452, ,0.0007502501545807505,0.00048071395284270314,-0.00426558570145601,0.006685872446831825,0.09693618650940478,0.02777254077360971, ,0.004357657923170663, ,0.09716648158675512, ,3.2450178687565676e-05, ,0.16545955183026012,-0.2461466649001578,0.08932475132,1.6892621847113283,0.4193374177801367,-1.2881080722325904, ,0.012308293327946923,0.008338477748143672,0.004691844335787924,-0.0015949611982526333,0.11387628244519697,-0.006669002994860201, ,0.14141297340393066
0.0095096785531531,0.02043146078865688,-0.0791353118498125, ,0.009762894258470283,0.02034629206146866,-0.07942162169700391, ,0.0003915931997735791, ,0.0019373674523347313,0.0006280759443404938,-0.0057695262541089904,0.03883744134807719,-0.00586083681453121,-0.011553108764667953, ,0.006118439771222569, ,0.039277172151759576, ,3.353229825043539e-05, ,0.16585341120684557,-0.24585320105093728,0.08948938015,1.6892621847113283,0.4201572367787294,-1.2882865072139253, ,0.012869126872588931,0.010268079823766353,0.005961381556886228,-0.0015949611982526333,0.007961695368569395,-0.050433293750124904, ,0.16865181922912598
0.009564095529302088,0.020449957337094385,-0.07929181984301963, ,0.009825438031138195,0.02036211654569982,-0.07958261194158987, ,0.00040071929388247213, ,0.0022846373936934385,0.0005818095643631365,-0.006047405622031171,-0.006336645814650918,-0.016127118530159176,-0.0018857591749251493, ,0.0064906998965613095, ,0.017327349023380793, ,3.444058035290926e-05, ,0.16621637965193412,-0.24559062813321364,0.0896514164,1.6892621847113283,0.4202938732784948,-1.2889696762986058, ,0.015708813368394435,0.0116276853308892,0.006231929389671363,-0.0015949611982526333,0.0,-0.005588489751664185, ,0.1970820426940918
0.009610506156106226,0.020461039170792117,-0.07940500857562884, ,0.009887871150934062,0.020377647284634405,-0.07974278868746947, ,0.00044495050397527834, ,0.002311763384024163,0.0005934840426531512,-0.005829570284401218,-0.022212075338856767,-0.016768702980624405,0.0028382798915634975, ,0.006299235108596319, ,0.027831020171363685, ,3.566673523639933e-05, ,0.16670291182301025,-0.2452662733524962,0.08983289700000001,1.6892621847113283,0.4201572367787294,-1.289103294615331, ,0.015664731191560047,0.010979445629272023,0.006898575799047208,-0.0015949611982526333,0.0,0.008173923164774367, ,0.22477293014526367
0.009697256867579487,0.020483740611020897,-0.0796340025225711, ,0.009950194226243521,0.020392886410257348,-0.07990215644053297, ,0.00037965552402489944, ,0.0024856410815437134,0.00041651768809281676,-0.005677646514130204,-0.04326821679703438,-0.03775053768627624,0.0019656202115829148, ,0.006211889286695864, ,0.05742161330455867, ,3.591660666749613e-05, ,0.16720488945983486,-0.24493419583890455,0.09000659986000001,1.6892621847113283,0.42084041927755655,-1.2899054203542346, ,0.016561420865352665,0.012232139927619332,0.0057880855813953495,-0.0015949611982526333,-0.02177000454259369,0.030377345448553736, ,0.25197696685791016
0.009769899116000343,0.020502617326087595,-0.07980790553854582, ,0.010012407863643966,0.02040783604850825,-0.08006071969318021, ,0.00036291731847178853, ,0.0022579787101782655,0.0005455904591560982,-0.005801205667683942,-0.01064066666817889,-0.007404863215876995,0.002225131988364603, ,0.006249009841847647, ,0.012963632971460932, ,3.6309357741400326e-05, ,0.1677223125624079,-0.24462528652393556,0.09018678417,1.6892621847113283,0.42070378277779114,-1.2897940024505383, ,0.01670132727181816,0.011295435117981673,0.006019959002267574,-0.0015949611982526333,0.010050247012220698,1.3540982308366412e-05, ,0.28126001358032227
0.009817026522206541,0.020517260320660344,-0.0799315823324534, ,0.010074512667906918,0.02042249831928698,-0.080218482924337, ,0.00039697720558627, ,0.00250835857000165,0.0008410891291801268,-0.006390810106267076,-0.00030789754877451586,-0.004452985271607696,0.001635792549866132, ,0.006916772907454105, ,0.00446361603065805, ,3.694747579516093e-05, ,0.16808528100749645,-0.2444167727363315,0.09031641317000001,1.6892621847113283,0.4211136922770875,-1.290046577421487, ,0.01905943795108873,0.009667373593868265,0.006709693142375738,-0.0015949611982526333,0.015611943261051,-0.00859852657299058, ,0.308154821395874
0.00988936629865809,0.020540335911621625,-0.0801115084726682, ,0.010136509242000158,0.020436875336461678,-0.08037545059947337, ,0.00037609728975180056, ,0.002207315421303114,0.0006247557862496044,-0.005316617511040154,0.0017833321612611972,-0.005565284508844415,0.0005396438840448658, ,0.00579042165306411, ,0.005844027807415425, ,3.731361031276893e-05, ,0.16861042684294372,-0.24413875435285942,0.09050437522,1.6892621847113283,0.42125032877685287,-1.290076316585043, ,0.017213303384449624,0.008908820289145221,0.005577314957983194,-0.0015949611982526333,0.012550646166019757,-0.010234210392201072, ,0.33344197273254395
0.009934933699109529,0.020553278942515178,-0.0802209605200465, ,0.010198398187090299,0.020450969207873655,-0.08053162717061826, ,0.0004199935547206253, ,0.0024014379954812913,0.0008577238974834918,-0.005965681122246682,0.0008678289369112783,-0.009077560787343604,0.0003271754732354444, ,0.006487830606819656, ,0.00911894891725552, ,3.797119673390725e-05, ,0.16898111802090648,-0.24395340876387803,0.09061974503,1.6892621847113283,0.42166023827614924,-1.2903288915559918, ,0.01787809750536375,0.008079629548761213,0.0062736555809373784,-0.0015949611982526333,0.009584977151896185,-0.008672333622130417, ,0.3602569103240967
0.010006339103043799,0.02057494187847063,-0.08039274759611521, ,0.010260180102544637,0.02046478203534624,-0.08068701707637808, ,0.0004039368404577063, ,0.002349811073219022,0.0007246098166044093,-0.00585350510207717,0.003478197809192219,-0.004731010217506863,0.00032149650583732266, ,0.006349030906066347, ,0.005871993767543836, ,3.8425182645239664e-05, ,0.1695217093221022,-0.24368311311328017,0.09079992934000002,1.6892621847113283,0.42193351127568013,-1.2905517273633844, ,0.017861272644169163,0.009299653896514035,0.006143004828384112,-0.0015949611982526333,0.014099064445616654,-0.01227045346405779, ,0.385239839553833
0.010057821243024716,0.02059214588532971,-0.0805250417395543, ,0.01032185558593366,0.020478315914690386,-0.08084162474195203, ,0.0004276636457056745, ,0.002520612896135315,0.0009209797057869481,-0.006688000573873984,-0.0011822400690851293,-0.009490885294517594,0.0001082106158219062, ,0.007206319772725452, ,0.009564234515833367, ,3.898571005550348e-05, ,0.1699001232329392,-0.24348232205855033,0.09093863237000001,1.6892621847113283,0.42220678427521097,-1.2907745631707774, ,0.01760611160639532,0.00938779496208095,0.006998599086115994,-0.0015949611982526333,0.00886802300579509,-0.007940839653056598, ,0.41034984588623047
0.010132932639788018,0.020612994111167675,-0.08071266467101124, ,0.010383425233033303,0.020491572935711393,-0.08099545457914965, ,0.0003968120125007142, ,0.002425017626568014,0.0006806030341271237,-0.006260049049738338,0.004823027372749411,-0.0015415209292106232,0.0002131612993740062, ,0.006747751113101199, ,0.0050633852509784595, ,3.928210116518853e-05, ,0.17044843726700915,-0.24315796727783293,0.09113437216,1.6892621847113283,0.42248005727474186,-1.2909973989781702, ,0.018148200718774293,0.0109639064286699,0.006546983773119607,-0.0015949611982526333,0.017721646550043567,-0.015081086181142967, ,0.4351389408111572
0.010183294984721298,0.020626298896159526,-0.08084066182531534, ,0.010444889637827168,0.02050455518221566,-0.08114851098640682, ,0.0004219293784546869, ,0.002494718148263698,0.0005612697337947021,-0.006101208359670466,-0.0019277767534998799,-0.008496918719414224,-0.00019829295293919265, ,0.006615390071754121, ,0.008712860751861852, ,3.969911621377384e-05, ,0.17081912844497193,-0.24292628529160618,0.09126789003,1.6892621847113283,0.42275333027427275,-1.291220234785563, ,0.018574464975234056,0.011810849980850621,0.00635120076555024,-0.0015949611982526333,0.010912088685600684,-0.009483211194520266, ,0.4594719409942627
0.01026413019902208,0.0206465716118136,-0.08104735399927313, ,0.01050624939250871,0.02051726473201821,-0.08130079834880372, ,0.0003735987303592177, ,0.0024946762312541473,0.0007100439631544256,-0.006725071881902163,0.0036185105446066854,-0.000940728158154864,0.00022200689054063054, ,0.007207923677810937, ,0.0037387931573187086, ,3.979337450530709e-05, ,0.171406056143413,-0.24254014864789494,0.09148307417000001,1.6892621847113283,0.42316323977356907,-1.2916361672367929, ,0.01789832922641848,0.011882912792195189,0.007014007714663145,-0.0015949611982526333,0.018081156291565544,-0.014743970563297015, ,0.48540401458740234
0.010313914919192906,0.02065657034243561,-0.08117130760013204, ,0.010567505087483643,0.020529703656948235,-0.08145232103807964, ,0.000399213829479152, ,0.0024648870265341753,0.00024023204310873913,-0.005161963810901734,-0.01165433586117856,-0.01824026114773898,-0.0005867281432805074, ,0.005725316574057005, ,0.02164556923339883, ,4.001905285108395e-05, ,0.17176130185562732,-0.24228529846304556,0.09161140688000001,1.6892621847113283,0.42329987627333454,-1.2917475851404894, ,0.019051785095055365,0.012649552327175524,0.005334498164768922,-0.0015949611982526333,0.001245187879703965,-0.0010153672225428172, ,0.5094070434570312
0.010358214793740213,0.02066186672963335,-0.08127550419092332, ,0.010628657311371935,0.020541874022857246,-0.08160308341265092, ,0.00044141313021941537, ,0.0022864462737657975,0.0003504912759213238,-0.005757867672584377,0.014709445952956748,0.012091572567988654,0.0005383129067261759, ,0.0062051366489632356, ,0.019041373928403393, ,4.0657267100614176e-05, ,0.17213199303359009,-0.24203044827819614,0.09172029524000001,1.6892621847113283,0.4238464222723963,-1.2922749354954155, ,0.018758043399579122,0.013297595897759931,0.006019959002267574,-0.0015949611982526333,0.03256241396813045,-0.0265524651894062, ,0.5320999622344971
0.010410389998412475,0.020672056417922715,-0.08139819724016932, ,0.010689706651010383,0.02055377788962434,-0.08175308981762752, ,0.0004668579486416133, ,0.002482674914526213,0.0005056920002108121,-0.006402345012764219,0.004865486687263088,0.0012805780003244558,8.98203256277011e-05, ,0.006885449933937637, ,0.005031185741129547, ,4.1372417665445994e-05, ,0.17250268421155288,-0.24178332082622095,0.09184733166,1.6892621847113283,0.4238464222723963,-1.2922749354954155, ,0.018556304567553927,0.013241862568094549,0.0066647746945606694,-0.0015949611982526333,0.021080714957199778,-0.01718990952626167, ,0.5533368587493896
0.010491644752156838,0.02069746727235825,-0.08162444876263968, ,0.010750653691454625,0.02056541731116393,-0.0819023445848288, ,0.00040218019702336754, ,0.0026680305053486623,0.000677017340889829,-0.006759912798111635,0.0005354793044818102,-0.005397067646728518,-7.211620687110255e-05, ,0.007298846504442332, ,0.0054235655387478215, ,4.1718052887289684e-05, ,0.17305872097849703,-0.24140490691538394,0.09208325644000001,1.6892621847113283,0.424392968271458,-1.292720607110201, ,0.019307617814541357,0.012222686960132763,0.007054389512843226,-0.001511818229407977,0.014879211445907136,-0.012132999241086262, ,0.581528902053833
0.01054062870509821,0.02070503637960369,-0.08173595401429276, ,0.010811499015981366,0.0205767943354323,-0.08205085203280169, ,0.00043471543482149425, ,0.0027210025089189076,0.0001983397722600863,-0.005131378178035404,-0.027108672919284434,-0.036355724912672756,-0.001469638318073256, ,0.005811560489646574, ,0.04534996006407253, ,4.218988004487462e-05, ,0.1734525803550825,-0.24115777946340877,0.09219992254,1.6892621847113283,0.4248028777707544,-1.2930548608212904, ,0.020152249216069396,0.012806604798714006,0.005270950205162145,-0.0014520837729825192,-0.016530268971662633,0.01347932594528076, ,0.6033239364624023
0.01061837604659488,0.02071656555737063,-0.08190560288083563, ,0.010872243206090771,0.020587911004434738,-0.08219861646683561, ,0.000408481933801502, ,0.0025476809812635926,0.0006439346243342169,-0.006652032979448464,-0.0005183248861370122,-0.0051309862386438,-0.0002604521461408289, ,0.007152263483847521, ,0.005157098742889634, ,4.2509532718039056e-05, ,0.17403950805352356,-0.24078708828544598,0.09237621798000001,1.6892621847113283,0.4249395142705198,-1.293166278724987, ,0.017810987529743014,0.012161597021462358,0.006925570226086957,-0.0013727659092212599,0.013560083194875075,-0.011057338603635615, ,0.6266858577728271
0.010669722075808658,0.020729563661129526,-0.08203739796527948, ,0.010932886841508596,0.020598769354231442,-0.08234564217898023, ,0.0004258841860210917, ,0.00264831528690969,0.0007198169792759581,-0.0067869007398267235,0.00034456311977877955,-0.0055976480220662995,-0.00020933162821645915, ,0.0073207740024394995, ,0.005608241500026578, ,4.288261064967723e-05, ,0.1744024764986121,-0.24054768356634504,0.09251362472,1.6892621847113283,0.42521278727005063,-1.2933891145323797, ,0.018709964818310488,0.011676949632512191,0.007088923684913219,-0.0013266069224952257,0.013998499213076667,-0.011414837469449716, ,0.6490340232849121
0.010737463835828761,0.020744145733723664,-0.08219894441068273, ,0.010993430500188485,0.020609371414944854,-0.08249193344806195, ,0.0004117348980717282, ,0.0024972026710224594,0.00021769797794758068,-0.005020477803017094,-0.004700222355374282,-0.011795722312534286,-0.0005860675502974214, ,0.005611471372140423, ,0.012697682933309523, ,4.317115692225837e-05, ,0.17489673140256248,-0.24023877425137605,0.09268214242000002,1.6892621847113283,0.4254860602695815,-1.2936119503397725, ,0.02003736097096089,0.012351881644408,0.005231136788177341,-0.001270573901892491,0.008906483642504846,-0.007262640205639628, ,0.6708769798278809
0.010786331543401818,0.020753558807862227,-0.08232374493243676, ,0.011053874758314033,0.0206197192107665,-0.08263749453969985, ,0.00043351035241854716, ,0.002576746242316531,0.0009269813633547109,-0.007649476671396296,0.02708296674722581,0.024148401192705178,0.0008482333124992246, ,0.008124863629103904, ,0.03628542878076252, ,4.352945406469934e-05, ,0.1752828680462737,-0.2399762013336524,0.09281306771,1.6892621847113283,0.42616924276840873,-1.2941690398582546, ,0.019005996707084076,0.011924722487870167,0.008069306747720365,-0.0012315095494740587,0.04528504733395663,-0.03692691961082307, ,0.6935858726501465
0.010848238260396688,0.020772150575957597,-0.08248191297469377, ,0.011114220190301272,0.020629814759963557,-0.08278232970632295, ,0.0004257418046107407, ,0.002750209252730831,0.0008599727367189616,-0.007921078372117843,0.005534663181363283,0.002493758602045328,-0.0003265900725310298, ,0.00842891965906303, ,0.006070526938672693, ,4.383459647451488e-05, ,0.17568445015573336,-0.23972907388167722,0.09297769654000002,1.6892621847113283,0.42616924276840873,-1.294087361118114, ,0.018082496485989096,0.01320764670264033,0.008257548740279938,-0.0011911883849935105,0.021742124927957556,-0.017729245008012515, ,0.7164008617401123
0.010903663794471701,0.020787583165385516,-0.08262948804627751, ,0.011174467368800829,0.02063966007488529,-0.0829264431871867, ,0.0004282501281785747, ,0.002751910028526121,0.0006162811200953557,-0.006477043962124229,-0.0024832954562284595,-0.00982906783361366,-0.0005517892919268787, ,0.007064340713143624, ,0.010137914943480493, ,4.42997610448481e-05, ,0.1760705867994446,-0.23947422369682783,0.09313195505,1.6892621847113283,0.4265791522677051,-1.2944216148292034, ,0.01999514149988849,0.011848787808524257,0.006772453877551022,-0.0011546966995689475,0.01088124542630556,-0.008872926026987431, ,0.7365419864654541
0.010957698272975932,0.020795822427023415,-0.08275296974982463, ,0.011234616864699818,0.020649257161971267,-0.08306983920838952, ,0.0004456136635397915, ,0.0026025698933879226,0.000457079919935515,-0.006110510740203468,0.009187878833268583,0.0037359633362034923,-0.0001893533697355074, ,0.006657374378035189, ,0.00991839356878433, ,4.4805415284496816e-05, ,0.17650305984040116,-0.23920392804622997,0.09326158405000001,1.6892621847113283,0.42712569826676683,-1.294867286443989, ,0.020368521476383513,0.012707142683244615,0.00641256502415459,-0.0011195463752793778,0.02539752236682001,-0.02070997651470715, ,0.7559328079223633
0.011014416647107618,0.020805588930895614,-0.08287627414339235, ,0.011294669247124654,0.020658608021755787,-0.08321252198288918, ,0.0004617439951251836, ,0.0027378360365713198,0.0004250470286775522,-0.0065162835402973705,-0.003356832498847232,-0.008144569301520434,-0.0009586468712756911, ,0.007080844746023359, ,0.008809218000686217, ,4.5343982877710294e-05, ,0.17691236468273508,-0.23895680059425478,0.09338991676000001,1.6892621847113283,0.42712569826676683,-1.2949489651841297, ,0.01976196200717842,0.014056723679228377,0.006769575656608585,-0.0010879635776476413,0.01237608607017558,-0.01009186833878641, ,0.776007890701294
0.01107292041891214,0.0208188702990017,-0.08302342448951064, ,0.011354625083442831,0.02066771464887683,-0.08335449571051971, ,0.00046023222612444375, ,0.0030626943236268735,0.0009153468056405829,-0.007817976132003511,0.002638563684079928,-0.005666437637783153,-0.0006977416493391786, ,0.008446224428414703, ,0.00625064033614609, ,4.585045218969778e-05, ,0.17734483772369164,-0.2386787822107827,0.09354417527000002,1.6892621847113283,0.42767224426582856,-1.2953129580587746, ,0.0211634570826206,0.012189716320933948,0.008198050190427176,-0.0010569797925070877,0.016414726492276783,-0.014081846380011295, ,0.7978479862213135
0.011131949083090752,0.020830861745205296,-0.0831636919617071, ,0.011414484939265227,0.0206765790320816,-0.08349576457800789, ,0.0004624952843974794, ,0.0028894043988792538,0.0003242537038708006,-0.006388866585949051,0.00915687479435755,0.002837760285165816,-0.0007676655501606655, ,0.0070193599777895, ,0.009586512858764456, ,4.6340217307585656e-05, ,0.17776958803177398,-0.23840848656018485,0.09369065604000001,1.6892621847113283,0.4279455172653595,-1.295454115126027, ,0.02313431047256723,0.014970333105926926,0.006695591223203027,-0.0010296601928237688,0.027322097764007465,-0.02282150233041305, ,0.8177008628845215
0.01118282825269538,0.020837743476460332,-0.0832709265259264, ,0.011474249378448426,0.020685203154234014,-0.08363633275898943, ,0.0004916467609996039, ,0.00311253202667892,0.00044521160626723514,-0.006997310980466318,-0.0004538743720892366,-0.007801256704430158,-0.0012393576712415692, ,0.007671273033128956, ,0.007814447602953953, ,4.690530257733736e-05, ,0.17814027920973677,-0.2381768045739581,0.09380213698,1.6892621847113283,0.4279455172653595,-1.295454115126027, ,0.02333913958644141,0.01519323431931969,0.007303444071526824,-0.0010071721385142517,0.01644340401439984,-0.0139283478067385, ,0.8381199836730957
0.011254739155082282,0.020849437986298916,-0.08344340425277252, ,0.011533918963096933,0.020693588992320353,-0.08377620441402603, ,0.00046150430275089115, ,0.00278355230129589,0.00046705350257254444,-0.007345092443660034,0.03596959957234975,0.034310875950873274,0.00017608368926503453, ,0.007868715612743077, ,0.04970963971436978, ,4.7344798236444716e-05, ,0.17871176144242937,-0.23780611339599533,0.09398361758000001,1.6892621847113283,0.42890197276371755,-1.296234040451902, ,0.02289431641941394,0.01615542076242267,0.007751246481751827,-0.0009757576295697245,0.05984694636576291,-0.04928869946242668, ,0.8569729328155518
0.011331258566080589,0.020861180942419205,-0.08363060596846622, ,0.011593494253565222,0.020701738517458056,-0.08391538369062213, ,0.00041867385123068674, ,0.0030268405800907374,0.0003452738729620379,-0.006897096408521876,-0.005166116819946163,-0.009640942832263364,-0.0031692434714621913, ,0.007539954695691453, ,0.010937848329761564, ,4.762628295765624e-05, ,0.17925235274362508,-0.2374199767522841,0.09417806108000001,1.6888428048243591,0.42931188226301387,-1.2966499729031318, ,0.02196180086981504,0.015935674485049667,0.007162235395683454,0.0009747712992827968,0.012590220120569722,-0.00975105997478732, ,0.8770709037780762
0.01139251199829236,0.020866506579545707,-0.08375913753171749, ,0.011652975808460137,0.020709653694900222,-0.08405387472324052, ,0.0004234551167427462, ,0.003258587665887237,0.00016424720611735367,-0.006717579201082401,-0.01743334379254171,-0.02350984291290652,-0.0039056458474792406, ,0.007468014531574283, ,0.02926831351306717, ,4.791041903348953e-05, ,0.17970799398320433,-0.2371110674373151,0.09431157895000002,1.6888428048243591,0.42944851876277934,-1.296761390806828, ,0.023742041921058485,0.0173867610037506,0.006934615376578147,0.0009747712992827968,0.0,0.0005138523788782772, ,0.8961098194122314
0.011420322595465247,0.02087053531507978,-0.08382778909098972, ,0.011712364184643016,0.020717336484044065,-0.08419168163332034, ,0.0004910966849857933, ,0.0028067634575200335,0.0005495361208611776,-0.007180232579380993,0.03992851077116226,0.03768731603625228,-0.00108984336027184, ,0.0077288841981624475, ,0.05490555293714982, ,4.839104789691968e-05, ,0.17993967596943108,-0.23695661277983063,0.09438417119,1.6888428048243591,0.4299950647618411,-1.2972070624216139, ,0.023647381400067474,0.014781455071412894,0.00763239651173934,0.0009695040810659266,0.06363443348737739,-0.05137779798342117, ,0.9180119037628174
0.011493430640629954,0.020883571487141414,-0.08401038813642847, ,0.011771659937231959,0.020724788838436585,-0.08432880852929191, ,0.0004516802160917306, ,0.0028080501440459343,0.0002637942433795014,-0.005825645114831287,-0.020911698370710063,-0.019991181892593468,-0.0012692175554021201, ,0.006472470472568739, ,0.028930027229512798, ,4.887993858998093e-05, ,0.18049571273637524,-0.23657819886899362,0.09457602211,1.6888428048243591,0.4309515202601992,-1.2974969153066456, ,0.020259808189255078,0.013646382162564103,0.0060427964795144165,0.0009392406756616807,0.0,0.007928470120476048, ,0.9348869323730469
0.011557029431378115,0.020890077373797295,-0.08415082643745049, ,0.011830863619603891,0.0207320127057825,-0.08446525950659471, ,0.0004459122748785367, ,0.003304935880660147,0.0005704208812621641,-0.007410983212978819,-0.04283659884022839,-0.019310016187021287,0.005149992650350252, ,0.008134534611156844, ,0.04698777397351837, ,4.9334202409441197e-05, ,0.18093590851020605,-0.2362538440882762,0.09472120659000001,1.6888428048243591,0.4309515202601992,-1.2970885216059427, ,0.02291089849311221,0.01461752026470591,0.007721188327678139,0.0009161949556315344,0.0033138344113078336,0.029906762912346323, ,0.9510438442230225
0.011574619553039123,0.020892844444281633,-0.08419386164473411, ,0.011889975783397039,0.02073901002794987,-0.08460103864769311, ,0.000537501340847039, ,0.0031316041978905252,0.00047946838267292686,-0.007202325369831332,0.012572971445058654,0.0031025309395394563,-0.0035824804331089618, ,0.007868311478020211, ,0.01295010771417047, ,5.00403314339745e-05, ,0.1810749177019421,-0.2361611712937855,0.09476657674000001,1.6888428048243591,0.43122479325973007,-1.2973113574133355, ,0.023676881626364967,0.015244488603770407,0.007559948514475558,0.000909645558315371,0.027685956250986733,-0.026277785855807527, ,0.9694628715515137
0.011651865979599545,0.020910269083117855,-0.08438780064796386, ,0.011948996978512814,0.02074578274097756,-0.08473615002209353, ,0.00048650783521175025, ,0.0033281515662874107,0.0006997884471180094,-0.008749070141036283,-0.0004116340219169617,-8.268939866123473e-05,-0.002126491307448134, ,0.009386827209002722, ,0.00041979618984032776, ,5.0575578119629394e-05, ,0.18162323173601203,-0.23580592558157118,0.09497009427000001,1.6888428048243591,0.43190797575855727,-1.2979501256719583, ,0.022074189708878988,0.016846607768235537,0.009112592402745997,0.0008844924047676151,0.02265724311293565,-0.014846412680111441, ,0.9861328601837158
0.01168675825959765,0.020918317885252488,-0.08447472608382955, ,0.012007927753118324,0.02075233277508175,-0.08487059768636025, ,0.0005361112068003633, ,0.0033807685340591855,0.0006858465052240409,-0.007959969171977091,-0.01763712593513031,-0.021899973462533792,-0.0025790649618370382, ,0.008675315010328926, ,0.028118979657075008, ,5.123280336845027e-05, ,0.18185491372223875,-0.2356514709240867,0.09506083457000002,1.6888428048243591,0.4320446122583227,-1.2980615435756546, ,0.022125656693511492,0.014676297797474605,0.008279008066528067,0.0008737896236344624,0.0,0.0034779848113513567, ,1.0026628971099854
0.011753808326582323,0.02093217751999475,-0.08464177361975123, ,0.012066768653648304,0.02075866205466352,-0.08500438568413277, ,0.0005094499899513204, ,0.003536364654447,0.0008869286538310985,-0.008683444172064828,0.011245699717011224,0.006402935325579383,-0.0015484316318445995, ,0.009417787431003915, ,0.012940760933541923, ,5.179406217328532e-05, ,0.18232600042756644,-0.23533483887624349,0.09523583372000001,1.6888428048243591,0.4325911582573845,-1.2985072151904404, ,0.02545518818628508,0.014687655402951675,0.009159753605520415,0.0008543510093463508,0.03293883953037591,-0.02394378122606922, ,1.0192439556121826
0.011822926648985795,0.020944312548928208,-0.08480708731506824, ,0.012125520224807566,0.020764772498314106,-0.0851375180461415, ,0.00048268205885523835, ,0.00349410454158051,0.0005160947489349595,-0.008209826431437327,-0.0015903687879175385,-0.005950670191816132,-0.00295751744873328, ,0.00893735813155648, ,0.006159522003913682, ,5.2263782626333204e-05, ,0.18283570079726527,-0.23500276136265183,0.09540953658000001,1.6888428048243591,0.43327434075621163,-1.2989826259687818, ,0.024546544634886387,0.017326445418745805,0.008563877161290324,0.0008353499508764792,0.019146334981168543,-0.014390550349404209, ,1.0369009971618652
0.011899374427100859,0.0209564265734232,-0.08498273159986383, ,0.012184183009573017,0.020770666018822968,-0.08526999879022462, ,0.0004451352052500108, ,0.0037656913198304384,0.0005960267948814896,-0.0082815599687789,-0.012966058702935355,-0.025402163918451657,-0.004620785807163832, ,0.009117012370998746, ,0.028519967936045665, ,5.261741840453754e-05, ,0.18333767843408985,-0.23465523838331173,0.09558453573,1.6888428048243591,0.4334109772559771,-1.2989306863921972, ,0.025292361822620145,0.016310921546660497,0.008568483873050026,0.0008170540988560047,0.0,-0.0031909879986286825, ,1.0534069538116455
0.011931844806117468,0.020961469081247498,-0.08506246951128485, ,0.012242757549195949,0.02077634452318415,-0.08540183192134534, ,0.0004960893882848158, ,0.003399728615812552,0.0005115814817967987,-0.008425315217011961,0.039871230796190295,0.03395713550541859,-0.0027612435937392444, ,0.009099769600363817, ,0.05237176772347142, ,5.3094627076118465e-05, ,0.1836079740846877,-0.23447761552720456,0.09567657232000001,1.6888428048243591,0.43395752325503884,-1.2993763580069828, ,0.02707473368287326,0.01824941183816746,0.00891371657526581,0.000808103183011894,0.06334934937156732,-0.05492307018773719, ,1.070281982421875
0.012000545286424814,0.020970496481277294,-0.08522079220733278, ,0.012301244383204247,0.020781809912603214,-0.08553302143160713, ,0.0004727680789699379, ,0.0034512429150093025,0.00023657755477585467,-0.0071928441212512195,-0.0034091984140262504,-0.005605353292158253,-0.0020446740912318097, ,0.007981481889376424, ,0.006560685947589187, ,5.3496190400371655e-05, ,0.18414856538588342,-0.23413009254786446,0.09584379373000002,1.6888428048243591,0.43491397875339693,-1.2999929258525766, ,0.026156819613690954,0.017599581149568024,0.007524237846008504,0.0007916458249204672,0.021166264401094526,-0.012636977504556848, ,1.0897138118743896
0.012072575005148483,0.020971296952012726,-0.0853593555685959, ,0.01235964404940442,0.020787064082503966,-0.08566357130027133, ,0.000457053167340806, ,0.0036002713555043178,0.00011505194418587583,-0.007029333219178859,-0.02676752415421604,-0.025861736699220025,-0.0016791216291303218, ,0.007898526209956973, ,0.03722001823326009, ,5.398352257347949e-05, ,0.18468915668707914,-0.23375167863702745,0.09598768192000001,1.6888428048243591,0.4350506152531624,-1.2995325925752892, ,0.02609926885546501,0.01829514971244858,0.007286739030192132,0.0007750109847320173,0.0,0.00924500966178758, ,1.1031239032745361
0.012105447472228775,0.0209740324754352,-0.08543282126619495, ,0.01241795708388416,0.020792108922534892,-0.08579348549377287, ,0.0005107221568830285, ,0.003301751206150674,0.0003962223053207853,-0.007779970824667529,0.013446840914259354,0.04075051390454693,0.006634556890990502, ,0.00846088052008945, ,0.04291179191731709, ,5.4594701619204446e-05, ,0.184959452337677,-0.2335740557809203,0.09606545932,1.6888428048243591,0.43559716125222414,-1.2999782641900748, ,0.027788269856067582,0.017724494127469327,0.008283313322932919,0.0007672692081515254,0.07093187484015336,-0.02644456311039052, ,1.1168568134307861
0.012179409584247862,0.0209858761343208,-0.08561198620720982, ,0.012476184021014192,0.020796946316576245,-0.08592276796573702, ,0.0004694196883218892, ,0.003686790708616847,0.0006479888854961633,-0.008880731006197065,-0.01887072959670959,0.0020256227574197857,0.004173370238648379, ,0.00963741140189107, ,0.018979134011561007, ,5.508704793556e-05, ,0.1855232118374954,-0.2332033646029575,0.09625471766,1.6888428048243591,0.43669025325034766,-1.3006245711992244, ,0.025675579425993175,0.017453916049010625,0.009309650216247809,0.0007518370552552578,0.0284658811866983,0.004084713732962569, ,1.1351709365844727
0.012218652608433881,0.020991186014124582,-0.08569797614770672, ,0.012534325393450594,0.020801578142747426,-0.08605142265699638, ,0.000510416385921758, ,0.003751427389661963,0.00042867758966624295,-0.008120849535153117,-0.020984025622328668,-0.010417399493358036,0.0014921067851190158, ,0.008955733867661804, ,0.023427580075710983, ,5.566868443616386e-05, ,0.18578578475521904,-0.23302574174685037,0.09634416167000001,1.6888428048243591,0.43669025325034766,-1.3004612137189433, ,0.02687537285711435,0.01777096283866494,0.008495366144000002,0.0007444754061630358,0.016823445530601697,0.005064897552845907, ,1.1486890316009521
0.01229413119491675,0.020999200400809288,-0.08586411849566879, ,0.01259238173213704,0.020806006273412357,-0.08617945349560695, ,0.00047509316559897296, ,0.003999906711140706,0.0005826327500716148,-0.008505556536478932,-0.006462392921048027,-0.018575489403167642,-0.0040124022146606235, ,0.009417176148640523, ,0.019667518509396572, ,5.6149735153567654e-05, ,0.18632637605641475,-0.23265505056888758,0.09651786453000001,1.6888428048243591,0.437100162749644,-1.300550431209611, ,0.028092641077107988,0.017031037609201504,0.00891371657526581,0.000730151282325987,0.009737934916110653,-0.009770513797942963, ,1.1629860401153564
0.012327689325521939,0.021006092423811233,-0.08594936796644922, ,0.012650353566306826,0.020810232575188315,-0.08630686439686475, ,0.0005198817080295476, ,0.0035159582553621485,0.0007771313161644272,-0.009649473679861336,0.06087350819357916,0.05909576779866359,-0.0015485981078069255, ,0.010299429005257979, ,0.08484040127113533, ,5.6727351173523476e-05, ,0.18658894897413839,-0.23249287317852887,0.09660860483000001,1.6888428048243591,0.43778334524847123,-1.301107520728093, ,0.027690966314114614,0.01842659059387782,0.01027665259354839,0.0007236423329815212,0.09011302639538396,-0.07487651028113301, ,1.1768109798431396
0.012367552912530624,0.021014682720515,-0.08605567049708385, ,0.012708241423485298,0.020814258908950715,-0.08643365926332232, ,0.0005469130398344426, ,0.003837474322643225,0.0006859035470927137,-0.009221710662971084,0.02160548777623026,0.01834371902619514,-0.00184714908075941, ,0.010011824029836672, ,0.028342354578815947, ,5.735569552666626e-05, ,0.18689013555623313,-0.23229208212379904,0.09672138206000001,1.6888428048243591,0.43860316424706386,-1.3018577068904122, ,0.02822633597812932,0.01798653175861842,0.00974239236697248,0.0007162408284100125,0.048249259026949085,-0.03691703228187702, ,1.1908628940582275
0.012451676904203528,0.0210259098147236,-0.08624003106362932, ,0.012766045829491982,0.020818087129840488,-0.08655984198480453, ,0.0004942642156195194, ,0.004037646915172085,0.00048148580319199493,-0.009134872625826967,-0.009520477748163206,-0.013570880213824011,-0.0031993862232470903, ,0.009999015905595758, ,0.016577340640860416, ,5.784504868229406e-05, ,0.1874461723231773,-0.23191366821296203,0.09691323298000001,1.6888428048243591,0.43860316424706386,-1.301694349410131, ,0.02733994282871529,0.019647399908586084,0.009521106706515244,0.0007029998946375567,0.014136763999770416,-0.008934525377980163, ,1.2046759128570557
0.012491230666357945,0.02103092035808812,-0.08632816594259696, ,0.01282376730844247,0.020821719087272247,-0.08668541643842691, ,0.0005310119648469062, ,0.004166885459013442,0.0005677677075436089,-0.0090114221165178,-0.020039032828361888,-0.02750049047009467,-0.0034715693679966122, ,0.009944396570950555, ,0.03402704444066922, ,5.840865409356547e-05, ,0.18771646797377517,-0.23172832262398063,0.09700526957000001,1.6888428048243591,0.4387398007468293,-1.3018057673138275, ,0.02767481526931198,0.018266976238396685,0.009391987924528302,0.0006968650182711646,0.0,0.002300226971629299, ,1.2187228202819824
0.012532619542588202,0.021037987224022284,-0.08642444677947811, ,0.0128814063827512,0.020825156624938966,-0.0868103864886099, ,0.0005620485591670786, ,0.004299948012051611,0.0006305872824569785,-0.009674456509872687,-0.01369060147378871,-0.02027291698723803,-0.003473977837406482, ,0.010605767392723692, ,0.024462699097541986, ,5.916711585521171e-05, ,0.18800220909012147,-0.23154297703499924,0.09710638019000001,1.6888428048243591,0.43901307374636017,-1.3020286031212203, ,0.028471929660507284,0.01935882120735838,0.010094303878326997,0.0006903816909864922,0.008349557926763783,-0.004757984952668995, ,1.2294809818267822
0.012572838891224972,0.021044205418789406,-0.08652497886741839, ,0.012938963573133061,0.02082840158081992,-0.08693475598709727, ,0.0005903692632556149, ,0.003979949275060238,0.0005234122488589881,-0.00964043016750273,0.0414179488300074,0.04030576606299569,-0.0017590057446213734, ,0.010442789398853396, ,0.05779274331558671, ,5.997649983652696e-05, ,0.1883033956722162,-0.23133446324739518,0.09721267597000001,1.6888428048243591,0.4396962562451874,-1.3025856926397024, ,0.031022210381978024,0.020920842495253698,0.010223884159178435,0.0006840671767379422,0.07400272178362195,-0.05849402710657799, ,1.2411730289459229
0.0126154806062682,0.021049473611313825,-0.08662233515418626, ,0.012996439398605824,0.02083145578718854,-0.08705852877297143, ,0.000618810347493134, ,0.004308197289863999,0.0004887277645781556,-0.009655332749682307,0.0061465886146916515,0.001041544999637667,-0.0031166125668784395, ,0.01058418013940375, ,0.006234202729313414, ,6.083569336974017e-05, ,0.1886123049871852,-0.23112594945979112,0.09731508288000001,1.6888428048243591,0.4401061657444837,-1.3029199463507917, ,0.030760759014091015,0.02100419246535431,0.010132831755725191,0.0006780272660499711,0.032898567678555285,-0.0251364235058195, ,1.2523119449615479
0.012708680641980491,0.021059812351470635,-0.08683000931546506, ,0.013053834376492487,0.020834321070616238,-0.08718170867267006, ,0.0005419131443758701, ,0.0050469376064297905,0.0005172988780149297,-0.01059829392690983,-0.025504443082570803,-0.03362271385100562,-0.00409914883356414, ,0.011750021765663438, ,0.042201461703877036, ,6.150663802344109e-05, ,0.18923784634999738,-0.23067803095308612,0.09753156331000001,1.6888428048243591,0.44037943874401453,-1.303061103418044, ,0.03379520710771751,0.022916431190164403,0.011038677422037424,0.0006660797977201195,0.0,0.0032325570007839775, ,1.2640068531036377
0.012754354703145166,0.021064613503340178,-0.08693725694022773, ,0.013111149022423193,0.020836999251982284,-0.08730429950000318, ,0.0005602059214046177, ,0.00441358939426414,0.0006185762332279517,-0.011288292833448019,0.03842170555530212,0.04048413667908011,-0.0020481231810462164, ,0.0121362252365037, ,0.05581391042686125, ,6.220636935820913e-05, ,0.18956992386358903,-0.23043862623398514,0.09764434054000001,1.6888428048243591,0.44092598474307637,-1.3035067750328297, ,0.03215755389985455,0.024006309526554716,0.01190494134529148,0.0006603072018364321,0.07535660535614051,-0.058435429421017475, ,1.2748079299926758
0.01280242334717309,0.02107135204154132,-0.08705527819258095, ,0.013168383850337542,0.02083949214647885,-0.08742630505616905, ,0.0005703920005739753, ,0.004886658069801787,0.0007186285558740206,-0.011440588135464867,0.03080298451776309,0.02582462967069543,-0.0026740872221306827, ,0.012461256396439966, ,0.040196208239541405, ,6.291622923269289e-05, ,0.18991744684292913,-0.23019149878200995,0.09776878438000002,1.6888428048243591,0.4416091672419035,-1.3039821858111713, ,0.03597306351723684,0.023310474467813997,0.01210396012158055,0.0006545345787238911,0.06408468313024375,-0.05068905691570692, ,1.287071943283081
0.012854119773470745,0.0210777028143141,-0.08716626829662712, ,0.013225539372486822,0.02084180156361834,-0.08754772912977127, ,0.0005823352005813467, ,0.005090904036865774,0.00019846663399966763,-0.010724423522150093,-0.013095528738179072,-0.01577555039545101,-0.0032192218438094372, ,0.01187307680425902, ,0.02050270034284944, ,6.363979659297861e-05, ,0.1902804152880177,-0.229952094062909,0.09788545048000001,1.6890524947678438,0.44188244024143436,-1.3039599853981423, ,0.03566213512155985,0.026686429009693695,0.011170274558204768,6.145794006051502e-05,0.02063250478631071,-0.012013941294219094, ,1.29827880859375
0.012902806222672267,0.02107997921104274,-0.08727378603673011, ,0.013282616099436014,0.02084392930724062,-0.08766857549683439, ,0.0005965180780007533, ,0.00509404191733666,0.00027654456082756536,-0.010893949283340797,-0.03064938238659721,-0.03328420164918917,-0.0035891523096605506, ,0.012029292204352995, ,0.04524624367467344, ,6.438157293056828e-05, ,0.19060477006873514,-0.22968952114518537,0.09799693142000002,1.6890524947678438,0.44201907674119983,-1.3039080458215577, ,0.03333225906514604,0.026006287080973085,0.011281027988668556,6.062014050187675e-05,0.0,0.00531206621422422, ,1.3092329502105713
0.012952975085906737,0.02108191873753468,-0.0873787955257655, ,0.013339614540066247,0.020845877175518186,-0.08778884792082106, ,0.0006110226290431119, ,0.005227283678703242,7.165723670081485e-05,-0.010439489361664575,0.0012883467950681393,-0.012799937066187077,-0.00593425583189394, ,0.011675297321675226, ,0.012864606576571458, ,6.514178010760234e-05, ,0.1909754612466979,-0.22942694822746174,0.09810711607000001,1.6890524947678438,0.4424289862404962,-1.3039972633122252, ,0.03814185753957829,0.02732419854836475,0.010910144876712331,5.7834887308871244e-05,0.02637455151189604,-0.027134915835900674, ,1.3202998638153076
0.013001053405613807,0.021084025909751322,-0.08748658178673564, ,0.01339653520157666,0.02084764696096544,-0.08790855015264844, ,0.0006247704860172544, ,0.004648404646333577,0.0002624113332992883,-0.010921380244692237,0.034052027023615594,0.047121224052338664,0.0011931772070063488, ,0.011872365893664723, ,0.058137338649360465, ,6.591833312591118e-05, ,0.1913538751575349,-0.22915665257686388,0.09822118959000001,1.6890524947678438,0.44324880523908883,-1.3047474494745444, ,0.036123693018070335,0.02678434703880067,0.011550987324147935,5.514241730599578e-05,0.08643678325666354,-0.05600977831697263, ,1.3318119049072266
0.013050926126231474,0.02108614599926479,-0.08759912031734829, ,0.013453378589486926,0.020849240450443573,-0.08802768593070463, ,0.0006338459664572792, ,0.00551481932364107,0.00033143480318684226,-0.011621322620035067,-0.011339455305290522,-0.007355368730802541,-0.0005025825482205018, ,0.01286772010264861, ,0.013516082413743077, ,6.684225466633394e-05, ,0.19171684360262345,-0.22888635692626602,0.09833915198000001,1.6888428048243591,0.44379535123815056,-1.30519312108933, ,0.039213612214244124,0.02749042339469026,0.012177990458715598,-0.0003148183721929631,0.03310242280034725,-0.013786564311573792, ,1.3401029109954834
0.013109401091530786,0.021088572956848184,-0.08771364202786619, ,0.01351014520763911,0.02085065942516812,-0.08814625898086519, ,0.0006358900244335165, ,0.005648458699616695,0.0001650919202637972,-0.011209943702690647,-0.02620585221605105,-0.022461410421859306,-0.0006307311157344026, ,0.012553691841084264, ,0.03451465589413907, ,6.775880889882765e-05, ,0.19211842571208312,-0.22860833854279394,0.09845841066000001,1.6888428048243591,0.44379535123815056,-1.3050297636090489, ,0.040108597446521885,0.028092641077107988,0.011712361411764708,-0.0003148183721929631,0.018320001596413903,-0.00010137544883947504, ,1.3489949703216553
0.013164878675230838,0.021089384133446035,-0.08782392765372972, ,0.01356683555820009,0.020851905660715285,-0.0882642730165091, ,0.0006417705191875006, ,0.00597709502574878,0.0002108340176332056,-0.012027687358850887,-0.03388979416443747,-0.031045280383942584,-0.0013001923918303918, ,0.013432623687578074, ,0.04596006234666842, ,6.867616055675865e-05, ,0.1925200078215428,-0.22832259742644762,0.09857378047000001,1.6888428048243591,0.44406862423768145,-1.3051709206763011, ,0.04115218627860832,0.02959056487635509,0.012532503162863888,-0.0003148183721929631,0.010484852101726241,0.005750570613841797, ,1.357024908065796
0.013224970914097023,0.02109297652127454,-0.08795688503078941, ,0.013623450141663648,0.020852980927029474,-0.08838173173853615, ,0.0006299827816237387, ,0.005611658233763552,0.00041930224535225016,-0.01338321688200456,0.044624579850317855,0.05493655282571258,0.00028670562930046314, ,0.014518161612831548, ,0.07077695623469894, ,6.955756242776377e-05, ,0.1929602035953736,-0.22800596537860443,0.09871377979000001,1.6888428048243591,0.44475180673650866,-1.3057280101947832, ,0.042383627315082974,0.03135016239130188,0.014158943573333334,-0.0003148183721929631,0.10114054186087316,-0.07060166706314053, ,1.3652558326721191
0.013224970914097023,0.02109297652127454,-0.08795688503078941, ,0.013679989456852632,0.020853886988429486,-0.08849863883538273, ,0.000746795061418349, ,0.005611658233763552,0.00041930224535225016,-0.01338321688200456,0.044624579850317855,0.05493655282571258,0.00028670562930046314, ,0.014518161612831548, ,0.07077695623469894, ,7.066938551481968e-05, ,0.1929602035953736,-0.22800596537860443,0.09871377979000001,1.6888428048243591,0.44475180673650866,-1.3057280101947832, ,0.042383627315082974,0.03135016239130188,0.014158943573333334,-0.0003148183721929631,0.10114054186087316,-0.07060166706314053, ,1.373673915863037
0.013281411577609877,0.021098749173327554,-0.08809286442299868, ,0.013736454000921114,0.020854625603615895,-0.08861499798303875, ,0.0007343591620057844, ,0.006059351856955372,0.0008559456878301791,-0.014407691956563013,0.03127734571324719,0.03492244391920187,-0.00035451145913900173, ,0.015653433344225608, ,0.04688122036942588, ,7.174197484841583e-05, ,0.19337723117058173,-0.22770477879650966,0.09885766798000001,1.6888428048243591,0.44570826223486676,-1.3065079355206581, ,0.043134973435668536,0.029082728028952128,0.015242881837320576,-0.0003148183721929631,0.08111986166198061,-0.055975113982265304, ,1.3820648193359375
0.013378956767451934,0.021114128171182942,-0.0883178886116301, ,0.013792844269356636,0.020855198525677097,-0.08873081284506337, ,0.0006394168031191774, ,0.007046485895769303,0.0009903882177898114,-0.016201412157968328,-0.01920373654933732,-0.025928617531393996,-0.00405629899571585, ,0.017695185452929748, ,0.03226570297216942, ,7.260767051897488e-05, ,0.1940027725333939,-0.22728002848842732,0.09909359276000002,1.6888428048243591,0.44611817173416307,-1.3065971530113258, ,0.04422038283246542,0.0316428614733147,0.016927536153028694,-0.0003148183721929631,0.019050449405502393,-0.010910007323561625, ,1.3906300067901611
0.013448370654218954,0.021121543829413593,-0.08847332339276302, ,0.013849160755982382,0.02085560750209692,-0.08884608707260289, ,0.0006085290435681557, ,0.007073607729662919,0.0006733168917924032,-0.014995003881908886,-0.04156672385416723,-0.04567505369180779,-0.0012410032385544523, ,0.016593354795471065, ,0.06175760927697023, ,7.340017768329785e-05, ,0.1944429683072247,-0.2269633964405841,0.09925562901000001,1.6886331148808746,0.4462548082339285,-1.306545213434741, ,0.045232097978298746,0.03171689223210922,0.015631807183513247,-0.002255384618302844,0.0,0.01038861708070929, ,1.398730993270874
0.013448370654218954,0.021121543829413593,-0.08847332339276302, ,0.013905403952959352,0.02085585427476032,-0.08896082430440513, ,0.0007191157865471137, ,0.007073607729662919,0.0006733168917924032,-0.014995003881908886,-0.04156672385416723,-0.04567505369180779,-0.0012410032385544523, ,0.016593354795471065, ,0.06175760927697023, ,7.440605521051e-05, ,0.1944429683072247,-0.2269633964405841,0.09925562901000001,1.6886331148808746,0.4462548082339285,-1.306545213434741, ,0.045232097978298746,0.03171689223210922,0.015631807183513247,-0.002255384618302844,0.0,0.01038861708070929, ,1.4069979190826416
0.013512995222598839,0.02112608846704241,-0.08861413978588197, ,0.013961574350788406,0.020855940579961853,-0.0890750281668384, ,0.0006975824072050915, ,0.0060984568907821645,0.00022220245644770012,-0.013316435185071031,0.07407338148627883,0.05561982494927581,-0.0051709184529772695, ,0.014648139691393497, ,0.09263061239927256, ,7.55080035976266e-05, ,0.19492177774542663,-0.22663904165986667,0.09940470236000001,1.6886331148808746,0.44707462723252117,-1.3070503633766386, ,0.04785524032197215,0.03301911675660083,0.014158943573333334,-0.0022316032758697866,0.10810351758167822,-0.10271659067111737, ,1.4128179550170898
0.013602162435706572,0.021128734574963316,-0.08880257858903602, ,0.014017672438312671,0.0208558681484109,-0.08918870227390563, ,0.0006294411402367091, ,0.006859736802479436,0.000261794796259636,-0.014200600172349634,0.018589774781649887,0.019536236886647948,0.00012310005319836554, ,0.01577281112451347, ,0.02696745632513894, ,7.646485386370952e-05, ,0.19557821003973572,-0.22618340042028745,0.09959914586000002,1.6886331148808746,0.4483043557304101,-1.3079714457697658, ,0.05135115885198635,0.03454566492845678,0.015055587448015127,-0.002183641746857762,0.0736066367710083,-0.049268763865978, ,1.4231078624725342
0.013602162435706572,0.021128734574963316,-0.08880257858903602, ,0.014073698702719593,0.02085563870523934,-0.08930185022726275, ,0.0007390534310227336, ,0.006859736802479436,0.000261794796259636,-0.014200600172349634,0.018589774781649887,0.019536236886647948,0.00012310005319836554, ,0.01577281112451347, ,0.02696745632513894, ,7.7632431001748e-05, ,0.19557821003973572,-0.22618340042028745,0.09959914586000002,1.6886331148808746,0.4483043557304101,-1.3079714457697658, ,0.05135115885198635,0.03454566492845678,0.015055587448015127,-0.002183641746857762,0.0736066367710083,-0.049268763865978, ,1.428576946258545
0.013669051252574635,0.021131865817986824,-0.08893944253676034, ,0.014129653629542967,0.020855253970008324,-0.08941447561623339, ,0.0007171646189715512, ,0.007131412509294941,0.00020070893456003615,-0.01415787307655015,-0.024278506193734933,-0.017897394125451018,0.001357876369036646, ,0.015853791297536505, ,0.030162261364841757, ,7.874731147192271e-05, ,0.19607246494368608,-0.22584360017382157,0.09974821921000002,1.6886331148808746,0.4487142652297064,-1.3080606632604332, ,0.050210021988608876,0.03470992741714366,0.014858965970149254,-0.002149142617768077,0.03393383636714393,-0.008015308824063847, ,1.4345338344573975
0.013669051252574635,0.021131865817986824,-0.08893944253676034, ,0.014185537702665518,0.020854715656714082,-0.08952658201782697, ,0.0008296404252736134, ,0.007131412509294941,0.00020070893456003615,-0.01415787307655015,-0.024278506193734933,-0.017897394125451018,0.001357876369036646, ,0.015853791297536505, ,0.030162261364841757, ,8.007566285992622e-05, ,0.19607246494368608,-0.22584360017382157,0.09974821921000002,1.6886331148808746,0.4487142652297064,-1.3080606632604332, ,0.050210021988608876,0.03470992741714366,0.014858965970149254,-0.002149142617768077,0.03393383636714393,-0.008015308824063847, ,1.4400358200073242
0.013742025309484936,0.021134847300609015,-0.08908479051156365, ,0.014241351404320613,0.020854025473796545,-0.08963817299675421, ,0.000796504627929945, ,0.007854259078531642,0.000594708336673116,-0.016147766483422487,-0.0016885626766687523,-0.029018831137447243,-0.007441927378517664, ,0.017966452796296432, ,0.02906789821431777, ,8.132832684065475e-05, ,0.19658988804625913,-0.22549607719448145,0.09990118143000001,1.6886331148808746,0.44912417472900273,-1.308149880751101, ,0.05280853731690082,0.03539609905202192,0.01694554417021277,-0.002116094121094264,0.025274980645007813,-0.032769481571916365, ,1.4455249309539795
0.013742025309484936,0.021134847300609015,-0.08908479051156365, ,0.014297095215094764,0.020853185124144063,-0.08974925210544339, ,0.0009104643823378733, ,0.007854259078531642,0.000594708336673116,-0.016147766483422487,-0.0016885626766687523,-0.029018831137447243,-0.007441927378517664, ,0.017966452796296432, ,0.02906789821431777, ,8.279461650468723e-05, ,0.19658988804625913,-0.22549607719448145,0.09990118143000001,1.6886331148808746,0.44912417472900273,-1.308149880751101, ,0.05280853731690082,0.03539609905202192,0.01694554417021277,-0.002116094121094264,0.025274980645007813,-0.032769481571916365, ,1.4510178565979004
0.013824378921117634,0.021141423926185298,-0.08926984128158494, ,0.01435276961392952,0.02085219630510271,-0.08985982288405826, ,0.0008431652461435479, ,0.00792020072955465,0.0006760703937116977,-0.018636003845537267,0.04323855254622846,0.03447495190085478,-0.004940301276457827, ,0.020260485929625954, ,0.05530002248667404, ,8.411800715533992e-05, ,0.19714592481320328,-0.22508677235214755,0.10009562493000002,1.6886331148808746,0.44980735722782994,-1.3086252915294423, ,0.05394936984563433,0.04099219937730919,0.019616762955665026,-0.002082386770583112,0.0923352926139671,-0.08003036781159456, ,1.457953929901123
0.013906129150786525,0.02114949223029427,-0.08946111881176784, ,0.014408375078123982,0.02085106070848064,-0.08996988886051274, ,0.0007746994947971446, ,0.008099712473165639,0.0009229156208901339,-0.018401314806542928,0.06534796111618948,0.036908874570067425,-0.00999606245567407, ,0.020126239141994066, ,0.07505077570723348, ,8.529789719519685e-05, ,0.1977174070458959,-0.22468519024268788,0.10029784617000001,1.68842342493739,0.45090044922595346,-1.3094349560188732, ,0.05658732352920142,0.03786789367855977,0.01949670932680539,-0.0002791211981330663,0.0972403978629358,-0.09908665617888149, ,1.463697910308838
0.013906129150786525,0.02114949223029427,-0.08946111881176784, ,0.014463912083336722,0.020849780020555733,-0.09007945355048816, ,0.0008850350601072134, ,0.008099712473165639,0.0009229156208901339,-0.018401314806542928,0.06534796111618948,0.036908874570067425,-0.00999606245567407, ,0.020126239141994066, ,0.07505077570723348, ,8.668246941557827e-05, ,0.1977174070458959,-0.22468519024268788,0.10029784617000001,1.68842342493739,0.45090044922595346,-1.3094349560188732, ,0.05658732352920142,0.03786789367855977,0.01949670932680539,-0.0002791211981330663,0.0972403978629358,-0.09908665617888149, ,1.4691908359527588
0.013990651621990731,0.021155415240930023,-0.0896485723612616, ,0.014519381103588016,0.02084835592208337,-0.09018852045744999, ,0.0008157108780555581, ,0.008987300573631889,0.00045502995647452954,-0.01919701961174101,-0.019695444065425057,-0.022742036566530666,0.0031855415040443064, ,0.021201513762834537, ,0.030085015156378934, ,8.792251949130105e-05, ,0.1982888892785885,-0.2242836081332282,0.10049488225000001,1.6880040450504212,0.45158363172478067,-1.3101554030176363, ,0.05908900470639525,0.04391343894422526,0.020086773669609086,-0.008798910908115049,0.0396908788895851,-0.023042051709279393, ,1.474740982055664
0.013990651621990731,0.021155415240930023,-0.0896485723612616, ,0.01457478261126201,0.020846790088301922,-0.09029709307266393, ,0.0009257632583871209, ,0.008987300573631889,0.00045502995647452954,-0.01919701961174101,-0.019695444065425057,-0.022742036566530666,0.0031855415040443064, ,0.021201513762834537, ,0.030085015156378934, ,8.936466991323282e-05, ,0.1982888892785885,-0.2242836081332282,0.10049488225000001,1.6880040450504212,0.45158363172478067,-1.3101554030176363, ,0.05908900470639525,0.04391343894422526,0.020086773669609086,-0.008798910908115049,0.0396908788895851,-0.023042051709279393, ,1.4801700115203857
0.014081065102586502,0.021160315631042047,-0.08984170205236644, ,0.014630117077108947,0.020845084188940623,-0.09040517487521255, ,0.0008475438365668756, ,0.009810699270081909,0.0009556059099249362,-0.02103789832027689,-0.01092614344024668,-0.017210105229906836,-0.019037900372371543, ,0.02323265306755512, ,0.02038539210843249, ,9.064592373840602e-05, ,0.1988835397099038,-0.22385113509227164,0.10069710349000001,1.6877943551069365,0.45199354122407703,-1.310407977988585, ,0.06407626033657716,0.04417920929165306,0.022123349333333337,0.014553584633517939,0.04521348668088049,-0.0273431003771515, ,1.4856150150299072
0.014081065102586502,0.021160315631042047,-0.08984170205236644, ,0.01468538497024731,0.020843239888225267,-0.09051276933201138, ,0.0009571158879375344, ,0.009810699270081909,0.0009556059099249362,-0.02103789832027689,-0.01092614344024668,-0.017210105229906836,-0.019037900372371543, ,0.02323265306755512, ,0.02038539210843249, ,9.212650396829291e-05, ,0.1988835397099038,-0.22385113509227164,0.10069710349000001,1.6877943551069365,0.45199354122407703,-1.310407977988585, ,0.06407626033657716,0.04417920929165306,0.022123349333333337,0.014553584633517939,0.04521348668088049,-0.0273431003771515, ,1.4913198947906494
0.014165625223496608,0.021168760333722805,-0.09002543818551217, ,0.014740586758165947,0.020841258844885725,-0.09061987989782563, ,0.000889493642966594, ,0.009701884031850024,0.000941726424015871,-0.02100092536833581,-0.005047402206351093,-0.011262158424307923,-0.019271504028235357, ,0.023152802611164956, ,0.012341328794176732, ,9.346726563184805e-05, ,0.19943185374397374,-0.22347272118143463,0.1008902507,1.6877943551069365,0.45240345072337335,-1.3107422316996744, ,0.06318038718939466,0.04407661010611741,0.022092665076282943,0.014553584633517939,0.0504653987315545,-0.03293624852178112, ,1.4976170063018799
0.014165625223496608,0.021168760333722805,-0.09002543818551217, ,0.014795722906726252,0.020839142712163302,-0.09072651001528761, ,0.0009985852879742384, ,0.009701884031850024,0.000941726424015871,-0.02100092536833581,-0.005047402206351093,-0.011262158424307923,-0.019271504028235357, ,0.023152802611164956, ,0.012341328794176732, ,9.518475713534405e-05, ,0.19943185374397374,-0.22347272118143463,0.1008902507,1.6877943551069365,0.45240345072337335,-1.3107422316996744, ,0.06318038718939466,0.04407661010611741,0.022092665076282943,0.014553584633517939,0.0504653987315545,-0.03293624852178112, ,1.5007460117340088
0.014259574460980261,0.02117343723800364,-0.09021743231675408, ,0.014850793880164382,0.020836893137816045,-0.09083266311491076, ,0.0009172302153723376, ,0.009808379335022021,0.0002079898963603346,-0.019448198886905587,-0.009161602518828013,-0.0169707229977019,-0.02041749690410807, ,0.02178256194577008, ,0.019285684263792575, ,9.674166141230805e-05, ,0.20007284057253438,-0.22303252540760385,0.10109247194000001,1.6877943551069365,0.4529499967224351,-1.31118790331446, ,0.06725509678134002,0.04792774826185393,0.02044776831835687,0.014553584633517939,0.04878063937209347,-0.03269467267271847, ,1.5036308765411377
0.014259574460980261,0.02117343723800364,-0.09021743231675408, ,0.014905800141093448,0.020834511764126755,-0.09093834261510868, ,0.0010257630158833644, ,0.009808379335022021,0.0002079898963603346,-0.019448198886905587,-0.009161602518828013,-0.0169707229977019,-0.02041749690410807, ,0.02178256194577008, ,0.019285684263792575, ,9.849784544722498e-05, ,0.20007284057253438,-0.22303252540760385,0.10109247194000001,1.6877943551069365,0.4529499967224351,-1.31118790331446, ,0.06725509678134002,0.04792774826185393,0.02044776831835687,0.014553584633517939,0.04878063937209347,-0.03269467267271847, ,1.5064198970794678
0.014259574460980261,0.02117343723800364,-0.09021743231675408, ,0.014960742150505559,0.020832000227909403,-0.09104355192221014, ,0.0011360849278179925, ,0.009808379335022021,0.0002079898963603346,-0.019448198886905587,-0.009161602518828013,-0.0169707229977019,-0.02041749690410807, ,0.02178256194577008, ,0.019285684263792575, ,0.00010045555692339623, ,0.20007284057253438,-0.22303252540760385,0.10109247194000001,1.6877943551069365,0.4529499967224351,-1.31118790331446, ,0.06725509678134002,0.04792774826185393,0.02044776831835687,0.014553584633517939,0.04878063937209347,-0.03269467267271847, ,1.5092239379882812
0.014377574837078615,0.021175654792510244,-0.09045187961394753, ,0.015015620367774167,0.02082936016051608,-0.0911482944304759, ,0.0010059898946156354, ,0.010537538198469568,0.0005113249084069357,-0.02164029902788743,-0.015772643521278273,-0.02551265309387064,-0.021279957244210654, ,0.024074960154952453, ,0.02999444958092394, ,0.0005592519078764499, ,0.20007284057253438,-0.22303252540760385,0.10109247194000001,1.6877943551069365,0.4529499967224351,-1.31118790331446, ,0.06725509678134002,0.04792774826185393,0.02044776831835687,0.014553584633517939,0.04878063937209347,-0.03269467267271847, ,1.5120668411254883
0.014377574837078615,0.021175654792510244,-0.09045187961394753, ,0.015070435250655993,0.02082659318784368,-0.09125257352211517, ,0.0011149037138389062, ,0.010537538198469568,0.0005113249084069357,-0.02164029902788743,-0.015772643521278273,-0.02551265309387064,-0.021279957244210654, ,0.024074960154952453, ,0.02999444958092394, ,0.0005649218242638219, ,0.20087600479145373,-0.22246104317491122,0.10133876704000001,1.6877943551069365,0.45349654272149686,-1.3116335749292458, ,0.06931843795359444,0.04984083065045734,0.02272298362339515,0.014553584633517939,0.04207276387679251,-0.028258039945243844, ,1.5150070190429688
0.014377574837078615,0.021175654792510244,-0.09045187961394753, ,0.015125187255293463,0.02082370093034077,-0.09135639256730237, ,0.001225128373580397, ,0.010537538198469568,0.0005113249084069357,-0.02164029902788743,-0.015772643521278273,-0.02551265309387064,-0.021279957244210654, ,0.024074960154952453, ,0.02999444958092394, ,0.0005715905772872217, ,0.20087600479145373,-0.22246104317491122,0.10133876704000001,1.6877943551069365,0.45349654272149686,-1.3116335749292458, ,0.06931843795359444,0.04984083065045734,0.02272298362339515,0.014553584633517939,0.04207276387679251,-0.028258039945243844, ,1.5177669525146484
0.014377574837078615,0.021175654792510244,-0.09045187961394753, ,0.01517987683621675,0.020820685003014004,-0.09145975492419266, ,0.0013362277838294496, ,0.010537538198469568,0.0005113249084069357,-0.02164029902788743,-0.015772643521278273,-0.02551265309387064,-0.021279957244210654, ,0.024074960154952453, ,0.02999444958092394, ,0.0005792369493526439, ,0.20087600479145373,-0.22246104317491122,0.10133876704000001,1.6877943551069365,0.45349654272149686,-1.3116335749292458, ,0.06931843795359444,0.04984083065045734,0.02272298362339515,0.014553584633517939,0.04207276387679251,-0.028258039945243844, ,1.520495891571045
0.014496658301976727,0.021182751037117982,-0.09071483272414128, ,0.015234504446345852,0.020817547015435693,-0.09156266393893972, ,0.0011817819930088176, ,0.012678890625853296,0.001365896130251024,-0.029719119313984226,0.050893341813672416,0.046941019105099964,-0.022077841314508417, ,0.032339542243819956, ,0.0692356001783228, ,0.0005852027418640913, ,0.20164827807887617,-0.22187411547647015,0.10161487681,1.6877943551069365,0.4543163617200895,-1.3122204036112837, ,0.08194899961871396,0.06098775164426143,0.03135592818897638,0.014553584633517939,0.1303389908460349,-0.10220892698514698, ,1.523291826248169
0.014496658301976727,0.021182751037117982,-0.09071483272414128, ,0.015289070536992912,0.020814288571750102,-0.09166512294571064, ,0.001291020233690646, ,0.012678890625853296,0.001365896130251024,-0.029719119313984226,0.050893341813672416,0.046941019105099964,-0.022077841314508417, ,0.032339542243819956, ,0.0692356001783228, ,0.0005921225211957241, ,0.20164827807887617,-0.22187411547647015,0.10161487681,1.6877943551069365,0.4543163617200895,-1.3122204036112837, ,0.08194899961871396,0.06098775164426143,0.03135592818897638,0.014553584633517939,0.1303389908460349,-0.10220892698514698, ,1.526007890701294
0.014496658301976727,0.021182751037117982,-0.09071483272414128, ,0.015343575557864406,0.020810911270680257,-0.09176713526670406, ,0.0014010261565398638, ,0.012678890625853296,0.001365896130251024,-0.029719119313984226,0.050893341813672416,0.046941019105099964,-0.022077841314508417, ,0.032339542243819956, ,0.0692356001783228, ,0.0005999759545485798, ,0.20164827807887617,-0.22187411547647015,0.10161487681,1.6877943551069365,0.4543163617200895,-1.3122204036112837, ,0.08194899961871396,0.06098775164426143,0.03135592818897638,0.014553584633517939,0.1303389908460349,-0.10220892698514698, ,1.528756856918335
0.014496658301976727,0.021182751037117982,-0.09071483272414128, ,0.015398019957063072,0.020807416705535063,-0.09186870421216542, ,0.0015115383238938481, ,0.012678890625853296,0.001365896130251024,-0.029719119313984226,0.050893341813672416,0.046941019105099964,-0.022077841314508417, ,0.032339542243819956, ,0.0692356001783228, ,0.0006087409773307458, ,0.20249777869504088,-0.22126401957940642,0.10196617140000001,1.6877943551069365,0.4559559997172748,-1.313557418455641, ,0.08738208246636352,0.06162139062238363,0.037043747720930234,0.014553584633517939,0.1530131778254225,-0.12113552800063901, ,1.531677007675171
0.014630846842765069,0.02120393662481142,-0.09104692707997365, ,0.015452404181090286,0.020803806464215705,-0.09196983308040373, ,0.001298774842381929, ,0.014148382162286978,0.0025170664485614632,-0.035022173861898556,0.07011825912796263,0.0633937865910378,-0.022018793812524237, ,0.0378558450352075, ,0.09452666159886829, ,0.0006153127284264714, ,0.20249777869504088,-0.22126401957940642,0.10196617140000001,1.6877943551069365,0.4559559997172748,-1.313557418455641, ,0.08738208246636352,0.06162139062238363,0.037043747720930234,0.014553584633517939,0.1530131778254225,-0.12113552800063901, ,1.5346028804779053
0.014630846842765069,0.02120393662481142,-0.09104692707997365, ,0.015506728674848223,0.02080008212922274,-0.09207052515780809, ,0.001406421153967359, ,0.014148382162286978,0.0025170664485614632,-0.035022173861898556,0.07011825912796263,0.0633937865910378,-0.022018793812524237, ,0.0378558450352075, ,0.09452666159886829, ,0.000622776015459876, ,0.20249777869504088,-0.22126401957940642,0.10196617140000001,1.6877943551069365,0.4559559997172748,-1.313557418455641, ,0.08738208246636352,0.06162139062238363,0.037043747720930234,0.014553584633517939,0.1530131778254225,-0.12113552800063901, ,1.5398578643798828
0.014786446109989517,0.021231420560637825,-0.09142398648364888, ,0.015560993881641972,0.020796245277663352,-0.09217078371886454, ,0.0011606066896280793, ,0.016221690595616484,0.0027589103248666126,-0.03910685079421105,0.011431774528076073,-0.004435611911393443,-5.2246624490104804e-05, ,0.04242759256664527, ,0.012258411599148472, ,0.0006278024703586443, ,0.20336272477695402,-0.22065392368234268,0.10233431776000002,1.6880040450504212,0.45704909171539826,-1.314448761685212, ,0.09442481747111521,0.06678180264494778,0.04105363793814434,-0.011233281957750349,0.09962088817900115,-0.07798258321750295, ,1.5443048477172852
0.014786446109989517,0.021231420560637825,-0.09142398648364888, ,0.015615200243181566,0.02079229748125681,-0.09227061202617132, ,0.0012635019989613685, ,0.016221690595616484,0.0027589103248666126,-0.03910685079421105,0.011431774528076073,-0.004435611911393443,-5.2246624490104804e-05, ,0.04242759256664527, ,0.012258411599148472, ,0.0006336885771049658, ,0.20336272477695402,-0.22065392368234268,0.10233431776000002,1.6880040450504212,0.45704909171539826,-1.314448761685212, ,0.09442481747111521,0.06678180264494778,0.04105363793814434,-0.011233281957750349,0.09962088817900115,-0.07798258321750295, ,1.5471079349517822
0.014786446109989517,0.021231420560637825,-0.09142398648364888, ,0.015669348199584498,0.020788240306342548,-0.09237001333045661, ,0.0013678054073914805, ,0.016221690595616484,0.0027589103248666126,-0.03910685079421105,0.011431774528076073,-0.004435611911393443,-5.2246624490104804e-05, ,0.04242759256664527, ,0.012258411599148472, ,0.0006404235938965852, ,0.20336272477695402,-0.22065392368234268,0.10233431776000002,1.6880040450504212,0.45704909171539826,-1.314448761685212, ,0.09442481747111521,0.06678180264494778,0.04105363793814434,-0.011233281957750349,0.09962088817900115,-0.07798258321750295, ,1.5498559474945068
0.014951513881128732,0.021258151797511553,-0.09181911548858916, ,0.015723438189377544,0.020784075313886548,-0.09246899087059456, ,0.0011148783171845765, ,0.016665070667862956,0.0027238203684515757,-0.03983515101982653,-0.02009287393253155,-0.03808489280545566,0.000547389951191237, ,0.04326641924792072, ,0.04305905637166252, ,0.0006447368186537488, ,0.20437440278347743,-0.21993570952503982,0.10277894523000002,1.687584665163452,0.45786891071399094,-1.3151172691073907, ,0.09395736787967403,0.06832033229551533,0.04180790425196851,-0.012987626846065367,0.060836176439571295,-0.04677123669995646, ,1.552562952041626
0.014951513881128732,0.021258151797511553,-0.09181911548858916, ,0.015777470649499015,0.02077980405948835,-0.09256754787362126, ,0.0012129188664760015, ,0.016665070667862956,0.0027238203684515757,-0.03983515101982653,-0.02009287393253155,-0.03808489280545566,0.000547389951191237, ,0.04326641924792072, ,0.04305905637166252, ,0.0006498555758413366, ,0.20437440278347743,-0.21993570952503982,0.10277894523000002,1.687584665163452,0.45786891071399094,-1.3151172691073907, ,0.09395736787967403,0.06832033229551533,0.04180790425196851,-0.012987626846065367,0.060836176439571295,-0.04677123669995646, ,1.5553169250488281
0.014951513881128732,0.021258151797511553,-0.09181911548858916, ,0.015831446015301044,0.02077542809338749,-0.09266568755475187, ,0.0013130068539346186, ,0.016665070667862956,0.0027238203684515757,-0.03983515101982653,-0.02009287393253155,-0.03808489280545566,0.000547389951191237, ,0.04326641924792072, ,0.04305905637166252, ,0.0006557765693957409, ,0.20437440278347743,-0.21993570952503982,0.10277894523000002,1.687584665163452,0.45786891071399094,-1.3151172691073907, ,0.09395736787967403,0.06832033229551533,0.04180790425196851,-0.012987626846065367,0.060836176439571295,-0.04677123669995646, ,1.558095932006836
0.014951513881128732,0.021258151797511553,-0.09181911548858916, ,0.015885364720551708,0.02077094896047013,-0.09276341311739658, ,0.001414617265016768, ,0.016665070667862956,0.0027238203684515757,-0.03983515101982653,-0.02009287393253155,-0.03808489280545566,0.000547389951191237, ,0.04326641924792072, ,0.04305905637166252, ,0.0006624919737817676, ,0.20437440278347743,-0.21993570952503982,0.10277894523000002,1.687584665163452,0.45786891071399094,-1.3151172691073907, ,0.09395736787967403,0.06832033229551533,0.04180790425196851,-0.012987626846065367,0.060836176439571295,-0.04677123669995646, ,1.5608429908752441
0.015124550391706305,0.02127812667765419,-0.09221516159430929, ,0.015939227197436998,0.020766368200277233,-0.09286072775317755, ,0.0011585985941812095, ,0.017103680831508154,0.0009196722736782357,-0.03669592065416976,-0.009358915331042543,-0.031031358174445196,0.02367982212389018, ,0.04049657130837368, ,0.03241092324175607, ,0.0006668437862414119, ,0.20540152625574928,-0.21919432716911427,0.10319505432000001,1.687165285276483,0.45868872971258356,-1.3157040977894288, ,0.10698640536467957,0.0783624620631468,0.038568550895883784,-0.03972059948300319,0.08765061567043964,-0.07169926227656402, ,1.5635738372802734
0.015124550391706305,0.02127812667765419,-0.09221516159430929, ,0.015993033876563274,0.020761687347009058,-0.09295763464194458, ,0.0012538896969715224, ,0.017103680831508154,0.0009196722736782357,-0.03669592065416976,-0.009358915331042543,-0.031031358174445196,0.02367982212389018, ,0.04049657130837368, ,0.03241092324175607, ,0.000671948533291239, ,0.20540152625574928,-0.21919432716911427,0.10319505432000001,1.687165285276483,0.45868872971258356,-1.3157040977894288, ,0.10698640536467957,0.0783624620631468,0.038568550895883784,-0.03972059948300319,0.08765061567043964,-0.07169926227656402, ,1.5662758350372314
0.015124550391706305,0.02127812667765419,-0.09221516159430929, ,0.016046785186959272,0.020756907929534402,-0.09305413695179254, ,0.0013513199663406888, ,0.017103680831508154,0.0009196722736782357,-0.03669592065416976,-0.009358915331042543,-0.031031358174445196,0.02367982212389018, ,0.04049657130837368, ,0.03241092324175607, ,0.0006778051835761481, ,0.20540152625574928,-0.21919432716911427,0.10319505432000001,1.687165285276483,0.45868872971258356,-1.3157040977894288, ,0.10698640536467957,0.0783624620631468,0.038568550895883784,-0.03972059948300319,0.08765061567043964,-0.07169926227656402, ,1.5689609050750732
0.015283459521642825,0.021278525120682942,-0.09254277471110818, ,0.01610048155607818,0.020752031471395933,-0.09315023783907699, ,0.001146181494936156, ,0.016763429588966136,-0.0003489281592271949,-0.03314142304214737,0.04096884140671853,0.024350208226986553,-0.047007565746839446, ,0.03714146259509854, ,0.04765856298412952, ,0.0006818083999125584, ,0.2064440951937696,-0.21840660841594337,0.10353986746,1.6869555953329984,0.45978182171070714,-1.3165137622788596, ,0.1141960788910599,0.08611337709480106,0.03500837696703297,0.03288394870253733,0.1361449668547385,-0.11324135641558895, ,1.5760729312896729
0.015283459521642825,0.021278525120682942,-0.09254277471110818, ,0.016154123409800093,0.02074705949081673,-0.09324594044843074, ,0.0012389323532843084, ,0.016763429588966136,-0.0003489281592271949,-0.03314142304214737,0.04096884140671853,0.024350208226986553,-0.047007565746839446, ,0.03714146259509854, ,0.04765856298412952, ,0.0006865297893479121, ,0.2064440951937696,-0.21840660841594337,0.10353986746,1.6869555953329984,0.45978182171070714,-1.3165137622788596, ,0.1141960788910599,0.08611337709480106,0.03500837696703297,0.03288394870253733,0.1361449668547385,-0.11324135641558895, ,1.5811808109283447
0.015466170190446299,0.021268665590564367,-0.09287912439801307, ,0.016207711172433786,0.02074199350070905,-0.09334124791278149, ,0.0010202081459689725, ,0.016763429588966136,-0.0003489281592271949,-0.03314142304214737,0.04096884140671853,0.024350208226986553,-0.047007565746839446, ,0.03714146259509854, ,0.04765856298412952, ,0.0006893338091514504, ,0.20774151431663931,-0.21747988047103642,0.10389634721,1.6869555953329984,0.46128482320812697,-1.3177393592195201, ,0.1255250549715222,0.08420314246536893,0.030514964597701155,0.027098798324116304,0.13085445240319776,-0.10881004410785884, ,1.584054946899414
0.015466170190446299,0.021268665590564367,-0.09287912439801307, ,0.01626124526671925,0.02073683500867839,-0.09343616335336587, ,0.001106923909995691, ,0.017032604850077727,-0.0012240878181044167,-0.02862678626997866,0.03707664815917476,0.00665634239282347,-0.04138519159502863, ,0.03333318033300096, ,0.03766915857726252, ,0.0006928137266584857, ,0.20774151431663931,-0.21747988047103642,0.10389634721,1.6869555953329984,0.46128482320812697,-1.3177393592195201, ,0.1255250549715222,0.08420314246536893,0.030514964597701155,0.027098798324116304,0.13085445240319776,-0.10881004410785884, ,1.587129831314087
0.015466170190446299,0.021268665590564367,-0.09287912439801307, ,0.016314726113829576,0.02073158551703341,-0.0935306898797488, ,0.0011970963776916108, ,0.017032604850077727,-0.0012240878181044167,-0.02862678626997866,0.03707664815917476,0.00665634239282347,-0.04138519159502863, ,0.03333318033300096, ,0.03766915857726252, ,0.0006969813518736354, ,0.20774151431663931,-0.21747988047103642,0.10389634721,1.6869555953329984,0.46128482320812697,-1.3177393592195201, ,0.1255250549715222,0.08420314246536893,0.030514964597701155,0.027098798324116304,0.13085445240319776,-0.10881004410785884, ,1.590090036392212
0.015618050102559877,0.021251176762549312,-0.09310682350466293, ,0.01636815413337326,0.020726246522788917,-0.09362483058983681, ,0.0010519216481980646, ,0.015634727109840752,-0.0030137057116254137,-0.02037714729575677,-0.05985708752362321,-0.09677656992992681,-0.004981851328418776, ,0.025860302508447973, ,0.11379179188719653, ,0.0006998906985648193, ,0.20887675604915032,-0.21673077538223665,0.10413875344000001,1.687165285276483,0.4619680057069542,-1.3184598062182833, ,0.11966827434863908,0.08069467819597856,0.021583755447154476,-0.011490903675148396,0.026265615827763426,-0.020307612367174894, ,1.5928690433502197
0.015618050102559877,0.021251176762549312,-0.09310682350466293, ,0.016421529743396394,0.02072081951767703,-0.09371858856989769, ,0.0011406642080248627, ,0.015634727109840752,-0.0030137057116254137,-0.02037714729575677,-0.05985708752362321,-0.09677656992992681,-0.004981851328418776, ,0.025860302508447973, ,0.11379179188719653, ,0.0007034742230319741, ,0.20887675604915032,-0.21673077538223665,0.10413875344000001,1.687165285276483,0.4619680057069542,-1.3184598062182833, ,0.11966827434863908,0.08069467819597856,0.021583755447154476,-0.011490903675148396,0.026265615827763426,-0.020307612367174894, ,1.5956149101257324
0.015618050102559877,0.021251176762549312,-0.09310682350466293, ,0.01647485336038463,0.02071530598815045,-0.09381196689457452, ,0.001232272903950241, ,0.015634727109840752,-0.0030137057116254137,-0.02037714729575677,-0.05985708752362321,-0.09677656992992681,-0.004981851328418776, ,0.025860302508447973, ,0.11379179188719653, ,0.0007077387285232505, ,0.20887675604915032,-0.21673077538223665,0.10413875344000001,1.687165285276483,0.4619680057069542,-1.3184598062182833, ,0.11966827434863908,0.08069467819597856,0.021583755447154476,-0.011490903675148396,0.026265615827763426,-0.020307612367174894, ,1.6006278991699219
0.015790934989284463,0.02120146823519717,-0.09331680026965071, ,0.0165281253992656,0.020709707415390837,-0.09390496862690298, ,0.001063588464086362, ,0.016810350993936966,-0.005332639821366142,-0.020645477450424228,-0.08891407064293083,-0.11338570718964985,-0.012298099074751916, ,0.027152544763976594, ,0.14409034250214917, ,0.0007105855264077553, ,0.2102282343021396,-0.21570365190996477,0.10435912274,1.687165285276483,0.46224127870648507,-1.318682642025676, ,0.12999581035406957,0.10474276110206487,0.021525420972972976,-0.009333802225087399,0.019270325845552185,-0.014603422440584811, ,1.603423833847046
0.015790934989284463,0.02120146823519717,-0.09331680026965071, ,0.016581346273410905,0.020704025275315268,-0.09399759681832774, ,0.001155717715145457, ,0.016810350993936966,-0.005332639821366142,-0.020645477450424228,-0.08891407064293083,-0.11338570718964985,-0.012298099074751916, ,0.027152544763976594, ,0.14409034250214917, ,0.0007141183215564672, ,0.2102282343021396,-0.21570365190996477,0.10435912274,1.687165285276483,0.46224127870648507,-1.318682642025676, ,0.12999581035406957,0.10474276110206487,0.021525420972972976,-0.009333802225087399,0.019270325845552185,-0.014603422440584811, ,1.606212854385376
0.015790934989284463,0.02120146823519717,-0.09331680026965071, ,0.016634516394638373,0.020698261038584197,-0.09408985450871965, ,0.0012499839705869915, ,0.016810350993936966,-0.005332639821366142,-0.020645477450424228,-0.08891407064293083,-0.11338570718964985,-0.012298099074751916, ,0.027152544763976594, ,0.14409034250214917, ,0.0007183377361157627, ,0.2102282343021396,-0.21570365190996477,0.10435912274,1.687165285276483,0.46224127870648507,-1.318682642025676, ,0.12999581035406957,0.10474276110206487,0.021525420972972976,-0.009333802225087399,0.019270325845552185,-0.014603422440584811, ,1.6090140342712402
0.015790934989284463,0.02120146823519717,-0.09331680026965071, ,0.016687636173214053,0.02069241617060615,-0.09418174472639056, ,0.0013458588079624462, ,0.016810350993936966,-0.005332639821366142,-0.020645477450424228,-0.08891407064293083,-0.11338570718964985,-0.012298099074751916, ,0.027152544763976594, ,0.14409034250214917, ,0.000723240244489565, ,0.2102282343021396,-0.21570365190996477,0.10435912274,1.687165285276483,0.46224127870648507,-1.318682642025676, ,0.12999581035406957,0.10474276110206487,0.021525420972972976,-0.009333802225087399,0.019270325845552185,-0.014603422440584811, ,1.611814022064209
0.015945650175408065,0.021157477319936547,-0.09352645592800432, ,0.016740706017854656,0.020686492131545397,-0.09427327048811074, ,0.001188138387343515, ,0.015512970854569968,-0.0040460676260484435,-0.022454099062088246,0.0373343499232369,0.019495272826440504,-0.011265964290184604, ,0.02759002523846919, ,0.042117854157639426, ,0.0007268441060620761, ,0.2114561488291413,-0.2147383103006867,0.10458078833000001,1.687165285276483,0.46333437070460853,-1.3194106277749664, ,0.12308293327946923,0.09604953599035504,0.023845526227544912,-0.007953998546885905,0.14948698368863952,-0.12698808713038304, ,1.6157708168029785
0.015945650175408065,0.021157477319936547,-0.09352645592800432, ,0.01679372633572945,0.020680490376330518,-0.09436443479912601, ,0.0012841177152124598, ,0.015512970854569968,-0.0040460676260484435,-0.022454099062088246,0.0373343499232369,0.019495272826440504,-0.011265964290184604, ,0.02759002523846919, ,0.042117854157639426, ,0.0007311308261324637, ,0.2114561488291413,-0.2147383103006867,0.10458078833000001,1.687165285276483,0.46333437070460853,-1.3194106277749664, ,0.12308293327946923,0.09604953599035504,0.023845526227544912,-0.007953998546885905,0.14948698368863952,-0.12698808713038304, ,1.6200718879699707
0.016046774633973006,0.021131648660420915,-0.09367149125969751, ,0.016846697532462533,0.020674412354658406,-0.09445524065317304, ,0.0012096300238537791, ,0.016588792783924212,-0.0039377689511650715,-0.023752370486253893,0.03941915796505469,0.016193846938047964,-0.019441960682718223, ,0.02923814587242154, ,0.042615761557205485, ,0.0007347834917639242, ,0.21225931304806064,-0.21412821440362298,0.10473504684000001,1.6869555953329984,0.46429082620296663,-1.3201905531008413, ,0.13107312369954527,0.09823699954293041,0.025324024674085854,0.0,0.15254640677971015,-0.12948284151821268, ,1.6246240139007568
0.016046774633973006,0.021131648660420915,-0.09367149125969751, ,0.01689962001213504,0.02066825951100277,-0.09454569103249578, ,0.0013062541810885712, ,0.016588792783924212,-0.0039377689511650715,-0.023752370486253893,0.03941915796505469,0.016193846938047964,-0.019441960682718223, ,0.02923814587242154, ,0.042615761557205485, ,0.0007391128151678988, ,0.21225931304806064,-0.21412821440362298,0.10473504684000001,1.6869555953329984,0.46429082620296663,-1.3201905531008413, ,0.13107312369954527,0.09823699954293041,0.025324024674085854,0.0,0.15254640677971015,-0.12948284151821268, ,1.6275370121002197
0.016046774633973006,0.021131648660420915,-0.09367149125969751, ,0.016952494177287183,0.02066203328462044,-0.09463578890786276, ,0.001403829208481747, ,0.016588792783924212,-0.0039377689511650715,-0.023752370486253893,0.03941915796505469,0.016193846938047964,-0.019441960682718223, ,0.02923814587242154, ,0.042615761557205485, ,0.0007441106827867998, ,0.21225931304806064,-0.21412821440362298,0.10473504684000001,1.6869555953329984,0.46429082620296663,-1.3201905531008413, ,0.13107312369954527,0.09823699954293041,0.025324024674085854,0.0,0.15254640677971015,-0.12948284151821268, ,1.6305289268493652
0.01629308846310117,0.021082299194007392,-0.0940341143960813, ,0.017005320428920567,0.020655735109559096,-0.0947255372385831, ,0.0010804151231861982, ,0.01880287912158115,-0.0029072318104693706,-0.030037935031484643,-0.04218068551386252,-0.06040436760865031,0.0008322675579068739, ,0.03555668433665166, ,0.07367410265890191, ,0.0007466204174166461, ,0.21411276893787454,-0.21276901341775947,0.10512004497,1.6865362154460295,0.46579382770038646,-1.321579507521783, ,0.13253762787495918,0.09999677719543813,0.03173070023904383,-0.01954817349769438,0.07889382487443322,-0.05616446371435036, ,1.633491039276123
0.01629308846310117,0.021082299194007392,-0.0940341143960813, ,0.0170580991665002,0.02064936641466148,-0.09481493897252241, ,0.0011757377202938175, ,0.01880287912158115,-0.0029072318104693706,-0.030037935031484643,-0.04218068551386252,-0.06040436760865031,0.0008322675579068739, ,0.03555668433665166, ,0.07367410265890191, ,0.0007497990641046251, ,0.21411276893787454,-0.21276901341775947,0.10512004497,1.6865362154460295,0.46579382770038646,-1.321579507521783, ,0.13253762787495918,0.09999677719543813,0.03173070023904383,-0.01954817349769438,0.07889382487443322,-0.05616446371435036, ,1.6362249851226807
0.01629308846310117,0.021082299194007392,-0.0940341143960813, ,0.01711083078795667,0.020642928623576383,-0.09490399704612082, ,0.001272181132095872, ,0.01880287912158115,-0.0029072318104693706,-0.030037935031484643,-0.04218068551386252,-0.06040436760865031,0.0008322675579068739, ,0.03555668433665166, ,0.07367410265890191, ,0.0007536401087222079, ,0.21411276893787454,-0.21276901341775947,0.10512004497,1.6865362154460295,0.46579382770038646,-1.321579507521783, ,0.13253762787495918,0.09999677719543813,0.03173070023904383,-0.01954817349769438,0.07889382487443322,-0.05616446371435036, ,1.6389329433441162
0.01629308846310117,0.021082299194007392,-0.0940341143960813, ,0.017163515689688526,0.020636423154760816,-0.09499271438440687, ,0.0013694389131233898, ,0.01880287912158115,-0.0029072318104693706,-0.030037935031484643,-0.04218068551386252,-0.06040436760865031,0.0008322675579068739, ,0.03555668433665166, ,0.07367410265890191, ,0.000758134990506158, ,0.21411276893787454,-0.21276901341775947,0.10512004497,1.6865362154460295,0.46579382770038646,-1.321579507521783, ,0.13253762787495918,0.09999677719543813,0.03173070023904383,-0.01954817349769438,0.07889382487443322,-0.05616446371435036, ,1.6416878700256348
0.016484828806062668,0.02105450891259465,-0.09434757842434668, ,0.01721615426656402,0.020629851421491138,-0.0950810939010169, ,0.0011194712450271276, ,0.019938337719678182,-0.0024559168071188603,-0.03303305700191288,-0.06118057460192609,-0.08324651870982941,0.003782720019589341, ,0.038662018742934984, ,0.10331024273578471, ,0.0007607533691621072, ,0.2154333562593669,-0.21175733541123606,0.10545059892000001,1.686326525502545,0.46647701019921367,-1.3221365970402652, ,0.1347967919864642,0.10127741895247683,0.034855167439824954,-0.02360201415874376,0.05844324946193526,-0.04010664112787714, ,1.644446849822998
0.016484828806062668,0.02105450891259465,-0.09434757842434668, ,0.0172687469119237,0.02062321483186591,-0.09516913849820882, ,0.0012147029001911367, ,0.019938337719678182,-0.0024559168071188603,-0.03303305700191288,-0.06118057460192609,-0.08324651870982941,0.003782720019589341, ,0.038662018742934984, ,0.10331024273578471, ,0.0007640191931263448, ,0.2154333562593669,-0.21175733541123606,0.10545059892000001,1.686326525502545,0.46647701019921367,-1.3221365970402652, ,0.1347967919864642,0.10127741895247683,0.034855167439824954,-0.02360201415874376,0.05844324946193526,-0.04010664112787714, ,1.6471929550170898
0.016484828806062668,0.02105450891259465,-0.09434757842434668, ,0.01732129401758234,0.020616514788816213,-0.09525685106688071, ,0.0013108354744238134, ,0.019938337719678182,-0.0024559168071188603,-0.03303305700191288,-0.06118057460192609,-0.08324651870982941,0.003782720019589341, ,0.038662018742934984, ,0.10331024273578471, ,0.000767925023707041, ,0.2154333562593669,-0.21175733541123606,0.10545059892000001,1.686326525502545,0.46647701019921367,-1.3221365970402652, ,0.1347967919864642,0.10127741895247683,0.034855167439824954,-0.02360201415874376,0.05844324946193526,-0.04010664112787714, ,1.6499049663543701
0.016682924563828694,0.02103177714333925,-0.09468166028260502, ,0.017373795973831044,0.020609752690109794,-0.09534423448658552, ,0.0010461417303896492, ,0.01963007899373786,-0.0023436984242301236,-0.03367269783058342,-0.005660836651407257,-0.020915851616829725,0.0044452831007562145, ,0.0390471958377795, ,0.02166736325106981, ,0.0007698981918395418, ,0.21678483451235622,-0.21074565740471266,0.10580448609000001,1.686326525502545,0.46743346569757177,-1.32291652236614, ,0.1346055908630791,0.10127741895247683,0.03571482403587444,-0.02360201415874376,0.12273583742469499,-0.0930977574653164, ,1.6528348922729492
0.016682924563828694,0.02103177714333925,-0.09468166028260502, ,0.0174262531694396,0.02060292992835956,-0.09543129162554904, ,0.0011394711492790637, ,0.01963007899373786,-0.0023436984242301236,-0.03367269783058342,-0.005660836651407257,-0.020915851616829725,0.0044452831007562145, ,0.0390471958377795, ,0.02166736325106981, ,0.0007725008183003836, ,0.21678483451235622,-0.21074565740471266,0.10580448609000001,1.686326525502545,0.46743346569757177,-1.32291652236614, ,0.1346055908630791,0.10127741895247683,0.03571482403587444,-0.02360201415874376,0.12273583742469499,-0.0930977574653164, ,1.6556370258331299
0.016682924563828694,0.02103177714333925,-0.09468166028260502, ,0.017478665991658496,0.02059604789102996,-0.09551802534068532, ,0.001233925002445563, ,0.01963007899373786,-0.0023436984242301236,-0.03367269783058342,-0.005660836651407257,-0.020915851616829725,0.0044452831007562145, ,0.0390471958377795, ,0.02166736325106981, ,0.0007757275608468534, ,0.21678483451235622,-0.21074565740471266,0.10580448609000001,1.686326525502545,0.46743346569757177,-1.32291652236614, ,0.1346055908630791,0.10127741895247683,0.03571482403587444,-0.02360201415874376,0.12273583742469499,-0.0930977574653164, ,1.6584010124206543
0.016682924563828694,0.02103177714333925,-0.09468166028260502, ,0.017531034826221127,0.02058910796044291,-0.09560443847761298, ,0.0013291977354192308, ,0.01963007899373786,-0.0023436984242301236,-0.03367269783058342,-0.005660836651407257,-0.020915851616829725,0.0044452831007562145, ,0.0390471958377795, ,0.02166736325106981, ,0.0007795711037258282, ,0.21678483451235622,-0.21074565740471266,0.10580448609000001,1.686326525502545,0.46743346569757177,-1.32291652236614, ,0.1346055908630791,0.10127741895247683,0.03571482403587444,-0.02360201415874376,0.12273583742469499,-0.0930977574653164, ,1.6612119674682617
0.016880773233629437,0.02100896719635018,-0.09502008214571096, ,0.017583360057345922,0.020582111513785972,-0.09569053387067286, ,0.0010608202176154828, ,0.01927350456333539,-0.0024618605012993763,-0.03189257927607343,0.018439455726734267,0.0010427773518950645,0.0050942516891391895, ,0.037345218544833775, ,0.018468024179572818, ,0.0007815107527871361, ,0.21815948096396817,-0.209726256665315,0.10616485471,1.686326525502545,0.4689364671949916,-1.3241421193068008, ,0.1359555036654309,0.09813541009148995,0.03403592205128206,-0.02360201415874376,0.1468209038165542,-0.11320993155410479, ,1.6654078960418701
0.016880773233629437,0.02100896719635018,-0.09502008214571096, ,0.01763564206773858,0.020575059923117953,-0.09577631434294241, ,0.0011532517568174892, ,0.01927350456333539,-0.0024618605012993763,-0.03189257927607343,0.018439455726734267,0.0010427773518950645,0.0050942516891391895, ,0.037345218544833775, ,0.018468024179572818, ,0.000784056924047618, ,0.21815948096396817,-0.209726256665315,0.10616485471,1.686326525502545,0.4689364671949916,-1.3241421193068008, ,0.1359555036654309,0.09813541009148995,0.03403592205128206,-0.02360201415874376,0.1468209038165542,-0.11320993155410479, ,1.6682519912719727
0.016880773233629437,0.02100896719635018,-0.09502008214571096, ,0.017687881238594154,0.020567954555376636,-0.09586178270625496, ,0.0012467458902265006, ,0.01927350456333539,-0.0024618605012993763,-0.03189257927607343,0.018439455726734267,0.0010427773518950645,0.0050942516891391895, ,0.037345218544833775, ,0.018468024179572818, ,0.0007872044680352295, ,0.21815948096396817,-0.209726256665315,0.10616485471,1.686326525502545,0.4689364671949916,-1.3241421193068008, ,0.1359555036654309,0.09813541009148995,0.03403592205128206,-0.02360201415874376,0.1468209038165542,-0.11320993155410479, ,1.6712429523468018
0.016880773233629437,0.02100896719635018,-0.09502008214571096, ,0.017740077949599233,0.020560796772385714,-0.09594694176121349, ,0.0013410182961667264, ,0.01927350456333539,-0.0024618605012993763,-0.03189257927607343,0.018439455726734267,0.0010427773518950645,0.0050942516891391895, ,0.037345218544833775, ,0.018468024179572818, ,0.0007909464533604423, ,0.21899353611438444,-0.20911616076825126,0.10637355740000001,1.686326525502545,0.4698929226933497,-1.3249220446326757, ,0.1340352281899305,0.0974301248033581,0.03311603226611227,-0.023027435682530076,0.13787435828013558,-0.10620903348949545, ,1.6748368740081787
0.016998749617583908,0.020993521379674033,-0.0952154775645751, ,0.017792232578934065,0.02055358793086013,-0.09603179429720848, ,0.0012204628864965746, ,0.019026693777975133,-0.0026242266626822675,-0.03103327887729266,0.011872282751206241,-0.005539013594858127,0.00433163790825429, ,0.036496109923850634, ,0.013099732294158431, ,0.000793829113985517, ,0.21899353611438444,-0.20911616076825126,0.10637355740000001,1.686326525502545,0.4698929226933497,-1.3249220446326757, ,0.1340352281899305,0.0974301248033581,0.03311603226611227,-0.023027435682530076,0.13787435828013558,-0.10620903348949545, ,1.677644968032837
0.016998749617583908,0.020993521379674033,-0.0952154775645751, ,0.01784434550327475,0.02054632938241471,-0.09611634309243418, ,0.0013139907852016595, ,0.019026693777975133,-0.0026242266626822675,-0.03103327887729266,0.011872282751206241,-0.005539013594858127,0.00433163790825429, ,0.036496109923850634, ,0.013099732294158431, ,0.0007972968584602913, ,0.21899353611438444,-0.20911616076825126,0.10637355740000001,1.686326525502545,0.4698929226933497,-1.3249220446326757, ,0.1340352281899305,0.0974301248033581,0.03311603226611227,-0.023027435682530076,0.13787435828013558,-0.10620903348949545, ,1.680433988571167
0.016998749617583908,0.020993521379674033,-0.0952154775645751, ,0.01789641709779548,0.02053902247356979,-0.09620059091390461, ,0.0014081280026000988, ,0.019026693777975133,-0.0026242266626822675,-0.03103327887729266,0.011872282751206241,-0.005539013594858127,0.00433163790825429, ,0.036496109923850634, ,0.013099732294158431, ,0.0008013420978254556, ,0.21899353611438444,-0.20911616076825126,0.10637355740000001,1.686326525502545,0.4698929226933497,-1.3249220446326757, ,0.1340352281899305,0.0974301248033581,0.03311603226611227,-0.023027435682530076,0.13787435828013558,-0.10620903348949545, ,1.6831560134887695
0.017289604736263276,0.020951045610765585,-0.09565644237920426, ,0.01794844773617061,0.020531668545758018,-0.09628454051747017, ,0.0010022267669915596, ,0.01893011198082437,-0.0034130438554778016,-0.02734368954840482,-0.06747795781180436,-0.09342603948124659,-0.0015767725732533933, ,0.033431652159076855, ,0.11524619020989202, ,0.000802663707491022, ,0.2210323375931797,-0.2076720097207713,0.10684411067,1.686326525502545,0.47112265119123864,-1.3255980908053815, ,0.13216844228199273,0.09614685061648508,0.029067174306569344,-0.017757671872666324,0.043826253888484844,-0.028146302367814787, ,1.6859378814697266
0.017289604736263276,0.020951045610765585,-0.09565644237920426, ,0.01800043779057667,0.020524268935332577,-0.0963681946478349, ,0.0010927091349938584, ,0.01893011198082437,-0.0034130438554778016,-0.02734368954840482,-0.06747795781180436,-0.09342603948124659,-0.0015767725732533933, ,0.033431652159076855, ,0.11524619020989202, ,0.0008045594292394067, ,0.2210323375931797,-0.2076720097207713,0.10684411067,1.686326525502545,0.47112265119123864,-1.3255980908053815, ,0.13216844228199273,0.09614685061648508,0.029067174306569344,-0.017757671872666324,0.043826253888484844,-0.028146302367814787, ,1.6886868476867676
0.017289604736263276,0.020951045610765585,-0.09565644237920426, ,0.018052387631694835,0.02051682497357266,-0.0964515560385719, ,0.0011843103641529904, ,0.01893011198082437,-0.0034130438554778016,-0.02734368954840482,-0.06747795781180436,-0.09342603948124659,-0.0015767725732533933, ,0.033431652159076855, ,0.11524619020989202, ,0.0008070253444011832, ,0.2210323375931797,-0.2076720097207713,0.10684411067,1.686326525502545,0.47112265119123864,-1.3255980908053815, ,0.13216844228199273,0.09614685061648508,0.029067174306569344,-0.017757671872666324,0.043826253888484844,-0.028146302367814787, ,1.6914269924163818
0.017289604736263276,0.020951045610765585,-0.09565644237920426, ,0.01810429762871289,0.020509337986689434,-0.09653462741213929, ,0.00127672984074393, ,0.01893011198082437,-0.0034130438554778016,-0.02734368954840482,-0.06747795781180436,-0.09342603948124659,-0.0015767725732533933, ,0.033431652159076855, ,0.11524619020989202, ,0.0008100556959904912, ,0.22230658851742674,-0.20671439084436746,0.10714225737000001,1.6861168355590603,0.47221574318936216,-1.3264077552948121, ,0.12356372598759216,0.09442481747111521,0.03081008030947776,-0.007272972185864495,0.16339976754987115,-0.13735900130189974, ,1.6945359706878662
0.01747056630076906,0.020918454793211153,-0.09593609372976175, ,0.01815616814932732,0.020501809295835574,-0.09661741147989861, ,0.0010525384752499065, ,0.017500300615095735,-0.0028947637828007572,-0.028800558267022217,0.049966375094760124,0.032850058535717874,-0.012905391277228307, ,0.03382472964369526, ,0.05979753481903224, ,0.0008116100727806158, ,0.22230658851742674,-0.20671439084436746,0.10714225737000001,1.6861168355590603,0.47221574318936216,-1.3264077552948121, ,0.12356372598759216,0.09442481747111521,0.03081008030947776,-0.007272972185864495,0.16339976754987115,-0.13735900130189974, ,1.6975200176239014
0.01747056630076906,0.020918454793211153,-0.09593609372976175, ,0.018207999559745638,0.020494240217109667,-0.09669991094212951, ,0.0011433208438277683, ,0.017500300615095735,-0.0028947637828007572,-0.028800558267022217,0.049966375094760124,0.032850058535717874,-0.012905391277228307, ,0.03382472964369526, ,0.05979753481903224, ,0.0008137228802395148, ,0.22230658851742674,-0.20671439084436746,0.10714225737000001,1.6861168355590603,0.47221574318936216,-1.3264077552948121, ,0.12356372598759216,0.09442481747111521,0.03081008030947776,-0.007272972185864495,0.16339976754987115,-0.13735900130189974, ,1.7002508640289307
0.01747056630076906,0.020918454793211153,-0.09593609372976175, ,0.018259792224688563,0.02048663206156424,-0.09678212848804695, ,0.0012349588020578997, ,0.017500300615095735,-0.0028947637828007572,-0.028800558267022217,0.049966375094760124,0.032850058535717874,-0.012905391277228307, ,0.03382472964369526, ,0.05979753481903224, ,0.0008163889303776058, ,0.22230658851742674,-0.20671439084436746,0.10714225737000001,1.6861168355590603,0.47221574318936216,-1.3264077552948121, ,0.12356372598759216,0.09442481747111521,0.03081008030947776,-0.007272972185864495,0.16339976754987115,-0.13735900130189974, ,1.7030630111694336
0.01747056630076906,0.020918454793211153,-0.09593609372976175, ,0.018311546507391946,0.02047898613521192,-0.09686406679581723, ,0.0013272205621597066, ,0.017500300615095735,-0.0028947637828007572,-0.028800558267022217,0.049966375094760124,0.032850058535717874,-0.012905391277228307, ,0.03382472964369526, ,0.05979753481903224, ,0.0008196017079359838, ,0.22230658851742674,-0.20671439084436746,0.10714225737000001,1.6861168355590603,0.47221574318936216,-1.3264077552948121, ,0.12356372598759216,0.09442481747111521,0.03081008030947776,-0.007272972185864495,0.16339976754987115,-0.13735900130189974, ,1.706190824508667
0.01747056630076906,0.020918454793211153,-0.09593609372976175, ,0.018363262769609097,0.0204713037390328,-0.09694572853257485, ,0.0014199343244614302, ,0.017500300615095735,-0.0028947637828007572,-0.028800558267022217,0.049966375094760124,0.032850058535717874,-0.012905391277228307, ,0.03382472964369526, ,0.05979753481903224, ,0.0008233537867892678, ,0.22318698006508833,-0.20605023581718415,0.10736003409000001,1.6859071456155759,0.47358210818701657,-1.3274402555916356, ,0.12088782364136405,0.09037803957949597,0.02960745635687733,-0.010458667002841785,0.18750121130369485,-0.15484969648203076, ,1.7093830108642578
0.01747056630076906,0.020918454793211153,-0.09593609372976175, ,0.018414941371612984,0.02046358616898087,-0.0970271163544389, ,0.0015129706234088109, ,0.017500300615095735,-0.0028947637828007572,-0.028800558267022217,0.049966375094760124,0.032850058535717874,-0.012905391277228307, ,0.03382472964369526, ,0.05979753481903224, ,0.0008276371211782091, ,0.22318698006508833,-0.20605023581718415,0.10736003409000001,1.6859071456155759,0.47358210818701657,-1.3274402555916356, ,0.12088782364136405,0.09037803957949597,0.02960745635687733,-0.010458667002841785,0.18750121130369485,-0.15484969648203076, ,1.7151010036468506
0.01747056630076906,0.020918454793211153,-0.09593609372976175, ,0.01846658267219823,0.020455834715990866,-0.0971082329065291, ,0.001606230431076153, ,0.017500300615095735,-0.0028947637828007572,-0.028800558267022217,0.049966375094760124,0.032850058535717874,-0.012905391277228307, ,0.03382472964369526, ,0.05979753481903224, ,0.000832443252720789, ,0.22318698006508833,-0.20605023581718415,0.10736003409000001,1.6859071456155759,0.47358210818701657,-1.3274402555916356, ,0.12088782364136405,0.09037803957949597,0.02960745635687733,-0.010458667002841785,0.18750121130369485,-0.15484969648203076, ,1.7179968357086182
