NicholasDascanio/dvrk_moveit_final/test/execution/third_experiment_notsharpbends/thirdexp_400vel4.0/thirdexp_400vel4.0_30.csv
Current Position (x),Current Position (y),Current Position (z), ,Planned Position (x),Planned Position (y),Planned Position (z), ,Position Error,,Cartesian linear Velocity(x),Cartesian linear Velocity(y),Cartesian linear Velocity(z),Cartesian Angular Velocity(x),Cartesian Angular Velocity(y),Cartesian Angular Velocity(z), ,Total Linear Velocity, ,Total Angular Velocity, ,MSE, ,Joint 1 Position,Joint 2 Position,Joint 3 Position,Joint 4 Position,Joint 5 Position,Joint 6 Position, ,Joint 1 Velocity,Joint 2 Velocity,Joint 3 Velocity,Joint 4 Velocity,Joint 5 Velocity,Joint 6 Velocity, ,Time Stamp
0.009509130815778227,0.02031028825051797,-0.07971706815737241, ,0.009696969744987731,0.020258668612100385,-0.07979930536826027, ,0.00021144977950224924, ,4.2420270786180334e-05,1.2398594071664802e-05,-2.5602890982331036e-05,0.30422317999347154,-0.0018598427878714179,-0.08504759647913236, ,5.107555712060236e-05, ,0.3042288649364747, ,1.762081495852077e-05, ,0.16544410636451168,-0.24272549423687634,0.09004548856000001,1.687584665163452,0.42780888076559404,-1.282437456280122, ,0.0004776187657205639,-0.00012718877213051987,3.25920078326738e-05,-0.0015425845163372742,0.0,-0.28374967282187313, ,0.02900981903076172
0.009542266496547738,0.020314114564492114,-0.07974191873094379, ,0.009751094141706643,0.02028539935488031,-0.0798961148819232, ,0.0002611704455380263, ,0.0015838784919633522,0.00016975612582539252,-0.000986821185429332,0.06691402542384613,-0.1448869387725594,-0.06032599360128595, ,0.0018738474515209345, ,0.15959233009548288, ,2.148273750183071e-05, ,0.16552133369325392,-0.24272549423687634,0.09006493291,1.6873749752199676,0.42507615077028527,-1.289030402141374, ,0.0022695728881356346,-0.00011516992854561364,0.0006760166559907799,0.0008469848174993569,-0.14782609053690007,-0.08083185437830998, ,0.05649304389953613
0.00959200227625069,0.02033108076910653,-0.07980987303585113, ,0.009805240658347337,0.020311604464100328,-0.07999299620178892, ,0.0002817517133203765, ,0.0021687254044507735,0.0007590191848096182,-0.003238945511241799,0.2327475945894447,-0.13080110900209285,-0.10080789559349196, ,0.003971177158930665, ,0.26698384389882734, ,2.3574123073770378e-05, ,0.16566806561786418,-0.24272549423687634,0.09012974741,1.6877943551069365,0.4220701477754455,-1.2946654035339684, ,0.006887514750971759,-0.00010548691240323837,0.0031306626415094343,0.0010662007809093409,-0.11961742511698305,-0.22927501845727427, ,0.08450698852539062
0.009636533932962599,0.020347794379558404,-0.07988096845673151, ,0.009859408727567414,0.020337288162483636,-0.0800899482253422, ,0.000305705901735536, ,0.0017872445845634303,0.0009041308388354574,-0.0035626462417309604,-0.1648837950410757,-0.04968079987806175,0.03291380861350288, ,0.00408707034714407, ,0.17220582958511463, ,2.5239948573718766e-05, ,0.16583024300822288,-0.24272549423687634,0.09019974707,1.6877943551069365,0.4196106907796676,-1.294865207251228, ,0.010286029600248606,-9.97330838535292e-05,0.00372168493457944,0.0010428809916837678,-0.04209268359512196,0.16799752794993345, ,0.11239194869995117
0.009674876933378668,0.020381334163562314,-0.08000385479059702, ,0.009913597785598152,0.0203624546585988,-0.08018696985218161, ,0.000301455148855007, ,0.0007592243867126415,0.0008728954805645015,-0.0030352695395798562,-0.020340195056778893,0.08705268080746248,0.034230886005532556, ,0.0032482655937084996, ,0.0893973868211825, ,2.618332671059991e-05, ,0.16620093418618567,-0.24272549423687634,0.09033585752,1.6880040450504212,0.4211136922770875,-1.290618328602471, ,0.013753179936010258,-9.218866716719738e-05,0.0035762935608441857,0.00023066111517683569,0.10434681948224579,0.029448308901906944, ,0.1410069465637207
0.009712883276379952,0.020400989092191908,-0.08007711213417977, ,0.00996780727223743,0.020387108146879294,-0.08028405998401884, ,0.00032864317558673004, ,0.0015521549458277339,0.0007088966910590661,-0.0026079877046936285,0.05495010292493161,-0.0019623473792725497,-0.011577605387394631, ,0.003116619861690727, ,0.05498513088623929, ,2.7260905879643955e-05, ,0.16657162536414846,-0.24272549423687634,0.09041752379000001,1.6880040450504212,0.42166023827614924,-1.2904105702961322, ,0.015041518712707369,-8.672607531266504e-05,0.002914162371020857,0.00023066111517683569,0.013810724959752517,-0.055805330782578086, ,0.17058491706848145
0.009778747492349759,0.020429471397701293,-0.08017891277417274, ,0.010022036630842796,0.020411252807643977,-0.08038121752467964, ,0.0003169364826112908, ,0.0018138210943001603,0.000902961506292608,-0.0033100544602853704,0.016830254540906142,-0.008625647866727674,-0.00997198162291691, ,0.0038809466595187215, ,0.018911881678857958, ,2.787656454373911e-05, ,0.1671585530625895,-0.24273321696975056,0.09052770844000001,1.6882137349939055,0.42166023827614924,-1.291227357697538, ,0.01599746148996473,0.0,0.0036029883555756623,0.0075988351692260064,0.005794388160380703,-0.01618396871085701, ,0.19947099685668945
0.009825235576143123,0.020452528058361286,-0.08026694012689889, ,0.01007628530832427,0.020434892807115725,-0.08047844138010501, ,0.0003287396389583729, ,0.0021396361531184085,0.0011634593180949065,-0.004348587825475967,-9.651485615539809e-05,-0.011880664823986082,-0.004856363922265713, ,0.0049841645767842585, ,0.011881056780535987, ,2.8837682544538133e-05, ,0.16755241243917496,-0.24273321696975056,0.09062622648,1.6882137349939055,0.42166023827614924,-1.2913090364376782, ,0.017531302708012335,0.0,0.004740717714285715,0.006621674090213164,0.004202025964442234,0.001542088609130835, ,0.22436285018920898
0.009866268269047492,0.02047260553917121,-0.0803397556833429, ,0.010130552755137355,0.020458032297441087,-0.08057573045835134, ,0.00035460226085375475, ,0.0019862792141807726,0.0008011819870625363,-0.002992174639785501,-0.0035315663675610526,-0.017690983352726876,-0.00022237021970717392, ,0.003679715582494869, ,0.018040034721560284, ,2.9893939410681595e-05, ,0.16791538088426353,-0.24273321696975056,0.09070659646000001,1.68842342493739,0.42179687477591465,-1.2914204543413748, ,0.018027534490590955,0.0,0.0033136699646349075,0.0013108552770785549,0.0,0.0038839487237883902, ,0.24925684928894043
0.009928037732700736,0.020501412410367716,-0.08044767761577813, ,0.010184838425276085,0.020480675416711187,-0.08067308366959176, ,0.0003423222278919727, ,0.002119077372116234,0.001065899281052068,-0.004001120519578658,-0.0012735556715556167,-0.01568049117048125,-0.0033568964749305296, ,0.004651407915734305, ,0.01573212466168053, ,3.063410883690218e-05, ,0.16847141765120768,-0.24272549423687634,0.09082585514000001,1.6886331148808746,0.4220701477754455,-1.2916432901487678, ,0.0175800188140924,7.177450789304355e-07,0.004370044312757203,0.004330261690382416,0.0008784339916873289,0.002120457100223201, ,0.27388596534729004
0.009979847240173373,0.020527587980040694,-0.0805498760255116, ,0.01023914177626562,0.02050282628897931,-0.08077049992611587, ,0.0003413527549461964, ,0.0023140798173727404,0.001075055818986007,-0.0040706427615548255,-0.0013850826063636086,-0.01854298383189852,-0.003612070678800141, ,0.004804252585710521, ,0.018594641757743748, ,3.124194009073623e-05, ,0.16890389069216424,-0.24271777150400212,0.09093733608000001,1.6886331148808746,0.42220678427521097,-1.2915096718320422, ,0.0196799961755435,0.00015537740459806713,0.004460602497899749,0.004330261690382416,8.811106179494069e-05,0.0020174825084484684, ,0.30049586296081543
0.010043542410363631,0.020553891997447546,-0.08065275903505187, ,0.010293462269155416,0.02052448902428216,-0.08086797814233149, ,0.0003311249534355668, ,0.002296486027316014,0.0009376559931569431,-0.0036425514126408993,0.018560100625852755,-0.011471836544085633,-0.00695411022193497, ,0.004406952192716984, ,0.021819265988908675, ,3.166884173705196e-05, ,0.1694908183906053,-0.24269460330537945,0.09105140960000001,1.6888428048243591,0.42248005727474186,-1.2913241139387326, ,0.021210760294696197,0.0006254448067058983,0.004043871926884997,0.004484195127473688,0.00909478618356943,-0.018411049049872633, ,0.3251688480377197
0.010091356523814885,0.02057477390658714,-0.08073340060498681, ,0.010347799368512017,0.02054566771865826,-0.08096551723476408, ,0.0003471141492236668, ,0.0020968064005929803,0.0009451675358697739,-0.003869572012238188,0.022117232956951574,-0.0048367827397512875,-0.00697312010257203, ,0.0045015026724780395, ,0.022639930655283167, ,3.216165581316465e-05, ,0.16993101416443612,-0.2426868805725052,0.09114085361,1.6888428048243591,0.42275333027427275,-1.291383592265844, ,0.018709964818310488,0.0011608789968645663,0.0042556269088966075,0.004484195127473688,0.01340528306135291,-0.02230685250924033, ,0.3500380516052246
0.010157818169948454,0.020603874399509066,-0.08084728358615104, ,0.010402152542411974,0.020566366454168962,-0.0810631161220591, ,0.0003281612638433819, ,0.002435652291571072,0.0010001335729159463,-0.0038762587440025003,-0.0006609518208110703,-0.013318837397928475,-0.0023509581653312346, ,0.004685941858321001, ,0.013335227259660005, ,3.244836960223798e-05, ,0.1705256645957514,-0.24266371237388254,0.09126659374000001,1.6890524947678438,0.4230266032738036,-1.2914430705929556, ,0.022187734757650405,0.0006262865061289548,0.00429927436437247,0.0048899327588895316,0.007972815838357187,0.0015071326760916631, ,0.3775649070739746
0.010205765527408941,0.020623181331905226,-0.08092470617939014, ,0.010456521262434584,0.02058658929891598,-0.0811607737249806, ,0.0003463312021860543, ,0.002315237499725892,0.0009592241788167747,-0.003787536119362639,0.0030317971087899655,-0.01073533208579338,-0.003035657444779253, ,0.004541570825258625, ,0.011155229622096079, ,3.3054972716700575e-05, ,0.17095813763670797,-0.2426482669081341,0.09135214888000001,1.6890524947678438,0.42316323977356907,-1.2914728097565118, ,0.021022804953139296,0.0008207469217281973,0.0041951044298130106,0.0048899327588895316,0.009467911218032688,-0.002402021131872733, ,0.39930295944213867
0.010249489476909394,0.020642611303626966,-0.0810026140851372, ,0.010510905003654909,0.020606340307063084,-0.08125848896641358, ,0.0003675943656852899, ,0.002404045053523507,0.0011023838603250746,-0.004585371884553563,-9.773355109481829e-05,-0.012580838285335981,-0.0038250030765294603, ,0.00529342215532923, ,0.012581217817910006, ,3.373811565677796e-05, ,0.17133655154754499,-0.24262509870951143,0.09143770402000001,1.6892621847113283,0.42329987627333454,-1.2915025489200676, ,0.02007551122455485,0.0014570152470055552,0.0049996269679849345,0.005465458995371599,0.006412704499763154,5.453468068176894e-05, ,0.42290401458740234
0.01032448122422542,0.020678087969653168,-0.08115227768647353, ,0.010565303244636585,0.020625623518854053,-0.08135626077136367, ,0.0003199325913905417, ,0.00217313728109092,0.0007557283975872291,-0.0034253547574381498,0.009102293475930882,-0.007072221902253118,-0.004128179499616751, ,0.004126342965349725, ,0.0115268412275494, ,3.405275506644033e-05, ,0.17196981564323138,-0.24257876231226608,0.09160103656000002,1.6892621847113283,0.4237097857726308,-1.2915917664107353, ,0.020272792471367394,0.002108604037301553,0.0037916713925255897,0.004597763595236115,0.012608202320950028,-0.009810217299001712, ,0.4457988739013672
0.01037604446155324,0.020696368744531426,-0.0812294399566152, ,0.010619715467424552,0.020644442960633214,-0.08145408806695816, ,0.00033546776241010086, ,0.0022192488288812918,0.0007187373931613757,-0.0035179881132712328,-0.0026404461607287353,-0.01229075682852768,-0.006877965235190316, ,0.004221124159502665, ,0.012571183667692236, ,3.4430274359126435e-05, ,0.17244090234855908,-0.24253242591502072,0.09168659170000001,1.6896815645982974,0.4238464222723963,-1.291784863054572, ,0.0198737050384232,0.0029173275190898643,0.0038549882671829626,0.008658775367102503,0.005698742806519543,0.0017015663687151039, ,0.4708738327026367
0.010420923942524639,0.020715014506815982,-0.08131225223911952, ,0.010674141157538109,0.02066280264486462,-0.0815519697824465, ,0.0003525755764177791, ,0.0023257393701554873,0.0009938168889140878,-0.004401057932887046,0.001612329737891445,-0.008025597033481394,-0.00660607018660455, ,0.005076026650364448, ,0.00818595219118513, ,3.487103653938225e-05, ,0.17283476172514453,-0.24249381225064962,0.091777332,1.6896815645982974,0.42411969527192717,-1.2917626626415433, ,0.01968816214906033,0.002329621991672835,0.004800726799276674,0.008658775367102503,0.00995361034304649,-0.001769419029275296, ,0.49321603775024414
0.01048910119514147,0.02074263481255742,-0.08143959413543307, ,0.010728579803963495,0.02068070657015146,-0.08164990484920084, ,0.0003246778520569793, ,0.002247540721284761,0.0008434655243767954,-0.004231144170789185,0.003946124194152793,-0.0007472667771645002,-0.005016984773340168, ,0.004864715241270422, ,0.004016254777257036, ,3.5120815554365424e-05, ,0.17341396669071135,-0.2424243076547816,0.09191603503000001,1.6896815645982974,0.424392968271458,-1.2915771047482334, ,0.01983631721539941,0.0035972830899744473,0.004618385479849232,0.007992041668877039,0.01784479728063571,-0.004975421732603701, ,0.5187089443206787
0.010535087913010787,0.020759379109136444,-0.08151953653024663, ,0.010783030899146787,0.020698158721255626,-0.08174789220071674, ,0.00034259301292082406, ,0.002170615509976552,0.0007356527550114033,-0.0034527096829883247,-0.002899324176222965,-0.00446777743464154,-0.0028448620031641045, ,0.004144147780075895, ,0.005326078800922955, ,3.5443467326542914e-05, ,0.17383871699879372,-0.24237024852466202,0.09200418275000001,1.6896815645982974,0.4248028777707544,-1.2917480009790414, ,0.020177959081112223,0.0025387260657036576,0.0038226089560835135,0.007155759297619211,0.014499151583071064,0.002795040034841929, ,0.5417108535766602
0.01057866210509576,0.02077512245973918,-0.08159242916412278, ,0.010837493938986916,0.02071516306911808,-0.08184593077261389, ,0.0003672221565574332, ,0.0019875413608181724,0.0007465816083589068,-0.0036514012213107673,0.011676203020755333,0.006119502593655478,-0.005937453719787344, ,0.00422379398620393, ,0.013182641174156745, ,3.604507280771278e-05, ,0.17423257637537917,-0.24230846666166822,0.09208455273,1.6901009444852664,0.42507615077028527,-1.2918891580462937, ,0.018408718052079685,0.0030614734692857915,0.004024459706922689,0.008626563210806987,0.02337757060659832,-0.011883651819903947, ,0.561262845993042
0.010631450164055915,0.020795199483594463,-0.08169715859231204, ,0.01089196842282812,0.020731723570876902,-0.08194401950263633, ,0.0003644712110649699, ,0.0027991251854436443,0.001262556008605469,-0.006012367409981035,-0.01635598852718508,-0.018590504229884952,-0.00508689877119474, ,0.0067511266727304665, ,0.02476136507477543, ,3.659217379020536e-05, ,0.1746573266834615,-0.24222351660005176,0.09219732996,1.6901009444852664,0.42521278727005063,-1.291673860989428, ,0.02075157261282982,0.0038262010076483663,0.006446301707810603,0.008626563210806987,0.0,0.014555273436651223, ,0.5803768634796143
0.010660224818186941,0.020809143656042316,-0.08176249844397629, ,0.010946453853452979,0.020747844169888015,-0.08204215733065366, ,0.0004048379682412895, ,0.0028233431804540457,0.0012518155738379985,-0.005825069496392487,0.003191917067746681,-0.0023895767442482143,-0.004911465426066116, ,0.0065931588471173615, ,0.003987280386099755, ,3.729355469449712e-05, ,0.1749044541354367,-0.24218490293568062,0.09226862591000001,1.6901009444852664,0.425622696769347,-1.2919264359603766, ,0.023362122491007085,0.003635953572474629,0.00633352346719682,0.008626563210806987,0.01963692967195143,-0.003966857640067592, ,0.5999150276184082
0.010715514727236088,0.020830108570609105,-0.08187511042175163, ,0.011000949737075185,0.020763528795744612,-0.08214034319866083, ,0.0003952903201569882, ,0.00273552889321989,0.0008019223226559849,-0.004781456977746983,-0.0012452595043742519,-0.0036648042767520265,-0.004059459799325366, ,0.00556673410243925, ,0.0038705889888921183, ,3.7906501896759714e-05, ,0.17536781810789018,-0.24208450740831572,0.09239047717000001,1.6901009444852664,0.4260326062686433,-1.2919339747109038, ,0.024451672650984486,0.005779765912674273,0.005208898469587967,0.00796136343117547,0.019595217005307086,-0.0016734983970800102, ,0.6187469959259033
0.010789771779222742,0.020855618820630334,-0.0820060859558726, ,0.011055455583332147,0.020778781364295795,-0.08223857605077958, ,0.00036130807172254914, ,0.0029785048339244316,0.0009542447673590808,-0.005292662917631266,0.006850935018270665,-0.014445435392231618,-0.0058326423058308674, ,0.006147711353130732, ,0.015987679948717283, ,3.8331114987225345e-05, ,0.17600108220357658,-0.24196094368232812,0.09253306907000002,1.6905203243722353,0.4263058792681742,-1.2916667380774531, ,0.02525198019118435,0.005310237243105032,0.005738044495677235,0.004832847947676348,0.010083027575687138,-0.0108738215716003, ,0.6495850086212158
0.010847698823873334,0.020869663990994686,-0.08209753693317876, ,0.01110997090527813,0.020793605777667565,-0.08233685483325817, ,0.00036310405367792273, ,0.0026029836212908873,0.0002472352340893405,-0.0029193314380280204,-0.04698814856880491,-0.03590249647341065,0.0015777310055777097, ,0.003919074513037814, ,0.059134383895795416, ,3.873792292184914e-05, ,0.17656484170339495,-0.24183737995634053,0.09263417969000001,1.6905203243722353,0.4269890617670014,-1.291897112635373, ,0.023304749891569443,0.006335770360367112,0.0031511002017804153,0.004832847947676348,-0.014546850492875884,0.041946580345666645, ,0.6683599948883057
0.010899695523120402,0.020878725735772846,-0.08216600152107986, ,0.011164495219376553,0.020808005924280407,-0.08243517849447271, ,0.0003841567569102623, ,0.0026789170580520808,0.0006879005004833575,-0.004006992096802281,0.00911342206164085,-0.0034938643931899456,-0.0030151900144214385, ,0.004868859144227075, ,0.009760202305209738, ,3.92087199904213e-05, ,0.17705137387447112,-0.24172926169610137,0.09270936451,1.6905203243722353,0.42712569826676683,-1.2916001368383665, ,0.025448361908948988,0.004754316310631739,0.004439468093645486,0.004832847947676348,0.02165253930879491,-0.011739165565784332, ,0.6887240409851074
0.010954919403473679,0.020895541749303196,-0.082264756932095, ,0.011219028045493148,0.020821985678870905,-0.08253354598492736, ,0.0003839419555210436, ,0.002818900619026169,0.0009232925753607429,-0.005446028358035703,-0.0012102351321382752,0.004423565499212363,0.001183404188021934, ,0.006201442957585876, ,0.004586130832213356, ,3.9813149403342094e-05, ,0.17753790604554726,-0.24162114343586225,0.09281695658000001,1.6905203243722353,0.4275356077660632,-1.2916893543290342, ,0.024719182484623802,0.006198651529536541,0.005925897142857144,0.004832847947676348,0.029044150082896403,-0.0019341494716856996, ,0.7055268287658691
0.010984742872004512,0.020906573182406168,-0.08232485826810508, ,0.011273568906888578,0.020835548902509986,-0.08263195625725467, ,0.0004275208786730103, ,0.002952482700372482,0.001215298164828479,-0.006243438144941464,-0.002199083672328346,-0.007341534939257279,-0.001812096028469939, ,0.007012462020941316, ,0.007663817245697558, ,4.0561728697996685e-05, ,0.1777773107646482,-0.24156708430574267,0.09288177108000001,1.6905203243722353,0.42767224426582856,-1.29171909349259, ,0.023202186200115105,0.0049947810846227856,0.0067352268583509515,0.004832847947676348,0.015258402117656682,-0.0007609520216678347, ,0.7215969562530518
0.011044993351943191,0.02093314229983089,-0.08245459649915729, ,0.011328117330211093,0.02084869944262255,-0.08273040826621701, ,0.00040418054635565773, ,0.003357465488706971,0.0014843462274526723,-0.007274237108700769,-0.006801693138278909,-0.010726551181391932,-0.00043120795504201473, ,0.00814802943934364, ,0.012701256214518807, ,4.1185023946708616e-05, ,0.17824067473710167,-0.24147441151125196,0.09302177040000001,1.69073001431572,0.4279455172653595,-1.2918602505598422, ,0.025633965845075844,0.004911897378987693,0.007842841713441656,0.004447817347959935,0.014334106378524563,0.003956122699282323, ,0.7411918640136719
0.011112170049028498,0.02096057845254338,-0.0825921067869764, ,0.011382672845489382,0.02086144113300682,-0.08282890096870572, ,0.0003729228546481332, ,0.0027587101221412695,0.0008357470618682958,-0.005081782714086946,0.012721913242085962,0.003924235284842,-0.0017901464778617307, ,0.005842385663632543, ,0.013313402860309295, ,4.166158724582938e-05, ,0.1787812660382974,-0.24136629325101283,0.09317084375000001,1.6909397042592043,0.42835542676465577,-1.292112825530791, ,0.02456560744459508,0.006082091082943909,0.00554817538140021,0.003890457969533392,0.028700895761215466,-0.01643564841960467, ,0.7572498321533203
0.01117614755533696,0.02097593153738943,-0.0826990207981569, ,0.01143723498612544,0.020873777793855405,-0.08292743332374333, ,0.0003616273160015953, ,0.002995672773108696,0.0007532784111079215,-0.004785178090214711,-0.010199477151122254,-0.02413476016453788,-0.003426740269103988, ,0.005695560822540386, ,0.02620144995696017, ,4.207513462555759e-05, ,0.1793218573394931,-0.24121956132640257,0.09328621356000001,1.6909397042592043,0.42849206326442124,-1.2922242434344873, ,0.025098371213560112,0.005968547975321843,0.005176734325641859,0.003890457969533392,0.0,0.005180940750047549, ,0.7777259349822998
0.011202522844758056,0.020981666229869224,-0.08273700856421257, ,0.011491803288886963,0.02088571323177212,-0.08302600429248272, ,0.0004200103381556655, ,0.002809360221646797,0.00046860088281573,-0.0036266029173812452,0.0034146063897115145,-0.011226472132809381,-0.002954978643203755, ,0.0046113273970414615, ,0.011734275125378156, ,4.268223437339208e-05, ,0.179592152990091,-0.241165502196283,0.09332899113000001,1.6909397042592043,0.42890197276371755,-1.2925584971455766, ,0.02686015894663764,0.0060782073055668665,0.004021411643524363,0.003890457969533392,0.015305677324742313,-0.007836779970933034, ,0.7940659523010254
0.011262452811442725,0.020991378345473377,-0.0828242970996354, ,0.011546377293900428,0.02089725123979377,-0.08312461283820838, ,0.0004238662130874868, ,0.002837766110779674,0.0006595114664840031,-0.004863715547848418,0.013746324104356897,0.0014991897671722495,-0.0030541397043791765, ,0.005669532679533289, ,0.01382783401760065, ,4.32771734047649e-05, ,0.18012502155841245,-0.2410110475387985,0.09342362030000001,1.6909397042592043,0.42903860926348303,-1.2924248788288515, ,0.025668634449140054,0.007453598129247963,0.005304299540459542,0.003890457969533392,0.027345451508451423,-0.018999373819850156, ,0.8105919361114502
0.011326416807612951,0.02101032141096013,-0.08294359251525031, ,0.011600956544643666,0.02090839559740913,-0.0832232579263369, ,0.0004049366380499063, ,0.0034507831716610836,0.00110503409097692,-0.00702103019573998,0.002244431676256528,-0.00956920521524831,-0.004063104326978229, ,0.007900877789811274, ,0.00982889337310819, ,4.393414473238191e-05, ,0.18067333559248241,-0.24084887014843978,0.09355324930000002,1.6913590841461734,0.42958515526254476,-1.292707192963356, ,0.027159971825549738,0.008501036740598523,0.0075349155723746465,0.004814353960703707,0.017117182769719075,-0.008775352098267668, ,0.8270409107208252
0.011358773153938392,0.0210211899568874,-0.08301090917460287, ,0.011655540587938615,0.020919150070577333,-0.08332193852441709, ,0.00044183968215531105, ,0.0034073997607541747,0.001212256274552647,-0.00733211762578067,0.029927141246292734,0.019031683830894264,-0.0027907655503820934, ,0.008175566480866231, ,0.035466022492293796, ,4.4694997329962054e-05, ,0.18093590851020605,-0.24077164281969754,0.09362584154,1.6913590841461734,0.42985842826207565,-1.2928483500306083, ,0.029056013949317443,0.008453212713312529,0.007964405760000001,0.004814353960703707,0.04893367508135006,-0.034910593077964555, ,0.8408069610595703
0.011398543772038907,0.02103383506179414,-0.08309071553778023, ,0.011710128973943973,0.020929518411748876,-0.08342065360213141, ,0.00046564624752132294, ,0.003650223433292953,0.0010899279099173742,-0.007381671870370846,0.006435157020414079,-0.008341491459865923,-0.004888923773853707, ,0.008306693298997025, ,0.010535260022219458, ,4.551038878070789e-05, ,0.18124481782517501,-0.24067897002520686,0.09371139668,1.6913590841461734,0.4299950647618411,-1.292878089194164, ,0.028931994377582555,0.009739926393422787,0.007916904333996026,0.004814353960703707,0.0202661230978636,-0.014130526404496536, ,0.8552839756011963
0.011471506299590001,0.021055073290382982,-0.08323421997167135, ,0.011764721256148037,0.02093950435988442,-0.08351940213129545, ,0.00042504123636863595, ,0.003754519755847988,0.0010604372406214121,-0.007327495829558735,-0.0018399879580182305,-0.010346563001502605,-0.0030016160139302284, ,0.008301393911298888, ,0.01050889625534623, ,4.616432683522807e-05, ,0.18183174552361608,-0.24049362443622546,0.09386565519000001,1.6913590841461734,0.43040497426113744,-1.293048985424972, ,0.030068739403824703,0.009922875594062994,0.007869966166007906,0.004814353960703707,0.01930665261915738,-0.005817322183076759, ,0.8691048622131348
0.01150385429248892,0.021064905656545094,-0.08330385599337559, ,0.011819316991361292,0.020949111640473642,-0.08361818308585893, ,0.000460137468162319, ,0.003192509127100484,0.0009429260617983481,-0.006394875343426501,0.05055665547611657,0.04496750501517884,-0.0006584428405468348, ,0.007209414313423986, ,0.06766130289557232, ,4.6911283949189565e-05, ,0.18214065483858505,-0.24039322890886053,0.0939421363,1.6913590841461734,0.43122479325973007,-1.2937174928471507, ,0.031195575791739243,0.009087875094311191,0.007073184511545294,0.004814353960703707,0.07817692499365665,-0.05464975775691729, ,0.8826279640197754
0.011579832723874712,0.021081908710148207,-0.08344170557473478, ,0.011873915739709286,0.020958343965556486,-0.08371699544190678, ,0.0004213520823206553, ,0.0038813717578848233,0.001045876269650934,-0.007624376225470726,-0.027801303976132192,-0.013762193054850816,0.0026666666139184255, ,0.008619165662745327, ,0.031021128842899884, ,4.7509987995903374e-05, ,0.18275847346852303,-0.24017699238838225,0.09408991336000001,1.6913590841461734,0.43149806625926096,-1.293286898733419, ,0.03041568639694576,0.010859490352069836,0.00816025180327869,0.004814353960703707,0.015946881509214313,0.019863730716637377, ,0.8974568843841553
0.01161232562228392,0.02109018038636626,-0.08350200221507594, ,0.011928517064625015,0.02096720503374046,-0.08381583817765861, ,0.0004621612023670718, ,0.004045822956266769,0.0009417138715890141,-0.00726662090448326,-0.04038185784746976,-0.03015229285203192,0.0016527144033091738, ,0.008370142637904771, ,0.0503969759726402, ,4.821854087409755e-05, ,0.18302104638624667,-0.2400920423267658,0.09415472786000001,1.6913590841461734,0.4316347027590264,-1.2933166378969752, ,0.031506288698031466,0.010935150628106991,0.007758797622990745,0.004814353960703707,0.0,0.03157558394883244, ,0.9137399196624756
0.01165397632870451,0.021100087163812325,-0.08358510869823035, ,0.011983120532842142,0.020975698530222353,-0.08391471027347008, ,0.0004821261636587323, ,0.003308244499179221,0.0007871227183555854,-0.006658112521085777,0.04292018057966097,0.05594172501005841,0.004081849874786282, ,0.0074762628487460405, ,0.07050970489944802, ,4.911963744781202e-05, ,0.1833840148313352,-0.2399684786007782,0.09424028300000001,1.6913590841461734,0.432454521757619,-1.2938217878388723, ,0.03270053120553783,0.011333684648091579,0.007419101779226828,0.004600409393652424,0.09148511591217263,-0.048009616377192595, ,0.9244968891143799
0.011690998059367545,0.02110771726944856,-0.08365153102623926, ,0.012037725714387144,0.02098382812680577,-0.084013610711833, ,0.0005164012830539966, ,0.0038642255429366507,0.000665510264991235,-0.006798010419895567,0.00875141729551123,0.006936086141048659,-4.641320546105598e-05, ,0.007847807886824286, ,0.011166762338213445, ,5.010401508862047e-05, ,0.18374698327642375,-0.23982946940904215,0.09431806040000001,1.691568774089658,0.4330010677566808,-1.2941857807135175, ,0.03437049676148887,0.01303529417011961,0.007364221692094315,0.003696296170726833,0.04205025910673505,-0.018382779939080253, ,0.9353940486907959
0.011730377313767443,0.021114562410214588,-0.08371707773100377, ,0.012092332182572378,0.020991597481921937,-0.08411253847737603, ,0.0005500190020016731, ,0.004313923438273651,0.0009665726509566467,-0.00772177458853516,0.002877929634878957,-0.013637402056037527,-0.0035564284539879804, ,0.0088977525767472, ,0.01393776116772695, ,5.116663801156026e-05, ,0.18406361532426696,-0.23971362841592878,0.09438806006000001,1.691568774089658,0.4330010677566808,-1.294104101973377, ,0.0355952518974009,0.012116823214640922,0.008317917242819845,0.003696296170726833,0.021948632395255414,-0.01292958755914008, ,0.946476936340332
0.011824522499732024,0.021137606712037054,-0.08389470612437566, ,0.012146939513988621,0.020999010240648732,-0.08421149255686528, ,0.0004727741075534164, ,0.004576769973053549,0.0011238818181469109,-0.008719987202326666,-0.009988817680115053,-0.02424930020401557,-0.0032964023863819238, ,0.009912018489497819, ,0.02622603646405207, ,5.1971765805876105e-05, ,0.18481272041306673,-0.23945105549820514,0.09457861469,1.691568774089658,0.4334109772559771,-1.294274998204185, ,0.03522529382274342,0.012978246930863071,0.009315094456140352,0.00337053426002222,0.010562106670816869,-0.0014221526165044424, ,0.958791971206665
0.011868519757841273,0.021148611731958734,-0.08398350519701915, ,0.0122015472884978,0.021006070034729863,-0.0843104719392044, ,0.0004879884446575664, ,0.004385860966093893,0.001162308492326868,-0.009274524537110085,0.04014644509769277,0.029971266753291332,-0.0013249930403393115, ,0.01032489916825817, ,0.05010003808539283, ,5.2802927175116645e-05, ,0.18518341159102952,-0.2393120463064691,0.09467454015000001,1.691568774089658,0.43395752325503884,-1.2947206698189708, ,0.037419929636620976,0.014550282361004412,0.010037058298676748,0.0032266333701271984,0.06942547592652953,-0.050407389862506015, ,0.9695909023284912
0.01191506859933386,0.021160581928841033,-0.08407891663270353, ,0.012256155089225602,0.02101278048259504,-0.08440947561543534, ,0.0004974479894056912, ,0.004582441235190538,0.0010873774766872492,-0.009222806394540397,0.018404707249232533,0.002777757253437815,-0.0012170745315519802, ,0.010355738276045632, ,0.01861314367751588, ,5.364232975782991e-05, ,0.18555410276899229,-0.23915759164898462,0.09477694706,1.6917784640331426,0.4343674327543352,-1.2949732447899194, ,0.03701128765930997,0.014895140724920854,0.009899820708514607,0.0009036006983912569,0.04124782893661808,-0.030850691406955275, ,0.9803969860076904
0.01195337520951503,0.02116887172615843,-0.08415043478798145, ,0.012310762502554336,0.02101914518937889,-0.08450850257873942, ,0.0005275947837310804, ,0.0048648421329610895,0.000950658280494419,-0.00867652336165449,-0.002401752647607571,-0.019384881958918264,-0.0012048551627897083, ,0.009992622167891775, ,0.019533100500643993, ,5.454964994536545e-05, ,0.18585528935108706,-0.23904175065587124,0.09485342817,1.6917784640331426,0.4345040692541006,-1.294839626473194, ,0.03940902888640813,0.014818385627493876,0.009309650216247809,0.0009036006983912569,0.02061519701745677,-0.01082498378877374, ,0.9925029277801514
0.012024239024365276,0.021182392812957775,-0.08427786473553628, ,0.01236536911811538,0.021025167746940646,-0.08460755182443683, ,0.000499782991741179, ,0.004698960365722247,0.0007584213814469281,-0.008263525540218163,-0.0004021153037227119,-0.009977727698336398,0.0003887768816146353, ,0.009536314060699883, ,0.009985825364343481, ,5.551555236463293e-05, ,0.18644993978240235,-0.23881779140251874,0.09499083491000002,1.6917784640331426,0.4350506152531624,-1.2951219406076988, ,0.0391812310315734,0.01583991680161422,0.008878936187290971,0.0009036006983912569,0.03014713378914253,-0.013195045788607446, ,1.0008318424224854
0.012071458413923153,0.021187805156051343,-0.08436079832982186, ,0.01241997452878209,0.021030851733883794,-0.08470662234998805, ,0.0005154533072649479, ,0.004797276219697639,0.0005873407513333261,-0.0083882154913666,0.02889996859845994,0.02003796576875172,0.0010278959189540652, ,0.009680960046186321, ,0.03516714682218304, ,5.650958840500629e-05, ,0.18686696735761046,-0.23863244581353735,0.09508027892000001,1.6917784640331426,0.43559716125222414,-1.2955676122224844, ,0.043391377027192854,0.018444497873366526,0.009096979737292977,0.0009036006983912569,0.06583466006190915,-0.04343022589246174, ,1.0092549324035645
0.012071458413923153,0.021187805156051343,-0.08436079832982186, ,0.012474578330662216,0.021036200715575153,-0.08480571315499363, ,0.0006192243335830995, ,0.004797276219697639,0.0005873407513333261,-0.0083882154913666,0.02889996859845994,0.02003796576875172,0.0010278959189540652, ,0.009680960046186321, ,0.03516714682218304, ,5.77799148693229e-05, ,0.18686696735761046,-0.23863244581353735,0.09508027892000001,1.6917784640331426,0.43559716125222414,-1.2955676122224844, ,0.043391377027192854,0.018444497873366526,0.009096979737292977,0.0009036006983912569,0.06583466006190915,-0.04343022589246174, ,1.0173490047454834
0.012121900866474815,0.021196292320504954,-0.08445326211823846, ,0.01252918012309081,0.021041218244164668,-0.08490482324119512, ,0.0006275602041145942, ,0.0052329940017333204,0.0010775245427634308,-0.010388616741300996,0.024649495364303074,0.009892878596952905,-0.000835161054967028, ,0.011681979419604957, ,0.02656062024215439, ,5.90522410864283e-05, ,0.18729944039856702,-0.23845482295743017,0.09518009325000001,1.6917784640331426,0.43614370725128593,-1.295849926356989, ,0.042881582267722894,0.018369520239734954,0.011162446755430976,0.0009036006983912569,0.05475867208802317,-0.03981456715929962, ,1.0255858898162842
0.012178997415013703,0.02120949804163108,-0.08457322144654966, ,0.012583779508622918,0.021045907858605273,-0.08500395161247548, ,0.0006133015303482947, ,0.006064064848904169,0.0014411181976746808,-0.012733288220312515,0.00597434679598553,-0.007763304528729936,-0.0010801666436608833, ,0.014176964874504476, ,0.009795988061863558, ,6.026375443945332e-05, ,0.18774735890527205,-0.23825403190270034,0.09530842596000001,1.6917784640331426,0.43669025325034766,-1.2961322404914934, ,0.0457114362035023,0.02069726097240366,0.013567982555366271,0.0009036006983912569,0.03927862478329869,-0.02403974027306833, ,1.0340759754180908
0.012240661441162093,0.021223769927769524,-0.08470351030511665, ,0.012638376093025885,0.02105027308467106,-0.08510309727485967, ,0.000589871041212125, ,0.006167884062483764,0.001657503062441188,-0.013480167303324997,0.004079150499114321,-0.0051698293200750384,0.00022345766959233737, ,0.014916602184675819, ,0.006585298692834393, ,6.139069597635075e-05, ,0.18821072287772553,-0.23803779538222206,0.09544712899,1.6917784640331426,0.437100162749644,-1.296303136722302, ,0.04534015363519865,0.020294469965455683,0.014363220486925161,0.0009036006983912569,0.04156291068705652,-0.021489981260048363, ,1.042233943939209
0.0123035590647717,0.02124223153259037,-0.08484148472534543, ,0.01269296948527237,0.021054317434978192,-0.08520225923651494, ,0.0005631255913075713, ,0.006579696550056425,0.0016785133489062064,-0.014258197256047081,0.016712633427749802,0.005492565829053772,-0.002768069303141432, ,0.015792593287539233, ,0.017592038147836664, ,6.24260880620844e-05, ,0.18868180958305322,-0.23783700432749222,0.09559490605000001,1.691988153976627,0.43764670874870576,-1.2966671295969467, ,0.0496063468679931,0.022498089511254336,0.015228309292543022,0.0037881438442339175,0.05642778717689612,-0.03511589851037313, ,1.0503180027008057
0.0123035590647717,0.02124223153259037,-0.08484148472534543, ,0.012747559297532967,0.021058044409003582,-0.0853014365077516, ,0.0006652944801558517, ,0.006579696550056425,0.0016785133489062064,-0.014258197256047081,0.016712633427749802,0.005492565829053772,-0.002768069303141432, ,0.015792593287539233, ,0.017592038147836664, ,6.389468127956181e-05, ,0.18868180958305322,-0.23783700432749222,0.09559490605000001,1.691988153976627,0.43764670874870576,-1.2966671295969467, ,0.0496063468679931,0.022498089511254336,0.015228309292543022,0.0037881438442339175,0.05642778717689612,-0.03511589851037313, ,1.0557620525360107
0.012367983108975581,0.021258076536631084,-0.08498610771427512, ,0.01280214514516878,0.021061457493104927,-0.08540062810102302, ,0.0006316509106921273, ,0.006644528234969717,0.0015997734702752455,-0.01487296331941079,0.030275773634112498,0.019290915975114502,-0.003521241925844766, ,0.016368080783098704, ,0.03589932005684835, ,6.525646924748885e-05, ,0.18916834175412936,-0.23759759960839127,0.09574916456000002,1.691988153976627,0.43832989124753297,-1.2970608616351478, ,0.050263210571223925,0.02509173494406948,0.015865350119521913,0.003771288597750428,0.07151428355994986,-0.05064350554961964, ,1.0615289211273193
0.012367983108975581,0.021258076536631084,-0.08498610771427512, ,0.01285672664672402,0.021064560160539498,-0.08549983303092684, ,0.0007350051254755955, ,0.006644528234969717,0.0015997734702752455,-0.01487296331941079,0.030275773634112498,0.019290915975114502,-0.003521241925844766, ,0.016368080783098704, ,0.03589932005684835, ,6.688144824474857e-05, ,0.18916834175412936,-0.23759759960839127,0.09574916456000002,1.691988153976627,0.43832989124753297,-1.2970608616351478, ,0.050263210571223925,0.02509173494406948,0.015865350119521913,0.003771288597750428,0.07151428355994986,-0.05064350554961964, ,1.0687859058380127
0.01240511326989523,0.021265896193630535,-0.08506977674271207, ,0.012911303423918849,0.021067355871483957,-0.08559905031420503, ,0.0007587998715270289, ,0.00690632443771739,0.0014001196680475583,-0.014761232129293854,0.020791354550980502,0.017920655099013673,-0.0012534901228931504, ,0.016357005419659284, ,0.02744867214296155, ,6.85526701031377e-05, ,0.1894618056033499,-0.23744314495090676,0.09583860857000001,1.691988153976627,0.4388764372465947,-1.2973431757696523, ,0.0535838179325075,0.027059293287274244,0.015755501008902082,0.0036838388552736224,0.07349807473386728,-0.04268561593064627, ,1.0744729042053223
0.012515500373454906,0.021285590102255142,-0.08528789655485496, ,0.012965875101641839,0.021069848073054016,-0.08569827896974438, ,0.0006463712133161193, ,0.007371886469569313,0.0012288589357675908,-0.01429304742682246,0.01462661214050155,0.007060947219177656,-0.0012270889972916762, ,0.016129042412667625, ,0.016241741342042953, ,6.99071006167277e-05, ,0.19033447441813728,-0.23703384010857287,0.09607194077,1.691988153976627,0.4398328927449528,-1.2978780648751056, ,0.05908900470639525,0.027690966314114614,0.015316164923076924,0.003464084601097948,0.06795871815744194,-0.03741464737702247, ,1.0799939632415771
0.012515500373454906,0.021285590102255142,-0.08528789655485496, ,0.0130204413079428,0.021072040199323815,-0.0857975180185771, ,0.0007485205038272426, ,0.007371886469569313,0.0012288589357675908,-0.01429304742682246,0.01462661214050155,0.007060947219177656,-0.0012270889972916762, ,0.016129042412667625, ,0.016241741342042953, ,7.151743475057369e-05, ,0.19033447441813728,-0.23703384010857287,0.09607194077,1.691988153976627,0.4398328927449528,-1.2978780648751056, ,0.05908900470639525,0.027690966314114614,0.015316164923076924,0.003464084601097948,0.06795871815744194,-0.03741464737702247, ,1.0854558944702148
0.012591566615116016,0.021295754013552274,-0.08543750997901065, ,0.013075001674025333,0.021073935671345044,-0.08589676648388114, ,0.0007027299412918767, ,0.007903589160717105,0.001170281656900008,-0.015947213695292985,0.0027331663889466223,0.0162074916787574,0.003238280288977397, ,0.017836757144201458, ,0.01643629987661211, ,7.299031651844404e-05, ,0.1909368475823268,-0.23671720806072968,0.09623138444000001,1.691988153976627,0.44051607524378,-1.298190118173166, ,0.06251445425459208,0.03289322064418398,0.01701796102564103,0.003336256545899995,0.08096002618696164,-0.02940597697676384, ,1.0909159183502197
0.012591566615116016,0.021295754013552274,-0.08543750997901065, ,0.013129555834239373,0.021075537897166624,-0.08599602339098106, ,0.0008061419038604618, ,0.007903589160717105,0.001170281656900008,-0.015947213695292985,0.0027331663889466223,0.0162074916787574,0.003238280288977397, ,0.017836757144201458, ,0.01643629987661211, ,7.471848738447433e-05, ,0.1909368475823268,-0.23671720806072968,0.09623138444000001,1.691988153976627,0.44051607524378,-1.298190118173166, ,0.06251445425459208,0.03289322064418398,0.01701796102564103,0.003336256545899995,0.08096002618696164,-0.02940597697676384, ,1.0963108539581299
0.01267004392313039,0.021309173370710983,-0.0855997376514142, ,0.013184103426074085,0.02107685027185465,-0.08609528776734791, ,0.0007508669071352453, ,0.008151854295114407,0.0013976896653978754,-0.01673583602212125,0.02025168230146779,0.026807668677440912,0.0022869555782174663, ,0.01866800664797574, ,0.03359732761757504, ,7.628471116667823e-05, ,0.19156238894513897,-0.23640057601288647,0.09640508730000001,1.691988153976627,0.4414725307421381,-1.2987250072786192, ,0.06459968792271667,0.032577048252135525,0.017917673250843646,0.003216845674371775,0.09423331260602177,-0.04624136848068583, ,1.1028070449829102
0.01267004392313039,0.021309173370710983,-0.0855997376514142, ,0.01323864409015033,0.02107787617751123,-0.08619455864260077, ,0.0008547611087744723, ,0.008151854295114407,0.0013976896653978754,-0.01673583602212125,0.02025168230146779,0.026807668677440912,0.0022869555782174663, ,0.01866800664797574, ,0.03359732761757504, ,7.810386061341687e-05, ,0.19156238894513897,-0.23640057601288647,0.09640508730000001,1.691988153976627,0.4414725307421381,-1.2987250072786192, ,0.06459968792271667,0.032577048252135525,0.017917673250843646,0.003216845674371775,0.09423331260602177,-0.04624136848068583, ,1.1086058616638184
0.012705255705146905,0.021314716895674803,-0.08567253270343675, ,0.013293177470213415,0.021078618983294124,-0.08629383504850568, ,0.0008873617244718157, ,0.008368525685829025,0.0013545037551931493,-0.017240545751424058,0.019057306571083187,0.022869400680018942,0.0009745988330953217, ,0.019212061846250617, ,0.029768925039613203, ,8.019496620478224e-05, ,0.19184040732861105,-0.2362538440882762,0.0964828647,1.691988153976627,0.44188244024143436,-1.298977582249568, ,0.06553656184977263,0.03435805270038768,0.018414811005780348,0.003167922208097583,0.09113557756611008,-0.04706650384921211, ,1.1116468906402588
0.012705255705146905,0.021314716895674803,-0.08567253270343675, ,0.013347703213125504,0.021079082045436303,-0.08639311601897744, ,0.0009937318037531266, ,0.008368525685829025,0.0013545037551931493,-0.017240545751424058,0.019057306571083187,0.022869400680018942,0.0009745988330953217, ,0.019212061846250617, ,0.029768925039613203, ,8.254944259021612e-05, ,0.19184040732861105,-0.2362538440882762,0.0964828647,1.691988153976627,0.44188244024143436,-1.298977582249568, ,0.06553656184977263,0.03435805270038768,0.018414811005780348,0.003167922208097583,0.09113557756611008,-0.04706650384921211, ,1.1144218444824219
0.012705255705146905,0.021314716895674803,-0.08567253270343675, ,0.013402220968858597,0.021079268707265297,-0.08649240059007995, ,0.0011015351922634257, ,0.008368525685829025,0.0013545037551931493,-0.017240545751424058,0.019057306571083187,0.022869400680018942,0.0009745988330953217, ,0.019212061846250617, ,0.029768925039613203, ,8.516894323204956e-05, ,0.19184040732861105,-0.2362538440882762,0.0964828647,1.691988153976627,0.44188244024143436,-1.298977582249568, ,0.06553656184977263,0.03435805270038768,0.018414811005780348,0.003167922208097583,0.09113557756611008,-0.04706650384921211, ,1.1172289848327637
0.012846292911462848,0.021336708023098703,-0.08596244206479305, ,0.013456730390486976,0.021079182299223075,-0.08659168780002569, ,0.0009137306001023842, ,0.009977098237242708,0.0015398602662934078,-0.02037858957356061,-0.005608774122005566,-0.005947814967424451,-0.0007661872983173785, ,0.02274204414477586, ,0.008175043454393276, ,0.00047949928897703754, ,0.19291386719812825,-0.23567463912270936,0.09679138172000001,1.691988153976627,0.4431121687393234,-1.299571949682133, ,0.07437064385460092,0.04064108846187185,0.021642406956521743,0.0030004268118008722,0.07034838564543398,-0.029532519993562614, ,1.1200740337371826
0.012846292911462848,0.021336708023098703,-0.08596244206479305, ,0.013511231134179714,0.02107882613888459,-0.08669097668917719, ,0.001019513906311352, ,0.009977098237242708,0.0015398602662934078,-0.02037858957356061,-0.005608774122005566,-0.005947814967424451,-0.0007661872983173785, ,0.02274204414477586, ,0.008175043454393276, ,0.00048699949199556967, ,0.19291386719812825,-0.23567463912270936,0.09679138172000001,1.691988153976627,0.4431121687393234,-1.299571949682133, ,0.07437064385460092,0.04064108846187185,0.021642406956521743,0.0030004268118008722,0.07034838564543398,-0.029532519993562614, ,1.1228220462799072
0.012846292911462848,0.021336708023098703,-0.08596244206479305, ,0.013565722859193772,0.02107820353097873,-0.08679026630004803, ,0.0011268083184880332, ,0.009977098237242708,0.0015398602662934078,-0.02037858957356061,-0.005608774122005566,-0.005947814967424451,-0.0007661872983173785, ,0.02274204414477586, ,0.008175043454393276, ,0.0004957639964680692, ,0.19291386719812825,-0.23567463912270936,0.09679138172000001,1.691988153976627,0.4431121687393234,-1.299571949682133, ,0.07437064385460092,0.04064108846187185,0.021642406956521743,0.0030004268118008722,0.07034838564543398,-0.029532519993562614, ,1.1255619525909424
0.012846292911462848,0.021336708023098703,-0.08596244206479305, ,0.013620205227866021,0.021077317767406036,-0.08688955567730088, ,0.0012352178871462916, ,0.009977098237242708,0.0015398602662934078,-0.02037858957356061,-0.005608774122005566,-0.005947814967424451,-0.0007661872983173785, ,0.02274204414477586, ,0.008175043454393276, ,0.0005057566166123695, ,0.19291386719812825,-0.23567463912270936,0.09679138172000001,1.691988153976627,0.4431121687393234,-1.299571949682133, ,0.07437064385460092,0.04064108846187185,0.021642406956521743,0.0030004268118008722,0.07034838564543398,-0.029532519993562614, ,1.1283349990844727
0.012957258432925332,0.021354399827250896,-0.08620166182633604, ,0.013674677905606301,0.021076172127259388,-0.08698884386775096, ,0.0011007983099326473, ,0.011846519854636636,0.002303264621361826,-0.02717584501089822,0.07485735246194287,0.05453353650713072,-0.006777630372997788, ,0.029735023333414063, ,0.09261487461146196, ,0.0005136905058566399, ,0.19374019961567027,-0.23519582968450745,0.09704545456000001,1.691988153976627,0.44420526073744687,-1.3002182566912828, ,0.08714136047609806,0.05112981765003813,0.02890891382940109,0.002901368285690024,0.14679538035892548,-0.11774086656486468, ,1.1311228275299072
0.012957258432925332,0.021354399827250896,-0.08620166182633604, ,0.013729140560889893,0.021074769876843126,-0.08708812992036459, ,0.0012082303631206926, ,0.011846519854636636,0.002303264621361826,-0.02717584501089822,0.07485735246194287,0.05453353650713072,-0.006777630372997788, ,0.029735023333414063, ,0.09261487461146196, ,0.0005228291881890616, ,0.19374019961567027,-0.23519582968450745,0.09704545456000001,1.691988153976627,0.44420526073744687,-1.3002182566912828, ,0.08714136047609806,0.05112981765003813,0.02890891382940109,0.002901368285690024,0.14679538035892548,-0.11774086656486468, ,1.1339049339294434
0.012957258432925332,0.021354399827250896,-0.08620166182633604, ,0.013783592865250289,0.021073114269692557,-0.08718741288626063, ,0.0013166834513576751, ,0.011846519854636636,0.002303264621361826,-0.02717584501089822,0.07485735246194287,0.05453353650713072,-0.006777630372997788, ,0.029735023333414063, ,0.09261487461146196, ,0.000533138983814628, ,0.19374019961567027,-0.23519582968450745,0.09704545456000001,1.691988153976627,0.44420526073744687,-1.3002182566912828, ,0.08714136047609806,0.05112981765003813,0.02890891382940109,0.002901368285690024,0.14679538035892548,-0.11774086656486468, ,1.1367850303649902
0.013082123545052348,0.02138486499319769,-0.08650310738213873, ,0.01383803449327162,0.021071208546593428,-0.08728669181870986, ,0.0011330429371258037, ,0.013371092715281824,0.0037135428254161523,-0.03323031822290508,0.09731939774985235,0.09499408186780581,1.4495227226208772e-05, ,0.03601153384559452, ,0.1359959567340715, ,0.0005408300601391302, ,0.19464375936195455,-0.23468612931480862,0.09736693448000001,1.691988153976627,0.4459815352343976,-1.3016666894393363, ,0.09489694155847078,0.05214117668047844,0.035476194922048995,0.0028106459703509923,0.1968362100428397,-0.1382680637630636, ,1.140260934829712
0.013082123545052348,0.02138486499319769,-0.08650310738213873, ,0.013892465122581387,0.02106905593560083,-0.08738596577313691, ,0.0012392851857778188, ,0.013371092715281824,0.0037135428254161523,-0.03323031822290508,0.09731939774985235,0.09499408186780581,1.4495227226208772e-05, ,0.03601153384559452, ,0.1359959567340715, ,0.0005496712642611389, ,0.19464375936195455,-0.23468612931480862,0.09736693448000001,1.691988153976627,0.4459815352343976,-1.3016666894393363, ,0.09489694155847078,0.05214117668047844,0.035476194922048995,0.0028106459703509923,0.1968362100428397,-0.1382680637630636, ,1.1434040069580078
0.013082123545052348,0.02138486499319769,-0.08650310738213873, ,0.013946884433843152,0.021066659652059873,-0.08748523380711973, ,0.0013467139074639595, ,0.013371092715281824,0.0037135428254161523,-0.03323031822290508,0.09731939774985235,0.09499408186780581,1.4495227226208772e-05, ,0.03601153384559452, ,0.1359959567340715, ,0.0005596342973011742, ,0.19464375936195455,-0.23468612931480862,0.09736693448000001,1.691988153976627,0.4459815352343976,-1.3016666894393363, ,0.09489694155847078,0.05214117668047844,0.035476194922048995,0.0028106459703509923,0.1968362100428397,-0.1382680637630636, ,1.1469779014587402
0.013082123545052348,0.02138486499319769,-0.08650310738213873, ,0.014001292110749084,0.021064022898624114,-0.08758449498039034, ,0.0014550634486054988, ,0.013371092715281824,0.0037135428254161523,-0.03323031822290508,0.09731939774985235,0.09499408186780581,1.4495227226208772e-05, ,0.03601153384559452, ,0.1359959567340715, ,0.0005706889781814745, ,0.19464375936195455,-0.23468612931480862,0.09736693448000001,1.691988153976627,0.4459815352343976,-1.3016666894393363, ,0.09489694155847078,0.05214117668047844,0.035476194922048995,0.0028106459703509923,0.1968362100428397,-0.1382680637630636, ,1.1498358249664307
0.013175647262099827,0.02141136948620349,-0.08673535085257786, ,0.014055687840012538,0.021061148865275207,-0.08768374835483518, ,0.0013403670110772865, ,0.014756276611008453,0.0040034385543482025,-0.03594754826575811,0.07459342192431687,0.06710875937209432,-0.0015580905317280798, ,0.03906406847728544, ,0.10033794970935449, ,0.0005800752956558136, ,0.1952924689233894,-0.2343308836025943,0.09761452587000001,1.691988153976627,0.4472112637322866,-1.3025877718324632, ,0.10182075274514032,0.055986396199687774,0.03829041230769231,0.0027533797384516625,0.17499706307012883,-0.12033266463652284, ,1.153156042098999
0.013175647262099827,0.02141136948620349,-0.08673535085257786, ,0.014110071311360745,0.021058040729342652,-0.08778299299449563, ,0.0014475992441915855, ,0.014756276611008453,0.0040034385543482025,-0.03594754826575811,0.07459342192431687,0.06710875937209432,-0.0015580905317280798, ,0.03906406847728544, ,0.10033794970935449, ,0.0005905273914213049, ,0.1952924689233894,-0.2343308836025943,0.09761452587000001,1.691988153976627,0.4472112637322866,-1.3025877718324632, ,0.10182075274514032,0.055986396199687774,0.03829041230769231,0.0027533797384516625,0.17499706307012883,-0.12033266463652284, ,1.155911922454834
0.013175647262099827,0.02141136948620349,-0.08673535085257786, ,0.014164442217527443,0.02105470165552314,-0.08788222796556876, ,0.0015557167215221632, ,0.014756276611008453,0.0040034385543482025,-0.03594754826575811,0.07459342192431687,0.06710875937209432,-0.0015580905317280798, ,0.03906406847728544, ,0.10033794970935449, ,0.0006020177405891722, ,0.1952924689233894,-0.2343308836025943,0.09761452587000001,1.691988153976627,0.4472112637322866,-1.3025877718324632, ,0.10182075274514032,0.055986396199687774,0.03829041230769231,0.0027533797384516625,0.17499706307012883,-0.12033266463652284, ,1.158721923828125
0.013396132607318766,0.021467181581662408,-0.08726548080146936, ,0.014218800254245547,0.021051134795899946,-0.0879814523364076, ,0.0011672584221521576, ,0.016184229227477167,0.003971349661912781,-0.03840882363004424,0.0023732316390465058,-0.0014739253703925865,-0.0030366728772786467, ,0.041868109898448316, ,0.0027786857099059304, ,0.0006086676309605014, ,0.19676751090236627,-0.2334813829864296,0.09817711573000001,1.691988153976627,0.4492608112287682,-1.303850646687207, ,0.10462727845476381,0.06174166659627246,0.04063472326530613,0.002638745253549674,0.10650165413888704,-0.0565890779850918, ,1.1614928245544434
0.013396132607318766,0.021467181581662408,-0.08726548080146936, ,0.014273145120239698,0.02104734328996262,-0.0880806651775217, ,0.0012688343887037124, ,0.016184229227477167,0.003971349661912781,-0.03840882363004424,0.0023732316390465058,-0.0014739253703925865,-0.0030366728772786467, ,0.041868109898448316, ,0.0027786857099059304, ,0.0006163439886086783, ,0.19676751090236627,-0.2334813829864296,0.09817711573000001,1.691988153976627,0.4492608112287682,-1.303850646687207, ,0.10462727845476381,0.06174166659627246,0.04063472326530613,0.002638745253549674,0.10650165413888704,-0.0565890779850918, ,1.164228916168213
0.013396132607318766,0.021467181581662408,-0.08726548080146936, ,0.014327476517218773,0.021043330264626046,-0.08817986556157689, ,0.0013722794565897314, ,0.016184229227477167,0.003971349661912781,-0.03840882363004424,0.0023732316390465058,-0.0014739253703925865,-0.0030366728772786467, ,0.041868109898448316, ,0.0027786857099059304, ,0.0006250329020337478, ,0.19676751090236627,-0.2334813829864296,0.09817711573000001,1.691988153976627,0.4492608112287682,-1.303850646687207, ,0.10462727845476381,0.06174166659627246,0.04063472326530613,0.002638745253549674,0.10650165413888704,-0.0565890779850918, ,1.1669938564300537
0.013563675727419466,0.021497547815417798,-0.0876412332039615, ,0.01438179414986881,0.02103909883425024,-0.08827905256339691, ,0.001477197086265406, ,0.017511013557543406,0.0021791871743824455,-0.03788908181389818,-0.05830107249210487,-0.01788229149440586,0.007264211003151356, ,0.04179673400223673, ,0.06098125381884946, ,0.0006347165859454712, ,0.1978795844362546,-0.23277861429487517,0.09857378047000001,1.6921978439201113,0.4502172667271263,-1.304222178312379, ,0.11936722208612675,0.07941166657612617,0.03992183338345865,0.0,0.10514375302236509,-0.012244412714892836, ,1.1703050136566162
0.013563675727419466,0.021497547815417798,-0.0876412332039615, ,0.014436097725845143,0.021034652100659253,-0.08837822525996315, ,0.001232294557599124, ,0.017511013557543406,0.0021791871743824455,-0.03788908181389818,-0.05830107249210487,-0.01788229149440586,0.007264211003151356, ,0.04179673400223673, ,0.06098125381884946, ,0.0006414309451775347, ,0.1978795844362546,-0.23277861429487517,0.09857378047000001,1.6921978439201113,0.4502172667271263,-1.304222178312379, ,0.11936722208612675,0.07941166657612617,0.03992183338345865,0.0,0.10514375302236509,-0.012244412714892836, ,1.173130989074707
0.013563675727419466,0.021497547815417798,-0.0876412332039615, ,0.014490386955765707,0.02102999315316214,-0.08847738273041553, ,0.0013328717468418696, ,0.017511013557543406,0.0021791871743824455,-0.03788908181389818,-0.05830107249210487,-0.01788229149440586,0.007264211003151356, ,0.04179673400223673, ,0.06098125381884946, ,0.0006491136207515828, ,0.1978795844362546,-0.23277861429487517,0.09857378047000001,1.6921978439201113,0.4502172667271263,-1.304222178312379, ,0.11936722208612675,0.07941166657612617,0.03992183338345865,0.0,0.10514375302236509,-0.012244412714892836, ,1.175874948501587
0.013563675727419466,0.021497547815417798,-0.0876412332039615, ,0.014544661553202956,0.021025125068570134,-0.08857652405605222, ,0.0014353694368112338, ,0.017511013557543406,0.0021791871743824455,-0.03788908181389818,-0.05830107249210487,-0.01788229149440586,0.007264211003151356, ,0.04179673400223673, ,0.06098125381884946, ,0.0006577537945544361, ,0.1978795844362546,-0.23277861429487517,0.09857378047000001,1.6921978439201113,0.4502172667271263,-1.304222178312379, ,0.11936722208612675,0.07941166657612617,0.03992183338345865,0.0,0.10514375302236509,-0.012244412714892836, ,1.178591012954712
0.013734266778757578,0.0215178154175397,-0.08800190421354853, ,0.014598921234676931,0.021020050911218148,-0.08867564832033109, ,0.0012038803733423684, ,0.017278175779329125,0.0017190931098551485,-0.03557742768165492,0.036920549758987155,0.04250500411808136,0.0005044832460351553, ,0.039588432651787735, ,0.056300491737318874, ,0.0006636899530195223, ,0.19909977623038208,-0.23201406374032693,0.09895618602,1.6921978439201113,0.45172026822454614,-1.305202739032618, ,0.12737844504492724,0.07855707082654866,0.03783565681710214,0.0,0.17646903847608725,-0.10466842696537698, ,1.1813459396362305
0.013734266778757578,0.0215178154175397,-0.08800190421354853, ,0.014653165719647712,0.021014773732983136,-0.08877475460886936, ,0.0013018156296181378, ,0.017278175779329125,0.0017190931098551485,-0.03557742768165492,0.036920549758987155,0.04250500411808136,0.0005044832460351553, ,0.039588432651787735, ,0.056300491737318874, ,0.0006705515194345613, ,0.19909977623038208,-0.23201406374032693,0.09895618602,1.6921978439201113,0.45172026822454614,-1.305202739032618, ,0.12737844504492724,0.07855707082654866,0.03783565681710214,0.0,0.17646903847608725,-0.10466842696537698, ,1.1841709613800049
0.013734266778757578,0.0215178154175397,-0.08800190421354853, ,0.014707394730507918,0.021009296573303672,-0.08887384200944475, ,0.0014020859265156704, ,0.017278175779329125,0.0017190931098551485,-0.03557742768165492,0.036920549758987155,0.04250500411808136,0.0005044832460351553, ,0.039588432651787735, ,0.056300491737318874, ,0.000678333800360956, ,0.19909977623038208,-0.23201406374032693,0.09895618602,1.6921978439201113,0.45172026822454614,-1.305202739032618, ,0.12737844504492724,0.07855707082654866,0.03783565681710214,0.0,0.17646903847608725,-0.10466842696537698, ,1.187047004699707
0.013734266778757578,0.0215178154175397,-0.08800190421354853, ,0.01476160799257573,0.021003622459199924,-0.0889729096119952, ,0.0015042193496389161, ,0.017278175779329125,0.0017190931098551485,-0.03557742768165492,0.036920549758987155,0.04250500411808136,0.0005044832460351553, ,0.039588432651787735, ,0.056300491737318874, ,0.0006870273324586188, ,0.19909977623038208,-0.23201406374032693,0.09895618602,1.6921978439201113,0.45172026822454614,-1.305202739032618, ,0.12737844504492724,0.07855707082654866,0.03783565681710214,0.0,0.17646903847608725,-0.10466842696537698, ,1.1899678707122803
0.013899131364103359,0.021523963187409553,-0.08832604321035332, ,0.014815805234087097,0.020997754405292873,-0.08907195650862036, ,0.0012936666165667614, ,0.017897794869309227,5.928269147943401e-05,-0.033016966013517945,0.05798452445386928,0.04448778543607238,-0.0018795905472883368, ,0.03755601976193936, ,0.07308439568778771, ,0.0006933464916680786, ,0.2003663044217549,-0.23120317678853336,0.09930099916000001,1.691988153976627,0.45363317922126234,-1.3065992322040867, ,0.1403800910628266,0.08944103822664541,0.03516293933774835,-0.004790865488580703,0.19322216107524195,-0.13732588284089087, ,1.1942648887634277
0.013899131364103359,0.021523963187409553,-0.08832604321035332, ,0.014869986186188351,0.02099169541382305,-0.08917098179358049, ,0.0013927631807993572, ,0.017897794869309227,5.928269147943401e-05,-0.033016966013517945,0.05798452445386928,0.04448778543607238,-0.0018795905472883368, ,0.03755601976193936, ,0.07308439568778771, ,0.0007005569729993289, ,0.2003663044217549,-0.23120317678853336,0.09930099916000001,1.691988153976627,0.45363317922126234,-1.3065992322040867, ,0.1403800910628266,0.08944103822664541,0.03516293933774835,-0.004790865488580703,0.19322216107524195,-0.13732588284089087, ,1.197187900543213
0.013899131364103359,0.021523963187409553,-0.08832604321035332, ,0.01492415058292909,0.02098544847467106,-0.08926998456329865, ,0.0014938834534856432, ,0.017897794869309227,5.928269147943401e-05,-0.033016966013517945,0.05798452445386928,0.04448778543607238,-0.0018795905472883368, ,0.03755601976193936, ,0.07308439568778771, ,0.0007086521411675565, ,0.2003663044217549,-0.23120317678853336,0.09930099916000001,1.691988153976627,0.45363317922126234,-1.3065992322040867, ,0.1403800910628266,0.08944103822664541,0.03516293933774835,-0.004790865488580703,0.19322216107524195,-0.13732588284089087, ,1.20005202293396
0.01409400570088702,0.02151817177997333,-0.08865990120194756, ,0.014978298161254518,0.020979016565376256,-0.08936896391636007, ,0.0012551619153958026, ,0.01852681799038124,-0.0011397539689801167,-0.030424361501883403,-0.028203971770466713,-0.03191554108965682,-0.0008083938418202177, ,0.03563963799978621, ,0.04259154515506322, ,0.0007141724419173368, ,0.20190312826372558,-0.23023011244638109,0.09965618262,1.691988153976627,0.45527281721844753,-1.307691210828022, ,0.145102357123044,0.09461310225171563,0.03224455773279353,-0.004790865488580703,0.11857194277381645,-0.05886922208744358, ,1.2034409046173096
0.01409400570088702,0.02151817177997333,-0.08865990120194756, ,0.015032428660998434,0.02097240265115716,-0.08946791895351298, ,0.0013532901687656944, ,0.01852681799038124,-0.0011397539689801167,-0.030424361501883403,-0.028203971770466713,-0.03191554108965682,-0.0008083938418202177, ,0.03563963799978621, ,0.04259154515506322, ,0.0007205636191858203, ,0.20190312826372558,-0.23023011244638109,0.09965618262,1.691988153976627,0.45527281721844753,-1.307691210828022, ,0.145102357123044,0.09461310225171563,0.03224455773279353,-0.004790865488580703,0.11857194277381645,-0.05886922208744358, ,1.206169843673706
0.01409400570088702,0.02151817177997333,-0.08865990120194756, ,0.015086541824875415,0.02096560968492985,-0.08956684877766904, ,0.0014536184958261352, ,0.01852681799038124,-0.0011397539689801167,-0.030424361501883403,-0.028203971770466713,-0.03191554108965682,-0.0008083938418202177, ,0.03563963799978621, ,0.04259154515506322, ,0.000727821588261467, ,0.20190312826372558,-0.23023011244638109,0.09965618262,1.691988153976627,0.45527281721844753,-1.307691210828022, ,0.145102357123044,0.09461310225171563,0.03224455773279353,-0.004790865488580703,0.11857194277381645,-0.05886922208744358, ,1.2089169025421143
0.014283852261485947,0.021500435136582004,-0.08895843433974784, ,0.015140637398473518,0.02095864060732772,-0.08966575249390378, ,0.0012360910379463333, ,0.01937778824448523,-0.0025171049048181753,-0.02949424084477806,-0.043419738789117965,-0.0906210291667929,-0.01686709722295363, ,0.03538000476766141, ,0.10048593097632703, ,0.0007328046220819068, ,0.20337817024270247,-0.22923387990560612,0.09997118109000001,1.691988153976627,0.4560926362170402,-1.308114682029779, ,0.15039134953798858,0.10603010229996734,0.030989905680933853,-0.004790865488580703,0.06329739100896706,-0.05884901364746696, ,1.2116470336914062
0.014283852261485947,0.021500435136582004,-0.08895843433974784, ,0.015194715130247158,0.020951498346721383,-0.08976462920945669, ,0.0013345234853292182, ,0.01937778824448523,-0.0025171049048181753,-0.02949424084477806,-0.043419738789117965,-0.0906210291667929,-0.01686709722295363, ,0.03538000476766141, ,0.10048593097632703, ,0.0007386465527930457, ,0.20337817024270247,-0.22923387990560612,0.09997118109000001,1.691988153976627,0.4560926362170402,-1.308114682029779, ,0.15039134953798858,0.10603010229996734,0.030989905680933853,-0.004790865488580703,0.06329739100896706,-0.05884901364746696, ,1.2143909931182861
0.014283852261485947,0.021500435136582004,-0.08895843433974784, ,0.015248774771509543,0.02094418581923796,-0.08986347803373272, ,0.0014351281620182035, ,0.01937778824448523,-0.0025171049048181753,-0.02949424084477806,-0.043419738789117965,-0.0906210291667929,-0.01686709722295363, ,0.03538000476766141, ,0.10048593097632703, ,0.0007453434913432875, ,0.20337817024270247,-0.22923387990560612,0.09997118109000001,1.691988153976627,0.4560926362170402,-1.308114682029779, ,0.15039134953798858,0.10603010229996734,0.030989905680933853,-0.004790865488580703,0.06329739100896706,-0.05884901364746696, ,1.2171459197998047
0.014485962550024172,0.02147005369552093,-0.08926713741499713, ,0.015302816076425058,0.020936705928779952,-0.08996229807830165, ,0.0011978972709239858, ,0.019538769917360463,-0.002930760965403835,-0.0303285632508473,-0.027903754183879866,-0.06515917941293221,-0.017235484485204015, ,0.036196334601455576, ,0.07088238497096024, ,0.0007496535273392942, ,0.20495360774904425,-0.2280909154402209,0.10029525359000001,1.6917784640331426,0.45691245521563284,-1.308701510711817, ,0.15159255840011304,0.1120388920406975,0.031857623040000005,-0.004336814370182192,0.09086735366105886,-0.078850450515913, ,1.2207648754119873
0.014485962550024172,0.02147005369552093,-0.08926713741499713, ,0.015356838802002223,0.020929061567045368,-0.09006108845689884, ,0.0012967097540578071, ,0.019538769917360463,-0.002930760965403835,-0.0303285632508473,-0.027903754183879866,-0.06515917941293221,-0.017235484485204015, ,0.036196334601455576, ,0.07088238497096024, ,0.0007548144351385255, ,0.20495360774904425,-0.2280909154402209,0.10029525359000001,1.6917784640331426,0.45691245521563284,-1.308701510711817, ,0.15159255840011304,0.1120388920406975,0.031857623040000005,-0.004336814370182192,0.09086735366105886,-0.078850450515913, ,1.2234909534454346
0.014485962550024172,0.02147005369552093,-0.08926713741499713, ,0.015410842708086098,0.02092125561354708,-0.09015984828542596, ,0.0013976821311502225, ,0.019538769917360463,-0.002930760965403835,-0.0303285632508473,-0.027903754183879866,-0.06515917941293221,-0.017235484485204015, ,0.036196334601455576, ,0.07088238497096024, ,0.000760822544447046, ,0.20495360774904425,-0.2280909154402209,0.10029525359000001,1.6917784640331426,0.45691245521563284,-1.308701510711817, ,0.15159255840011304,0.1120388920406975,0.031857623040000005,-0.004336814370182192,0.09086735366105886,-0.078850450515913, ,1.2262358665466309
0.014485962550024172,0.02147005369552093,-0.08926713741499713, ,0.01546482755735108,0.020913290935632038,-0.09025857668195152, ,0.0015003710519159098, ,0.019538769917360463,-0.002930760965403835,-0.0303285632508473,-0.027903754183879866,-0.06515917941293221,-0.017235484485204015, ,0.036196334601455576, ,0.07088238497096024, ,0.0007676702158124985, ,0.20495360774904425,-0.2280909154402209,0.10029525359000001,1.6917784640331426,0.45691245521563284,-1.308701510711817, ,0.15159255840011304,0.1120388920406975,0.031857623040000005,-0.004336814370182192,0.09086735366105886,-0.078850450515913, ,1.228977918624878
0.014681799675152932,0.02143871434116442,-0.0895778431395511, ,0.0155187931152934,0.020905170388501253,-0.09035727276671077, ,0.0012620371278040403, ,0.020122421084474474,-0.0029343283514701793,-0.031730915023385486,-0.00345391758475701,-0.03857992521051606,-0.004991676600045204, ,0.03768783731386633, ,0.03873380963385847, ,0.0007722056920693017, ,0.2064827088581407,-0.22694795097483567,0.10062191867,1.6913590841461734,0.45814218371352183,-1.3097042718450849, ,0.1568544488569765,0.11474841784579294,0.03346388974789917,-0.016557137988271468,0.12674314053007357,-0.1068109590877848, ,1.2316899299621582
0.014681799675152932,0.02143871434116442,-0.0895778431395511, ,0.015572739150223421,0.020896896815228095,-0.09045593566210705, ,0.001363226268019846, ,0.020122421084474474,-0.0029343283514701793,-0.031730915023385486,-0.00345391758475701,-0.03857992521051606,-0.004991676600045204, ,0.03768783731386633, ,0.03873380963385847, ,0.0007775786063961248, ,0.2064827088581407,-0.22694795097483567,0.10062191867,1.6913590841461734,0.45814218371352183,-1.3097042718450849, ,0.1568544488569765,0.11474841784579294,0.03346388974789917,-0.016557137988271468,0.12674314053007357,-0.1068109590877848, ,1.2346789836883545
0.014681799675152932,0.02143871434116442,-0.0895778431395511, ,0.015626665433258767,0.02088847304677905,-0.0905545644927106, ,0.001466124614282677, ,0.020122421084474474,-0.0029343283514701793,-0.031730915023385486,-0.00345391758475701,-0.03857992521051606,-0.004991676600045204, ,0.03768783731386633, ,0.03873380963385847, ,0.000783781723584292, ,0.2064827088581407,-0.22694795097483567,0.10062191867,1.6913590841461734,0.45814218371352183,-1.3097042718450849, ,0.1568544488569765,0.11474841784579294,0.03346388974789917,-0.016557137988271468,0.12674314053007357,-0.1068109590877848, ,1.2387089729309082
0.01481467013773703,0.021420824665331004,-0.08978906924728376, ,0.01568057173831667,0.020879901902032625,-0.09065315838526151, ,0.0013375474033139423, ,0.021031493655258457,-0.002863951023897958,-0.034279937907016944,-0.0042276939568242685,-0.03680284791409216,-0.005930465936057694, ,0.04031922722160483, ,0.037044239415130915, ,0.0007887260600104496, ,0.20750983233041256,-0.2261988458860359,0.10084488055000002,1.6913590841461734,0.45896200271211446,-1.3103727792672633, ,0.16057012108032281,0.11997084899933096,0.03611975401360545,-0.016557137988271468,0.132425120507803,-0.11088132465400938, ,1.2415459156036377
0.01481467013773703,0.021420824665331004,-0.08978906924728376, ,0.015734457842106604,0.0208711861877989,-0.09075171646866782, ,0.0014404171444174461, ,0.021031493655258457,-0.002863951023897958,-0.034279937907016944,-0.0042276939568242685,-0.03680284791409216,-0.005930465936057694, ,0.04031922722160483, ,0.037044239415130915, ,0.0007944932377485647, ,0.20750983233041256,-0.2261988458860359,0.10084488055000002,1.6913590841461734,0.45896200271211446,-1.3103727792672633, ,0.16057012108032281,0.11997084899933096,0.03611975401360545,-0.016557137988271468,0.132425120507803,-0.11088132465400938, ,1.2443089485168457
0.01481467013773703,0.021420824665331004,-0.08978906924728376, ,0.015788323524122773,0.02086232869883848,-0.0908502378740072, ,0.0015446674450349987, ,0.021031493655258457,-0.002863951023897958,-0.034279937907016944,-0.0042276939568242685,-0.03680284791409216,-0.005930465936057694, ,0.04031922722160483, ,0.037044239415130915, ,0.0008010737132510773, ,0.20750983233041256,-0.2261988458860359,0.10084488055000002,1.6913590841461734,0.45896200271211446,-1.3103727792672633, ,0.16057012108032281,0.11997084899933096,0.03611975401360545,-0.016557137988271468,0.132425120507803,-0.11088132465400938, ,1.2470510005950928
0.01481467013773703,0.021420824665331004,-0.08978906924728376, ,0.015842168566636883,0.02085333221788284,-0.0909487217345272, ,0.001650028663530505, ,0.021031493655258457,-0.002863951023897958,-0.034279937907016944,-0.0042276939568242685,-0.03680284791409216,-0.005930465936057694, ,0.04031922722160483, ,0.037044239415130915, ,0.0008084559302100287, ,0.20750983233041256,-0.2261988458860359,0.10084488055000002,1.6913590841461734,0.45896200271211446,-1.3103727792672633, ,0.16057012108032281,0.11997084899933096,0.03611975401360545,-0.016557137988271468,0.132425120507803,-0.11088132465400938, ,1.2498290538787842
0.01511564321949807,0.021377473841807142,-0.0902756996576802, ,0.0158959927546908,0.020844199515653184,-0.09104716718564566, ,0.001220036495649047, ,0.022072157281937278,-0.003222759389359726,-0.03556202676109993,-0.035412040936147346,-0.06882453993307659,-0.0022714005043261948, ,0.04197885244402794, ,0.07740008439147673, ,0.0008120040385327789, ,0.20978031579543457,-0.22447667645508382,0.10135691510000001,1.6911493942026892,0.46060164070929976,-1.3117097941116203, ,0.1644661032209199,0.12535923587644754,0.03739157633802818,-0.022568489844158816,0.10454189133989183,-0.0873702427599747, ,1.2525229454040527
0.01511564321949807,0.021377473841807142,-0.0902756996576802, ,0.01594979587608878,0.020834933350879912,-0.09114557336495123, ,0.0013216811663159685, ,0.022072157281937278,-0.003222759389359726,-0.03556202676109993,-0.035412040936147346,-0.06882453993307659,-0.0022714005043261948, ,0.04197885244402794, ,0.07740008439147673, ,0.0008163602533001566, ,0.20978031579543457,-0.22447667645508382,0.10135691510000001,1.6911493942026892,0.46060164070929976,-1.3117097941116203, ,0.1644661032209199,0.12535923587644754,0.03739157633802818,-0.022568489844158816,0.10454189133989183,-0.0873702427599747, ,1.2552540302276611
0.01511564321949807,0.021377473841807142,-0.0902756996576802, ,0.016003577721390487,0.020825536470322384,-0.09124393941220336, ,0.0014249739520186013, ,0.022072157281937278,-0.003222759389359726,-0.03556202676109993,-0.035412040936147346,-0.06882453993307659,-0.0022714005043261948, ,0.04197885244402794, ,0.07740008439147673, ,0.0008215179965096349, ,0.20978031579543457,-0.22447667645508382,0.10135691510000001,1.6911493942026892,0.46060164070929976,-1.3117097941116203, ,0.1644661032209199,0.12535923587644754,0.03739157633802818,-0.022568489844158816,0.10454189133989183,-0.0873702427599747, ,1.2580108642578125
0.01511564321949807,0.021377473841807142,-0.0902756996576802, ,0.01605733808390347,0.020816011608788158,-0.09134226446933397, ,0.0015295716897916862, ,0.022233907961789815,-0.003694900655595872,-0.03650368312799146,-0.034810852421712106,-0.0597335678882541,-0.00353942533588448, ,0.042901256811623496, ,0.06913631291012898, ,0.0008274680275456185, ,0.21144842609626707,-0.2231792573322141,0.10173802436000001,1.6911493942026892,0.4616947327074232,-1.3126011373411917, ,0.16333380646896864,0.13161850424198443,0.03829041230769231,-0.022568489844158816,0.11277178709509295,-0.0937198269472642, ,1.2607150077819824
0.015340417935670238,0.021343230342457383,-0.09063818550848131, ,0.016111076759675776,0.020806361489152696,-0.09144054768044635, ,0.0012352846812240265, ,0.022233907961789815,-0.003694900655595872,-0.03650368312799146,-0.034810852421712106,-0.0597335678882541,-0.00353942533588448, ,0.042901256811623496, ,0.06913631291012898, ,0.0008308664996596052, ,0.21144842609626707,-0.2231792573322141,0.10173802436000001,1.6911493942026892,0.4616947327074232,-1.3126011373411917, ,0.16333380646896864,0.13161850424198443,0.03829041230769231,-0.022568489844158816,0.11277178709509295,-0.0937198269472642, ,1.2636148929595947
0.015340417935670238,0.021343230342457383,-0.09063818550848131, ,0.016164793547488135,0.020796588822377927,-0.09153878819181606, ,0.0013377209328049938, ,0.022233907961789815,-0.003694900655595872,-0.03650368312799146,-0.034810852421712106,-0.0597335678882541,-0.00353942533588448, ,0.042901256811623496, ,0.06913631291012898, ,0.0008350553792723771, ,0.21144842609626707,-0.2231792573322141,0.10173802436000001,1.6911493942026892,0.4616947327074232,-1.3126011373411917, ,0.16333380646896864,0.13161850424198443,0.03829041230769231,-0.022568489844158816,0.11277178709509295,-0.0937198269472642, ,1.266355037689209
0.015340417935670238,0.021343230342457383,-0.09063818550848131, ,0.016218488248847168,0.020786696307532923,-0.09163698515189302, ,0.0014416443162553261, ,0.022233907961789815,-0.003694900655595872,-0.03650368312799146,-0.034810852421712106,-0.0597335678882541,-0.00353942533588448, ,0.042901256811623496, ,0.06913631291012898, ,0.0008400274197394504, ,0.21144842609626707,-0.2231792573322141,0.10173802436000001,1.6911493942026892,0.4616947327074232,-1.3126011373411917, ,0.16333380646896864,0.13161850424198443,0.03829041230769231,-0.022568489844158816,0.11277178709509295,-0.0937198269472642, ,1.2691349983215332
0.015541836095732637,0.02130644440912521,-0.09096434418615473, ,0.016272160667978083,0.02077668663181324,-0.09173513771129953, ,0.0011866507244565068, ,0.021621786020492733,-0.003929802170353462,-0.035090587410492854,-0.020168033484413386,-0.04149542917835486,-0.0076425288496497785, ,0.041404037250339844, ,0.04613639574385005, ,0.0008428454953875565, ,0.2129389135409924,-0.22196678827096086,0.10208024492000001,1.6909397042592043,0.4627878247055468,-1.313492480570763, ,0.16002856923856792,0.12999581035406957,0.036872248888888896,-0.0177298171663675,0.12711479742103204,-0.10517423750799294, ,1.2719249725341797
0.015541836095732637,0.02130644440912521,-0.09096434418615473, ,0.016325810611816306,0.020766562470559028,-0.09183324502283205, ,0.0012888278447632726, ,0.021621786020492733,-0.003929802170353462,-0.035090587410492854,-0.020168033484413386,-0.04149542917835486,-0.0076425288496497785, ,0.041404037250339844, ,0.04613639574385005, ,0.0008464421272373608, ,0.2129389135409924,-0.22196678827096086,0.10208024492000001,1.6909397042592043,0.4627878247055468,-1.313492480570763, ,0.16002856923856792,0.12999581035406957,0.036872248888888896,-0.0177298171663675,0.12711479742103204,-0.10517423750799294, ,1.2760119438171387
0.015541836095732637,0.02130644440912521,-0.09096434418615473, ,0.01637943789000116,0.020756326487276065,-0.09193130624146162, ,0.0013925595535217831, ,0.021621786020492733,-0.003929802170353462,-0.035090587410492854,-0.020168033484413386,-0.04149542917835486,-0.0076425288496497785, ,0.041404037250339844, ,0.04613639574385005, ,0.0008508110666476361, ,0.2129389135409924,-0.22196678827096086,0.10208024492000001,1.6909397042592043,0.4627878247055468,-1.313492480570763, ,0.16002856923856792,0.12999581035406957,0.036872248888888896,-0.0177298171663675,0.12711479742103204,-0.10517423750799294, ,1.278937816619873
0.015541836095732637,0.02130644440912521,-0.09096434418615473, ,0.016433042314867915,0.02074598133365442,-0.09202932052433382, ,0.001497511931462624, ,0.021621786020492733,-0.003929802170353462,-0.035090587410492854,-0.020168033484413386,-0.04149542917835486,-0.0076425288496497785, ,0.041404037250339844, ,0.04613639574385005, ,0.0008559436131937868, ,0.2129389135409924,-0.22196678827096086,0.10208024492000001,1.6909397042592043,0.4627878247055468,-1.313492480570763, ,0.16002856923856792,0.12999581035406957,0.036872248888888896,-0.0177298171663675,0.12711479742103204,-0.10517423750799294, ,1.2819299697875977
0.015752937535685203,0.02126426022605885,-0.09130535762795645, ,0.016486623701440342,0.020735529649587928,-0.09212728703076992, ,0.0012220553815294318, ,0.021599074211403405,-0.00443424718498316,-0.034924284557097666,-0.02926652268917424,-0.04571158618421681,-0.005298433557951892, ,0.041302399527295905, ,0.05427731114902271, ,0.0008588263830232014, ,0.21449890558158577,-0.22067709188096538,0.10243802096000001,1.6905203243722353,0.46401755320343574,-1.314495241704031, ,0.15842561195070248,0.13365766416686023,0.03661795751724139,-0.021409302374740355,0.12183575255591492,-0.10067127527143681, ,1.2848060131072998
0.015752937535685203,0.02126426022605885,-0.09130535762795645, ,0.01654018186742351,0.020724974063193707,-0.09222520492226632, ,0.00132540644640091, ,0.021599074211403405,-0.00443424718498316,-0.034924284557097666,-0.02926652268917424,-0.04571158618421681,-0.005298433557951892, ,0.041302399527295905, ,0.05427731114902271, ,0.0008624715397683397, ,0.21449890558158577,-0.22067709188096538,0.10243802096000001,1.6905203243722353,0.46401755320343574,-1.314495241704031, ,0.15842561195070248,0.13365766416686023,0.03661795751724139,-0.021409302374740355,0.12183575255591492,-0.10067127527143681, ,1.288424015045166
0.015977131784154518,0.021216612892732033,-0.09167242401333842, ,0.016593716633196497,0.020714317190831947,-0.09232307336249654, ,0.0010275322008459437, ,0.020936007568371013,-0.0046291826523463964,-0.033482266238205674,-0.07637810964623513,-0.09440020873230075,0.03273876901965211, ,0.03975937496211127, ,0.12142888026322238, ,0.0008637510797766932, ,0.2161129567522987,-0.21928699996360496,0.10282172280000001,1.6898912545417817,0.46511064520155926,-1.3153049061934616, ,0.14920902760765847,0.12893606190009615,0.034931604210526324,-0.062029231345765705,0.07085177569317007,-0.0596511615999673, ,1.291184902191162
0.015977131784154518,0.021216612892732033,-0.09167242401333842, ,0.01664722782180464,0.020703561637125004,-0.09242089151730964, ,0.0011280309814252721, ,0.020936007568371013,-0.0046291826523463964,-0.033482266238205674,-0.07637810964623513,-0.09440020873230075,0.03273876901965211, ,0.03975937496211127, ,0.12142888026322238, ,0.000865784002097067, ,0.2161129567522987,-0.21928699996360496,0.10282172280000001,1.6898912545417817,0.46511064520155926,-1.3153049061934616, ,0.14920902760765847,0.12893606190009615,0.034931604210526324,-0.062029231345765705,0.07085177569317007,-0.0596511615999673, ,1.2939269542694092
0.015977131784154518,0.021216612892732033,-0.09167242401333842, ,0.016700715258952507,0.0206927099949771,-0.0925186585547329, ,0.0012305121658585435, ,0.020936007568371013,-0.0046291826523463964,-0.033482266238205674,-0.07637810964623513,-0.09440020873230075,0.03273876901965211, ,0.03975937496211127, ,0.12142888026322238, ,0.0008685681865532613, ,0.2161129567522987,-0.21928699996360496,0.10282172280000001,1.6898912545417817,0.46511064520155926,-1.3153049061934616, ,0.14920902760765847,0.12893606190009615,0.034931604210526324,-0.062029231345765705,0.07085177569317007,-0.0596511615999673, ,1.2967329025268555
0.015977131784154518,0.021216612892732033,-0.09167242401333842, ,0.016754178772996023,0.020681764845593135,-0.0926163736449705, ,0.001334505662578575, ,0.020936007568371013,-0.0046291826523463964,-0.033482266238205674,-0.07637810964623513,-0.09440020873230075,0.03273876901965211, ,0.03975937496211127, ,0.12142888026322238, ,0.0008720980159170896, ,0.2161129567522987,-0.21928699996360496,0.10282172280000001,1.6898912545417817,0.46511064520155926,-1.3153049061934616, ,0.14920902760765847,0.12893606190009615,0.034931604210526324,-0.062029231345765705,0.07085177569317007,-0.0596511615999673, ,1.299501895904541
0.01618579727962884,0.021165733905481342,-0.092003915253336, ,0.016807618194935543,0.020670728758499013,-0.09271403596040458, ,0.0010658155397907476, ,0.020248360873663235,-0.005260330217254492,-0.03214443180631687,-0.026705682087034822,-0.03164332675807823,-0.038056464972849084, ,0.03835272725916127, ,0.04140602933770814, ,0.0008735545386529817, ,0.21761888966277246,-0.2179432444434899,0.10316783223,1.6896815645982974,0.46606710069991736,-1.3160848315193365, ,0.14758466805360929,0.1347967919864642,0.03360508759493671,0.011869129746115169,0.1175798758016674,-0.09758163591676149, ,1.3022940158843994
0.01618579727962884,0.021165733905481342,-0.092003915253336, ,0.016861033358408353,0.02065960429156097,-0.09281164467559622, ,0.0011681343106670333, ,0.020248360873663235,-0.005260330217254492,-0.03214443180631687,-0.026705682087034822,-0.03164332675807823,-0.038056464972849084, ,0.03835272725916127, ,0.04140602933770814, ,0.0008757528951605492, ,0.21761888966277246,-0.2179432444434899,0.10316783223,1.6896815645982974,0.46606710069991736,-1.3160848315193365, ,0.14758466805360929,0.1347967919864642,0.03360508759493671,0.011869129746115169,0.1175798758016674,-0.09758163591676149, ,1.3050198554992676
0.01618579727962884,0.021165733905481342,-0.092003915253336, ,0.016914424099680806,0.020648393991004065,-0.0929091989672846, ,0.001272036254495512, ,0.020248360873663235,-0.005260330217254492,-0.03214443180631687,-0.026705682087034822,-0.03164332675807823,-0.038056464972849084, ,0.03835272725916127, ,0.04140602933770814, ,0.0008786883274519194, ,0.21761888966277246,-0.2179432444434899,0.10316783223,1.6896815645982974,0.46606710069991736,-1.3160848315193365, ,0.14758466805360929,0.1347967919864642,0.03360508759493671,0.011869129746115169,0.1175798758016674,-0.09758163591676149, ,1.3077659606933594
0.01618579727962884,0.021165733905481342,-0.092003915253336, ,0.016967790257641696,0.020637100391433114,-0.09300669801438959, ,0.001377149111644289, ,0.020248360873663235,-0.005260330217254492,-0.03214443180631687,-0.026705682087034822,-0.03164332675807823,-0.038056464972849084, ,0.03835272725916127, ,0.04140602933770814, ,0.0008823534802768632, ,0.21761888966277246,-0.2179432444434899,0.10316783223,1.6896815645982974,0.46606710069991736,-1.3160848315193365, ,0.14758466805360929,0.1347967919864642,0.03360508759493671,0.011869129746115169,0.1175798758016674,-0.09758163591676149, ,1.3106639385223389
0.01638787720324614,0.021114723667978945,-0.09233674025141465, ,0.017021131673794074,0.020625726015850707,-0.0931041409980093, ,0.001108617983856431, ,0.019256246638511127,-0.005104879575891801,-0.031890987933510966,0.005129646550253499,0.0030227338459349984,-0.011975134711015491, ,0.037601834283221745, ,0.005951235742120001, ,0.0008840050459964222, ,0.21908620890887512,-0.21658404345762639,0.10351653424000001,1.6898912545417817,0.46757010219733725,-1.3174737859402783, ,0.13975985501983915,0.13053224423448526,0.033393734842767295,-0.01525662390472421,0.15152157377679168,-0.12967163179312147, ,1.3144378662109375
0.01638787720324614,0.021114723667978945,-0.09233674025141465, ,0.017074448192248393,0.02061427337567775,-0.09320152710142346, ,0.0012123062789378075, ,0.019256246638511127,-0.005104879575891801,-0.031890987933510966,0.005129646550253499,0.0030227338459349984,-0.011975134711015491, ,0.037601834283221745, ,0.005951235742120001, ,0.0008863840404380265, ,0.21908620890887512,-0.21658404345762639,0.10351653424000001,1.6898912545417817,0.46757010219733725,-1.3174737859402783, ,0.13975985501983915,0.13053224423448526,0.033393734842767295,-0.01525662390472421,0.15152157377679168,-0.12967163179312147, ,1.3172309398651123
0.01638787720324614,0.021114723667978945,-0.09233674025141465, ,0.01712773965971503,0.020602744970772583,-0.09329885551009182, ,0.0013172639871585057, ,0.019256246638511127,-0.005104879575891801,-0.031890987933510966,0.005129646550253499,0.0030227338459349984,-0.011975134711015491, ,0.037601834283221745, ,0.005951235742120001, ,0.0008894838961698285, ,0.21908620890887512,-0.21658404345762639,0.10351653424000001,1.6898912545417817,0.46757010219733725,-1.3174737859402783, ,0.13975985501983915,0.13053224423448526,0.033393734842767295,-0.01525662390472421,0.15152157377679168,-0.12967163179312147, ,1.3199758529663086
0.016582824683122024,0.02106205155870861,-0.09266190158202109, ,0.017181005925496696,0.020591143289450286,-0.09339612541165543, ,0.0010576672580673429, ,0.01887313120983991,-0.00517621838269133,-0.03152923327274715,-0.014928536118576844,-0.01271620930836441,-0.01754254307909302, ,0.03710904026213088, ,0.01960948780562354, ,0.0008906852058976678, ,0.22047630082623554,-0.21525573340325976,0.10385616222,1.6896815645982974,0.4689364671949916,-1.318669643717383, ,0.133469678703897,0.12946376747403926,0.03291076760330579,-0.009631573241233544,0.127368121382281,-0.10832972831018418, ,1.3228180408477783
0.016582824683122024,0.02106205155870861,-0.09266190158202109, ,0.017234246841480876,0.020579470808501824,-0.09349333599593701, ,0.0011612571608023614, ,0.01887313120983991,-0.00517621838269133,-0.03152923327274715,-0.014928536118576844,-0.01271620930836441,-0.01754254307909302, ,0.03710904026213088, ,0.01960948780562354, ,0.0008926041559324529, ,0.22047630082623554,-0.21525573340325976,0.10385616222,1.6896815645982974,0.4689364671949916,-1.318669643717383, ,0.133469678703897,0.12946376747403926,0.03291076760330579,-0.009631573241233544,0.127368121382281,-0.10832972831018418, ,1.325697898864746
0.016582824683122024,0.02106205155870861,-0.09266190158202109, ,0.01728746226213292,0.020567729993214417,-0.0935904864549415, ,0.0012661507785740151, ,0.01887313120983991,-0.00517621838269133,-0.03152923327274715,-0.014928536118576844,-0.01271620930836441,-0.01754254307909302, ,0.03710904026213088, ,0.01960948780562354, ,0.0008952347659510554, ,0.22047630082623554,-0.21525573340325976,0.10385616222,1.6896815645982974,0.4689364671949916,-1.318669643717383, ,0.133469678703897,0.12946376747403926,0.03291076760330579,-0.009631573241233544,0.127368121382281,-0.10832972831018418, ,1.3287529945373535
0.016582824683122024,0.02106205155870861,-0.09266190158202109, ,0.017340652044488283,0.02055592329739009,-0.09368757598285583, ,0.0013720335648475831, ,0.01887313120983991,-0.00517621838269133,-0.03152923327274715,-0.014928536118576844,-0.01271620930836441,-0.01754254307909302, ,0.03710904026213088, ,0.01960948780562354, ,0.0008985690232859961, ,0.22047630082623554,-0.21525573340325976,0.10385616222,1.6896815645982974,0.4689364671949916,-1.318669643717383, ,0.133469678703897,0.12946376747403926,0.03291076760330579,-0.009631573241233544,0.127368121382281,-0.10832972831018418, ,1.3317139148712158
0.016753805302361948,0.021015937741041164,-0.09295283690896627, ,0.01739381604814516,0.020544053163365644,-0.09378460377605076, ,0.0011507062746615787, ,0.018529271254917826,-0.00486828422550509,-0.03259306941100863,-0.051270183319577764,-0.03167835233160349,0.01704271064332431, ,0.037806643042849655, ,0.06026701355495642, ,0.0009003199764205487, ,0.2216656016888661,-0.2140973234721261,0.10415949408000001,1.6892621847113283,0.4700295591931152,-1.3196426656870952, ,0.12486439678746157,0.12619274143413667,0.03389108834042554,-0.041955468878734,0.10575221458723215,-0.07616027880240808, ,1.3357689380645752
0.016753805302361948,0.021015937741041164,-0.09295283690896627, ,0.017446954135257313,0.020532122022032136,-0.09388156903307981, ,0.001255816990195975, ,0.018529271254917826,-0.00486828422550509,-0.03259306941100863,-0.051270183319577764,-0.03167835233160349,0.01704271064332431, ,0.037806643042849655, ,0.06026701355495642, ,0.0009027716799638275, ,0.2216656016888661,-0.2140973234721261,0.10415949408000001,1.6892621847113283,0.4700295591931152,-1.3196426656870952, ,0.12486439678746157,0.12619274143413667,0.03389108834042554,-0.041955468878734,0.10575221458723215,-0.07616027880240808, ,1.3385820388793945
0.016949473582833222,0.02096203167809315,-0.0933000615645668, ,0.01750006617052627,0.020520132292853904,-0.09397847095468052, ,0.0009791151949039617, ,0.018281004494531565,-0.00521403158227652,-0.03235197048373797,-0.06586606680125291,-0.04264769712976021,0.03545763981173191, ,0.037523742415312374, ,0.07846737784280067, ,0.0009032945807510886, ,0.22297074354461005,-0.21274584521913678,0.10451986270000001,1.6886331148808746,0.47112265119123864,-1.3205340089166664, ,0.12104201729396784,0.12720769645907612,0.033534340042105266,-0.06209411033949863,0.09472543830602811,-0.06744028923547409, ,1.3416569232940674
0.016949473582833222,0.02096203167809315,-0.0933000615645668, ,0.017553152021194247,0.02050808638388847,-0.09407530874377505, ,0.0010823595409765322, ,0.018281004494531565,-0.00521403158227652,-0.03235197048373797,-0.06586606680125291,-0.04264769712976021,0.03545763981173191, ,0.037523742415312374, ,0.07846737784280067, ,0.000904512709732214, ,0.22297074354461005,-0.21274584521913678,0.10451986270000001,1.6886331148808746,0.47112265119123864,-1.3205340089166664, ,0.12104201729396784,0.12720769645907612,0.033534340042105266,-0.06209411033949863,0.09472543830602811,-0.06744028923547409, ,1.344444990158081
0.016949473582833222,0.02096203167809315,-0.0933000615645668, ,0.017606211557036577,0.02049598669180561,-0.09417208160547, ,0.0011869800536408754, ,0.018281004494531565,-0.00521403158227652,-0.03235197048373797,-0.06586606680125291,-0.04264769712976021,0.03545763981173191, ,0.037523742415312374, ,0.07846737784280067, ,0.000906421272866732, ,0.22297074354461005,-0.21274584521913678,0.10451986270000001,1.6886331148808746,0.47112265119123864,-1.3205340089166664, ,0.12104201729396784,0.12720769645907612,0.033534340042105266,-0.06209411033949863,0.09472543830602811,-0.06744028923547409, ,1.3472809791564941
0.016949473582833222,0.02096203167809315,-0.0933000615645668, ,0.017659244650354428,0.020483835601907297,-0.09426878874705731, ,0.001292624775279254, ,0.018281004494531565,-0.00521403158227652,-0.03235197048373797,-0.06586606680125291,-0.04264769712976021,0.03545763981173191, ,0.037523742415312374, ,0.07846737784280067, ,0.0009090132426815811, ,0.22297074354461005,-0.21274584521913678,0.10451986270000001,1.6886331148808746,0.47112265119123864,-1.3205340089166664, ,0.12104201729396784,0.12720769645907612,0.033534340042105266,-0.06209411033949863,0.09472543830602811,-0.06744028923547409, ,1.3501110076904297
0.0171352026255739,0.0209128165262608,-0.09363419324816277, ,0.017712251175967156,0.020471635488146546,-0.09436542937801477, ,0.0010306949187336956, ,0.017712629468215422,-0.004507268674499601,-0.032401651395659155,-0.0341246846254343,-0.01210167613828392,0.015293619021399788, ,0.03720107158064455, ,0.03620647666328375, ,0.0009098244538552619, ,0.22419093533873752,-0.2114561488291413,0.10486726842,1.6886331148808746,0.47221574318936216,-1.3214253521462378, ,0.11586928151217434,0.12027495761529881,0.03374748203389831,-0.039695291843086844,0.11607019527660031,-0.086792947860755, ,1.352874994277954
0.0171352026255739,0.0209128165262608,-0.09363419324816277, ,0.017765231011205453,0.020459388713147654,-0.09446200271000628, ,0.0011348132240698052, ,0.017712629468215422,-0.004507268674499601,-0.032401651395659155,-0.0341246846254343,-0.01210167613828392,0.015293619021399788, ,0.03720107158064455, ,0.03620647666328375, ,0.0009113144457109873, ,0.22419093533873752,-0.2114561488291413,0.10486726842,1.6886331148808746,0.47221574318936216,-1.3214253521462378, ,0.11586928151217434,0.12027495761529881,0.03374748203389831,-0.039695291843086844,0.11607019527660031,-0.086792947860755, ,1.355576992034912
0.0171352026255739,0.0209128165262608,-0.09363419324816277, ,0.01781818403590297,0.020447097628224407,-0.09455850795688163, ,0.0012400465231584418, ,0.017712629468215422,-0.004507268674499601,-0.032401651395659155,-0.0341246846254343,-0.01210167613828392,0.015293619021399788, ,0.03720107158064455, ,0.03620647666328375, ,0.0009134771567468259, ,0.22419093533873752,-0.2114561488291413,0.10486726842,1.6886331148808746,0.47221574318936216,-1.3214253521462378, ,0.11586928151217434,0.12027495761529881,0.03374748203389831,-0.039695291843086844,0.11607019527660031,-0.086792947860755, ,1.358327865600586
0.01731473818583907,0.02086923081266156,-0.09397353554966378, ,0.017871110132390036,0.020434764573401248,-0.09465494433467893, ,0.0009811363759751873, ,0.017515084344808512,-0.00428394672771558,-0.03391053028932193,0.004040703459848025,0.033202863429450065,0.003528107025292807, ,0.038406437529074224, ,0.03344716106953125, ,0.0009139193738659655, ,0.2253493452698712,-0.21022051156926538,0.10522115559,1.6886331148808746,0.47358210818701657,-1.3225395311832022, ,0.11283821826215314,0.12119660480009038,0.03539735893333334,-0.027452701472831215,0.15716505156086338,-0.12157738636477833, ,1.3614659309387207
0.01731473818583907,0.02086923081266156,-0.09397353554966378, ,0.017924009185485514,0.020422391877431344,-0.09475131106162277, ,0.001084348159979491, ,0.017515084344808512,-0.00428394672771558,-0.03391053028932193,0.004040703459848025,0.033202863429450065,0.003528107025292807, ,0.038406437529074224, ,0.03344716106953125, ,0.0009150260542952741, ,0.2253493452698712,-0.21022051156926538,0.10522115559,1.6886331148808746,0.47358210818701657,-1.3225395311832022, ,0.11283821826215314,0.12119660480009038,0.03539735893333334,-0.027452701472831215,0.15716505156086338,-0.12157738636477833, ,1.3643300533294678
0.01731473818583907,0.02086923081266156,-0.09397353554966378, ,0.017976881082489456,0.02040998185781634,-0.09484760735812604, ,0.0011888415977158084, ,0.017515084344808512,-0.00428394672771558,-0.03391053028932193,0.004040703459848025,0.033202863429450065,0.003528107025292807, ,0.038406437529074224, ,0.03344716106953125, ,0.0009167926061883099, ,0.2253493452698712,-0.21022051156926538,0.10522115559,1.6886331148808746,0.47358210818701657,-1.3225395311832022, ,0.11283821826215314,0.12119660480009038,0.03539735893333334,-0.027452701472831215,0.15716505156086338,-0.12157738636477833, ,1.3672490119934082
0.01731473818583907,0.02086923081266156,-0.09397353554966378, ,0.018029725713176008,0.02039753682082625,-0.09494383244678985, ,0.00129428685180426, ,0.017515084344808512,-0.00428394672771558,-0.03391053028932193,0.004040703459848025,0.033202863429450065,0.003528107025292807, ,0.038406437529074224, ,0.03344716106953125, ,0.0009192124410961045, ,0.2253493452698712,-0.21022051156926538,0.10522115559,1.6886331148808746,0.47358210818701657,-1.3225395311832022, ,0.11283821826215314,0.12119660480009038,0.03539735893333334,-0.027452701472831215,0.15716505156086338,-0.12157738636477833, ,1.3701248168945312
0.01745709473466516,0.020837166586811277,-0.09425355990053502, ,0.01808254296978567,0.020385059061518447,-0.09503998555240432, ,0.0011018402856856435, ,0.017736227039541468,-0.003513195343851083,-0.035159264935395826,0.014664061615399931,0.03167438852729557,-0.024377447693972928, ,0.039535935576631716, ,0.03490340762523939, ,0.0009203756757750187, ,0.2262606277490297,-0.2092551699599873,0.10551411713000002,1.68842342493739,0.47494847318467104,-1.3235720314800257, ,0.11047373871766097,0.11658100928559063,0.036787093579676675,0.0,0.14722356020262178,-0.12242784097098795, ,1.3730230331420898
0.01745709473466516,0.020837166586811277,-0.09425355990053502, ,0.018135332747018184,0.02037255086375743,-0.09513606590194869, ,0.001206105888403073, ,0.017736227039541468,-0.003513195343851083,-0.035159264935395826,0.014664061615399931,0.03167438852729557,-0.024377447693972928, ,0.039535935576631716, ,0.03490340762523939, ,0.000922184094842285, ,0.2262606277490297,-0.2092551699599873,0.10551411713000002,1.68842342493739,0.47494847318467104,-1.3235720314800257, ,0.11047373871766097,0.11658100928559063,0.036787093579676675,0.0,0.14722356020262178,-0.12242784097098795, ,1.3760290145874023
0.01745709473466516,0.020837166586811277,-0.09425355990053502, ,0.018188094942025113,0.020360014500234384,-0.09523207272459207, ,0.0013113057476153566, ,0.017736227039541468,-0.003513195343851083,-0.035159264935395826,0.014664061615399931,0.03167438852729557,-0.024377447693972928, ,0.039535935576631716, ,0.03490340762523939, ,0.0009246314008345684, ,0.2262606277490297,-0.2092551699599873,0.10551411713000002,1.68842342493739,0.47494847318467104,-1.3235720314800257, ,0.11047373871766097,0.11658100928559063,0.036787093579676675,0.0,0.14722356020262178,-0.12242784097098795, ,1.3791818618774414
0.017643801680730223,0.02079863542823977,-0.09462494044461355, ,0.018240829454401822,0.020347452232485647,-0.09532800525169363, ,0.0010267952871048482, ,0.017476619623854984,-0.0035674251919942737,-0.0348121634567671,-0.005827372156379974,0.015896152781728352,0.0015492974282015097, ,0.03911579579297933, ,0.01692911137504367, ,0.0009252699251237576, ,0.22740359221441492,-0.20804270089873406,0.10590170784000001,1.6877943551069365,0.4763148381823254,-1.3247678892571306, ,0.10662577703198964,0.1141960788910599,0.0363671495890411,-0.02598506100870632,0.13234779721239648,-0.10584310325700422, ,1.3819618225097656
0.017643801680730223,0.02079863542823977,-0.09462494044461355, ,0.018293536186181174,0.020334866310913954,-0.09542386271680332, ,0.0011293863461011185, ,0.017476619623854984,-0.0035674251919942737,-0.0348121634567671,-0.005827372156379974,0.015896152781728352,0.0015492974282015097, ,0.03911579579297933, ,0.01692911137504367, ,0.0009265377289807598, ,0.22740359221441492,-0.20804270089873406,0.10590170784000001,1.6877943551069365,0.4763148381823254,-1.3247678892571306, ,0.10662577703198964,0.1141960788910599,0.0363671495890411,-0.02598506100870632,0.13234779721239648,-0.10584310325700422, ,1.3847160339355469
0.017643801680730223,0.02079863542823977,-0.09462494044461355, ,0.018346215041825056,0.02032225897480602,-0.0955196443556621, ,0.0012332129352533709, ,0.017476619623854984,-0.0035674251919942737,-0.0348121634567671,-0.005827372156379974,0.015896152781728352,0.0015492974282015097, ,0.03911579579297933, ,0.01692911137504367, ,0.0009284307858096031, ,0.22740359221441492,-0.20804270089873406,0.10590170784000001,1.6877943551069365,0.4763148381823254,-1.3247678892571306, ,0.10662577703198964,0.1141960788910599,0.0363671495890411,-0.02598506100870632,0.13234779721239648,-0.10584310325700422, ,1.3876008987426758
