NicholasDascanio/dvrk_moveit_final/test/execution/third_experiment_notsharpbends/thirdexp_400vel4.0/thirdexp_400vel4.0_5.csv
Current Position (x),Current Position (y),Current Position (z), ,Planned Position (x),Planned Position (y),Planned Position (z), ,Position Error,,Cartesian linear Velocity(x),Cartesian linear Velocity(y),Cartesian linear Velocity(z),Cartesian Angular Velocity(x),Cartesian Angular Velocity(y),Cartesian Angular Velocity(z), ,Total Linear Velocity, ,Total Angular Velocity, ,MSE, ,Joint 1 Position,Joint 2 Position,Joint 3 Position,Joint 4 Position,Joint 5 Position,Joint 6 Position, ,Joint 1 Velocity,Joint 2 Velocity,Joint 3 Velocity,Joint 4 Velocity,Joint 5 Velocity,Joint 6 Velocity, ,Time Stamp
0.010388265578680868,0.019985148678306926,-0.08035582252790464, ,0.010396646179229588,0.019908767628973655,-0.08034122875036684, ,7.82130264446509e-05, ,-0.0002494756456277455,-0.00023793809520650407,0.0011006232431205404,-0.41986081235125966,-0.0006213983250240634,0.2968895721192357, ,0.00115335344028145, ,0.4198612721889691, ,6.517752203720909e-06, ,0.2068842909676004,-0.2246311311125683,0.09244232877000001,1.8016559944190333,0.7975472491308759,-1.1173036612596061, ,-0.0001793316379041427,-0.00012961012601037377,-0.0011462129448112242,0.0011228793081523264,0.0008498351525392149,0.5151153019768535, ,0.02741694450378418
0.010326678630329444,0.01999715339900944,-0.08031181166358264, ,0.01039956001430877,0.019963663393568414,-0.08038293792836995, ,0.00010720178234421386, ,-0.002128230133925804,0.0007677723861548644,0.001586390403814979,-0.12459258813970873,0.29561391153004674,0.16200978906522054, ,0.002763235866372618, ,0.3207972844483809, ,8.427945854039308e-06, ,0.20687656823472617,-0.2246929129755621,0.09244621764000001,1.802704444136456,0.8060187121163332,-1.1053437823163144, ,-0.000182401499160663,-0.004542895201253909,0.0002013055923239618,0.059640123814902156,0.2988057143829387,0.24022874230628433, ,0.05520486831665039
0.010311482759906197,0.020012589158823476,-0.0803172624371108, ,0.010403072276204843,0.020017650088996076,-0.0804255276836192, ,0.00014190002153472353, ,0.0011747311861342999,0.0005137619974393051,-0.002065200320800277,0.4992101139159042,-0.11224696733901496,-0.39120061923466515, ,0.0024308428815377784, ,0.5116738409501685, ,1.0228588447612135e-05, ,0.20686112276897772,-0.22480875396867547,0.09246825457,1.8029141340799404,0.8084781691121111,-1.108656164425099, ,0.0003373023961510607,-0.0033132647903224917,0.0015441902609530272,-0.01678102009685969,-0.11832797291884488,-0.6429634796069439, ,0.08616304397583008
0.01039958484380802,0.020029492319381524,-0.08038197906893628, ,0.010407179203099883,0.02007073438524064,-0.08046899109563517, ,9.659024319065618e-05, ,0.0005156830073792919,0.0007422917117138376,-0.0006732594510266033,0.04086956111673085,-0.06196805335731513,-0.050457098219890535, ,0.0011270333791753699, ,0.07423180358019812, ,1.0092977940815344e-05, ,0.20686884550185194,-0.22499409955765687,0.09247473602,1.8029141340799404,0.7967274301322832,-1.1162267601367246, ,-0.0006442418206952952,-0.007579497512526235,0.0004913587644295168,0.0030004376822189978,-0.06686816892689768,-0.05502974583431719, ,0.11857986450195312
0.010385039779248765,0.020059214122676777,-0.08039382826439637, ,0.0104118770457041,0.020122922930169984,-0.08051332126683439, ,0.00013804937035225432, ,-0.0008413324874296418,0.0012339888400272985,-0.0006016028193400475,-0.1448509343847379,0.1454850757109842,0.155888829322627, ,0.001610122592833962, ,0.20529905125636205, ,1.0806816228201901e-05, ,0.2068534000361035,-0.22524122700963206,0.09250714327000001,1.8033335139669096,0.7993235236278267,-1.1114826861351494, ,-0.0006060803568170298,-0.009400518063489823,0.0016747955383107948,0.016972188280755623,0.14958477582844582,0.22643119931467223, ,0.14646196365356445
0.010371192500485748,0.020084229011004342,-0.08040621907306639, ,0.010417162067237338,0.020174222349568092,-0.08055851132249985, ,0.0001827701597380746, ,5.1561482354653334e-05,0.0014885841471761665,-0.0011694992878237122,0.012272741457395831,0.025069816171732415,-0.003683087502991589, ,0.0018937449495396612, ,0.027912647057603667, ,1.2011687154912475e-05, ,0.2068302318374808,-0.22555013632460102,0.09255121713000002,1.8037528938538785,0.8021928901229008,-1.1088400589642, ,-0.001073251817390551,-0.012562475715974422,0.0016226257644694308,0.01790918333755091,0.02112226238223371,0.009142895158588758, ,0.17634105682373047
0.010376896601949771,0.02013199119464256,-0.08044150304083822, ,0.010423030543412084,0.020224639247163896,-0.08060455441074936, ,0.0001931262577195133, ,0.00023252811535133034,0.0016478259958843102,-0.001228498955809644,0.06779081834932883,0.008686807174988178,-0.06734575395400744, ,0.002068480002699167, ,0.06834512178176529, ,1.3025706407278984e-05, ,0.2068225091046066,-0.22584360017382157,0.09258621696000001,1.8043819636843321,0.8020562536231354,-1.109953822162612, ,-0.0010844459231184966,-0.013065804978448408,0.0016069503214628487,0.03732248539726377,-0.0010518129464548844,-0.05868823910582868, ,0.2042710781097412
0.010391092198065171,0.02018084728763145,-0.08048748973348864, ,0.010429478762415572,0.020274180204662068,-0.08065144370250643, ,0.00019252393534508415, ,0.0001732400411204404,0.001717355697268159,-0.001424974200564675,0.018049633706299972,0.003660084737348311,-0.005968975169360291, ,0.00223827482116512, ,0.01841698936336487, ,1.3955244403323098e-05, ,0.20678389544023548,-0.22630696414627502,0.09263677227000001,1.8043819636843321,0.8008265251252464,-1.1092777759899064, ,-0.001684646732745074,-0.015526332061268125,0.0018129764989756434,0.008779363160029474,0.0,-0.0013485178335565307, ,0.2310030460357666
0.010396080064411357,0.020222466668722447,-0.08051985979478171, ,0.010436503024891781,0.020322851781774037,-0.08069917239146908, ,0.0002094378045796625, ,0.0003475280229029003,0.001986684197961044,-0.001778001295243553,0.018916739717077934,0.006293669671049468,-0.01861527113277858, ,0.0026886759631868373, ,0.019936231324756262, ,1.4886806680542593e-05, ,0.2067607272416128,-0.22665448712561514,0.09267954984000001,1.8050110335147855,0.8009631616250119,-1.1094708726337434, ,-0.0007689374882041408,-0.016438063668538158,0.0022412848628113134,0.024630095238781922,0.0,0.0025787538473745555, ,0.2567780017852783
0.010406896276763063,0.02027765996545403,-0.0805779618172482, ,0.01044409964392437,0.020370660516246773,-0.08074773369407928, ,0.00019711844951358543, ,0.0003152208481799208,0.0018421692395011848,-0.0016682623150167642,0.01601041045608475,0.006706346357048074,-0.018889150373685867, ,0.002505204750473848, ,0.017358235060629813, ,1.552455606830726e-05, ,0.2067298363101159,-0.22712557383094284,0.09274954950000001,1.80522072345827,0.8008265251252464,-1.1090327397694848, ,-0.000903261736365009,-0.014937343232877502,0.0020969298957209744,0.025855718439112583,0.0,0.004645137922777075, ,0.2829248905181885
0.010414763683004428,0.020312961983808865,-0.08061591925522828, ,0.010452264945018228,0.020417612923895132,-0.08079712084949389, ,0.00021258452831278107, ,0.00032798359303769226,0.0016648110433745394,-0.0018314706901560668,0.006711139097183407,0.000685677214145406,0.00586940311760986, ,0.002496688594187204, ,0.006746075985573808, ,1.619921832477037e-05, ,0.20671439084436746,-0.22741903768016336,0.09279491965000002,1.8054304134017547,0.8006898886254811,-1.1085946069052262, ,-0.0007696050237658427,-0.014212511840417968,0.002209572967124428,0.0024005622071297536,-0.0006190079464512042,0.009297450928980098, ,0.30856800079345703
0.010425213080117419,0.02036692378247615,-0.08066763206841442, ,0.010460995266082327,0.020463715498630596,-0.08084732711955243, ,0.0002072180314355998, ,0.00035436756963812927,0.0018206460840556743,-0.001759636449763282,0.008698789541094095,0.009277925515810775,-0.02618574277695257, ,0.002556687108962304, ,0.01271805179028261, ,1.67242188932547e-05, ,0.20668349991287055,-0.2278437879882457,0.09285843786,1.8062691731756926,0.8005532521257156,-1.1081564740409675, ,-0.0009545668971128054,-0.013373300670584946,0.0021826269553302277,0.03930318376480909,-0.000524336135683563,0.014933059940665124, ,0.33357691764831543
0.010433727665882324,0.020402447057675705,-0.08071129253015526, ,0.010470286957412006,0.020508974712491825,-0.08089834578874766, ,0.00021834295177040064, ,0.0003418811132631001,0.001415646290907262,-0.0016163544861418347,0.001010547365165097,0.005232910354982182,-0.010964130507795895, ,0.0021756697684704677, ,0.005329592550044434, ,1.7262512399057146e-05, ,0.20667577717999633,-0.22813725183746625,0.09291028946,1.8062691731756926,0.8005532521257156,-1.1077480803402646, ,-0.0004526143990908582,-0.010216169541121391,0.0019442171647471034,0.02376454764695422,-0.0005552881656561298,0.016759105774159268, ,0.36242008209228516
0.010445516925532425,0.020451311090350473,-0.08076946674475337, ,0.010480136381670793,0.02055339701567602,-0.08095017016419548, ,0.0002104133282160634, ,0.00044438529002832194,0.0016694591584072256,-0.002198252198926612,0.0030398833933295267,-0.0016696861521728898,0.002207726934083279, ,0.00279586925618295, ,0.0034682478055160105, ,1.7670295485164916e-05, ,0.20665260898137366,-0.22851566574830323,0.09297899283000001,1.8066885530626617,0.8004166156259501,-1.1075549836964276, ,-0.0006380451506484644,-0.012884852893207165,0.0025596676072633783,0.006997795458683977,-0.004057064718170113,0.0125655999891101, ,0.3930778503417969
0.010460054913805037,0.02050152511539215,-0.08083047186969923, ,0.010490539913873147,0.02059698883656794,-0.08100279357560367, ,0.00019934248823493773, ,0.00033394115749039007,0.0012327482768681613,-0.0018826069878959016,-0.023131535824662843,-0.010888377947121467,0.04841769320166073, ,0.002274949248150807, ,0.025566085423923888, ,1.7950224852306956e-05, ,0.2066371635156252,-0.22887091146051758,0.09305028878,1.8075273128366,0.8001433426264193,-1.1065970392277698, ,-0.0005636283459277254,-0.011433008609435058,0.002129235599518781,-0.029041930009651246,-0.00500511434636819,0.03391218247814326, ,0.41764307022094727
0.010468668569040947,0.02053246326377656,-0.08087208103946765, ,0.010501493941366517,0.020639756581771276,-0.081056209375242, ,0.0002156214395408238, ,0.00031907949641776497,0.0014162753787588273,-0.0018686146197619896,0.015086968214234229,0.006012045256140081,0.001686276333287594, ,0.0023662984322990453, ,0.016240729602958363, ,1.842403827811201e-05, ,0.20662944078275097,-0.22913348437824121,0.09309825151000001,1.8073176228931154,0.8000067061266538,-1.106158906363511, ,-0.00042841080292449154,-0.011207640934962083,0.002224694346368715,0.0,0.005882119849077522,-0.003729532578249363, ,0.44142985343933105
0.010478017919647148,0.0205678197660389,-0.08091967601782286, ,0.010512994863813732,0.020681706636138306,-0.08111041093791183, ,0.00022488533866309258, ,0.00044323164447216366,0.0015976495503782894,-0.002350948232836654,0.006072812010292725,0.00938737737255303,-0.0044428189166153525, ,0.0028767857010843258, ,0.011180424838764453, ,1.8908369730850736e-05, ,0.20661399531700253,-0.22938061183021638,0.09315399198,1.8077370027800843,0.8000067061266538,-1.1060772276233706, ,-0.0004343114176261388,-0.010810724763073576,0.002750140110497238,0.015066706899301813,0.005882119849077522,0.01057120917648256, ,0.4645850658416748
0.010488105737895562,0.02060349155456198,-0.08097026607662478, ,0.010525039093175283,0.02072284536280023,-0.08116539166091542, ,0.00023169678011996156, ,0.0005211644328469156,0.0014238706103060618,-0.0029121648763312372,-0.01826353370025883,-0.013143570843118232,0.050155506833545895, ,0.0032832490231317108, ,0.022501335905210338, ,1.9387118672952856e-05, ,0.2066062725841283,-0.2296045710835689,0.09321362132000001,1.808366072610538,0.8001433426264193,-1.1058619305665047, ,-0.0008457379833881933,-0.011318814594283251,0.0031870371188475397,-0.03609607179762291,-0.006001269646474494,0.02583672273113702, ,0.4871959686279297
0.010504771416333276,0.020651881618741343,-0.08104620590699783, ,0.010537623053691414,0.020763179103198092,-0.08122114496402569, ,0.00020992863977386557, ,0.0003240615127881295,0.001391717490988991,-0.0013205686136295127,-0.01447586653754074,-0.0037273243446306913,0.010872054449902994, ,0.0019457119268017546, ,0.014948031936638089, ,1.9698662368351963e-05, ,0.2065985498512541,-0.22997526226153167,0.09329917646000001,1.8081563826670535,0.7998700696268883,-1.1050673435781277, ,-7.826832471878055e-05,-0.011828111873173473,0.0016187707745552136,0.009512383563876691,-0.006174168148400697,0.032947343390861084, ,0.511821985244751
0.010511440836704054,0.020684517927646424,-0.08107331410796191, ,0.010550743181864627,0.020802714177112245,-0.08127766428945576, ,0.0002393199206072872, ,0.0003957661448365294,0.0016543364072785153,-0.0015678927516949437,-0.012025252618495888,-0.00022267691704574,-0.0009269013574539739, ,0.002313384419127849, ,0.012027314144835169, ,2.0142850529550175e-05, ,0.2065985498512541,-0.23023011244638109,0.09333417629000001,1.808785452497507,0.7998700696268883,-1.104658949877425, ,-7.945763093474479e-05,-0.013101883412739304,0.0019331081941747574,0.023497879040990453,-0.0058482211183721235,0.03497363130747224, ,0.5333089828491211
0.010520595293772299,0.02071972429728642,-0.08111691299530016, ,0.010564395926441874,0.020841456882693263,-0.08133494310182839, ,0.0002535240523595318, ,0.0004688131420286804,0.001347738997262037,-0.002447551806835588,-0.010559217633410051,-0.012363221773872446,0.044359942200212624, ,0.002833142427415861, ,0.016258730872114165, ,2.0624002863524814e-05, ,0.20659082711837987,-0.2304849626312305,0.09338602789000001,1.8092048323844763,0.7998700696268883,-1.104332234916863, ,-0.0002337645190280843,-0.011544816539614935,0.002721478134290108,-0.034921620897198045,-0.004816106277356234,0.0171950732798189, ,0.5574660301208496
0.01053087350603013,0.020753182966821552,-0.08116752883892853, ,0.010578577748396763,0.020879413496492062,-0.08139297488814569, ,0.0002627465746081177, ,0.0005672965460098315,0.001719070656338677,-0.0026301255724725616,0.014154082923404062,-0.0026395629544430543,-0.004170639883009816, ,0.0031928967755900746, ,0.014398102509261702, ,2.111277562202441e-05, ,0.20659082711837987,-0.23074753554895414,0.09344436094000001,1.8089951424409914,0.7998700696268883,-1.1040871986964411, ,-0.00019803779307178414,-0.012306697128578755,0.0030060033062842047,0.004401164108089842,-0.004073878437154739,-0.0024399062355428738, ,0.5804579257965088
0.010547829618905952,0.020799426565537904,-0.08123856920500194, ,0.010593285120911948,0.020916590273490042,-0.08145175315775878, ,0.00024746905834212974, ,0.0007197383611337393,0.0018793869813614383,-0.0031019710079609065,0.0002417680048576877,-0.0010895981515224758,-0.008309323891004805, ,0.003697613131254856, ,0.0011160983884816163, ,2.1594319723415515e-05, ,0.20658310438550564,-0.23104099939817466,0.09352473092000001,1.8096242122714452,0.7995967966273575,-1.103701005408767, ,5.368126621509011e-06,-0.011650986859932287,0.0035085487929515423,0.020117163994507834,-0.005949394646541282,0.017293417854729758, ,0.5997500419616699
0.010562557175537595,0.020835619434146475,-0.08130268704745144, ,0.010608514529361127,0.02095299344713004,-0.08151127144233719, ,0.0002437133297219927, ,0.0006349271545258394,0.0017312044091201046,-0.0029171138429816765,-0.0030434556149949825,-0.000764351809955882,-0.004955895663043077, ,0.0034510511979144115, ,0.0031379699741380302, ,2.2026810805929926e-05, ,0.2065985498512541,-0.23128040411727563,0.09359732316000001,1.8096242122714452,0.7995967966273575,-1.103537647928486, ,-0.00047636241930815247,-0.010611368459837916,0.00328564594059406,0.017900424470063077,-0.00557008457002747,0.01962309246871457, ,0.6228048801422119
0.010573533898899543,0.020867972000125468,-0.08135348007722011, ,0.01062426247129179,0.020988629229345173,-0.08157152329583822, ,0.0002543116202718177, ,0.0005262469973305058,0.0015652674719340515,-0.002508786642593484,-0.0029009724157068963,-0.002786063196431442,0.00486693119390372, ,0.0030034993888712006, ,0.00402216222843107, ,2.2479860329143988e-05, ,0.2065985498512541,-0.2314966406377539,0.09365565621000001,1.8098339022149297,0.7995967966273575,-1.1032926117080644, ,-0.00047636241930815247,-0.010702892507538427,0.002841893223907226,0.006100016936239597,-0.004860579661542101,0.016824120704550406, ,0.6417579650878906
0.010585357143881306,0.02089915485963904,-0.08140262482518147, ,0.010640525456406973,0.021023503810591013,-0.08163250229447695, ,0.00026711393673764115, ,0.0005809702207204739,0.001681350641498929,-0.0029478949288899844,0.01606659677969507,0.0025691580282986275,-0.01315371495399896, ,0.0034430438406747223, ,0.0162707131015534, ,2.2961241532800273e-05, ,0.2065985498512541,-0.23168970895960952,0.09371139668,1.8102532821018988,0.7994601601275921,-1.1027728001036652, ,-0.0007794745017692564,-0.010248982276256542,0.0033226557196495625,0.012892513676795768,-0.0012561177980343718,-0.004541542030534166, ,0.6632769107818604
0.010600245722488591,0.02093538875002243,-0.08147207805554758, ,0.01065730000654787,0.021057623359874263,-0.08169420203669527, ,0.0002598760361711766, ,0.0006584078021409285,0.001724744003799892,-0.0031825590481562743,0.01836319745389309,0.0016989677586755406,-0.012782900165201236, ,0.0036792560127782764, ,0.018441624436290455, ,2.3383145130423995e-05, ,0.2065985498512541,-0.23189822274721358,0.09378917408000001,1.8104629720453833,0.7994601601275921,-1.1023644064029625, ,-0.0003899396865829505,-0.010252233364367489,0.003569881559838638,0.010447012197728549,-0.0011864407562171644,-0.007944594168619265, ,0.6820619106292725
0.010614280418707076,0.02096972660993629,-0.08154212626592104, ,0.010674582655675845,0.021090994024784145,-0.08175661614313198, ,0.0002536691804561287, ,0.0008048474574861491,0.0017544548966874694,-0.003405116006124712,-0.007882139875895002,0.0004532959578383462,0.005696813412497383, ,0.0039141673992688746, ,0.007895163442943012, ,2.3754992917792426e-05, ,0.20659082711837987,-0.23209901380194342,0.09386695148000002,1.8104629720453833,0.7994601601275921,-1.1021193701825407, ,0.0008078246173853052,-0.009921513259228465,0.003810720459330144,0.010447012197728549,-0.0011096381112159787,0.023929034229878392, ,0.7017910480499268
0.010629111629425057,0.021005214216977815,-0.08160504616645255, ,0.010692369949854817,0.02112362193152232,-0.08181973825659197, ,0.0002532087982983261, ,0.0006827255800444937,0.0016844472690285372,-0.0031304633959568368,0.012913269886858814,0.00193237917778426,-0.011090888401487883, ,0.0036198450095564034, ,0.013057052812826916, ,2.410408467632166e-05, ,0.2065985498512541,-0.23228435939092482,0.09393824743000001,1.8110920418758367,0.7994601601275921,-1.1019560127022596, ,0.0,-0.009719889151836782,0.00351396680344143,0.012642553683583206,-0.0010397379892823435,-0.0013160773731164437, ,0.7204668521881104
0.010645009864404071,0.021038418599056485,-0.08167061195539131, ,0.010710658447233713,0.021155513184932386,-0.08188356204201587, ,0.00025173124133169496, ,0.0005877894366392785,0.00150286658386248,-0.0029104956695667756,0.00896511200439618,0.002778524610474538,-0.006971755512099621, ,0.003327925695276587, ,0.009385810143697295, ,2.4428313772405425e-05, ,0.20661399531700253,-0.23248515044565465,0.09401083967000001,1.8110920418758367,0.7993235236278267,-1.1019262735387036, ,-0.0004565333679149977,-0.00842011968988974,0.003251441420698102,0.010103657979931586,0.0,0.0015889134701734938, ,0.7453439235687256
0.010657817957959316,0.021069246029363938,-0.08172911828748254, ,0.010729444718028136,0.021186673868531944,-0.0819480811864496, ,0.000258581595040484, ,0.000700583455544573,0.0014894907145567692,-0.003015518842081601,0.003918145715081612,-0.004286633869440667,0.0017572587579485477, ,0.003435513593901612, ,0.005807503381479667, ,2.485583939227585e-05, ,0.2066062725841283,-0.2326627733017618,0.09407565417000001,1.8113017318193214,0.7991868871280612,-1.1017331768948666, ,0.000446461367370537,-0.008627845279586863,0.0033365755173858404,0.001785236256848314,-0.004479801753189182,0.0049695340846857726, ,0.7614829540252686
0.010672684085185126,0.02110317756387005,-0.08179376910034664, ,0.010748725344503164,0.02121711004454151,-0.0820132893990138, ,0.00025875093197425545, ,0.0008825784408865894,0.0016290751196343138,-0.003737258628423273,0.005283979956378833,-0.0014822552318139817,-0.009607773055007329, ,0.00417132263262548, ,0.005487943514886882, ,2.526485392817361e-05, ,0.20661399531700253,-0.23284039615786897,0.09414824641000001,1.8117211117062906,0.7991868871280612,-1.1015698194145855, ,0.0006174528941619903,-0.007328005665146235,0.004091654641664527,0.013325246472386166,-0.004152012995740044,0.004632308186357371, ,0.7784879207611084
0.010681775335224523,0.021121688335688282,-0.08183085983745536, ,0.010768496920955642,0.02124682775391427,-0.08207918041087339, ,0.00029127927253465665, ,0.000996573187217918,0.001965891143011112,-0.004186516192818803,0.009551905492380207,0.0028566403602652115,-0.02575341845817596, ,0.0047312581768896595, ,0.009969919327516721, ,2.5774671990091913e-05, ,0.20662171804987675,-0.2329176234866112,0.09418972769,1.8121404915932593,0.7991868871280612,-1.101488140674445, ,0.0005306969814333402,-0.008597647204180929,0.0046237479013062415,0.031006907040742333,-0.003971529801604329,0.005292142439826578, ,0.7946820259094238
0.01070278270884525,0.021159982311304882,-0.08192537995720893, ,0.010788756053695836,0.021275833016368456,-0.08214574797520739, ,0.00026339108801380417, ,0.0010865666863065597,0.001733149385042213,-0.00517602339285224,-0.0040805437290857265,-0.008283831953919211,0.03536291201077292, ,0.0055655774289840795, ,0.009234322132704857, ,2.616304004749639e-05, ,0.20662171804987675,-0.23307980087696992,0.09429213460000001,1.812350181536744,0.7990502506282957,-1.1012133652904676, ,0.0005849480712797197,-0.007830238210925268,0.0055520430533286865,-0.03153711520428307,-0.00041618798107298315,0.0066004253105512774, ,0.8123579025268555
0.010722927407024456,0.021196075395969346,-0.08201837780185442, ,0.010809499361030308,0.021304131830415695,-0.08221298586717822, ,0.00023883717326815415, ,0.0008972260613102533,0.0015791122963276813,-0.0041773184497837556,-0.004031213893310969,-0.005721861261304119,0.026346133088202942, ,0.004555063081935458, ,0.006999312857362054, ,2.6449260092892106e-05, ,0.20662944078275097,-0.23323425553445443,0.09439324522,1.812350181536744,0.7990502506282957,-1.1009683290700458, ,0.0006084382025037783,-0.00797315603103462,0.0045278031608868684,-0.020285692416595023,-0.00041618798107298315,0.009471750015377823, ,0.8293569087982178
0.010731799237591507,0.021210705437230026,-0.08205918800882031, ,0.01083072347324383,0.021331730173392023,-0.08228088788390109, ,0.0002712633881918264, ,0.0008779679414836678,0.0014686078965142463,-0.0038120048208086558,-0.0012490074873259859,-0.0013286195012863085,0.006313838043846045, ,0.004178398929475919, ,0.0018235264400736832, ,2.6834766351914278e-05, ,0.2066371635156252,-0.23330376013032245,0.09443731908000001,1.8121404915932593,0.7990502506282957,-1.1009683290700458, ,0.0009041134460653596,-0.006181406011773266,0.00414596864133264,0.0,-0.00041618798107298315,0.008873494872667028, ,0.8475120067596436
0.010747867691916806,0.021242751713607448,-0.08212954084307639, ,0.010852425032581797,0.0213586340014881,-0.08234944784441316, ,0.0002696665188122525, ,0.0008067643123350511,0.0014786668461512938,-0.0036127699912023295,0.004531501585822717,0.0016546114235024966,-0.006381729783545202, ,0.003986154952695209, ,0.004824131524910603, ,2.7199390246883292e-05, ,0.20664488624849944,-0.23344276932205849,0.09451509648,1.8125598714802285,0.7990502506282957,-1.1008866503299053, ,0.000356479674020403,-0.006066713542477685,0.003947660847583643,0.010453813955140445,-0.00041618798107298315,0.004196361622130511, ,0.8644349575042725
0.010756361174797682,0.02125968230506274,-0.08216845878121277, ,0.010874600693232261,0.021384849249779733,-0.0824186595896447, ,0.00030372321661245496, ,0.0008696634379036501,0.001646575577338066,-0.003904512027838875,0.0019828769879957587,0.002552484151768509,-0.0068419938867438496, ,0.004325822442339841, ,0.0032321781490319036, ,2.775294227783391e-05, ,0.20664488624849944,-0.2335122739179265,0.09455787405,1.8127695614237131,0.7990502506282957,-1.1008049715897648, ,0.00030597348972962466,-0.006887815390411713,0.004278488186946012,0.014188559321155772,-0.0004177599246767531,0.009232190244384679, ,0.8779399394989014
0.010787225880352695,0.02130737878665541,-0.0823001097827468, ,0.010897247121308285,0.02141038183225786,-0.0824885169823867, ,0.00024127074779371592, ,0.0011025862342738297,0.001610219472772785,-0.004483228502153902,-3.101509616297514e-05,0.0012378239705215332,-0.007279881973264273, ,0.0048895644956408885, ,0.0012382117375626385, ,2.808575408434218e-05, ,0.20668349991287055,-0.23368989677403365,0.09470046595,1.8127695614237131,0.7990502506282957,-1.100559935369343, ,0.001623168406319365,-0.004811538433651403,0.0048563449756097565,0.014188559321155772,-0.0004164907422406269,0.009210321061969728, ,0.8990190029144287
0.010797318882941017,0.02132236166171039,-0.08234201248808444, ,0.01092036099483045,0.021435237641858413,-0.08255901390726125, ,0.0002738064354929214, ,0.0010009123375036915,0.0014612487864230643,-0.003748791594617496,0.00044982899674527105,0.00018275654430252803,-0.005787071372615981, ,0.004146144226032757, ,0.00048553613708474385, ,2.8511880809809304e-05, ,0.206698945378619,-0.23374395590415323,0.09474583610000001,1.8127695614237131,0.7990502506282957,-1.100559935369343, ,0.002273679641076046,-0.005256908577346437,0.004099025095213588,0.012419532934467122,-0.00041317759295439693,0.008721881174582138, ,0.9126100540161133
0.010807047617189609,0.021335508185942258,-0.08237905466183015, ,0.010943939003708512,0.021459422550493764,-0.08263014427069125, ,0.0003116729265163882, ,0.0010617042727849772,0.0015219073934568735,-0.004097871364292906,0.003061483412816738,1.4556495278007775e-05,-0.006733591447777498, ,0.0044984405959621575, ,0.003061517829925081, ,2.904368433958082e-05, ,0.20672211357724168,-0.23379029230139858,0.09478602109,1.8127695614237131,0.7990502506282957,-1.1004782566292024, ,0.002150252747636653,-0.005079332921072831,0.004458105659109992,0.011087820670404706,-0.0004093666643125597,0.004972955647260245, ,0.9260208606719971
0.010830616684245807,0.021368250447443733,-0.08247111679709138, ,0.010967977849724243,0.02148294240908171,-0.08270190200086934, ,0.00029203449475840665, ,0.0013212159693654795,0.0016940856121694893,-0.005140870695238069,0.0005819719536809789,-0.0020865204613216746,-0.00011180634776207813, ,0.00557172228347964, ,0.0021661614435793735, ,2.9498223265464728e-05, ,0.206768449974487,-0.2338906878287635,0.09488583542000001,1.8129792513671976,0.7990502506282957,-1.1002332204087808, ,0.0027493278579594324,-0.00460879634076756,0.005538529735744089,0.004574893964164129,-0.0003997613378376225,0.005858315311451517, ,0.9405250549316406
0.010844525780233842,0.02138656682596219,-0.0825264590060802, ,0.01099247424651325,0.02150580304757681,-0.08277428104772809, ,0.00031228478916829687, ,0.0014942184975483771,0.001921567551246895,-0.006075645059615466,0.0015049067624020313,4.452066291545131e-05,-0.007235163307641381, ,0.00654511830778104, ,0.0015055624112779579, ,3.0000642999735983e-05, ,0.2067916181731097,-0.23392930149313462,0.09494546476000001,1.813188941310682,0.7990502506282957,-1.1001515416686403, ,0.0023346198861508207,-0.004062191928093637,0.006517516988543373,0.011953798684489524,-0.0003943643060623101,0.005879215803414214, ,0.9547278881072998
0.01086672297303629,0.021414325828417943,-0.08261191448436277, ,0.011017424919547407,0.02152801027499975,-0.08284727538290888, ,0.0003017117542312304, ,0.0012503693401762156,0.0015043609410281638,-0.004665780313526765,-0.00198399425216754,-0.0019280179575883812,-0.0007419510110312622, ,0.005059252045691909, ,0.0027664931278155534, ,3.0456224198632533e-05, ,0.20683795457035503,-0.23399108335612842,0.09503750135000001,1.8133986312541668,0.7990502506282957,-1.1000698629284997, ,0.0030444989242833275,-0.0036015408984949853,0.005024861678233439,0.006500599713770324,-0.000385733152410375,0.008276543027763397, ,0.9706728458404541
0.010885404116769783,0.02143496951108132,-0.08268217714706526, ,0.011042826606117098,0.02154956987946808,-0.08292087899973163, ,0.0003080481440506442, ,0.0014936463267459692,0.0015098791339848375,-0.005189719716151319,0.0053665318173743,-0.003650990504255266,-0.0065830805522628134, ,0.005607486520791134, ,0.006490715803703544, ,3.091707337927597e-05, ,0.2068842909676004,-0.23402969702049956,0.09511268617000002,1.8133986312541668,0.7990502506282957,-1.0999065054482184, ,0.004623865374933005,-0.0022248755630458173,0.005561735865921788,0.005695755876560237,-0.00037747001355241204,-0.002608142265631226, ,0.9847440719604492
0.010900878359954139,0.021450466283132227,-0.08273400418125446, ,0.01106867605531337,0.021570487628226522,-0.0829950859131646, ,0.00033275345315009327, ,0.0014926076472892992,0.0015598711774087665,-0.005099203277884881,0.0009997952718195297,-0.003984580735144084,-0.002335570040528868, ,0.005537413633461837, ,0.004108098194161831, ,3.1528433495161907e-05, ,0.20693835009771996,-0.23406058795199644,0.09516842664000001,1.8133986312541668,0.7990502506282957,-1.099824826708078, ,0.004837650459578884,-0.003064050934063973,0.005487017402686876,0.005242578018867504,-0.0003716573386560694,0.0036577644820568233, ,0.9956889152526855
0.010916471476122874,0.021465669745750378,-0.08278540176356777, ,0.011094970028010192,0.02159076926767733,-0.08306989015979349, ,0.00035839262129583956, ,0.0015642626544369637,0.0015704146278053862,-0.005482373763706442,0.0005821908782685128,-0.0034627387769179266,-0.002329835715590598, ,0.005913505038491812, ,0.003511338933113217, ,3.219975975907865e-05, ,0.20698468649496532,-0.23409147888349333,0.09522287082000001,1.8133986312541668,0.7989136141285303,-1.0997134088043814, ,0.0047780901682176954,-0.002144313053188693,0.005871290645042389,0.004865647466007298,0.00020837604057535105,0.003106682704360586, ,1.0083630084991455
0.010940509026303781,0.02149208763467642,-0.08287634322351833, ,0.011121705296846683,0.021610420523410036,-0.08314528579779124, ,0.0003452026495715728, ,0.0016082273235145821,0.0017272439896048237,-0.006283095936720533,-0.006202150557912332,-0.0032370658539794773,0.006420401702033783, ,0.006711710771015013, ,0.006996088699700614, ,3.2818055789179384e-05, ,0.20703874562508487,-0.23412236981499024,0.09532009257000001,1.813608321197651,0.7989136141285303,-1.0997950875445222, ,0.0034019543559426373,-0.002109956600207705,0.006687158488664989,0.0,0.00020837604057535105,0.010206271015819283, ,1.0194170475006104
0.010958539542684281,0.02151090660672967,-0.08294177715256644, ,0.01114887864620938,0.021629447100232478,-0.08322126690688728, ,0.0003583229628435066, ,0.0018978937448693685,0.00197594023383295,-0.006908248309685536,-0.003048735603555354,-0.0016793936892764453,-0.006793853055433174, ,0.007431704729250696, ,0.003480680423415457, ,3.345944205948105e-05, ,0.20708508202233022,-0.23413781528073868,0.09539009223000001,1.8138180111411355,0.7989136141285303,-1.0997950875445222, ,0.0049974549308439056,-0.0021365875530632472,0.0073881315027829325,0.013578739555881297,0.00020837604057535105,0.009700578806427893, ,1.030134916305542
0.010979067334568472,0.021530197939086237,-0.0830175276760539, ,0.011176486872214623,0.021647854682199662,-0.08329782758833705, ,0.0003624715490496045, ,0.002208575453823427,0.0021107546404431085,-0.007861361577425428,-0.003446351928920735,-0.0030432080172587347,-0.00725490033952474, ,0.00843410318518835, ,0.004597654470366337, ,3.409808390532373e-05, ,0.2071391411524498,-0.2341455380136129,0.09547046221000001,1.8138180111411355,0.7989136141285303,-1.0997950875445222, ,0.006287947491847121,-0.0010189498586758879,0.008379174918463968,0.01325042002426937,0.00020837604057535105,0.008765007869903328, ,1.0431289672851562
0.011024498758730305,0.021571535801308134,-0.0831771558933202, ,0.011204526782690367,0.021665648932646213,-0.08337496196489208, ,0.0002835394379128302, ,0.0020879829892646567,0.0018932415842711128,-0.00708267289056044,-0.0013440716194351504,-0.004049358833616702,-0.0071792904138822345, ,0.007622879504134363, ,0.004266593214539053, ,3.4504567613311395e-05, ,0.20727815034418584,-0.2341687062122356,0.09564027620000001,1.8138180111411355,0.7989136141285303,-1.0997134088043814, ,0.0068071273243534925,-0.0008445987541433286,0.007559948514475558,0.011107966771241883,0.00020837604057535105,0.005446948641403506, ,1.054738998413086
0.011044816512285616,0.021588379961886978,-0.08324548788509882, ,0.011232995197158823,0.021682835494214632,-0.08345266418076853, ,0.0002953897129477182, ,0.0020911446912632043,0.0018265307287648972,-0.006903232513894714,-0.0014765820475418846,-0.00470956924544638,-0.006652016756746157, ,0.00744068006057335, ,0.004935617625362974, ,3.4934544232148755e-05, ,0.20734765494005386,-0.2341687062122356,0.09571286844000002,1.8138180111411355,0.7989136141285303,-1.0997134088043814, ,0.0072879462919582475,-0.0006278102534706881,0.007371037260527535,0.010331105248957771,0.00020837604057535105,0.005158619778340562, ,1.0654950141906738
0.011044816512285616,0.021588379961886978,-0.08324548788509882, ,0.011261888946818397,0.02169941998888686,-0.08353092840161712, ,0.0003754019417908704, ,0.0020911446912632043,0.0018265307287648972,-0.006903232513894714,-0.0014765820475418846,-0.00470956924544638,-0.006652016756746157, ,0.00744068006057335, ,0.004935617625362974, ,3.5667872983082154e-05, ,0.20734765494005386,-0.2341687062122356,0.09571286844000002,1.8138180111411355,0.7989136141285303,-1.0997134088043814, ,0.0072879462919582475,-0.0006278102534706881,0.007371037260527535,0.010331105248957771,0.00020837604057535105,0.005158619778340562, ,1.0735969543457031
0.011076563019861468,0.021615146365977944,-0.08335330021181138, ,0.011291204874526232,0.021715408018013384,-0.0836097488144931, ,0.00034912663957396644, ,0.002184717066705711,0.001769956755566633,-0.006739356547054283,0.002501317010218585,-0.005076711861682185,-0.008188948390225041, ,0.007302373740534963, ,0.005659467838028326, ,3.631874131809484e-05, ,0.20746349593316724,-0.2341687062122356,0.09582823825,1.8138180111411355,0.7990502506282957,-1.0997431479679374, ,0.008896423999967443,-0.00044477379772038436,0.007220676119673619,0.009296216283797338,0.0017615524454934245,0.00015920569297212905, ,1.082068920135498
0.011099482789408772,0.021631990526556788,-0.08342128305542014, ,0.01132093983478016,0.021730805162344814,-0.08368911962782524, ,0.0003613087110882594, ,0.002291171566637032,0.0018791878681336384,-0.007228236930177044,0.0024048065876268025,-0.005244949961524239,-0.00772050623013739, ,0.007812056279257203, ,0.005769971844923056, ,3.699168128378544e-05, ,0.20756389146053214,-0.2341687062122356,0.09590083049,1.8138180111411355,0.7990502506282957,-1.0997431479679374, ,0.008931993678551837,-0.00037306110398153855,0.00773243277669903,0.008723040972033523,0.0017615524454934245,5.142822696957406e-05, ,1.0906500816345215
0.011099482789408772,0.021631990526556788,-0.08342128305542014, ,0.011351090693701054,0.021745616982061056,-0.08376903507138501, ,0.00044401460955744755, ,0.002291171566637032,0.0018791878681336384,-0.007228236930177044,0.0024048065876268025,-0.005244949961524239,-0.00772050623013739, ,0.007812056279257203, ,0.005769971844923056, ,3.787273833591796e-05, ,0.20756389146053214,-0.2341687062122356,0.09590083049,1.8138180111411355,0.7990502506282957,-1.0997431479679374, ,0.008931993678551837,-0.00037306110398153855,0.00773243277669903,0.008723040972033523,0.0017615524454934245,5.142822696957406e-05, ,1.0987799167633057
0.01112511528868728,0.02165438401294444,-0.08350362098341851, ,0.011381654329014973,0.02175984901680217,-0.08384948939625675, ,0.0004433509955443927, ,0.0028106254473784617,0.002253740717065033,-0.009118904719660096,0.0003267447416528783,-0.008865997379174172,0.0004613584700528505, ,0.009804763429652311, ,0.008872012657768956, ,3.873817870478052e-05, ,0.20765656425502285,-0.23417642894510982,0.09598897821,1.8140277010846202,0.7990502506282957,-1.0997431479679374, ,0.01048469932277676,0.0,0.009712689951219513,0.0,0.0017145850353885003,-2.8111798097503384e-06, ,1.1068899631500244
0.011154205410607217,0.021676895998019842,-0.08359758331884837, ,0.011412627630035633,0.0217735067856983,-0.08393047687480688, ,0.0004323584246766403, ,0.0030898716682747685,0.0024482280767800083,-0.010017181675387996,5.3482566954287324e-05,-0.009928105477683637,0.0003611311329066335, ,0.010764992167208953, ,0.009928244452013605, ,3.956147008124484e-05, ,0.20776468251526198,-0.2341687062122356,0.09608879254000001,1.8140277010846202,0.7990502506282957,-1.0997431479679374, ,0.011502659582844943,0.0003053895198822452,0.010661855100401608,0.0,0.0016676876428256876,-4.516237194510217e-05, ,1.116515874862671
0.011184251238763314,0.021700906719463574,-0.08369690121292797, ,0.011444007497646225,0.021786595787400217,-0.08401199180065316, ,0.0004172505348896554, ,0.0031917108619558677,0.002528146587589028,-0.010331702596418588,-0.0005555292109186083,-0.01103387322328902,0.0004948448176143566, ,0.011105071901410982, ,0.011047843829874539, ,4.033295877542035e-05, ,0.20788052350837535,-0.23416098347936135,0.09619508832000001,1.8140277010846202,0.7991868871280612,-1.0998545658716337, ,0.011826287576032204,0.0002676259491043557,0.01099296861283644,0.0,0.0008410996965295221,0.0005561468418798946, ,1.125133991241455
0.011219003719991173,0.02172796574099893,-0.08380642683238294, ,0.011475790844281917,0.02179912150010952,-0.08409402848863458, ,0.0003920682108189822, ,0.003336233202454543,0.0024846423075242973,-0.010386685027073465,-0.0009688633181975344,-0.012162190724967704,-0.0011565498037406157, ,0.01118870525258092, ,0.01220071549014192, ,4.1028008351042704e-05, ,0.20801180996723717,-0.2341455380136129,0.09631175442,1.8142373910281047,0.7991868871280612,-1.0998545658716337, ,0.013307662537998989,0.001060273906923953,0.011053998278972936,0.0015206615329561631,0.0008410996965295221,0.0004865943331434457, ,1.133476972579956
0.011219003719991173,0.02172796574099893,-0.08380642683238294, ,0.0115079745939123,0.02181108938160848,-0.08417658127478055, ,0.00047689413587252835, ,0.003336233202454543,0.0024846423075242973,-0.010386685027073465,-0.0009688633181975344,-0.012162190724967704,-0.0011565498037406157, ,0.01118870525258092, ,0.01220071549014192, ,4.2035248450967305e-05, ,0.20801180996723717,-0.2341455380136129,0.09631175442,1.8142373910281047,0.7991868871280612,-1.0998545658716337, ,0.013307662537998989,0.001060273906923953,0.011053998278972936,0.0015206615329561631,0.0008410996965295221,0.0004865943331434457, ,1.1389429569244385
0.011254913278717606,0.02175477097659463,-0.08391181933613003, ,0.011540555682022984,0.02182250486929097,-0.08425964451628092, ,0.00045515032542322795, ,0.003570216588917701,0.0024145483072759337,-0.010325440699713223,-0.003084923185526373,-0.017845098648892204,0.009689592366532359, ,0.011188888044092966, ,0.018109781320687135, ,4.297707542690967e-05, ,0.20816626462472165,-0.23413781528073868,0.09642453165,1.8144470809715894,0.7991868871280612,-1.0998545658716337, ,0.016344633406557143,0.0009303921878319519,0.011008162764340015,-0.009884624258425881,0.0008410996965295221,0.00042603662982625525, ,1.144392967224121
0.011254913278717606,0.02175477097659463,-0.08391181933613003, ,0.011573531055598343,0.02183337338019232,-0.08434321259145422, ,0.0005420293039448721, ,0.003570216588917701,0.0024145483072759337,-0.010325440699713223,-0.003084923185526373,-0.017845098648892204,0.009689592366532359, ,0.011188888044092966, ,0.018109781320687135, ,4.4128780358957786e-05, ,0.20816626462472165,-0.23413781528073868,0.09642453165,1.8144470809715894,0.7991868871280612,-1.0998545658716337, ,0.016344633406557143,0.0009303921878319519,0.011008162764340015,-0.009884624258425881,0.0008410996965295221,0.00042603662982625525, ,1.151494026184082
0.011254913278717606,0.02175477097659463,-0.08391181933613003, ,0.011606897673103548,0.021843700311019842,-0.08442727989971854, ,0.0006304768298895229, ,0.003570216588917701,0.0024145483072759337,-0.01170622767551576,-0.0022804186364199803,-0.020255297649805142,0.009049551969123944, ,0.011188888044092966, ,0.018109781320687135, ,4.549114033175077e-05, ,0.2083979466109484,-0.23412236981499024,0.09656453097,1.8144470809715894,0.7993235236278267,-1.0999659837753302, ,0.019936332260182935,0.001246565145031749,0.012502991773940349,-0.009571339667226814,0.0020126445411624253,-0.0005945341106033347, ,1.1601710319519043
0.011301585901767362,0.0217859424932164,-0.08404204986798985, ,0.011640652504466963,0.021853491038182068,-0.08451184086156006, ,0.0005832945607777539, ,0.004170614399638278,0.002736202261267155,-0.01170622767551576,-0.0022804186364199803,-0.020255297649805142,0.009049551969123944, ,0.012724645129670404, ,0.020383257154110827, ,4.672192103203641e-05, ,0.2083979466109484,-0.23412236981499024,0.09656453097,1.8144470809715894,0.7993235236278267,-1.0999659837753302, ,0.019936332260182935,0.001246565145031749,0.012502991773940349,-0.009571339667226814,0.0020126445411624253,-0.0005945341106033347, ,1.1660940647125244
0.011372585091425472,0.021834387678966973,-0.08424984548150924, ,0.011674792531061958,0.021862750917821066,-0.08459688991850317, ,0.0004610571018196874, ,0.00445671672537537,0.0029930077965582254,-0.01281260660525804,0.002987652812694459,-0.015048878641773487,0.00674203555188211, ,0.013891843206054438, ,0.015342570593328796, ,4.763638187719963e-05, ,0.20873002412454006,-0.2340837561506191,0.09678749285,1.8144470809715894,0.7995967966273575,-1.100188819582723, ,0.02087023126423373,0.0015745136546478202,0.013708099414802067,-0.008598851232709962,0.008262697130282012,-0.005767282321327702, ,1.1722948551177979
0.011372585091425472,0.021834387678966973,-0.08424984548150924, ,0.011709314745689642,0.02187148528584058,-0.08468242153307966, ,0.0005494407455666802, ,0.00445671672537537,0.0029930077965582254,-0.01281260660525804,0.002987652812694459,-0.015048878641773487,0.00674203555188211, ,0.013891843206054438, ,0.015342570593328796, ,4.8760560050002306e-05, ,0.20873002412454006,-0.2340837561506191,0.09678749285,1.8144470809715894,0.7995967966273575,-1.100188819582723, ,0.02087023126423373,0.0015745136546478202,0.013708099414802067,-0.008598851232709962,0.008262697130282012,-0.005767282321327702, ,1.1777088642120361
0.011415372683010752,0.021860479645674745,-0.0843729549007152, ,0.011744216152560868,0.02187969945793715,-0.08476843018879796, ,0.0005146922693545154, ,0.004533166048880193,0.002731261767806126,-0.012961895855529617,0.014876865851528257,0.0011100864828368414,-0.00458499057125438, ,0.014000718890135442, ,0.01491821248274744, ,4.978807519594937e-05, ,0.20894626064501834,-0.234045142486248,0.09691971443000001,1.8142373910281047,0.7998700696268883,-1.1004116553901158, ,0.022407778408139498,0.005701054319452987,0.013899486492146597,-0.0012246710243395615,0.025150927084351356,-0.019579527434825716, ,1.1831560134887695
0.011415372683010752,0.021860479645674745,-0.0843729549007152, ,0.011779493767278123,0.021887398729631188,-0.08485491039011304, ,0.0006046403020390048, ,0.004533166048880193,0.002731261767806126,-0.012961895855529617,0.014876865851528257,0.0011100864828368414,-0.00458499057125438, ,0.014000718890135442, ,0.01491821248274744, ,5.102597752841777e-05, ,0.20894626064501834,-0.234045142486248,0.09691971443000001,1.8142373910281047,0.7998700696268883,-1.1004116553901158, ,0.022407778408139498,0.005701054319452987,0.013899486492146597,-0.0012246710243395615,0.025150927084351356,-0.019579527434825716, ,1.1908550262451172
0.011460306866315544,0.02188810203137812,-0.08450026897078912, ,0.011815144616818376,0.02189458837629562,-0.08494185666239579, ,0.0005665258963461463, ,0.004954238360943481,0.003108266408676341,-0.014399451378849114,0.021668205125564628,0.0066329214296401914,-0.006151711092421851, ,0.015541878838035938, ,0.022660673886705632, ,5.215884079985511e-05, ,0.20916249716549662,-0.23399880608900264,0.09705582488000002,1.8142373910281047,0.8000067061266538,-1.1005230732938123, ,0.02423313114363401,0.0055582152932642254,0.015479894577259477,-0.0012246710243395615,0.03291386358985469,-0.025945130074911685, ,1.197192907333374
0.011503986800073474,0.021914209549396508,-0.08462140292533879, ,0.011851165739514797,0.021901273653187395,-0.08502926355190218, ,0.0005357712609901914, ,0.005545193747407862,0.003297185834799767,-0.015271278209299872,0.01581791313607313,-0.003685153809433347,-0.004895928661038211, ,0.016578074263053973, ,0.01624148712428106, ,5.320605822556016e-05, ,0.2093787336859749,-0.2339524696917573,0.09718545388000001,1.8142373910281047,0.8001433426264193,-1.1006344911975088, ,0.028344367251634046,0.005842542215352428,0.016404543274974256,-0.0012246710243395615,0.02635545070374828,-0.020625960817174573, ,1.2029519081115723
0.011503986800073474,0.021914209549396508,-0.08462140292533879, ,0.011887554185039279,0.021907459795477098,-0.08511712562574267, ,0.0006268257283194362, ,0.005545193747407862,0.003297185834799767,-0.015271278209299872,0.01581791313607313,-0.003685153809433347,-0.004895928661038211, ,0.016578074263053973, ,0.01624148712428106, ,5.459496783837827e-05, ,0.2093787336859749,-0.2339524696917573,0.09718545388000001,1.8142373910281047,0.8001433426264193,-1.1006344911975088, ,0.028344367251634046,0.005842542215352428,0.016404543274974256,-0.0012246710243395615,0.02635545070374828,-0.020625960817174573, ,1.2057268619537354
0.011503986800073474,0.021914209549396508,-0.08462140292533879, ,0.011924307014384503,0.02191315201827943,-0.08520543747185282, ,0.0007195599714077879, ,0.005545193747407862,0.003297185834799767,-0.015271278209299872,0.01581791313607313,-0.003685153809433347,-0.004895928661038211, ,0.016578074263053973, ,0.01624148712428106, ,5.620116349917394e-05, ,0.2093787336859749,-0.2339524696917573,0.09718545388000001,1.8142373910281047,0.8001433426264193,-1.1006344911975088, ,0.028344367251634046,0.005842542215352428,0.016404543274974256,-0.0012246710243395615,0.02635545070374828,-0.020625960817174573, ,1.2085480690002441
0.01158565622836664,0.021959242215780155,-0.08483212149701538, ,0.0119614212998462,0.02191835551668354,-0.08529419369896117, ,0.0005969772448913648, ,0.005545193747407862,0.003297185834799767,-0.015271278209299872,0.01581791313607313,-0.003685153809433347,-0.004895928661038211, ,0.016578074263053973, ,0.01624148712428106, ,5.750423839409489e-05, ,0.2098112067269315,-0.23386751963014082,0.09741100834000001,1.8142373910281047,0.8002799791261846,-1.100745909101205, ,0.03109336224065229,0.010019027091714924,0.015041370651558077,-0.0012246710243395615,0.004251764858558292,-0.002650213618951291, ,1.2115809917449951
0.01158565622836664,0.021959242215780155,-0.08483212149701538, ,0.011998894125005339,0.021923075465783124,-0.08538338893655968, ,0.000689905343453325, ,0.005698023385372554,0.0026226265321243804,-0.014145677070380117,-0.007085270443522796,-0.027355239098625552,-0.0013098338893534171, ,0.015474036971867848, ,0.028257912113366774, ,0.00032308110890793033, ,0.2098112067269315,-0.23386751963014082,0.09741100834000001,1.8142373910281047,0.8002799791261846,-1.100745909101205, ,0.03109336224065229,0.010019027091714924,0.015041370651558077,-0.0012246710243395615,0.004251764858558292,-0.002650213618951291, ,1.214406967163086
0.01158565622836664,0.021959242215780155,-0.08483212149701538, ,0.012036722584710268,0.021927317020707108,-0.08547301783487307, ,0.0007843648333428552, ,0.005698023385372554,0.0026226265321243804,-0.014145677070380117,-0.007085270443522796,-0.027355239098625552,-0.0013098338893534171, ,0.015474036971867848, ,0.028257912113366774, ,0.00032907180662786445, ,0.2098112067269315,-0.23386751963014082,0.09741100834000001,1.8142373910281047,0.8002799791261846,-1.100745909101205, ,0.03109336224065229,0.010019027091714924,0.015041370651558077,-0.0012246710243395615,0.004251764858558292,-0.002650213618951291, ,1.2171390056610107
0.01158565622836664,0.021959242215780155,-0.08483212149701538, ,0.012074903785059474,0.021931085316648398,-0.0855630750648278, ,0.0008800278978511546, ,0.005698023385372554,0.0026226265321243804,-0.014145677070380117,-0.007085270443522796,-0.027355239098625552,-0.0013098338893534171, ,0.015474036971867848, ,0.028257912113366774, ,0.0003361353462589322, ,0.2098112067269315,-0.23386751963014082,0.09741100834000001,1.8142373910281047,0.8002799791261846,-1.100745909101205, ,0.03109336224065229,0.010019027091714924,0.015041370651558077,-0.0012246710243395615,0.004251764858558292,-0.002650213618951291, ,1.2198028564453125
0.011645898943937054,0.021985363462167617,-0.08498927303343659, ,0.012113434843382679,0.021934385468897023,-0.08565355531802238, ,0.0008139161668641558, ,0.0067825753405926625,0.003173598226251497,-0.018468595470797076,0.06382759903137988,0.05063930344883359,-0.021295252864218853, ,0.019928975704145674, ,0.08147575899140504, ,0.00034218320474760594, ,0.2101664524391458,-0.23371306497265634,0.09758082233000001,1.8142373910281047,0.8009631616250119,-1.1013029986196872, ,0.03937632429812066,0.01702492672380172,0.020036240905660377,-0.0012246710243395615,0.09539170695962718,-0.07699786742611081, ,1.2225699424743652
0.011645898943937054,0.021985363462167617,-0.08498927303343659, ,0.012152312888224298,0.02193722257286726,-0.08574445330669628, ,0.0009105327414825724, ,0.0067825753405926625,0.003173598226251497,-0.018468595470797076,0.06382759903137988,0.05063930344883359,-0.021295252864218853, ,0.019928975704145674, ,0.08147575899140504, ,0.000349287573956793, ,0.2101664524391458,-0.23371306497265634,0.09758082233000001,1.8142373910281047,0.8009631616250119,-1.1013029986196872, ,0.03937632429812066,0.01702492672380172,0.020036240905660377,-0.0012246710243395615,0.09539170695962718,-0.07699786742611081, ,1.225334882736206
0.011645898943937054,0.021985363462167617,-0.08498927303343659, ,0.012191535059325046,0.021939601704129317,-0.08583576376369911, ,0.0010081465495327718, ,0.0067825753405926625,0.003173598226251497,-0.018468595470797076,0.06382759903137988,0.05063930344883359,-0.021295252864218853, ,0.019928975704145674, ,0.08147575899140504, ,0.00035742163538365695, ,0.2101664524391458,-0.23371306497265634,0.09758082233000001,1.8142373910281047,0.8009631616250119,-1.1013029986196872, ,0.03937632429812066,0.01702492672380172,0.020036240905660377,-0.0012246710243395615,0.09539170695962718,-0.07699786742611081, ,1.2281420230865479
0.011718584421045621,0.02202386019899857,-0.08520270097205127, ,0.012231098507603873,0.02194152791844058,-0.0859274814424608, ,0.0008914908993532082, ,0.008225833155675924,0.004796186183459912,-0.024923424013595312,0.11000641055194788,0.09722469816977414,-0.027085466218711312, ,0.026680419741317574, ,0.14681295133519875, ,0.0003639346751881637, ,0.21056803454860548,-0.2335508875822976,0.09781285824000001,1.8140277010846202,0.8021928901229008,-1.102305759752955, ,0.04397448635703002,0.01686457109622726,0.027182272218430035,-0.007044436994470581,0.15081458714954207,-0.12221848209767681, ,1.2334709167480469
0.011718584421045621,0.02202386019899857,-0.08520270097205127, ,0.012271000395140973,0.021943006251773523,-0.08601960111696076, ,0.00098945773834497, ,0.008225833155675924,0.004796186183459912,-0.024923424013595312,0.11000641055194788,0.09722469816977414,-0.027085466218711312, ,0.026680419741317574, ,0.14681295133519875, ,0.00037147109763583606, ,0.21056803454860548,-0.2335508875822976,0.09781285824000001,1.8140277010846202,0.8021928901229008,-1.102305759752955, ,0.04397448635703002,0.01686457109622726,0.027182272218430035,-0.007044436994470581,0.15081458714954207,-0.12221848209767681, ,1.236353874206543
0.011718584421045621,0.02202386019899857,-0.08520270097205127, ,0.012311237895159116,0.021944041720348365,-0.08611211758169696, ,0.0010884152239895822, ,0.008225833155675924,0.004796186183459912,-0.024923424013595312,0.11000641055194788,0.09722469816977414,-0.027085466218711312, ,0.026680419741317574, ,0.14681295133519875, ,0.0003800061467590949, ,0.21056803454860548,-0.2335508875822976,0.09781285824000001,1.8140277010846202,0.8021928901229008,-1.102305759752955, ,0.04397448635703002,0.01686457109622726,0.027182272218430035,-0.007044436994470581,0.15081458714954207,-0.12221848209767681, ,1.2392349243164062
0.011758341069065016,0.02204484944207828,-0.08532623522531974, ,0.012351808192006465,0.021944639320661766,-0.08620502565165644, ,0.001065137506553855, ,0.009058853162164603,0.005248632920008069,-0.027854218086967076,0.10600253890286034,0.09325860472731165,-0.0218243541001346, ,0.029756821627636508, ,0.14118671623972603, ,0.00038806651569785677, ,0.21077654833620954,-0.23346593752068115,0.09794637611000001,1.813608321197651,0.8028760726217281,-1.1028628492714372, ,0.04626862094513446,0.019299764400746548,0.03022544880455408,-0.013095281371548275,0.15045171931239001,-0.12193477505329284, ,1.2420148849487305
0.011758341069065016,0.02204484944207828,-0.08532623522531974, ,0.012392708481138963,0.021944804029516957,-0.08629832016228299, ,0.0011650666172999796, ,0.009058853162164603,0.005248632920008069,-0.027854218086967076,0.10600253890286034,0.09325860472731165,-0.0218243541001346, ,0.029756821627636508, ,0.14118671623972603, ,0.00039710140060020705, ,0.21077654833620954,-0.23346593752068115,0.09794637611000001,1.813608321197651,0.8028760726217281,-1.1028628492714372, ,0.04626862094513446,0.019299764400746548,0.03022544880455408,-0.013095281371548275,0.15045171931239001,-0.12193477505329284, ,1.244791030883789
0.011758341069065016,0.02204484944207828,-0.08532623522531974, ,0.012433935969101532,0.02194454080405602,-0.0863919959694489, ,0.0012658342132933406, ,0.009058853162164603,0.005248632920008069,-0.027854218086967076,0.10600253890286034,0.09325860472731165,-0.0218243541001346, ,0.029756821627636508, ,0.14118671623972603, ,0.0004070868352288638, ,0.21077654833620954,-0.23346593752068115,0.09794637611000001,1.813608321197651,0.8028760726217281,-1.1028628492714372, ,0.04626862094513446,0.019299764400746548,0.03022544880455408,-0.013095281371548275,0.15045171931239001,-0.12193477505329284, ,1.2475700378417969
0.011758341069065016,0.02204484944207828,-0.08532623522531974, ,0.01247548787351162,0.021943854581787024,-0.08648604794942237, ,0.0013673569599499612, ,0.009058853162164603,0.005248632920008069,-0.027854218086967076,0.10600253890286034,0.09325860472731165,-0.0218243541001346, ,0.029756821627636508, ,0.14118671623972603, ,0.00041799899573705807, ,0.21077654833620954,-0.23346593752068115,0.09794637611000001,1.813608321197651,0.8028760726217281,-1.1028628492714372, ,0.04626862094513446,0.019299764400746548,0.03022544880455408,-0.013095281371548275,0.15045171931239001,-0.12193477505329284, ,1.2503139972686768
0.011920468126944757,0.022129957476065637,-0.08581058274502847, ,0.012517361423040243,0.021942750280617335,-0.08658047099883823, ,0.0009919960001459661, ,0.0112973908638749,0.005325521412795742,-0.03326336536791607,-0.015981459385599067,-0.038141717216986004,0.04742434175220765, ,0.03553088366827918, ,0.04135404350462447, ,0.0004244484002809784, ,0.2115179306921351,-0.23311841454134105,0.09846100324000001,1.8129792513671976,0.8038325281200862,-1.103479417117031, ,0.05010398181545448,0.027522314837143496,0.03500837696703297,-0.061872618568278664,0.027691552771710436,-0.022580604488693, ,1.2530419826507568
0.011920468126944757,0.022129957476065637,-0.08581058274502847, ,0.012559553857395173,0.021941232798881362,-0.0866752600346664, ,0.0010916567179563607, ,0.0112973908638749,0.005325521412795742,-0.03326336536791607,-0.015981459385599067,-0.038141717216986004,0.04742434175220765, ,0.03553088366827918, ,0.04135404350462447, ,0.0004318618260329271, ,0.2115179306921351,-0.23311841454134105,0.09846100324000001,1.8129792513671976,0.8038325281200862,-1.103479417117031, ,0.05010398181545448,0.027522314837143496,0.03500837696703297,-0.061872618568278664,0.027691552771710436,-0.022580604488693, ,1.255784034729004
0.011920468126944757,0.022129957476065637,-0.08581058274502847, ,0.01260206242730235,0.02193930701537272,-0.08677040999418306, ,0.0011925547101336938, ,0.0112973908638749,0.005325521412795742,-0.03326336536791607,-0.015981459385599067,-0.038141717216986004,0.04742434175220765, ,0.03553088366827918, ,0.04135404350462447, ,0.0004402210884955728, ,0.2115179306921351,-0.23311841454134105,0.09846100324000001,1.8129792513671976,0.8038325281200862,-1.103479417117031, ,0.05010398181545448,0.027522314837143496,0.03500837696703297,-0.061872618568278664,0.027691552771710436,-0.022580604488693, ,1.258530855178833
0.011920468126944757,0.022129957476065637,-0.08581058274502847, ,0.01264488439448858,0.021936977789373386,-0.08686591583493788, ,0.0012945068631783007, ,0.013264272799694984,0.005583990866753966,-0.037929396464517144,-0.022387741612949704,-0.04426933065447882,0.022158632754690547, ,0.04056798002202286, ,0.04960752069309079, ,0.0004495068034377764, ,0.2120816901919535,-0.2327554460962525,0.09884081621000002,1.8129792513671976,0.8042424376193825,-1.1037319920879798, ,0.05994753099082172,0.038749261559195905,0.039822028800000006,-0.03843496910321735,0.02587913296451762,-0.022751315360129726, ,1.2617170810699463
0.012045290116675305,0.02218618840333244,-0.08617081960344501, ,0.012688017031663596,0.021934249960684424,-0.08696177253472541, ,0.001049846372397089, ,0.013264272799694984,0.005583990866753966,-0.037929396464517144,-0.022387741612949704,-0.04426933065447882,0.022158632754690547, ,0.04056798002202286, ,0.04960752069309079, ,0.00045596206762013456, ,0.2120816901919535,-0.2327554460962525,0.09884081621000002,1.8129792513671976,0.8042424376193825,-1.1037319920879798, ,0.05994753099082172,0.038749261559195905,0.039822028800000006,-0.03843496910321735,0.02587913296451762,-0.022751315360129726, ,1.2648859024047852
0.012045290116675305,0.02218618840333244,-0.08617081960344501, ,0.01273145762250236,0.02193112834965569,-0.08705797509155294, ,0.0011501853490262022, ,0.013264272799694984,0.005583990866753966,-0.037929396464517144,-0.022387741612949704,-0.04426933065447882,0.022158632754690547, ,0.04056798002202286, ,0.04960752069309079, ,0.00046334742167764595, ,0.2120816901919535,-0.2327554460962525,0.09884081621000002,1.8129792513671976,0.8042424376193825,-1.1037319920879798, ,0.05994753099082172,0.038749261559195905,0.039822028800000006,-0.03843496910321735,0.02587913296451762,-0.022751315360129726, ,1.2677500247955322
0.012045290116675305,0.02218618840333244,-0.08617081960344501, ,0.01277520346162718,0.021927617757216578,-0.08715451852361104, ,0.001251916864535112, ,0.013264272799694984,0.005583990866753966,-0.037929396464517144,-0.022387741612949704,-0.04426933065447882,0.022158632754690547, ,0.04056798002202286, ,0.04960752069309079, ,0.0004716481526550929, ,0.2120816901919535,-0.2327554460962525,0.09884081621000002,1.8129792513671976,0.8042424376193825,-1.1037319920879798, ,0.05994753099082172,0.038749261559195905,0.039822028800000006,-0.03843496910321735,0.02587913296451762,-0.022751315360129726, ,1.2708890438079834
0.012123455440212693,0.022221806704360084,-0.08640282449535211, ,0.012819251854589767,0.02192372296490662,-0.08725139786924324, ,0.0011371294283693185, ,0.012787181569329202,0.005985054482887376,-0.037621869900810574,0.1070937720529872,0.0944338561993553,-0.04382831138091224, ,0.04018380251399361, ,0.1427821902011335, ,0.0004785802492771161, ,0.21246010410279048,-0.23252376411002576,0.09908840760000001,1.8127695614237131,0.8050622566179751,-1.1043188207700179, ,0.06424979117025781,0.03820327760002849,0.040428455634517774,0.0,0.1673015386626282,-0.1390420960615377, ,1.2740240097045898
0.012123455440212693,0.022221806704360084,-0.08640282449535211, ,0.012863600117853894,0.02191944873490474,-0.08734860818691431, ,0.001238443085797157, ,0.012787181569329202,0.005985054482887376,-0.037621869900810574,0.1070937720529872,0.0944338561993553,-0.04382831138091224, ,0.04018380251399361, ,0.1427821902011335, ,0.00048641388676701344, ,0.21246010410279048,-0.23252376411002576,0.09908840760000001,1.8127695614237131,0.8050622566179751,-1.1043188207700179, ,0.06424979117025781,0.03820327760002849,0.040428455634517774,0.0,0.1673015386626282,-0.1390420960615377, ,1.278904914855957
0.012267922382691691,0.022272577399814156,-0.08681312774350444, ,0.012908245578777136,0.021914799810060313,-0.08744614455518063, ,0.0009688802212037515, ,0.012351289398827778,0.003097283048313672,-0.033155794819152935,0.0732489681383964,0.05989522343551755,0.08107059114362986, ,0.03551695710762305, ,0.09461928479845812, ,0.0004913370126286128, ,0.2132478228559614,-0.23202178647320118,0.09952784991000001,1.8117211117062906,0.8071118041144567,-1.105990089325464, ,0.07221989464114975,0.04800047625618147,0.03539735893333334,-0.1346457417457489,0.1717212212521529,-0.14260404055717427, ,1.2830510139465332
0.012267922382691691,0.022272577399814156,-0.08681312774350444, ,0.012953185575593424,0.021909780913923045,-0.08754400207265921, ,0.0010655440951637077, ,0.012351289398827778,0.003097283048313672,-0.033155794819152935,0.0732489681383964,0.05989522343551755,0.08107059114362986, ,0.03551695710762305, ,0.09461928479845812, ,0.0004971370841693713, ,0.2132478228559614,-0.23202178647320118,0.09952784991000001,1.8117211117062906,0.8071118041144567,-1.105990089325464, ,0.07221989464114975,0.04800047625618147,0.03539735893333334,-0.1346457417457489,0.1717212212521529,-0.14260404055717427, ,1.2859580516815186
0.012267922382691691,0.022272577399814156,-0.08681312774350444, ,0.012998417457395049,0.02190439675077351,-0.08764217585799791, ,0.0011646891519367013, ,0.012351289398827778,0.003097283048313672,-0.033155794819152935,0.0732489681383964,0.05989522343551755,0.08107059114362986, ,0.03551695710762305, ,0.09461928479845812, ,0.0005038126048470446, ,0.2132478228559614,-0.23202178647320118,0.09952784991000001,1.8117211117062906,0.8071118041144567,-1.105990089325464, ,0.07221989464114975,0.04800047625618147,0.03539735893333334,-0.1346457417457489,0.1717212212521529,-0.14260404055717427, ,1.2887499332427979
0.012267922382691691,0.022272577399814156,-0.08681312774350444, ,0.013043938584115088,0.021898652005652393,-0.08774066104984314, ,0.0012658354472988285, ,0.012351289398827778,0.003097283048313672,-0.033155794819152935,0.0732489681383964,0.05989522343551755,0.08107059114362986, ,0.03551695710762305, ,0.09461928479845812, ,0.0005113573854653792, ,0.2132478228559614,-0.23202178647320118,0.09952784991000001,1.8117211117062906,0.8071118041144567,-1.105990089325464, ,0.07221989464114975,0.04800047625618147,0.03539735893333334,-0.1346457417457489,0.1717212212521529,-0.14260404055717427, ,1.2918000221252441
0.01240902505712262,0.022300874583428876,-0.08714534362381622, ,0.013089746326509223,0.021892551344392823,-0.08783945280681167, ,0.0010544652066572964, ,0.012285553329880648,0.0010803981430571319,-0.026070681359546398,-0.0315413670637071,-0.05247687341238631,0.03150949221237279, ,0.02884063985628375, ,0.06122636716017241, ,0.0005166819719476528, ,0.21410504620500032,-0.231465749706257,0.09988044079000001,1.8110920418758367,0.8082048961125803,-1.1069631112951759, ,0.07734062066705036,0.05510856071920487,0.027275362191780828,-0.054114041725945965,0.03923260001479773,-0.032260844567818525, ,1.2952089309692383
0.01240902505712262,0.022300874583428876,-0.08714534362381622, ,0.013135838066138378,0.021886099413648608,-0.08793854630745843, ,0.0011530247564029092, ,0.012285553329880648,0.0010803981430571319,-0.026070681359546398,-0.0315413670637071,-0.05247687341238631,0.03150949221237279, ,0.02884063985628375, ,0.06122636716017241, ,0.0005228600572336262, ,0.21410504620500032,-0.231465749706257,0.09988044079000001,1.8110920418758367,0.8082048961125803,-1.1069631112951759, ,0.07734062066705036,0.05510856071920487,0.027275362191780828,-0.054114041725945965,0.03923260001479773,-0.032260844567818525, ,1.2979328632354736
0.01240902505712262,0.022300874583428876,-0.08714534362381622, ,0.013182211195350756,0.021879300840925233,-0.08803793675024635, ,0.0012538994034877661, ,0.012285553329880648,0.0010803981430571319,-0.026070681359546398,-0.0315413670637071,-0.05247687341238631,0.03150949221237279, ,0.02884063985628375, ,0.06122636716017241, ,0.0005298892817168391, ,0.21410504620500032,-0.231465749706257,0.09988044079000001,1.8110920418758367,0.8082048961125803,-1.1069631112951759, ,0.07734062066705036,0.05510856071920487,0.027275362191780828,-0.054114041725945965,0.03923260001479773,-0.032260844567818525, ,1.3006680011749268
0.012552819543318931,0.02230210405594409,-0.08743487962057124, ,0.01322886311726411,0.021872160234610128,-0.0881376193535159, ,0.001065706214505174, ,0.013245775901293298,-0.0001044128093313525,-0.026770808062361765,-0.03295221034074182,-0.04690577234034528,-0.005308804248689114, ,0.029868673314592472, ,0.057323519562531025, ,0.0005349923001243471, ,0.21503949688278148,-0.23069347641883456,0.10018247636000001,1.8110920418758367,0.8087514421116421,-1.1073271041698212, ,0.08564705916829492,0.0718372002713632,0.027847572587412592,-0.02262104279576255,0.046206320448620955,-0.041031628204835226, ,1.303421974182129
0.012552819543318931,0.02230210405594409,-0.08743487962057124, ,0.013275791245747586,0.021864682184003476,-0.08823758935545487, ,0.0011654908386776607, ,0.013245775901293298,-0.0001044128093313525,-0.026770808062361765,-0.03295221034074182,-0.04690577234034528,-0.005308804248689114, ,0.029868673314592472, ,0.057323519562531025, ,0.0005409403995446613, ,0.21503949688278148,-0.23069347641883456,0.10018247636000001,1.8110920418758367,0.8087514421116421,-1.1073271041698212, ,0.08564705916829492,0.0718372002713632,0.027847572587412592,-0.02262104279576255,0.046206320448620955,-0.041031628204835226, ,1.3061299324035645
0.012552819543318931,0.02230210405594409,-0.08743487962057124, ,0.013322993005404644,0.021856871259347058,-0.08833784201406714, ,0.001267572675997137, ,0.013245775901293298,-0.0001044128093313525,-0.026770808062361765,-0.03295221034074182,-0.04690577234034528,-0.005308804248689114, ,0.029868673314592472, ,0.057323519562531025, ,0.0005477313553993574, ,0.21503949688278148,-0.23069347641883456,0.10018247636000001,1.8110920418758367,0.8087514421116421,-1.1073271041698212, ,0.08564705916829492,0.0718372002713632,0.027847572587412592,-0.02262104279576255,0.046206320448620955,-0.041031628204835226, ,1.3089230060577393
0.012552819543318931,0.02230210405594409,-0.08743487962057124, ,0.013370465831554667,0.021848732011855585,-0.08843837260714263, ,0.0013715282852076473, ,0.01281249820195854,-0.0003435979964690149,-0.02686863288132862,0.07973447100391119,0.08054865287743669,-0.005308804248689114, ,0.029769138426732844, ,0.11333868423193133, ,0.0005553591047494341, ,0.21595850209481418,-0.22994437133003479,0.10047284532,1.810672661988868,0.8101178071092964,-1.108522961946926, ,0.08986452799097612,0.07561509287527553,0.0287005612972973,-0.030801274348136412,0.18668430160061386,-0.15438421312110104, ,1.311931848526001
0.012686699738313576,0.022299606619867744,-0.08770926858432214, ,0.013418207170215237,0.02184026897374767,-0.08853917643222693, ,0.0011978485847904397, ,0.01281249820195854,-0.0003435979964690149,-0.02686863288132862,0.07973447100391119,0.08054865287743669,-0.026866090168135473, ,0.029769138426732844, ,0.11333868423193133, ,0.0005612535036488928, ,0.21595850209481418,-0.22994437133003479,0.10047284532,1.810672661988868,0.8101178071092964,-1.108522961946926, ,0.08986452799097612,0.07561509287527553,0.0287005612972973,-0.030801274348136412,0.18668430160061386,-0.15438421312110104, ,1.3150339126586914
0.012686699738313576,0.022299606619867744,-0.08770926858432214, ,0.013466214478084897,0.02183148665827309,-0.08864024880658972, ,0.0013013468800506336, ,0.01281249820195854,-0.0003435979964690149,-0.02686863288132862,0.07973447100391119,0.08054865287743669,-0.026866090168135473, ,0.029769138426732844, ,0.11333868423193133, ,0.000567981625252545, ,0.21595850209481418,-0.22994437133003479,0.10047284532,1.810672661988868,0.8101178071092964,-1.108522961946926, ,0.08986452799097612,0.07561509287527553,0.0287005612972973,-0.030801274348136412,0.18668430160061386,-0.15438421312110104, ,1.3203389644622803
0.012816601791947359,0.022285888119757485,-0.08798610947160014, ,0.013514485222524452,0.02182238955974719,-0.08874158506719565, ,0.0011281026430897403, ,0.013387330053411311,-0.0017042488860470376,-0.028718072797187976,0.04689127541634576,0.05168478222155562,0.09815109293045711, ,0.031730943500141155, ,0.06978602216865093, ,0.0005730277605483756, ,0.2168775073068469,-0.22914120711111544,0.10076580686000002,1.8092048323844763,0.8120307181060126,-1.1100828125986757, ,0.09386443279769613,0.0849569754328297,0.030282911634980987,-0.1659521307420414,0.19252989983288052,-0.15915090651568253, ,1.3234009742736816
0.012816601791947359,0.022285888119757485,-0.08798610947160014, ,0.013563016881540001,0.02181298215357767,-0.08884318057067304, ,0.001230994072969522, ,0.013387330053411311,-0.0017042488860470376,-0.028718072797187976,0.04689127541634576,0.05168478222155562,0.09815109293045711, ,0.031730943500141155, ,0.06978602216865093, ,0.0005789024597664215, ,0.2168775073068469,-0.22914120711111544,0.10076580686000002,1.8092048323844763,0.8120307181060126,-1.1100828125986757, ,0.09386443279769613,0.0849569754328297,0.030282911634980987,-0.1659521307420414,0.19252989983288052,-0.15915090651568253, ,1.3261759281158447
0.012816601791947359,0.022285888119757485,-0.08798610947160014, ,0.013611806943764685,0.02180326889629653,-0.08894503069328305, ,0.0013359649912047529, ,0.013387330053411311,-0.0017042488860470376,-0.028718072797187976,0.04689127541634576,0.05168478222155562,0.09815109293045711, ,0.031730943500141155, ,0.06978602216865093, ,0.0005856021281862298, ,0.2168775073068469,-0.22914120711111544,0.10076580686000002,1.8092048323844763,0.8120307181060126,-1.1100828125986757, ,0.09386443279769613,0.0849569754328297,0.030282911634980987,-0.1659521307420414,0.19252989983288052,-0.15915090651568253, ,1.3296258449554443
0.012956640086318924,0.022276343955276945,-0.08827900237320303, ,0.013660852908441129,0.021793254225589868,-0.08904713083088944, ,0.0011486133872100548, ,0.01512419803504292,-0.000930741144508718,-0.030862941668893192,-0.019687300203052198,-0.02210051822352194,0.009542614284784227, ,0.03438210019383314, ,0.02959720752354877, ,0.0005905408234408247, ,0.2178196807175023,-0.22829170649495073,0.10107432388000001,1.8085757625540226,0.8135337196034325,-1.111390088279477, ,0.09813541009148995,0.08868873042847737,0.03217941721212122,-0.05033277555031815,0.09181155569253154,-0.07474892843542376, ,1.3326280117034912
0.012956640086318924,0.022276343955276945,-0.08827900237320303, ,0.01371015228540347,0.021782942560328446,-0.08914947639892845, ,0.0012525775824949795, ,0.01512419803504292,-0.000930741144508718,-0.030862941668893192,-0.019687300203052198,-0.02210051822352194,0.009542614284784227, ,0.03438210019383314, ,0.02959720752354877, ,0.0005962976648239042, ,0.2178196807175023,-0.22829170649495073,0.10107432388000001,1.8085757625540226,0.8135337196034325,-1.111390088279477, ,0.09813541009148995,0.08868873042847737,0.03217941721212122,-0.05033277555031815,0.09181155569253154,-0.07474892843542376, ,1.3353848457336426
0.012956640086318924,0.022276343955276945,-0.08827900237320303, ,0.013759702595059433,0.021772338300597938,-0.08925206283237803, ,0.0013585940343247788, ,0.01512419803504292,-0.000930741144508718,-0.030862941668893192,-0.019687300203052198,-0.02210051822352194,0.009542614284784227, ,0.03438210019383314, ,0.02959720752354877, ,0.0006028691852506359, ,0.2178196807175023,-0.22829170649495073,0.10107432388000001,1.8085757625540226,0.8135337196034325,-1.111390088279477, ,0.09813541009148995,0.08868873042847737,0.03217941721212122,-0.05033277555031815,0.09181155569253154,-0.07474892843542376, ,1.3380579948425293
0.012956640086318924,0.022276343955276945,-0.08827900237320303, ,0.013809501368373259,0.021761445827727797,-0.08935488558572642, ,0.0014662936728945628, ,0.01512419803504292,-0.000930741144508718,-0.030862941668893192,-0.019687300203052198,-0.02210051822352194,0.009542614284784227, ,0.03438210019383314, ,0.02959720752354877, ,0.0006102488817262251, ,0.2178196807175023,-0.22829170649495073,0.10107432388000001,1.8085757625540226,0.8135337196034325,-1.111390088279477, ,0.09813541009148995,0.08868873042847737,0.03217941721212122,-0.05033277555031815,0.09181155569253154,-0.07474892843542376, ,1.3408079147338867
0.013123692951205867,0.022264509789269877,-0.0886224866866037, ,0.013859546146846955,0.021750269504324186,-0.08945794013294278, ,0.001226338231156506, ,0.017228396709637415,-0.0013794450945706612,-0.03592232843461809,-0.03928457392643858,-0.03287125916289384,-0.015543888871680673, ,0.03986394614332795, ,0.05122243269157898, ,0.0006154699779078376, ,0.21886997238839684,-0.22725686028980466,0.10143080363000001,1.8085757625540226,0.8143535386020251,-1.1120585957016556, ,0.10710715751520403,0.10734948140098505,0.037216849345794396,-0.026707598914747704,0.08429553671330157,-0.06862011892811137, ,1.343592882156372
0.013123692951205867,0.022264509789269877,-0.0886224866866037, ,0.013909834482503242,0.021738813674297208,-0.08956122196744624, ,0.0013325159811523692, ,0.017228396709637415,-0.0013794450945706612,-0.03592232843461809,-0.03928457392643858,-0.03287125916289384,-0.015543888871680673, ,0.03986394614332795, ,0.05122243269157898, ,0.0006214955745737582, ,0.21886997238839684,-0.22725686028980466,0.10143080363000001,1.8085757625540226,0.8143535386020251,-1.1120585957016556, ,0.10710715751520403,0.10734948140098505,0.037216849345794396,-0.026707598914747704,0.08429553671330157,-0.06862011892811137, ,1.3463189601898193
0.013123692951205867,0.022264509789269877,-0.0886224866866037, ,0.01396036393786722,0.02172708266289398,-0.08966472660207522, ,0.0014405243133969008, ,0.017228396709637415,-0.0013794450945706612,-0.03592232843461809,-0.03928457392643858,-0.03287125916289384,-0.015543888871680673, ,0.03986394614332795, ,0.05122243269157898, ,0.000628320814063951, ,0.21886997238839684,-0.22725686028980466,0.10143080363000001,1.8085757625540226,0.8143535386020251,-1.1120585957016556, ,0.10710715751520403,0.10734948140098505,0.037216849345794396,-0.026707598914747704,0.08429553671330157,-0.06862011892811137, ,1.349052906036377
0.013294829777983085,0.022248271283515888,-0.08899319863990558, ,0.014011132085949056,0.021715080776726667,-0.08976844956905682, ,0.0011825375749114162, ,0.017170125577938965,-0.002051237397179897,-0.037274500469871866,0.006511850700640054,0.013884827154625908,0.06586505095146235, ,0.0410902564180398, ,0.015333645031837099, ,0.0006329011178726078, ,0.21993570952503982,-0.22618340042028745,0.10181580176,1.8075273128366,0.815583267099914,-1.1130613568349232, ,0.10932827368487416,0.11034528088194276,0.03885075980487805,-0.13554607900647128,0.16116865418561396,-0.1399785818414852, ,1.3526408672332764
0.013294829777983085,0.022248271283515888,-0.08899319863990558, ,0.014062136510225818,0.021702812303803838,-0.08987238641997651, ,0.001288121218100058, ,0.017170125577938965,-0.002051237397179897,-0.037274500469871866,0.006511850700640054,0.013884827154625908,0.06586505095146235, ,0.0410902564180398, ,0.015333645031837099, ,0.0006382717744318492, ,0.21993570952503982,-0.22618340042028745,0.10181580176,1.8075273128366,0.815583267099914,-1.1130613568349232, ,0.10932827368487416,0.11034528088194276,0.03885075980487805,-0.13554607900647128,0.16116865418561396,-0.1399785818414852, ,1.3554348945617676
0.013294829777983085,0.022248271283515888,-0.08899319863990558, ,0.014113374804623907,0.02169028151356078,-0.0899765327257478, ,0.0013958203567766571, ,0.017170125577938965,-0.002051237397179897,-0.037274500469871866,0.006511850700640054,0.013884827154625908,0.06586505095146235, ,0.0410902564180398, ,0.015333645031837099, ,0.000644430705995628, ,0.21993570952503982,-0.22618340042028745,0.10181580176,1.8075273128366,0.815583267099914,-1.1130613568349232, ,0.10932827368487416,0.11034528088194276,0.03885075980487805,-0.13554607900647128,0.16116865418561396,-0.1399785818414852, ,1.358238935470581
0.013294829777983085,0.022248271283515888,-0.08899319863990558, ,0.01416484457350114,0.021677492656889126,-0.09008088407658102, ,0.0015052486818430005, ,0.017170125577938965,-0.002051237397179897,-0.037274500469871866,0.006511850700640054,0.013884827154625908,0.06586505095146235, ,0.0410902564180398, ,0.015333645031837099, ,0.0006513727864460101, ,0.21993570952503982,-0.22618340042028745,0.10181580176,1.8075273128366,0.815583267099914,-1.1130613568349232, ,0.10932827368487416,0.11034528088194276,0.03885075980487805,-0.13554607900647128,0.16116865418561396,-0.1399785818414852, ,1.3610708713531494
0.013294829777983085,0.022248271283515888,-0.08899319863990558, ,0.01421654343162919,0.02166444996616707,-0.09018543608195297, ,0.0016161167990365831, ,0.017170125577938965,-0.002051237397179897,-0.037274500469871866,0.006511850700640054,0.013884827154625908,0.06586505095146235, ,0.0410902564180398, ,0.015333645031837099, ,0.0006590907385467347, ,0.21993570952503982,-0.22618340042028745,0.10181580176,1.8075273128366,0.815583267099914,-1.1130613568349232, ,0.10932827368487416,0.11034528088194276,0.03885075980487805,-0.13554607900647128,0.16116865418561396,-0.1399785818414852, ,1.3639838695526123
0.013294829777983085,0.022248271283515888,-0.08899319863990558, ,0.014268469004175346,0.021651157655290805,-0.09029018437057736, ,0.0017282042741986786, ,0.017170125577938965,-0.002051237397179897,-0.037274500469871866,0.006511850700640054,0.013884827154625908,0.06586505095146235, ,0.0410902564180398, ,0.015333645031837099, ,0.0006675757666074644, ,0.21993570952503982,-0.22618340042028745,0.10181580176,1.8075273128366,0.815583267099914,-1.1130613568349232, ,0.10932827368487416,0.11034528088194276,0.03885075980487805,-0.13554607900647128,0.16116865418561396,-0.1399785818414852, ,1.3669750690460205
0.013490171944513674,0.022215304069044258,-0.0894064549190878, ,0.014320618926685095,0.021637619919703453,-0.09039512459037248, ,0.0014145065873001031, ,0.017080643143223793,-0.003027675474660998,-0.034834401196005525,0.03842555239705987,0.05223928881005659,0.02923510897552207, ,0.03891465913573306, ,0.06484917178600762, ,0.0006734571116522884, ,0.2212254059150353,-0.22486281309879505,0.10224746633000001,1.8058497932887239,0.8177694510961611,-1.1149257220342066, ,0.11530612583046268,0.11629527151773382,0.036533971376146786,-0.10675021147448607,0.20050232190952802,-0.1706693561188113, ,1.3702020645141602
0.013490171944513674,0.022215304069044258,-0.0894064549190878, ,0.01437299084506429,0.021623840936425803,-0.0905002524084323, ,0.0015249887855694451, ,0.017080643143223793,-0.003027675474660998,-0.034834401196005525,0.03842555239705987,0.05223928881005659,0.02923510897552207, ,0.03891465913573306, ,0.06484917178600762, ,0.0006801097028547662, ,0.2212254059150353,-0.22486281309879505,0.10224746633000001,1.8058497932887239,0.8177694510961611,-1.1149257220342066, ,0.11530612583046268,0.11629527151773382,0.036533971376146786,-0.10675021147448607,0.20050232190952802,-0.1706693561188113, ,1.373028039932251
0.013666679773010287,0.022189376585590424,-0.08975661411566048, ,0.014425582415561161,0.021609824864086725,-0.09060556351099515, ,0.001277704384671079, ,0.018163242303103826,-0.002730123931432572,-0.03618793847370545,-0.01003797699622044,-0.0011282385221511207,-0.02423761194924469, ,0.040582309429342885, ,0.010098110876575823, ,0.0006847422197680709, ,0.2223915385790432,-0.2236889577019129,0.10261431640000002,1.8056401033452392,0.8194090890933463,-1.1162627368785636, ,0.11672440536097266,0.11981937065463481,0.03765676482269504,-0.03555303615966146,0.12935817097082092,-0.11233643907480127, ,1.3757970333099365
0.013666679773010287,0.022189376585590424,-0.08975661411566048, ,0.01447839130474888,0.021595575842952883,-0.09071105360341306, ,0.0013865170999651276, ,0.018163242303103826,-0.002730123931432572,-0.03618793847370545,-0.01003797699622044,-0.0011282385221511207,-0.02423761194924469, ,0.040582309429342885, ,0.010098110876575823, ,0.000690140488077279, ,0.2223915385790432,-0.2236889577019129,0.10261431640000002,1.8056401033452392,0.8194090890933463,-1.1162627368785636, ,0.11672440536097266,0.11981937065463481,0.03765676482269504,-0.03555303615966146,0.12935817097082092,-0.11233643907480127, ,1.3785159587860107
0.013666679773010287,0.022189376585590424,-0.08975661411566048, ,0.014531415189507135,0.02158109799496002,-0.09081671841012198, ,0.0014971944761783642, ,0.018163242303103826,-0.002730123931432572,-0.03618793847370545,-0.01003797699622044,-0.0011282385221511207,-0.02423761194924469, ,0.040582309429342885, ,0.010098110876575823, ,0.0006963012055436995, ,0.2223915385790432,-0.2236889577019129,0.10261431640000002,1.8056401033452392,0.8194090890933463,-1.1162627368785636, ,0.11672440536097266,0.11981937065463481,0.03765676482269504,-0.03555303615966146,0.12935817097082092,-0.11233643907480127, ,1.3812499046325684
0.013861659596213598,0.022154100556587418,-0.09013998277103695, ,0.014584651757005223,0.021566395423741624,-0.09092255367460964, ,0.0012167712220701166, ,0.019402886558361046,-0.003357902798291859,-0.03884092188172152,-0.01337952980833111,0.004202318567314157,-0.04752539259333054, ,0.04354727007082531, ,0.014020802408326994, ,0.0007002441602143542, ,0.2236503440375418,-0.22236064764754632,0.10301227743000001,1.80522072345827,0.8207754540910007,-1.1173769159155278, ,0.12260586764660306,0.133469678703897,0.04032610511392406,-0.0159936331464749,0.13652288751612585,-0.11790215533501967, ,1.384091854095459
0.013861659596213598,0.022154100556587418,-0.09013998277103695, ,0.014638098704683408,0.021551472214660843,-0.09102855515938707, ,0.0013249828289426254, ,0.019402886558361046,-0.003357902798291859,-0.03884092188172152,-0.01337952980833111,0.004202318567314157,-0.04752539259333054, ,0.04354727007082531, ,0.014020802408326994, ,0.000704941443437875, ,0.2236503440375418,-0.22236064764754632,0.10301227743000001,1.80522072345827,0.8207754540910007,-1.1173769159155278, ,0.12260586764660306,0.133469678703897,0.04032610511392406,-0.0159936331464749,0.13652288751612585,-0.11790215533501967, ,1.3868958950042725
0.013861659596213598,0.022154100556587418,-0.09013998277103695, ,0.014691753740235534,0.02153633243483982,-0.09113471864595682, ,0.0014353373126340951, ,0.019402886558361046,-0.003357902798291859,-0.03884092188172152,-0.01337952980833111,0.004202318567314157,-0.04752539259333054, ,0.04354727007082531, ,0.014020802408326994, ,0.0007103921588796379, ,0.2236503440375418,-0.22236064764754632,0.10301227743000001,1.80522072345827,0.8207754540910007,-1.1173769159155278, ,0.12260586764660306,0.133469678703897,0.04032610511392406,-0.0159936331464749,0.13652288751612585,-0.11790215533501967, ,1.3896839618682861
0.013861659596213598,0.022154100556587418,-0.09013998277103695, ,0.014745614581591435,0.02152098013318974,-0.09124103993478215, ,0.001547431667160852, ,0.019402886558361046,-0.003357902798291859,-0.03884092188172152,-0.01337952980833111,0.004202318567314157,-0.04752539259333054, ,0.04354727007082531, ,0.014020802408326994, ,0.0007165924515335728, ,0.2236503440375418,-0.22236064764754632,0.10301227743000001,1.80522072345827,0.8207754540910007,-1.1173769159155278, ,0.12260586764660306,0.133469678703897,0.04032610511392406,-0.0159936331464749,0.13652288751612585,-0.11790215533501967, ,1.3924729824066162
0.014042147956270498,0.022112028976993894,-0.09051567169982935, ,0.01479967895689868,0.021505419340441524,-0.09134751484525769, ,0.0012781985317887985, ,0.018256473533274798,-0.0047607627884274206,-0.038810371311435436,-0.016524901297409772,0.01506121812232358,0.11997009622423567, ,0.04315331516268859, ,0.022356757418399886, ,0.0007207219080060378, ,0.22480103123580125,-0.22107867399042505,0.10340116443000001,1.8035432039103938,0.8224150920881861,-1.1188772882401659, ,0.11558701773260752,0.13422481125667718,0.04012295093198993,-0.20261039050939733,0.18318351195199026,-0.15497074507662792, ,1.3952698707580566
0.014042147956270498,0.022112028976993894,-0.09051567169982935, ,0.014853944604505058,0.02148965406917632,-0.09145413921567772, ,0.0013881950879715698, ,0.018256473533274798,-0.0047607627884274206,-0.038810371311435436,-0.016524901297409772,0.01506121812232358,0.11997009622423567, ,0.04315331516268859, ,0.022356757418399886, ,0.0007255939750130854, ,0.22480103123580125,-0.22107867399042505,0.10340116443000001,1.8035432039103938,0.8224150920881861,-1.1188772882401659, ,0.11558701773260752,0.13422481125667718,0.04012295093198993,-0.20261039050939733,0.18318351195199026,-0.15497074507662792, ,1.3979730606079102
0.014042147956270498,0.022112028976993894,-0.09051567169982935, ,0.014908409272940692,0.021473688313855294,-0.09156090890320648, ,0.001500136087926372, ,0.018256473533274798,-0.0047607627884274206,-0.038810371311435436,-0.016524901297409772,0.01506121812232358,0.11997009622423567, ,0.04315331516268859, ,0.022356757418399886, ,0.0007312065990197035, ,0.22480103123580125,-0.22107867399042505,0.10340116443000001,1.8035432039103938,0.8224150920881861,-1.1188772882401659, ,0.11558701773260752,0.13422481125667718,0.04012295093198993,-0.20261039050939733,0.18318351195199026,-0.15497074507662792, ,1.400838851928711
0.014042147956270498,0.022112028976993894,-0.09051567169982935, ,0.014963070720900203,0.02145752605084987,-0.0916678197838466, ,0.0016136660206650297, ,0.018256473533274798,-0.0047607627884274206,-0.038810371311435436,-0.016524901297409772,0.01506121812232358,0.11997009622423567, ,0.04315331516268859, ,0.022356757418399886, ,0.0007375552279524036, ,0.22480103123580125,-0.22107867399042505,0.10340116443000001,1.8035432039103938,0.8224150920881861,-1.1188772882401659, ,0.11558701773260752,0.13422481125667718,0.04012295093198993,-0.20261039050939733,0.18318351195199026,-0.15497074507662792, ,1.404723882675171
0.014042147956270498,0.022112028976993894,-0.09051567169982935, ,0.015017926717225355,0.02144117123847177,-0.09177486775240987, ,0.0017285164142986792, ,0.018256473533274798,-0.0047607627884274206,-0.038810371311435436,-0.016524901297409772,0.01506121812232358,0.11997009622423567, ,0.04315331516268859, ,0.022356757418399886, ,0.0007446335221405913, ,0.22480103123580125,-0.22107867399042505,0.10340116443000001,1.8035432039103938,0.8224150920881861,-1.1188772882401659, ,0.11558701773260752,0.13422481125667718,0.04012295093198993,-0.20261039050939733,0.18318351195199026,-0.15497074507662792, ,1.4076118469238281
0.014042147956270498,0.022112028976993894,-0.09051567169982935, ,0.015072975040886375,0.021424627817004355,-0.09188204872248551, ,0.0018444812281981444, ,0.018256473533274798,-0.0047607627884274206,-0.038810371311435436,-0.016524901297409772,0.01506121812232358,0.11997009622423567, ,0.04315331516268859, ,0.022356757418399886, ,0.000752433860481425, ,0.22650775520100486,-0.21903214977875554,0.10396634687,1.8020753743060025,0.8251478220834948,-1.1215957187549377, ,0.11876963899683453,0.1407966491965442,0.03894574943765281,-0.03706969936207668,0.1958674395364205,-0.17699965594284678, ,1.4117588996887207
0.014308684657706804,0.02203832075914366,-0.09106111158265782, ,0.01512821348096501,0.02140789970873152,-0.09198935862641062, ,0.0013894965876854618, ,0.018558431292541214,-0.004732983069616186,-0.037392382013484396,0.032870980222643814,0.06065843664157755,-0.04916965865941565, ,0.04201198321216933, ,0.06899184137915684, ,0.0007569202177152562, ,0.22650775520100486,-0.21903214977875554,0.10396634687,1.8020753743060025,0.8251478220834948,-1.1215957187549377, ,0.11876963899683453,0.1407966491965442,0.03894574943765281,-0.03706969936207668,0.1958674395364205,-0.17699965594284678, ,1.4149010181427002
0.014308684657706804,0.02203832075914366,-0.09106111158265782, ,0.01518363983663638,0.021390990817968608,-0.09209679341523853, ,0.0015024045647611436, ,0.018558431292541214,-0.004732983069616186,-0.037392382013484396,0.032870980222643814,0.06065843664157755,-0.04916965865941565, ,0.04201198321216933, ,0.06899184137915684, ,0.0007621333949673254, ,0.22650775520100486,-0.21903214977875554,0.10396634687,1.8020753743060025,0.8251478220834948,-1.1215957187549377, ,0.11876963899683453,0.1407966491965442,0.03894574943765281,-0.03706969936207668,0.1958674395364205,-0.17699965594284678, ,1.4176909923553467
0.014534113384799475,0.021984812022970732,-0.09150053519713125, ,0.015239251917151055,0.021373905031092922,-0.09220434905870982, ,0.0011686666138305973, ,0.01915816361928955,-0.005214892474610778,-0.03557433703794576,-0.09833964720873306,-0.08973899401344469,-0.030435583512714214, ,0.04074019872895297, ,0.13313044837570734, ,0.0007649565423205425, ,0.2279055698512395,-0.21738720767654574,0.10442004837,1.8020753743060025,0.8265141870811493,-1.122709897791902, ,0.11744670984959255,0.13955432582128055,0.03620184436363637,-0.019413353860796137,0.033229393292478565,-0.04437923457016053, ,1.4205188751220703
0.014534113384799475,0.021984812022970732,-0.09150053519713125, ,0.015295047541817637,0.02135664621657311,-0.09231202154521963, ,0.0012775457583890791, ,0.01915816361928955,-0.005214892474610778,-0.03557433703794576,-0.09833964720873306,-0.08973899401344469,-0.030435583512714214, ,0.04074019872895297, ,0.13313044837570734, ,0.0007684916403623945, ,0.2279055698512395,-0.21738720767654574,0.10442004837,1.8020753743060025,0.8265141870811493,-1.122709897791902, ,0.11744670984959255,0.13955432582128055,0.03620184436363637,-0.019413353860796137,0.033229393292478565,-0.04437923457016053, ,1.4234678745269775
0.014534113384799475,0.021984812022970732,-0.09150053519713125, ,0.015351024539984461,0.021339218225000428,-0.09241980688178943, ,0.0013889548652341707, ,0.01915816361928955,-0.005214892474610778,-0.03557433703794576,-0.09833964720873306,-0.08973899401344469,-0.030435583512714214, ,0.04074019872895297, ,0.13313044837570734, ,0.0007727413884779546, ,0.2279055698512395,-0.21738720767654574,0.10442004837,1.8020753743060025,0.8265141870811493,-1.122709897791902, ,0.11744670984959255,0.13955432582128055,0.03620184436363637,-0.019413353860796137,0.033229393292478565,-0.04437923457016053, ,1.4261748790740967
0.014534113384799475,0.021984812022970732,-0.09150053519713125, ,0.015407180751022374,0.021321624889117805,-0.09252770109403444, ,0.0015023759783198013, ,0.01915816361928955,-0.005214892474610778,-0.03557433703794576,-0.09833964720873306,-0.08973899401344469,-0.030435583512714214, ,0.04074019872895297, ,0.13313044837570734, ,0.0007777048890891237, ,0.2279055698512395,-0.21738720767654574,0.10442004837,1.8020753743060025,0.8265141870811493,-1.122709897791902, ,0.11744670984959255,0.13955432582128055,0.03620184436363637,-0.019413353860796137,0.033229393292478565,-0.04437923457016053, ,1.4289898872375488
0.01471869602169835,0.021918553110406882,-0.09183547910561848, ,0.015463514024306443,0.0213038700238517,-0.09263570022613511, ,0.0012541702418838532, ,0.01860033215625446,-0.008124774600670268,-0.03415953088833357,-0.13105895190205044,-0.11119020816328873,0.1379533242922767, ,0.03973484452147391, ,0.17187107014751246, ,0.00078092424958098, ,0.22907170251524742,-0.21595850209481418,0.10475838006000002,1.8010269245885797,0.8269240965804455,-1.123289187723413, ,0.11921726326441054,0.15183510649355325,0.034329335172413794,-0.14548578297688314,0.03435614780862188,-0.05038237037478306, ,1.43172287940979
0.01471869602169835,0.021918553110406882,-0.09183547910561848, ,0.015520022219198378,0.021285957426340693,-0.09274380034080455, ,0.001366509583057861, ,0.01860033215625446,-0.008124774600670268,-0.03415953088833357,-0.13105895190205044,-0.11119020816328873,0.1379533242922767, ,0.03973484452147391, ,0.17187107014751246, ,0.0007848543524902208, ,0.22907170251524742,-0.21595850209481418,0.10475838006000002,1.8010269245885797,0.8269240965804455,-1.123289187723413, ,0.11921726326441054,0.15183510649355325,0.034329335172413794,-0.14548578297688314,0.03435614780862188,-0.05038237037478306, ,1.434445858001709
0.01471869602169835,0.021918553110406882,-0.09183547910561848, ,0.015576703205028831,0.021267890875966786,-0.09285199751925913, ,0.0014808265783824166, ,0.01860033215625446,-0.008124774600670268,-0.03415953088833357,-0.13105895190205044,-0.11119020816328873,0.1379533242922767, ,0.03973484452147391, ,0.17187107014751246, ,0.0007894941673295021, ,0.22907170251524742,-0.21595850209481418,0.10475838006000002,1.8010269245885797,0.8269240965804455,-1.123289187723413, ,0.11921726326441054,0.15183510649355325,0.034329335172413794,-0.14548578297688314,0.03435614780862188,-0.05038237037478306, ,1.4371299743652344
0.01471869602169835,0.021918553110406882,-0.09183547910561848, ,0.015633554861079448,0.021249674134384836,-0.092960287861188, ,0.0015967343289238418, ,0.01860033215625446,-0.008124774600670268,-0.03415953088833357,-0.13105895190205044,-0.11119020816328873,0.1379533242922767, ,0.03973484452147391, ,0.17187107014751246, ,0.0007948401286645639, ,0.22907170251524742,-0.21595850209481418,0.10475838006000002,1.8010269245885797,0.8269240965804455,-1.123289187723413, ,0.11921726326441054,0.15183510649355325,0.034329335172413794,-0.14548578297688314,0.03435614780862188,-0.05038237037478306, ,1.4401190280914307
0.014905666285234261,0.021834731298658833,-0.09218461569069229, ,0.01569057507656509,0.02123131094555418,-0.09306866748472227, ,0.0013273076161075049, ,0.017895871081773915,-0.007874949213464448,-0.03342238340001281,0.04500788543196892,0.017701297698143055,0.03105698150078626, ,0.03872121820175042, ,0.04836325037004357, ,0.0007983432042398464, ,0.23031506250799755,-0.2143830645884724,0.10511485981000002,1.7989300251537346,0.8285637345776309,-1.1254429899691758, ,0.11951755863787251,0.15110977955170507,0.034329335172413794,-0.17075430405085526,0.18042909261534743,-0.24484711099596393, ,1.442863941192627
0.014905666285234261,0.021834731298658833,-0.09218461569069229, ,0.015747761750616124,0.02121280503576701,-0.09317713252640396, ,0.001442569484795233, ,0.017895871081773915,-0.007874949213464448,-0.03342238340001281,0.04500788543196892,0.017701297698143055,0.03105698150078626, ,0.03872121820175042, ,0.04836325037004357, ,0.0008025538335245222, ,0.23031506250799755,-0.2143830645884724,0.10511485981000002,1.7989300251537346,0.8285637345776309,-1.1254429899691758, ,0.11951755863787251,0.15110977955170507,0.034329335172413794,-0.17075430405085526,0.18042909261534743,-0.24484711099596393, ,1.4456748962402344
0.014905666285234261,0.021834731298658833,-0.09218461569069229, ,0.01580511279226038,0.021194160113680447,-0.09328567914115671, ,0.001559383270390798, ,0.017895871081773915,-0.007874949213464448,-0.03342238340001281,0.04500788543196892,0.017701297698143055,0.03105698150078626, ,0.03872121820175042, ,0.04836325037004357, ,0.0008074683103872902, ,0.23031506250799755,-0.2143830645884724,0.10511485981000002,1.7989300251537346,0.8285637345776309,-1.1254429899691758, ,0.11951755863787251,0.15110977955170507,0.034329335172413794,-0.17075430405085526,0.18042909261534743,-0.24484711099596393, ,1.4487159252166748
0.014905666285234261,0.021834731298658833,-0.09218461569069229, ,0.01586262612040599,0.021175379870345117,-0.09339430350225407, ,0.0016774567158625462, ,0.017895871081773915,-0.007874949213464448,-0.03342238340001281,0.04500788543196892,0.017701297698143055,0.03105698150078626, ,0.03872121820175042, ,0.04836325037004357, ,0.0008130811388097113, ,0.2310796130625458,-0.21343316844494278,0.10533004395000001,1.798300955323281,0.829520190075989,-1.1267946664760344, ,0.12404828961891604,0.15256743015831317,0.03524073345132744,-0.07681744933999439,0.13685984343507676,-0.2007423628022295, ,1.454859972000122
0.015021242993679,0.02178773634806117,-0.09239405178869786, ,0.015920299663822662,0.02115646797923679,-0.09350300180128933, ,0.0015609525233121649, ,0.019009600758071763,-0.007281963653602267,-0.03430279428060149,0.021043848999342488,-0.008526793643392148,-0.04422332186294609, ,0.03988826407718107, ,0.022704675632733665, ,0.0008178751861462655, ,0.2310796130625458,-0.21343316844494278,0.10533004395000001,1.798300955323281,0.829520190075989,-1.1267946664760344, ,0.12404828961891604,0.15256743015831317,0.03524073345132744,-0.07681744933999439,0.13685984343507676,-0.2007423628022295, ,1.4576990604400635
0.015281089792662777,0.021701637191939314,-0.09285331485606291, ,0.01597813136112475,0.021137428096285642,-0.09361177024814525, ,0.0011745013552827625, ,0.019551521321878196,-0.006274474581122024,-0.034615416412470436,-0.0983538909518811,-0.11737855101010108,-0.04340363671154748, ,0.04024746042519617, ,0.15313772364635717, ,0.0008201466904082815, ,0.23270910969900716,-0.21147159429488974,0.10579930093,1.7980912653797962,0.8303400090745816,-1.1283616400397594, ,0.11832536353924038,0.1437832447855618,0.03508548792951543,-0.022053633954276435,0.005482560611730865,-0.05604257696662303, ,1.4607088565826416
0.015281089792662777,0.021701637191939314,-0.09285331485606291, ,0.01603611916075282,0.021118263859907407,-0.09372060507096318, ,0.0012894130866662615, ,0.019551521321878196,-0.006274474581122024,-0.034615416412470436,-0.0983538909518811,-0.11737855101010108,-0.04340363671154748, ,0.04024746042519617, ,0.15313772364635717, ,0.000823116730890927, ,0.23270910969900716,-0.21147159429488974,0.10579930093,1.7980912653797962,0.8303400090745816,-1.1283616400397594, ,0.11832536353924038,0.1437832447855618,0.03508548792951543,-0.022053633954276435,0.005482560611730865,-0.05604257696662303, ,1.4637198448181152
0.015281089792662777,0.021701637191939314,-0.09285331485606291, ,0.016094261020956308,0.021098978891032485,-0.0938295025161127, ,0.0014061958689349835, ,0.019551521321878196,-0.006274474581122024,-0.034615416412470436,-0.0983538909518811,-0.11737855101010108,-0.04340363671154748, ,0.04024746042519617, ,0.15313772364635717, ,0.0008267838952811412, ,0.23270910969900716,-0.21147159429488974,0.10579930093,1.7980912653797962,0.8303400090745816,-1.1283616400397594, ,0.11832536353924038,0.1437832447855618,0.03508548792951543,-0.022053633954276435,0.005482560611730865,-0.05604257696662303, ,1.4664440155029297
0.015281089792662777,0.021701637191939314,-0.09285331485606291, ,0.01615255490977538,0.021079576793137437,-0.09393845884816142, ,0.0015244500889465445, ,0.019551521321878196,-0.006274474581122024,-0.034615416412470436,-0.0983538909518811,-0.11737855101010108,-0.04340363671154748, ,0.04024746042519617, ,0.15313772364635717, ,0.00083114430899155, ,0.23270910969900716,-0.21147159429488974,0.10579930093,1.7980912653797962,0.8303400090745816,-1.1283616400397594, ,0.11832536353924038,0.1437832447855618,0.03508548792951543,-0.022053633954276435,0.005482560611730865,-0.05604257696662303, ,1.4691779613494873
0.01548459501047559,0.02162599425230429,-0.0932268648679011, ,0.016210998805023517,0.021060061152274007,-0.09404747034984287, ,0.0012334245430655228, ,0.019325915786111224,-0.0073089988832576586,-0.03623188482506293,0.0039775963589723405,-0.015365485749636663,-0.06353900419292137, ,0.0417092551314927, ,0.01587000271911047, ,0.0008336429439857983, ,0.2339524696917573,-0.2098807113227995,0.10617911390000001,1.7972525056058584,0.8310231915734089,-1.1296538382195065, ,0.11862117694808846,0.15608049598432694,0.03713009678321679,-0.05055544675528921,0.11828088942818818,-0.18063703102719442, ,1.4719529151916504
0.01548459501047559,0.02162599425230429,-0.0932268648679011, ,0.016269590694269205,0.021040435537100714,-0.09415653332202897, ,0.0013503261336158651, ,0.019325915786111224,-0.0073089988832576586,-0.03623188482506293,0.0039775963589723405,-0.015365485749636663,-0.06353900419292137, ,0.0417092551314927, ,0.01587000271911047, ,0.000836832346390922, ,0.2339524696917573,-0.2098807113227995,0.10617911390000001,1.7972525056058584,0.8310231915734089,-1.1296538382195065, ,0.11862117694808846,0.15608049598432694,0.03713009678321679,-0.05055544675528921,0.11828088942818818,-0.18063703102719442, ,1.4746990203857422
