NicholasDascanio/dvrk_moveit_final/test/execution/third_experiment_notsharpbends/thirdexp_200vel5.0/thirdexp_200vel5.0_11.csv
Current Position (x),Current Position (y),Current Position (z), ,Planned Position (x),Planned Position (y),Planned Position (z), ,Position Error,,Cartesian linear Velocity(x),Cartesian linear Velocity(y),Cartesian linear Velocity(z),Cartesian Angular Velocity(x),Cartesian Angular Velocity(y),Cartesian Angular Velocity(z), ,Total Linear Velocity, ,Total Angular Velocity, ,MSE, ,Joint 1 Position,Joint 2 Position,Joint 3 Position,Joint 4 Position,Joint 5 Position,Joint 6 Position, ,Joint 1 Velocity,Joint 2 Velocity,Joint 3 Velocity,Joint 4 Velocity,Joint 5 Velocity,Joint 6 Velocity, ,Time Stamp
0.010311382191594432,0.01954573521708436,-0.07972406569204367, ,0.010442834964709323,0.019646540534085776,-0.07992859162953136, ,0.00026319650947642117, ,0.0017807480172382447,0.000557605323408794,-0.0008833775257717737,0.12079882046405435,-0.17601536142671634,-0.04292602706897007, ,0.0020645442718988678, ,0.21348012198723298, ,2.193304245636843e-05, ,0.1458515330626041,-0.23796829078635404,0.08932475132,1.605176517374034,0.15289624323752785,-1.3152259505251305, ,4.9069547122302474e-05,-0.004016432899950647,0.0009812006603424912,-0.0009530038672072721,-0.18129242068855647,-0.11692482851862795, ,0.0524899959564209
0.010411222089643447,0.019655166906485968,-0.07998637764031553, ,0.010445283628399499,0.01983192819027496,-0.08017983237714418, ,0.00026425267277854547, ,0.0013433566136094612,0.002877097917959042,-0.006005691774141061,-0.06757910277353578,-0.09345847006436526,-0.020753308993004094, ,0.006793425726894947, ,0.11533178551741499, ,2.3974962829771215e-05, ,0.14568935567224536,-0.23850115935467553,0.08960604625000002,1.605176517374034,0.14469805325160143,-1.3228346558279438, ,-0.005688370882177227,-0.01658457559567822,0.006517516988543373,-0.0009087965281218299,-0.10178691528621674,0.08388755431898857, ,0.10530614852905273
0.010414091023808584,0.019806026862891138,-0.08021155616917444, ,0.01045153912217555,0.02001029883863068,-0.08043064734672838, ,0.0003018780287232053, ,0.00044014586380984166,0.0034208294265820594,-0.005690167667763212,0.006928749127581733,-0.014539517242823903,-0.0031613710330272928, ,0.00665385680898353, ,0.016106058492447308, ,2.5916475343067873e-05, ,0.14541133728877328,-0.2396209556214381,0.08986011909000001,1.6053862073175185,0.14551787225019408,-1.3180306876607046, ,-0.007351293903974504,-0.023718305813164406,0.006323466264390632,0.001242514136359932,-0.022831706323321096,0.01671776402009391, ,0.15804219245910645
0.010436011237347024,0.01999457940535158,-0.08048265525637434, ,0.010461542199067008,0.02018177553019863,-0.08068103814532852, ,0.0002739525320085728, ,0.00033019297086751435,0.003787906689339057,-0.004461979725090848,0.029202557689185258,0.003272459848391689,0.003115049932048718, ,0.005862297122482934, ,0.029385342728661425, ,2.6909262024066946e-05, ,0.14516420983679812,-0.2410419384702954,0.09016863611,1.6053862073175185,0.14524459925066321,-1.3178895305934524, ,-0.004049843101247682,-0.031236649624249765,0.005243190098749178,0.00119470147051699,-0.0010923209963075522,0.0018736978321858017, ,0.2050001621246338
0.010446108685795054,0.02014267815882065,-0.08067348944842839, ,0.01047523410434197,0.02034648030913516,-0.08093100629618401, ,0.00032969460619843325, ,0.00048613719966915007,0.004091371281490921,-0.006218945893560508,-0.00969520017367393,0.00387173031312996,0.002902022914233609, ,0.007459955520440047, ,0.010439693133567412, ,2.865948698370356e-05, ,0.14493252785057137,-0.2422157938671775,0.09038900541000001,1.6053862073175185,0.14510796275089774,-1.316634610327788, ,-0.005319773674085495,-0.029553703381647704,0.007029484342453663,0.001159592964803484,-0.0017202369135831102,0.039102703673531324, ,0.2520911693572998
0.010462540341706896,0.02029957234248438,-0.08090847999079763, ,0.010492556573775565,0.02050453421615365,-0.08118055323934263, ,0.0003419564247377841, ,0.00036109460980782133,0.003584783566206105,-0.006083454604069055,0.015577596782797385,0.009492558766046983,0.011052286546415985, ,0.007070324069909568, ,0.018241989615232067, ,3.0083572439372237e-05, ,0.14468540039859618,-0.24335103559968851,0.09065474486000001,1.6058055872044876,0.14483468975136687,-1.3151049146781462, ,-0.005766468217534251,-0.024042802523048083,0.006772453877551022,-0.00648232848696103,0.005460704310201717,0.007306471047776899, ,0.30148816108703613
0.01047457617900025,0.020449812153353036,-0.08117102823225635, ,0.01051345183191683,0.020656057291969843,-0.08142968033227198, ,0.000333090501868866, ,0.0003449343461310744,0.002960607492519385,-0.005107840839184594,-0.009395172833730673,-0.004841317746208166,0.00565208755236616, ,0.005913900106219648, ,0.010569182873740257, ,3.146300411629594e-05, ,0.14435332288500455,-0.24433182267471504,0.09094511382,1.6058055872044876,0.14469805325160143,-1.3142583881131848, ,-0.005870350949695458,-0.019514073937583958,0.005664584466571835,-0.005297067300181362,-0.009688138702337796,0.027968560995773613, ,0.3430500030517578
0.010494383140834663,0.02057432259699835,-0.08141355909854024, ,0.01053786259035361,0.020801168580744624,-0.08167838885046907, ,0.0003514034154344166, ,0.0005507677017607251,0.002823522643282701,-0.005455557639360132,-0.0022119901459223723,-0.008229478100795625,0.0038896449915228936, ,0.006167554972176059, ,0.008521572940740855, ,3.279232921634993e-05, ,0.1440907499672809,-0.24524310515387354,0.09128214922000001,1.6058055872044876,0.14442478025207056,-1.313627158605089, ,-0.004176448667576138,-0.01673372272235422,0.0059905270853704414,-0.004441356472730138,-0.011659020734390202,0.018156186281812106, ,0.38608217239379883
0.010525106391216536,0.02072266852597825,-0.08168395875361725, ,0.010565732045975672,0.020939986133525757,-0.0819266799880672, ,0.0003283153728165754, ,0.0006639386211876868,0.0028895981006042573,-0.00510439784254623,0.01609684803300237,-0.011136516349738418,-0.002290931340685926, ,0.00590300508306667, ,0.0195737198697746, ,3.358722968726289e-05, ,0.14397490897416754,-0.2459844875097991,0.09151029626000001,1.6058055872044876,0.14387823425300877,-1.3126097358093194, ,-0.0024910880004170143,-0.018266976238396685,0.0056807459058487875,0.0014337665918031748,-0.014416413024581924,0.0021846816357437467, ,0.4289531707763672
0.010560067545462811,0.020855538924559998,-0.08194791116877352, ,0.010597003879236257,0.021072627011687377,-0.08217455485844145, ,0.00031600457653575516, ,0.0010608215154558544,0.003770879058615834,-0.007954059310137178,0.00852459934920027,0.002677767894615217,-0.003352606520445942, ,0.008866336936499842, ,0.008935278570024489, ,3.448605156198417e-05, ,0.14390540437829952,-0.24673359259859887,0.09180066522000001,1.6060152771479719,0.1436049612534779,-1.311978506301224, ,-0.001103390792983199,-0.019811470053960497,0.008704268590163936,0.006502876079439774,0.0,0.011986530341085972, ,0.46654415130615234
0.010591918438836646,0.020964650582550405,-0.08216839963383951, ,0.01063162225241268,0.021199207290369712,-0.08242201449481282, ,0.00034772653005202427, ,0.0009219856745896305,0.0036446589037862193,-0.00675186957889712,0.0014575185451467553,-0.0017598948604289316,-0.0034232371452125048, ,0.007727958263314641, ,0.002285076847108201, ,3.558217701681031e-05, ,0.1438745134468026,-0.24733596576278838,0.09204307145000001,1.6060152771479719,0.14333168825394704,-1.311347276793128, ,-0.0011571985329831601,-0.021755374039080875,0.007495911303529413,0.005754845262396828,-0.004439152672282368,0.02087429166428737, ,0.5036871433258057
0.010627657825710058,0.021102777392653323,-0.08241986506159403, ,0.010669531807865527,0.021319842061916755,-0.08266905985085077, ,0.0003331194140495412, ,0.000942054647654852,0.0034928649713262825,-0.006604942675341526,0.006524138875818632,-0.0019848501121770097,0.0023535246833601355, ,0.007530792814281504, ,0.006819384537367581, ,3.639029408346289e-05, ,0.14385134524817994,-0.24817002091320461,0.09232307009000001,1.6062249670914566,0.1431950517541816,-1.310827465188729, ,-0.0004452996994597072,-0.020386023965299847,0.007323591503448277,0.0,-0.002493480281965963,0.013651749321952462, ,0.5406091213226318
0.010657825461768076,0.021207076390792688,-0.08262403316687449, ,0.010710677666296544,0.02143464543931302,-0.08291569180127419, ,0.000373692101050939, ,0.0012371131577488953,0.0037186462239130386,-0.007857871964157605,0.004784366814894401,-0.008109429933734898,0.0008004884541357655, ,0.008780941322477462, ,0.009415571661391347, ,3.780256987028255e-05, ,0.14384362251530572,-0.24875694861164568,0.09254862455000001,1.6062249670914566,0.14305841525441615,-1.3103076535843297, ,0.00030649871560692023,-0.01917884833437162,0.008614825051379124,0.0,-0.00803938076114174,0.014198231416952943, ,0.5730781555175781
0.01069198306553878,0.021313180296394604,-0.08285535036488495, ,0.01075500542500597,0.021543730559619792,-0.08316191114245225, ,0.00038872194690894716, ,0.0012241186531077415,0.0035284063518879133,-0.008058266721831988,0.0009447487142493263,-0.006069932844921693,0.0008423060094884493, ,0.008881654148924858, ,0.0061430123633379515, ,3.919831579862093e-05, ,0.14385134524817994,-0.24928209444709296,0.09280140110000001,1.6062249670914566,0.14305841525441615,-1.3099809386237673, ,0.0,-0.016361541648012203,0.008761722508250826,0.0,-0.006248625320568187,0.015249711101206011, ,0.6045131683349609
0.010729769855819717,0.021419783547861778,-0.08309446958028349, ,0.010802461156148763,0.021647209587410503,-0.08340771859300224, ,0.0003938674555959323, ,0.0011979191478827431,0.003332352811433876,-0.0077653271240501675,-0.007932661144449557,-0.0025934813700058137,-0.0034328316088234373, ,0.00853462892504675, ,0.008345851077841776, ,4.0498951542917706e-05, ,0.14385906798105416,-0.24978407208391754,0.09306195539,1.606434657034941,0.14278514225488526,-1.3092680303755313, ,0.0004924251644827665,-0.014820699915425704,0.008432404192694549,0.004985151307295382,-0.0034182281168324297,0.023293447792279875, ,0.6366770267486572
0.010767721573877497,0.02151761441685226,-0.08333429577865702, ,0.010852991404990256,0.021745193718205883,-0.0836531147943891, ,0.0004008850799106582, ,0.001284150819868222,0.0033475059744014686,-0.008489234597192441,0.011579328482166935,0.006063504413946813,-0.0007330727796111006, ,0.009215310283598207, ,0.013070841204207677, ,4.20610800641466e-05, ,0.14388223617967685,-0.25018565419337724,0.09332121339,1.606434657034941,0.1426485057551198,-1.3089932549915537, ,0.0013343693414553386,-0.012801422036755803,0.009154489379310347,0.004384517697648017,0.006521107958402084,0.0016975266179191642, ,0.6642451286315918
0.010811829893071286,0.02162705564663905,-0.08362951019084107, ,0.010906543188160919,0.02183779318190816,-0.08389810031152176, ,0.00035429023408118504, ,0.0014638513705251346,0.0035072692132424453,-0.009943023978038073,0.0067342985977099125,0.0036903289122477206,0.004796699069634344, ,0.010644600696925492, ,0.007679141091307803, ,4.315187425930154e-05, ,0.1438976816454253,-0.2505486226384658,0.09363750815,1.6068540369219102,0.1426485057551198,-1.308748218771132, ,0.0008271815206012782,-0.010422013487497286,0.010612132924716857,-0.002075186674684978,0.0051999000776128184,0.0032924627840378354, ,0.6904101371765137
0.010841445628088319,0.021693831921070394,-0.08382024045454388, ,0.010963063991910356,0.021925117246234426,-0.08414267563335029, ,0.00041502815878793474, ,0.0013219351537722699,0.003193609504329978,-0.008801966235198204,-0.0007840493534863762,0.0028882497177095605,0.004630746654335982, ,0.009456281712306109, ,0.002992769117118229, ,4.460639095631925e-05, ,0.14392084984404796,-0.2507416909603214,0.09384102568000001,1.6068540369219102,0.1426485057551198,-1.3083398250704292, ,0.0010321389105538668,-0.01016406031019788,0.009419758438793615,-0.002075186674684978,0.004589153049335302,0.010555258387943727, ,0.7165369987487793
0.010872281004717254,0.021755201245460855,-0.08399196901487113, ,0.011022501770361329,0.022007274220150624,-0.08438684117346075, ,0.000491966548282366, ,0.0015438026922008942,0.003476925021914384,-0.01002310036263554,-0.0007567297042791556,0.0015241619777019507,-0.002460277478873243, ,0.00936029629317088, ,0.0049905112401056, ,4.683008588154683e-05, ,0.1440212453714129,-0.2510197093437935,0.09412232061,1.6066443469784255,0.1426485057551198,-1.3080947888500076, ,0.0034967267581587653,-0.009552447581252045,0.010712045406859449,0.005051726332531431,0.003901099097974485,0.010912044623789318, ,0.7388551235198975
0.010928614015433595,0.021862438630148293,-0.08431178670895643, ,0.01108480494376259,0.02208437145730432,-0.08463059727067151, ,0.0004186764384615237, ,0.0021044638154286586,0.003811929648796326,-0.011895472105016663,0.006277812332011775,0.0019057309246408704,-0.010535597826623066, ,0.012667353006806535, ,0.00656067830726203, ,4.8425645156962946e-05, ,0.14410619543302935,-0.2511896094670264,0.09436602313,1.6070637268653947,0.1426485057551198,-1.3079314313697266, ,0.004771156239821705,-0.007685169436532322,0.012641913904761905,0.013079557739953987,0.003541014643972971,0.0031478817650926133, ,0.7596001625061035
0.010975225187371575,0.02194261282890302,-0.08456818636168584, ,0.01114992239674152,0.02215651535945713,-0.08487394418962697, ,0.0004120209422910192, ,0.0026086048307677515,0.004036315369282083,-0.01284919475459649,0.004367189152226957,-0.005497525806827672,-0.010943497160239625, ,0.013718544629987452, ,0.007021024201419909, ,4.98908690607426e-05, ,0.14422975915901695,-0.2513363413916367,0.09463824403000001,1.6070637268653947,0.14278514225488526,-1.3078794917931418, ,0.008608966689957913,-0.007273177845603383,0.013672799587982834,0.012522240330434456,0.0,0.004573807068066643, ,0.781076192855835
0.011001554817926057,0.021980786994484795,-0.08468982291742982, ,0.011217803476556503,0.022223811379917895,-0.08511688212139212, ,0.0005368462516992323, ,0.0026827510911551517,0.003869929879765672,-0.012308010290084105,0.0015539056403209236,-0.007484543028673892,-0.010050345714958329, ,0.013178035816927102, ,0.007644130077294912, ,5.243806409045973e-05, ,0.14433015468638186,-0.2514058459875047,0.09476787303,1.6070637268653947,0.14278514225488526,-1.3077161343128605, ,0.010352456725143799,-0.006925409385353295,0.013120932059308074,0.011546088096789196,0.0,0.0069080271867894335, ,0.7967441082000732
0.011056936962449132,0.02205746160298725,-0.0849420999571152, ,0.011288397991348377,0.022286364026973576,-0.08535941118404519, ,0.0005292628720472726, ,0.0031434360095484518,0.004229735377680123,-0.014051022847473543,-0.003440517248256048,-0.010195531074595145,-0.00873377906860208, ,0.015006768285395367, ,0.0107603654739241, ,5.483773299223968e-05, ,0.14454639120686014,-0.25152168698061805,0.09503620506,1.6070637268653947,0.14278514225488526,-1.3075527768325794, ,0.01268167066129504,-0.005817261576377425,0.014942599924953096,0.010017082660457734,0.0,0.010594680673501437, ,0.8134300708770752
0.011125259377002516,0.02215017745006918,-0.08525853909102822, ,0.011361656208392022,0.02234427686732207,-0.08560153142327184, ,0.00045956695447652626, ,0.003487366607463342,0.004328852738339097,-0.015658185979790625,-0.005215803304107766,-0.007648907508562556,-0.012118637760751344, ,0.0166156396224397, ,0.009257939777662086, ,5.670516182451694e-05, ,0.144816686857458,-0.25162208250798296,0.09537194417000001,1.6074831067523636,0.14292177875465073,-1.3075825159961352, ,0.014180654745736817,-0.002197127216478886,0.01643840198142415,0.013839658249729976,0.00319662286951084,0.009377951519440222, ,0.8292410373687744
0.011163861551652124,0.02219638981969877,-0.0854264195056831, ,0.011437528852347887,0.02239765252950388,-0.0858432428129574, ,0.0005377193871484325, ,0.003810972594568861,0.0045585705921585605,-0.016561432654279853,-0.0010296476707012997,-0.009967992605191841,-0.011981416631498787, ,0.017595031387368842, ,0.010020968265830595, ,5.9357093471388176e-05, ,0.14497886424781672,-0.25164525070660565,0.09554953590000001,1.6074831067523636,0.14292177875465073,-1.3075008372559949, ,0.016310921546660497,-0.002067764798144181,0.017523445016501653,0.013627443616468145,0.003049224327843889,0.004983597010828833, ,0.8397300243377686
0.011203257842030563,0.022242609742785597,-0.08559402499197077, ,0.011515967103512041,0.02244659270733318,-0.0860845452557783, ,0.0006164464788184911, ,0.004557340168346134,0.004591289127155788,-0.018266046873798496,-0.006282727594520623,-0.017157198919207684,-0.011855989381981223, ,0.019377764413238283, ,0.01827129189138305, ,6.242951502617654e-05, ,0.14516420983679812,-0.25166841890522834,0.09572712763,1.6074831067523636,0.14305841525441615,-1.3076122551596914, ,0.021790342493334277,0.0025573286552120138,0.019260957097944377,0.01241832763284853,0.0015938141870784433,0.005492608463309278, ,0.8503460884094238
0.011250639785142276,0.022295203774215556,-0.08579655553365233, ,0.011596922596067129,0.02249119816332913,-0.08632543858379534, ,0.0006618480689966485, ,0.005019387470762376,0.005487865788197014,-0.02094347390767565,0.00253119684745147,-0.01148665779130231,-0.008611576472250596, ,0.022224761434319163, ,0.01176206764413371, ,6.570383843437346e-05, ,0.14539589182302484,-0.2516606961723541,0.09594101548,1.6074831067523636,0.14333168825394704,-1.307835090967084, ,0.023287593020483624,0.00040981047581867134,0.022123349333333337,0.01135453941454169,0.009271005434867988,-0.001341184604820301, ,0.8608670234680176
0.011302899256941794,0.02235448970480735,-0.08602623352778384, ,0.01168034741633252,0.02253156873214763,-0.08656592255904466, ,0.0006819738597735779, ,0.005704614404284217,0.006357573817089431,-0.02470534530639495,0.021811833755639144,0.007425399338632577,0.0058345485754510845, ,0.026140303308292333, ,0.02304090804606798, ,6.902050218681221e-05, ,0.14565074200787426,-0.25164525070660565,0.09618342171000001,1.607692796695848,0.14374159775324336,-1.3081693446781733, ,0.02737938302321719,0.0015838172328527713,0.026070067954173493,0.0028520187220385717,0.03522004296036542,-0.022964605553501615, ,0.8713209629058838
0.011302899256941794,0.02235448970480735,-0.08602623352778384, ,0.011766194101014264,0.022567803324011478,-0.08680599687412902, ,0.0009317594587582822, ,0.005704614404284217,0.006357573817089431,-0.02470534530639495,0.021811833755639144,0.007425399338632577,0.0058345485754510845, ,0.026140303308292333, ,0.02304090804606798, ,7.418660372316831e-05, ,0.14565074200787426,-0.25164525070660565,0.09618342171000001,1.607692796695848,0.14374159775324336,-1.3081693446781733, ,0.02737938302321719,0.0015838172328527713,0.026070067954173493,0.0028520187220385717,0.03522004296036542,-0.022964605553501615, ,0.8768541812896729
0.011365620026510691,0.02241987586347028,-0.08628162668626785, ,0.01185441563545506,0.022599999928142267,-0.08704566115280918, ,0.0009247240085886975, ,0.0068808337334113024,0.007139019556311567,-0.028100526172965396,0.013096510562178632,-0.007951354338456982,-0.0009097729289126197, ,0.029798507417146975, ,0.015320740947537024, ,0.00042948022033412273, ,0.145951928589969,-0.25162208250798296,0.09645305003000001,1.6079024866393328,0.14387823425300877,-1.3082807625818698, ,0.03384341710359157,0.0029323176233025674,0.029662591284916204,0.007012829339901001,0.02494612708534252,-0.014996986852385602, ,0.8823831081390381
0.011365620026510691,0.02241987586347028,-0.08628162668626785, ,0.011944965451883522,0.022628255616190144,-0.08728491495059461, ,0.0011771366040438213, ,0.0068808337334113024,0.007139019556311567,-0.028100526172965396,0.013096510562178632,-0.007951354338456982,-0.0009097729289126197, ,0.029798507417146975, ,0.015320740947537024, ,0.0004528444823250508, ,0.145951928589969,-0.25162208250798296,0.09645305003000001,1.6079024866393328,0.14387823425300877,-1.3082807625818698, ,0.03384341710359157,0.0029323176233025674,0.029662591284916204,0.007012829339901001,0.02494612708534252,-0.014996986852385602, ,0.8879129886627197
0.0114434240329672,0.022498248652130265,-0.0866080958835545, ,0.01203779742766388,0.02265266654566539,-0.08752375775533394, ,0.0011025249573582013, ,0.008295950141003431,0.007914044423962253,-0.03372774361759786,0.03499003323354824,0.01504919514136617,-0.004635679968119338, ,0.035623244903024716, ,0.0380885423046432, ,0.0004725317694472675, ,0.14634578796655445,-0.2515371324463665,0.09679656688,1.6081121765828172,0.14442478025207056,-1.3085630767163745, ,0.043391377027192854,0.010741716314243947,0.035476194922048995,0.017729716033129304,0.055819206815293,-0.04307737720070547, ,0.8931879997253418
0.0114434240329672,0.022498248652130265,-0.0866080958835545, ,0.01213286588354514,0.0226733279633687,-0.0877621889878063, ,0.0013556967669186226, ,0.008295950141003431,0.007914044423962253,-0.03372774361759786,0.03499003323354824,0.01504919514136617,-0.004635679968119338, ,0.035623244903024716, ,0.0380885423046432, ,0.0004985072105493662, ,0.14682459740475637,-0.25142129145325315,0.09717508356000001,1.608321866526302,0.14524459925066321,-1.309231584138553, ,0.052026831994775646,0.01272759409314254,0.04236386042553192,0.012299190816793329,0.09905828245888834,-0.07853647411375493, ,0.8985121250152588
0.011531448894321025,0.02258256489000697,-0.08696776570057442, ,0.012230125581909803,0.022690334208821113,-0.08800020800231093, ,0.001251279523636771, ,0.00966831186515555,0.009438645079368481,-0.0402678670817946,0.06776167392608505,0.046913349801477544,0.011011841345023284, ,0.04247429098376183, ,0.08241602373283906, ,0.0005200149909232921, ,0.14682459740475637,-0.25142129145325315,0.09717508356000001,1.608321866526302,0.14524459925066321,-1.309231584138553, ,0.052026831994775646,0.01272759409314254,0.04236386042553192,0.012299190816793329,0.09905828245888834,-0.07853647411375493, ,0.9038259983062744
0.0116489733801004,0.022689805204378098,-0.0874348271795819, ,0.012329531725023206,0.022703778717695463,-0.08823781408725682, ,0.0010526836627476651, ,0.00966831186515555,0.009438645079368481,-0.0402678670817946,0.06776167392608505,0.046913349801477544,0.011011841345023284, ,0.04247429098376183, ,0.08241602373283906, ,0.0005348113429184134, ,0.14741924783607166,-0.2512591140628944,0.09763137764,1.608321866526302,0.14620105474902126,-1.3099298307242873, ,0.06749426853376299,0.01856356446761948,0.049162998518518526,0.012299190816793329,0.08356032697293143,-0.06314404256852378, ,0.9093770980834961
0.0116489733801004,0.022689805204378098,-0.0874348271795819, ,0.012431039953282314,0.02271375402524616,-0.08847500646575425, ,0.0013016046320951282, ,0.0123597030989116,0.010697312972893364,-0.04715849342928384,0.04639040392429691,0.015387188167011259,0.006237005631481291, ,0.04991110365492918, ,0.04887332501256639, ,0.0005555354858691355, ,0.14741924783607166,-0.2512591140628944,0.09763137764,1.608321866526302,0.14620105474902126,-1.3099298307242873, ,0.06749426853376299,0.01856356446761948,0.049162998518518526,0.012299190816793329,0.08356032697293143,-0.06314404256852378, ,0.9150681495666504
0.011770593879936515,0.022789353457594745,-0.0878806776186431, ,0.012534606343463796,0.02272035176973924,-0.08871178429620401, ,0.0011310236897776563, ,0.0129846311451081,0.010538425975203448,-0.04712412872359904,0.03636800408518213,-6.616962095487943e-05,0.0033501488054024403, ,0.05000342564232661, ,0.036364869172999935, ,0.0005706799122877807, ,0.148152907459123,-0.2510583230081646,0.09813563445000001,1.608321866526302,0.1468842372478485,-1.3104869202427694, ,0.07379233402680464,0.020359781497204632,0.04962246579439253,0.012299190816793329,0.07298618113791809,-0.05471292771754506, ,0.9206290245056152
0.011770593879936515,0.022789353457594745,-0.0878806776186431, ,0.012640187406973268,0.022723662695883287,-0.08894814667288643, ,0.0013784042803929508, ,0.0129846311451081,0.010538425975203448,-0.04712412872359904,0.03636800408518213,-6.616962095487943e-05,0.0033501488054024403, ,0.05000342564232661, ,0.036364869172999935, ,0.0005913907935212467, ,0.148152907459123,-0.2510583230081646,0.09813563445000001,1.608321866526302,0.1468842372478485,-1.3104869202427694, ,0.07379233402680464,0.020359781497204632,0.04962246579439253,0.012299190816793329,0.07298618113791809,-0.05471292771754506, ,0.9259560108184814
0.011905457936948046,0.022885789118242496,-0.08834811079300332, ,0.012747740088093184,0.02272377665825876,-0.08918409262655261, ,0.0011977282184836783, ,0.014230205858083229,0.008775759175486307,-0.0467138800528084,0.05819456433801129,0.026140179043602513,0.007375028274427725, ,0.049615514685002804, ,0.06379415200711909, ,0.0006065492291453075, ,0.14897151714379078,-0.25076485915894403,0.09862692836,1.6087412464132707,0.14784069274620656,-1.3111851668285037, ,0.09195440073495231,0.03823406186884399,0.049011727753846164,0.016834421376760358,0.11766032617683529,-0.09350162890081005, ,0.931420087814331
0.011905457936948046,0.022885789118242496,-0.08834811079300332, ,0.012857221762231466,0.022720782624748873,-0.08941962112501331, ,0.0014426419907992904, ,0.014230205858083229,0.008775759175486307,-0.0467138800528084,0.05819456433801129,0.026140179043602513,0.007375028274427725, ,0.049615514685002804, ,0.06379415200711909, ,0.000626941735527112, ,0.14897151714379078,-0.25076485915894403,0.09862692836,1.6087412464132707,0.14784069274620656,-1.3111851668285037, ,0.09195440073495231,0.03823406186884399,0.049011727753846164,0.016834421376760358,0.11766032617683529,-0.09350162890081005, ,0.9367179870605469
0.01205570275081231,0.022974950118979952,-0.0888373525351652, ,0.012968590234169514,0.022714768679969084,-0.0896547310737286, ,0.0012526634080151173, ,0.014989732841110135,0.008442088455687674,-0.04711958275482028,0.08193143206625561,0.04988615679665327,0.009181395134743477, ,0.05016189816115283, ,0.09592265594137656, ,0.0006418398705863501, ,0.1499831951503142,-0.25033238611798747,0.09914025920000001,1.6091606263002398,0.14948033074339184,-1.3125221816728607, ,0.10193011982649922,0.0428622138927149,0.04946835875776398,0.02267198690479582,0.15099629067501846,-0.12089028131033332, ,0.942018985748291
0.01205570275081231,0.022974950118979952,-0.0888373525351652, ,0.01308180373631061,0.022705822028697295,-0.08988942131639757, ,0.0014940421285437515, ,0.014989732841110135,0.008442088455687674,-0.04711958275482028,0.08193143206625561,0.04988615679665327,0.009181395134743477, ,0.05016189816115283, ,0.09592265594137656, ,0.0006616585277481502, ,0.1499831951503142,-0.25033238611798747,0.09914025920000001,1.6091606263002398,0.14948033074339184,-1.3125221816728607, ,0.10193011982649922,0.0428622138927149,0.04946835875776398,0.02267198690479582,0.15099629067501846,-0.12089028131033332, ,0.9472920894622803
0.012208530274292393,0.02304550225302789,-0.08927068909826175, ,0.013196820926927729,0.022694028999303967,-0.09012369063554788, ,0.0013519850164784271, ,0.016749270999409906,0.006330975918833309,-0.043200253162889404,0.043546753092650825,-0.0015831706480747218,-0.019240172130991454, ,0.04676410170669653, ,0.043573795687425025, ,0.0006773477661283837, ,0.15106437775270565,-0.24986129941265978,0.09959525699,1.6093703162437245,0.1507100592412808,-1.3135249428061284, ,0.12308293327946923,0.054885449137345735,0.045381229401709404,0.041054472897639374,0.11498510178818462,-0.09171337460368936, ,0.952625036239624
0.012208530274292393,0.02304550225302789,-0.08927068909826175, ,0.013313600888411598,0.02267947504718161,-0.09035753775312536, ,0.0015926069748020907, ,0.016749270999409906,0.006330975918833309,-0.043200253162889404,0.043546753092650825,-0.0015831706480747218,-0.019240172130991454, ,0.04676410170669653, ,0.043573795687425025, ,0.0006976868596544661, ,0.15106437775270565,-0.24986129941265978,0.09959525699,1.6093703162437245,0.1507100592412808,-1.3135249428061284, ,0.12308293327946923,0.054885449137345735,0.045381229401709404,0.041054472897639374,0.11498510178818462,-0.09171337460368936, ,0.9579670429229736
0.01239601503732703,0.02310063326137976,-0.0897206392657961, ,0.013432103125518687,0.02266224475817505,-0.0905909613310834, ,0.001422365460618562, ,0.017852085774225385,0.00429582611038648,-0.04147716440466472,0.035266750080851055,-0.007664029479116525,-0.011864343528811293, ,0.04535974267467315, ,0.036088201013597505, ,0.0007134407422841203, ,0.15248536060156295,-0.24918169891972802,0.10006710655,1.6093703162437245,0.15193978773916977,-1.3145277039393963, ,0.13773141009937706,0.07124395011897205,0.0434027561852861,0.033393908718173874,0.1257686063471971,-0.10068300648356181, ,0.9632570743560791
0.01239601503732703,0.02310063326137976,-0.0897206392657961, ,0.013552287563619073,0.022642421852010795,-0.09082395997197236, ,0.0016626005026496775, ,0.017852085774225385,0.00429582611038648,-0.04147716440466472,0.035266750080851055,-0.007664029479116525,-0.011864343528811293, ,0.04535974267467315, ,0.036088201013597505, ,0.0007336356308025365, ,0.15248536060156295,-0.24918169891972802,0.10006710655,1.6093703162437245,0.15193978773916977,-1.3145277039393963, ,0.13773141009937706,0.07124395011897205,0.0434027561852861,0.033393908718173874,0.1257686063471971,-0.10068300648356181, ,0.9684979915618896
0.012574209862962524,0.02313388785852874,-0.0901111050799594, ,0.013674114546944281,0.02262008918572745,-0.091056532219529, ,0.001538704606561032, ,0.019165360838707658,0.0032067891075632233,-0.04056857807488956,0.03718394648702205,-0.012169583038397092,-0.0035105780918199105, ,0.04498226405458784, ,0.03912332731270458, ,0.0007504079011308385, ,0.15389089798467182,-0.24844031656380247,0.1004754379,1.6093703162437245,0.15316951623705874,-1.3156121438128048, ,0.15355492161564852,0.07994687578641177,0.042476830720000004,0.0265381506509253,0.13916878325734994,-0.1121820599748156, ,0.9738190174102783
0.012773907532771028,0.023153768513621376,-0.0905148700776471, ,0.013797544836835039,0.022595328757105026,-0.09128867655926648, ,0.001399451593634324, ,0.02004364484096928,0.0009615025699172718,-0.04004553286755349,0.024538227121829535,-0.014838614713314791,0.021997415000128678, ,0.04479192883041741, ,0.02867413630335885, ,0.0007636536907737667, ,0.15552039462113318,-0.24752131135176977,0.10089673215000002,1.609580006187209,0.1546725177344786,-1.3168377407534653, ,0.16389799923742793,0.10095419314730934,0.04158958621409923,0.0,0.1537839985953287,-0.12421590352563568, ,0.9803249835968018
0.012773907532771028,0.023153768513621376,-0.0905148700776471, ,0.013922539609988722,0.02256822170809439,-0.09152039141906293, ,0.0016350210635704338, ,0.02004364484096928,0.0009615025699172718,-0.04004553286755349,0.024538227121829535,-0.014838614713314791,0.021997415000128678, ,0.04479192883041741, ,0.02867413630335885, ,0.0007810810382297001, ,0.15552039462113318,-0.24752131135176977,0.10089673215000002,1.609580006187209,0.1546725177344786,-1.3168377407534653, ,0.16389799923742793,0.10095419314730934,0.04158958621409923,0.0,0.1537839985953287,-0.12421590352563568, ,0.9862079620361328
0.012977910342277276,0.023157109160497073,-0.09090822731136634, ,0.014049060456707521,0.022538848328247513,-0.09175167516975156, ,0.0014970014409319923, ,0.02115900394344187,-5.9480053752714776e-05,-0.03954897331731235,0.029772296420226062,-0.003290400261918484,-0.059973154251608235, ,0.04485340874681508, ,0.02995195506852062, ,0.000795118693184647, ,0.15721167312058834,-0.2464555742151268,0.10130506350000001,1.6104187659611469,0.15631215573166388,-1.3181747555978225, ,0.17541024317647097,0.11099057492218804,0.04105363793814434,0.08427170871264743,0.15640086769282402,-0.12645005222564645, ,0.9916219711303711
0.012977910342277276,0.023157109160497073,-0.09090822731136634, ,0.014177069379145908,0.02250728805814692,-0.09198252612570959, ,0.0017361934809411582, ,0.02115900394344187,-5.9480053752714776e-05,-0.03954897331731235,0.029772296420226062,-0.003290400261918484,-0.059973154251608235, ,0.04485340874681508, ,0.02995195506852062, ,0.0008132162852568876, ,0.15721167312058834,-0.2464555742151268,0.10130506350000001,1.6104187659611469,0.15631215573166388,-1.3181747555978225, ,0.17541024317647097,0.11099057492218804,0.04105363793814434,0.08427170871264743,0.15640086769282402,-0.12645005222564645, ,0.9968631267547607
0.01320212584048578,0.02314517869278718,-0.09131413597422312, ,0.014306528789557935,0.022473619492835092,-0.09221294254544857, ,0.0015743414132384375, ,0.02252079573068114,-0.0020851452922684287,-0.039656914295319985,0.04289688986470929,0.013602397059044972,-0.029995152010183795, ,0.04565309324305736, ,0.045000780911272166, ,0.0008275771367282376, ,0.15909601994189912,-0.24521221422237663,0.10172506146000002,1.6106284559046316,0.1580884302286146,-1.3196231883458758, ,0.19209907198071008,0.13125441432706886,0.04094810159383034,0.05957404273036182,0.19728110440230753,-0.16316372916688573, ,1.0021049976348877
0.01320212584048578,0.02314517869278718,-0.09131413597422312, ,0.01443740150854534,0.022437920385244142,-0.09244292263220283, ,0.0018166671706511424, ,0.02252079573068114,-0.0020851452922684287,-0.039656914295319985,0.04289688986470929,0.013602397059044972,-0.029995152010183795, ,0.04565309324305736, ,0.045000780911272166, ,0.0008458936188379209, ,0.15909601994189912,-0.24521221422237663,0.10172506146000002,1.6106284559046316,0.1580884302286146,-1.3196231883458758, ,0.19209907198071008,0.13125441432706886,0.04094810159383034,0.05957404273036182,0.19728110440230753,-0.16316372916688573, ,1.007349967956543
0.013435551142897023,0.02311847167197884,-0.09171482464042957, ,0.014569650763304721,0.022400267649625473,-0.09267246453451977, ,0.0016489612286183478, ,0.024276486351853033,-0.002815952155429614,-0.04146809176790152,0.029854727687266838,-0.007928846840866212,0.03160113280570381, ,0.048133979796028466, ,0.03088767966328592, ,0.000860494848106656, ,0.16109620775632327,-0.24383756777076468,0.10213857797,1.610838145848116,0.1601379777250962,-1.321294456901322, ,0.20674714936486008,0.14184894104405196,0.042819385806451615,-0.004798825925711404,0.20621253695567945,-0.1704467135364427, ,1.012627124786377
0.013435551142897023,0.02311847167197884,-0.09171482464042957, ,0.014703240185875127,0.0223607373649791,-0.09290156634684885, ,0.0018946114819260566, ,0.024276486351853033,-0.002815952155429614,-0.04146809176790152,0.029854727687266838,-0.007928846840866212,0.03160113280570381, ,0.048133979796028466, ,0.03088767966328592, ,0.0008789612165677168, ,0.16109620775632327,-0.24383756777076468,0.10213857797,1.610838145848116,0.1601379777250962,-1.321294456901322, ,0.20674714936486008,0.14184894104405196,0.042819385806451615,-0.004798825925711404,0.20621253695567945,-0.1704467135364427, ,1.0181481838226318
0.013684288547130434,0.023083905940634482,-0.09213472207253794, ,0.01483813381138591,0.02231940477848348,-0.09313022611013136, ,0.0017049484477953659, ,0.025835554981666207,-0.0042789092347205555,-0.042489306240462654,0.033180646691597274,0.0013152891063195223,0.029340627127654933, ,0.04991118221646822, ,0.03320462041270655, ,0.0008934522206243422, ,0.16321995929673502,-0.24234708032603933,0.10257153883000002,1.6106284559046316,0.16232416172134326,-1.323077143360465, ,0.22172182607119342,0.15869053772319527,0.04376047120879121,0.0,0.22980965085104463,-0.18968857766513927, ,1.0237810611724854
0.013684288547130434,0.023083905940634482,-0.09213472207253794, ,0.01497429607630376,0.02227634430892465,-0.09335844181239009, ,0.0019528863807291835, ,0.026393219336830684,-0.005872046028795193,-0.04237753803867178,0.004759430813539197,-0.01745628444597225,0.022061590302743624, ,0.04991118221646822, ,0.03320462041270655, ,0.0009117183268330465, ,0.16321995929673502,-0.24234708032603933,0.10257153883000002,1.6106284559046316,0.16232416172134326,-1.323077143360465, ,0.22172182607119342,0.15869053772319527,0.04376047120879121,0.0,0.22980965085104463,-0.18968857766513927, ,1.0296549797058105
0.013959970848005512,0.023028794921965516,-0.09258300445339494, ,0.015111691816680347,0.02223162955012558,-0.0935862113893183, ,0.0017228923286237998, ,0.026393219336830684,-0.005872046028795193,-0.04237753803867178,0.004759430813539197,-0.01745628444597225,0.022061590302743624, ,0.050268665008585775, ,0.01808970360792851, ,0.000925467038727805, ,0.16558311555624772,-0.24057857449784192,0.10303172178000002,1.6106284559046316,0.16478361871712116,-1.3250826656270005, ,0.22381354141148768,0.17316960138407075,0.0434027561852861,0.0,0.2124765007742005,-0.17555455601402328, ,1.0351901054382324
0.014222132918413162,0.022968311441247537,-0.09299954943549371, ,0.015250286266400199,0.02218533327437618,-0.09381353272487025, ,0.0015273254113509793, ,0.027720801420558126,-0.006775741965497681,-0.04399211613173913,-0.011278059483446986,-0.030043511925015413,0.007803935298949601, ,0.05243719855531421, ,0.03208804241413381, ,0.0009354980116048578, ,0.1677840944254017,-0.23884868233401563,0.10345820119000002,1.6110478357916007,0.16669652971383736,-1.3266425162787505, ,0.23202186200115102,0.18534558898138823,0.04499664271186441,0.01031416653710364,0.20541281735667008,-0.16975177655593, ,1.0404419898986816
0.014222132918413162,0.022968311441247537,-0.09299954943549371, ,0.015390045055427234,0.022137527435861875,-0.09404040365184976, ,0.0017713267126918148, ,0.027720801420558126,-0.006775741965497681,-0.04399211613173913,-0.011278059483446986,-0.030043511925015413,0.007803935298949601, ,0.05243719855531421, ,0.03208804241413381, ,0.0009492001214587423, ,0.1677840944254017,-0.23884868233401563,0.10345820119000002,1.6110478357916007,0.16669652971383736,-1.3266425162787505, ,0.23202186200115102,0.18534558898138823,0.04499664271186441,0.01031416653710364,0.20541281735667008,-0.16975177655593, ,1.0456781387329102
0.01450587671324427,0.022891865067566394,-0.0934452117891148, ,0.015530934208053545,0.022088283174094007,-0.09426682195250077, ,0.0015399772685856297, ,0.027847693242297872,-0.007947209207780893,-0.04338254065679825,-0.010790191658300325,-0.018230711596456315,-0.01945355141523492, ,0.052160300870950825, ,0.021180968258155675, ,0.0009587287851220793, ,0.17016269615066285,-0.23689483091683683,0.10391319898000001,1.6114672156785694,0.1688827137100844,-1.328425202737893, ,0.23259054303546764,0.1944609458165385,0.044246698666666674,0.037829227807941734,0.21147356235365541,-0.1745593824352914, ,1.0510470867156982
0.01450587671324427,0.022891865067566394,-0.0934452117891148, ,0.015672920141145446,0.022037670817338057,-0.09449278535909618, ,0.0017857907392116261, ,0.027847693242297872,-0.007947209207780893,-0.04338254065679825,-0.010790191658300325,-0.018230711596456315,-0.01945355141523492, ,0.052160300870950825, ,0.021180968258155675, ,0.0009718567526473101, ,0.17016269615066285,-0.23689483091683683,0.10391319898000001,1.6114672156785694,0.1688827137100844,-1.328425202737893, ,0.23259054303546764,0.1944609458165385,0.044246698666666674,0.037829227807941734,0.21147356235365541,-0.1745593824352914, ,1.0565910339355469
0.01477772150635444,0.02280544725533823,-0.09386053379530163, ,0.015815969662391856,0.021985759886043704,-0.09471829155452816, ,0.0015765769852466422, ,0.027730620411968356,-0.00938793843182359,-0.041679497182366486,-0.0060770309951341485,-0.0034335172761802645,-0.017947794390621278, ,0.050934282971366956, ,0.0069709085763732925, ,0.0009813055062816746, ,0.1724486250814333,-0.23494097949965803,0.10433578952000001,1.6114672156785694,0.17106889770633144,-1.3302078891970357, ,0.2337363092573172,0.20320544230935927,0.04236386042553192,0.037829227807941734,0.2278140175193667,-0.18776958386369014, ,1.0618960857391357
0.01477772150635444,0.02280544725533823,-0.09386053379530163, ,0.015960049968551517,0.021932619096274156,-0.09494333817289723, ,0.0018254300610860666, ,0.027730620411968356,-0.00938793843182359,-0.041679497182366486,-0.0060770309951341485,-0.0034335172761802645,-0.017947794390621278, ,0.050934282971366956, ,0.0069709085763732925, ,0.0009942920378940498, ,0.1724486250814333,-0.23494097949965803,0.10433578952000001,1.6114672156785694,0.17106889770633144,-1.3302078891970357, ,0.2337363092573172,0.20320544230935927,0.04236386042553192,0.037829227807941734,0.2278140175193667,-0.18776958386369014, ,1.067202091217041
0.015021179437196023,0.02271966319571919,-0.0942188514824097, ,0.016105128643700145,0.02187831636313504,-0.09516792280010222, ,0.0016683964579939955, ,0.028326183925918853,-0.010549206021262742,-0.04177283375062392,-0.02114820234914003,-0.016045065425401798,0.04141814092171755, ,0.05156188595310779, ,0.026543613021000546, ,0.0010045057412288974, ,0.17451059475885125,-0.23314930547283794,0.10470004701,1.6116769056220543,0.17311844520281303,-1.3319608364926228, ,0.23843452652882108,0.21277341156607796,0.04236386042553192,-0.025049164741842992,0.2345940071423407,-0.1925872837302002, ,1.0724291801452637
0.015021179437196023,0.02271966319571919,-0.0942188514824097, ,0.016251173657478357,0.021822918804204193,-0.09539204297443096, ,0.001921825840858796, ,0.028326183925918853,-0.010549206021262742,-0.04177283375062392,-0.02114820234914003,-0.016045065425401798,0.04141814092171755, ,0.05156188595310779, ,0.026543613021000546, ,0.001018197085999493, ,0.17451059475885125,-0.23314930547283794,0.10470004701,1.6116769056220543,0.17311844520281303,-1.3319608364926228, ,0.23843452652882108,0.21277341156607796,0.04236386042553192,-0.025049164741842992,0.2345940071423407,-0.1925872837302002, ,1.0777630805969238
0.015341951955700215,0.022597615412192153,-0.09469185356446465, ,0.016398153363338594,0.02176649274296044,-0.09561569618714773, ,0.0016308928524872781, ,0.02826425405821709,-0.011166986223870625,-0.04114854377136115,-0.029219590061850712,-0.016720453865643234,-0.007855853321090706, ,0.05115439661744807, ,0.0336636309783413, ,0.0010272073178596076, ,0.17719038306620716,-0.23072436735033144,0.10517967431000001,1.6114672156785694,0.17571453869835643,-1.3340777766628547, ,0.2348934196991851,0.21616615389173302,0.0416984594764398,0.02093715344088522,0.21918920484565696,-0.18002570039265306, ,1.083055019378662
0.015341951955700215,0.022597615412192153,-0.09469185356446465, ,0.016546036496792878,0.021709103712213244,-0.09583887988308541, ,0.001885455382316549, ,0.02826425405821709,-0.011166986223870625,-0.04114854377136115,-0.029219590061850712,-0.016720453865643234,-0.007855853321090706, ,0.05115439661744807, ,0.0336636309783413, ,0.0010396456956053605, ,0.17719038306620716,-0.23072436735033144,0.10517967431000001,1.6114672156785694,0.17571453869835643,-1.3340777766628547, ,0.2348934196991851,0.21616615389173302,0.0416984594764398,0.02093715344088522,0.21918920484565696,-0.18002570039265306, ,1.0883281230926514
0.015624413662095868,0.022478943443924194,-0.0950953237069639, ,0.016694792173660426,0.021650816457531835,-0.09606159146123386, ,0.001662882388069691, ,0.028510642150963297,-0.012447775255080312,-0.04060264291968252,-0.018846377064727006,0.0020423466068722473,-0.0007645745438753902, ,0.05115054678812847, ,0.018953805906374997, ,0.0010485490769262795, ,0.17955353932571985,-0.22852338848117745,0.10558800566000001,1.6114672156785694,0.17803735919436892,-1.336135238505975, ,0.23843452652882108,0.22594509894873996,0.04105363793814434,0.016386535364203602,0.2430499868439103,-0.20071879288313046, ,1.0937740802764893
0.015624413662095868,0.022478943443924194,-0.0950953237069639, ,0.01684438988831442,0.02159169494067421,-0.0962838282753299, ,0.0019204413576271073, ,0.028510642150963297,-0.012447775255080312,-0.04060264291968252,-0.018846377064727006,0.0020423466068722473,-0.0007645745438753902, ,0.05115054678812847, ,0.018953805906374997, ,0.0010608292498938967, ,0.17955353932571985,-0.22852338848117745,0.10558800566000001,1.6114672156785694,0.17803735919436892,-1.336135238505975, ,0.23843452652882108,0.22594509894873996,0.04105363793814434,0.016386535364203602,0.2430499868439103,-0.20071879288313046, ,1.099066972732544
0.015912278643520256,0.02235193728525333,-0.09550670563122175, ,0.01699479951192989,0.021531802343016635,-0.09650558763444773, ,0.001685893831292078, ,0.02827832327903081,-0.012474018772191323,-0.041093971842006555,-0.015397113197752573,0.009329235529040898,0.0017196248058209402, ,0.05141963859804914, ,0.017999681674121828, ,0.001069510702413316, ,0.18194758651672946,-0.226237459550407,0.10600411475000002,1.6114672156785694,0.18049681619014685,-1.3382224395126512, ,0.23316201857118127,0.2254084122528997,0.04158958621409923,0.013398174841583708,0.24568178359931697,-0.20406833335039093, ,1.1043109893798828
0.015912278643520256,0.02235193728525333,-0.09550670563122175, ,0.017145991290731417,0.021471201068982898,-0.09672686680358816, ,0.001945902480878654, ,0.02827832327903081,-0.012474018772191323,-0.041093971842006555,-0.015397113197752573,0.009329235529040898,0.0017196248058209402, ,0.05141963859804914, ,0.017999681674121828, ,0.0010815160692416084, ,0.18194758651672946,-0.226237459550407,0.10600411475000002,1.6114672156785694,0.18049681619014685,-1.3382224395126512, ,0.23316201857118127,0.2254084122528997,0.04158958621409923,0.013398174841583708,0.24568178359931697,-0.20406833335039093, ,1.109584093093872
0.016189250675547693,0.02223336147831328,-0.09590696447349477, ,0.017297935844240258,0.02140995274947334,-0.09694766300426857, ,0.0017292305138307698, ,0.029379927591476417,-0.012076565574482286,-0.04287022797063148,-0.08858690840885075,-0.07833331145736601,-0.018534883959801567, ,0.053356162039722106, ,0.1182522863281987, ,0.0010902689671414619, ,0.18417945631738034,-0.22407509434562414,0.10640985352000001,1.6118865955655386,0.182409727186863,-1.3398639689045417, ,0.23033238242347276,0.22381354141148768,0.04352134295081967,0.012269472740389236,0.15310749067747284,-0.12929326137259325, ,1.1154930591583252
0.016425086622516724,0.022135539519559363,-0.09625049793211585, ,0.01745060416352142,0.021348118245293812,-0.09716797341511267, ,0.001585395771400491, ,0.029325516349391026,-0.012143581614912712,-0.04271961280005341,-0.09966008548632353,-0.09126610899355991,-0.03326654895549994, ,0.05322046412220522, ,0.13513509171330412, ,0.0010968706578649155, ,0.18600974400857154,-0.22227569758592983,0.10675855553000001,1.6120962855090233,0.1835028191849865,-1.3408369908742537, ,0.22648434739491832,0.22276277361143376,0.0434027561852861,0.02270157236702789,0.1335374456616499,-0.11518637878143898, ,1.1207380294799805
0.016425086622516724,0.022135539519559363,-0.09625049793211585, ,0.017603967609432003,0.021285757650585525,-0.09738779517244096, ,0.0018453548761683041, ,0.029325516349391026,-0.012143581614912712,-0.04271961280005341,-0.09966008548632353,-0.09126610899355991,-0.03326654895549994, ,0.05322046412220522, ,0.13513509171330412, ,0.001106719134421539, ,0.18600974400857154,-0.22227569758592983,0.10675855553000001,1.6120962855090233,0.1835028191849865,-1.3408369908742537, ,0.22648434739491832,0.22276277361143376,0.0434027561852861,0.02270157236702789,0.1335374456616499,-0.11518637878143898, ,1.1260831356048584
0.016763781383842907,0.02198791730384226,-0.0967406530373732, ,0.017757997910867827,0.02122293029625356,-0.09760712537085961, ,0.0015246133703619394, ,0.028779976552698927,-0.013062750905331407,-0.04105717381902999,-0.04921135446579971,-0.045584282100188306,-0.02176261043596281, ,0.051813261175057086, ,0.0670788157072956, ,0.001112146332290895, ,0.1886509186515563,-0.2196499684086935,0.10725633089000002,1.6123059754525078,0.18541573018170268,-1.3428052352267064, ,0.22594509894873996,0.22594509894873996,0.0416984594764398,0.01998474484416999,0.18043200986179483,-0.16907915799351622, ,1.1316120624542236
0.016763781383842907,0.02198791730384226,-0.0967406530373732, ,0.01791266716301143,0.02115969475339633,-0.09782596106385123, ,0.0017843162945454685, ,0.028779976552698927,-0.013062750905331407,-0.04105717381902999,-0.04921135446579971,-0.045584282100188306,-0.02176261043596281, ,0.051813261175057086, ,0.0670788157072956, ,0.0011207638959095433, ,0.1886509186515563,-0.2196499684086935,0.10725633089000002,1.6123059754525078,0.18541573018170268,-1.3428052352267064, ,0.22594509894873996,0.22594509894873996,0.0416984594764398,0.01998474484416999,0.18043200986179483,-0.16907915799351622, ,1.1369280815124512
0.017068791773980962,0.021850215220710893,-0.09718684380252202, ,0.018067947825579377,0.02109610883673486,-0.09804429926436473, ,0.0015173065355566866, ,0.028585877918675777,-0.012965439813762943,-0.04255110391083371,0.014484943713036769,-0.017876718605309705,0.037081191555418, ,0.052875811955716695, ,0.02300545954558083, ,0.0011257834229936843, ,0.1910372431096917,-0.2172481984848097,0.10771003239000002,1.6125156653959922,0.18760191417794975,-1.345159672866833, ,0.2222410809331868,0.2254084122528997,0.043284813913043486,-0.033962378921153426,0.2169229551774452,-0.24207778686882828, ,1.1421840190887451
0.017068791773980962,0.021850215220710893,-0.09718684380252202, ,0.01822381272106959,0.021032229608041554,-0.09826213694540435, ,0.0017774783244465491, ,0.028585877918675777,-0.012965439813762943,-0.04255110391083371,0.014484943713036769,-0.017876718605309705,0.037081191555418, ,0.052875811955716695, ,0.02300545954558083, ,0.001133929609261845, ,0.1910372431096917,-0.2172481984848097,0.10771003239000002,1.6125156653959922,0.18760191417794975,-1.345159672866833, ,0.2222410809331868,0.2254084122528997,0.043284813913043486,-0.033962378921153426,0.2169229551774452,-0.24207778686882828, ,1.1474151611328125
0.017363415073341448,0.021721495279134872,-0.09762117281858768, ,0.018380235033008976,0.02096811337956958,-0.09847947104062084, ,0.0015291118189707934, ,0.02900146931231411,-0.012613050004303576,-0.04220219008186456,-0.030366159361837203,-0.034230373795834844,0.026300142473067174, ,0.0527370751975305, ,0.045756838364934896, ,0.0011388084019743013, ,0.1933077265747137,-0.2149854377526619,0.10815336357000001,1.6125156653959922,0.18965146167443137,-1.3471576563828416, ,0.22328692131404887,0.21966884620016383,0.04316751089430895,-0.026433320313277924,0.19941804901578236,-0.19017587034404393, ,1.1526830196380615
0.017363415073341448,0.021721495279134872,-0.09762117281858768, ,0.018537188304200942,0.020903815717482073,-0.09869629844490012, ,0.001789479973450603, ,0.02900146931231411,-0.012613050004303576,-0.04220219008186456,-0.030366159361837203,-0.034230373795834844,0.026300142473067174, ,0.0527370751975305, ,0.045756838364934896, ,0.0011467434211386465, ,0.1933077265747137,-0.2149854377526619,0.10815336357000001,1.6125156653959922,0.18965146167443137,-1.3471576563828416, ,0.22328692131404887,0.21966884620016383,0.04316751089430895,-0.026433320313277924,0.19941804901578236,-0.19017587034404393, ,1.158013105392456
0.017363415073341448,0.021721495279134872,-0.09762117281858768, ,0.01869464643497315,0.020839391445281415,-0.09891261601495442, ,0.0020538037007788064, ,0.029160614318063167,-0.012715572731855676,-0.041759846416441516,-0.040071323533931856,-0.03807172833091281,-0.005104954727119069, ,0.052496780758735345, ,0.05527242052390052, ,0.0011576718582427448, ,0.19537741898500588,-0.2129620817396151,0.10854873202000001,1.6123059754525078,0.19142773617138206,-1.3487694466111761, ,0.22276277361143376,0.21865654736974832,0.042819385806451615,0.0032484807792049876,0.18834977420414048,-0.1738632302357262, ,1.163465976715088
0.017632775562001685,0.021604068811139417,-0.09800711020384308, ,0.018852583681424114,0.020774894647237592,-0.09912842056991135, ,0.001852781309098119, ,0.029160614318063167,-0.012715572731855676,-0.041759846416441516,-0.040071323533931856,-0.03807172833091281,-0.005104954727119069, ,0.052496780758735345, ,0.05527242052390052, ,0.0011659469707529279, ,0.19537741898500588,-0.2129620817396151,0.10854873202000001,1.6123059754525078,0.19142773617138206,-1.3487694466111761, ,0.22276277361143376,0.21865654736974832,0.042819385806451615,0.0032484807792049876,0.18834977420414048,-0.1738632302357262, ,1.169098138809204
0.017938063375098547,0.02146819889584569,-0.09844985780214342, ,0.019010974653671013,0.020710378671817683,-0.09934370889190397, ,0.0015888360124002672, ,0.028496015753554503,-0.012762711658935859,-0.04106633210748878,-0.03484949001192003,-0.02328276365695926,-0.0040087468713763475, ,0.05158830638311872, ,0.04191010905694384, ,0.001170922135948779, ,0.19769423884727322,-0.21064526187734772,0.10900243352000001,1.6123059754525078,0.19347728366786368,-1.350522393906763, ,0.21616615389173302,0.21567486717834267,0.04213971301587302,0.0036432465836891002,0.19656546887756135,-0.1759921925112418, ,1.1744401454925537
0.017938063375098547,0.02146819889584569,-0.09844985780214342, ,0.01916979431409899,0.020645896135116214,-0.09955847772666182, ,0.0018499678574054768, ,0.028496015753554503,-0.012762711658935859,-0.04106633210748878,-0.03484949001192003,-0.02328276365695926,-0.0040087468713763475, ,0.05158830638311872, ,0.04191010905694384, ,0.0011788180164308336, ,0.19769423884727322,-0.21064526187734772,0.10900243352000001,1.6123059754525078,0.19347728366786368,-1.350522393906763, ,0.21616615389173302,0.21567486717834267,0.04213971301587302,0.0036432465836891002,0.19656546887756135,-0.1759921925112418, ,1.1797561645507812
0.01822976941829503,0.021336180490558007,-0.0988648878735726, ,0.019329017975605316,0.02058149892428194,-0.09977272378409884, ,0.0016130894884248171, ,0.02816149337884494,-0.012698874882074235,-0.04009112650423172,-0.025772466903113123,-0.010731698348881893,-0.001860730831745189, ,0.050612543474672506, ,0.027915691429328683, ,0.0011838096425457068, ,0.19991066318217565,-0.20844428300819373,0.10942891293000001,1.6123059754525078,0.1955268311643453,-1.3523570199424904, ,0.21373185035691616,0.21135176293646052,0.04126635108808291,0.003672637351092451,0.2068230240351974,-0.1807368418130003, ,1.185081958770752
0.01850214388504762,0.021212529374458684,-0.09925736691092338, ,0.019488621299850045,0.020517238200948973,-0.09998644373890578, ,0.00141000727905095, ,0.028229778822470825,-0.01234452265450246,-0.04067715059472417,0.013215228307846704,0.0057821498272864385,0.0014545406949134575, ,0.05102879806970781, ,0.014420962168138738, ,0.0011863800702332664, ,0.19991066318217565,-0.20844428300819373,0.10942891293000001,1.6123059754525078,0.1955268311643453,-1.3523570199424904, ,0.21373185035691616,0.21135176293646052,0.04126635108808291,0.003672637351092451,0.2068230240351974,-0.1807368418130003, ,1.190885066986084
0.01850214388504762,0.021212529374458684,-0.09925736691092338, ,0.019648580295501775,0.020453164404664877,-0.10019963423113817, ,0.001666979095042804, ,0.028229778822470825,-0.01234452265450246,-0.04067715059472417,0.013215228307846704,0.0057821498272864385,0.0014545406949134575, ,0.05102879806970781, ,0.014420962168138738, ,0.0011917800592760703, ,0.20198807832534205,-0.20639003606365003,0.10983335541000001,1.6123059754525078,0.19784965166035778,-1.3544961605257513, ,0.21277341156607796,0.20765195089380914,0.04202852643799473,0.003523255946427844,0.22264809827844217,-0.21604800634694474, ,1.1968860626220703
0.01879649313271285,0.021085861335833886,-0.0996712907945653, ,0.019808871316485455,0.020389327256319898,-0.10041229186680717, ,0.0014349745293790828, ,0.028439578832014575,-0.012699730997805291,-0.03878973920560525,-0.06039798743438996,-0.021022911718346735,-0.010250149245227387, ,0.04974672531129921, ,0.06395148071068528, ,0.0011944822200549926, ,0.20420450266024448,-0.20426628452323828,0.11026242740000002,1.612725355339477,0.20003583565660482,-1.3565238832053157, ,0.21421431503040805,0.20585019860839648,0.04022427151515152,0.009339010814212918,0.19551904050478172,-0.13933125481092823, ,1.2022521495819092
0.01879649313271285,0.021085861335833886,-0.0996712907945653, ,0.019969471060230167,0.020325775761576216,-0.10062441321846986, ,0.0016917593367814312, ,0.028439578832014575,-0.012699730997805291,-0.03878973920560525,-0.06039798743438996,-0.021022911718346735,-0.010250149245227387, ,0.04974672531129921, ,0.06395148071068528, ,0.0011999468037552834, ,0.20420450266024448,-0.20426628452323828,0.11026242740000002,1.612725355339477,0.20003583565660482,-1.3565238832053157, ,0.21421431503040805,0.20585019860839648,0.04022427151515152,0.009339010814212918,0.19551904050478172,-0.13933125481092823, ,1.2075541019439697
0.019079145848871916,0.02096318653790607,-0.10005536432209938, ,0.02013035656591679,0.020262558214297028,-0.10083599482581833, ,0.0014850279468110056, ,0.028441252597790196,-0.012190036060153382,-0.03852392200910716,-0.056454082332960516,-0.04006808225152855,-0.01430045325843282, ,0.04941249230147088, ,0.06922737736798361, ,0.001203045511831976, ,0.2063128087349078,-0.20226609670881412,0.11066168472000001,1.612725355339477,0.20181211015355555,-1.3581356734336505, ,0.21041450456423677,0.19852916644031546,0.04012295093198993,0.009339010814212918,0.17260018702609753,-0.13623040051596697, ,1.2128629684448242
0.019079145848871916,0.02096318653790607,-0.10005536432209938, ,0.020291505212725814,0.020199722199975997,-0.10104703319627101, ,0.0017424408679826264, ,0.028441252597790196,-0.012190036060153382,-0.03852392200910716,-0.056454082332960516,-0.04006808225152855,-0.01430045325843282, ,0.04941249230147088, ,0.06922737736798361, ,0.001208845461898112, ,0.2063128087349078,-0.20226609670881412,0.11066168472000001,1.612725355339477,0.20181211015355555,-1.3581356734336505, ,0.21041450456423677,0.19852916644031546,0.04012295093198993,0.009339010814212918,0.17260018702609753,-0.13623040051596697, ,1.2181141376495361
0.019364893965302037,0.02084436720966243,-0.10044524429326424, ,0.02045289471808251,0.02013731459916469,-0.10125752480556072, ,0.0015308392021107819, ,0.029054159870707398,-0.01190968967107105,-0.03962640582944263,-0.021053478832244402,-0.01736311717189581,-0.008172636514422977, ,0.05055924201185699, ,0.027287892963255154, ,0.0012122709272195233, ,0.20842111480957107,-0.2003045225587611,0.11106871978,1.612725355339477,0.20358838465050627,-1.3595841061817038, ,0.2151858085226095,0.19729093879099954,0.04148128,0.008502545187458427,0.2003089130419628,-0.17026865323788637, ,1.2234270572662354
0.019364893965302037,0.02084436720966243,-0.10044524429326424, ,0.020614503135909595,0.020075381590905026,-0.10146746609832735, ,0.0017882391841889363, ,0.029054159870707398,-0.01190968967107105,-0.03962640582944263,-0.021053478832244402,-0.01736311717189581,-0.008172636514422977, ,0.05055924201185699, ,0.027287892963255154, ,0.001218333750977096, ,0.20842111480957107,-0.2003045225587611,0.11106871978,1.612725355339477,0.20358838465050627,-1.3595841061817038, ,0.2151858085226095,0.19729093879099954,0.04148128,0.008502545187458427,0.2003089130419628,-0.17026865323788637, ,1.2288620471954346
0.019617194631605328,0.02074059755917544,-0.10079139309189583, ,0.020776308854868312,0.02001396865615422,-0.10167685348870531, ,0.0016295936486113254, ,0.028995213285333825,-0.01168521150685679,-0.03944616230795077,0.01589668559782713,0.018475743447549483,0.0003283138801216997, ,0.05033156347906524, ,0.024371339816400675, ,0.0012226177082441194, ,0.20842111480957107,-0.2003045225587611,0.11106871978,1.612725355339477,0.20358838465050627,-1.3595841061817038, ,0.2151858085226095,0.19729093879099954,0.04148128,0.008502545187458427,0.2003089130419628,-0.17026865323788637, ,1.2342441082000732
0.019617194631605328,0.02074059755917544,-0.10079139309189583, ,0.020938290596611273,0.019953120581217176,-0.10188568336091454, ,0.0018875607890709919, ,0.028995213285333825,-0.01168521150685679,-0.03944616230795077,0.01589668559782713,0.018475743447549483,0.0003283138801216997, ,0.05033156347906524, ,0.024371339816400675, ,0.0012294727915516128, ,0.21030546163088185,-0.19859007586068328,0.11143168098000002,1.612725355339477,0.20563793214698786,-1.3613370534772908, ,0.21665968392344928,0.19366722767034852,0.04148128,0.0077246958486614685,0.23849279959058697,-0.2037533980690295, ,1.2395551204681396
0.01994702706489581,0.02060871929478932,-0.10124527012891597, ,0.021100427414027297,0.01989288146117385,-0.10209395206985135, ,0.001600942599308844, ,0.028810531245116427,-0.011337039081021546,-0.039404319644413426,0.01825249273973698,0.031473375194806946,0.003152209396699064, ,0.05011262887126902, ,0.03638175144681909, ,0.0012332632997940336, ,0.21278445888350792,-0.1963968197244035,0.11191001199000002,1.612725355339477,0.208780571641593,-1.3640630227425898, ,0.21373185035691616,0.18866191164705923,0.04158958621409923,0.006889502782156971,0.24881287924092058,-0.20128290501614715, ,1.2448689937591553
0.01994702706489581,0.02060871929478932,-0.10124527012891597, ,0.02126269868948997,0.01983329470330907,-0.10230165594167687, ,0.0018569399845544386, ,0.028810531245116427,-0.011337039081021546,-0.039404319644413426,0.01825249273973698,0.031473375194806946,0.003152209396699064, ,0.05011262887126902, ,0.03638175144681909, ,0.001239563064286563, ,0.21278445888350792,-0.1963968197244035,0.11191001199000002,1.612725355339477,0.208780571641593,-1.3640630227425898, ,0.21373185035691616,0.18866191164705923,0.04158958621409923,0.006889502782156971,0.24881287924092058,-0.20128290501614715, ,1.2501311302185059
0.020240548332561593,0.020499449687237676,-0.10164228419987388, ,0.02142508413310514,0.01977440303054154,-0.10250879127440878, ,0.0016369643329573805, ,0.03034593115515586,-0.010575352954792328,-0.04151175582796226,-0.04970711047809234,-0.04820290159434563,-0.011908172345372486, ,0.052497042771114756, ,0.06924011326340457, ,0.0012435370769732711, ,0.21490821042391967,-0.19455108656746384,0.11233000995000002,1.612725355339477,0.21069348263830917,-1.36570455213448, ,0.2151858085226095,0.1842659059387782,0.04400224176795581,0.006310112726041167,0.16907068469873715,-0.12904023905352488, ,1.2553479671478271
0.020240548332561593,0.020499449687237676,-0.10164228419987388, ,0.021587563780957685,0.01971624848485235,-0.10271535433850974, ,0.0018919128584761848, ,0.03034593115515586,-0.010575352954792328,-0.04151175582796226,-0.04970711047809234,-0.04820290159434563,-0.011908172345372486, ,0.052497042771114756, ,0.06924011326340457, ,0.0012499566391663693, ,0.2171014665601994,-0.19269763067764997,0.11277204484000002,1.612725355339477,0.2124697571352599,-1.367071306142393, ,0.21715547267384616,0.181447306995164,0.0434027561852861,0.005808138373510131,0.20083345911075193,-0.16305033026620705, ,1.2606010437011719
0.020548862354921513,0.02039201305729476,-0.10205826833860063, ,0.021750117993359824,0.01965887243071471,-0.10292134137747838, ,0.0016508801766511407, ,0.0303079975501069,-0.010563902791323637,-0.04074921333623695,-0.012966477366643277,-0.019072817205884312,-0.005213724118132646, ,0.05187166032819822, ,0.023060562341383, ,0.0012538872620828866, ,0.2171014665601994,-0.19269763067764997,0.11277204484000002,1.612725355339477,0.2124697571352599,-1.367071306142393, ,0.21715547267384616,0.181447306995164,0.0434027561852861,0.005808138373510131,0.20083345911075193,-0.16305033026620705, ,1.266139030456543
0.020730683513051382,0.020328030697763816,-0.10230098193386605, ,0.021912727453099683,0.019602315558523337,-0.10312674860843918, ,0.001614243147844616, ,0.02996427609329279,-0.010364726541244516,-0.03958367223152758,0.02991041102445548,0.014014315224348838,0.0023844636659390355, ,0.050716392866634985, ,0.033029328453253036, ,0.0012573858629155246, ,0.21842977661456603,-0.19160872534238432,0.11303130284000001,1.612725355339477,0.21397275863267975,-1.368215224342913, ,0.21815388864016272,0.17671683716661224,0.04236386042553192,0.005543552541882362,0.2355814941935923,-0.20132232265434746, ,1.2715680599212646
0.020730683513051382,0.020328030697763816,-0.10230098193386605, ,0.02207537316368579,0.019546617888022057,-0.10333157222273194, ,0.0018657203914993444, ,0.02996427609329279,-0.010364726541244516,-0.03958367223152758,0.02991041102445548,0.014014315224348838,0.0023844636659390355, ,0.050716392866634985, ,0.033029328453253036, ,0.0012632352333826768, ,0.21842977661456603,-0.19160872534238432,0.11303130284000001,1.612725355339477,0.21397275863267975,-1.368215224342913, ,0.21815388864016272,0.17671683716661224,0.04236386042553192,0.005543552541882362,0.2355814941935923,-0.20132232265434746, ,1.2768580913543701
0.02113644819848066,0.020181505242555634,-0.10281953388796278, ,0.02223803644759945,0.01949181877173528,-0.10353580838650303, ,0.0014839855982752407, ,0.029564670312814588,-0.011028362202130288,-0.03669155392944608,-0.01750579892273446,-0.01646367253834164,0.00047231111659758315, ,0.04839384912697321, ,0.024029960632786184, ,0.001265337617810225, ,0.22138758330539401,-0.18919923268562627,0.11358741125,1.6129350452829614,0.21697876162751942,-1.3709114544446557, ,0.2151858085226095,0.17573507696013105,0.03942775128712872,0.0,0.20249946526285573,-0.15397338993451973, ,1.282121181488037
0.02113644819848066,0.020181505242555634,-0.10281953388796278, ,0.02240069894453608,0.01943795689839419,-0.10373945324129381, ,0.0017313132892806842, ,0.029564670312814588,-0.011028362202130288,-0.03669155392944608,-0.01750579892273446,-0.01646367253834164,0.00047231111659758315, ,0.04839384912697321, ,0.024029960632786184, ,0.0012697336147108897, ,0.22138758330539401,-0.18919923268562627,0.11358741125,1.6129350452829614,0.21697876162751942,-1.3709114544446557, ,0.2151858085226095,0.17573507696013105,0.03942775128712872,0.0,0.20249946526285573,-0.15397338993451973, ,1.287398099899292
0.02144243119986053,0.020071295094437537,-0.10320356934824068, ,0.02256334260965951,0.01938507029636878,-0.10394250290463211, ,0.0015077697645407711, ,0.03049483801822234,-0.010409286387652057,-0.03827053988670166,0.007060977836458797,0.0015675438076277275,0.005176804299733381, ,0.05002921758410179, ,0.007227205920460346, ,0.0012719582516251878, ,0.22360400764029645,-0.1874152813916804,0.11400092776000001,1.6129350452829614,0.21916494562376648,-1.3726941409037985, ,0.22069056176388552,0.17191474920012823,0.04137353641558442,0.0,0.22640093165017966,-0.1747416688544306, ,1.2925920486450195
0.02144243119986053,0.020071295094437537,-0.10320356934824068, ,0.022725949711844457,0.019333196337094745,-0.1041449534706212, ,0.0017545408550576809, ,0.03049483801822234,-0.010409286387652057,-0.03827053988670166,0.007060977836458797,0.0015675438076277275,0.005176804299733381, ,0.05002921758410179, ,0.007227205920460346, ,0.0012764266090643777, ,0.22360400764029645,-0.1874152813916804,0.11400092776000001,1.6129350452829614,0.21916494562376648,-1.3726941409037985, ,0.22069056176388552,0.17191474920012823,0.04137353641558442,0.0,0.22640093165017966,-0.1747416688544306, ,1.2978370189666748
0.021757357595839737,0.019968889266821773,-0.10360304792572146, ,0.022888502831926155,0.019282371738503563,-0.10434680101053094, ,0.001517881587269823, ,0.03060922368900821,-0.009779760675507137,-0.039136558954311444,0.0344701663067552,0.02762941261851481,0.010525313786632974, ,0.05063831099570988, ,0.044175615354562665, ,0.001278641792350666, ,0.22587449110531846,-0.1856853892278541,0.11443388862000001,1.6129350452829614,0.22162440261954441,-1.374699663170334, ,0.22017851869714797,0.16648586238328208,0.042476830720000004,0.0,0.2523278192241858,-0.19679151310332338, ,1.303218126296997
0.021757357595839737,0.019968889266821773,-0.10360304792572146, ,0.023050984860949374,0.01923263256845196,-0.10454804157338682, ,0.001763110439268436, ,0.03060922368900821,-0.009779760675507137,-0.039136558954311444,0.0344701663067552,0.02762941261851481,0.010525313786632974, ,0.05063831099570988, ,0.044175615354562665, ,0.0012830460527771912, ,0.22587449110531846,-0.1856853892278541,0.11443388862000001,1.6129350452829614,0.22162440261954441,-1.374699663170334, ,0.22017851869714797,0.16648586238328208,0.042476830720000004,0.0,0.2523278192241858,-0.19679151310332338, ,1.3085811138153076
0.022072088182156346,0.01987200010481192,-0.10400333140702606, ,0.02321337899841209,0.019184014248149656,-0.10474867118655991, ,0.0015268924825254005, ,0.031056694448973236,-0.009247020677500847,-0.039052433948633426,0.008547374917448754,-0.01116997308556122,0.0034965712615695876, ,0.05074562305085425, ,0.014061830761508215, ,0.0012852428674596076, ,0.22812180637171778,-0.1840172789270216,0.11486944206000001,1.6129350452829614,0.22408385961532232,-1.3767051854368697, ,0.2191615278486623,0.1602988877676871,0.04259040513368984,0.0,0.21170441576243723,-0.16475901671000712, ,1.3138210773468018
0.022072088182156346,0.01987200010481192,-0.10400333140702606, ,0.023375668750517657,0.019136551555590155,-0.10494868585635776, ,0.0017702830004360467, ,0.031056694448973236,-0.009247020677500847,-0.039052433948633426,0.008547374917448754,-0.01116997308556122,0.0034965712615695876, ,0.05074562305085425, ,0.014061830761508215, ,0.0012895735829326117, ,0.22812180637171778,-0.1840172789270216,0.11486944206000001,1.6129350452829614,0.22408385961532232,-1.3767051854368697, ,0.2191615278486623,0.1602988877676871,0.04259040513368984,0.0,0.21170441576243723,-0.16475901671000712, ,1.31911301612854
0.022382610689078073,0.019778465806937078,-0.10439870608741286, ,0.023537837928418667,0.019090278628978496,-0.10514808156861408, ,0.0015393879232495748, ,0.03174910632042346,-0.009506814123643959,-0.04024858978222119,-0.00786835293669568,-0.028263858333866708,-0.0010364974168565755, ,0.05213764711208772, ,0.029336854707134517, ,0.001291784329307098, ,0.23027644884362644,-0.18240322775630868,0.11529981034000002,1.6129350452829614,0.22599677061203852,-1.3781833573484792, ,0.21966884620016383,0.16361541648012204,0.043881023471074386,0.0,0.19476489757386523,-0.1514967890442907, ,1.3244001865386963
0.022382610689078073,0.019778465806937078,-0.10439870608741286, ,0.02369987064646795,0.01904522897016147,-0.1053468542892786, ,0.0017809534151259324, ,0.03174910632042346,-0.009506814123643959,-0.04024858978222119,-0.00786835293669568,-0.028263858333866708,-0.0010364974168565755, ,0.05213764711208772, ,0.029336854707134517, ,0.0012960752862002456, ,0.23027644884362644,-0.18240322775630868,0.11529981034000002,1.6129350452829614,0.22599677061203852,-1.3781833573484792, ,0.21966884620016383,0.16361541648012204,0.043881023471074386,0.0,0.19476489757386523,-0.1514967890442907, ,1.3297431468963623
0.02268888066238316,0.019687193227286685,-0.10479082087904928, ,0.023861751320461474,0.019001435448055243,-0.10554499996500699, ,0.0015539225868921197, ,0.031383767159520036,-0.009433769927012482,-0.0392279007736051,0.00894046394678817,-0.014885371576650718,0.0013039147085515015, ,0.051115213540222845, ,0.017361258341338393, ,0.0012983174366410447, ,0.23239247765116394,-0.1808277902499669,0.11572758604000001,1.6129350452829614,0.2280463181085201,-1.3797729471637852, ,0.21765353568456597,0.16002856923856792,0.04293480194070081,0.0,0.20626342910590414,-0.1647475386554702, ,1.3350300788879395
0.02268888066238316,0.019687193227286685,-0.10479082087904928, ,0.024023464665892138,0.0189589303020765,-0.10574251452375145, ,0.0017936560829836482, ,0.031383767159520036,-0.009433769927012482,-0.0392279007736051,0.00894046394678817,-0.014885371576650718,0.0013039147085515015, ,0.051115213540222845, ,0.017361258341338393, ,0.0013025875973853775, ,0.23239247765116394,-0.1808277902499669,0.11572758604000001,1.6129350452829614,0.2280463181085201,-1.3797729471637852, ,0.21765353568456597,0.16002856923856792,0.04293480194070081,0.0,0.20626342910590414,-0.1647475386554702, ,1.3404459953308105
0.02268888066238316,0.019687193227286685,-0.10479082087904928, ,0.02418499569619212,0.018917745145569827,-0.10593939387534995, ,0.0020370641798132002, ,0.031383767159520036,-0.009433769927012482,-0.0392279007736051,0.00894046394678817,-0.014885371576650718,0.0013039147085515015, ,0.051115213540222845, ,0.017361258341338393, ,0.0013088651750129657, ,0.23239247765116394,-0.1808277902499669,0.11572758604000001,1.6129350452829614,0.2280463181085201,-1.3797729471637852, ,0.21765353568456597,0.16002856923856792,0.04293480194070081,0.0,0.20626342910590414,-0.1647475386554702, ,1.345829963684082
0.023112838569176918,0.019559634396283394,-0.10530957803882225, ,0.02434632972098338,0.01887791096923795,-0.10613563391211753, ,0.001633589776649278, ,0.03173637100916048,-0.009420656296900795,-0.03758216943164063,-0.012546463359910397,-0.04355324315157006,-0.005407168482693953, ,0.05008358482660723, ,0.04532354529504364, ,0.0013116170784166633, ,0.23535800707486615,-0.1786885932438067,0.11629795364,1.613144735226446,0.2310523211033598,-1.3821424623049658, ,0.21966884620016383,0.1558242061715448,0.04148128,0.001859658696005955,0.17876877659666435,-0.138598377680509, ,1.3511261940002441
0.02342824544583587,0.019467809197732767,-0.10567989615070501, ,0.02450745234432306,0.018839458144569655,-0.10633123050943483, ,0.0014084562551302435, ,0.03160553475203845,-0.008997022182598152,-0.03683192727723429,-0.022797961629131693,-0.06103920213064108,-0.008271028222638784, ,0.04936037988176295, ,0.06515722114980424, ,0.001312430853010895, ,0.23752809501252325,-0.17716721486758447,0.11670758128000001,1.613144735226446,0.2326919591005451,-1.3833161196690416, ,0.21665968392344928,0.1496797185464839,0.040843106461538464,0.001859658696005955,0.1578925230973579,-0.1222936786007047, ,1.356410026550293
0.02342824544583587,0.019467809197732767,-0.10567989615070501, ,0.024668349462953272,0.018802416427270312,-0.10652617952633872, ,0.0016421939788369723, ,0.03160553475203845,-0.008997022182598152,-0.03683192727723429,-0.022797961629131693,-0.06103920213064108,-0.008271028222638784, ,0.04936037988176295, ,0.06515722114980424, ,0.0013151788790594459, ,0.23752809501252325,-0.17716721486758447,0.11670758128000001,1.613144735226446,0.2326919591005451,-1.3833161196690416, ,0.21665968392344928,0.1496797185464839,0.040843106461538464,0.001859658696005955,0.1578925230973579,-0.1222936786007047, ,1.3616671562194824
0.023736156901271132,0.019380230625355627,-0.10603792029521554, ,0.024829007264550822,0.018766814960690673,-0.10672047680611321, ,0.0014270543383998041, ,0.031105976352631008,-0.008856721482233747,-0.036198534031343016,0.02036789005401299,-0.008897679684143947,0.0015023533611609244, ,0.04854232324768355, ,0.02222515460107751, ,0.0013161034696325064, ,0.23965184655293498,-0.17571534108723028,0.11710554231,1.613144735226446,0.2344682335974958,-1.3846011949368138, ,0.21616615389173302,0.1464458974667759,0.04032610511392406,0.001859658696005955,0.21035691778772925,-0.162263882687021, ,1.3685641288757324
0.023736156901271132,0.019380230625355627,-0.10603792029521554, ,0.024989412225964947,0.018732682279254433,-0.10691411817687793, ,0.001660629548466922, ,0.031105976352631008,-0.008856721482233747,-0.036198534031343016,0.02036789005401299,-0.008897679684143947,0.0015023533611609244, ,0.04854232324768355, ,0.02222515460107751, ,0.0013189274538852476, ,0.23965184655293498,-0.17571534108723028,0.11710554231,1.613144735226446,0.2344682335974958,-1.3846011949368138, ,0.21616615389173302,0.1464458974667759,0.04032610511392406,0.001859658696005955,0.21035691778772925,-0.162263882687021, ,1.3739721775054932
0.023797293531251186,0.019362987440449918,-0.10610883656310362, ,0.02514955111147892,0.018700046311890213,-0.10710709945217994, ,0.0018068260289597314, ,0.03145461848821072,-0.008740660105616213,-0.03706055856487779,0.02108209263178941,-0.00876496803479766,0.001538244620735553, ,0.0493890389100814, ,0.02283001053627026, ,0.0013228941089671541, ,0.24007659686101734,-0.17542959997088398,0.117184616,1.613144735226446,0.2348781430967921,-1.3849354486479033, ,0.21715547267384616,0.14667224352159317,0.04126635108808291,0.001859658696005955,0.21148624626750628,-0.16318477433762263, ,1.3795311450958252
0.023797293531251186,0.019362987440449918,-0.10610883656310362, ,0.025309410971046636,0.018668934385458177,-0.1072994164315821, ,0.002045895700690324, ,0.03145461848821072,-0.008740660105616213,-0.03706055856487779,0.02108209263178941,-0.00876496803479766,0.001538244620735553, ,0.0493890389100814, ,0.02283001053627026, ,0.0013287247669649216, ,0.24007659686101734,-0.17542959997088398,0.117184616,1.613144735226446,0.2348781430967921,-1.3849354486479033, ,0.21715547267384616,0.14667224352159317,0.04126635108808291,0.001859658696005955,0.21148624626750628,-0.16318477433762263, ,1.3849880695343018
0.024348561995145748,0.019205818909823577,-0.10673104908161324, ,0.02546897913854513,0.0186393732281802,-0.1074910649012536, ,0.0014675896332351438, ,0.029342172600675905,-0.008716759371155701,-0.030132593623390273,-0.056197705222795616,-0.08157909150367865,-0.011903093273431512, ,0.04295251081525813, ,0.09906212899540223, ,0.0013298356858950835, ,0.24391479509950692,-0.1728810981223899,0.11788202002,1.613144735226446,0.23856732859045904,-1.3873719808667229, ,0.20364150549028065,0.13328222128998704,0.03410880411134904,0.001812630254301081,0.12369454923064502,-0.07276072509699548, ,1.3910720348358154
0.024648150008699573,0.019116372844872102,-0.10704003970491666, ,0.025628243230022742,0.018611388973069395,-0.10768204063456088, ,0.0012758356582759907, ,0.029834067728971746,-0.008532300089729161,-0.032265913759197455,-0.041953306278473004,-0.0398958418894843,-0.006503577873642721, ,0.044765622220561546, ,0.05789406822651632, ,0.001329407114247313, ,0.24599221024267331,-0.17151417440365213,0.11823201832,1.6133544251699303,0.23993369358811342,-1.3879960874628434, ,0.2054046354079454,0.13441493138593594,0.03645036961098399,0.003580490079107624,0.16751928839221658,-0.0876000854646439, ,1.3963539600372314
0.024648150008699573,0.019116372844872102,-0.10704003970491666, ,0.025787191141942712,0.018585007161358157,-0.10787233939265656, ,0.001507477019077901, ,0.029834067728971746,-0.008532300089729161,-0.032265913759197455,-0.041953306278473004,-0.0398958418894843,-0.006503577873642721, ,0.044765622220561546, ,0.05789406822651632, ,0.0013308092394821996, ,0.24599221024267331,-0.17151417440365213,0.11823201832,1.6133544251699303,0.23993369358811342,-1.3879960874628434, ,0.2054046354079454,0.13441493138593594,0.03645036961098399,0.003580490079107624,0.16751928839221658,-0.0876000854646439, ,1.4016079902648926
0.024948517093346202,0.019037187374494925,-0.10737731565348985, ,0.025945811049433932,0.01856025274592821,-0.1080619569250704, ,0.0013003059430482565, ,0.029761776333121277,-0.007173571377514907,-0.03356943440093208,0.02638578167230176,0.021635267089158805,0.006808298008879021, ,0.045432701689526685, ,0.034121131663643105, ,0.0013305709324788093, ,0.24805417992009124,-0.17020130981503398,0.11861312758,1.6135641151134148,0.24198324108459504,-1.389258962317587, ,0.2054046354079454,0.12372482602147429,0.038107204593301434,0.0034697580780706856,0.23003004646084838,-0.14550815568254202, ,1.4068610668182373
0.024948517093346202,0.019037187374494925,-0.10737731565348985, ,0.026104091404543592,0.018537150094740308,-0.10825088897029789, ,0.0015324880455268555, ,0.029761776333121277,-0.007173571377514907,-0.03356943440093208,0.02638578167230176,0.021635267089158805,0.006808298008879021, ,0.045432701689526685, ,0.034121131663643105, ,0.0013321361814171663, ,0.24805417992009124,-0.17020130981503398,0.11861312758,1.6135641151134148,0.24198324108459504,-1.389258962317587, ,0.2054046354079454,0.12372482602147429,0.038107204593301434,0.0034697580780706856,0.23003004646084838,-0.14550815568254202, ,1.4121460914611816
0.02524396596434719,0.018971936466268696,-0.1077171568403525, ,0.026262020934469037,0.018515722994261123,-0.10843913125639254, ,0.0013288392346884376, ,0.029582679902063622,-0.006257726547805865,-0.03414982437679894,0.057589761312710805,0.030857676279144118,0.009198340972942498, ,0.0456125486757897, ,0.06533552133441078, ,0.0013321108202884837, ,0.2500852586660123,-0.16901973168527762,0.11899942200000001,1.6135641151134148,0.24444269808037297,-1.3909377696235605, ,0.20147970606894008,0.11572797751033022,0.03885075980487805,0.0034697580780706856,0.2353503376952246,-0.16891134714548386, ,1.4175410270690918
0.02524396596434719,0.018971936466268696,-0.1077171568403525, ,0.026419588640913184,0.01849599465297067,-0.1086266795013883, ,0.001560718026499097, ,0.029582679902063622,-0.006257726547805865,-0.03414982437679894,0.057589761312710805,0.030857676279144118,0.009198340972942498, ,0.0456125486757897, ,0.06533552133441078, ,0.001333855913465664, ,0.2500852586660123,-0.16901973168527762,0.11899942200000001,1.6135641151134148,0.24444269808037297,-1.3909377696235605, ,0.20147970606894008,0.11572797751033022,0.03885075980487805,0.0034697580780706856,0.2353503376952246,-0.16891134714548386, ,1.4232170581817627
0.025551335443392907,0.018913532236743365,-0.10808565444963374, ,0.02657678379388108,0.01847798770445249,-0.10881352941453297, ,0.0013308062682653881, ,0.029786368946245725,-0.005274349932883572,-0.03707353078800749,-0.029580369896707526,-0.015316760272277219,-0.00016147811745811187, ,0.04784864916908021, ,0.033309629129136695, ,0.0013338328100929346, ,0.2519541600215746,-0.1679462718157604,0.11938312384000001,1.6135641151134148,0.24635560907708912,-1.3918441903541858, ,0.1909395202383718,0.11086091303559671,0.04180790425196851,0.0034697580780706856,0.17992606281393886,-0.07662464282616417, ,1.4288880825042725
0.025551335443392907,0.018913532236743365,-0.10808565444963374, ,0.026733595936718008,0.018461724211383965,-0.10899967669594583, ,0.0015611876993526052, ,0.029786368946245725,-0.005274349932883572,-0.03707353078800749,-0.029580369896707526,-0.015316760272277219,-0.00016147811745811187, ,0.04784864916908021, ,0.033309629129136695, ,0.0013355422453505262, ,0.2519541600215746,-0.1679462718157604,0.11938312384000001,1.6135641151134148,0.24635560907708912,-1.3918441903541858, ,0.1909395202383718,0.11086091303559671,0.04180790425196851,0.0034697580780706856,0.17992606281393886,-0.07662464282616417, ,1.434192180633545
0.025843624947524003,0.018867280858295386,-0.10845213509706483, ,0.026890014879744607,0.018447225668553432,-0.10918511703780648, ,0.0013448571590080405, ,0.02996885339197988,-0.004215583049504837,-0.03898193450921141,-0.05215032731936604,-0.0231473119870442,-0.0010360884446010362, ,0.04935072980369899, ,0.05705580317826844, ,0.0013356117596315523, ,0.25394662510312455,-0.16682647554899785,0.11983034389000001,1.6135641151134148,0.24799524707427442,-1.392364417797137, ,0.18534558898138823,0.10326108983511509,0.043881023471074386,0.0034697580780706856,0.16405295139377357,-0.04698815570256264, ,1.4394381046295166
0.025843624947524003,0.018867280858295386,-0.10845213509706483, ,0.02704603069968001,0.018434513006402507,-0.10936984612480209, ,0.0015732962648148656, ,0.02996885339197988,-0.004215583049504837,-0.03898193450921141,-0.05215032731936604,-0.0231473119870442,-0.0010360884446010362, ,0.04935072980369899, ,0.05705580317826844, ,0.0013373723855958732, ,0.25394662510312455,-0.16682647554899785,0.11983034389000001,1.6135641151134148,0.24799524707427442,-1.392364417797137, ,0.18534558898138823,0.10326108983511509,0.043881023471074386,0.0034697580780706856,0.16405295139377357,-0.04698815570256264, ,1.444715976715088
0.026143450540941134,0.0188266210734947,-0.10883365806935014, ,0.027201633737889412,0.018423606594455133,-0.10955385963471681, ,0.00134196223619587, ,0.029514593151669495,-0.0035173868994172928,-0.036981545054456104,-0.005924621136120074,-0.020179673683356235,0.0015736842719077952, ,0.047445947077948976, ,0.021029769242232935, ,0.0013374061344973438, ,0.25582324919156113,-0.16582252027534866,0.12026200846000001,1.6135641151134148,0.24977152157122512,-1.3930777418839257, ,0.18462439991920385,0.09349452370292687,0.04202852643799473,0.0034697580780706856,0.16630824030549549,-0.08372257549380113, ,1.4501121044158936
0.026143450540941134,0.0188266210734947,-0.10883365806935014, ,0.02735681459863177,0.018414526244746706,-0.10973715323902117, ,0.0015679215560719894, ,0.029114093322319786,-0.0032104908969849267,-0.0356218513970898,0.0028315542719489677,-0.013113827208648053,-0.0042730675645087784, ,0.046117827125057805, ,0.013413903502717978, ,0.001339088728815407, ,0.25765353688275233,-0.1649189605290644,0.12067422868000001,1.613983495000384,0.2514111595684104,-1.3938430055472988, ,0.18319872887735672,0.08835841858330612,0.04073864838874681,0.01146698827532339,0.17071046730248018,-0.08539924696265724, ,1.4556541442871094
0.02643562066127504,0.018794113159194062,-0.10919512651987956, ,0.02751156414730746,0.018407291215253366,-0.10991972260346324, ,0.0013536340294904132, ,0.029114093322319786,-0.0032104908969849267,-0.0356218513970898,0.0028315542719489677,-0.013113827208648053,-0.0042730675645087784, ,0.046117827125057805, ,0.013413903502717978, ,0.001339194129544936, ,0.25765353688275233,-0.1649189605290644,0.12067422868000001,1.613983495000384,0.2514111595684104,-1.3938430055472988, ,0.18319872887735672,0.08835841858330612,0.04073864838874681,0.01146698827532339,0.17071046730248018,-0.08539924696265724, ,1.4611799716949463
0.02673458609310456,0.018763882582712055,-0.1095537660272333, ,0.027665873508705814,0.018401920213320936,-0.11010156338865813, ,0.0011394713495724714, ,0.02853229583626961,-0.0026204318096758874,-0.033818112732409075,0.015223150831019664,0.00028580051658927684,-0.006244900370219709, ,0.04432407153386857, ,0.015224380779336043, ,0.00133775727501276, ,0.2595456064369373,-0.16404629171427704,0.12108644890000002,1.6141931849438687,0.25318743406536115,-1.3947196871143683, ,0.1817949072001356,0.08014944388384355,0.03904120470588236,0.017436872958012765,0.181890616788457,-0.08826327859472766, ,1.466444969177246
0.02673458609310456,0.018763882582712055,-0.1095537660272333, ,0.027819734065252694,0.018398431399094316,-0.11028267125067741, ,0.0013573516544466012, ,0.02853229583626961,-0.0026204318096758874,-0.033818112732409075,0.015223150831019664,0.00028580051658927684,-0.006244900370219709, ,0.04432407153386857, ,0.015224380779336043, ,0.001337897234865859, ,0.2595456064369373,-0.16404629171427704,0.12108644890000002,1.6141931849438687,0.25318743406536115,-1.3947196871143683, ,0.1817949072001356,0.08014944388384355,0.03904120470588236,0.017436872958012765,0.181890616788457,-0.08826327859472766, ,1.4717249870300293
0.027011827323211345,0.018742682613369813,-0.10988594299098914, ,0.027973137455258295,0.01839684238894658,-0.11046304184164042, ,0.0011733566014764092, ,0.027959669828923405,-0.0019081704505255347,-0.03320323849801713,0.02685844972961809,0.004743658102509154,-0.003679412454714112, ,0.043449272700091024, ,0.027273398369457177, ,0.0013367302800191252, ,0.2612986667993863,-0.16330490935835149,0.12147015074000002,1.6141931849438687,0.2549637085623119,-1.3955963686814379, ,0.177046532758341,0.0724957536733925,0.03847539014492755,0.016532863667686873,0.18172766849002703,-0.09268876584445715, ,1.4772381782531738
0.027011827323211345,0.018742682613369813,-0.10988594299098914, ,0.028126075571164606,0.018397170258908007,-0.11064267081030342, ,0.0013905268561508618, ,0.027959669828923405,-0.0019081704505255347,-0.03320323849801713,0.02685844972961809,0.004743658102509154,-0.003679412454714112, ,0.043449272700091024, ,0.027273398369457177, ,0.0013371091291468136, ,0.2612986667993863,-0.16330490935835149,0.12147015074000002,1.6141931849438687,0.2549637085623119,-1.3955963686814379, ,0.177046532758341,0.0724957536733925,0.03847539014492755,0.016532863667686873,0.18172766849002703,-0.09268876584445715, ,1.4825310707092285
0.02728287703637012,0.018725160957133256,-0.11020581831329587, ,0.028278540557793018,0.018399431548095434,-0.1108215538026494, ,0.0012151443077485886, ,0.02735775861749761,-0.0015812043724192178,-0.03120278284333696,-0.018721418522151267,-0.01892891067400808,-0.005445860842394526, ,0.04152783188428052, ,0.02662265187642538, ,0.0013362562282978748, ,0.2630362816960868,-0.1626175861325455,0.12184218597000002,1.6141931849438687,0.2570132560587935,-1.3964508498354786, ,0.17316960138407075,0.06622256912663697,0.03645036961098399,0.014822778226271439,0.15402644980831282,-0.0414459649126213, ,1.4880039691925049
0.02728287703637012,0.018725160957133256,-0.11020581831329587, ,0.02843052481059202,0.01840364226214122,-0.1109996864624791, ,0.0014320252522890306, ,0.02735775861749761,-0.0015812043724192178,-0.03120278284333696,-0.018721418522151267,-0.01892891067400808,-0.005445860842394526, ,0.04152783188428052, ,0.02662265187642538, ,0.0013369212909644802, ,0.2630362816960868,-0.1626175861325455,0.12184218597000002,1.6141931849438687,0.2570132560587935,-1.3964508498354786, ,0.17316960138407075,0.06622256912663697,0.03645036961098399,0.014822778226271439,0.15402644980831282,-0.0414459649126213, ,1.4936161041259766
0.027554301783913434,0.018712906459178735,-0.11051801910111285, ,0.0285820209738848,0.0184098178766227,-0.11117706443199987, ,0.001257938858003524, ,0.027228168602175647,-0.0009388806131401285,-0.03185761666607783,-0.05876763673834737,-0.03998391598719557,-0.00760286344029619, ,0.04191852098866316, ,0.07107964442042906, ,0.0013363765845302667, ,0.26471983746266775,-0.1619920447697333,0.12220644346000001,1.6141931849438687,0.2582429845566825,-1.396391787346919, ,0.16736673996202958,0.061105564429150536,0.03713009678321679,0.013435682507559296,0.12699585529011595,0.0032234373806783317, ,1.4988560676574707
0.027554301783913434,0.018712906459178735,-0.11051801910111285, ,0.028733021939116785,0.01841797334049097,-0.11135368335241676, ,0.0014746869124288129, ,0.027228168602175647,-0.0009388806131401285,-0.03185761666607783,-0.05876763673834737,-0.03998391598719557,-0.00760286344029619, ,0.04191852098866316, ,0.07107964442042906, ,0.0013373239155432702, ,0.26471983746266775,-0.1619920447697333,0.12220644346000001,1.6141931849438687,0.2582429845566825,-1.396391787346919, ,0.16736673996202958,0.061105564429150536,0.03713009678321679,0.013435682507559296,0.12699585529011595,0.0032234373806783317, ,1.5041091442108154
0.027832596168631877,0.01871014020912755,-0.11085297846717393, ,0.028883520843103336,0.018428123079500407,-0.11152953886452151, ,0.001281292435033934, ,0.02712799291647585,0.00036932567500985947,-0.033832763253716064,0.010507328021678862,0.0007254554955545133,0.013097793258591919, ,0.04336727188229143, ,0.0105302373615676, ,0.0013369427490091932, ,0.26641883869499716,-0.16141283980416649,0.12259662675,1.6144028748873531,0.2597459860541023,-1.3966372394058928, ,0.16389799923742793,0.05211254341486588,0.039330398814814815,0.0011751244879007,0.16677757999439322,-0.06051270455153681, ,1.5093350410461426
0.027832596168631877,0.01871014020912755,-0.11085297846717393, ,0.02903351106627726,0.018440280999637564,-0.11170462660928362, ,0.0014967715731841233, ,0.02712799291647585,0.00036932567500985947,-0.033832763253716064,0.010507328021678862,0.0007254554955545133,0.013097793258591919, ,0.04336727188229143, ,0.0105302373615676, ,0.0013380226734968615, ,0.26641883869499716,-0.16141283980416649,0.12259662675,1.6144028748873531,0.2597459860541023,-1.3966372394058928, ,0.16389799923742793,0.05211254341486588,0.039330398814814815,0.0011751244879007,0.16677757999439322,-0.06051270455153681, ,1.5146501064300537
0.028105066654099068,0.018717101662339704,-0.11119187940859693, ,0.029182986230936528,0.018454460490550474,-0.11187894222843903, ,0.0013049698531604648, ,0.027640496415213,0.0009568701995574805,-0.034450998172249815,0.04842856440879009,0.02193996303823064,0.004733918767911832, ,0.04417899860479597, ,0.0531661480545114, ,0.0013378008424878925, ,0.2680792262629554,-0.16091086216734188,0.12299199520000001,1.614822254774322,0.26165889705081846,-1.3975436601365183, ,0.16736673996202958,0.04817103632409685,0.04022427151515152,0.014957540448768444,0.1895879457528976,-0.09096076172690035, ,1.5199429988861084
0.028105066654099068,0.018717101662339704,-0.11119187940859693, ,0.029331940199491757,0.01847067442897782,-0.11205248136508206, ,0.0015187431663164289, ,0.027640496415213,0.0009568701995574805,-0.034450998172249815,0.04842856440879009,0.02193996303823064,0.004733918767911832, ,0.04417899860479597, ,0.0531661480545114, ,0.0013390071246467494, ,0.2680792262629554,-0.16091086216734188,0.12299199520000001,1.614822254774322,0.26165889705081846,-1.3975436601365183, ,0.16736673996202958,0.04817103632409685,0.04022427151515152,0.014957540448768444,0.1895879457528976,-0.09096076172690035, ,1.5252950191497803
0.02838281150111771,0.01873091804614319,-0.11153262055239119, ,0.029480367072713894,0.018488935182177958,-0.11222523966425306, ,0.0013201913396591305, ,0.027968439733921765,0.0017279994889147184,-0.033983400357129205,-0.011669506558556718,-0.019249135111073033,-0.0013456082788003755, ,0.04404646527494156, ,0.022509137283019003, ,0.0013388825167991493, ,0.2697473365637879,-0.1604706663935111,0.12339125252000001,1.6150319447178065,0.2632985350480037,-1.3979822088393292, ,0.1667784561660295,0.04074578856095783,0.03992183338345865,0.015676006983208503,0.14706932298229086,-0.02346700133645256, ,1.530622959136963
0.02838281150111771,0.01873091804614319,-0.11153262055239119, ,0.029628261187981876,0.0185092546113582,-0.11239721277353058, ,0.001532253017515541, ,0.028509657778189465,0.002202062517452522,-0.033983400357129205,-0.011669506558556718,-0.019249135111073033,-0.0013456082788003755, ,0.04441307426640468, ,0.022509137283019003, ,0.0013401546911459676, ,0.2716007924536018,-0.16005363881830295,0.12383328741,1.615241634661291,0.2648015365454236,-1.3981459821581623, ,0.16915675857124915,0.037287599826511114,0.04022427151515152,0.04146410154248167,0.13859733370963642,-0.015110307713942554, ,1.5366501808166504
0.028694971338158005,0.018753881183268862,-0.1119076974608238, ,0.0297756171175299,0.018531644075103954,-0.11256839634361981, ,0.0012859656474601868, ,0.028509657778189465,0.002202062517452522,-0.03406182833811498,-0.009816647188265746,-0.025867160751414316,-0.0264785541158422, ,0.04447311340231827, ,0.027666418584847568, ,0.0013398005143898514, ,0.2716007924536018,-0.16005363881830295,0.12383328741,1.615241634661291,0.2648015365454236,-1.3981459821581623, ,0.16915675857124915,0.037287599826511114,0.04022427151515152,0.04146410154248167,0.13859733370963642,-0.015110307713942554, ,1.5420761108398438
0.028973211403116803,0.018779102460011285,-0.11224086885522898, ,0.02992242966669556,0.018556114432807812,-0.11273878602894385, ,0.0010948335417166296, ,0.027335841207202283,0.0029733773047964495,-0.03254533917891227,0.007431817861268443,-0.011670295557405324,-0.013014266211072923, ,0.04260620012829704, ,0.013834420928073608, ,0.0013382098197621032, ,0.2732457345558116,-0.15972928403758554,0.12422735957000001,1.615241634661291,0.266167901543078,-1.39828001631344, ,0.16249476294258697,0.028051120768096596,0.03866216388349515,0.03148435043302316,0.14785573939413715,-0.02606862218897004, ,1.547333002090454
0.028973211403116803,0.018779102460011285,-0.11224086885522898, ,0.03006869387216694,0.018582676048098712,-0.11290837748823208, ,0.0012977800084863025, ,0.027335841207202283,0.0029733773047964495,-0.03254533917891227,0.007431817861268443,-0.011670295557405324,-0.013014266211072923, ,0.04260620012829704, ,0.013834420928073608, ,0.0013379489822700013, ,0.2732457345558116,-0.15972928403758554,0.12422735957000001,1.615241634661291,0.266167901543078,-1.39828001631344, ,0.16249476294258697,0.028051120768096596,0.03866216388349515,0.03148435043302316,0.14785573939413715,-0.02606862218897004, ,1.5539569854736328
0.02923900456305421,0.018809549911563396,-0.11255268435630084, ,0.030214405000230524,0.01861133879227122,-0.11307716638511234, ,0.0011250666910014849, ,0.02694965323377026,0.0032105400004070954,-0.03114026198557385,-0.0037035949636989984,-0.006726087716814712,-0.005507439257242905, ,0.04130747260538768, ,0.007676430740682047, ,0.0013365843521977673, ,0.2747207765347885,-0.1594976020513588,0.12457217271000001,1.615241634661291,0.26767090304049784,-1.3985254683724135, ,0.16221699411704404,0.024073298213716583,0.03739157633802818,0.02594455541045262,0.15324708647642257,-0.012929064236623107, ,1.5594429969787598
0.02923900456305421,0.018809549911563396,-0.11255268435630084, ,0.03035955854501854,0.018642112047714477,-0.11324514838869872, ,0.0013278490504990148, ,0.02694965323377026,0.0032105400004070954,-0.03114026198557385,-0.0037035949636989984,-0.006726087716814712,-0.005507439257242905, ,0.04130747260538768, ,0.007676430740682047, ,0.001336528713333444, ,0.2747207765347885,-0.1594976020513588,0.12457217271000001,1.615241634661291,0.26767090304049784,-1.3985254683724135, ,0.16221699411704404,0.024073298213716583,0.03739157633802818,0.02594455541045262,0.15324708647642257,-0.012929064236623107, ,1.5647361278533936
0.029492371136375168,0.018842517484915503,-0.11284259038304503, ,0.030504150226756788,0.018675004711341498,-0.11341231917418292, ,0.0011731787385114627, ,0.02616217612078187,0.0035081309536587574,-0.0295372861090178,-0.011422103206442581,-0.011582677500418278,0.0027135565047604416, ,0.03961335270901472, ,0.01626654163629217, ,0.0013354948527333048, ,0.2763657186369983,-0.15928136553088051,0.12494809681,1.6156610145482602,0.2691739045379177,-1.398525884210966, ,0.15763611554563253,0.018739522424658525,0.03563492510067114,0.016966415916575373,0.1453477656976317,-0.0020482390308730405, ,1.570026159286499
0.029492371136375168,0.018842517484915503,-0.11284259038304503, ,0.030648175990012065,0.018710025198018315,-0.11357867442342431, ,0.0013766839798148823, ,0.02616217612078187,0.0035081309536587574,-0.0295372861090178,-0.011422103206442581,-0.011582677500418278,0.0027135565047604416, ,0.03961335270901472, ,0.01626654163629217, ,0.0013357539038470255, ,0.2763657186369983,-0.15928136553088051,0.12494809681,1.6156610145482602,0.2691739045379177,-1.398525884210966, ,0.15763611554563253,0.018739522424658525,0.03563492510067114,0.016966415916575373,0.1453477656976317,-0.0020482390308730405, ,1.5753021240234375
0.02976885842046285,0.018885180239611384,-0.11315030204433346, ,0.03079163200193984,0.018747181443992893,-0.11374420982553879, ,0.0011907291543989576, ,0.02705562666307963,0.004658723623589362,-0.030159264085765906,0.02201657578509279,0.007363081832776336,-0.0506431432083367, ,0.04078347520905868, ,0.02321464260918807, ,0.0013348474991629752, ,0.2780338289378308,-0.15912691087339603,0.12532142833,1.6162900843787136,0.27067690603533756,-1.3986079787896588, ,0.16361541648012204,0.011502716327830707,0.03670233069124424,0.07795960412496716,0.1608320910454536,-0.011904766622618065, ,1.5804800987243652
0.02976885842046285,0.018885180239611384,-0.11315030204433346, ,0.030934514650531708,0.018786480910324685,-0.11390892107748993, ,0.0013942735892812559, ,0.02705562666307963,0.004658723623589362,-0.030159264085765906,0.02201657578509279,0.007363081832776336,-0.0506431432083367, ,0.04078347520905868, ,0.02321464260918807, ,0.0013352166053127782, ,0.2780338289378308,-0.15912691087339603,0.12532142833,1.6162900843787136,0.27067690603533756,-1.3986079787896588, ,0.16361541648012204,0.011502716327830707,0.03670233069124424,0.07795960412496716,0.1608320910454536,-0.011904766622618065, ,1.5857911109924316
0.030004695617642272,0.0189264787850329,-0.11341602494794031, ,0.03107682054286321,0.018827930586313327,-0.1140728038846786, ,0.00126115905994999, ,0.02625749348151889,0.004798070813794053,-0.02999218497670227,-0.004663239723813368,0.0033227798678778,-0.0415911881240171, ,0.04014982698770836, ,0.005723845071844931, ,0.0013347594599710326, ,0.2794470890538139,-0.15903423807890532,0.12564420454000003,1.6167094642656827,0.2720432710329919,-1.3984969767245146, ,0.1558242061715448,0.009588861472561713,0.0363671495890411,0.06711429287906323,0.15055976493580894,0.01379712050225649, ,1.5911929607391357
0.03029263565394123,0.01898172960636627,-0.11373665378905407, ,0.031218546503340994,0.018871536992928078,-0.11423585396153217, ,0.0010576644672554256, ,0.02625749348151889,0.004798070813794053,-0.02999218497670227,-0.004663239723813368,0.0033227798678778,-0.0415911881240171, ,0.04014982698770836, ,0.005723845071844931, ,0.0013330594906905686, ,0.2811692584847659,-0.15897245621591152,0.12603568412000002,1.6169191542091674,0.2736829090301772,-1.3984454529864823, ,0.1558242061715448,0.0032066930686530768,0.03500837696703297,0.0,0.12374241670435195,0.011787458631079738, ,1.5976240634918213
