NicholasDascanio/dvrk_moveit_final/test/execution/third_experiment_notsharpbends/thirdexp_200vel5.0/thirdexp_200vel5.0_12.csv
Current Position (x),Current Position (y),Current Position (z), ,Planned Position (x),Planned Position (y),Planned Position (z), ,Position Error,,Cartesian linear Velocity(x),Cartesian linear Velocity(y),Cartesian linear Velocity(z),Cartesian Angular Velocity(x),Cartesian Angular Velocity(y),Cartesian Angular Velocity(z), ,Total Linear Velocity, ,Total Angular Velocity, ,MSE, ,Joint 1 Position,Joint 2 Position,Joint 3 Position,Joint 4 Position,Joint 5 Position,Joint 6 Position, ,Joint 1 Velocity,Joint 2 Velocity,Joint 3 Velocity,Joint 4 Velocity,Joint 5 Velocity,Joint 6 Velocity, ,Time Stamp
0.010089732156473713,0.01999473007603435,-0.08050709319266534, ,0.010284870726762955,0.020017499267884733,-0.08052778508569475, ,0.00019754911325842308, ,0.0013263928760327893,0.00014013506377984902,0.0005755048176277803,0.17997627075249603,-0.13241866881545947,-0.032405617446568995, ,0.0014526395605255632, ,0.2234416297041224, ,1.646242610486859e-05, ,0.1410943296120818,-0.2411037203332892,0.09015178434000001,1.6047571374870648,0.1470208737476139,-1.3147639538936344, ,0.002304483487637823,-0.003243620422132162,-0.0005204212604574646,-0.001256409366515457,-0.13418875896248575,-0.1769529769708964, ,0.05269503593444824
0.010146244169520894,0.020018881326274905,-0.08053077901357525, ,0.010366224373873384,0.02012317784929012,-0.08061462554955291, ,0.0002574864979284932, ,0.002019740799946001,0.00033693622596046386,0.000709735055245669,0.01919290697370997,-0.1611540212389406,-0.0394121475901205, ,0.002167164684091997, ,0.1622929026161729, ,2.068343687213256e-05, ,0.14133373433118276,-0.24131223412089325,0.09018289530000001,1.6045474475435806,0.14333168825394704,-1.32033193820859, ,0.008344803323245147,-0.0056822800423881655,-0.0005411548601750126,0.0021039180614478223,-0.15800011912268588,-0.01324227919077492, ,0.10499405860900879
0.010194278859978317,0.0200758486968954,-0.08056908579967553, ,0.010448531316602418,0.020224539005754875,-0.08070756814874293, ,0.00032546963092021483, ,0.0010680189843854993,0.0014675053699621241,-0.0016679751295173189,-0.05006630883905811,0.008533496293999656,0.03294544917178172, ,0.002465030952049856, ,0.05078834354214305, ,2.5177588455068747e-05, ,0.14191293929674959,-0.2418296572234663,0.09023993206000001,1.6055958972610032,0.14387823425300877,-1.3160402428952231, ,0.0133113959262829,-0.01220382478889799,0.0021224265849433713,-0.024885830122777,0.02871015898623889,0.058748067243092006, ,0.15218496322631836
0.010277290097197534,0.02016688791862845,-0.08068371994011703, ,0.010531783239112205,0.0203216615571055,-0.08080649440062794, ,0.000322172634782613, ,0.0018767677895953625,0.0019385926535875101,-0.002123154501830188,0.009238582868125513,-0.021320565299256057,0.0016583029021890576, ,0.0034333924697371723, ,0.02323613388771723, ,2.7566946922243606e-05, ,0.1427392717142916,-0.24253242591502072,0.09038252396,1.6053862073175185,0.14401487075277425,-1.3159883033186384, ,0.01884745611886212,-0.01575052971924826,0.002738320701392471,0.0,-0.0025410563181674736,0.006351632674022771, ,0.19947099685668945
0.01037301965168199,0.020263582252206175,-0.08076170463715784, ,0.01061597187718769,0.020414623684198243,-0.08091128682148545, ,0.00032282213047528905, ,0.0018208899505174263,0.0019267298754241486,-0.0018468755874214763,-0.014417042343047175,-0.02571862136971253,0.024028797634668843, ,0.003230925201882695, ,0.0294838700827819, ,2.9091836885000677e-05, ,0.14376639518656348,-0.24338192653118543,0.09049270861000001,1.6062249670914566,0.14401487075277425,-1.315498230877795, ,0.018728427384738656,-0.01671898195180951,0.0024665239269123567,-0.022780288467930603,-0.0015307474365945466,0.027795318481734298, ,0.24663496017456055
0.01045815056797164,0.020351832599635925,-0.08087890566728519, ,0.010701089018075967,0.020503502931098566,-0.08102182892309656, ,0.00032007817332146206, ,0.0020395425477549743,0.0021439410735740717,-0.003030527432201717,0.0025917424086615067,0.006715185583856497,0.00220109203202093, ,0.004235600742325453, ,0.007197975123801892, ,3.0624178608535e-05, ,0.14463906400135085,-0.24403835882549452,0.09063789309,1.6060152771479719,0.14442478025207056,-1.3144439460064947, ,0.0225194450779475,-0.015151994500793672,0.003722554690348213,0.007243683681185121,0.028354499397955944,0.01341636855569962, ,0.2887110710144043
0.010538522120171714,0.020429731004056192,-0.08097515393842715, ,0.010787126500323005,0.02058837620725637,-0.08113800520933631, ,0.00033688718403281846, ,0.00207784682405109,0.0019734119183353995,-0.002596780151759012,0.012579779373166627,-0.01764648627649506,-0.00947226404257164, ,0.0038671784520780727, ,0.02167139420678783, ,3.2037928687989444e-05, ,0.14547311915176708,-0.24462528652393556,0.09075974435,1.606434657034941,0.14469805325160143,-1.313686636932201, ,0.020562717564132346,-0.014378324478556179,0.003237563317073171,0.012050618551905014,0.0,0.003341584923196486, ,0.33131909370422363
0.010628219840888454,0.02050711150084117,-0.08109448229802356, ,0.010874076213609564,0.020669319789681086,-0.08125970117276032, ,0.00033771905712476173, ,0.0020813822221889123,0.0018301405790164156,-0.0029973991280803454,-0.011317048667191435,-0.013456940639544113,-0.010386078719983267, ,0.004082397338185421, ,0.01758308396356694, ,3.315321125813802e-05, ,0.14637667889805137,-0.2451349868936344,0.09090492883000001,1.6068540369219102,0.1449713262511323,-1.3132560428184692, ,0.020220954945337904,-0.011499871735151572,0.0035948570345294526,0.01356384726026831,0.0035930504242386,0.024614335613328448, ,0.373399019241333
0.010713227398233532,0.02058088044865431,-0.08121896357185715, ,0.010961930098585515,0.0207464093251148,-0.08138680329119066, ,0.0003426704152543553, ,0.0023180015648952995,0.001881101783590633,-0.0034326674892402637,-0.028832295234017275,-0.01060969505181243,0.0010280480110438155, ,0.004549162699527461, ,0.03072241652405265, ,3.453568546373039e-05, ,0.1472416249799645,-0.24559062813321364,0.09105400218000001,1.6070637268653947,0.14551787225019408,-1.312721569551568, ,0.023162543704776856,-0.010832984196172462,0.004067622962206334,0.0037752621088794733,0.012021592651746968,0.04008810720499052, ,0.4101901054382324
0.010803793342189172,0.020657561053845037,-0.08136615854231982, ,0.011050680146702047,0.020819719832202137,-0.08151919902430084, ,0.00033267093766337286, ,0.0022338041208451506,0.001938796907332089,-0.0037117044056702874,0.014131711650259495,-0.0038602560295915786,-0.007669635305534899, ,0.004746110396235793, ,0.014649465863150128, ,3.558075603174487e-05, ,0.14812973926050033,-0.24600765570842176,0.09122640875000002,1.6074831067523636,0.14606441824925584,-1.3121870962846671, ,0.02190603452411606,-0.010519241971317027,0.004345011325695581,0.013514827484725675,0.015222219773221806,-0.0017876201677138668, ,0.44696903228759766
0.010878076499874047,0.020711628656330472,-0.08146371830512103, ,0.011140318400043005,0.020889325703659856,-0.08165677681019885, ,0.00037096986564502936, ,0.002463362745923882,0.001855503361384535,-0.0033432352585277903,0.02695440522035961,-0.0143489806798918,0.004214077798541262, ,0.004548436075837313, ,0.030535769302861622, ,3.687761319581737e-05, ,0.14886339888355166,-0.24631656502339075,0.09134307485000001,1.607692796695848,0.14620105474902126,-1.3121351567080821, ,0.024790214618200305,-0.01072206087327814,0.0039961895434019075,0.0,0.010771364398976684,-0.016347306806864574, ,0.4836540222167969
0.010978192588485283,0.020793607831762647,-0.08163224511530179, ,0.011230836951155138,0.020955300708444553,-0.08179942606200831, ,0.00034339951849153246, ,0.002486573265113569,0.0020039884236851472,-0.004007080657800935,0.023150751467621546,0.003907385117605884,0.0022310368789811934, ,0.005124032748057335, ,0.02347818031576923, ,3.809895158898366e-05, ,0.14983646322570393,-0.24672586986572465,0.09153881464000001,1.6081121765828172,0.1468842372478485,-1.3122838525258615, ,0.025745236451023,-0.010297575376459775,0.004697378802713065,0.006700114548565663,0.02891182073319083,-0.011985510177058225, ,0.5160040855407715
0.011064733137111003,0.020855180708248152,-0.08176101527475542, ,0.011322227942876836,0.02101771799391951,-0.08194703716445133, ,0.0003568278123630974, ,0.002972709900822909,0.002225100675250432,-0.004877976107063165,0.004013292784847795,-0.005654433650331739,0.0022744092776511493, ,0.006130475354369316, ,0.006933912035862323, ,3.930870727605154e-05, ,0.1506705183761202,-0.2470270564478194,0.09168918428,1.6081121765828172,0.14715751024737936,-1.3117715796719893, ,0.02926208497023459,-0.010154623698001642,0.005646512414037576,0.005171074375735824,0.02305924169778886,0.0067836636385778405, ,0.5474159717559814
0.011152450916889859,0.020922132271011133,-0.08191601036278058, ,0.011414483568165917,0.02107665008801935,-0.08209950147042676, ,0.0003552546307832826, ,0.0031838524178173914,0.002081323997532531,-0.00482023688828738,-0.04607644216871907,-0.03842114645332652,-0.015365127762836578, ,0.006140318351710507, ,0.059993524776537924, ,4.0374800018256655e-05, ,0.15151229625941065,-0.24730507483129147,0.09186677601000001,1.6085315564697864,0.14784069274620656,-1.3118385967496282, ,0.027682888435959965,-0.008556553592995151,0.005540456180869566,0.013682348998964066,-0.014547133350211214,0.05653192797778801, ,0.5789780616760254
0.011213460522257836,0.020963435776370325,-0.08201419009520128, ,0.011507596069926771,0.02113216890141487,-0.08225671129759081, ,0.00041689701545857415, ,0.00306904673896492,0.0020673405558987203,-0.005157593751703364,-0.01706676388838823,-0.004904871979395617,0.004864397269661476, ,0.00634773330942821, ,0.017757595420178195, ,4.221260356840444e-05, ,0.15207605575922906,-0.2474672522216502,0.09197696066000001,1.6087412464132707,0.147977329245972,-1.3114599422124813, ,0.029562910142825787,-0.007488753165605379,0.005854028489525911,0.002634508367305581,0.01994723271983147,0.029362143178383183, ,0.6049151420593262
0.011318569312842535,0.02102984314113838,-0.0821993878727632, ,0.011601557740835912,0.021184345729676004,-0.08241855992493476, ,0.000389858806103033, ,0.003570561702614534,0.0019833703700014357,-0.005686706621412801,-0.008828968713607927,-0.019364760504258397,-0.012417278914871915, ,0.007001521341451258, ,0.021282495905933327, ,4.3678142816445516e-05, ,0.15306456556712977,-0.24764487507775734,0.09218825593,1.6091606263002398,0.14866051174479922,-1.31152695929012, ,0.03316915119135644,-0.004641256033031007,0.006433284135702748,0.01632161068591435,0.01011183824603849,0.015834271997379187, ,0.6313271522521973
0.011389306897662505,0.02107186338943187,-0.08232396241336883, ,0.011696360923167637,0.02123325125543441,-0.08258494158936337, ,0.0004340948608018225, ,0.003535158878081196,0.0020257330503038163,-0.006099250112574887,0.014754934650848515,0.0037675092209957834,-0.0029073533496221707, ,0.007334970662525807, ,0.015228335885457923, ,4.57367324159379e-05, ,0.1537364433271873,-0.24773754787224805,0.09232825525,1.6091606263002398,0.14920705774386098,-1.3117275946844842, ,0.03473533732008447,-0.0039007153651943213,0.006868827736093144,0.013087886372317196,0.03643474882361679,-0.008943389974479587, ,0.6524360179901123
0.011469330151200394,0.021116062756841924,-0.08246589628111381, ,0.011791998008617736,0.021278955550544463,-0.08275575148227117, ,0.00046331916222890036, ,0.004434286760321729,0.0024968177500790884,-0.008545056246390743,-0.004222923512533108,-0.01869561291442798,0.005565342134170869, ,0.009945601248987215, ,0.01916661106402967, ,4.7893441897208275e-05, ,0.1544546574844902,-0.24779932973524185,0.09248640263,1.6093703162437245,0.14948033074339184,-1.3116237155313144, ,0.0391166288369624,-0.002188605776088402,0.009436499715639812,0.0,0.02107721551090275,0.006393887140359987, ,0.6734039783477783
0.011557529682773083,0.0211668791155291,-0.08264493361642791, ,0.011888461438127756,0.02132152807824509,-0.08293088574612034, ,0.0004638973473160766, ,0.004286870195364364,0.002455551011817841,-0.008739375130505048,0.021969622635930268,0.020545977582565714,-0.001152770443560342, ,0.010039106758832335, ,0.030079917928881202, ,4.992570741756084e-05, ,0.1552423762376611,-0.24782249793386452,0.09268343871000001,1.6097896961306934,0.15016351324221905,-1.311690732608953, ,0.04093914648769231,-0.0008148131614076149,0.009642137723970946,0.016693099492222408,0.05925695474857977,-0.018625897231875566, ,0.6942329406738281
0.011648333562793597,0.02121267069340188,-0.08281421171955233, ,0.011985743701707232,0.021361037695318198,-0.08311024147101506, ,0.0004727493869381962, ,0.0047410170086328324,0.002306593444409097,-0.00828328418366211,0.019240503731794235,-0.022087840435135748,-0.00801295097302038, ,0.009818880407726927, ,0.029292825741909178, ,5.2283169203586486e-05, ,0.1560609859223289,-0.24782249793386452,0.09287010447,1.6097896961306934,0.1507100592412808,-1.3116463317828955, ,0.04251655087745106,-0.0004446804129320283,0.009180871193083574,0.013057808216006207,0.017791360480926187,-0.016826315602756135, ,0.7105891704559326
0.011651868602375678,0.021214260574462893,-0.08282005888541755, ,0.012083837338256756,0.021397552654250133,-0.08329371669127882, ,0.0006667418483526741, ,0.004772499481681523,0.0023084256852126815,-0.008290080775715568,0.015035359834836884,-0.022986437166691312,-0.008064907972308796, ,0.00984027538815296, ,0.02746704024509522, ,5.592525735174303e-05, ,0.15697999113436162,-0.24782249793386452,0.09307232571000001,1.6099993860741781,0.1512566052403426,-1.3116019309568379, ,0.04761512371222819,0.00015936952779840435,0.011170274558204768,0.003018603482409679,0.024290124289909565,-0.028678793930936475, ,0.7268490791320801
0.011800727609196902,0.02129111426801328,-0.08310726960069943, ,0.012182734935389053,0.021431140605388938,-0.08348121038202816, ,0.0005526017375688001, ,0.005598066351428651,0.0033295339291962442,-0.012500171465629789,0.05242094089652995,0.018294570309797257,0.0017189852371753947, ,0.014095333615449186, ,0.055521581768722045, ,5.861634801967009e-05, ,0.1574433551068151,-0.24780705246811607,0.09319288068,1.6102090760176624,0.15193978773916977,-1.311995662995039, ,0.0496063468679931,0.0005017760657362871,0.01366107334476844,0.015325825320510543,0.0662474790767697,-0.05055472817702026, ,0.7426879405975342
0.011862122266719876,0.021326357939250657,-0.08324042576334605, ,0.01228242912925086,0.021461868599104116,-0.083672622455748, ,0.0006179117886460372, ,0.0063285273461858825,0.0033296589867975288,-0.012726028712400606,-0.02757109971469481,-0.04697799593952503,-0.009137362072928153, ,0.014597557813847792, ,0.054471068542745325, ,6.206930727902662e-05, ,0.15794533274363967,-0.24779932973524185,0.09333806516000001,1.6104187659611469,0.15221306073870067,-1.3121368200622912, ,0.050665745626519376,0.0011001642236915775,0.013899486492146597,0.009687992915861006,0.001331720729746482,0.027962709709173732, ,0.7533121109008789
0.011930616037436725,0.021363811283035224,-0.08338413537494255, ,0.01238291260434299,0.021489803087943363,-0.08386785375886593, ,0.0006741139327180955, ,0.006926914860436229,0.003914880769147244,-0.014953209348867309,-0.006290026106349375,-0.035159918606109605,-0.002118342947406133, ,0.016938326680974832, ,0.035718112452956294, ,6.58106359739929e-05, ,0.15850909224345805,-0.24778388426949338,0.09349491625,1.6106284559046316,0.15248633373823153,-1.3122779771295434, ,0.05520473621784223,0.0010584546609471062,0.016287128343558284,0.006941362463035741,0.018929374793098024,0.006319167466526937, ,0.763822078704834
0.01199528117489239,0.021401570691160887,-0.08353856464680315, ,0.012484178093340887,0.021515009928790896,-0.08406680606832649, ,0.0007286478277710816, ,0.006795609121953374,0.004075939212536279,-0.016756034119304434,0.04273150815247343,0.025664971143969328,0.013431435303890005, ,0.018535324739803214, ,0.049846476424593264, ,6.981752561038952e-05, ,0.15904968354465376,-0.24774527060512228,0.09366213766,1.6106284559046316,0.15316951623705874,-1.3126717091677444, ,0.056960949314808385,0.004476661141717223,0.01812151481228669,0.006941362463035741,0.08357388881237596,-0.046043190820291485, ,0.7745780944824219
0.012072214359567884,0.021446943844979544,-0.08371509574048235, ,0.01258621837691461,0.021537554385024183,-0.08426938208816444, ,0.0007613433883882547, ,0.00802222946539026,0.004688294591246942,-0.01800021141066608,0.022128101041494406,-0.015209396073427436,-0.00502968939684143, ,0.020256946527015478, ,0.026851009197831052, ,7.393479936646552e-05, ,0.15967522490746597,-0.24772210240649958,0.09385398858,1.610838145848116,0.1537160622361205,-1.312954023302249, ,0.06477606932318823,0.001647259424236044,0.01959263409594096,0.01715068772549333,0.04684485160766826,-0.021084171051702315, ,0.785520076751709
0.012156248396255934,0.021492532498487555,-0.08390537119470294, ,0.012689026283547936,0.02155750112867106,-0.08447548544607814, ,0.0007830092334809017, ,0.008260969893933693,0.004193943196440056,-0.017842705917729906,0.014373326144902884,-0.019237051565443145,-0.007600117518982775, ,0.020104599911215305, ,0.024013638811338427, ,7.859976274879733e-05, ,0.16035482540039772,-0.2476603205435058,0.09406009869000001,1.6110478357916007,0.15426260823518226,-1.3132363374367535, ,0.06735056178741716,0.006795469731947246,0.019354570498177404,0.018498296875937834,0.04500342297007885,-0.01819045270524499, ,0.7908480167388916
0.012156248396255934,0.021492532498487555,-0.08390537119470294, ,0.012792594689357572,0.021574914242565624,-0.08468502069000342, ,0.001009740903412269, ,0.008260969893933693,0.004193943196440056,-0.017842705917729906,0.014373326144902884,-0.019237051565443145,-0.007600117518982775, ,0.020104599911215305, ,0.024013638811338427, ,0.0004467898221113608, ,0.16035482540039772,-0.2476603205435058,0.09406009869000001,1.6110478357916007,0.15426260823518226,-1.3132363374367535, ,0.06735056178741716,0.006795469731947246,0.019354570498177404,0.018498296875937834,0.04500342297007885,-0.01819045270524499, ,0.7961299419403076
0.01224084720958045,0.021535865033782332,-0.08409339956109176, ,0.012896916517911817,0.02158985722250458,-0.08489789328468572, ,0.0010394961496222595, ,0.009662732538058562,0.004957837050127227,-0.022195867958898552,0.0352471589993424,-0.00334807300269781,-0.0003721293165764197, ,0.024710424981503845, ,0.03540573997513027, ,0.00046654669969505746, ,0.1610421486262037,-0.24758309321476354,0.09426361622000001,1.6110478357916007,0.15480915423424405,-1.3136003303113988, ,0.07804024799216347,0.011021247964747237,0.02395310003007519,0.01745148703430822,0.07272311628798497,-0.043379687976793604, ,0.8013360500335693
0.01224084720958045,0.021535865033782332,-0.08409339956109176, ,0.013001984740048971,0.021602392979403463,-0.08511400960825385, ,0.0012749122229410578, ,0.009662732538058562,0.004957837050127227,-0.022195867958898552,0.0352471589993424,-0.00334807300269781,-0.0003721293165764197, ,0.024710424981503845, ,0.03540573997513027, ,0.0004926230068965414, ,0.1610421486262037,-0.24758309321476354,0.09426361622000001,1.6110478357916007,0.15480915423424405,-1.3136003303113988, ,0.07804024799216347,0.011021247964747237,0.02395310003007519,0.01745148703430822,0.07272311628798497,-0.043379687976793604, ,0.8066489696502686
0.01233418930296292,0.02158754408794366,-0.08432742775336594, ,0.013107792373695516,0.021612583841451677,-0.08533327694879134, ,0.0012691813519905544, ,0.011466399687895945,0.006798920113259563,-0.03099871681553091,0.08209615666041659,0.04589122775006953,0.011799281520840563, ,0.03374350427443102, ,0.09405187451398384, ,0.0005168904551807293, ,0.16178353098212925,-0.24745952948877598,0.09451509648,1.6114672156785694,0.15576560973260212,-1.3143802556372735, ,0.08827622470555421,0.015932998918480656,0.033185024,0.019711525471136505,0.1336057917248906,-0.0946485200044633, ,0.8130271434783936
0.01247792043323862,0.021677945130253645,-0.08473624175090233, ,0.013214332483683783,0.021620491556268377,-0.08555560350090986, ,0.0011031578756369987, ,0.013312977514353206,0.008558737074848718,-0.038415730605269705,0.12092295503599455,0.07992100462645084,0.0021838270713135845, ,0.04154823351901642, ,0.14494703987945567, ,0.000534656134588495, ,0.16285699085164645,-0.24725873843404614,0.09495194621000001,1.6118865955655386,0.15754188422955284,-1.3156653309050461, ,0.09895405793375472,0.0180515391969699,0.04105363793814434,0.03994427169811924,0.1746783712679395,-0.1323015550550642, ,0.8185639381408691
0.01247792043323862,0.021677945130253645,-0.08473624175090233, ,0.013321598181569465,0.021626177293057113,-0.0857808983623208, ,0.001343792948253913, ,0.013312977514353206,0.008558737074848718,-0.038415730605269705,0.12092295503599455,0.07992100462645084,0.0021838270713135845, ,0.04154823351901642, ,0.14494703987945567, ,0.0005584542761668896, ,0.16285699085164645,-0.24725873843404614,0.09495194621000001,1.6118865955655386,0.15754188422955284,-1.3156653309050461, ,0.09895405793375472,0.0180515391969699,0.04105363793814434,0.03994427169811924,0.1746783712679395,-0.1323015550550642, ,0.8238961696624756
0.012622902652769401,0.02176288768047955,-0.08514768929789773, ,0.01342958262544907,0.02162970164476102,-0.08600907153040775, ,0.0011876238667679398, ,0.015317902864185022,0.00848851985442607,-0.04283128443027426,0.054134053239077336,0.031716169648922383,-0.02060066318015051, ,0.04627323247216092, ,0.06273967636455641, ,0.0005764305501840625, ,0.16391500525541522,-0.2469961655163225,0.09539009223000001,1.6120962855090233,0.15918152222673815,-1.3165939520487002, ,0.10808307694586651,0.03148538206983105,0.04551089005714286,0.0502273963122586,0.13168406861797147,-0.07713514810970594, ,0.8291871547698975
0.012622902652769401,0.02176288768047955,-0.08514768929789773, ,0.013538279019776967,0.021631124630217744,-0.08624003389879815, ,0.0014312554355552913, ,0.015317902864185022,0.00848851985442607,-0.04283128443027426,0.054134053239077336,0.031716169648922383,-0.02060066318015051, ,0.04627323247216092, ,0.06273967636455641, ,0.0006001756858888189, ,0.16391500525541522,-0.2469961655163225,0.09539009223000001,1.6120962855090233,0.15918152222673815,-1.3165939520487002, ,0.10808307694586651,0.03148538206983105,0.04551089005714286,0.0502273963122586,0.13168406861797147,-0.07713514810970594, ,0.8344719409942627
0.012786728037268469,0.021850933269206615,-0.08561120899035206, ,0.01364768061518222,0.021630505696314035,-0.08647369725393547, ,0.0012384319364126474, ,0.0165107019910367,0.008750850258366923,-0.04652378453752862,0.03451945547762255,0.03314146497431711,-0.004221099738362419, ,0.05013624625134565, ,0.04785113946322228, ,0.0006174258548218953, ,0.16505024698792622,-0.2466254743383597,0.09588138614000001,1.6120962855090233,0.16054788722439253,-1.3172997373849618, ,0.11474841784579294,0.0385759925034434,0.04931520594427245,0.034947303763400536,0.14386339770220563,-0.0669096484602716, ,0.8397350311279297
0.012786728037268469,0.021850933269206615,-0.08561120899035206, ,0.013757780708285218,0.021627903720139712,-0.08670997427165067, ,0.001483229791041484, ,0.0165107019910367,0.008750850258366923,-0.04652378453752862,0.03451945547762255,0.03314146497431711,-0.004221099738362419, ,0.05013624625134565, ,0.04785113946322228, ,0.0006402101689329372, ,0.16505024698792622,-0.2466254743383597,0.09588138614000001,1.6120962855090233,0.16054788722439253,-1.3172997373849618, ,0.11474841784579294,0.0385759925034434,0.04931520594427245,0.034947303763400536,0.14386339770220563,-0.0669096484602716, ,0.8451311588287354
0.012952561288413614,0.021933203355634596,-0.08607790470348232, ,0.01386857264151442,0.021623377011142975,-0.08694877851373385, ,0.0013013417522436696, ,0.017525237672421545,0.007889456276898613,-0.047472037193561,0.10377669850234315,0.07153750755250089,0.014874781601085562, ,0.05121495671312041, ,0.12604355216843166, ,0.0006571622608126995, ,0.16623182511768256,-0.24618527856452893,0.09637527263000001,1.6120962855090233,0.16232416172134326,-1.318421455172453, ,0.12893606190009615,0.0505039603823687,0.0502486167823344,0.02718236732100088,0.20006636422105512,-0.1491369389754769, ,0.8505370616912842
0.012952561288413614,0.021933203355634596,-0.08607790470348232, ,0.013980049802922447,0.021616983313283777,-0.08719002442450577, ,0.001546783125238049, ,0.017525237672421545,0.007889456276898613,-0.047472037193561,0.10377669850234315,0.07153750755250089,0.014874781601085562, ,0.05121495671312041, ,0.12604355216843166, ,0.0006794027824233333, ,0.16623182511768256,-0.24618527856452893,0.09637527263000001,1.6120962855090233,0.16232416172134326,-1.318421455172453, ,0.12893606190009615,0.0505039603823687,0.0502486167823344,0.02718236732100088,0.20006636422105512,-0.1491369389754769, ,0.8558330535888672
0.013133156942790339,0.022002954182297824,-0.0865382543505741, ,0.014092205626002392,0.021608779807188335,-0.08743362732738966, ,0.001369978314563873, ,0.01863146659919137,0.005944513152599234,-0.04409938637749737,0.0765901465258879,0.042669666061430925,0.037342916684274675, ,0.048241316971347384, ,0.08767316670136525, ,0.0006962460880852976, ,0.16760647156929454,-0.24562151906471053,0.09686267767000001,1.6123059754525078,0.16437370921782485,-1.3199293662476181, ,0.14577103157983223,0.061862413010737145,0.04671205724340176,0.0,0.19442790705710092,-0.1375109956340667, ,0.8611021041870117
0.013133156942790339,0.022002954182297824,-0.0865382543505741, ,0.014205033589503672,0.021598823112302837,-0.08767950342148167, ,0.001617000590399429, ,0.01863146659919137,0.005944513152599234,-0.04409938637749737,0.0765901465258879,0.042669666061430925,0.037342916684274675, ,0.048241316971347384, ,0.08767316670136525, ,0.0007181688143308722, ,0.16760647156929454,-0.24562151906471053,0.09686267767000001,1.6123059754525078,0.16437370921782485,-1.3199293662476181, ,0.14577103157983223,0.061862413010737145,0.04671205724340176,0.0,0.19442790705710092,-0.1375109956340667, ,0.866448163986206
0.01332723056495885,0.022055202648854785,-0.08697818008707904, ,0.014318527217248068,0.021587169289047574,-0.08792756977812324, ,0.0014501948366317007, ,0.01967317768481968,0.0044433691544905505,-0.04349148770824212,0.023077290890017376,0.014140855924452578,0.005662267360242253, ,0.04794045215408111, ,0.0270623272631391, ,0.0007351926753146124, ,0.16912784994551677,-0.2449187503731561,0.09732804578000001,1.6129350452829614,0.16614998371477557,-1.3211327627752498, ,0.1543039700137736,0.07640655520005699,0.04590435596541788,0.023583323487334825,0.1679009910220142,-0.0944174772601752, ,0.8718781471252441
0.013535993023872851,0.022092542733537238,-0.08741954332993368, ,0.014432680077945478,0.021573873840970634,-0.08817774433747132, ,0.0017007793619046349, ,0.021237634051545974,0.0030350767417289238,-0.04358159140182335,0.048312525935381205,0.004508385210778952,-0.03485750063373501, ,0.04794045215408111, ,0.04852080457600612, ,0.0007571378272825675, ,0.1707805147806008,-0.24406152702411718,0.09779341389000001,1.613144735226446,0.16778962171196088,-1.322061383918904, ,0.16945882421155498,0.0921329529693891,0.04590435596541788,0.06183017843293995,0.16404970724750023,-0.1287957775159649, ,0.8784739971160889
0.013535993023872851,0.022092542733537238,-0.08741954332993368, ,0.014547485785009657,0.02155899171690192,-0.08842994590507071, ,0.0015260103725166089, ,0.021237634051545974,0.0030350767417289238,-0.04358159140182335,0.048312525935381205,0.004508385210778952,-0.03485750063373501, ,0.04857575424068114, ,0.04852080457600612, ,0.0007742238838433239, ,0.1707805147806008,-0.24406152702411718,0.09779341389000001,1.613144735226446,0.16778962171196088,-1.322061383918904, ,0.16945882421155498,0.0921329529693891,0.04590435596541788,0.06183017843293995,0.16404970724750023,-0.1287957775159649, ,0.8838231563568115
0.013739478991413865,0.022116549931541052,-0.08782962803264455, ,0.014662937996373544,0.02154257731310646,-0.08868409414842385, ,0.0013828714486779836, ,0.02113984809642261,0.0015592862115628397,-0.04119516710546954,0.017703702963463876,0.0033472166927012124,-0.016675244838657732, ,0.046328893186400995, ,0.018014058902703554, ,0.0007874553526440774, ,0.1724177341499364,-0.24315796727783293,0.09822507846,1.613144735226446,0.16942925970914616,-1.32323504128298, ,0.17191474920012823,0.10042004397721775,0.043284813913043486,0.0426340438254748,0.1701396253143747,-0.10946133142601147, ,0.8891091346740723
0.013739478991413865,0.022116549931541052,-0.08782962803264455, ,0.014779030414304886,0.021524684475438014,-0.08894010959356272, ,0.0016322197082813503, ,0.02113984809642261,0.0015592862115628397,-0.04119516710546954,0.017703702963463876,0.0033472166927012124,-0.016675244838657732, ,0.046328893186400995, ,0.018014058902703554, ,0.0008054290623384874, ,0.1724177341499364,-0.24315796727783293,0.09822507846,1.613144735226446,0.16942925970914616,-1.32323504128298, ,0.17191474920012823,0.10042004397721775,0.043284813913043486,0.0426340438254748,0.1701396253143747,-0.10946133142601147, ,0.8943901062011719
0.013951160830153476,0.02211939586544141,-0.08824436028382225, ,0.01489575678522135,0.02150536650149274,-0.08919791362161969, ,0.0014759937486813518, ,0.02157704670707953,-0.0006421298845619154,-0.04209611284868746,0.020664608864715085,0.019643953005517908,0.010759224041777694, ,0.04730818102989765, ,0.028509274907530205, ,0.0008193991599706306, ,0.17414762631376268,-0.24202272554532192,0.09865803932000002,1.613144735226446,0.17134217070586233,-1.3248765706748704, ,0.1760611160639532,0.12486439678746157,0.04376047120879121,0.016070211414264846,0.19773752315601606,-0.1408969060288245, ,0.8996789455413818
0.013951160830153476,0.02211939586544141,-0.08824436028382225, ,0.015013110899505945,0.021484676142762553,-0.08945742846539839, ,0.0017326688920009162, ,0.02157704670707953,-0.0006421298845619154,-0.04209611284868746,0.020664608864715085,0.019643953005517908,0.010759224041777694, ,0.04730818102989765, ,0.028509274907530205, ,0.000838037317767167, ,0.17414762631376268,-0.24202272554532192,0.09865803932000002,1.613144735226446,0.17134217070586233,-1.3248765706748704, ,0.1760611160639532,0.12486439678746157,0.04376047120879121,0.016070211414264846,0.19773752315601606,-0.1408969060288245, ,0.9049661159515381
0.014180600042167193,0.022113196034596955,-0.08869867310484694, ,0.01513108659132204,0.02146266560678841,-0.08971857720594437, ,0.0015384469094071472, ,0.022883696407304106,-0.0005681554339427473,-0.045496501087146334,0.00957666716764136,0.0032401444543338626,0.009643743884910762, ,0.050930521036324464, ,0.010100304700771265, ,0.0008520455095999666, ,0.1759779140049539,-0.2406944154909553,0.09912988888000002,1.613144735226446,0.1732550817025785,-1.3263547425864797, ,0.18075607915899194,0.1319846196918926,0.04726650302670624,0.012584894313577849,0.18645208462528595,-0.13738623747208845, ,0.9103960990905762
0.014180600042167193,0.022113196034596955,-0.08869867310484694, ,0.01524967773842896,0.02143938655931442,-0.08998128376911647, ,0.0018005655905083888, ,0.022883696407304106,-0.0005681554339427473,-0.045496501087146334,0.00957666716764136,0.0032401444543338626,0.009643743884910762, ,0.050930521036324464, ,0.010100304700771265, ,0.0008706439425589552, ,0.1759779140049539,-0.2406944154909553,0.09912988888000002,1.613144735226446,0.1732550817025785,-1.3263547425864797, ,0.18075607915899194,0.1319846196918926,0.04726650302670624,0.012584894313577849,0.18645208462528595,-0.13738623747208845, ,0.9165041446685791
0.0144164681460674,0.022101323662371306,-0.08915984425471811, ,0.015368878261996033,0.021414890126440055,-0.0902454729221577, ,0.0015990202099226089, ,0.02415979775605496,-0.0017908166256637925,-0.04676651806415303,-0.020008834895328356,-0.022595809790031163,0.014881607261092352, ,0.05266887186607459, ,0.03017781286306539, ,0.0008846511784697947, ,0.17783136989476778,-0.23929660084072066,0.09960821989000002,1.6133544251699303,0.1750313561995292,-1.3277214965943926, ,0.18866191164705923,0.14689929033819007,0.0484158404863222,0.0,0.17101852917780988,-0.12457693006646327, ,0.921882152557373
0.0144164681460674,0.022101323662371306,-0.08915984425471811, ,0.01548868212641845,0.02138922689677411,-0.09051107027026523, ,0.001866155504861684, ,0.02415979775605496,-0.0017908166256637925,-0.04676651806415303,-0.020008834895328356,-0.022595809790031163,0.014881607261092352, ,0.05266887186607459, ,0.03017781286306539, ,0.0009031701280243586, ,0.17783136989476778,-0.23929660084072066,0.09960821989000002,1.6133544251699303,0.1750313561995292,-1.3277214965943926, ,0.18866191164705923,0.14689929033819007,0.0484158404863222,0.0,0.17101852917780988,-0.12457693006646327, ,0.9271981716156006
0.014672022229468274,0.02207456733157801,-0.0896495523054713, ,0.01560908333913149,0.021362446923587793,-0.09077800225316197, ,0.0016305208625351927, ,0.024812989407752072,-0.00319482909967726,-0.047584747603208105,-0.03200507570713465,-0.0346256552670236,0.009214119096388747, ,0.05376057645511607, ,0.04714888018106394, ,0.0009166395860708555, ,0.17980838951056927,-0.23768254967000774,0.10011377299000002,1.6133544251699303,0.1766709941967145,-1.3289768326986091, ,0.1909395202383718,0.16221699411704404,0.049011727753846164,0.0,0.16089266571898184,-0.12763096046357844, ,0.9333879947662354
0.014920326503691687,0.022036182663242823,-0.09012626960522872, ,0.015730075950425998,0.021334599726968127,-0.0910461961416677, ,0.0014121535381830695, ,0.025031041799390294,-0.004208426743335988,-0.048503402207029804,-0.02501867231077974,-0.015065186692897201,0.011459744055150904, ,0.054743437368087816, ,0.029199749412732415, ,0.0009256489306547139, ,0.1816541226675089,-0.2360607757664206,0.10058562255,1.6133544251699303,0.17844726869366523,-1.3304252654466628, ,0.1917109930474157,0.17316960138407075,0.04962246579439253,0.0,0.1813297697067885,-0.14563282511899783, ,0.9386250972747803
0.014920326503691687,0.022036182663242823,-0.09012626960522872, ,0.015851654053262478,0.021305734295970737,-0.09131558003426805, ,0.0016779109387752699, ,0.025031041799390294,-0.004208426743335988,-0.048503402207029804,-0.02501867231077974,-0.015065186692897201,0.011459744055150904, ,0.054743437368087816, ,0.029199749412732415, ,0.0009390821807997239, ,0.1816541226675089,-0.2360607757664206,0.10058562255,1.6133544251699303,0.17844726869366523,-1.3304252654466628, ,0.1917109930474157,0.17316960138407075,0.04962246579439253,0.0,0.1813297697067885,-0.14563282511899783, ,0.9439280033111572
0.015167354184350624,0.02198813853177068,-0.09060087897857702, ,0.015973811783086003,0.021275899090773084,-0.09158608285368712, ,0.0014588644746523092, ,0.024874190039048807,-0.005325599831237605,-0.04779245146588516,-0.03779338713155512,-0.018237038653728405,0.007726569156178935, ,0.05414061101225384, ,0.04196046171220561, ,0.0009482011684111727, ,0.1836079740846877,-0.23423821080810361,0.10108987936000001,1.6133544251699303,0.18022354319061595,-1.3319553769348569, ,0.18828758245728333,0.181447306995164,0.04886138503067485,0.00015476599086468705,0.17481743954198703,-0.14066576271129563, ,0.9492981433868408
0.015167354184350624,0.02198813853177068,-0.09060087897857702, ,0.016096543317641092,0.02124514204482773,-0.09185763434345741, ,0.0017305693491421526, ,0.024874190039048807,-0.005325599831237605,-0.04779245146588516,-0.03779338713155512,-0.018237038653728405,0.007726569156178935, ,0.05414061101225384, ,0.04196046171220561, ,0.0009616902749754999, ,0.1836079740846877,-0.23423821080810361,0.10108987936000001,1.6133544251699303,0.18022354319061595,-1.3319553769348569, ,0.18828758245728333,0.181447306995164,0.04886138503067485,0.00015476599086468705,0.17481743954198703,-0.14066576271129563, ,0.9546051025390625
0.015418202021285224,0.021931753212674487,-0.09108090906540868, ,0.016219842876786347,0.021213510567015804,-0.09213016506449012, ,0.0015031429442537228, ,0.025440364708263767,-0.00606861906956177,-0.048215191285337224,-0.09141438051484435,-0.07263936911926104,-0.007614675879427156, ,0.05485202789854337, ,0.11675960921449863, ,0.0009708674388615715, ,0.1854614299745016,-0.23239247765116394,0.10157987698000001,1.6135641151134148,0.18158990818827037,-1.333069555971821, ,0.18570830050581366,0.18828758245728333,0.049162998518518526,0.0,0.11623424169963653,-0.09369186509455871, ,0.9599180221557617
0.015418202021285224,0.021931753212674487,-0.09108090906540868, ,0.01634370472230834,0.021181051543798728,-0.09240360639164608, ,0.001780347286932942, ,0.025440364708263767,-0.00606861906956177,-0.048215191285337224,-0.09141438051484435,-0.07263936911926104,-0.007614675879427156, ,0.05485202789854337, ,0.11675960921449863, ,0.000984358769662761, ,0.1854614299745016,-0.23239247765116394,0.10157987698000001,1.6135641151134148,0.18158990818827037,-1.333069555971821, ,0.18570830050581366,0.18828758245728333,0.049162998518518526,0.0,0.11623424169963653,-0.09369186509455871, ,0.9651880264282227
0.01569232786521765,0.02186411553765287,-0.09161572162859724, ,0.01646812315773743,0.021147811341373293,-0.0926778905103068, ,0.0014977158511465737, ,0.02580855452963163,-0.0065281360908832345,-0.05151298726481228,-0.06807355170351992,-0.04193480019748054,-0.0033550042153674977, ,0.05798522143335122, ,0.07995106740354203, ,0.0009927744595231514, ,0.18729944039856702,-0.2304540716997336,0.10208802266000001,1.6135641151134148,0.18295627318592475,-1.3341837350087853, ,0.18390880146990463,0.19811470053960498,0.05239740631578948,0.0,0.14551354434062982,-0.12377711644171396, ,0.9704890251159668
0.01569232786521765,0.02186411553765287,-0.09161572162859724, ,0.016593092528160925,0.021113835807823007,-0.09295295041294473, ,0.001778335590570109, ,0.02580855452963163,-0.0065281360908832345,-0.05151298726481228,-0.06807355170351992,-0.04193480019748054,-0.0033550042153674977, ,0.05798522143335122, ,0.07995106740354203, ,0.0010054448003464895, ,0.18729944039856702,-0.2304540716997336,0.10208802266000001,1.6135641151134148,0.18295627318592475,-1.3341837350087853, ,0.18390880146990463,0.19811470053960498,0.05239740631578948,0.0,0.14551354434062982,-0.12377711644171396, ,0.9758501052856445
0.01592920092316015,0.021805867471874716,-0.09210782848169997, ,0.016718607220038074,0.02107917027527145,-0.0932287198956936, ,0.0015516599753380906, ,0.02527661402002465,-0.006763051409211588,-0.05320263557310362,-0.01434359171828824,0.0013870557847675176,0.00373296218921116, ,0.059288839696905994, ,0.014395704074913864, ,0.0010141148824892132, ,0.1890833916925129,-0.2284693293510579,0.10262468672000001,1.6135641151134148,0.1844592746833446,-1.3358177256501484, ,0.1760611160639532,0.20320544230935927,0.0539959712542373,0.0,0.1822342462601469,-0.1853384179915859, ,0.9848361015319824
0.01617179703319936,0.0217392849881544,-0.09262551600763949, ,0.016844661661014892,0.021043859562036003,-0.09350513355491913, ,0.0013077042326686613, ,0.02443588413110309,-0.007067176022496212,-0.051566580843297266,-0.03364188494528592,-0.02511812935824727,0.0026919434844936813, ,0.05749930147462623, ,0.041980140830241784, ,0.001018702216085767, ,0.1907515019933454,-0.22649230973525641,0.10314968417,1.6137738050568995,0.18623554918029533,-1.3377562308390454, ,0.1650381592321231,0.19978303485993848,0.05222561154098361,-0.007735566507905262,0.14543080930599084,-0.1639979566711457, ,0.9902541637420654
0.01617179703319936,0.0217392849881544,-0.09262551600763949, ,0.01697125031973822,0.021007947974780485,-0.09378212678379051, ,0.0015848431695272326, ,0.02443588413110309,-0.007067176022496212,-0.051566580843297266,-0.03364188494528592,-0.02511812935824727,0.0026919434844936813, ,0.05749930147462623, ,0.041980140830241784, ,0.0010274120769079432, ,0.1907515019933454,-0.22649230973525641,0.10314968417,1.6137738050568995,0.18623554918029533,-1.3377562308390454, ,0.1650381592321231,0.19978303485993848,0.05222561154098361,-0.007735566507905262,0.14543080930599084,-0.1639979566711457, ,0.995556116104126
0.016425958413850947,0.02165507945713494,-0.09314322101759841, ,0.017098367705669516,0.02097147931066726,-0.0940596357688488, ,0.0013263707672758454, ,0.023360004852686668,-0.009299270048601276,-0.044818892890792626,-0.1287057639982182,-0.10407899140918152,-0.019671877178163023, ,0.051389681942104866, ,0.16552168829034297, ,0.0010319417540347296, ,0.19244278049280056,-0.22436083546197044,0.10367208904000001,1.6137738050568995,0.18719200467865343,-1.3387811923853419, ,0.1571141416530973,0.20407944421176513,0.04499664271186441,-0.006945276451115951,0.05601671191733373,-0.07292048896625661, ,1.0008580684661865
0.016425958413850947,0.02165507945713494,-0.09314322101759841, ,0.017226008368900207,0.02093449685951149,-0.09433759748658017, ,0.0016080591905242283, ,0.023360004852686668,-0.009299270048601276,-0.044818892890792626,-0.1287057639982182,-0.10407899140918152,-0.019671877178163023, ,0.051389681942104866, ,0.16552168829034297, ,0.0010405405217435281, ,0.19244278049280056,-0.22436083546197044,0.10367208904000001,1.6137738050568995,0.18719200467865343,-1.3387811923853419, ,0.1571141416530973,0.20407944421176513,0.04499664271186441,-0.006945276451115951,0.05601671191733373,-0.07292048896625661, ,1.0061321258544922
0.016651340927118227,0.021557663495031007,-0.09358217959810428, ,0.017354166899965634,0.020897043405933676,-0.09461594969998453, ,0.0014138825530323896, ,0.02222593925922187,-0.010227087615712031,-0.043772046149229,-0.07224010414967927,-0.03327319180411475,-0.006322694139248591, ,0.050145565318822596, ,0.0795334976729623, ,0.0010460308457330703, ,0.1939641588690228,-0.22230658851742674,0.10411153135000001,1.6137738050568995,0.18801182367724606,-1.3396947360279423, ,0.15232253861712805,0.20902410034905458,0.04376047120879121,-0.00634458124806525,0.12359572030344293,-0.13409437153536113, ,1.0114250183105469
0.016840669180867636,0.02147139854636973,-0.09396931156680563, ,0.017482837929658865,0.020859161231511984,-0.09489463095514653, ,0.0012819638068478699, ,0.02168648350193705,-0.00974608270394599,-0.045020194604747585,0.008424279806699964,0.03102641082232471,0.0073610364320737314, ,0.050912745133230505, ,0.03214687723913382, ,0.0010494501640100963, ,0.19526930072476673,-0.22050719175773242,0.10449912206,1.6137738050568995,0.18951482517466592,-1.3415737628897275, ,0.14874128770920184,0.2054046354079454,0.04512411195467422,-0.005895642663521226,0.1857150882630131,-0.21108865966044774, ,1.0208461284637451
0.016840669180867636,0.02147139854636973,-0.09396931156680563, ,0.017612016128845505,0.02082089211693587,-0.09517358057780645, ,0.001571113802290099, ,0.02168648350193705,-0.00974608270394599,-0.045020194604747585,0.008424279806699964,0.03102641082232471,0.0073610364320737314, ,0.050912745133230505, ,0.03214687723913382, ,0.0010569025016998106, ,0.19526930072476673,-0.22050719175773242,0.10449912206,1.6137738050568995,0.18951482517466592,-1.3415737628897275, ,0.14874128770920184,0.2054046354079454,0.04512411195467422,-0.005895642663521226,0.1857150882630131,-0.21108865966044774, ,1.0263500213623047
0.017083613324075722,0.02136622976145879,-0.09447940983108244, ,0.017741696208278427,0.020782277344159415,-0.09545273866993043, ,0.0013120375515523568, ,0.02184630777154799,-0.008938066881679186,-0.045252167686426606,-0.03211499623110864,-0.02880415686433009,-0.007156203311874024, ,0.051038307996553345, ,0.043137717591080114, ,0.0010604959531061845, ,0.1968987973612281,-0.21824443102558463,0.10501115661000002,1.6137738050568995,0.19142773617138206,-1.3437870434626018, ,0.14184894104405196,0.1956637970277748,0.04551089005714286,-0.005403327801983258,0.11709548615301776,-0.16082175608612193, ,1.031738042831421
0.017083613324075722,0.02136622976145879,-0.09447940983108244, ,0.01787187291840994,0.020743357698552227,-0.09573204610628083, ,0.001605746067332044, ,0.02184630777154799,-0.008938066881679186,-0.045252167686426606,-0.03211499623110864,-0.02880415686433009,-0.007156203311874024, ,0.051038307996553345, ,0.043137717591080114, ,0.0010680688713593214, ,0.1968987973612281,-0.21824443102558463,0.10501115661000002,1.6137738050568995,0.19142773617138206,-1.3437870434626018, ,0.14184894104405196,0.1956637970277748,0.04551089005714286,-0.005403327801983258,0.11709548615301776,-0.16082175608612193, ,1.036985158920288
0.017313279198993222,0.021270850938109816,-0.09495568291095632, ,0.0180025410492091,0.020704173471055343,-0.0960114445309874, ,0.0013823305856997153, ,0.021408905929718346,-0.009117620067813099,-0.04527970586182073,-0.1301432217191845,-0.07880501930254812,-0.02188672953511285, ,0.050908977712595255, ,0.15214236389650998, ,0.0010723738263502857, ,0.1983429484087081,-0.2161824613481667,0.10548948762000002,1.6137738050568995,0.19224755516997472,-1.3446189083650615, ,0.12999581035406957,0.19526119662236785,0.045381229401709404,-0.005003964974251442,0.053572409031809966,-0.06225850847839473, ,1.042229175567627
0.017313279198993222,0.021270850938109816,-0.09495568291095632, ,0.018133695429973153,0.020664764460331622,-0.09629087635411629, ,0.001680227705181133, ,0.021408905929718346,-0.009117620067813099,-0.04527970586182073,-0.1301432217191845,-0.07880501930254812,-0.02188672953511285, ,0.050908977712595255, ,0.15214236389650998, ,0.001080588067956108, ,0.1983429484087081,-0.2161824613481667,0.10548948762000002,1.6137738050568995,0.19224755516997472,-1.3446189083650615, ,0.12999581035406957,0.19526119662236785,0.045381229401709404,-0.005003964974251442,0.053572409031809966,-0.06225850847839473, ,1.0474460124969482
0.01751880066707226,0.021183951975091254,-0.09541340397681346, ,0.018265330929142978,0.020625169974919685,-0.09657028474824228, ,0.001485906415358942, ,0.02084535276619573,-0.008550712528895459,-0.04961342907689272,-0.012030670586666774,0.025356256677492615,-0.005801853301067924, ,0.054489776669269054, ,0.02806022420515209, ,0.0010859923125881457, ,0.199578585668584,-0.21427494632823324,0.10594837428000001,1.6135641151134148,0.19320401066833282,-1.3457255486514987, ,0.12324278124476726,0.19729093879099954,0.049777536000000004,0.0,0.15224820614793938,-0.18137679216962727, ,1.0529930591583252
0.0177401956410292,0.02110112539390182,-0.09595552009864128, ,0.018397442454117254,0.02058542883538697,-0.09684961364501837, ,0.0012236501066283754, ,0.021005818327409654,-0.006999871240279446,-0.053136891223176476,-0.006587261016242223,0.0629475047941896,0.002885435742534623, ,0.05756536988370977, ,0.06328788780927304, ,0.001087803599351833, ,0.20087600479145373,-0.21223614484943798,0.10649411237,1.6135641151134148,0.19511692166504896,-1.3478571504842325, ,0.11936722208612675,0.18754336276377626,0.05363236202020203,0.0,0.18669957846299706,-0.17720326811805584, ,1.0590360164642334
0.0177401956410292,0.02110112539390182,-0.09595552009864128, ,0.01853002495106695,0.020545579376482787,-0.09712880773174666, ,0.0015195609847791199, ,0.021005818327409654,-0.006999871240279446,-0.053136891223176476,-0.006587261016242223,0.0629475047941896,0.002885435742534623, ,0.05756536988370977, ,0.06328788780927304, ,0.0010934108381236158, ,0.20087600479145373,-0.21223614484943798,0.10649411237,1.6135641151134148,0.19511692166504896,-1.3478571504842325, ,0.11936722208612675,0.18754336276377626,0.05363236202020203,0.0,0.18669957846299706,-0.17720326811805584, ,1.0643119812011719
0.01793943034135381,0.021035035891289904,-0.09644538335757549, ,0.018663073404747797,0.020505659449289976,-0.0974078124479478, ,0.001315358679044467, ,0.021212956495017577,-0.006818326312820703,-0.05141803018053061,-0.017412863286625387,0.033194946600239576,-0.0024380756042876035, ,0.056038316575478676, ,0.037480033196023735, ,0.0010962563232636267, ,0.20201896925683896,-0.21049852995273746,0.10698929515000001,1.6135641151134148,0.19675655966223426,-1.3496025590292924, ,0.12104201729396784,0.1804124364229482,0.052054939607843145,0.0,0.15788843037847275,-0.15933095107462195, ,1.0695719718933105
0.01793943034135381,0.021035035891289904,-0.09644538335757549, ,0.018796582838316624,0.02046570642337937,-0.09768657398193283, ,0.0016122656766406165, ,0.021212956495017577,-0.006818326312820703,-0.05141803018053061,-0.017412863286625387,0.033194946600239576,-0.0024380756042876035, ,0.056038316575478676, ,0.037480033196023735, ,0.0011027880872304242, ,0.20201896925683896,-0.21049852995273746,0.10698929515000001,1.6135641151134148,0.19675655966223426,-1.3496025590292924, ,0.12104201729396784,0.1804124364229482,0.052054939607843145,0.0,0.15788843037847275,-0.15933095107462195, ,1.0748319625854492
0.018162243895569218,0.02096755325271446,-0.0969864158266924, ,0.0189305483131441,0.0204257571889619,-0.09796503926737275, ,0.0013570329735905072, ,0.022101185499670026,-0.0063416915534295105,-0.05336630500101075,-0.04843034516967183,-0.0009322721187709433,-0.009817849540240701, ,0.05810888023108489, ,0.04843484919253003, ,0.0011059661483099252, ,0.20325460651671487,-0.2086527967957978,0.10753762582000001,1.6135641151134148,0.19812292465988865,-1.3507167380662566, ,0.12135158767067875,0.17804304232358495,0.054179631020408174,0.0,0.12323237471005408,-0.12593545565594894, ,1.0801010131835938
0.018162243895569218,0.02096755325271446,-0.0969864158266924, ,0.019064964928629118,0.020385848159041556,-0.09824315597986952, ,0.001653082542446498, ,0.022101185499670026,-0.0063416915534295105,-0.05336630500101075,-0.04843034516967183,-0.0009322721187709433,-0.009817849540240701, ,0.05810888023108489, ,0.04843484919253003, ,0.0011127206716943273, ,0.20325460651671487,-0.2086527967957978,0.10753762582000001,1.6135641151134148,0.19812292465988865,-1.3507167380662566, ,0.12135158767067875,0.17804304232358495,0.054179631020408174,0.0,0.12323237471005408,-0.12593545565594894, ,1.085386037826538
0.01838245182078018,0.02090822027810114,-0.09752297946506526, ,0.019199827822012856,0.020346015271568162,-0.09852087253352583, ,0.0014071135607489245, ,0.02232015797441714,-0.005921559682569224,-0.054108176239294245,0.003776632976932112,0.0274682289506666,-0.00283927829327522, ,0.05882983135297681, ,0.027718275121263295, ,0.00111631082887792, ,0.2044593528450939,-0.2069151818990973,0.10808336391000001,1.6135641151134148,0.19948928965754306,-1.3521576320637831, ,0.12340304493949386,0.1738039222682615,0.055116994878892746,0.0,0.15435432223429357,-0.17393119797929357, ,1.0908081531524658
0.01838245182078018,0.02090822027810114,-0.09752297946506526, ,0.019335132168193287,0.020306293991590757,-0.09879813807751632, ,0.0017017475093701333, ,0.02232015797441714,-0.005921559682569224,-0.054108176239294245,0.003776632976932112,0.0274682289506666,-0.00283927829327522, ,0.05882983135297681, ,0.027718275121263295, ,0.0011233642828597538, ,0.2044593528450939,-0.2069151818990973,0.10808336391000001,1.6135641151134148,0.19948928965754306,-1.3521576320637831, ,0.12340304493949386,0.1738039222682615,0.055116994878892746,0.0,0.15435432223429357,-0.17393119797929357, ,1.096101999282837
0.01861065805085675,0.020848138353450462,-0.09808261156937217, ,0.01947087317953808,0.02026671931340971,-0.09907490249265737, ,0.0014361961718958585, ,0.02164227010147958,-0.006062065115550568,-0.05227115049511537,0.016588677260720712,0.04709984566801072,0.001050847258271713, ,0.05689823953949341, ,0.04993184809836478, ,0.0011270884720149456, ,0.2057181583035925,-0.20513895333802565,0.10865373151,1.6135641151134148,0.2012655641544938,-1.3540144585125393, ,0.12058061189132248,0.16945882421155498,0.05327361712374583,0.0,0.1714827515536806,-0.18242636955257585, ,1.101318120956421
0.01861065805085675,0.020848138353450462,-0.09808261156937217, ,0.019607046105700365,0.020227325762730494,-0.09935111638797825, ,0.0017283812957383882, ,0.02164227010147958,-0.006062065115550568,-0.05227115049511537,0.016588677260720712,0.04709984566801072,0.001050847258271713, ,0.05689823953949341, ,0.04993184809836478, ,0.0011341625052352215, ,0.2057181583035925,-0.20513895333802565,0.10865373151,1.6135641151134148,0.2012655641544938,-1.3540144585125393, ,0.12058061189132248,0.16945882421155498,0.05327361712374583,0.0,0.1714827515536806,-0.18242636955257585, ,1.1065449714660645
0.018817157726775217,0.02079075630083991,-0.09858221934376284, ,0.01974364623343194,0.020188147398816383,-0.09962673109729081, ,0.0015206982754718597, ,0.022041043638013885,-0.006102531173873429,-0.0525334431254855,0.021296059419932054,0.04454863003468132,0.0005127297182968814, ,0.05729582129614296, ,0.049373094645299494, ,0.0011386571072147173, ,0.20686112276897772,-0.20353262490018695,0.10916317348000001,1.6135641151134148,0.20290520215167906,-1.3555965095773181, ,0.12260586764660306,0.16885576789763485,0.05363236202020203,0.0,0.17088737234496146,-0.18648952485908754, ,1.1118381023406982
0.018817157726775217,0.02079075630083991,-0.09858221934376284, ,0.019880668886397466,0.02014921781664112,-0.09990169867576096, ,0.0018120853514443933, ,0.022041043638013885,-0.006102531173873429,-0.0525334431254855,0.021296059419932054,0.04454863003468132,0.0005127297182968814, ,0.05729582129614296, ,0.049373094645299494, ,0.0011463976617460928, ,0.20686112276897772,-0.20353262490018695,0.10916317348000001,1.6135641151134148,0.20290520215167906,-1.3555965095773181, ,0.12260586764660306,0.16885576789763485,0.05363236202020203,0.0,0.17088737234496146,-0.18648952485908754, ,1.1171531677246094
0.019039958091306004,0.02073316660029236,-0.09910796437960537, ,0.020018109424986365,0.020110570149040684,-0.1001759718964773, ,0.0015764030032916056, ,0.02295763754512442,-0.005439879765228116,-0.054115103350685284,-0.02406412207555586,0.03985157825549336,0.0023850571904877335, ,0.05903464935246752, ,0.0465485357571987, ,0.0011512840860818372, ,0.20809676002885363,-0.20188768279797714,0.10970113383,1.6133544251699303,0.20454484014886434,-1.3572602393822375, ,0.12686756892843687,0.16418155978974183,0.05550108543554008,-0.0015211752399397719,0.17065296919417122,-0.13684281000451531, ,1.122610092163086
0.019039958091306004,0.02073316660029236,-0.09910796437960537, ,0.02015596324613209,0.02007223706886948,-0.10044950424702417, ,0.001866018372626414, ,0.02295763754512442,-0.005439879765228116,-0.054115103350685284,-0.02406412207555586,0.03985157825549336,0.0023850571904877335, ,0.05903464935246752, ,0.0465485357571987, ,0.0011593148084025628, ,0.20809676002885363,-0.20188768279797714,0.10970113383,1.6133544251699303,0.20454484014886434,-1.3572602393822375, ,0.12686756892843687,0.16418155978974183,0.05550108543554008,-0.0015211752399397719,0.17065296919417122,-0.13684281000451531, ,1.1280319690704346
0.01928013702536913,0.020676054997745132,-0.09966188395662262, ,0.02029422578312,0.020034250791149087,-0.10072224992604928, ,0.0016014570357393964, ,0.022779190400009853,-0.005613899801907647,-0.05160257397106498,0.04012962334561362,0.05457946463121778,0.012242648763403067, ,0.05668538635931657, ,0.06774170601627827, ,0.0011642274998174165, ,0.2094405155489687,-0.2002041270313962,0.11027020514000001,1.613144735226446,0.20632111464581507,-1.3589537083507126, ,0.13053224423448526,0.15922305630615904,0.053096038400000004,-0.007166515753917396,0.19048344678870455,-0.19731471146743662, ,1.1333119869232178
0.01951049167846118,0.020617346648836063,-0.1001755387826826, ,0.020432892505405843,0.019996643075224446,-0.10099416383983643, ,0.0013806676631407564, ,0.023869902724898157,-0.006169293444763388,-0.051734303302461315,-0.007441644920094934,-7.543385676369565e-05,0.0004600358965703399, ,0.05730855586991144, ,0.007417087026366171, ,0.00116660596315064, ,0.21076882560333532,-0.1985977985935575,0.11079909146000001,1.613144735226446,0.20823402564253127,-1.3608402739630248, ,0.1347967919864642,0.16333380646896864,0.05327361712374583,-0.007166515753917396,0.13896122606386604,-0.1537256517614281, ,1.1393239498138428
0.01951049167846118,0.020617346648836063,-0.1001755387826826, ,0.02057195891842935,0.019959445226916003,-0.10126520159887496, ,0.0016573810773272291, ,0.023869902724898157,-0.006169293444763388,-0.051734303302461315,-0.007441644920094934,-7.543385676369565e-05,0.0004600358965703399, ,0.05730855586991144, ,0.007417087026366171, ,0.001171940475261255, ,0.21076882560333532,-0.1985977985935575,0.11079909146000001,1.613144735226446,0.20823402564253127,-1.3608402739630248, ,0.1347967919864642,0.16333380646896864,0.05327361712374583,-0.007166515753917396,0.13896122606386604,-0.1537256517614281, ,1.1445860862731934
0.019751760027416736,0.020555910651975873,-0.1006832266672587, ,0.020711420563422768,0.019922688100669706,-0.10153531951442948, ,0.0014310769944519757, ,0.024696223737925047,-0.00614052549552856,-0.050850592652672555,-0.023181000536905395,-0.03983062011387619,-0.006320135867484682, ,0.05686292547348338, ,0.04608141798627872, ,0.0011747268894461017, ,0.21212802658919883,-0.1969914701557188,0.11132279262000001,1.613144735226446,0.2093271176406548,-1.3621400108932988, ,0.13996599049921946,0.16002856923856792,0.05257033504950496,-0.0071205871153076665,0.1036160423036616,-0.13470844585128014, ,1.1498100757598877
0.019751760027416736,0.020555910651975873,-0.1006832266672587, ,0.02085127301723429,0.01988640210171528,-0.10180447459511198, ,0.001707151847190187, ,0.024696223737925047,-0.00614052549552856,-0.050850592652672555,-0.023181000536905395,-0.03983062011387619,-0.006320135867484682, ,0.05686292547348338, ,0.04608141798627872, ,0.0011803909847412513, ,0.21212802658919883,-0.1969914701557188,0.11132279262000001,1.613144735226446,0.2093271176406548,-1.3621400108932988, ,0.13996599049921946,0.16002856923856792,0.05257033504950496,-0.0071205871153076665,0.1036160423036616,-0.13470844585128014, ,1.1550719738006592
0.019995559177981518,0.02049243812983496,-0.10117124146344683, ,0.020991511892133833,0.01985061718821444,-0.10207262454345117, ,0.001488740201260155, ,0.02444294048359913,-0.006493507441658292,-0.04794322900661127,0.034650690631664094,-0.0034428518680903897,0.002159970269068514, ,0.0542049461392594, ,0.03481767208658627, ,0.001183636765967766, ,0.21354900943805613,-0.195416032649377,0.11182834572000001,1.613144735226446,0.21055684613854375,-1.3637145232075505, ,0.14577103157983223,0.15659561313279005,0.049777536000000004,-0.006742091342016131,0.14656140673631962,-0.18905307206691624, ,1.1604230403900146
0.019995559177981518,0.02049243812983496,-0.10117124146344683, ,0.021132132835630844,0.01981536287341592,-0.10233972775246264, ,0.0017651036201127713, ,0.02444294048359913,-0.006493507441658292,-0.04794322900661127,0.034650690631664094,-0.0034428518680903897,0.002159970269068514, ,0.0542049461392594, ,0.03481767208658627, ,0.00118969371236511, ,0.21354900943805613,-0.195416032649377,0.11182834572000001,1.613144735226446,0.21055684613854375,-1.3637145232075505, ,0.14577103157983223,0.15659561313279005,0.049777536000000004,-0.006742091342016131,0.14656140673631962,-0.18905307206691624, ,1.1658921241760254
0.020247409929609682,0.02042590340261008,-0.101666710240185, ,0.021273131530288855,0.019780668227808818,-0.10260574330222065, ,0.001533041527322956, ,0.024954269624964078,-0.0066755308542571735,-0.04813605513646165,0.014667174747655182,0.001633415465912317,0.0029645876365884945, ,0.05462927867729923, ,0.01474908897113394, ,0.0011932333805605517, ,0.21503949688278148,-0.1938097042115383,0.11234297285000001,1.613144735226446,0.21205984763596358,-1.365593550069336, ,0.14944400245428469,0.157374695785192,0.05009060226415095,-0.006391791149420397,0.15536693356630227,-0.1697092776218502, ,1.1712751388549805
0.020247409929609682,0.02042590340261008,-0.101666710240185, ,0.021414503693535734,0.019746561881273342,-0.10287063095642664, ,0.001809153903735931, ,0.024954269624964078,-0.0066755308542571735,-0.04813605513646165,0.014667174747655182,0.001633415465912317,0.0029645876365884945, ,0.05462927867729923, ,0.01474908897113394, ,0.0011995182838582597, ,0.21503949688278148,-0.1938097042115383,0.11234297285000001,1.613144735226446,0.21205984763596358,-1.365593550069336, ,0.14944400245428469,0.157374695785192,0.05009060226415095,-0.006391791149420397,0.15536693356630227,-0.1697092776218502, ,1.1765670776367188
0.020508566696473884,0.020357885024463333,-0.10216522087951739, ,0.021556245077483174,0.019713072025236714,-0.1031343511589817, ,0.0015660866172023979, ,0.025872515541326174,-0.006605279105285792,-0.04869935157605793,0.04937917903227305,0.003825345018486515,0.004040708945998966, ,0.05553956802517809, ,0.049524364421591305, ,0.0012032209942960791, ,0.21660721165624905,-0.19219565304082536,0.11286278514,1.613144735226446,0.21369948563314886,-1.3675023160946767, ,0.15608049598432694,0.15659561313279005,0.05089077162939297,-0.006077602603463532,0.16425645073574313,-0.2035435639383348, ,1.181818962097168
0.020508566696473884,0.020357885024463333,-0.10216522087951739, ,0.02169835146873388,0.019680226414822678,-0.10339686503055491, ,0.0018416721506030345, ,0.025872515541326174,-0.006605279105285792,-0.04869935157605793,0.04937917903227305,0.003825345018486515,0.004040708945998966, ,0.05553956802517809, ,0.049524364421591305, ,0.0012096055058591487, ,0.21660721165624905,-0.19219565304082536,0.11286278514,1.613144735226446,0.21369948563314886,-1.3675023160946767, ,0.15608049598432694,0.15659561313279005,0.05089077162939297,-0.006077602603463532,0.16425645073574313,-0.2035435639383348, ,1.1870570182800293
0.020812081878106098,0.020287846595444723,-0.1027328712129231, ,0.021840818688203263,0.01964805237100812,-0.10365813436515617, ,0.0015243844577243636, ,0.027286043566085418,-0.00592519556684048,-0.05110101849841403,-0.013724964741631089,-0.019285921756243236,0.00033625433608026987, ,0.05823186591180872, ,0.023663748208603706, ,0.0012127221291449428, ,0.2181980946283393,-0.19065882919885468,0.11338259743000001,1.613144735226446,0.21520248713056872,-1.3690546279958997, ,0.16084227382791658,0.1543039700137736,0.053096038400000004,-0.005800230984439422,0.14892281203539567,-0.1422549904997623, ,1.1923580169677734
0.020812081878106098,0.020287846595444723,-0.1027328712129231, ,0.021983642590924446,0.01961657678277189,-0.10391812162670411, ,0.0017966569535092971, ,0.027286043566085418,-0.00592519556684048,-0.05110101849841403,-0.013724964741631089,-0.019285921756243236,0.00033625433608026987, ,0.05823186591180872, ,0.023663748208603706, ,0.0012184469803642013, ,0.2181980946283393,-0.19065882919885468,0.11338259743000001,1.613144735226446,0.21520248713056872,-1.3690546279958997, ,0.16084227382791658,0.1543039700137736,0.053096038400000004,-0.005800230984439422,0.14892281203539567,-0.1422549904997623, ,1.197796106338501
0.021055720185217456,0.02023521094668142,-0.10319222164235546, ,0.022126819065875346,0.019585826109253388,-0.10417678994559873, ,0.0015932131756231952, ,0.027748646860425545,-0.005872778089083928,-0.052470572824349866,0.017633933460372047,-0.009631066944217287,0.0015750707362209957, ,0.059645938148239666, ,0.020082712424042675, ,0.0012220854871142885, ,0.21985075946342333,-0.18907566895963868,0.11394000213000001,1.613144735226446,0.216842125127754,-1.3708000365409596, ,0.161664295670308,0.15405347655595905,0.055116994878892746,-0.005539922146014045,0.15602133614956645,-0.16910935201616736, ,1.2030620574951172
0.021055720185217456,0.02023521094668142,-0.10319222164235546, ,0.022270344035775803,0.01955582638189844,-0.10443410311529022, ,0.0018652463853414008, ,0.027748646860425545,-0.005872778089083928,-0.052470572824349866,0.017633933460372047,-0.009631066944217287,0.0015750707362209957, ,0.059645938148239666, ,0.020082712424042675, ,0.0012282697265203187, ,0.21985075946342333,-0.18907566895963868,0.11394000213000001,1.613144735226446,0.216842125127754,-1.3708000365409596, ,0.161664295670308,0.15405347655595905,0.055116994878892746,-0.005539922146014045,0.15602133614956645,-0.16910935201616736, ,1.2082700729370117
0.02132610743905593,0.020176876917857262,-0.10369498571471697, ,0.0224142134569119,0.01952660320661671,-0.10469002558884963, ,0.0016115008398194742, ,0.028297714354084465,-0.00600303380589786,-0.051360716981888516,-0.003051426746197128,-0.017988562538117453,0.0007776832642178786, ,0.058946758192743406, ,0.01823573926890456, ,0.0012319195466469772, ,0.22143391970263937,-0.18758518151491335,0.11446888845000001,1.613144735226446,0.21834512662517383,-1.3721073122217606, ,0.16707208020857534,0.1520784319847288,0.054179631020408174,-0.0053134449944057215,0.1529225810013089,-0.146402241368641, ,1.2135579586029053
0.02132610743905593,0.020176876917857262,-0.10369498571471697, ,0.022558423318954877,0.01949818176593596,-0.10494452247554079, ,0.0018816406813583376, ,0.028297714354084465,-0.00600303380589786,-0.051360716981888516,-0.003051426746197128,-0.017988562538117453,0.0007776832642178786, ,0.058946758192743406, ,0.01823573926890456, ,0.0012380489913140656, ,0.22143391970263937,-0.18758518151491335,0.11446888845000001,1.613144735226446,0.21834512662517383,-1.3721073122217606, ,0.16707208020857534,0.1520784319847288,0.054179631020408174,-0.0053134449944057215,0.1529225810013089,-0.146402241368641, ,1.2188360691070557
0.02161795161735928,0.020115110042572333,-0.1042176860881388, ,0.022702969644758857,0.019470586821149546,-0.10519755953738866, ,0.0015977566395668885, ,0.028706819620235746,-0.005949846763199081,-0.05138777603285376,-0.015253020934468458,-0.013469776021403493,-0.00243170483218161, ,0.059162367217827264, ,0.020340382753011893, ,0.0012414107450360546, ,0.22315608913359145,-0.18604063494006845,0.11502110799000001,1.6129350452829614,0.2198481281225937,-1.3734962666427024, ,0.16945882421155498,0.15039134953798858,0.05436454443686007,-0.0008233714972486478,0.15903289057948605,-0.1315593593865579, ,1.2241771221160889
0.021889411377413143,0.020054969469640593,-0.10469228765447865, ,0.022847848490191017,0.01944384271447476,-0.10544910318575089, ,0.0013655941411724027, ,0.027824172892249976,-0.006478387316370259,-0.047969234834256705,5.325139107248665e-05,0.0065745720037261885,0.007197342839635279, ,0.05583190476728152, ,0.006555443867522945, ,0.0012425605912965763, ,0.2247855857700528,-0.1846119293583369,0.11552406851000001,1.612725355339477,0.22148776611977897,-1.3749149602272, ,0.16855584646264793,0.14781455071412894,0.05089077162939297,-0.00672783401069275,0.17955308721528854,-0.14562663404294016, ,1.2305901050567627
0.021889411377413143,0.020054969469640593,-0.10469228765447865, ,0.02299305594514939,0.019417973371474814,-0.10569912047790331, ,0.0016240405460755682, ,0.027824172892249976,-0.006478387316370259,-0.047969234834256705,5.325139107248665e-05,0.0065745720037261885,0.007197342839635279, ,0.05583190476728152, ,0.006555443867522945, ,0.0012460604073954661, ,0.2247855857700528,-0.1846119293583369,0.11552406851000001,1.612725355339477,0.22148776611977897,-1.3749149602272, ,0.16855584646264793,0.14781455071412894,0.05089077162939297,-0.00672783401069275,0.17955308721528854,-0.14562663404294016, ,1.235888957977295
0.02217357774611288,0.019986255028651215,-0.10517178866416312, ,0.0231385881284248,0.019393002302060112,-0.10594757911350876, ,0.0013729692847523902, ,0.027586987012183223,-0.006758217488591706,-0.04547421257082943,-0.006890267593693149,-0.006548326135202553,-0.011785817292279711, ,0.05361547691637606, ,0.009495362269577834, ,0.0012472141244623473, ,0.2265154779338791,-0.18310599644786313,0.11603351048000002,1.6125156653959922,0.2232640406167297,-1.3763633929752537, ,0.16855584646264793,0.145102357123044,0.0484158404863222,0.009969546373448901,0.16301400711990002,-0.1323391547131957, ,1.2411210536956787
0.02217357774611288,0.019986255028651215,-0.10517178866416312, ,0.023284441195103187,0.019368952604469487,-0.10619444743140312, ,0.0016312298548690559, ,0.027586987012183223,-0.006758217488591706,-0.04547421257082943,-0.006890267593693149,-0.006548326135202553,-0.011785817292279711, ,0.05361547691637606, ,0.009495362269577834, ,0.0012506737256371824, ,0.2265154779338791,-0.18310599644786313,0.11603351048000002,1.6125156653959922,0.2232640406167297,-1.3763633929752537, ,0.16855584646264793,0.145102357123044,0.0484158404863222,0.009969546373448901,0.16301400711990002,-0.1323391547131957, ,1.246387004852295
0.022450682227457115,0.0199174557753305,-0.10562040982683134, ,0.023430611331213946,0.019345846966135442,-0.10643969440597828, ,0.0013993658923837744, ,0.027483289632602423,-0.006972077007621421,-0.043608252131003146,-0.02124653997071944,-0.026613044150075652,-0.0155147821577342, ,0.05201558151891465, ,0.03405160606212723, ,0.0012520013342688483, ,0.22820675643333427,-0.18166184540038313,0.11651184149000002,1.6125156653959922,0.22476704211414955,-1.3775889899159142, ,0.16825698857884888,0.1427021677570989,0.04657547228070176,0.009969546373448901,0.1422737037108646,-0.11556758010195839, ,1.2516131401062012
0.022450682227457115,0.0199174557753305,-0.10562040982683134, ,0.023577094754862297,0.019323707666176675,-0.10668328964381019, ,0.0016586306111850404, ,0.027483289632602423,-0.006972077007621421,-0.043608252131003146,-0.02124653997071944,-0.026613044150075652,-0.0155147821577342, ,0.05201558151891465, ,0.03405160606212723, ,0.0012555998234450977, ,0.22820675643333427,-0.18166184540038313,0.11651184149000002,1.6125156653959922,0.22476704211414955,-1.3775889899159142, ,0.16825698857884888,0.1427021677570989,0.04657547228070176,0.009969546373448901,0.1422737037108646,-0.11556758010195839, ,1.256904125213623
0.022734410412361412,0.019846283130793386,-0.10607154262670417, ,0.023723887716043224,0.01930255657755119,-0.10692520338023002, ,0.0014154294688582699, ,0.027743044658730294,-0.006835107618697343,-0.04358187534692909,-0.0043762064627976185,-0.013375311122961343,-0.011894341779105392, ,0.05211309894691299, ,0.014067441229895797, ,0.0012570018378785467, ,0.22993664859716056,-0.18020224888715472,0.11699406137000001,1.6125156653959922,0.22627004361156938,-1.3787329081164343, ,0.17037152883028864,0.1403800910628266,0.04671205724340176,0.00933104569959008,0.1579883195148024,-0.13024925350758348, ,1.2623510360717773
0.022734410412361412,0.019846283130793386,-0.10607154262670417, ,0.023870986496455422,0.019282415169209054,-0.10716540647589437, ,0.0016751986131802266, ,0.027743044658730294,-0.006835107618697343,-0.04358187534692909,-0.0043762064627976185,-0.013375311122961343,-0.011894341779105392, ,0.05211309894691299, ,0.014067441229895797, ,0.0012606383315768221, ,0.22993664859716056,-0.18020224888715472,0.11699406137000001,1.6125156653959922,0.22627004361156938,-1.3787329081164343, ,0.17037152883028864,0.1403800910628266,0.04671205724340176,0.00933104569959008,0.1579883195148024,-0.13024925350758348, ,1.2679791450500488
0.022999739515786412,0.0197841406686575,-0.10649205223429843, ,0.024018387409315146,0.019263304508245472,-0.1074038704133555, ,0.0014629853822380528, ,0.027197621011449555,-0.00630424024489996,-0.042191242254821196,-0.007270607181208646,-0.021891943023499772,-0.012272838720919678, ,0.050592044401791755, ,0.023064804448260447, ,0.001262382702703212, ,0.23155069976787349,-0.17888938429853654,0.11744517029000001,1.6125156653959922,0.2277730451089892,-1.379958505057095, ,0.1659037439833405,0.13216844228199273,0.045381229401709404,0.008772834108309006,0.14486295657374812,-0.11941906657575459, ,1.273360013961792
0.022999739515786412,0.0197841406686575,-0.10649205223429843, ,0.02416608679917008,0.019245245262053567,-0.10764056729363174, ,0.0017233284905178892, ,0.027197621011449555,-0.00630424024489996,-0.042191242254821196,-0.007270607181208646,-0.021891943023499772,-0.012272838720919678, ,0.050592044401791755, ,0.023064804448260447, ,0.0012663224102913717, ,0.23155069976787349,-0.17888938429853654,0.11744517029000001,1.6125156653959922,0.2277730451089892,-1.379958505057095, ,0.1659037439833405,0.13216844228199273,0.045381229401709404,0.008772834108309006,0.14486295657374812,-0.11941906657575459, ,1.2786190509796143
0.023277270595698705,0.019721213534079497,-0.10692438609709723, ,0.024314081041713342,0.019228257700477317,-0.10787546983277814, ,0.0014908191128115602, ,0.027590659227779726,-0.00603194518624063,-0.043758689869966734,0.016723819045043845,0.005456692719438791,-0.000756667982492247, ,0.052081203696623675, ,0.01758696038539836, ,0.0012682249247195092, ,0.23323425553445443,-0.1775533515112957,0.11791053840000001,1.612725355339477,0.22927604660640907,-1.3811841019977555, ,0.16707208020857534,0.13125441432706886,0.047126661301775154,0.0022975877994565385,0.17503146505689238,-0.14390257248520655, ,1.2839059829711914
0.023277270595698705,0.019721213534079497,-0.10692438609709723, ,0.024462366543597184,0.019212361697964548,-0.10810855135845651, ,0.0017508940467809717, ,0.027590659227779726,-0.00603194518624063,-0.043758689869966734,0.016723819045043845,0.005456692719438791,-0.000756667982492247, ,0.052081203696623675, ,0.01758696038539836, ,0.0012722809677620424, ,0.23323425553445443,-0.1775533515112957,0.11791053840000001,1.612725355339477,0.22927604660640907,-1.3811841019977555, ,0.16707208020857534,0.13125441432706886,0.047126661301775154,0.0022975877994565385,0.17503146505689238,-0.14390257248520655, ,1.2891521453857422
0.023561877385330502,0.019665791768501764,-0.10737780426185264, ,0.024610939742247016,0.019197576735719757,-0.10833978580650633, ,0.0014983876794329878, ,0.028956136752909246,-0.004834047100827349,-0.046919523360366505,-0.039648420107181094,-0.06782505856790481,-0.013500549544857446, ,0.0553467933975418, ,0.07856213081706291, ,0.0012741651903593004, ,0.23491008856816115,-0.1762636551213002,0.11839923973000001,1.612725355339477,0.23064241160406349,-1.3822166022945792, ,0.16475163465012285,0.12470031742243204,0.05056765561904762,0.0022975877994565385,0.09813636579801781,-0.08110185392139858, ,1.294482946395874
0.023561877385330502,0.019665791768501764,-0.10737780426185264, ,0.02475979710567519,0.019183921903857065,-0.10856914771751427, ,0.0017568464509430512, ,0.028956136752909246,-0.004834047100827349,-0.046919523360366505,-0.039648420107181094,-0.06782505856790481,-0.013500549544857446, ,0.0553467933975418, ,0.07856213081706291, ,0.0012781542916864388, ,0.23491008856816115,-0.1762636551213002,0.11839923973000001,1.612725355339477,0.23064241160406349,-1.3822166022945792, ,0.16475163465012285,0.12470031742243204,0.05056765561904762,0.0022975877994565385,0.09813636579801781,-0.08110185392139858, ,1.299854040145874
0.023856833753333074,0.019619358229802413,-0.10785294798121589, ,0.024908935132294936,0.01917141590355306,-0.10879661223338546, ,0.0014825895791087612, ,0.029087249336935756,-0.004237966637471522,-0.0471839012208839,-0.013211209180011946,-0.04261351888683509,-0.0075971332453933045, ,0.05559090725677645, ,0.044611816514943364, ,0.0012798299907636709, ,0.2365936443347421,-0.1750280178614243,0.11891257057000001,1.612725355339477,0.231735503602187,-1.3831896242642912, ,0.1659037439833405,0.11891847313091576,0.05105388307692308,0.0022975877994565385,0.12492526433027809,-0.10186817647037992, ,1.3066589832305908
0.024148070841692893,0.019579547263843734,-0.10832207148433902, ,0.025058350350734306,0.019160077049199864,-0.10902215509391384, ,0.0012225715136340153, ,0.027485152738084776,-0.0035577628047672423,-0.04453515897293618,0.034343961533944305,0.007873166877869252,0.002758598388540995, ,0.05245447246856585, ,0.035232360951597236, ,0.001279364474689446, ,0.23828492283419725,-0.1738696079302906,0.11942201254000001,1.612725355339477,0.23337514159937228,-1.3845266391086481, ,0.15949065808146348,0.10759290426130474,0.0484158404863222,0.0022975877994565385,0.16969375035392953,-0.13837387496954043, ,1.3120391368865967
0.024148070841692893,0.019579547263843734,-0.10832207148433902, ,0.025208039319649732,0.01914992327055775,-0.10924575263335161, ,0.0014701349648621896, ,0.027485152738084776,-0.0035577628047672423,-0.04453515897293618,0.034343961533944305,0.007873166877869252,0.002758598388540995, ,0.05245447246856585, ,0.035232360951597236, ,0.0012809029463843875, ,0.23828492283419725,-0.1738696079302906,0.11942201254000001,1.612725355339477,0.23337514159937228,-1.3845266391086481, ,0.15949065808146348,0.10759290426130474,0.0484158404863222,0.0022975877994565385,0.16969375035392953,-0.13837387496954043, ,1.3176841735839844
0.024417253135523915,0.019542802408749907,-0.10874790975508351, ,0.025357998627540252,0.019140972114908384,-0.10946738177698076, ,0.0012506436966981192, ,0.027017023512984455,-0.003627563695925185,-0.042448758610974344,0.023883278642795484,-0.006537915648467243,0.00021967907714782206, ,0.05044775401821094, ,0.02475919053034051, ,0.0012806608723868974, ,0.23986036034053904,-0.1728193162593961,0.11988608436,1.612725355339477,0.2350147795965576,-1.3858636539530051, ,0.1571141416530973,0.10405366398955129,0.046304684651162796,0.0022975877994565385,0.15260078876708622,-0.12443571092670509, ,1.3230371475219727
0.024417253135523915,0.019542802408749907,-0.10874790975508351, ,0.025508224892561125,0.019133240749207407,-0.10968702003768242, ,0.0014966256213572813, ,0.027017023512984455,-0.003627563695925185,-0.042448758610974344,0.023883278642795484,-0.006537915648467243,0.00021967907714782206, ,0.05044775401821094, ,0.02475919053034051, ,0.0012823748783311066, ,0.23986036034053904,-0.1728193162593961,0.11988608436,1.612725355339477,0.2350147795965576,-1.3858636539530051, ,0.1571141416530973,0.10405366398955129,0.046304684651162796,0.0022975877994565385,0.15260078876708622,-0.12443571092670509, ,1.3282790184020996
0.024693416219394682,0.019507205850045162,-0.10916401350406467, ,0.02565871476233782,0.01912674596223748,-0.10990464551250859, ,0.0012747889139659357, ,0.026530400247978946,-0.0033199206620214707,-0.03925017941420298,0.008349241884656142,-0.03115748376182119,-0.002628650126361193, ,0.04749168974217702, ,0.03225531706516828, ,0.0012823151463282312, ,0.2414821342441262,-0.17179991551999843,0.12034237844000001,1.612725355339477,0.23638114459421197,-1.386732796769548, ,0.15633763024459765,0.0956622394742649,0.04316751089430895,0.0022975877994565385,0.1267751429458924,-0.10071320475524435, ,1.3335671424865723
0.024693416219394682,0.019507205850045162,-0.10916401350406467, ,0.02580946491377977,0.019121504166761234,-0.11012023687925074, ,0.0015194385871034586, ,0.026530400247978946,-0.0033199206620214707,-0.03925017941420298,0.008349241884656142,-0.03115748376182119,-0.002628650126361193, ,0.04749168974217702, ,0.03225531706516828, ,0.0012841676732092877, ,0.2414821342441262,-0.17179991551999843,0.12034237844000001,1.612725355339477,0.23638114459421197,-1.386732796769548, ,0.15633763024459765,0.0956622394742649,0.04316751089430895,0.0022975877994565385,0.1267751429458924,-0.10071320475524435, ,1.3390021324157715
0.024955895725048187,0.019475137129445624,-0.10954603593499862, ,0.02596047205289424,0.019117531401673993,-0.11033377339301174, ,0.0013257397021137732, ,0.026661579637502594,-0.0029534429752939837,-0.03839553619355171,-0.01685630128421258,-0.032006755677285205,-0.001526462721138344, ,0.04683780368212781, ,0.03617297135048403, ,0.0012844899369992449, ,0.24303440355184533,-0.1708731875750915,0.12076367269000002,1.612725355339477,0.23761087309210094,-1.387245485461972, ,0.15816156926411795,0.0906370024436206,0.042476830720000004,0.0022975877994565385,0.1277437211765896,-0.07059796477221605, ,1.3442909717559814
0.024955895725048187,0.019475137129445624,-0.10954603593499862, ,0.026111732914600262,0.01911484333415676,-0.11054523488277522, ,0.0015697674238284976, ,0.026661579637502594,-0.0029534429752939837,-0.03839553619355171,-0.01685630128421258,-0.032006755677285205,-0.001526462721138344, ,0.04683780368212781, ,0.03617297135048403, ,0.001286684379205624, ,0.24303440355184533,-0.1708731875750915,0.12076367269000002,1.612725355339477,0.23761087309210094,-1.387245485461972, ,0.15816156926411795,0.0906370024436206,0.042476830720000004,0.0022975877994565385,0.1277437211765896,-0.07059796477221605, ,1.349562168121338
0.02523329463829564,0.01944994120314195,-0.10994541091403666, ,0.02626324426254241,0.019113455261829185,-0.11075460174797705, ,0.0013523345824611403, ,0.02700513919436473,-0.001974082035656129,-0.03897846700643666,-0.0024543629877810725,0.00716836064718906,0.0033129585218493276, ,0.04746046178623198, ,0.007570952162483707, ,0.0012871855257953607, ,0.24468706838692936,-0.16997735056168145,0.12120700387000001,1.6129350452829614,0.23911387458952077,-1.3878176524815082, ,0.1619401733079706,0.08273490981558046,0.0434027561852861,0.006805057300593656,0.17058593938586006,-0.07620388725680251, ,1.3548009395599365
0.02523329463829564,0.01944994120314195,-0.10994541091403666, ,0.026415002888904523,0.019113382114902103,-0.11096185495507399, ,0.0015946362901910413, ,0.02700513919436473,-0.001974082035656129,-0.03897846700643666,-0.0024543629877810725,0.00716836064718906,0.0033129585218493276, ,0.04746046178623198, ,0.007570952162483707, ,0.0012895146982529037, ,0.24468706838692936,-0.16997735056168145,0.12120700387000001,1.6129350452829614,0.23911387458952077,-1.3878176524815082, ,0.1619401733079706,0.08273490981558046,0.0434027561852861,0.006805057300593656,0.17058593938586006,-0.07620388725680251, ,1.3600530624389648
0.025487379694076707,0.019435329725498763,-0.11032033439705, ,0.02656700561422381,0.019114638458330908,-0.11116697603411575, ,0.001408984413648563, ,0.026766374986781766,-0.0012518187109864963,-0.03944605747677898,0.039076229624106944,0.03240520053395628,0.008684221697282217, ,0.047686448079926676, ,0.05076370002335865, ,0.0012904129667897133, ,0.24620072403027737,-0.16922052274000746,0.12162440925000001,1.613144735226446,0.24089014908647152,-1.3887760127887185, ,0.15949065808146348,0.07665342613769853,0.04400224176795581,0.006735187117830901,0.19373905293931692,-0.11179084618136156, ,1.365319013595581
0.025487379694076707,0.019435329725498763,-0.11032033439705, ,0.02671924928720442,0.019117238493968017,-0.11136994707531461, ,0.0016493548740108073, ,0.026891244286554764,-0.0004345058769262833,-0.04057275067260376,-0.0020443524332044,0.020238280060347398,0.006963186279529745, ,0.048677262780250044, ,0.02033856957821972, ,0.0012930916377391242, ,0.24620072403027737,-0.16922052274000746,0.12162440925000001,1.613144735226446,0.24089014908647152,-1.3887760127887185, ,0.15949065808146348,0.07665342613769853,0.04400224176795581,0.006735187117830901,0.19373905293931692,-0.11179084618136156, ,1.3710830211639404
0.025760699206092637,0.019427699296921785,-0.11072808332026807, ,0.0268717307845314,0.019121196062715885,-0.11157075072561538, ,0.0014277337836240997, ,0.026891244286554764,-0.0004345058769262833,-0.04057275067260376,-0.0020443524332044,0.020238280060347398,0.006963186279529745, ,0.048677262780250044, ,0.02033856957821972, ,0.0012940889869679018, ,0.24780705246811607,-0.1684791403840819,0.12207940704000002,1.613144735226446,0.24280306008318767,-1.3896007547792033, ,0.15556875665323078,0.070713071206014,0.04525230545454546,0.006730324198660538,0.17735932809981947,-0.06489025913904756, ,1.376971960067749
0.0260296087847151,0.019424495656527114,-0.11112414736726825, ,0.02702444701068451,0.019126524646679924,-0.11176937018526652, ,0.0012226210792493878, ,0.026318336479320126,0.0001757815700366886,-0.038698370793069335,-0.030562068353675222,-0.0031747873457566777,0.004447671391220775, ,0.046800102951136326, ,0.03072511200956991, ,0.0012935634876464423, ,0.24936704450870942,-0.16779953989115015,0.12252273822000001,1.613144735226446,0.24444269808037297,-1.3901209822221547, ,0.15135078398480187,0.0621053282450725,0.0434027561852861,0.006255543108578326,0.1493634555257187,-0.02812333392818299, ,1.382308006286621
0.0260296087847151,0.019424495656527114,-0.11112414736726825, ,0.027177394897752106,0.01913323737132126,-0.11196578920439042, ,0.0014527922535503923, ,0.026318336479320126,0.0001757815700366886,-0.038698370793069335,-0.030562068353675222,-0.0031747873457566777,0.004447671391220775, ,0.046800102951136326, ,0.03072511200956991, ,0.0012947257414121643, ,0.24936704450870942,-0.16779953989115015,0.12252273822000001,1.613144735226446,0.24444269808037297,-1.3901209822221547, ,0.15135078398480187,0.0621053282450725,0.0434027561852861,0.006255543108578326,0.1493634555257187,-0.02812333392818299, ,1.3875670433044434
0.0262930543087708,0.019428501254906153,-0.1115026335297751, ,0.02733057140524481,0.019141347007609645,-0.11215999207955318, ,0.0012613562344487095, ,0.0269025347853634,0.0006612132212840513,-0.03830431019934029,0.00626095498549432,-0.0006948291228611387,0.00727142068756555, ,0.04681243168912477, ,0.006292844015943376, ,0.0012944839333906902, ,0.2508961456178059,-0.16721261219270908,0.12294921763000001,1.613144735226446,0.2459456995777928,-1.3905297917614097, ,0.15659561313279005,0.05723579104853485,0.043284813913043486,0.005849982350731052,0.15725756309488645,-0.060315862106218567, ,1.3927669525146484
0.0262930543087708,0.019428501254906153,-0.1115026335297751, ,0.02748397351990947,0.01915086597417637,-0.11235196365033527, ,0.0014888692253706534, ,0.0269025347853634,0.0006612132212840513,-0.03830431019934029,0.00626095498549432,-0.0006948291228611387,0.00727142068756555, ,0.04681243168912477, ,0.006292844015943376, ,0.0012958823887286753, ,0.2508961456178059,-0.16721261219270908,0.12294921763000001,1.613144735226446,0.2459456995777928,-1.3905297917614097, ,0.15659561313279005,0.05723579104853485,0.043284813913043486,0.005849982350731052,0.15725756309488645,-0.060315862106218567, ,1.398024082183838
0.02656989731010852,0.019438630062465875,-0.11188977183414742, ,0.02763759825554297,0.019161806339466948,-0.11254168929590214, ,0.0012812544866018316, ,0.027371433013288628,0.0013267037426255368,-0.03731917790201232,0.03211383756212474,-0.005071747283758611,0.0042694589704634885, ,0.046299854506290705, ,0.03251074893810339, ,0.0012957779037134835, ,0.252517919521393,-0.16665657542576492,0.12338865994,1.6135641151134148,0.24758533757497808,-1.3912133766846422, ,0.16138935639195712,0.05042345460067523,0.04259040513368984,0.010639257590670437,0.15912221470402502,-0.07983422005693812, ,1.4032511711120605
0.02656989731010852,0.019438630062465875,-0.11188977183414742, ,0.027791442652805927,0.01917417982389423,-0.11272915493157405, ,0.0015055467236827476, ,0.027371433013288628,0.0013267037426255368,-0.03731917790201232,0.03211383756212474,-0.005071747283758611,0.0042694589704634885, ,0.046299854506290705, ,0.03251074893810339, ,0.0012972656258409252, ,0.252517919521393,-0.16665657542576492,0.12338865994,1.6135641151134148,0.24758533757497808,-1.3912133766846422, ,0.16138935639195712,0.05042345460067523,0.04259040513368984,0.010639257590670437,0.15912221470402502,-0.07983422005693812, ,1.4086401462554932
0.02684436720318542,0.01945597632001656,-0.1122572534075243, ,0.0279455037790367,0.01918799780199091,-0.11291434700539701, ,0.0013099947485261233, ,0.02789051818218163,0.001810280604616518,-0.03595220515599312,0.028871830433338557,-0.02137904836695972,-0.011449701383341969, ,0.04553810685477245, ,0.035924730142240596, ,0.0012973552675499757, ,0.25413969342498016,-0.16619321145331145,0.12380995419000002,1.613983495000384,0.24908833907239794,-1.3919489011844597, ,0.16648586238328208,0.044282287241470264,0.04148128,0.02600834913243123,0.14293663800228593,-0.06524963987595188, ,1.4141149520874023
0.02684436720318542,0.01945597632001656,-0.1122572534075243, ,0.028099778728065006,0.019203271304562692,-0.11309725249471264, ,0.0015315078805260142, ,0.02789051818218163,0.001810280604616518,-0.03595220515599312,0.028871830433338557,-0.02137904836695972,-0.011449701383341969, ,0.04553810685477245, ,0.035924730142240596, ,0.001298992698409948, ,0.25413969342498016,-0.16619321145331145,0.12380995419000002,1.613983495000384,0.24908833907239794,-1.3919489011844597, ,0.16648586238328208,0.044282287241470264,0.04148128,0.02600834913243123,0.14293663800228593,-0.06524963987595188, ,1.4195220470428467
0.02712601923026965,0.019477629984895228,-0.11262086692924977, ,0.028254264620025935,0.01922001102084091,-0.11327785890272862, ,0.0013307680652023348, ,0.028292450673250705,0.002405209379909487,-0.03576443557162834,0.020851969982751958,-0.039680293799888924,-0.037428640204166655, ,0.04566555210458627, ,0.044824902170547645, ,0.0012992133606793395, ,0.25580780372581263,-0.16577618387810333,0.12422995215000002,1.6141931849438687,0.2504547040700523,-1.3925730077805802, ,0.16736673996202958,0.03931107769613537,0.04148128,0.0505281372456107,0.12114728115702102,-0.0462430665794169, ,1.42484712600708
0.02712601923026965,0.019477629984895228,-0.11262086692924977, ,0.028408958601173567,0.01923822730063548,-0.1134561542550892, ,0.0015495005619082882, ,0.028292450673250705,0.002405209379909487,-0.03576443557162834,0.020851969982751958,-0.039680293799888924,-0.037428640204166655, ,0.04566555210458627, ,0.044824902170547645, ,0.0013009394793085046, ,0.25580780372581263,-0.16577618387810333,0.12422995215000002,1.6141931849438687,0.2504547040700523,-1.3925730077805802, ,0.16736673996202958,0.03931107769613537,0.04148128,0.0505281372456107,0.12114728115702102,-0.0462430665794169, ,1.43009614944458
0.027417385341428593,0.019504495066942663,-0.11298763158265064, ,0.028563857843694928,0.01925793015648775,-0.1136321270964455, ,0.0013381210411701088, ,0.028009536103582287,0.002664191231488841,-0.03504641326226906,0.01116351175614721,-0.03263616870210779,0.0325771997628699, ,0.04494310970778024, ,0.03449189225365482, ,0.0013011941475404335, ,0.25753769588963893,-0.16539776996726632,0.12465643156000002,1.6144028748873531,0.25182106906770674,-1.3930337568964202, ,0.1667784561660295,0.03458343351256224,0.040843106461538464,-0.018441732804494754,0.13923991171839697,-0.049203571510932936, ,1.4353890419006348
0.027417385341428593,0.019504495066942663,-0.11298763158265064, ,0.028718959545523694,0.01927912926582323,-0.11380576648702563, ,0.0015537792233250756, ,0.028009536103582287,0.002664191231488841,-0.03504641326226906,0.01116351175614721,-0.03263616870210779,0.0325771997628699, ,0.04494310970778024, ,0.03449189225365482, ,0.0013029124133620978, ,0.25753769588963893,-0.16539776996726632,0.12465643156000002,1.6144028748873531,0.25182106906770674,-1.3930337568964202, ,0.1667784561660295,0.03458343351256224,0.040843106461538464,-0.018441732804494754,0.13923991171839697,-0.049203571510932936, ,1.4406239986419678
0.027693249402348324,0.019533049236539868,-0.11333016121029443, ,0.02887426093015414,0.019301833973104473,-0.11397706199920539, ,0.0013662830444491885, ,0.027741911723224346,0.0032452582457536006,-0.03447336986538444,0.03892839967353657,0.004030766269219956,0.00941884723941604, ,0.044368441453542184, ,0.03913590027357164, ,0.0013033405933018753, ,0.259190360724723,-0.1650811379194231,0.12505698517000002,1.6141931849438687,0.25332407056512657,-1.3935242451758156, ,0.16707208020857534,0.02938895681587822,0.040428455634517774,0.012916082916695205,0.17148648713334094,-0.06409543926941343, ,1.4459021091461182
0.027693249402348324,0.019533049236539868,-0.11333016121029443, ,0.02902975924645474,0.01932605329198391,-0.1141460037140782, ,0.001579463477082053, ,0.027741911723224346,0.0032452582457536006,-0.03447336986538444,0.03892839967353657,0.004030766269219956,0.00941884723941604, ,0.044368441453542184, ,0.03913590027357164, ,0.0013051937670185208, ,0.259190360724723,-0.1650811379194231,0.12505698517000002,1.6141931849438687,0.25332407056512657,-1.3935242451758156, ,0.16707208020857534,0.02938895681587822,0.040428455634517774,0.012916082916695205,0.17148648713334094,-0.06409543926941343, ,1.4512369632720947
0.02798847277324404,0.01957132821219007,-0.11369071375432628, ,0.029185451768482244,0.019351795907456705,-0.11431258221802561, ,0.0013666285281695124, ,0.027243562815086927,0.0037719647737120285,-0.033062802213484815,0.029935904658086685,0.0312643127672466,0.006872697894578956, ,0.043006840424771126, ,0.0432848256471117, ,0.0013056033320928608, ,0.2608044118954359,-0.16482628773457372,0.12544068701000002,1.6146125648308374,0.2549637085623119,-1.3938811151384862, ,0.1667784561660295,0.023553472712452415,0.03923352591133005,0.021780269715621157,0.1800871814839248,-0.035820302716528356, ,1.4565110206604004
0.02824753461443502,0.01960788790090462,-0.11399004155541427, ,0.029341335795295215,0.019379070178013505,-0.11447678859928771, ,0.0012188852523021857, ,0.028162167774676717,0.003921260586786834,-0.03132857510744366,-0.02125773279188095,-0.01089638562718783,-0.04655939081324647, ,0.04230796138578726, ,0.023887072744494788, ,0.0013050290401737173, ,0.2625883631893818,-0.1646023284812212,0.12583994433,1.615241634661291,0.2570132560587935,-1.394245523851683, ,0.1738039222682615,0.02053601851514191,0.03765676482269504,0.07057927721955833,0.15355288233864758,0.01956280214314486, ,1.4618310928344727
0.02824753461443502,0.01960788790090462,-0.11399004155541427, ,0.029497408650768032,0.019407884137793298,-0.11463861444453383, ,0.0014222634792678008, ,0.028162167774676717,0.003921260586786834,-0.03132857510744366,-0.02125773279188095,-0.01089638562718783,-0.04655939081324647, ,0.04230796138578726, ,0.023887072744494788, ,0.0013058003193782836, ,0.2625883631893818,-0.1646023284812212,0.12583994433,1.615241634661291,0.2570132560587935,-1.394245523851683, ,0.1738039222682615,0.02053601851514191,0.03765676482269504,0.07057927721955833,0.15355288233864758,0.01956280214314486, ,1.4671821594238281
0.028524605301878548,0.01964624065507804,-0.11428923821039734, ,0.029653667683404532,0.019438245498736302,-0.11479805183543153, ,0.001255760785921898, ,0.029124261889123954,0.004359552761234324,-0.030995069866957867,-0.02662451112000697,-0.0285361298409487,-0.0315484945517924, ,0.04275421250499023, ,0.03902751199200411, ,0.0013054732636040589, ,0.26430280988745963,-0.16442470562511405,0.12620160924,1.615241634661291,0.25837962105644785,-1.3938894855661172, ,0.18075607915899194,0.016386969704450145,0.03765676482269504,0.05445023882252994,0.14539607813923655,0.02486381045742493, ,1.4726250171661377
0.028524605301878548,0.01964624065507804,-0.11428923821039734, ,0.029810110266151966,0.019470161652736566,-0.11495509334521871, ,0.001458386056161109, ,0.029124261889123954,0.004359552761234324,-0.030995069866957867,-0.02662451112000697,-0.0285361298409487,-0.0315484945517924, ,0.04275421250499023, ,0.03902751199200411, ,0.0013064662038154682, ,0.26430280988745963,-0.16442470562511405,0.12620160924,1.615241634661291,0.25837962105644785,-1.3938894855661172, ,0.18075607915899194,0.016386969704450145,0.03765676482269504,0.05445023882252994,0.14539607813923655,0.02486381045742493, ,1.477895975112915
0.028810757088203846,0.019690722605732836,-0.11459496009098685, ,0.02996673379621481,0.01950363967379504,-0.11510973203527272, ,0.0012791686079286673, ,0.02878613215344459,0.004622926154107743,-0.029848421881259773,0.01345430387253182,-0.005227724900791866,-0.010010501562758017, ,0.04172458674910486, ,0.014433423296360765, ,0.001306290090293618, ,0.2660867611814055,-0.16428569643337798,0.12657364447000002,1.615241634661291,0.26001925905363316,-1.3938379618280847, ,0.181447306995164,0.012305483452631808,0.03661795751724139,0.037847963545266365,0.17252548692351022,-0.015525159973195632, ,1.4831609725952148
0.028810757088203846,0.019690722605732836,-0.11459496009098685, ,0.030123535694868364,0.019538686320172235,-0.11526196145168117, ,0.001480335609722057, ,0.02878613215344459,0.004622926154107743,-0.029848421881259773,0.01345430387253182,-0.005227724900791866,-0.010010501562758017, ,0.04172458674910486, ,0.014433423296360765, ,0.0013074057667002105, ,0.2660867611814055,-0.16428569643337798,0.12657364447000002,1.615241634661291,0.26001925905363316,-1.3938379618280847, ,0.181447306995164,0.012305483452631808,0.03661795751724139,0.037847963545266365,0.17252548692351022,-0.015525159973195632, ,1.4886281490325928
0.02910227083581435,0.019741775509208727,-0.11489885239766276, ,0.030280513407272697,0.019575308036541093,-0.1154117756218117, ,0.0012957843997071664, ,0.02851325374078795,0.0051015714402897405,-0.0292449350773399,0.016414585115638335,0.004669632888167291,0.015158905019955085, ,0.04116185002796599, ,0.01706524783688518, ,0.001307331745254395, ,0.2679170488725967,-0.1641930236388873,0.12694697599000002,1.6156610145482602,0.2617955335505839,-1.3940612134740298, ,0.1804124364229482,0.007074930050684559,0.03611975401360545,0.015128485005688698,0.18529367519756504,-0.0192822454558792, ,1.4939491748809814
0.02910227083581435,0.019741775509208727,-0.11489885239766276, ,0.03043766440228661,0.019613510956139668,-0.11555916905088336, ,0.0014952410693496732, ,0.02851325374078795,0.0051015714402897405,-0.0292449350773399,0.016414585115638335,0.004669632888167291,0.015158905019955085, ,0.04116185002796599, ,0.01706524783688518, ,0.0013085210447739855, ,0.2679170488725967,-0.1641930236388873,0.12694697599000002,1.6156610145482602,0.2617955335505839,-1.3940612134740298, ,0.1804124364229482,0.007074930050684559,0.03611975401360545,0.015128485005688698,0.18529367519756504,-0.0192822454558792, ,1.4991850852966309
0.02939964419137005,0.019797704373725262,-0.1151956233889282, ,0.03059498617228112,0.01965330090292418,-0.11570413671853598, ,0.0013070120963849512, ,0.028860397616958,0.005525100432866944,-0.028258392515373366,0.013275756586097432,-0.005067548894283519,-0.07820929734757061, ,0.04076746292026389, ,0.0142094245293822, ,0.001308511554532545, ,0.2698091184267817,-0.16413896450876772,0.12731641864,1.6164997743221983,0.2637084445473001,-1.3941508468032497, ,0.18249411838167456,0.004243903899874131,0.03531887254988914,0.10987733848286735,0.161802692800565,0.011612934889925833, ,1.5044140815734863
0.02939964419137005,0.019797704373725262,-0.1151956233889282, ,0.030752476232953484,0.01969468339372158,-0.11584667407540092, ,0.001504870376946901, ,0.028860397616958,0.005525100432866944,-0.028258392515373366,0.013275756586097432,-0.005067548894283519,-0.07820929734757061, ,0.04076746292026389, ,0.0142094245293822, ,0.0013097387971726347, ,0.2698091184267817,-0.16413896450876772,0.12731641864,1.6164997743221983,0.2637084445473001,-1.3941508468032497, ,0.18249411838167456,0.004243903899874131,0.03531887254988914,0.10987733848286735,0.161802692800565,0.011612934889925833, ,1.5096180438995361
0.02969614453281501,0.019855958104502323,-0.1154845953441068, ,0.030910132123140924,0.019737663640382454,-0.11598677703967146, ,0.0013190700910364567, ,0.030132095361198045,0.0060524079298013645,-0.02952134183983828,7.210539138656091e-05,-0.021683626691992967,-0.03379211058962896, ,0.042615542195654874, ,0.021683229542418248, ,0.001309796755519615, ,0.2716702970494698,-0.16412351904301928,0.12767808355000002,1.6169191542091674,0.2652114460447199,-1.393987905161521, ,0.18866191164705923,0.0011499062827072602,0.036957799350348035,0.06354287505026943,0.15888092824906394,0.015740467326863808, ,1.5149140357971191
0.02969614453281501,0.019855958104502323,-0.1154845953441068, ,0.031067951404634402,0.019782246551933818,-0.11612444199367257, ,0.0015154838242335384, ,0.030132095361198045,0.0060524079298013645,-0.02952134183983828,7.210539138656091e-05,-0.021683626691992967,-0.03379211058962896, ,0.042615542195654874, ,0.021683229542418248, ,0.001311066428783281, ,0.2716702970494698,-0.16412351904301928,0.12767808355000002,1.6169191542091674,0.2652114460447199,-1.393987905161521, ,0.18866191164705923,0.0011499062827072602,0.036957799350348035,0.06354287505026943,0.15888092824906394,0.015740467326863808, ,1.5202481746673584
0.029984671957319457,0.019914505626006333,-0.11576534122929545, ,0.031225931661992536,0.019828436736731878,-0.11625966578043177, ,0.0013388391501603775, ,0.030271902796496417,0.006290712950626304,-0.029355574676690456,-0.00220235898820342,-0.00831675687713913,-0.003514544981901329, ,0.04263462129474654, ,0.008602152651811015, ,0.0013112368135770056, ,0.2734851392749126,-0.1641312417758935,0.12803067443000002,1.6169191542091674,0.2668510840419052,-1.3938547026833477, ,0.1905561075471301,-0.0013835085056757342,0.036957799350348035,0.03600572534012934,0.17893829362375793,0.013183612811871429, ,1.5269851684570312
