NicholasDascanio/dvrk_moveit_final/test/execution/third_experiment_notsharpbends/thirdexp_200vel5.0/thirdexp_200vel5.0_22.csv
Current Position (x),Current Position (y),Current Position (z), ,Planned Position (x),Planned Position (y),Planned Position (z), ,Position Error,,Cartesian linear Velocity(x),Cartesian linear Velocity(y),Cartesian linear Velocity(z),Cartesian Angular Velocity(x),Cartesian Angular Velocity(y),Cartesian Angular Velocity(z), ,Total Linear Velocity, ,Total Angular Velocity, ,MSE, ,Joint 1 Position,Joint 2 Position,Joint 3 Position,Joint 4 Position,Joint 5 Position,Joint 6 Position, ,Joint 1 Velocity,Joint 2 Velocity,Joint 3 Velocity,Joint 4 Velocity,Joint 5 Velocity,Joint 6 Velocity, ,Time Stamp
0.010528657893468393,0.019530874127605843,-0.07920235360001279, ,0.01064523450791285,0.019624338961249935,-0.07942678898128651, ,0.0002696238537869523, ,0.0019276730611081539,0.0010113244603754835,-0.0028765347950324266,0.23431318081763297,-0.17467098332826028,-0.04607345299520877, ,0.003607374810261347, ,0.29225437399898946, ,2.2468654482246026e-05, ,0.14987507689007507,-0.23916531438185884,0.08885030918,1.6062249670914566,0.15631215573166388,-1.3132740311893887, ,-0.002078549431579999,-0.0036162135413870633,0.0030265649857495725,0.00047884018022634396,-0.18284435419828254,-0.23062163056308593, ,0.05240321159362793
0.010616484851635431,0.01965050789945211,-0.07951837812880973, ,0.010637269592791836,0.019804096807284694,-0.07972012968762027, ,0.0002544115751231202, ,0.0006536120787782985,0.002448358216969108,-0.005712135248048701,-0.05505908810611684,-0.027970055654916007,-0.0064461562362552694, ,0.006249012385979518, ,0.06175619151417121, ,2.3819792223185118e-05, ,0.14949666297923805,-0.23966729201868345,0.089184752,1.6062249670914566,0.14852387524503374,-1.3202368453216042, ,-0.006524713344968812,-0.012395107309100152,0.006124110542099193,0.0,-0.035456011487752785,0.06732724812605821, ,0.10483312606811523
0.010612210321255651,0.019776051424434896,-0.07974804076717348, ,0.010633385765505448,0.019977194899823456,-0.08001214746066376, ,0.00033265514076432436, ,-0.0004677701907677737,0.002842574981658449,-0.004684243107460584,0.0010110596745136102,0.03922333838710252,0.010023581555481418, ,0.00549919766579757, ,0.03923636723295513, ,2.6771580302324902e-05, ,0.14911052633552682,-0.24048590170335124,0.08943623226000001,1.6062249670914566,0.1493436942436264,-1.315432877154365, ,-0.011167170190065034,-0.020054298723260942,0.005163310055105349,0.0,0.02893313879368053,0.018811232357096974, ,0.15703606605529785
0.010616083526506241,0.019936197466382193,-0.0800256927679508, ,0.010633521742488723,0.02014374678270778,-0.08030285242474498, ,0.000346696243761225, ,4.201864121719838e-05,0.0037565137860467003,-0.006326000034438549,-0.027662246125055603,0.009132002331506031,0.0035436675907468945, ,0.007357407004283859, ,0.0291306250728496, ,2.9350897888673706e-05, ,0.1486317168973249,-0.24156708430574267,0.0897421567,1.6062249670914566,0.14920705774386098,-1.3158115316915122, ,-0.011334957678600844,-0.025815272458778772,0.006992454574187885,0.0,-0.002185248186371687,0.053194345041972214, ,0.2052910327911377
0.010604831040518367,0.02011820792251785,-0.08032669774181539, ,0.010637616699940919,0.020303865121516013,-0.08059225460188259, ,0.0003256745936243183, ,-0.00033581999134601906,0.0034356545576936745,-0.00575240756110307,0.022051566709253116,0.014563627299460502,0.0034924914206104236, ,0.006708702561257633, ,0.026426706721639957, ,3.05812281411988e-05, ,0.1479289482057705,-0.2428336124971155,0.09007400694,1.6062249670914566,0.14907042124409553,-1.3145566114258478, ,-0.014565915818644786,-0.023647381400067474,0.006320956952380953,0.0,0.0,0.0013375562270131975, ,0.25304412841796875
0.010599098448829308,0.02028594427314768,-0.08062569497348399, ,0.01064561027239748,0.0204576617063426,-0.08088036391225545, ,0.0003106549451878604, ,7.901373493926554e-05,0.003421209054232767,-0.006996017097273381,0.013045740722682546,-5.0780387721433354e-05,-0.0004077976150574784, ,0.007788142897277552, ,0.013045838911008951, ,3.1181633088945774e-05, ,0.1472416249799645,-0.24393024056525536,0.09040067202,1.6062249670914566,0.14838723874526832,-1.3137544856869439, ,-0.013169156474947373,-0.019639267706637164,0.007552779288762448,0.0,-0.013620531187337302,0.0063862080840387195, ,0.3009331226348877
0.01060875745595179,0.02042029004998376,-0.08091042486534336, ,0.010657442551300035,0.0206052474545756,-0.08116719017467007, ,0.00032016855575783425, ,0.0005143013109155818,0.003262025348933496,-0.007537316511563808,0.005783529080946582,0.003369257546446711,0.0012744843124753605, ,0.008229000875621936, ,0.006693360943331182, ,3.223708817918858e-05, ,0.1468014292061337,-0.2446639001883067,0.09070789275,1.606434657034941,0.147977329245972,-1.3132568744955737, ,-0.007776801673016568,-0.015924977606724414,0.008102142177009157,0.0,-0.004530077092811728,0.009971046743976666, ,0.3431570529937744
0.010633009815964949,0.020535162504121563,-0.08118363042611311, ,0.010673054083566199,0.02074673241367488,-0.08145274310702841, ,0.00034465490715429847, ,0.0004878666195411596,0.003274428117182868,-0.007610368896188496,0.004758414667141846,0.021909016991763595,0.006408788311796765, ,0.008299253464567374, ,0.022419801742235942, ,3.339386420213244e-05, ,0.14653113355553585,-0.2451967687566282,0.09100085429,1.6066443469784255,0.1472941467471448,-1.312046355055967, ,-0.0058569875011721135,-0.015690631871440274,0.008198050190427176,0.0,0.016571309755475362,0.010764779755632465, ,0.38500404357910156
0.010654453456112167,0.020668751600154005,-0.08146388179115113, ,0.010692385870157887,0.020882225763948273,-0.0817370323267922, ,0.0003487424576446106, ,0.0002941645213532046,0.0029357408309058806,-0.005733246841094884,-0.025327896245217016,-0.0011072817263061438,0.0005266376858751199, ,0.006447885415606838, ,0.025352088569493312, ,3.437689485306679e-05, ,0.14627628337068643,-0.2459227056468053,0.09130548244000002,1.6066443469784255,0.14715751024737936,-1.3111998284910056, ,-0.007608634152233086,-0.01719458988194796,0.006256406724273371,0.0,-0.008934853889921861,0.04233949404510308, ,0.4270632266998291
0.010675093086960864,0.020792283672980694,-0.08172652729669681, ,0.010715379364649022,0.021011835821327082,-0.08202006735144768, ,0.00036877078755864464, ,0.0006966660883694531,0.0031976155650146874,-0.007102901956301962,-0.005657394407910319,-0.0018784239831805664,0.0007155936816019743, ,0.007820569361699085, ,0.005961087993650777, ,3.5407176487507566e-05, ,0.1460446013844597,-0.24657913794111436,0.09159066624000001,1.6066443469784255,0.1470208737476139,-1.3105983381464656, ,-0.004944733955157626,-0.01601906508414429,0.0076913623949782725,0.0,-0.007009986167422358,0.0215065214219037, ,0.470142126083374
0.010702746173335812,0.020923480088423596,-0.08201238757992148, ,0.010741976471792125,0.021135670040141313,-0.08230185759896873, ,0.0003610491432674415, ,0.0006375979795278695,0.0032715529758736645,-0.007137547613151173,0.005410497114852152,-0.003960868599021541,-6.813667956154809e-05, ,0.007877447301470563, ,0.006705366549570439, ,3.656226738398602e-05, ,0.14581291939823296,-0.2472510157011719,0.09190047955000001,1.6066443469784255,0.14647432774855218,-1.3100709877915395, ,-0.006032992186725816,-0.016674915051567523,0.00773243277669903,0.0,-0.010298603942347957,0.011088409828566514, ,0.507012128829956
0.01073181832084671,0.02106078380827734,-0.08232578856444672, ,0.010772119546084619,0.021253835015894257,-0.08258241238827949, ,0.00032364910702267606, ,0.0007404778048310163,0.003242519922969561,-0.007354431720896464,0.011709640861775596,0.0015491826065114113,0.0015604552154072095, ,0.008071549341212628, ,0.01181167364706931, ,3.72071553395553e-05, ,0.14558123741200624,-0.24790744799548098,0.09223881124000001,1.6066443469784255,0.14620105474902126,-1.309603115763725, ,-0.0043382602075651535,-0.015541588856611657,0.007956449310689312,0.0,-0.002873691263788366,0.003667910520383082, ,0.544511079788208
0.010758758223512833,0.021161372543076224,-0.08256792131948569, ,0.01080575139033435,0.021366436488036895,-0.082861740939715, ,0.0003613717593869859, ,0.0008225750845826181,0.0031732594234808176,-0.007738126484147144,-0.000551484037544263,-0.002778775472276242,0.00017127936128806596, ,0.008403856651748967, ,0.0028329666472354446, ,3.810824169678832e-05, ,0.14544995095314442,-0.2483476437693118,0.09249936553,1.6066443469784255,0.1459277817494904,-1.3091352437359105, ,-0.004506285331502672,-0.01356833593915796,0.008313575949895617,0.0,-0.007500706156570152,0.013977784502317701, ,0.5814831256866455
0.010789972154527585,0.021274985904374974,-0.0828437334264696, ,0.010842815254224465,0.02147357934274127,-0.08313985237548194, ,0.00036044164425312174, ,0.0011709918048853772,0.003209147658541455,-0.00863961190581882,-0.002623256155341599,-0.000679753636920976,0.0011729587238351333, ,0.009290465240481615, ,0.002709887401224428, ,3.922512469740181e-05, ,0.14532638722715682,-0.24883417594038792,0.09279621594000001,1.6066443469784255,0.14579114524972495,-1.308615432131511, ,-0.001328982983596542,-0.01117702227333575,0.009239449837587009,0.0,-0.0020539978638888443,0.013682991137671293, ,0.613976001739502
0.010831275828108456,0.021381683111902722,-0.08314427067130101, ,0.010883254832877512,0.021575367615673177,-0.08341675572011945, ,0.0003383247046362056, ,0.0013648688778583086,0.0035446710372792865,-0.010364158350618255,-0.00858011057530286,-0.0026594259654550575,0.00024382015108693732, ,0.011038266989566928, ,0.008982801587865154, ,4.005555983007757e-05, ,0.14528005082991147,-0.24916625345397958,0.09311639957000001,1.6066443469784255,0.14565450874995953,-1.308258978007393, ,-0.0023398519495254487,-0.009922545102701151,0.011000560441988952,0.0,-0.0051348353941449805,0.01839944584567584, ,0.6455090045928955
0.01087302905198986,0.021481535152451974,-0.08343419285283658, ,0.01092701426541982,0.021671904494767004,-0.08369245990095654, ,0.00032535635525855733, ,0.0013484186398376133,0.0030612080571027042,-0.008578855186030453,0.011264615622606585,-0.004281128041300304,-0.0004164475179175773, ,0.009207930489529862, ,0.012050708525388074, ,4.070958287837059e-05, ,0.14527232809703725,-0.24945199457032588,0.09342491659,1.606434657034941,0.14565450874995953,-1.3080139417869714, ,0.0006752946493640623,-0.009478902596262837,0.009165023889528194,0.0008329176126930294,-0.003938749136298549,-0.0017669237923780465, ,0.677058219909668
0.010910344238754048,0.021570381693952805,-0.08368047214461194, ,0.010974038133544434,0.02176329232299662,-0.08396697374857191, ,0.0003512187240214944, ,0.001040468650348736,0.002527925398518644,-0.007543463251253047,-0.006576604391234216,-0.005182079653323331,0.023934577929503806, ,0.008023516663897405, ,0.008372911705380758, ,4.149606248683581e-05, ,0.14527232809703725,-0.24972229022092374,0.09368806346000001,1.6072734168088794,0.14551787225019408,-1.3079025238832749, ,-0.0007273915768619115,-0.006876532789042363,0.008004427899497488,-0.023876224565132824,0.0,0.010031578917732379, ,0.7084619998931885
0.010934330937502025,0.021626998008817008,-0.0838489305397572, ,0.011024271460074472,0.0218496326011487,-0.08424030599725099, ,0.00045916250721479793, ,0.0013489221372038295,0.0028998886660368643,-0.009033404696633093,-0.00585960310561514,-0.005744323038054061,0.021956614159679862, ,0.009582867296420234, ,0.008205616099224189, ,4.32810425916629e-05, ,0.1452877735627857,-0.24993852674140205,0.09395250662000001,1.6072734168088794,0.14538123575042863,-1.3075460697591568, ,0.0010017004288418877,-0.006758969444531621,0.00876654458998349,-0.018251037830151664,-0.001169382258074657,0.005732280294055051, ,0.735321044921875
0.01098104083957538,0.02171643638201821,-0.08413311759103133, ,0.011077659707525703,0.021931025990595526,-0.08451246528544376, ,0.00044641749406737545, ,0.0016770220084295281,0.0033390741912032082,-0.011086115191179781,0.003917511923038038,0.00039069295017076563,0.015147585295039054, ,0.011698878976347412, ,0.003936924331748751, ,4.4856469174601675e-05, ,0.14529549629565994,-0.2500466450016412,0.09416769076,1.6072734168088794,0.14524459925066321,-1.3074346518554605, ,0.0011896309851625322,-0.005451826299024955,0.01169516264317181,-0.013644291379718775,0.005118762721409506,-0.0004358000056247989, ,0.7617630958557129
0.01103504087776593,0.02182295619253003,-0.08448851321817395, ,0.011134148776668743,0.022007572316066055,-0.08478346015622132, ,0.0003617999239329873, ,0.0015722924677823438,0.003122324734033346,-0.010792044832804206,0.0033735667006663255,0.0016439990811905703,0.011325065254313912, ,0.011344128305967694, ,0.0037528041342896746, ,4.5767181612084974e-05, ,0.1453186644942826,-0.2502088223919999,0.09454231857,1.6072734168088794,0.14524459925066321,-1.30735297311532, ,0.0004177751602445915,-0.003825596648403635,0.011345307350427351,-0.010016550570709505,0.004690177668586755,-0.0009924652829740531, ,0.7882370948791504
0.011068404301233396,0.02188540196339909,-0.08470281190680083, ,0.011193685005090966,0.02207937056841898,-0.08505329905773198, ,0.00041971456665244227, ,0.0016813697333691153,0.0030441792164305993,-0.011144898031669308,0.004062691464489196,0.000894232716084916,0.00960306027435286, ,0.011674878304219885, ,0.004159920930106111, ,4.729392896824047e-05, ,0.14534183269290527,-0.25028604972074214,0.09476787303,1.6072734168088794,0.14524459925066321,-1.3072712943751794, ,0.0010258848328985853,-0.0019057925535025768,0.01167801431085044,-0.008650694991392167,0.004193112128247377,-0.003389919014722334, ,0.809298038482666
0.011107820326625512,0.021952962525357347,-0.08494468380068661, ,0.011256215165758348,0.02214651890741383,-0.08532199034365713, ,0.0004492719985536849, ,0.001976696918770765,0.0034665941189591576,-0.012556171160213965,0.00441635353375408,-0.0002268028289627715,0.008523835021060673, ,0.013175053688652238, ,0.004422138166522253, ,4.8929754645477725e-05, ,0.14538816909015062,-0.2503401088508617,0.09502194587000001,1.6072734168088794,0.14524459925066321,-1.3072712943751794, ,0.0019946092797862667,-0.002478106475094245,0.013175195632754346,-0.0075507350793560645,0.0037551761801056624,-0.00302346191945133, ,0.8303391933441162
0.011149869031543488,0.022020079451989052,-0.08520369944229134, ,0.011321686465576623,0.022209114664483137,-0.08558954227366719, ,0.0004627420801316332, ,0.002362057996150644,0.0036411134759052398,-0.01375555294865164,0.00022008476888379537,-0.005305027186351067,0.006761584908310598, ,0.014424016855396307, ,0.005309544073790962, ,5.0567932937193806e-05, ,0.14544995095314442,-0.2503401088508617,0.09529287048000001,1.6072734168088794,0.14538123575042863,-1.307382712278876, ,0.004046249002398636,-0.0009149896337144738,0.014415214045248871,-0.006801656416855312,0.00043999267280055707,-0.0002697811811714685, ,0.8514561653137207
0.011203913910064181,0.022097497539086026,-0.08549913287992765, ,0.011390046543952505,0.02226725434550403,-0.08585596301387638, ,0.0004367956904747483, ,0.0027301937740150067,0.0036052836052652883,-0.013993103185582492,-0.0009008806611185772,-0.008935793610220556,0.00597049039838549, ,0.014705745974972635, ,0.008981061012456796, ,5.228535397130927e-05, ,0.14557351467913202,-0.2503478315837359,0.09560268379,1.6072734168088794,0.14538123575042863,-1.307382712278876, ,0.007836702534235768,0.0002780689131438874,0.014680932276497697,-0.006156771348762376,0.00043999267280055707,-0.0002394553745025931, ,0.8676261901855469
0.011233555504516409,0.022135047230713505,-0.08564613007613173, ,0.01146124347135434,0.02232103363356935,-0.08612126063729693, ,0.0005587323173427569, ,0.0028470572935129896,0.0037075234773069413,-0.01441570348169273,-0.0017251896244525062,-0.009466977359866428,0.005692489159086464, ,0.015154668338152951, ,0.009622853891409947, ,5.4663319979763885e-05, ,0.14565846474074848,-0.2503401088508617,0.09574527569,1.6072734168088794,0.14538123575042863,-1.3073010335387352, ,0.008460972573651002,0.00037637233829458167,0.014748899555555556,-0.0058993083373901824,0.00043999267280055707,0.0005261941644418232, ,0.8835361003875732
0.011296838482248328,0.022216614137041908,-0.08596609519904398, ,0.011535225747873006,0.022370547391759796,-0.08638544312429419, ,0.0005063364669186971, ,0.0036123764151429483,0.0045479677106599736,-0.01787804009433716,0.000813297849800974,-0.008269786919093226,0.0006870074746935596, ,0.018797808150862, ,0.008309572953191086, ,5.665370664824881e-05, ,0.14586697852835254,-0.2503246633851133,0.09609268141,1.6070637268653947,0.14551787225019408,-1.3074124514424317, ,0.011608188569843518,0.0011502434119685938,0.018761851024734984,0.0,0.00344572847630817,-0.0019517194659781434, ,0.8994162082672119
0.011335799559888867,0.02226627560157656,-0.08616119617519802, ,0.011611942301781825,0.02241588966591457,-0.08664851836304067, ,0.0005797603788735935, ,0.003913626384377598,0.004862586464507851,-0.019031173259021095,0.0030292283577223298,-0.009153716038827867,-0.0010656440338247613, ,0.02002864883650894, ,0.009641796787129923, ,5.899541669927079e-05, ,0.14599826498721435,-0.25030921791936483,0.09629749523000002,1.6072734168088794,0.14565450874995953,-1.3074421906059874, ,0.013064006271815911,0.0010407262874867441,0.019985961756587206,0.0018661384389317252,0.003557425437940348,-0.0037956436767626707, ,0.9151711463928223
0.011376342358337413,0.02231266084347304,-0.0863490049364772, ,0.011691342488097233,0.022457153687403354,-0.08691049414996936, ,0.0006598283114294397, ,0.0041656418977464955,0.004546410031432081,-0.018720231637439237,0.0006031379330264815,-0.011823520406348612,-0.0039754206220342925, ,0.019709629350993595, ,0.011838796859266103, ,6.205664538871089e-05, ,0.14614499691182462,-0.2502783269878679,0.09649453131,1.6074831067523636,0.14565450874995953,-1.3073605118658467, ,0.01638414046244316,0.0037196767410805037,0.01964095131935882,0.004495694855646697,0.003557425437940348,-0.003648022472797861, ,0.9258241653442383
0.011413713194071825,0.02235366057048489,-0.08651415897887597, ,0.011773376087138371,0.022494431875896947,-0.08717137819022766, ,0.0007623064008954312, ,0.004247491591310512,0.0044519497332793714,-0.01807468796534847,0.0030496815835603865,-0.013809344293373887,-0.003701166808609823, ,0.019093333556260222, ,0.01414201606833861, ,6.562197002624166e-05, ,0.14630717430218335,-0.25025515878924526,0.09666823417,1.6074831067523636,0.14579114524972495,-1.3073902510294029, ,0.018323410225617065,0.0029912243526864857,0.01900812830548926,0.004311894780587694,0.003554843761940974,-0.005399215049964066, ,0.9363470077514648
0.011461681945066863,0.022402862489694298,-0.08672133843119473, ,0.011857993303087112,0.022527815842139035,-0.08743117809813121, ,0.0008225256139109153, ,0.004721454721982385,0.004714291950581613,-0.019946798360989795,0.018965220563802225,0.0035858809718393985,0.0017076938072932764, ,0.021033103625975734, ,0.01930116513875124, ,6.944120579341532e-05, ,0.1465465790212843,-0.2502010996591257,0.09688601089000001,1.6074831067523636,0.14620105474902126,-1.307724504740492, ,0.022789851478979536,0.0054907654313405664,0.020958962526315794,0.004108215155404026,0.02616870456870242,-0.02381210539963453, ,0.9469890594482422
0.011514871360616701,0.022454574199704612,-0.08694083832031967, ,0.011945144762547408,0.022557396390716515,-0.08768990139761633, ,0.0008699443069200807, ,0.005212315810495144,0.0052845397211449185,-0.022178662053776933,0.028754587942007828,0.012495691912798295,0.00488556311580487, ,0.02338776703040162, ,0.0313522451791315, ,7.343607953840576e-05, ,0.14680915193900793,-0.25013931779613185,0.09711675051000002,1.6074831067523636,0.14647432774855218,-1.307947340547885, ,0.025745236451023,0.005625740657603387,0.023321832386530017,0.003932088207563127,0.03845672381836789,-0.03375910290403842, ,0.9577851295471191
0.011640730066921921,0.02257390249889011,-0.08746219812809547, ,0.012034781513104963,0.02258326352283132,-0.0879475555226933, ,0.0006252487277067984, ,0.005982919950101966,0.005870777948335008,-0.02499154874966645,0.009063935149752124,-0.01095633687615773,0.002474441024373615, ,0.026359796542366167, ,0.014219229550610607, ,7.602189882829758e-05, ,0.14708717032248,-0.25006981320026384,0.09737341593000001,1.607692796695848,0.14674760074808305,-1.3081701763552775, ,0.027363593298290304,0.007097204754422345,0.02624186411861615,0.0006378846765838445,0.016768808627124286,-0.015989970620610913, ,0.9687221050262451
0.011640730066921921,0.02257390249889011,-0.08746219812809547, ,0.012126855021886635,0.02260550643907134,-0.08820414781789936, ,0.0008875841498553853, ,0.006637015000802083,0.005893399755548194,-0.02728149617478124,0.01296208115580086,-0.003580564749570221,0.004615564770744749, ,0.028689059976481815, ,0.013446965425518976, ,8.038513673704536e-05, ,0.14741152510319744,-0.2499539722071505,0.09766378489000001,1.607692796695848,0.1470208737476139,-1.3083930121626706, ,0.03196259399072778,0.013244513825327394,0.028546257204301078,0.0006378846765838445,0.02912575069130319,-0.02596716327574857, ,0.9743301868438721
0.011705719425703646,0.022629853465845357,-0.08772860143327374, ,0.012221317174119038,0.02262421354218043,-0.08845968553875126, ,0.0008946266350784762, ,0.0076424360309474745,0.006384880038917021,-0.03061971386495581,0.03957494028670058,0.023719767636929213,0.013285215249361442, ,0.03219845335990927, ,0.046138664477293395, ,0.00045275034480482616, ,0.14775132534966331,-0.24980724028254023,0.09794248724000001,1.607692796695848,0.1475674197466757,-1.3088386837774562, ,0.04024467411300712,0.01700662035098043,0.031232963764705888,0.0006378846765838445,0.06379020701597185,-0.05415148889718886, ,0.97965407371521
0.011705719425703646,0.022629853465845357,-0.08772860143327374, ,0.012318120271688432,0.02263947243983103,-0.08871417585219821, ,0.0011603810822577731, ,0.0076424360309474745,0.006384880038917021,-0.03061971386495581,0.03957494028670058,0.023719767636929213,0.013285215249361442, ,0.03219845335990927, ,0.046138664477293395, ,0.0004724067541785191, ,0.14775132534966331,-0.24980724028254023,0.09794248724000001,1.607692796695848,0.1475674197466757,-1.3088386837774562, ,0.04024467411300712,0.01700662035098043,0.031232963764705888,0.0006378846765838445,0.06379020701597185,-0.05415148889718886, ,0.9850680828094482
0.011757403216831738,0.022671628570820737,-0.0879369879299893, ,0.01241721703169875,0.022651369947393467,-0.08896762583707343, ,0.0012239195960647442, ,0.008500899038565931,0.0066758445217876584,-0.03382451478415591,0.04018243942814868,0.02754371487177346,0.0038476616339663925, ,0.03550957596095108, ,0.04871591518595405, ,0.000492717912067336, ,0.14803706646600961,-0.24966823109080416,0.09816026396000001,1.6079024866393328,0.14811396574573746,-1.3092843553922417, ,0.04593269194504877,0.023276169133792195,0.03531887254988914,0.011120985135476378,0.07298427106089354,-0.06159537903817132, ,0.9904820919036865
0.011757403216831738,0.022671628570820737,-0.0879369879299893, ,0.012518560585030926,0.0226599920907075,-0.08922004248454782, ,0.0014918863685973848, ,0.008500899038565931,0.0066758445217876584,-0.03382451478415591,0.04018243942814868,0.02754371487177346,0.0038476616339663925, ,0.03550957596095108, ,0.04871591518595405, ,0.0005190118188181268, ,0.14803706646600961,-0.24966823109080416,0.09816026396000001,1.6079024866393328,0.14811396574573746,-1.3092843553922417, ,0.04593269194504877,0.023276169133792195,0.03531887254988914,0.011120985135476378,0.07298427106089354,-0.06159537903817132, ,0.9958550930023193
0.01189803810702981,0.022777498788517512,-0.08846984685941227, ,0.012622104474901589,0.022665424108853312,-0.08947143269858138, ,0.0012409701979213482, ,0.011516663891162281,0.008491544458308463,-0.04326550291784884,0.04764066279877069,0.026716122024325453,0.008446393168262348, ,0.045570205367145504, ,0.05461897403449259, ,0.0005375235721284657, ,0.14882478521918052,-0.24930526264571562,0.09871766866000001,1.608321866526302,0.14920705774386098,-1.3102573773619537, ,0.06499790517703478,0.030097349051211794,0.04525230545454546,0.010096577617352191,0.09207744175307997,-0.07590551880454531, ,1.0011370182037354
0.01189803810702981,0.022777498788517512,-0.08846984685941227, ,0.012727802655421325,0.02266775045692177,-0.08972180329637575, ,0.0015059710561991918, ,0.011516663891162281,0.008491544458308463,-0.04326550291784884,0.04764066279877069,0.026716122024325453,0.008446393168262348, ,0.045570205367145504, ,0.05461897403449259, ,0.000561734759230234, ,0.14882478521918052,-0.24930526264571562,0.09871766866000001,1.608321866526302,0.14920705774386098,-1.3102573773619537, ,0.06499790517703478,0.030097349051211794,0.04525230545454546,0.010096577617352191,0.09207744175307997,-0.07590551880454531, ,1.0063631534576416
0.012023452484747513,0.022864806610805293,-0.08893792460114597, ,0.012835609490153515,0.022667054808785544,-0.08997116100882632, ,0.0013290155193933235, ,0.013265240648478938,0.009102969644032058,-0.04939279034276467,0.05671995961795676,0.038719502628237604,0.012593414952793196, ,0.05194688059591773, ,0.06867357368614349, ,0.0005804489241122605, ,0.1495429993764834,-0.24893457146775286,0.09920636999000002,1.608321866526302,0.1503001497419845,-1.3111487205915253, ,0.07573578735711954,0.04022761405615548,0.0515495518446602,0.010096577617352191,0.115518197680612,-0.09499394665396625, ,1.0116209983825684
0.012023452484747513,0.022864806610805293,-0.08893792460114597, ,0.012945479750672275,0.022663420059869255,-0.09021951248097446, ,0.0015915898704534047, ,0.013265240648478938,0.009102969644032058,-0.04939279034276467,0.05671995961795676,0.038719502628237604,0.012593414952793196, ,0.05194688059591773, ,0.06867357368614349, ,0.0006045237085489544, ,0.1495429993764834,-0.24893457146775286,0.09920636999000002,1.608321866526302,0.1503001497419845,-1.3111487205915253, ,0.07573578735711954,0.04022761405615548,0.0515495518446602,0.010096577617352191,0.115518197680612,-0.09499394665396625, ,1.0169432163238525
0.012163460760346103,0.022958896662177417,-0.08945467337421625, ,0.013057368615121478,0.022656928329920997,-0.09046686427245973, ,0.0013837581222893582, ,0.014847411158797974,0.009276755718371962,-0.05304565807460222,0.04716769018477949,0.025007604300860707,0.004969922220829917, ,0.05586005420105102, ,0.05338306164239426, ,0.0006226454391010567, ,0.15034616359540276,-0.24850209842679627,0.09974562663000001,1.6085315564697864,0.15152987823987346,-1.3122331604649335, ,0.08556983007977528,0.048146596427433165,0.055308373333333334,0.015320383747469819,0.11017946788155907,-0.09249484074221258, ,1.0222971439361572
0.012163460760346103,0.022958896662177417,-0.08945467337421625, ,0.013171231666772497,0.02264766096578217,-0.09071322285797134, ,0.0016420769353505673, ,0.014847411158797974,0.009276755718371962,-0.05304565807460222,0.04716769018477949,0.025007604300860707,0.004969922220829917, ,0.05586005420105102, ,0.05338306164239426, ,0.0006458143367430911, ,0.15034616359540276,-0.24850209842679627,0.09974562663000001,1.6085315564697864,0.15152987823987346,-1.3122331604649335, ,0.08556983007977528,0.048146596427433165,0.055308373333333334,0.015320383747469819,0.11017946788155907,-0.09249484074221258, ,1.0277390480041504
0.012325615608786285,0.023042169548441575,-0.08999707692190259, ,0.01328702489258255,0.022635698544158388,-0.09095859462770146, ,0.0014191697526572907, ,0.01601694932765824,0.0071618527927482896,-0.05151365486811309,0.01063634052899871,-0.009389293771464103,-0.0034539895796152132, ,0.054419586906378103, ,0.01417490118842576, ,0.0006630000126522956, ,0.1513115052046808,-0.24789200252973254,0.10030951278000001,1.6085315564697864,0.15248633373823153,-1.3130947645309492, ,0.0974301248033581,0.06576364626366651,0.053452387651006725,0.015320383747469819,0.0869164813888973,-0.07338184988698626, ,1.0329821109771729
0.012325615608786285,0.023042169548441575,-0.08999707692190259, ,0.013404704681752828,0.02262112087438988,-0.09120298588779575, ,0.001672103958292665, ,0.01601694932765824,0.0071618527927482896,-0.05151365486811309,0.01063634052899871,-0.009389293771464103,-0.0034539895796152132, ,0.054419586906378103, ,0.01417490118842576, ,0.0006849370549488253, ,0.1513115052046808,-0.24789200252973254,0.10030951278000001,1.6085315564697864,0.15248633373823153,-1.3130947645309492, ,0.0974301248033581,0.06576364626366651,0.053452387651006725,0.015320383747469819,0.0869164813888973,-0.07338184988698626, ,1.0384280681610107
0.012481228958779931,0.02310085995955661,-0.09047329299729093, ,0.013524227824286618,0.022604007001222115,-0.09144640286080649, ,0.0015105139198713976, ,0.017032517627241204,0.005351504760923265,-0.04958445305154523,0.05156502769984138,0.0334948059795273,0.00631134231853868, ,0.052700694913343976, ,0.06148621293486133, ,0.0007025025201599439, ,0.15233090594407844,-0.24720467930392656,0.10080339927000001,1.6087412464132707,0.1537160622361205,-1.314260883144498, ,0.11672440536097266,0.07934526886159764,0.05138326296774194,0.018826713401635334,0.1501395239149599,-0.12716500128477704, ,1.0439810752868652
0.01265495517105247,0.023142064738064533,-0.09094148567207372, ,0.013645551509547497,0.022584435207576574,-0.09168885168614462, ,0.0013604366056895838, ,0.018104043086170352,0.0031298436114488505,-0.04483417174665387,0.07548207293975213,0.014739713613697051,0.004795708626688552, ,0.04845260832304589, ,0.07690657539899935, ,0.0007162094802751446, ,0.1535742659368286,-0.24635517868776186,0.10128821173000001,1.6091606263002398,0.15521906373354036,-1.3158948737858616, ,0.1347967919864642,0.08952541656459506,0.04643968373177843,0.0181543901787175,0.14957874389508116,-0.16117033288252983, ,1.0495710372924805
0.01265495517105247,0.023142064738064533,-0.09094148567207372, ,0.01376863332481705,0.0225624830173206,-0.09193033842053082, ,0.001598131333565594, ,0.018104043086170352,0.0031298436114488505,-0.04483417174665387,0.07548207293975213,0.014739713613697051,0.004795708626688552, ,0.04845260832304589, ,0.07690657539899935, ,0.0007342078854443375, ,0.1535742659368286,-0.24635517868776186,0.10128821173000001,1.6091606263002398,0.15521906373354036,-1.3158948737858616, ,0.1347967919864642,0.08952541656459506,0.04643968373177843,0.0181543901787175,0.14957874389508116,-0.16117033288252983, ,1.0549900531768799
0.012847659850994453,0.02316139128794619,-0.09138148700891907, ,0.013893431253852917,0.02253822719803797,-0.09217086903844879, ,0.001450894654526013, ,0.019190640269546772,0.0005964551134210083,-0.040429313303679305,0.014422232533576109,-0.04362059827513436,-0.026294640161399208, ,0.044756740351197796, ,0.04594180417323344, ,0.000748541620825971, ,0.15504158518293126,-0.2453589461469869,0.10174320952000002,1.6093703162437245,0.15658542873119474,-1.317335767783388, ,0.14735549931439562,0.10382597544690457,0.0416984594764398,0.035143989073526595,0.09810356288260973,-0.11167969257328353, ,1.0605390071868896
0.012847659850994453,0.02316139128794619,-0.09138148700891907, ,0.014019903675447011,0.02251174376379987,-0.09241044943259658, ,0.0016896630311801482, ,0.019190640269546772,0.0005964551134210083,-0.040429313303679305,0.014422232533576109,-0.04362059827513436,-0.026294640161399208, ,0.044756740351197796, ,0.04594180417323344, ,0.0007669949818133079, ,0.15504158518293126,-0.2453589461469869,0.10174320952000002,1.6093703162437245,0.15658542873119474,-1.317335767783388, ,0.14735549931439562,0.10382597544690457,0.0416984594764398,0.035143989073526595,0.09810356288260973,-0.11167969257328353, ,1.0657861232757568
0.013046035211062576,0.023154818884980798,-0.0917733137426912, ,0.014148009361983111,0.02248310797793472,-0.09264908541433871, ,0.0015596533566154935, ,0.02051794230750937,-0.001528532873866287,-0.03981499844068513,0.030179307292012566,-0.03259086254776246,-0.022834222420665472, ,0.04481692169384832, ,0.04441683077899112, ,0.0007822384120979652, ,0.15660929995639883,-0.2442314271473501,0.10214635571000001,1.6093703162437245,0.15767852072931826,-1.318472147233381, ,0.16389799923742793,0.12356372598759216,0.040843106461538464,0.035143989073526595,0.12650550065267627,-0.14686325449405213, ,1.0710601806640625
0.013046035211062576,0.023154818884980798,-0.0917733137426912, ,0.014277707477994606,0.022452394355798225,-0.09288678271415869, ,0.0018028394112476376, ,0.02051794230750937,-0.001528532873866287,-0.03981499844068513,0.030179307292012566,-0.03259086254776246,-0.022834222420665472, ,0.04481692169384832, ,0.04441683077899112, ,0.0008014950347234309, ,0.15660929995639883,-0.2442314271473501,0.10214635571000001,1.6093703162437245,0.15767852072931826,-1.318472147233381, ,0.16389799923742793,0.12356372598759216,0.040843106461538464,0.035143989073526595,0.12650550065267627,-0.14686325449405213, ,1.0763001441955566
0.01325745620049457,0.023132474487786,-0.09217980695662631, ,0.014408957578722983,0.02241967666754462,-0.09312354698211067, ,0.001650660895612428, ,0.021033959013234373,-0.0028011439924331364,-0.040162494413465775,0.05005057687063146,0.010622378239774622,-0.006067642185688863, ,0.045423559932577254, ,0.05116434957717832, ,0.0008172203284435975, ,0.15831602392160246,-0.24291083982585773,0.10256246480000002,1.6093703162437245,0.15918152222673815,-1.3200244591346038, ,0.17253989374267414,0.1365423619546342,0.04105363793814434,0.028932860277000576,0.18145063423991126,-0.18042630834472656, ,1.081531047821045
0.01325745620049457,0.023132474487786,-0.09217980695662631, ,0.014541719608674971,0.022385027940896002,-0.09335938378827205, ,0.0018972112016863922, ,0.021033959013234373,-0.0028011439924331364,-0.040162494413465775,0.05005057687063146,0.010622378239774622,-0.006067642185688863, ,0.045423559932577254, ,0.05116434957717832, ,0.000836856526138921, ,0.15831602392160246,-0.24291083982585773,0.10256246480000002,1.6093703162437245,0.15918152222673815,-1.3200244591346038, ,0.17253989374267414,0.1365423619546342,0.04105363793814434,0.028932860277000576,0.18145063423991126,-0.18042630834472656, ,1.0868091583251953
0.013475712276854295,0.023097650763421594,-0.09258973592900707, ,0.01467595390018081,0.022348520463913283,-0.09359429862319528, ,0.0017352009585525098, ,0.02289422492599922,-0.004340239323514199,-0.04149561313311104,0.08658609404542418,0.05083032738308967,0.02419964724028075, ,0.04759064111398837, ,0.10040294235699314, ,0.0008528983910034494, ,0.16013858887991944,-0.24145896604550351,0.10298116647000001,1.609580006187209,0.16136770622298516,-1.32229721803459, ,0.1948602496067162,0.1548074087413879,0.04236386042553192,0.010768854903602397,0.25025925012933853,-0.2377053503169136, ,1.0921621322631836
0.013475712276854295,0.023097650763421594,-0.09258973592900707, ,0.014811621171951915,0.022310225787765963,-0.09382829689836036, ,0.0019846218640064864, ,0.02289422492599922,-0.004340239323514199,-0.04149561313311104,0.08658609404542418,0.05083032738308967,0.02419964724028075, ,0.04759064111398837, ,0.10040294235699314, ,0.0008727531887754324, ,0.16013858887991944,-0.24145896604550351,0.10298116647000001,1.609580006187209,0.16136770622298516,-1.32229721803459, ,0.1948602496067162,0.1548074087413879,0.04236386042553192,0.010768854903602397,0.25025925012933853,-0.2377053503169136, ,1.09747314453125
0.013726047989909191,0.0230541163901719,-0.09304495121265938, ,0.014948682527638812,0.02227021472950279,-0.09406138394662686, ,0.001772702041836056, ,0.025424283229751845,-0.004576006951038963,-0.04542584367092614,0.029140888341689115,-0.00714255192153252,0.004230494770821928, ,0.05225745201000541, ,0.030000233252821824, ,0.0008882695483109605, ,0.16206927209847555,-0.23992214220353283,0.10341412733000001,1.6099993860741781,0.1635538902192322,-1.324406619454295, ,0.2054046354079454,0.1644661032209199,0.04643968373177843,0.017224682557564833,0.19791948302696807,-0.1617511925090233, ,1.1028330326080322
0.013726047989909191,0.0230541163901719,-0.09304495121265938, ,0.015087099454388587,0.02222855737482142,-0.09429356502268676, ,0.0020231275845529555, ,0.025424283229751845,-0.004576006951038963,-0.04542584367092614,0.029140888341689115,-0.00714255192153252,0.004230494770821928, ,0.05225745201000541, ,0.030000233252821824, ,0.0009075044302811637, ,0.16206927209847555,-0.23992214220353283,0.10341412733000001,1.6099993860741781,0.1635538902192322,-1.324406619454295, ,0.2054046354079454,0.1644661032209199,0.04643968373177843,0.017224682557564833,0.19791948302696807,-0.1617511925090233, ,1.1081030368804932
0.013987117049554717,0.02300266253816761,-0.09350311884438768, ,0.015226833821403078,0.022185323080838874,-0.0945248453035155, ,0.001802461211840751, ,0.02731500552445266,-0.005693428565086338,-0.04741856596941423,0.001980284078388702,-0.016713810146787002,-0.05582373206139457, ,0.05501858826089879, ,0.01682359158391946, ,0.0009224203766404901, ,0.16433975556349756,-0.2380764090465932,0.10391449527,1.6106284559046316,0.1656034377157138,-1.3262412454900225, ,0.22120499197778737,0.18214384176289977,0.0484158404863222,0.07407659429447891,0.19247877108995085,-0.16975471754419727, ,1.1133220195770264
0.013987117049554717,0.02300266253816761,-0.09350311884438768, ,0.015367847878496599,0.022140580478861846,-0.09475522988882562, ,0.0020536273192989216, ,0.02731500552445266,-0.005693428565086338,-0.04741856596941423,0.001980284078388702,-0.016713810146787002,-0.05582373206139457, ,0.05501858826089879, ,0.01682359158391946, ,0.0009409647527496448, ,0.16433975556349756,-0.2380764090465932,0.10391449527,1.6106284559046316,0.1656034377157138,-1.3262412454900225, ,0.22120499197778737,0.18214384176289977,0.0484158404863222,0.07407659429447891,0.19247877108995085,-0.16975471754419727, ,1.1187372207641602
0.014249859469205248,0.022942439362232704,-0.09395436613646925, ,0.015510104254653675,0.022094397477156642,-0.09498472380151857, ,0.001835491453540221, ,0.027871326239476236,-0.006683443248867508,-0.046873404711080265,-0.01382311272280723,-0.012865343673913177,-0.03608827319250601, ,0.05494174468668492, ,0.018877744577071837, ,0.000955392602762396, ,0.16647122983678353,-0.23630018048552154,0.10437467822000002,1.6106284559046316,0.16751634871242999,-1.3278010961417723, ,0.22702617597720282,0.18903773218818878,0.04783426882882884,0.055233593427309165,0.20700151758324897,-0.16360045546628524, ,1.1240661144256592
0.014249859469205248,0.022942439362232704,-0.09395436613646925, ,0.015653565956586717,0.02204684126371924,-0.09521333198813695, ,0.002087458472028396, ,0.027871326239476236,-0.006683443248867508,-0.046873404711080265,-0.01382311272280723,-0.012865343673913177,-0.03608827319250601, ,0.05494174468668492, ,0.018877744577071837, ,0.0009733619022745547, ,0.16647122983678353,-0.23630018048552154,0.10437467822000002,1.6106284559046316,0.16751634871242999,-1.3278010961417723, ,0.22702617597720282,0.18903773218818878,0.04783426882882884,0.055233593427309165,0.20700151758324897,-0.16360045546628524, ,1.1294810771942139
0.014578281470491642,0.022851534006049626,-0.09447825139098687, ,0.01579819636729409,0.021997978309045575,-0.09544105931931729, ,0.0017730619814841557, ,0.02821501750333488,-0.009130220435349877,-0.04342734407731031,-0.022608881089609244,-0.020899859112500353,0.031067872582286517, ,0.05258690285157202, ,0.030786541782626808, ,0.0009858572160122048, ,0.16918190907563632,-0.23403741975337378,0.10490874970000001,1.610838145848116,0.16997580570820792,-1.329806618408308, ,0.23547628178280589,0.20233889458096116,0.044124131634349036,-0.014015538989271485,0.2239548231449556,-0.17904036125230358, ,1.1347830295562744
0.014578281470491642,0.022851534006049626,-0.09447825139098687, ,0.01594395924461742,0.021947874368901093,-0.09566791059024207, ,0.0020240962262019794, ,0.02821501750333488,-0.009130220435349877,-0.04342734407731031,-0.022608881089609244,-0.020899859112500353,0.031067872582286517, ,0.05258690285157202, ,0.030786541782626808, ,0.0010018301238612782, ,0.16918190907563632,-0.23403741975337378,0.10490874970000001,1.610838145848116,0.16997580570820792,-1.329806618408308, ,0.23547628178280589,0.20233889458096116,0.044124131634349036,-0.014015538989271485,0.2239548231449556,-0.17904036125230358, ,1.1400370597839355
0.014872523710435855,0.022753318855166925,-0.09492175836938094, ,0.016090818719800275,0.02189659448709172,-0.0958938905210928, ,0.0017785556761282608, ,0.02859883565106495,-0.010187391773392304,-0.04239324755492608,-0.01874153668071242,-0.01313704234497865,0.017547064020800276, ,0.05214272518764675, ,0.022884277430407902, ,0.0010135986928350204, ,0.17165318359538817,-0.23192911367871047,0.10535985862000001,1.6106284559046316,0.17243526270398585,-1.3318121406748435, ,0.23963874130926963,0.20902410034905458,0.04305084194594595,0.0,0.23267590203959704,-0.1872123478814078, ,1.1453311443328857
0.014872523710435855,0.022753318855166925,-0.09492175836938094, ,0.016238739296045357,0.02184420299823334,-0.09611900375750164, ,0.002031362396783669, ,0.02859883565106495,-0.010187391773392304,-0.04239324755492608,-0.01874153668071242,-0.01313704234497865,0.017547064020800276, ,0.05214272518764675, ,0.022884277430407902, ,0.0010287891958790302, ,0.17165318359538817,-0.23192911367871047,0.10535985862000001,1.6106284559046316,0.17243526270398585,-1.3318121406748435, ,0.23963874130926963,0.20902410034905458,0.04305084194594595,0.0,0.23267590203959704,-0.1872123478814078, ,1.1510581970214844
0.015155122229434916,0.02265041963659518,-0.09532966374078082, ,0.016387685847072037,0.021790763530521538,-0.09634325487100495, ,0.0018126192847648505, ,0.029741270694675834,-0.010947120813099214,-0.0419260050814433,-0.018666241108178185,-0.0182747027297172,0.016993337931460788, ,0.05255637486280597, ,0.026120179420043684, ,0.0010403161089508805, ,0.17403178532064933,-0.22987486673416677,0.10577467142000001,1.6106284559046316,0.17475808319999833,-1.3337062450376826, ,0.2503877085975482,0.21421431503040805,0.04270458852546917,0.0,0.23828971176805738,-0.19236360178818207, ,1.1566290855407715
0.015420371122127572,0.0225477957923905,-0.09569931560849552, ,0.01653762361567523,0.021736339008502425,-0.09656664835949502, ,0.0016306383251392055, ,0.030008749956045074,-0.011667953508296828,-0.041611166253128946,-0.02710887788208179,-0.02359563487576411,0.011904561813771367, ,0.05261326230088521, ,0.03593773076675008, ,0.0010488715033883924, ,0.176255932388426,-0.2279287380498622,0.10615059552000002,1.610838145848116,0.17680763069647995,-1.335377513593129, ,0.2510501099430444,0.2191615278486623,0.04236386042553192,0.0022262368248357834,0.23290183230929842,-0.18832115185815823, ,1.16190505027771
0.015420371122127572,0.0225477957923905,-0.09569931560849552, ,0.01668851821228209,0.021680991655841766,-0.09678918864767307, ,0.0018834462283090156, ,0.030008749956045074,-0.011667953508296828,-0.041611166253128946,-0.02710887788208179,-0.02359563487576411,0.011904561813771367, ,0.05261326230088521, ,0.03593773076675008, ,0.0010607939994586872, ,0.176255932388426,-0.2279287380498622,0.10615059552000002,1.610838145848116,0.17680763069647995,-1.335377513593129, ,0.2510501099430444,0.2191615278486623,0.04236386042553192,0.0022262368248357834,0.23290183230929842,-0.18832115185815823, ,1.167262077331543
0.015759497785174995,0.0224164313715871,-0.09617624324203539, ,0.01684033561351074,0.02162478299809578,-0.09701088008750168, ,0.0015784600793884234, ,0.029939805443028763,-0.011942828141405234,-0.04236287425172145,-0.008779618948377605,0.0037218121529989778,0.007966873355132374, ,0.053231909686284225, ,0.00952875433481276, ,0.0010680850710069933, ,0.17907472988751794,-0.22544974079723612,0.10663670427000001,1.6110478357916007,0.17954036069178875,-1.3376058716670574, ,0.24842131298029,0.22172182607119342,0.04316751089430895,0.010112478813726731,0.25629511664138793,-0.20769206478494726, ,1.1726441383361816
0.015759497785174995,0.0224164313715871,-0.09617624324203539, ,0.01699304216072755,0.021567773865480425,-0.09723172695865742, ,0.0018319107961859943, ,0.029939805443028763,-0.011942828141405234,-0.04236287425172145,-0.008779618948377605,0.0037218121529989778,0.007966873355132374, ,0.053231909686284225, ,0.00952875433481276, ,0.0010786937616344796, ,0.17907472988751794,-0.22544974079723612,0.10663670427000001,1.6110478357916007,0.17954036069178875,-1.3376058716670574, ,0.24842131298029,0.22172182607119342,0.04316751089430895,0.010112478813726731,0.25629511664138793,-0.20769206478494726, ,1.1778881549835205
0.016076584418297558,0.022287433369089376,-0.09661781851971138, ,0.01714660455860571,0.02151002439564213,-0.09745173346898388, ,0.0015635606656863473, ,0.029821923860412894,-0.012700622763637391,-0.04010988885735008,-0.05166545123861439,-0.042739639608189016,-0.012997790755917915, ,0.051569915119859026, ,0.06705141185091129, ,0.0010853357740187516, ,0.18166956813325735,-0.22310203000347187,0.10708651690000001,1.6112575257350852,0.18186318118780123,-1.3394999760298965, ,0.24395100657704571,0.2222410809331868,0.040843106461538464,0.018271113771638696,0.20214041160793805,-0.1637328057121009, ,1.1831421852111816
0.016076584418297558,0.022287433369089376,-0.09661781851971138, ,0.017300989873682157,0.021451594036426824,-0.09767090375494343, ,0.001818456659330954, ,0.029821923860412894,-0.012700622763637391,-0.04010988885735008,-0.05166545123861439,-0.042739639608189016,-0.012997790755917915, ,0.051569915119859026, ,0.06705141185091129, ,0.001095242813009457, ,0.18166956813325735,-0.22310203000347187,0.10708651690000001,1.6112575257350852,0.18186318118780123,-1.3394999760298965, ,0.24395100657704571,0.2222410809331868,0.040843106461538464,0.018271113771638696,0.20214041160793805,-0.1637328057121009, ,1.188401222229004
0.016358762329759205,0.022165287066041307,-0.09699578589145742, ,0.01745616553291616,0.021392541548650595,-0.09788924188207113, ,0.0016123563601481202, ,0.030436276077245774,-0.013278536098746753,-0.040392690316897246,-0.07068597565872488,-0.06199893083385528,-0.018631562837602225, ,0.05229011238669132, ,0.09402269435229814, ,0.001102137660304639, ,0.18397094252977628,-0.22099372392880856,0.10747151503,1.6112575257350852,0.1837760921845174,-1.3410598266816465, ,0.24584699885614195,0.22702617597720282,0.041159719689922485,0.018271113771638696,0.18428466139502847,-0.14930452784493997, ,1.1937050819396973
0.016358762329759205,0.022165287066041307,-0.09699578589145742, ,0.017612099322247228,0.021332925008869425,-0.0981067518454262, ,0.0018702741942923957, ,0.030436276077245774,-0.013278536098746753,-0.040392690316897246,-0.07068597565872488,-0.06199893083385528,-0.018631562837602225, ,0.05229011238669132, ,0.09402269435229814, ,0.0011122447199623728, ,0.18397094252977628,-0.22099372392880856,0.10747151503,1.6112575257350852,0.1837760921845174,-1.3410598266816465, ,0.24584699885614195,0.22702617597720282,0.041159719689922485,0.018271113771638696,0.18428466139502847,-0.14930452784493997, ,1.1994311809539795
0.01670030768259046,0.022019699762246124,-0.0974498866916994, ,0.0177687593851529,0.021272801812149262,-0.09832343757004558, ,0.0015692471843616112, ,0.03011548656921651,-0.012968875711490545,-0.04001132826589343,-0.05277751537665594,-0.04561040005478924,-0.012591792896315101, ,0.05173046160746907, ,0.06975437031044804, ,0.0011181798169026225, ,0.18671251270012598,-0.21849155847755983,0.10793558685000001,1.6112575257350852,0.185825639680999,-1.3428944527173738, ,0.24208403458793568,0.22120499197778737,0.04094810159383034,0.015186372544761096,0.19784306555628425,-0.1619223394427901, ,1.2049791812896729
0.01670030768259046,0.022019699762246124,-0.0974498866916994, ,0.017926114221206286,0.02121222867483553,-0.09853930291139662, ,0.0018279603187314338, ,0.03011548656921651,-0.012968875711490545,-0.04001132826589343,-0.05277751537665594,-0.04561040005478924,-0.012591792896315101, ,0.05173046160746907, ,0.06975437031044804, ,0.001127279566926069, ,0.18671251270012598,-0.21849155847755983,0.10793558685000001,1.6112575257350852,0.185825639680999,-1.3428944527173738, ,0.24208403458793568,0.22120499197778737,0.04094810159383034,0.015186372544761096,0.19784306555628425,-0.1619223394427901, ,1.2102420330047607
0.01700464973696471,0.021891282301015384,-0.09785157268592581, ,0.018084132684634813,0.021151261637323577,-0.09875435165582919, ,0.0015899446171175867, ,0.030489121670161327,-0.012764385293082112,-0.040242289704973476,-0.05199987555420166,-0.051420161113226615,-0.011936233648005192, ,0.052076462560615294, ,0.07312943653177836, ,0.0011331360865487463, ,0.1891451735555067,-0.21629830234128006,0.10834780707000001,1.6112575257350852,0.18773855067771517,-1.3444543033691239, ,0.2427031753413575,0.21815388864016272,0.04137353641558442,0.01309746451236363,0.1929231367579248,-0.1599728220827639, ,1.2154731750488281
0.01700464973696471,0.021891282301015384,-0.09785157268592581, ,0.01824278398287747,0.021089956066828085,-0.0989685875210292, ,0.0018500871023656702, ,0.030489121670161327,-0.012764385293082112,-0.040242289704973476,-0.05199987555420166,-0.051420161113226615,-0.011936233648005192, ,0.052076462560615294, ,0.07312943653177836, ,0.001142097974246458, ,0.1891451735555067,-0.21629830234128006,0.10834780707000001,1.6112575257350852,0.18773855067771517,-1.3444543033691239, ,0.2427031753413575,0.21815388864016272,0.04137353641558442,0.01309746451236363,0.1929231367579248,-0.1599728220827639, ,1.2207071781158447
0.017308825258819226,0.02176594245278305,-0.09826095397551401, ,0.018402037675143434,0.021028366660153747,-0.09918201415647086, ,0.001608565601404686, ,0.030587589943253626,-0.012486503436042223,-0.041800559650369655,-0.044733866453584806,-0.04678362973132611,-0.017305496240267525, ,0.053280392394191654, ,0.0647278858078317, ,0.0011478568338410039, ,0.1915392207465163,-0.21412821440362298,0.10876910132,1.6116769056220543,0.18965146167443137,-1.3463408689814358, ,0.23843452652882108,0.21715547267384616,0.04305084194594595,0.01786554125079539,0.19226391396180864,-0.16518471356019326, ,1.2259821891784668
0.017308825258819226,0.02176594245278305,-0.09826095397551401, ,0.01856186367096915,0.020966547446463896,-0.09939463514386987, ,0.0018693235755042246, ,0.030587589943253626,-0.012486503436042223,-0.041800559650369655,-0.044733866453584806,-0.04678362973132611,-0.017305496240267525, ,0.053280392394191654, ,0.0647278858078317, ,0.0011566552087393359, ,0.1915392207465163,-0.21412821440362298,0.10876910132,1.6116769056220543,0.18965146167443137,-1.3463408689814358, ,0.23843452652882108,0.21715547267384616,0.04305084194594595,0.01786554125079539,0.19226391396180864,-0.16518471356019326, ,1.2313220500946045
0.017627592323563625,0.02163690603697788,-0.09868903577288402, ,0.018722232228777377,0.020904551790051972,-0.09960645399763607, ,0.0016050655638272214, ,0.030855599670606384,-0.012537746316915014,-0.04143281345828585,-0.004017411059349612,-0.0585517722242013,-0.018275294486367666, ,0.05315958187203088, ,0.058688393404475424, ,0.001162057743137985, ,0.19401821799914235,-0.2118963446029721,0.10921113621000002,1.6120962855090233,0.1915643726711475,-1.3484724708141695, ,0.23843452652882108,0.2151858085226095,0.042819385806451615,0.015735222101245193,0.18068025183577674,-0.20416566076698792, ,1.236687183380127
0.017627592323563625,0.02163690603697788,-0.09868903577288402, ,0.01888311395443417,0.02084243239310993,-0.09981747416532595, ,0.0018657159864035016, ,0.030855599670606384,-0.012537746316915014,-0.04143281345828585,-0.004017411059349612,-0.0585517722242013,-0.018275294486367666, ,0.05315958187203088, ,0.058688393404475424, ,0.001170434626986384, ,0.19401821799914235,-0.2118963446029721,0.10921113621000002,1.6120962855090233,0.1915643726711475,-1.3484724708141695, ,0.23843452652882108,0.2151858085226095,0.042819385806451615,0.015735222101245193,0.18068025183577674,-0.20416566076698792, ,1.2420110702514648
0.017672750521499796,0.021617730781677377,-0.09875071280321843, ,0.019044479799808237,0.02078024129849962,-0.10002769902809601, ,0.002052735654176895, ,0.030667149762787692,-0.012517205841303766,-0.041449508028729064,-0.007173899644686532,-0.05805658011439883,-0.018699828365873014, ,0.053058611294214, ,0.058497085249473335, ,0.0011808146390709783, ,0.19436574097848247,-0.21157198982225467,0.10927465442,1.6120962855090233,0.1918376456706784,-1.3487769853617033, ,0.23606204367778796,0.2146989628019701,0.042819385806451615,0.015735222101245193,0.17875353808135055,-0.20051393232656506, ,1.2473831176757812
0.017672750521499796,0.021617730781677377,-0.09875071280321843, ,0.019206301061326904,0.02071802989252091,-0.10023713190115496, ,0.0023174729087658006, ,0.030644018269585217,-0.011231456766696367,-0.04187696719560183,-0.01736027622445145,-0.08377008656393845,0.018952195128055, ,0.05309314323253384, ,0.08554927121436204, ,0.0011940315956953367, ,0.19879858964828734,-0.20758705965915483,0.11012502066000002,1.6123059754525078,0.19511692166504896,-1.352839553632807, ,0.2286673290565561,0.19936332260182937,0.043640579506849325,-0.027215649399542362,0.15391833622434872,-0.18333424930867442, ,1.2527310848236084
0.01826167460145994,0.021393478463040023,-0.09957074229570528, ,0.01936854937853646,0.02065584890768336,-0.10044577603421757, ,0.0015921536284538198, ,0.030644018269585217,-0.011231456766696367,-0.04187696719560183,-0.01736027622445145,-0.08377008656393845,0.018952195128055, ,0.05309314323253384, ,0.08554927121436204, ,0.0011986077110143997, ,0.19879858964828734,-0.20758705965915483,0.11012502066000002,1.6123059754525078,0.19511692166504896,-1.352839553632807, ,0.2286673290565561,0.19936332260182937,0.043640579506849325,-0.027215649399542362,0.15391833622434872,-0.18333424930867442, ,1.2582871913909912
0.018542169516429858,0.021285709244909124,-0.099943801837543, ,0.019531196732658938,0.02059374842547515,-0.10065363461195663, ,0.0014003025307787324, ,0.03007414556707236,-0.011900586694803074,-0.03988994197135649,0.024275632349151595,-0.061835451326568064,-0.026459386515969432, ,0.05135450969241329, ,0.0664291228884097, ,0.0012008996976026307, ,0.2008991729900764,-0.20574132650221516,0.11051390766000001,1.6120962855090233,0.19648328666270337,-1.3546071625908955, ,0.22594509894873996,0.2010528422848957,0.04158958621409923,0.02125247919435028,0.16329552820552368,-0.21717811256292963, ,1.2637670040130615
0.018542169516429858,0.021285709244909124,-0.099943801837543, ,0.019694215445149252,0.020531777879132396,-0.10086071075445563, ,0.001654189918992004, ,0.03007414556707236,-0.011900586694803074,-0.03988994197135649,0.024275632349151595,-0.061835451326568064,-0.026459386515969432, ,0.05135450969241329, ,0.0664291228884097, ,0.0012059928461575675, ,0.2008991729900764,-0.20574132650221516,0.11051390766000001,1.6120962855090233,0.19648328666270337,-1.3546071625908955, ,0.22594509894873996,0.2010528422848957,0.04158958621409923,0.02125247919435028,0.16329552820552368,-0.21717811256292963, ,1.2691161632537842
0.018847266449262445,0.02116131652073054,-0.10034790861115842, ,0.019857578176256458,0.02046998605641107,-0.10106700751766294, ,0.0014197784453687861, ,0.029101809217179336,-0.011849247230561294,-0.03810782351071534,-0.023169627790284412,-0.04427640145849007,-0.019303867723672256, ,0.04939155972803347, ,0.04997150200218907, ,0.0012083682417043588, ,0.20319282465372107,-0.2036793568247972,0.11093520191000002,1.6120962855090233,0.1982595611596541,-1.3565456677797925, ,0.2191615278486623,0.19526119662236785,0.039822028800000006,0.01685237086924375,0.17521192014416376,-0.1648045580444429, ,1.274388074874878
0.018847266449262445,0.02116131652073054,-0.10034790861115842, ,0.020021257923577347,0.020408421102353972,-0.10127252789384297, ,0.0016733285124830135, ,0.029101809217179336,-0.011849247230561294,-0.03810782351071534,-0.023169627790284412,-0.04427640145849007,-0.019303867723672256, ,0.04939155972803347, ,0.04997150200218907, ,0.001213477695229399, ,0.20319282465372107,-0.2036793568247972,0.11093520191000002,1.6120962855090233,0.1982595611596541,-1.3565456677797925, ,0.2191615278486623,0.19526119662236785,0.039822028800000006,0.01685237086924375,0.17521192014416376,-0.1648045580444429, ,1.2796351909637451
0.019146168656711152,0.02103599590626052,-0.10073172510703599, ,0.020185228020618562,0.020347130522063422,-0.10147727481203069, ,0.0014525922490108399, ,0.02847728483855455,-0.01242766780232771,-0.035206898620323224,0.04910798569878385,-0.005707349002843771,-0.008294387388344713, ,0.04695666501406269, ,0.04943798134338291, ,0.0012160767664661537, ,0.2054710308516173,-0.2016637235446246,0.11133705181000002,1.6120962855090233,0.20030910865613571,-1.3584619725556604, ,0.22069056176388552,0.19366722767034852,0.036957799350348035,0.013873573610727857,0.2167276764060581,-0.23601777830546056, ,1.284872055053711
0.019146168656711152,0.02103599590626052,-0.10073172510703599, ,0.02034946213535243,0.020286161183469324,-0.1016812511384833, ,0.0017063900467478273, ,0.02847728483855455,-0.01242766780232771,-0.035206898620323224,0.04910798569878385,-0.005707349002843771,-0.008294387388344713, ,0.04695666501406269, ,0.04943798134338291, ,0.0012213489522756341, ,0.2054710308516173,-0.2016637235446246,0.11133705181000002,1.6120962855090233,0.20030910865613571,-1.3584619725556604, ,0.22069056176388552,0.19366722767034852,0.036957799350348035,0.013873573610727857,0.2167276764060581,-0.23601777830546056, ,1.2901151180267334
0.019432580857935144,0.020913148446067734,-0.1010874718082624, ,0.020513934268776162,0.020225559320100048,-0.10188445967713365, ,0.001509070465026219, ,0.028536835568132284,-0.011848206919512683,-0.03566903355052365,0.014126037517795844,0.017788098218134183,-0.0011293395289554851, ,0.04719121682981474, ,0.02271351220837847, ,0.0012244098194325553, ,0.20761795059065172,-0.19981026765481075,0.11169871672000001,1.6120962855090233,0.2026319291521482,-1.3606011131389213, ,0.22120499197778737,0.18828758245728333,0.03783565681710214,0.011906190024156361,0.2408879926998181,-0.22281769681417182, ,1.2954661846160889
0.019432580857935144,0.020913148446067734,-0.1010874718082624, ,0.020678618753468613,0.020165370533851232,-0.10208690317004296, ,0.0017637021545643381, ,0.028536835568132284,-0.011848206919512683,-0.03566903355052365,0.014126037517795844,0.017788098218134183,-0.0011293395289554851, ,0.04719121682981474, ,0.02271351220837847, ,0.001230086580854995, ,0.20761795059065172,-0.19981026765481075,0.11169871672000001,1.6120962855090233,0.2026319291521482,-1.3606011131389213, ,0.22120499197778737,0.18828758245728333,0.03783565681710214,0.011906190024156361,0.2408879926998181,-0.22281769681417182, ,1.3008601665496826
0.019719214213475673,0.020800270489647683,-0.1014525883029689, ,0.02084349025214949,0.02010563979775655,-0.10228858429785398, ,0.001563776746443413, ,0.029199270213191644,-0.011138159973446722,-0.037551367072300376,0.020269256351771126,0.01791131724472777,0.011002452879982702, ,0.048854489635812556, ,0.02704779790454204, ,0.0012335625200798745, ,0.20988843405567373,-0.19790275263487728,0.11209797404,1.6123059754525078,0.2050913861479261,-1.362606635405457, ,0.22172182607119342,0.18355307844965332,0.039822028800000006,0.0,0.24457236840753568,-0.19987809207294407, ,1.3062381744384766
0.019719214213475673,0.020800270489647683,-0.1014525883029689, ,0.02100852375623788,0.020046411458757702,-0.10248950568024397, ,0.0018181914593372941, ,0.029199270213191644,-0.011138159973446722,-0.037551367072300376,0.020269256351771126,0.01791131724472777,0.011002452879982702, ,0.048854489635812556, ,0.02704779790454204, ,0.0012395896225464457, ,0.20988843405567373,-0.19790275263487728,0.11209797404,1.6123059754525078,0.2050913861479261,-1.362606635405457, ,0.22172182607119342,0.18355307844965332,0.039822028800000006,0.0,0.24457236840753568,-0.19987809207294407, ,1.3115770816802979
0.020016963545086894,0.020692391180364013,-0.10184548799540895, ,0.021173694584408435,0.01998772924047314,-0.10268966987637669, ,0.0015960006876611593, ,0.02983158705715228,-0.010385920612337195,-0.04061735990339223,0.04690772165950585,0.04626120534135042,-0.0023228290622899946, ,0.0514544542176469, ,0.06588112719887491, ,0.001243226470149657, ,0.21212802658919883,-0.19606474221081185,0.11251537942,1.612725355339477,0.20768747964346948,-1.364723575575689, ,0.22172182607119342,0.181447306995164,0.04316751089430895,0.01866912044980432,0.2697604931101755,-0.2204334616305912, ,1.3168292045593262
0.020016963545086894,0.020692391180364013,-0.10184548799540895, ,0.021338978381152545,0.019929636245969752,-0.10288907938535667, ,0.0018489459986417945, ,0.02983158705715228,-0.010385920612337195,-0.04061735990339223,0.04690772165950585,0.04626120534135042,-0.0023228290622899946, ,0.0514544542176469, ,0.06588112719887491, ,0.0012493448492253353, ,0.21212802658919883,-0.19606474221081185,0.11251537942,1.612725355339477,0.20768747964346948,-1.364723575575689, ,0.22172182607119342,0.181447306995164,0.04316751089430895,0.01866912044980432,0.2697604931101755,-0.2204334616305912, ,1.3220760822296143
0.020317382068854577,0.020590873092689168,-0.1022488026144183, ,0.021504351115333147,0.01987217496053088,-0.10308773664668122, ,0.0016214909290387643, ,0.030645249628473828,-0.009914578014440687,-0.04120808918314461,-0.0355900036114631,-0.053353080418633576,-0.021983963499557228, ,0.05230235937433325, ,0.06413330430418535, ,0.0012530663100234695, ,0.21430583725973015,-0.1942885136497402,0.11294445141000001,1.612725355339477,0.2097370271399511,-1.366394844131135, ,0.21715547267384616,0.17671683716661224,0.043881023471074386,0.017492813650848777,0.16364918997016697,-0.1334449412813869, ,1.3273351192474365
0.020317382068854577,0.020590873092689168,-0.1022488026144183, ,0.021669789078744776,0.019815387254427132,-0.10328564404069329, ,0.0018722775299044464, ,0.03067311342220283,-0.010021817420223546,-0.04069531571755886,-0.0056251668258441865,-0.024124987399402893,0.009768998710057979, ,0.05193635944853479, ,0.02476985877949941, ,0.001259197114180707, ,0.2165608752590037,-0.19247367142429744,0.11339167146000001,1.6129350452829614,0.2115133016369018,-1.367761598139048, ,0.21966884620016383,0.17508660804145898,0.04352134295081967,-0.008223679973719483,0.20104963994579758,-0.16709112082865765, ,1.3329651355743408
0.02063405604796327,0.020487623030423615,-0.1026677145672351, ,0.021835268884672295,0.01975931438568666,-0.10348280388903523, ,0.0016241047883636464, ,0.03067311342220283,-0.010021817420223546,-0.04069531571755886,-0.0056251668258441865,-0.024124987399402893,0.009768998710057979, ,0.05193635944853479, ,0.02476985877949941, ,0.0012627746403981869, ,0.2165608752590037,-0.19247367142429744,0.11339167146000001,1.6129350452829614,0.2115133016369018,-1.367761598139048, ,0.21966884620016383,0.17508660804145898,0.04352134295081967,-0.008223679973719483,0.20104963994579758,-0.16709112082865765, ,1.3389232158660889
0.020679990334616413,0.02047276017899928,-0.10272964213235046, ,0.022000767466446528,0.019703997002863727,-0.10367921845510045, ,0.001799206560035505, ,0.03049262130933227,-0.010023001914762832,-0.040473417349783665,-0.004966655505341384,-0.02257189040977061,0.009816055293315492, ,0.05165615194405651, ,0.023109506673450787, ,0.0012679827172878697, ,0.21688523003972113,-0.19221109850657384,0.11345778225000001,1.6129350452829614,0.21178657463643272,-1.3679844339464409, ,0.21815388864016272,0.17444290727660072,0.043284813913043486,-0.008223679973719483,0.2010765639661955,-0.1671130755619607, ,1.344271183013916
0.020679990334616413,0.02047276017899928,-0.10272964213235046, ,0.022166262076005295,0.01964947514781002,-0.10387488994448789, ,0.002048998409720468, ,0.03049262130933227,-0.010023001914762832,-0.040473417349783665,-0.004966655505341384,-0.02257189040977061,0.009816055293315492, ,0.05165615194405651, ,0.023109506673450787, ,0.00127549248356126, ,0.21688523003972113,-0.19221109850657384,0.11345778225000001,1.6129350452829614,0.21178657463643272,-1.3679844339464409, ,0.21815388864016272,0.17444290727660072,0.043284813913043486,-0.008223679973719483,0.2010765639661955,-0.1671130755619607, ,1.349541187286377
0.021239406473425336,0.02028654456558917,-0.10342763469670917, ,0.02233173028245061,0.019595788258444134,-0.10406982050545341, ,0.0014431625662331407, ,0.029925808681932384,-0.010889588280373877,-0.03491440951975036,0.007936838778356969,-0.012069034191101322,0.012233775658340659, ,0.04725624985434742, ,0.01444309915798685, ,0.0012770893414914685, ,0.22099372392880856,-0.1890833916925129,0.11421092674000001,1.6129350452829614,0.21602230612916135,-1.3715200677011705, ,0.2222410809331868,0.17037152883028864,0.03783565681710214,-0.008223679973719483,0.21577389542450867,-0.17594914347103566, ,1.3549020290374756
0.021239406473425336,0.02028654456558917,-0.10342763469670917, ,0.022497149970604615,0.019542975171520094,-0.10426401222936374, ,0.0016835502741594519, ,0.029925808681932384,-0.010889588280373877,-0.03491440951975036,0.007936838778356969,-0.012069034191101322,0.012233775658340659, ,0.04725624985434742, ,0.01444309915798685, ,0.0012809238785921099, ,0.22099372392880856,-0.1890833916925129,0.11421092674000001,1.6129350452829614,0.21602230612916135,-1.3715200677011705, ,0.2222410809331868,0.17037152883028864,0.03783565681710214,-0.008223679973719483,0.21577389542450867,-0.17594914347103566, ,1.3600962162017822
0.02154097874497265,0.02017695169195714,-0.10377208323604582, ,0.022662499339571436,0.01949107412539937,-0.10445746715114898, ,0.0014825611594462334, ,0.02977949420630393,-0.010529923949525106,-0.03371120132021536,0.009466845581959567,-0.01675242277889574,0.011697211640247113, ,0.04619678200933655, ,0.019241135516590166, ,0.00128280833916084, ,0.2232410391952079,-0.18738439046018351,0.11458555455000001,1.6129350452829614,0.21820849012540838,-1.3732210754201728, ,0.22120499197778737,0.16389799923742793,0.036787093579676675,-0.008095984586036003,0.20983059180590102,-0.17108535554050738, ,1.365347146987915
0.02154097874497265,0.02017695169195714,-0.10377208323604582, ,0.022827756901292615,0.019440122762819284,-0.10465018724975561, ,0.0017233054149772436, ,0.02977949420630393,-0.010529923949525106,-0.03371120132021536,0.009466845581959567,-0.01675242277889574,0.011697211640247113, ,0.04619678200933655, ,0.019241135516590166, ,0.0012868870157887696, ,0.2232410391952079,-0.18738439046018351,0.11458555455000001,1.6129350452829614,0.21820849012540838,-1.3732210754201728, ,0.22120499197778737,0.16389799923742793,0.036787093579676675,-0.008095984586036003,0.20983059180590102,-0.17108535554050738, ,1.3706741333007812
0.021842840263261804,0.020073928028995436,-0.10411704824468847, ,0.02299290147910705,0.019390158133663637,-0.10484217444859927, ,0.0015218377316756166, ,0.030213174103651125,-0.010162926001899279,-0.03453510721497196,0.021926553630388843,-0.006466347768717152,0.012943776455599678, ,0.046997814679910634, ,0.02285909627270801, ,0.0012890425269436949, ,0.22547290899585878,-0.18575489382372212,0.11496277494000001,1.6129350452829614,0.22039467412165545,-1.3750037618793154, ,0.22276277361143376,0.16111535069349878,0.03783565681710214,-0.007107397455940385,0.22161949697963731,-0.18056874887747396, ,1.376009225845337
0.021842840263261804,0.020073928028995436,-0.10411704824468847, ,0.023157912206307803,0.01934121669773221,-0.10503343061601844, ,0.0017623951772609502, ,0.030213174103651125,-0.010162926001899279,-0.03453510721497196,0.021926553630388843,-0.006466347768717152,0.012943776455599678, ,0.046997814679910634, ,0.02285909627270801, ,0.0012933457328556698, ,0.22547290899585878,-0.18575489382372212,0.11496277494000001,1.6129350452829614,0.22039467412165545,-1.3750037618793154, ,0.22276277361143376,0.16111535069349878,0.03783565681710214,-0.007107397455940385,0.22161949697963731,-0.18056874887747396, ,1.3812921047210693
0.022143579403507575,0.01997595617497119,-0.1044655918222333, ,0.023322768524700607,0.01929333432751053,-0.10522395756572588, ,0.0015593518432584854, ,0.030622982067472066,-0.009562794083881465,-0.035577756536775806,0.0400718341929521,0.009863977413036441,0.0008798066994971423, ,0.04790606247214989, ,0.041267335068282444, ,0.0012957421843007402, ,0.227681610597887,-0.18417945631738034,0.11534518049000002,1.612725355339477,0.22271749461766793,-1.3767345087618734, ,0.22381354141148768,0.1568544488569765,0.039137129041769046,0.008642842538756787,0.23624445041757877,-0.19107101100137605, ,1.3865540027618408
0.022143579403507575,0.01997595617497119,-0.1044655918222333, ,0.02348745018316348,0.019246546310940593,-0.10541375705726301, ,0.0017991789058003774, ,0.030622982067472066,-0.009562794083881465,-0.035577756536775806,0.0400718341929521,0.009863977413036441,0.0008798066994971423, ,0.04790606247214989, ,0.041267335068282444, ,0.0013002371550284153, ,0.227681610597887,-0.18417945631738034,0.11534518049000002,1.612725355339477,0.22271749461766793,-1.3767345087618734, ,0.22381354141148768,0.1568544488569765,0.039137129041769046,0.008642842538756787,0.23624445041757877,-0.19107101100137605, ,1.3918190002441406
0.022446316706731147,0.019884364619935146,-0.10482922405294043, ,0.023651937236202434,0.01920088735418943,-0.10560283079645233, ,0.0015871765583831416, ,0.03227900928414697,-0.009240258850122493,-0.040247291997203845,0.042353328719807036,0.016345318472051323,0.002115463780131016, ,0.05241336983148004, ,0.04539678716475875, ,0.001302776441783767, ,0.2298594212684183,-0.18264263247540966,0.11574443781000002,1.612725355339477,0.22504031511368042,-1.3785469343845722, ,0.22811764797709322,0.16111535069349878,0.044124131634349036,0.00776843004083689,0.24731025322105352,-0.19762241538556125, ,1.3972911834716797
0.022446316706731147,0.019884364619935146,-0.10482922405294043, ,0.023816210042511537,0.019156391584420337,-0.10579118043585019, ,0.0018253527260431062, ,0.03227900928414697,-0.009240258850122493,-0.040247291997203845,0.042353328719807036,0.016345318472051323,0.002115463780131016, ,0.05241336983148004, ,0.04539678716475875, ,0.00130736044427727, ,0.2298594212684183,-0.18264263247540966,0.11574443781000002,1.612725355339477,0.22504031511368042,-1.3785469343845722, ,0.22811764797709322,0.16111535069349878,0.044124131634349036,0.00776843004083689,0.24731025322105352,-0.19762241538556125, ,1.4027860164642334
0.02278496645296921,0.019791980802154628,-0.10525160678479303, ,0.023980249263531286,0.01911309255256219,-0.1059788075752, ,0.0015551241886834523, ,0.030942798918826894,-0.008342034912591887,-0.03760136919729808,0.013382211188682474,-0.00844054398629462,0.00161875142814004, ,0.049405559575065774, ,0.015819329746452296, ,0.0013095149116199324, ,0.23223030026080524,-0.18099769037319982,0.11620850963000001,1.6129350452829614,0.22749977210945835,-1.3802257416905452, ,0.21665968392344928,0.14689929033819007,0.04148128,0.003881481650098815,0.21111783981897056,-0.15554343175546445, ,1.4082450866699219
0.023090910971868037,0.01970574330667777,-0.10560330126037386, ,0.02414403586200441,0.019071023236078642,-0.10616571376188441, ,0.001352127739565116, ,0.03156940417421204,-0.009320097643109036,-0.03596926424107954,-0.055984311251928515,-0.024362064995533193,-0.004635419059674048, ,0.048757352984308396, ,0.0610548368985159, ,0.001309882263584977, ,0.2343926654655881,-0.17954581659284563,0.11659869292000001,1.613144735226446,0.22941268310617452,-1.3811321624211708, ,0.22328692131404887,0.15232253861712805,0.03992183338345865,0.006535053238974562,0.20116484947914687,-0.09073238282873104, ,1.4143660068511963
0.023090910971868037,0.01970574330667777,-0.10560330126037386, ,0.02430755110053736,0.01903021604173956,-0.10635190049137949, ,0.0015801743881691144, ,0.03156940417421204,-0.009320097643109036,-0.03596926424107954,-0.055984311251928515,-0.024362064995533193,-0.004635419059674048, ,0.048757352984308396, ,0.0610548368985159, ,0.0013121924526839869, ,0.2343926654655881,-0.17954581659284563,0.11659869292000001,1.613144735226446,0.22941268310617452,-1.3811321624211708, ,0.22328692131404887,0.15232253861712805,0.03992183338345865,0.006535053238974562,0.20116484947914687,-0.09073238282873104, ,1.4196140766143799
0.023418387039924035,0.01960773978116625,-0.1059708290768389, ,0.02447077654015524,0.018990702808389277,-0.1065373692077065, ,0.0013450747212902818, ,0.03130717250011511,-0.009172650219940468,-0.034872461241105546,-0.06985204038184505,-0.05424785391764081,-0.010647114257948209, ,0.04775316863854949, ,0.08844255552782336, ,0.0013124711159772605, ,0.23668631712923277,-0.17797037908650382,0.11700702427000001,1.613144735226446,0.23118895760312522,-1.3818454865079595, ,0.21865654736974832,0.1480451506372399,0.03885075980487805,0.006535053238974562,0.1660202058072165,-0.07261056819447191, ,1.4248881340026855
0.023418387039924035,0.01960773978116625,-0.1059708290768389, ,0.024633694038864,0.01895251480971836,-0.10672212130388589, ,0.0015718558697611503, ,0.03130717250011511,-0.009172650219940468,-0.034872461241105546,-0.06985204038184505,-0.05424785391764081,-0.010647114257948209, ,0.04775316863854949, ,0.08844255552782336, ,0.0013146508197905706, ,0.23668631712923277,-0.17797037908650382,0.11700702427000001,1.613144735226446,0.23118895760312522,-1.3818454865079595, ,0.21865654736974832,0.1480451506372399,0.03885075980487805,0.006535053238974562,0.1660202058072165,-0.07261056819447191, ,1.4301791191101074
0.023667658922743407,0.019535230468430535,-0.10624530784475483, ,0.024796285750203897,0.018915682757031396,-0.10690615812238896, ,0.0014471907171525616, ,0.030872960225347218,-0.009055638450253754,-0.03273688924423126,-0.004164360833374545,-0.01345108435271842,-0.0012636269804417904, ,0.045900415882719946, ,0.01407962966429533, ,0.0013157553189352541, ,0.23845482295743017,-0.17680424642249593,0.11731424500000001,1.613144735226446,0.23282859560031052,-1.3829374651318946, ,0.22172182607119342,0.14291708066034756,0.036872248888888896,0.006101089841153941,0.21066365233597642,-0.13336830296792185, ,1.435603141784668
0.023667658922743407,0.019535230468430535,-0.10624530784475483, ,0.024958534121810712,0.018880236802018426,-0.10708948095559194, ,0.0016757099163242513, ,0.030872960225347218,-0.009055638450253754,-0.03273688924423126,-0.004164360833374545,-0.01345108435271842,-0.0012636269804417904, ,0.045900415882719946, ,0.01407962966429533, ,0.0013187301503186342, ,0.23845482295743017,-0.17680424642249593,0.11731424500000001,1.613144735226446,0.23282859560031052,-1.3829374651318946, ,0.22172182607119342,0.14291708066034756,0.036872248888888896,0.006101089841153941,0.21066365233597642,-0.13336830296792185, ,1.4410641193389893
0.024030632722526667,0.019430556963815026,-0.10662392174793284, ,0.02512042189397561,0.018846206539525047,-0.10727209104622856, ,0.001396148020744371, ,0.029875469302659895,-0.008684562165652762,-0.030414333381860368,0.04694821059146401,0.015432877470979616,0.005300134615426327, ,0.043508584912936514, ,0.04941945122852385, ,0.0013193647230270418, ,0.24109599760041497,-0.17515158158741187,0.11774331699000001,1.6133544251699303,0.23569796209538477,-1.3851138836292383, ,0.21815388864016272,0.1347967919864642,0.03462785113043479,0.00542889365371437,0.23647736748137071,-0.1766305108152223, ,1.4469552040100098
0.024030632722526667,0.019430556963815026,-0.10662392174793284, ,0.025281932098197304,0.018813621010320396,-0.10745398958784261, ,0.0016233831085484807, ,0.029875469302659895,-0.008684562165652762,-0.030414333381860368,0.04694821059146401,0.015432877470979616,0.005300134615426327, ,0.043508584912936514, ,0.04941945122852385, ,0.0013218364172182732, ,0.24109599760041497,-0.17515158158741187,0.11774331699000001,1.6133544251699303,0.23569796209538477,-1.3851138836292383, ,0.21815388864016272,0.1347967919864642,0.03462785113043479,0.00542889365371437,0.23647736748137071,-0.1766305108152223, ,1.4522960186004639
0.024333876525744313,0.01934427804890721,-0.10693649643571505, ,0.0254430480557468,0.018782508703869324,-0.10763517772524103, ,0.0014261843584635321, ,0.030761756876258865,-0.008578737259339442,-0.03193537095605121,-0.01632658626357661,-0.027104804660499075,-0.0033522087124399687, ,0.04516357312236751, ,0.03164165984505575, ,0.0013226779328734768, ,0.24326608553807205,-0.17380010333442258,0.11809850045000002,1.6133544251699303,0.23774750959186638,-1.3862950797438414, ,0.21765353568456597,0.13556705936924396,0.03628430870159454,0.00542889365371437,0.19268457195395103,-0.11402353180826366, ,1.4575390815734863
0.024333876525744313,0.01934427804890721,-0.10693649643571505, ,0.025603753376222116,0.018752897561101173,-0.1078156565549475, ,0.0016538562851668643, ,0.030761756876258865,-0.008578737259339442,-0.03193537095605121,-0.01632658626357661,-0.027104804660499075,-0.0033522087124399687, ,0.04516357312236751, ,0.03164165984505575, ,0.0013253273596918241, ,0.24326608553807205,-0.17380010333442258,0.11809850045000002,1.6133544251699303,0.23774750959186638,-1.3862950797438414, ,0.21765353568456597,0.13556705936924396,0.03628430870159454,0.00542889365371437,0.19268457195395103,-0.11402353180826366, ,1.4627950191497803
0.0246424723574988,0.019263314422540388,-0.10726427735145765, ,0.025764031956105906,0.01872481497717937,-0.10799542712565394, ,0.001443072270605025, ,0.03098958705738342,-0.00759749010922205,-0.03354259638661794,-0.05440763552104504,-0.028225231650932076,-0.0030593070279135515, ,0.04629451516435212, ,0.06129283844306776, ,0.00132626184311177, ,0.24541300527710647,-0.1724795160129302,0.11847053568000002,1.6133544251699303,0.23952378408881708,-1.3870900825707704, ,0.21421431503040805,0.12858664167814468,0.038107204593301434,0.00542889365371437,0.18801492474993917,-0.06910029487573852, ,1.4681131839752197
0.0246424723574988,0.019263314422540388,-0.10726427735145765, ,0.025923867977327823,0.018698287804272802,-0.10817449043867541, ,0.0016702447958339547, ,0.03098958705738342,-0.00759749010922205,-0.03354259638661794,-0.05440763552104504,-0.028225231650932076,-0.0030593070279135515, ,0.04629451516435212, ,0.06129283844306776, ,0.0013289703702985588, ,0.24541300527710647,-0.1724795160129302,0.11847053568000002,1.6133544251699303,0.23952378408881708,-1.3870900825707704, ,0.21421431503040805,0.12858664167814468,0.038107204593301434,0.00542889365371437,0.18801492474993917,-0.06910029487573852, ,1.4736371040344238
0.02495531242929902,0.019190887892226838,-0.1076147058592708, ,0.026083245905817953,0.018673342354324194,-0.10835284744840123, ,0.0014439322410899447, ,0.03010538120461079,-0.006707348488617971,-0.034593128122415946,0.03543974996028295,0.02614714601928099,0.006652029833950663, ,0.046346596579647396, ,0.04404088535644524, ,0.0013298685099141165, ,0.24757537048188932,-0.17120526508868317,0.11886849671000001,1.6133544251699303,0.2418466045848296,-1.3884124357526255, ,0.20629769904015388,0.12135158767067875,0.03923352591133005,0.00542889365371437,0.23515256430220338,-0.15189002505289212, ,1.4798362255096436
0.02525933403387763,0.01912448261212761,-0.10796137088055237, ,0.02624215049006655,0.01865000440182045,-0.10853049906274867, ,0.0012308390009997635, ,0.030257257823915765,-0.0062058296849956274,-0.03516366886635492,-0.00981302135297814,0.009314847516046436,0.0035503141091493585, ,0.046802751855470455, ,0.013528045345846004, ,0.0013291008393023773, ,0.24965278562505572,-0.17000051876030414,0.11926256887000002,1.6133544251699303,0.24416942508084208,-1.3897347889344807, ,0.20320544230935927,0.1170122583951551,0.03992183338345865,0.00542889365371437,0.21486937664675357,-0.10236513030386203, ,1.4851171970367432
0.02525933403387763,0.01912448261212761,-0.10796137088055237, ,0.026400566759683917,0.018628299186563245,-0.10870744614361597, ,0.0014509439770065036, ,0.030257257823915765,-0.0062058296849956274,-0.03516366886635492,-0.00981302135297814,0.009314847516046436,0.0035503141091493585, ,0.046802751855470455, ,0.013528045345846004, ,0.0013300380942077937, ,0.24965278562505572,-0.17000051876030414,0.11926256887000002,1.6133544251699303,0.24416942508084208,-1.3897347889344807, ,0.20320544230935927,0.1170122583951551,0.03992183338345865,0.00542889365371437,0.21486937664675357,-0.10236513030386203, ,1.4904351234436035
0.02556933797118212,0.019062971802187863,-0.10830492331477082, ,0.026558480023957096,0.018608251416438286,-0.10888368950733518, ,0.001232940767206433, ,0.030145703046662902,-0.005833160012244923,-0.032985408980675375,-0.047676422296209414,-0.03371653360661226,-0.01059475179308885, ,0.04506469098449976, ,0.058393551291746365, ,0.0013292968932383177, ,0.2517302007682221,-0.16884210882917045,0.11965534474000002,1.6137738050568995,0.2459456995777928,-1.3902847555409878, ,0.20190838629461869,0.10983442310008192,0.03783565681710214,0.013159451407821536,0.1685397859208832,-0.05550030166978172, ,1.4957730770111084
0.02556933797118212,0.019062971802187863,-0.10830492331477082, ,0.026715875870408686,0.018589885270185614,-0.10905922992512503, ,0.001451667483809168, ,0.030145703046662902,-0.005833160012244923,-0.032985408980675375,-0.047676422296209414,-0.03371653360661226,-0.01059475179308885, ,0.04506469098449976, ,0.058393551291746365, ,0.0013302239431668848, ,0.2517302007682221,-0.16884210882917045,0.11965534474000002,1.6137738050568995,0.2459456995777928,-1.3902847555409878, ,0.20190838629461869,0.10983442310008192,0.03783565681710214,0.013159451407821536,0.1685397859208832,-0.05550030166978172, ,1.5012381076812744
0.025822968088992076,0.01901576752708486,-0.10857960103438316, ,0.026872740163353028,0.01857322440016885,-0.10923406812354354, ,0.0013138466417671275, ,0.029977880295335477,-0.0052314096115085,-0.03228575459895697,-0.009154397079618242,-0.020144327042765007,-0.007233767320451989, ,0.044366777024581326, ,0.02212604389155875, ,0.0013301008055623753, ,0.2534369247334257,-0.1679385490828862,0.11997163950000002,1.613983495000384,0.24744870107521263,-1.3909386013006646, ,0.20190838629461869,0.10303685294079346,0.03730400824355972,0.013658943305810054,0.18224114913510597,-0.087228816142579, ,1.506878137588501
0.025822968088992076,0.01901576752708486,-0.10857960103438316, ,0.027029059042457428,0.018558291935146104,-0.10940820478494187, ,0.001533141702743304, ,0.029977880295335477,-0.0052314096115085,-0.03228575459895697,-0.009154397079618242,-0.020144327042765007,-0.007233767320451989, ,0.044366777024581326, ,0.02212604389155875, ,0.0013316160361383524, ,0.2534369247334257,-0.1679385490828862,0.11997163950000002,1.613983495000384,0.24744870107521263,-1.3909386013006646, ,0.20190838629461869,0.10303685294079346,0.03730400824355972,0.013658943305810054,0.18224114913510597,-0.087228816142579, ,1.512336015701294
0.0261487818361177,0.018960593028566636,-0.10893108081855152, ,0.027184818921298544,0.018545110483039265,-0.10958164054791607, ,0.0012919855064894507, ,0.028641159951622256,-0.004983738153456971,-0.030022589992866597,-0.035087582708122754,-0.010200533394925304,-0.009257067487030354, ,0.04179126223550094, ,0.0365399090066325, ,0.0013313224766594717, ,0.2556379036025797,-0.16683419828187207,0.12037867456000001,1.6141931849438687,0.2496348850714597,-1.3919045003584016, ,0.19406327517069688,0.09663639669905374,0.034931604210526324,0.01724971885477492,0.18374327984848599,-0.05410330544890467, ,1.517651081085205
0.0261487818361177,0.018960593028566636,-0.10893108081855152, ,0.027340006485924,0.018533702133704658,-0.1097543760077606, ,0.0015096578986634752, ,0.028641159951622256,-0.004983738153456971,-0.030022589992866597,-0.035087582708122754,-0.010200533394925304,-0.009257067487030354, ,0.04179126223550094, ,0.0365399090066325, ,0.0013326337665271481, ,0.2556379036025797,-0.16683419828187207,0.12037867456000001,1.6141931849438687,0.2496348850714597,-1.3919045003584016, ,0.19406327517069688,0.09663639669905374,0.034931604210526324,0.01724971885477492,0.18374327984848599,-0.05410330544890467, ,1.5228831768035889
0.026439280410556137,0.01891569782553112,-0.1092395037977499, ,0.027494608694426857,0.018524088461876895,-0.10992641171687162, ,0.00131868046538626, ,0.029033754143472548,-0.004049855527621176,-0.03172231745327597,0.021220382134362916,-0.011337093631208531,0.04416790898451931, ,0.04319335173455089, ,0.024058308051630204, ,0.001332531917613711, ,0.2575840322868843,-0.16589974760409093,0.12073774689000001,1.6144028748873531,0.2514111595684104,-1.392699503185331, ,0.19287996251721704,0.08952541656459506,0.036872248888888896,-0.03586292241295346,0.19032247323859525,-0.11677940581808367, ,1.52813720703125
0.026439280410556137,0.01891569782553112,-0.1092395037977499, ,0.027648612771355503,0.018516290529212425,-0.11009774818538409, ,0.0015357715898318919, ,0.029033754143472548,-0.004049855527621176,-0.03172231745327597,0.021220382134362916,-0.011337093631208531,0.04416790898451931, ,0.04319335173455089, ,0.024058308051630204, ,0.001334004668861669, ,0.2575840322868843,-0.16589974760409093,0.12073774689000001,1.6144028748873531,0.2514111595684104,-1.392699503185331, ,0.19287996251721704,0.08952541656459506,0.036872248888888896,-0.03586292241295346,0.19032247323859525,-0.11677940581808367, ,1.533358097076416
0.02673874169525808,0.018882991314895924,-0.10958007930802215, ,0.027802006212595813,0.018510328888192113,-0.11026838588137144, ,0.0013202933980831942, ,0.029101685389911643,-0.0027751823966456752,-0.03374173089153035,0.014027552744484872,0.023578865528924617,0.010591894411587782, ,0.04464430684224476, ,0.02743522188463988, ,0.0013339060266258527, ,0.25955332916981155,-0.16503480152217778,0.12113311534000001,1.6141931849438687,0.25359734356465746,-1.3937470809832087, ,0.18941505301091974,0.08173724509773538,0.039137129041769046,0.005442145531589854,0.2152434453126545,-0.09169153473466643, ,1.538877010345459
0.02673874169525808,0.018882991314895924,-0.10958007930802215, ,0.027954776779647434,0.01850622358410677,-0.11043832523145108, ,0.0015353440378339386, ,0.028688163882439013,-0.001942383419683098,-0.034433833188326365,0.047103845889660365,0.04526391410931125,0.014816607537452172, ,0.04486058925533886, ,0.06532645565931892, ,0.0013353448695630533, ,0.2614222305253739,-0.1642548055018811,0.12152718750000001,1.6141931849438687,0.25578352756090456,-1.3947129800409455, ,0.1842659059387782,0.0749580896986341,0.03992183338345865,0.005523399236830709,0.23196868045285057,-0.11817985894178382, ,1.545166015625
0.02702787322268978,0.018859467176004382,-0.10991973209925174, ,0.02810691249926909,0.018503994158030813,-0.11060756662120338, ,0.001328082511177858, ,0.028688163882439013,-0.001942383419683098,-0.034433833188326365,0.047103845889660365,0.04526391410931125,0.014816607537452172, ,0.04486058925533886, ,0.06532645565931892, ,0.001335293363475215, ,0.2614222305253739,-0.1642548055018811,0.12152718750000001,1.6141931849438687,0.25578352756090456,-1.3947129800409455, ,0.1842659059387782,0.0749580896986341,0.03992183338345865,0.005523399236830709,0.23196868045285057,-0.11817985894178382, ,1.5504570007324219
0.02732470619474151,0.018841188443435557,-0.11026618859825951, ,0.028258401662036855,0.018503659649592188,-0.11077611039562435, ,0.0011161241650233281, ,0.028391859872623722,-0.0013690568786887374,-0.032203393168451576,-0.03345476445028385,-0.03974821401066239,0.0014287071177043957, ,0.04295381886777542, ,0.05195293203488387, ,0.0013337499184156948, ,0.26330657734668467,-0.16351342314595554,0.12193033369000002,1.6141931849438687,0.2576964385576207,-1.3952926858110088, ,0.17837770969637368,0.06613027286304585,0.03765676482269504,0.005192518324533033,0.139775754140082,-0.029124704385222803, ,1.5557820796966553
0.02732470619474151,0.018841188443435557,-0.11026618859825951, ,0.028409232820902446,0.018505238599742475,-0.11094395685957899, ,0.0013222821621656467, ,0.028391859872623722,-0.0013690568786887374,-0.032203393168451576,-0.03345476445028385,-0.03974821401066239,0.0014287071177043957, ,0.04295381886777542, ,0.05195293203488387, ,0.001333669724316044, ,0.26330657734668467,-0.16351342314595554,0.12193033369000002,1.6141931849438687,0.2576964385576207,-1.3952926858110088, ,0.17837770969637368,0.06613027286304585,0.03765676482269504,0.005192518324533033,0.139775754140082,-0.029124704385222803, ,1.5610711574554443
0.02760918757204859,0.01882898189769899,-0.11058190705188199, ,0.02855939478975118,0.0185087490535264,-0.11111110627825364, ,0.0011337965656383505, ,0.028176040476484327,-0.0010837361734303155,-0.03068939381364488,-0.05682616519949348,-0.05830743379013178,0.004279423037430846, ,0.04167616385507511, ,0.08141831896521638, ,0.0013322817162696712, ,0.26497468764751714,-0.16291104998176603,0.12227773941000002,1.6144028748873531,0.2589261670555097,-1.3953153020625897, ,0.17905083312919012,0.061541466639734616,0.0363671495890411,0.0,0.12078201048620575,0.0023424543229655648, ,1.5663201808929443
0.02760918757204859,0.01882898189769899,-0.11058190705188199, ,0.02870887664196059,0.01851420856285235,-0.11127755887761001, ,0.0013387792071335447, ,0.028176040476484327,-0.0010837361734303155,-0.03068939381364488,-0.05682616519949348,-0.05830743379013178,0.004279423037430846, ,0.04167616385507511, ,0.08141831896521638, ,0.001332326526551491, ,0.26497468764751714,-0.16291104998176603,0.12227773941000002,1.6144028748873531,0.2589261670555097,-1.3953153020625897, ,0.17905083312919012,0.061541466639734616,0.0363671495890411,0.0,0.12078201048620575,0.0023424543229655648, ,1.5715901851654053
0.02787206524531915,0.018822774964595373,-0.11087151250216352, ,0.028857667708958173,0.018521634189261945,-0.11144331484483644, ,0.0011785821575036534, ,0.027190570034383844,-0.0006234206620814786,-0.02989028679366354,0.002980897421456522,-0.011457970636286166,-0.0070482558933051805, ,0.04041218871484319, ,0.011838369044746198, ,0.0013312734829278759, ,0.26675091620858876,-0.16232412228332496,0.12264329319000002,1.614822254774322,0.26029253205316405,-1.3955310149580078, ,0.1728541740591453,0.05592041341100223,0.03539735893333334,0.020272168709419117,0.1604014236494947,-0.05166715605334432, ,1.5768001079559326
0.028140488423135403,0.018820721078255036,-0.11116720334323986, ,0.02900575757877992,0.018531042506699943,-0.11160837432880255, ,0.0010135266276868754, ,0.027190570034383844,-0.0006234206620814786,-0.02989028679366354,0.002980897421456522,-0.011457970636286166,-0.0070482558933051805, ,0.04041218871484319, ,0.011838369044746198, ,0.0013291119396949438, ,0.2684653629066666,-0.16180669918075194,0.12299458778000001,1.6150319447178065,0.2620688065501148,-1.3962443390447963, ,0.1741228285476528,0.04849102787862584,0.03524073345132744,0.02972686306934658,0.18813260913873356,-0.10755074512836928, ,1.5853240489959717
0.028140488423135403,0.018820721078255036,-0.11116720334323986, ,0.029153136094628385,0.018542449604284535,-0.11177273744051078, ,0.0012122548670818272, ,0.0271491323108628,0.00022757871087611688,-0.029413850006643805,0.06725600413193007,0.013665754563197095,-0.009704373811267542, ,0.04002876152862737, ,0.06863017501444714, ,0.0013283223648799904, ,0.2684653629066666,-0.16180669918075194,0.12299458778000001,1.6150319447178065,0.2620688065501148,-1.3962443390447963, ,0.1741228285476528,0.04849102787862584,0.03524073345132744,0.02972686306934658,0.18813260913873356,-0.10755074512836928, ,1.591090202331543
0.028288704725294673,0.01882215695604421,-0.1113263595455117, ,0.029299793353430942,0.01855587108907683,-0.11193640425355014, ,0.001210521756392157, ,0.02612258927418642,0.00048308904802018876,-0.028119983799670005,0.04314066359443124,-0.004932586364583069,-0.013208242812616426, ,0.03838432667521811, ,0.04342153476474937, ,0.001327531756769334, ,0.26941525905019625,-0.16155184899590253,0.12318514241000002,1.6150319447178065,0.2630252620484728,-1.3967792281502496, ,0.1661942934474094,0.04357068023804903,0.03367613429175476,0.02972686306934658,0.15872510191151207,-0.07735376453829801, ,1.5963881015777588
0.028288704725294673,0.01882215695604421,-0.1113263595455117, ,0.02944571970439789,0.018571322088851178,-0.11209937480454825, ,0.0014139145600680042, ,0.02612258927418642,0.00048308904802018876,-0.028119983799670005,0.04314066359443124,-0.004932586364583069,-0.013208242812616426, ,0.03838432667521811, ,0.04342153476474937, ,0.0013281076421246584, ,0.26941525905019625,-0.16155184899590253,0.12318514241000002,1.6150319447178065,0.2630252620484728,-1.3967792281502496, ,0.1661942934474094,0.04357068023804903,0.03367613429175476,0.02972686306934658,0.15872510191151207,-0.07735376453829801, ,1.6017160415649414
0.028686945362061126,0.018832695402913942,-0.11174499765637787, ,0.029590905747580703,0.018588817254864904,-0.11226164909362557, ,0.0010693688032174158, ,0.026532198841145924,0.0010931548413223996,-0.02750149622122878,-0.04258517324498067,-0.06999533816378616,-0.020841748895782514, ,0.03822937165661335, ,0.08193185347013737, ,0.0013263941398802396, ,0.27184791990557694,-0.16095719856458723,0.12367643632000001,1.6150319447178065,0.2646649000456581,-1.396727704412217, ,0.16389799923742793,0.037316925504707346,0.03311603226611227,0.027520656162300493,0.0913584334111564,0.013972399777374162, ,1.6069591045379639
0.028686945362061126,0.018832695402913942,-0.11174499765637787, ,0.029735342332430425,0.018608370764628356,-0.11242322708484709, ,0.0012686421514608323, ,0.026532198841145924,0.0010931548413223996,-0.02750149622122878,-0.04258517324498067,-0.06999533816378616,-0.020841748895782514, ,0.03822937165661335, ,0.08193185347013737, ,0.0013260141925880067, ,0.27184791990557694,-0.16095719856458723,0.12367643632000001,1.6150319447178065,0.2646649000456581,-1.396727704412217, ,0.16389799923742793,0.037316925504707346,0.03311603226611227,0.027520656162300493,0.0913584334111564,0.013972399777374162, ,1.6121752262115479
0.02894418416552824,0.018847065647403006,-0.11202030464755969, ,0.029879020556355357,0.018629996324674766,-0.11258410870667587, ,0.001113064771502652, ,0.025323176892792856,0.0017913057848565907,-0.027662144664351847,0.04311854565987987,-0.0031898030503214395,0.004332124872719927, ,0.03754552319238697, ,0.04323618422712833, ,0.001324622366306403, ,0.2735083074735352,-0.16060195285237291,0.12401995317000002,1.615241634661291,0.2660312650433126,-1.3971067747879162, ,0.15789840525535903,0.03087083329813623,0.033323873472803356,0.01393107185329452,0.1546406322818167,-0.06918563965853908, ,1.6174371242523193
0.02894418416552824,0.018847065647403006,-0.11202030464755969, ,0.030021931763279913,0.018653707173330192,-0.11274429385242529, ,0.0013126643716949115, ,0.025323176892792856,0.0017913057848565907,-0.027662144664351847,0.04311854565987987,-0.0031898030503214395,0.004332124872719927, ,0.03754552319238697, ,0.04323618422712833, ,0.001324544716990744, ,0.2735083074735352,-0.16060195285237291,0.12401995317000002,1.615241634661291,0.2660312650433126,-1.3971067747879162, ,0.15789840525535903,0.03087083329813623,0.033323873472803356,0.01393107185329452,0.1546406322818167,-0.06918563965853908, ,1.6228151321411133
0.029202285899102048,0.01887232838112771,-0.11230345371717322, ,0.03016406754220218,0.018679516083483488,-0.11290378238071301, ,0.001150041310299203, ,0.025681363497079914,0.0028124267071373927,-0.028857627067011185,0.051129222066284265,0.010147731679617302,0.006811561795788092, ,0.03873247752198231, ,0.0521263253525972, ,0.0013234188885604759, ,0.2751146359113739,-0.16033937993464928,0.12436217373000001,1.6156610145482602,0.26767090304049784,-1.3978720384512893, ,0.15816156926411795,0.02394573342378773,0.034779064454148474,0.015592663960576236,0.16817716482663814,-0.0700212638347545, ,1.6281111240386963
0.029202285899102048,0.01887232838112771,-0.11230345371717322, ,0.03030541972575274,0.01870743536535625,-0.11306257411591294, ,0.0013492063318610546, ,0.025681363497079914,0.0028124267071373927,-0.028857627067011185,0.051129222066284265,0.010147731679617302,0.006811561795788092, ,0.03873247752198231, ,0.0521263253525972, ,0.0013235841926841976, ,0.2751146359113739,-0.16033937993464928,0.12436217373000001,1.6156610145482602,0.26767090304049784,-1.3978720384512893, ,0.15816156926411795,0.02394573342378773,0.034779064454148474,0.015592663960576236,0.16817716482663814,-0.0700212638347545, ,1.633406162261963
0.029451598813996515,0.01890310664329755,-0.11258662358189626, ,0.030445980388752184,0.018737476869272837,-0.11322066884860843, ,0.001190899382188581, ,0.026381658899771048,0.003710053426837959,-0.030822377233976288,0.014917679843571775,0.001973923896220736,-0.056851951647438614, ,0.040740340709024526, ,0.015046784678423377, ,0.0013227390665026969, ,0.27662829155472196,-0.16012314341417097,0.12470309800000001,1.6162900843787136,0.2691739045379177,-1.3981174905102631, ,0.1568544488569765,0.02040794442117651,0.036957799350348035,0.07988697913954129,0.1481489012071321,-0.012973794956658388, ,1.6386520862579346
0.029451598813996515,0.01890310664329755,-0.11258662358189626, ,0.030585741846769834,0.018769651988430055,-0.11337806633604525, ,0.0013894143358944417, ,0.026381658899771048,0.003710053426837959,-0.030822377233976288,0.014917679843571775,0.001973923896220736,-0.056851951647438614, ,0.040740340709024526, ,0.015046784678423377, ,0.0013231610618785938, ,0.27662829155472196,-0.16012314341417097,0.12470309800000001,1.6162900843787136,0.2691739045379177,-1.3981174905102631, ,0.1568544488569765,0.02040794442117651,0.036957799350348035,0.07988697913954129,0.1481489012071321,-0.012973794956658388, ,1.6439990997314453
0.029723281377911415,0.018947197526883813,-0.11291162553824469, ,0.03072469665468173,0.018803971661667335,-0.11353476630258474, ,0.0011881290406341775, ,0.026910198872707507,0.004641876416797806,-0.03259614760876148,-0.03465327470401391,-0.02482230414225127,0.06703718095478459, ,0.04252310735317515, ,0.04262580711300686, ,0.001322311803883346, ,0.27821917452681216,-0.15996096602381227,0.12509198500000002,1.6167094642656827,0.27067690603533756,-1.3981179063488154, ,0.15556875665323078,0.012366897106539971,0.03894574943765281,-0.04970787895373973,0.1405953320313169,0.009344838310933419, ,1.649334192276001
0.029723281377911415,0.018947197526883813,-0.11291162553824469, ,0.030862837605228743,0.018840446376236546,-0.11369076844015559, ,0.0013845749762943, ,0.026910198872707507,0.004641876416797806,-0.03259614760876148,-0.03465327470401391,-0.02482230414225127,0.06703718095478459, ,0.04252310735317515, ,0.04262580711300686, ,0.0013227009487109145, ,0.27821917452681216,-0.15996096602381227,0.12509198500000002,1.6167094642656827,0.27067690603533756,-1.3981179063488154, ,0.15556875665323078,0.012366897106539971,0.03894574943765281,-0.04970787895373973,0.1405953320313169,0.009344838310933419, ,1.6546180248260498
0.029995097544418987,0.018998333669070628,-0.11324493163721097, ,0.031000157727574935,0.01887908617057199,-0.113846072408708, ,0.0011771729545057077, ,0.02604259946524523,0.005215779304730248,-0.03229107341709745,-0.026029670567776157,-0.003395243682910297,0.017291294671216678, ,0.04181070153789842, ,0.026249501348070345, ,0.001321797048125789, ,0.2797714438345313,-0.15986057049644736,0.12548994603000002,1.6164997743221983,0.2720432710329919,-1.39784354680339, ,0.14850851574095583,0.007994894789544092,0.038568550895883784,0.004883704001345736,0.14633945229994647,0.019677180922759732, ,1.6601450443267822
0.029995097544418987,0.018998333669070628,-0.11324493163721097, ,0.031136650285865635,0.018919900637060318,-0.11400067783666668, ,0.0013712938124291333, ,0.025338251629196343,0.005457358287937191,-0.03011248992835106,-0.01306389966264397,-0.003971871455382909,0.01091942333143128, ,0.0397312446922121, ,0.013653441992409615, ,0.0013221025837079083, ,0.2797714438345313,-0.15986057049644736,0.12548994603000002,1.6164997743221983,0.2720432710329919,-1.39784354680339, ,0.14850851574095583,0.007994894789544092,0.038568550895883784,0.004883704001345736,0.14633945229994647,0.019677180922759732, ,1.6654620170593262
0.03025026276918531,0.019052421406353368,-0.11355302309431212, ,0.03127230877778554,0.018962898924810328,-0.11415458432138198, ,0.0011893141840199723, ,0.025338251629196343,0.005457358287937191,-0.03011248992835106,-0.01306389966264397,-0.003971871455382909,0.01091942333143128, ,0.0397312446922121, ,0.013653441992409615, ,0.0013212879309490865, ,0.2812464858135082,-0.159814234099202,0.12586068497000003,1.6167094642656827,0.27354627253041175,-1.3977622839018016, ,0.14667224352159317,0.003072651449260896,0.0363671495890411,0.012422812054074096,0.14268155569187685,0.013511936888577575, ,1.6709771156311035
