NicholasDascanio/dvrk_moveit_final/test/execution/third_experiment_notsharpbends/thirdexp_200vel5.0/thirdexp_200vel5.0_18.csv
Current Position (x),Current Position (y),Current Position (z), ,Planned Position (x),Planned Position (y),Planned Position (z), ,Position Error,,Cartesian linear Velocity(x),Cartesian linear Velocity(y),Cartesian linear Velocity(z),Cartesian Angular Velocity(x),Cartesian Angular Velocity(y),Cartesian Angular Velocity(z), ,Total Linear Velocity, ,Total Angular Velocity, ,MSE, ,Joint 1 Position,Joint 2 Position,Joint 3 Position,Joint 4 Position,Joint 5 Position,Joint 6 Position, ,Joint 1 Velocity,Joint 2 Velocity,Joint 3 Velocity,Joint 4 Velocity,Joint 5 Velocity,Joint 6 Velocity, ,Time Stamp
0.010065386141126422,0.020084644715419892,-0.07997593760702944, ,0.010229684512268158,0.020125648752293824,-0.08009093642490481, ,0.00020469492888813517, ,0.0015071508296915983,0.00029918607976285925,-0.0007209173690192175,0.24805581079738093,-0.14441991793483194,-0.038622931610870735, ,0.0016972736334243607, ,0.2870344891587933, ,1.705791074067793e-05, ,0.14187432563237848,-0.24366766764753173,0.08966049043,1.605176517374034,0.14838723874526832,-1.3104873360813216, ,0.0006259917443741328,-0.0013610740851977099,0.0007704726833898061,-2.221519969053483e-05,-0.14893424477567227,-0.24671558402309768, ,0.05295705795288086
0.010136777985006822,0.020128742271654954,-0.08008403522549926, ,0.010273673089139944,0.020244354732508695,-0.0802891158172942, ,0.0002723317090814806, ,0.001687070345517397,0.0017932627449179595,-0.005012057644436858,-0.024244536564576206,-0.09691599366431573,-0.022831201239552918, ,0.005584148946275774, ,0.09990248934841363, ,2.16830289986189e-05, ,0.1419206620296238,-0.24385301323651312,0.08977326766,1.6053862073175185,0.1426485057551198,-1.31716112900561, ,0.0008961873759223108,-0.0054780786543701665,0.005475700075627365,-0.00027156925973650513,-0.09892634435345532,0.026350886615002678, ,0.10508990287780762
0.010160121018748637,0.020207556352729663,-0.08027335279493054, ,0.010320670573618443,0.020357775177238698,-0.0804892014195123, ,0.0003081111545199281, ,0.00022383283710717035,0.0018639057977326502,-0.004134803834862958,0.023829512096837195,0.03909510420547081,0.011393156053164967, ,0.004541018466664307, ,0.045785072003889586, ,2.5327025564178836e-05, ,0.14193610749537228,-0.24422370441447588,0.08998197035000001,1.6053862073175185,0.1431950517541816,-1.3130327911725241, ,0.0,-0.00958099576487553,0.004506028718528997,-0.00027156925973650513,0.040363409939729644,-0.014380392293510184, ,0.1566779613494873
0.010193150839710622,0.02030621590363077,-0.08048654786889448, ,0.010370622945292647,0.02046601134634689,-0.08069114983170278, ,0.0003144724073071745, ,0.0008261878559513306,0.0018215583088206882,-0.0029903735083794693,0.012641098375039057,-0.004222110716772852,-0.005928294428353284, ,0.003597637386587603, ,0.013327549917106935, ,2.7490254994917962e-05, ,0.1419824438926176,-0.24474112751704893,0.09021530255000001,1.6055958972610032,0.14333168825394704,-1.313225887816361, ,0.004706127057771949,-0.012122235805073944,0.0034196675654787467,0.007604104812034621,-0.001400602513764832,0.00040289843264452985, ,0.203995943069458
0.01024274299417948,0.02041888503318382,-0.08070922200988116, ,0.010423476691792152,0.02056916363300928,-0.08089491797971658, ,0.0002995518656783265, ,0.0010326695522028895,0.0021619562663780815,-0.004227905360193385,0.0052409372240444655,-0.00961120134955143,0.019207603821804854, ,0.004859593093719919, ,0.01094726509303052, ,2.855432786683765e-05, ,0.14218323494734744,-0.24538211434560958,0.09046289394000001,1.6060152771479719,0.1431950517541816,-1.312869433692243, ,0.005211629804250315,-0.01275839493929427,0.004721046686425608,-0.018093064090405273,0.0,0.00490164393791373, ,0.25246691703796387
0.010285565798098861,0.020504522630354582,-0.08087085926428182, ,0.01047917880679517,0.02066733156678907,-0.08110046311421298, ,0.0003416294408018399, ,0.0011551245329418248,0.0021751156107687243,-0.004924882507804561,-0.00851386261910084,-0.008254025891586738,0.012882380883063203, ,0.0055063516344757, ,0.011858111030796637, ,3.054020186450675e-05, ,0.14240719420069997,-0.24589181471530838,0.09064437454,1.6060152771479719,0.14305841525441615,-1.3121862646075626, ,0.005468639869676606,-0.010707426634024016,0.005410601739130436,-0.011723620666178807,8.686478682911541e-05,0.017499257228261903, ,0.29491186141967773
0.01033248790694325,0.02059956309242312,-0.08109121148156863, ,0.010537676788036346,0.020760613816712896,-0.08130774280975898, ,0.0003390068270793054, ,0.0012338382877322828,0.0023339437526856215,-0.005490986870717386,-0.012422376779063712,-0.005421562116209463,0.001621816252847258, ,0.006092666671939725, ,0.013553921042606016, ,3.199689743624908e-05, ,0.1426079852554298,-0.2463397332220134,0.09088548448000001,1.6058055872044876,0.1431950517541816,-1.311399216369713, ,0.005393983819152516,-0.010641430367551058,0.006004075205427818,0.0,0.0,0.022956054339497413, ,0.337662935256958
0.01039168884167962,0.020707949575295127,-0.08132965201056844, ,0.01059891863531323,0.020849108194344726,-0.08151671496392869, ,0.00031282981255193484, ,0.0012397616462600375,0.002152270352348875,-0.005073904415258517,0.0006450324107492651,-0.005934373194756162,0.0005284808104617953, ,0.00564922849815063, ,0.005969325645554713, ,3.27757280261387e-05, ,0.14290917183752455,-0.2468726017903349,0.09114863135000001,1.6062249670914566,0.1431950517541816,-1.3109908226690101, ,0.0061529177552333445,-0.009665983309736255,0.00555979459685864,0.0009267884669481069,0.0,0.009050504560810618, ,0.3799450397491455
0.010428102936522422,0.02076816246374643,-0.08147138755654047, ,0.010662852848492393,0.020932911656859895,-0.0817273377964005, ,0.0003843960757940325, ,0.0012255651178428694,0.0019408718762797257,-0.004501522880087463,0.003215537509223853,-0.006738146987223658,0.00042563639313280904, ,0.005052989386309625, ,0.00746607691135385, ,3.4712802771276966e-05, ,0.14310224015938017,-0.24714289744093276,0.09130418615000001,1.6062249670914566,0.1431950517541816,-1.310664107708448, ,0.006952721000412093,-0.008855888781008833,0.004956070790292471,0.000898377736189799,0.0,0.005674112964625105, ,0.41663694381713867
0.010490024098400597,0.020859199894023656,-0.08171756948332716, ,0.010729428425514866,0.021012120310119085,-0.08193956984805446, ,0.0003605318951755738, ,0.0016449580507388066,0.002139477455004502,-0.006122256317267985,-0.003956344360527177,-0.005415079475146216,0.001384838012199764, ,0.006690685554073716, ,0.006706395292558801, ,3.606386341238771e-05, ,0.14344976313872027,-0.24745180675590173,0.09157122189000001,1.606434657034941,0.14346832475371246,-1.3103968710749974, ,0.009593393634735983,-0.006277631392141559,0.006620453665835412,0.0006124622744009754,0.004166275123154638,0.010255610811034075, ,0.4544248580932617
0.010558338385637677,0.02094275204014904,-0.08194847702300002, ,0.010798594860400659,0.021086829411739876,-0.08215336998006796, ,0.0003470772054256848, ,0.0017339961769241793,0.0018645115141100648,-0.005268846084498878,-0.009499831090595871,0.0001085352882954034,-0.003250625193369774, ,0.005851827491474423, ,0.00950045086288938, ,3.7070567258546975e-05, ,0.14391312711117374,-0.24771437967362536,0.09182270215,1.6066443469784255,0.14387823425300877,-1.309914337384681, ,0.012883103659852128,-0.005385674170113478,0.005752550205850488,0.007254865306687898,0.011585850481388592,0.015842501218185204, ,0.4912879467010498
0.01062253373728934,0.02100576058619095,-0.08213693911140624, ,0.010870302141253004,0.021157133374169586,-0.08236869737301156, ,0.0003715034249713538, ,0.0025203624810339223,0.002425596718808496,-0.007654880503223351,0.01704607212512382,-0.011307880566232647,-0.004119111394444807, ,0.008416230866410865, ,0.020455725641273834, ,3.856136747274769e-05, ,0.144368768350753,-0.24786883433110987,0.09202751597000002,1.6066443469784255,0.14401487075277425,-1.309535682847534, ,0.017320120744382328,-0.004682025127565036,0.008274707283116885,0.0061459474390624215,0.004639541192605366,-0.011554759295407894, ,0.5225369930267334
0.010695071476045186,0.021075387951855488,-0.08235901118065966, ,0.010944500748262396,0.02122312576775805,-0.08258551152594333, ,0.0003678910579235201, ,0.002321690801559968,0.0021466774553037574,-0.006876414740400575,0.014403853937933092,-0.005397659967008613,-0.004096526493832495, ,0.007568589826193245, ,0.015381993564227245, ,3.9849318916965e-05, ,0.14486302325470335,-0.24799239805709747,0.09226732962,1.6070637268653947,0.1441515072525397,-1.3094837432709494, ,0.016778101407084647,-0.0037475961683821855,0.007439893283512378,0.0073508228226115595,0.00988007408804253,-0.00966225518305489, ,0.5544500350952148
0.010766909512821273,0.021133705157393604,-0.08254342182781516, ,0.011021141651709452,0.021284899323827964,-0.08280377225550313, ,0.00039405076018801243, ,0.0025176167098169954,0.0020164534295093817,-0.006482884517638115,0.006060857480800883,-0.013346465761031132,-0.005570964720866635, ,0.007241013050669214, ,0.014658176225643105, ,4.123284433380627e-05, ,0.14542678275452176,-0.2481005163173366,0.09246825457,1.6070637268653947,0.14442478025207056,-1.3097882578184827, ,0.019074762122305685,-0.0033203191753622533,0.007048146690265488,0.0073508228226115595,0.004048761741828348,-0.0017416820217979736, ,0.5866389274597168
0.010841349640641068,0.021191064769225266,-0.08274001328624857, ,0.011100176309968039,0.021342545937746742,-0.08302343969500624, ,0.0004126358180681784, ,0.0026453518487622807,0.0020900363622820533,-0.007337153150774988,0.007373115602250308,-0.009927426158827244,-0.004512928924019467, ,0.008074648893750027, ,0.012365945275613148, ,4.299755883294428e-05, ,0.1459828195214659,-0.2481622981803304,0.09268084613000001,1.6070637268653947,0.144561416751836,-1.3096546395017574, ,0.019438128135696595,-0.0016598575401578434,0.007909042462760677,0.007021165620083628,0.008034528877531345,-0.004739531617856461, ,0.6129539012908936
0.010898270549422953,0.021239401771298218,-0.08290865321635413, ,0.011181556667507534,0.02139615667199695,-0.08324447429353621, ,0.00046647499340504137, ,0.0030719884866053848,0.002815424771440307,-0.00969828144472307,0.010006630219458496,-0.0059959628092033125,-0.0034827534050645564, ,0.010555585861833323, ,0.011665510385789855, ,4.505892931852067e-05, ,0.1463921243637998,-0.24820091184470153,0.09286232673000001,1.6074831067523636,0.14483468975136687,-1.3097141178288692, ,0.02087023126423373,-0.0029492007571026786,0.010417796939175933,0.007540641145641592,0.013440821163928479,-0.006016355392840752, ,0.6393818855285645
0.010993195317803451,0.021318398930280348,-0.08320452402727829, ,0.011265235152895233,0.021445821759248085,-0.08346683681503746, ,0.00039881104277701414, ,0.003385095607724928,0.0027417111554741257,-0.01061005912976797,0.006743406004331283,-0.004787467313980065,-0.0030885454604281204, ,0.011469490270742748, ,0.008270020154929713, ,4.679365412409949e-05, ,0.14704083392523468,-0.24821635731044997,0.09317862149000002,1.6074831067523636,0.14524459925066321,-1.3098033353195366, ,0.02320786049363433,0.0005864180787012457,0.011321116929637528,0.007540641145641592,0.017100729634738684,-0.0062472395088783396, ,0.6614348888397217
0.011062703939994601,0.021371200926901448,-0.08340673490038664, ,0.011351164676798028,0.021491630605425784,-0.08369048833740744, ,0.00042217166788851554, ,0.003469005916263701,0.002642454424616327,-0.010069769683907432,0.01058526403990473,-0.0048713062150445045,-0.0015964417899581803, ,0.010973460207254052, ,0.011652353217171556, ,4.86013237501927e-05, ,0.14753508882918503,-0.24820863457757575,0.09339510192000001,1.607692796695848,0.14551787225019408,-1.309944492386789, ,0.025258701506114128,0.0002047198952497267,0.010791877723577238,0.006621379285425868,0.019364559703220086,-0.009836561066911446, ,0.6822540760040283
0.011136715236989033,0.021425563789650996,-0.08362006596365366, ,0.01143929862998391,0.021533671792782347,-0.08391539025158834, ,0.00043641778733395317, ,0.0035280450488218602,0.0023857751457664763,-0.009164909085764674,-0.0036947460202119667,-0.020311879150050283,-0.0018603721165355222, ,0.010106165616246617, ,0.020645181474120283, ,5.040738712581346e-05, ,0.1480602346646323,-0.24818546637895306,0.09362324896000002,1.6079024866393328,0.14579114524972495,-1.3100039707139008, ,0.02586452481833491,0.0004518455156195737,0.009850842003710576,0.003157026229001182,0.00493193002635764,0.0037016753182202364, ,0.7072479724884033
0.011210135115122885,0.02147294512695786,-0.08380926698425906, ,0.011529590881323418,0.021572033082967637,-0.08414150426065889, ,0.0004714361223056035, ,0.003935274829040675,0.0025412759542172174,-0.010229432567067601,0.019110931965987392,0.002314186735994446,0.005172456250696888, ,0.011251033823598034, ,0.019250534248363437, ,5.2744715307770856e-05, ,0.14864716236307338,-0.24815457544745617,0.09382676649,1.6079024866393328,0.14633769124878673,-1.3103679635885457, ,0.03176998378254797,0.0019475345836185317,0.011000560441988952,0.003157026229001182,0.03437998271298932,-0.02057223233375723, ,0.7229490280151367
0.011231949004067576,0.021486301093335002,-0.08386229040095551, ,0.011621995775790464,0.021606801420097486,-0.08436879237892446, ,0.0006505390584490448, ,0.004227144653185324,0.0026366498726653714,-0.010626081914203335,0.019293728509657486,-0.00036108303234548165,0.005151567006769269, ,0.011736025362844902, ,0.019297103546479386, ,5.626117896866895e-05, ,0.14880933975343208,-0.24814685271458195,0.09388380325000001,1.6079024866393328,0.14633769124878673,-1.3103679635885457, ,0.03444535083792043,0.002102755593823311,0.011443111724137933,0.003157026229001182,0.03437998271298932,-0.02090933519490318, ,0.7389678955078125
0.011350538355060833,0.021565347649469786,-0.08417758879226823, ,0.011716468132463534,0.021638062933825284,-0.08459721693100924, ,0.0005614978979409765, ,0.005144782874429728,0.0035536100686301276,-0.01528724797348119,0.011720700794101487,-0.011774831959508096,-0.0024091272663109846, ,0.01651656398733101, ,0.016613869502805814, ,5.9007433241640763e-05, ,0.1496974540339679,-0.24809279358446237,0.09422213494000001,1.608321866526302,0.1468842372478485,-1.3106502777230504, ,0.03543575114207273,0.00526746715154922,0.01625388930612245,0.007496549051322386,0.022525751352586807,-0.015834207149884677, ,0.7546088695526123
0.01139818527629994,0.021602847420785963,-0.08432819273199003, ,0.011812963242525726,0.0216659029424091,-0.08482674055094543, ,0.0006515878205267066, ,0.005176970871616491,0.004226280266274334,-0.01634550389635927,0.043996421528419614,0.021287650962407995,0.007225387028676405, ,0.017658934563573238, ,0.04887584294942373, ,6.268724671780231e-05, ,0.150044977013308,-0.2480696253858397,0.09438287490000001,1.608321866526302,0.14743078324691022,-1.3110142705976955, ,0.03767246588267994,0.0009000384313138022,0.01748497422612514,0.007496549051322386,0.058960499840996265,-0.0437755462336785, ,0.7652959823608398
0.011461001790258912,0.021645958190895265,-0.08451341921891035, ,0.011911436867265599,0.02169040595578283,-0.08505732618126423, ,0.0007076030992714336, ,0.006747079600590476,0.004545853264304176,-0.02011673974860427,0.007284224260018025,-0.0187291956009255,-0.0020456740985794063, ,0.021699564123510963, ,0.020095755682221245, ,6.664798553301204e-05, ,0.15047745005426458,-0.2480078435228459,0.09457991098000001,1.608321866526302,0.14770405624644115,-1.3111554276649477, ,0.04557970295795907,0.00827108485141058,0.021352294262734585,0.007496549051322386,0.025815599733616697,-0.014364196787298293, ,0.7758209705352783
0.011528809265695947,0.021693744548325046,-0.08472474889824005, ,0.012011845236077436,0.02171165567862578,-0.0852889370720863, ,0.0007429352951495861, ,0.0072998917385135,0.005266926254534295,-0.022723363944563053,0.026220801776011382,-0.0010288529013062478,0.0035215421210866896, ,0.02444136249315468, ,0.026240863659513513, ,7.073952462082117e-05, ,0.15094853675959227,-0.24792289346122942,0.09480416915,1.608321866526302,0.14825060224550288,-1.3116010992797333, ,0.049502838580318606,0.007780600424919023,0.024134562909090912,0.007496549051322386,0.04812984360255941,-0.032809839908033, ,0.7866790294647217
0.01160642084390739,0.02174742112143889,-0.08495868047741642, ,0.012114145044461044,0.021729735013429997,-0.08552153678021078, ,0.0007582241619993955, ,0.007540926768303664,0.00507233019262291,-0.022674441886526002,0.04316063332905985,0.014950943287036526,0.0029501015555968386, ,0.024427943527308177, ,0.04567674442211211, ,7.482392934107119e-05, ,0.15150457352653643,-0.24783022066673874,0.09505305683000001,1.6087412464132707,0.14893378474433008,-1.3120765100580751, ,0.05416492098086232,0.009982067937236293,0.024098050711043876,0.012858289353841056,0.0680880719212002,-0.051112740286546506, ,0.7977259159088135
0.011684781543254317,0.021794339357018275,-0.08517583380409542, ,0.012218293452021887,0.021744726063570922,-0.085755089168206, ,0.0007890711074005848, ,0.008127846717103959,0.004330867495028795,-0.021243739624012374,-0.002550984793655484,-0.03501383539465153,-0.015308529452120039, ,0.023154152515889412, ,0.03510657866811414, ,7.952292393356799e-05, ,0.15205288756060636,-0.24771437967362536,0.09528379645000001,1.6089509363567556,0.14920705774386098,-1.3121359883851869, ,0.058005465500287755,0.014257352998568326,0.02256205597733711,0.018625291405018573,0.019019940234204127,-0.0087955276604266, ,0.8031320571899414
0.011684781543254317,0.021794339357018275,-0.08517583380409542, ,0.012324248080470898,0.02175671013637582,-0.08598955840349787, ,0.001035606650296625, ,0.008127846717103959,0.004330867495028795,-0.021243739624012374,-0.002550984793655484,-0.03501383539465153,-0.015308529452120039, ,0.023154152515889412, ,0.03510657866811414, ,0.00045252038235168827, ,0.15205288756060636,-0.24771437967362536,0.09528379645000001,1.6089509363567556,0.14920705774386098,-1.3121359883851869, ,0.058005465500287755,0.014257352998568326,0.02256205597733711,0.018625291405018573,0.019019940234204127,-0.0087955276604266, ,0.8084020614624023
0.01176951115182116,0.021836754729014488,-0.08540890807231716, ,0.012431967011624133,0.021765767746192703,-0.08622490895746102, ,0.0010534440480979503, ,0.009539483710815295,0.004807704801975345,-0.02699498612560581,0.054479913070277844,0.03137334692343143,0.0043717607313158695, ,0.02903179379324497, ,0.06286758695650693, ,0.000472551171209897, ,0.1526861516562928,-0.2475058658860213,0.09553009155000002,1.6089509363567556,0.14989024024268818,-1.312693077903669, ,0.07244041340341281,0.025482529956624804,0.028495190554561723,0.017780302949993984,0.1026574597272833,-0.0769963166756942, ,0.8136630058288574
0.01176951115182116,0.021836754729014488,-0.08540890807231716, ,0.012541408785402157,0.021771978617458675,-0.08646110560450697, ,0.0013065762695313897, ,0.009539483710815295,0.004807704801975345,-0.02699498612560581,0.054479913070277844,0.03137334692343143,0.0043717607313158695, ,0.02903179379324497, ,0.06286758695650693, ,0.0004994552066396225, ,0.1526861516562928,-0.2475058658860213,0.09553009155000002,1.6089509363567556,0.14989024024268818,-1.312693077903669, ,0.07244041340341281,0.025482529956624804,0.028495190554561723,0.017780302949993984,0.1026574597272833,-0.0769963166756942, ,0.8191049098968506
0.01186948957592118,0.021891136015724223,-0.08570878528957418, ,0.01265253239782982,0.021775421687769577,-0.08669811342117337, ,0.0012670106623900931, ,0.011507435545601822,0.006671514604549497,-0.03562436841354283,0.08926961843421101,0.06453022330512026,0.026043296288529732, ,0.03802664598434531, ,0.11015061106711371, ,0.0005234413146318247, ,0.15344297947796678,-0.24723557023542345,0.09584638631,1.6091606263002398,0.1512566052403426,-1.3138072569406332, ,0.08427792323132396,0.02926208497023459,0.03756795169811321,0.007053702528520369,0.1517929846489743,-0.11706304257394332, ,0.8245720863342285
0.01186948957592118,0.021891136015724223,-0.08570878528957418, ,0.012765297299035283,0.021776175110947527,-0.0869358977852143, ,0.0015236445003261297, ,0.011507435545601822,0.006671514604549497,-0.03562436841354283,0.08926961843421101,0.06453022330512026,0.026043296288529732, ,0.03802664598434531, ,0.11015061106711371, ,0.0005537505020771067, ,0.15344297947796678,-0.24723557023542345,0.09584638631,1.6091606263002398,0.1512566052403426,-1.3138072569406332, ,0.08427792323132396,0.02926208497023459,0.03756795169811321,0.007053702528520369,0.1517929846489743,-0.11706304257394332, ,0.8300819396972656
0.011999107852242808,0.02196731125233599,-0.08610589843112038, ,0.0128796633912494,0.021774316260109988,-0.08717442437468817, ,0.0013979888470145067, ,0.014075617276982241,0.007942490273082794,-0.04210215657010126,0.03289763436278429,-0.0052898887063055865,-0.006818725380673113, ,0.04509764673815493, ,0.03331823796074705, ,0.0005785810416340891, ,0.1543310937585026,-0.24692666092045448,0.09626508798000001,1.609580006187209,0.15234969723846611,-1.3146169214300638, ,0.09442481747111521,0.03375913965082561,0.044369948523676886,0.023715834637917654,0.08601415646654555,-0.06265470147619032, ,0.8354599475860596
0.011999107852242808,0.02196731125233599,-0.08610589843112038, ,0.012995591026805135,0.021769921730738915,-0.08741365916704803, ,0.001655952741733949, ,0.014075617276982241,0.007942490273082794,-0.04210215657010126,0.03289763436278429,-0.0052898887063055865,-0.006818725380673113, ,0.04509764673815493, ,0.03331823796074705, ,0.0006093630902083707, ,0.1543310937585026,-0.24692666092045448,0.09626508798000001,1.609580006187209,0.15234969723846611,-1.3146169214300638, ,0.09442481747111521,0.03375913965082561,0.044369948523676886,0.023715834637917654,0.08601415646654555,-0.06265470147619032, ,0.8407759666442871
0.012158020210550348,0.022050426086953304,-0.0865807410878732, ,0.013113041006136052,0.021763067343747562,-0.0876535684382293, ,0.0014647860905163022, ,0.015998583448273297,0.008119062079825464,-0.048353896647568874,0.04576475295098706,0.014445103501198498,-0.0018916496837639535, ,0.051574927652990425, ,0.047987595180114556, ,0.0006331248402169245, ,0.1554045536280198,-0.24647874241374945,0.09676415963000001,1.6097896961306934,0.15344278923658963,-1.3155082646596352, ,0.10747105499260563,0.04909308926977277,0.05072869910828026,0.024599803719201264,0.11962385797856921,-0.0904811606933462, ,0.8460378646850586
0.012158020210550348,0.022050426086953304,-0.0865807410878732, ,0.013231974575776007,0.0217538281485505,-0.08789411876173997, ,0.0017222976600645241, ,0.015998583448273297,0.008119062079825464,-0.048353896647568874,0.04576475295098706,0.014445103501198498,-0.0018916496837639535, ,0.051574927652990425, ,0.047987595180114556, ,0.0006625619434560487, ,0.1554045536280198,-0.24647874241374945,0.09676415963000001,1.6097896961306934,0.15344278923658963,-1.3155082646596352, ,0.10747105499260563,0.04909308926977277,0.05072869910828026,0.024599803719201264,0.11962385797856921,-0.0904811606933462, ,0.8512740135192871
0.012327912601174766,0.02213292417921195,-0.08710193673525275, ,0.013352353426357641,0.021742278426130832,-0.0881352770077492, ,0.0015066105095427682, ,0.01729203711150007,0.007834071799076078,-0.05234472016201518,0.07804075616876932,0.050530692076329105,-0.006019298069734973, ,0.05568084910683613, ,0.09296944385424823, ,0.0006847737478267519, ,0.15656296355915347,-0.2458995374481826,0.09730989772000001,1.6099993860741781,0.1550824272337749,-1.316763600763852, ,0.1181780094127905,0.06301257739606293,0.05473818391752577,0.037875488623743146,0.16455571943765218,-0.13442600639139504, ,0.8565599918365479
0.012327912601174766,0.02213292417921195,-0.08710193673525275, ,0.013474139690611361,0.021728491692108727,-0.08837701034217593, ,0.0017615944142324231, ,0.01729203711150007,0.007834071799076078,-0.05234472016201518,0.07804075616876932,0.050530692076329105,-0.006019298069734973, ,0.05568084910683613, ,0.09296944385424823, ,0.0007123845341448461, ,0.15656296355915347,-0.2458995374481826,0.09730989772000001,1.6099993860741781,0.1550824272337749,-1.316763600763852, ,0.1181780094127905,0.06301257739606293,0.05473818391752577,0.037875488623743146,0.16455571943765218,-0.13442600639139504, ,0.8618569374084473
0.012504383033125102,0.022201828152688195,-0.08760774981874878, ,0.013597295941364442,0.021712540699810077,-0.08861928622577822, ,0.001567503345861235, ,0.018725470636041023,0.00659522395947821,-0.05160144903891021,0.09846719640614263,0.05950253107150699,0.0633412666275571, ,0.05528878523292185, ,0.11504770365629612, ,0.0007337625044377558, ,0.15782176901765207,-0.24521993695525085,0.09783878404000002,1.6102090760176624,0.15685870173072564,-1.3181303547717649, ,0.13873821865273506,0.07322294873338794,0.0539959712542373,-0.024784517065192344,0.210690087729669,-0.1743947575550057, ,0.8679659366607666
0.012700503553659728,0.02225675332824804,-0.08811216762657656, ,0.013721785189539343,0.021694497443333724,-0.08886207241324212, ,0.0013861836274352854, ,0.019538994181015013,0.003713605453154148,-0.0439991361698784,0.026526668872208906,-0.015463845393066878,0.0037333941335568736, ,0.04828547548448639, ,0.03070227639378631, ,0.0007496752147547688, ,0.15932770192812587,-0.24440132727058306,0.09836637407000001,1.6099993860741781,0.15904488572697267,-1.319994719971048, ,0.1520784319847288,0.08368336998101479,0.04603702751445087,0.01669266441306021,0.13665591324280205,-0.1065357652602348, ,0.873244047164917
0.012700503553659728,0.02225675332824804,-0.08811216762657656, ,0.013847570882152913,0.021674433160620833,-0.08910533695227113, ,0.0016251909251600199, ,0.019538994181015013,0.003713605453154148,-0.0439991361698784,0.026526668872208906,-0.015463845393066878,0.0037333941335568736, ,0.04828547548448639, ,0.03070227639378631, ,0.0007705208269072747, ,0.15932770192812587,-0.24440132727058306,0.09836637407000001,1.6099993860741781,0.15904488572697267,-1.319994719971048, ,0.1520784319847288,0.08368336998101479,0.04603702751445087,0.01669266441306021,0.13665591324280205,-0.1065357652602348, ,0.8785538673400879
0.01290058958957002,0.022275381711307208,-0.08852880392817784, ,0.013974616900314703,0.02165241833652132,-0.08934904818267397, ,0.0014880922913529224, ,0.021472891933265823,0.0012212036732954109,-0.043068781075977,0.02222637030149643,-0.01422220072830879,-0.007591599369385555, ,0.04814038148747699, ,0.026384357911101903, ,0.0007872085353827549, ,0.16093403036596457,-0.24342826292843078,0.09880063122,1.6104187659611469,0.16041125072462709,-1.3210272202678714, ,0.17573507696013105,0.10771503014582383,0.0448698916056338,0.029882367156833418,0.1590529803734384,-0.12382279448575235, ,0.8838589191436768
0.01290058958957002,0.022275381711307208,-0.08852880392817784, ,0.014102887557225925,0.02162852270586376,-0.0895931747354547, ,0.0017311360984440195, ,0.021472891933265823,0.0012212036732954109,-0.043068781075977,0.02222637030149643,-0.01422220072830879,-0.007591599369385555, ,0.04814038148747699, ,0.026384357911101903, ,0.0008086614345432382, ,0.16093403036596457,-0.24342826292843078,0.09880063122,1.6104187659611469,0.16041125072462709,-1.3210272202678714, ,0.17573507696013105,0.10771503014582383,0.0448698916056338,0.029882367156833418,0.1590529803734384,-0.12382279448575235, ,0.8903379440307617
0.013117400484507073,0.0222833236605771,-0.08896058643027126, ,0.014232347596177728,0.02160281525652137,-0.0898376855319015, ,0.001573372678005368, ,0.02213546002811438,0.00022369654943746613,-0.042821235167688446,0.08364717156258068,0.049633731841191416,-0.02526343441671034, ,0.04820463475734421, ,0.09726362459298186, ,0.0008256550177312855, ,0.16274887259140733,-0.242300743928794,0.09925044385000001,1.6110478357916007,0.16246079822110868,-1.3226168100831774, ,0.18866191164705923,0.11759224480603565,0.044618519663865555,0.06389545068776228,0.22980965085104463,-0.18943856184919947, ,0.8958079814910889
0.013117400484507073,0.0222833236605771,-0.08896058643027126, ,0.014362962188550061,0.02157536423248158,-0.09008254978267459, ,0.00181973412193758, ,0.02213546002811438,0.00022369654943746613,-0.042821235167688446,0.08364717156258068,0.049633731841191416,-0.02526343441671034, ,0.04820463475734421, ,0.09726362459298186, ,0.0008472654330401181, ,0.16274887259140733,-0.242300743928794,0.09925044385000001,1.6110478357916007,0.16246079822110868,-1.3226168100831774, ,0.18866191164705923,0.11759224480603565,0.044618519663865555,0.06389545068776228,0.22980965085104463,-0.18943856184919947, ,0.9011440277099609
0.013341692391794016,0.022271387588335113,-0.08936571622772276, ,0.014494696931810208,0.021546237136913185,-0.09032773698689693, ,0.0016675570717601949, ,0.021398530713575448,-0.002608672446313018,-0.035457434017640926,0.048538692146391726,0.029507218260565963,-0.01749015395698438, ,0.04149616748264042, ,0.056803384756587146, ,0.000864718446629907, ,0.16470272400858613,-0.24104966120316962,0.0996717381,1.6110478357916007,0.16478361871712116,-1.324592593186157, ,0.1905561075471301,0.12686756892843687,0.036787093579676675,0.049848847544308635,0.2144303076778713,-0.16562868500306105, ,0.9064688682556152
0.013341692391794016,0.022271387588335113,-0.08936571622772276, ,0.014627517847511104,0.021515500735234325,-0.09057321693124218, ,0.001919054451093187, ,0.021398530713575448,-0.002608672446313018,-0.035457434017640926,0.048538692146391726,0.029507218260565963,-0.01749015395698438, ,0.04149616748264042, ,0.056803384756587146, ,0.0008866837800562253, ,0.16470272400858613,-0.24104966120316962,0.0996717381,1.6110478357916007,0.16478361871712116,-1.324592593186157, ,0.1905561075471301,0.12686756892843687,0.036787093579676675,0.049848847544308635,0.2144303076778713,-0.16562868500306105, ,0.9117698669433594
0.01355443990438257,0.02223621736432004,-0.08971404773902279, ,0.014761391379290036,0.021483221058180145,-0.0908189596890239, ,0.0018012678082664098, ,0.023429101318485225,-0.004815076579835709,-0.03846455760525516,-0.026009303227512246,-0.040031612320077306,0.02445010982040501, ,0.0452949218216515, ,0.047738136127741554, ,0.00090534876022378, ,0.16654845716552577,-0.23971362841592878,0.10003081043,1.6112575257350852,0.16642325671430647,-1.3258479292903735, ,0.2010528422848957,0.15608049598432694,0.03942775128712872,-0.010842622831926286,0.16847180637670467,-0.12956442235293084, ,0.9170200824737549
0.01355443990438257,0.02223621736432004,-0.08971404773902279, ,0.014896284390866923,0.02144946340487082,-0.0910649356192845, ,0.0020602005930625894, ,0.025842469303613884,-0.0037586534742493024,-0.046908704590728975,0.004236343134234755,-0.0037180600676593196,0.006395278985947195, ,0.05368786885347555, ,0.005616355369487438, ,0.0009284457968805562, ,0.16865676324018908,-0.23806868631371897,0.10046636387,1.6110478357916007,0.1683361677110226,-1.3274077799421233, ,0.21325155406397928,0.1659037439833405,0.04783426882882884,0.016659257490515843,0.20928225014893848,-0.16303157567227367, ,0.9223740100860596
0.013803316846227338,0.022189355547143005,-0.09013848680477847, ,0.015032164164043198,0.021414292345879857,-0.09131111536588501, ,0.0018670421630960345, ,0.025842469303613884,-0.0037586534742493024,-0.046908704590728975,0.004236343134234755,-0.0037180600676593196,0.006395278985947195, ,0.05368786885347555, ,0.005616355369487438, ,0.0009468496471985069, ,0.16865676324018908,-0.23806868631371897,0.10046636387,1.6110478357916007,0.1683361677110226,-1.3274077799421233, ,0.21325155406397928,0.1659037439833405,0.04783426882882884,0.016659257490515843,0.20928225014893848,-0.16303157567227367, ,0.9280729293823242
0.013894093507648541,0.022175780917526637,-0.09030349073245703, ,0.015168998396699544,0.021377771726300246,-0.09155746985659316, ,0.001958230014369399, ,0.02624995312454344,-0.0037019883994280447,-0.04726113954462426,0.011146982889525718,0.0005017032646799088,0.009333157533392745, ,0.05418837576645636, ,0.011147696897315157, ,0.0009662992696441009, ,0.16941359106186307,-0.2374817586152779,0.10063617786000001,1.6110478357916007,0.16915598670961526,-1.328076287364302, ,0.21765353568456597,0.1661942934474094,0.04871196183486239,0.015173601626263687,0.22077439962100362,-0.17247046131554428, ,0.9334909915924072
0.013894093507648541,0.022175780917526637,-0.09030349073245703, ,0.015306755200794908,0.021339964668813913,-0.09180397030217345, ,0.002223879673011056, ,0.02624995312454344,-0.0037019883994280447,-0.04726113954462426,0.011146982889525718,0.0005017032646799088,0.009333157533392745, ,0.05418837576645636, ,0.011147696897315157, ,0.0009900272017831, ,0.16941359106186307,-0.2374817586152779,0.10063617786000001,1.6110478357916007,0.16915598670961526,-1.328076287364302, ,0.21765353568456597,0.1661942934474094,0.04871196183486239,0.015173601626263687,0.22077439962100362,-0.17247046131554428, ,0.9389128684997559
0.014350397074315045,0.02209836567012598,-0.09111102029310839, ,0.01544540310036476,0.02130093357675845,-0.09205058819547551, ,0.001648552087068005, ,0.028299889035379215,-0.005320801304727314,-0.049411574705230644,0.02745941543219523,0.028346941664304997,-0.0021994554183383456, ,0.0571900197656003, ,0.03946231187026447, ,0.0010022221070661538, ,0.17325178930035265,-0.23450850645870147,0.10146839604,1.6116769056220543,0.1736649912018748,-1.3317530781862839, ,0.23547628178280589,0.18643799913255554,0.05089077162939297,0.032490025834642375,0.26349486960416385,-0.2056000055272892, ,0.9441699981689453
0.014350397074315045,0.02209836567012598,-0.09111102029310839, ,0.015584911029519428,0.021260740137195294,-0.09229729531052401, ,0.0019060140754874374, ,0.028299889035379215,-0.005320801304727314,-0.049411574705230644,0.02745941543219523,0.028346941664304997,-0.0021994554183383456, ,0.0571900197656003, ,0.03946231187026447, ,0.0010186546883101772, ,0.17325178930035265,-0.23450850645870147,0.10146839604,1.6116769056220543,0.1736649912018748,-1.3317530781862839, ,0.23547628178280589,0.18643799913255554,0.05089077162939297,0.032490025834642375,0.26349486960416385,-0.2056000055272892, ,0.9494750499725342
0.014654413719200123,0.02203305266506189,-0.09162863456481081, ,0.015725248330442622,0.02121944532397705,-0.0925440637016074, ,0.0016268540729266953, ,0.029414965871648706,-0.007267778116843327,-0.04844988227002119,-0.075601892538609,-0.07761580788811002,-0.020197489367031824, ,0.0571441327518831, ,0.10834940156191368, ,0.0010295153916069007, ,0.17571534108723028,-0.23246970497990618,0.10199987494000001,1.6118865955655386,0.17571453869835643,-1.3334243467417304, ,0.23606204367778796,0.20190838629461869,0.04962246579439253,0.02212161834135447,0.15760972248086597,-0.1194031718234442, ,0.9547209739685059
0.014654413719200123,0.02203305266506189,-0.09162863456481081, ,0.015866384751389257,0.021177109400814447,-0.09279086570236693, ,0.001884753000151784, ,0.029414965871648706,-0.007267778116843327,-0.04844988227002119,-0.075601892538609,-0.07761580788811002,-0.020197489367031824, ,0.0571441327518831, ,0.10834940156191368, ,0.0010445195601778636, ,0.17571534108723028,-0.23246970497990618,0.10199987494000001,1.6118865955655386,0.17571453869835643,-1.3334243467417304, ,0.23606204367778796,0.20190838629461869,0.04962246579439253,0.02212161834135447,0.15760972248086597,-0.1194031718234442, ,0.9599349498748779
0.014937885548203217,0.021960156453799298,-0.09209055257283655, ,0.016008290444684867,0.02113379192434605,-0.09303767392488668, ,0.0016509645161116135, ,0.029767208728031326,-0.008528666080533154,-0.04702066836457371,-0.08074720902175253,-0.08443729619604107,0.03453502652136992, ,0.05630069372594484, ,0.11683124112999367, ,0.0010549755076939627, ,0.1779858245522523,-0.23051585356272739,0.10247302079000001,1.6120962855090233,0.17721754019577626,-1.3345682649422503, ,0.24024542166701462,0.20719856235473968,0.0484158404863222,-0.034311766388566596,0.16370136778190225,-0.12620967897242796, ,0.9652919769287109
0.014937885548203217,0.021960156453799298,-0.09209055257283655, ,0.016150935964722828,0.02108955174720301,-0.09328446125878155, ,0.00191176929009254, ,0.029767208728031326,-0.008528666080533154,-0.04702066836457371,-0.08074720902175253,-0.08443729619604107,0.03453502652136992, ,0.05630069372594484, ,0.11683124112999367, ,0.0010694974362091929, ,0.1779858245522523,-0.23051585356272739,0.10247302079000001,1.6120962855090233,0.17721754019577626,-1.3345682649422503, ,0.24024542166701462,0.20719856235473968,0.0484158404863222,-0.034311766388566596,0.16370136778190225,-0.12620967897242796, ,0.9706859588623047
0.01523886779577238,0.021866652774802632,-0.09256625638312414, ,0.01629429226596376,0.021044447021079445,-0.09353120087028821, ,0.001649563874799214, ,0.028750854696963226,-0.009970843198963221,-0.044749455760222046,-0.022159814769324496,-0.005259279363140121,0.0013471765066546387, ,0.05411601565840073, ,0.022771428632420435, ,0.001079165210185693, ,0.18044165360625566,-0.22833804289219609,0.10295912954000001,1.6118865955655386,0.17926708769225788,-1.3361578547575559, ,0.23843452652882108,0.21665968392344928,0.04564129375358167,0.013992878514583407,0.23614476921487088,-0.1885794683691496, ,0.976038932800293
0.01523886779577238,0.021866652774802632,-0.09256625638312414, ,0.01643833070093272,0.02099853519979714,-0.09377786620135257, ,0.0019132009137873187, ,0.028750854696963226,-0.009970843198963221,-0.044749455760222046,-0.022159814769324496,-0.005259279363140121,0.0013471765066546387, ,0.05411601565840073, ,0.022771428632420435, ,0.0010928379266381787, ,0.18044165360625566,-0.22833804289219609,0.10295912954000001,1.6118865955655386,0.17926708769225788,-1.3361578547575559, ,0.23843452652882108,0.21665968392344928,0.04564129375358167,0.013992878514583407,0.23614476921487088,-0.1885794683691496, ,0.9813389778137207
0.015359651641871447,0.02182412287282335,-0.0927529238614884, ,0.016583023018218825,0.020951873042375935,-0.09402443096872072, ,0.0019682956116711574, ,0.029518966968019963,-0.009920013181414269,-0.04499601849906961,-0.02991418085104763,-0.020956664530332177,-0.0012461485594578575, ,0.054721273314380224, ,0.03652198731887183, ,0.001106958211880646, ,0.18145333161277907,-0.22742676041303758,0.10314968417,1.6118865955655386,0.1803601796903814,-1.3370491979871275, ,0.24395100657704571,0.21616615389173302,0.04603702751445087,0.0138680439146567,0.22567060606421135,-0.18032257611584818, ,0.9866929054260254
0.015359651641871447,0.02182412287282335,-0.0927529238614884, ,0.016728341360472562,0.0209045166160989,-0.09427086916302681, ,0.002241237415285069, ,0.029518966968019963,-0.009920013181414269,-0.04499601849906961,-0.02991418085104763,-0.020956664530332177,-0.0012461485594578575, ,0.054721273314380224, ,0.03652198731887183, ,0.0011249626436807161, ,0.18145333161277907,-0.22742676041303758,0.10314968417,1.6118865955655386,0.1803601796903814,-1.3370491979871275, ,0.24395100657704571,0.21616615389173302,0.04603702751445087,0.0138680439146567,0.22567060606421135,-0.18032257611584818, ,0.9919469356536865
0.01584167157080048,0.021653652516484788,-0.0934710054634325, ,0.016874258262404913,0.020856521299581723,-0.09451715504788388, ,0.001672149038120632, ,0.030043815936364345,-0.010656419881467833,-0.04631251725174498,-0.09954758639054591,-0.08852737662900019,-0.01750185922536778, ,0.0562231217107469, ,0.1332163853056207, ,0.0011335124310938398, ,0.18534558898138823,-0.22388202602376853,0.10388338431000001,1.6118865955655386,0.1830929096856902,-1.339277556061056, ,0.23547628178280589,0.22328692131404887,0.04726650302670624,0.009991067792085265,0.148434696345914,-0.11819509135847385, ,0.9973819255828857
0.016137535198825,0.021547280549805155,-0.09392652273066521, ,0.01702074664878481,0.020807941785838252,-0.09476326315897166, ,0.0014236638710056098, ,0.029723546197163567,-0.010972394382246528,-0.04627152395999339,-0.05596339161133238,-0.04583622498694869,-0.007644427798835398, ,0.05607973400966444, ,0.07233704865318015, ,0.0011379762994001748, ,0.18767013157652981,-0.22168104715461456,0.10434875242000001,1.6118865955655386,0.18473254768287548,-1.3406962496455535, ,0.2337363092573172,0.2243426514384652,0.04726650302670624,0.008512962760637973,0.190689658971849,-0.16301110119221596, ,1.0044059753417969
0.016137535198825,0.021547280549805155,-0.09392652273066521, ,0.017167779832438293,0.02075883208534951,-0.09500916830312724, ,0.0016897267299072617, ,0.029723546197163567,-0.010972394382246528,-0.04627152395999339,-0.05596339161133238,-0.04583622498694869,-0.007644427798835398, ,0.05607973400966444, ,0.07233704865318015, ,0.0011463361544078578, ,0.18767013157652981,-0.22168104715461456,0.10434875242000001,1.6118865955655386,0.18473254768287548,-1.3406962496455535, ,0.2337363092573172,0.2243426514384652,0.04726650302670624,0.008512962760637973,0.190689658971849,-0.16301110119221596, ,1.0098800659179688
0.016428831678257646,0.021429952352594484,-0.09437692798260673, ,0.01731533151224675,0.020709245529130966,-0.0952548455574336, ,0.0014408468167155998, ,0.02804520844240326,-0.011589538205735073,-0.04320533922775946,-0.016327151210763988,-0.030712608617928832,-0.01254290682484949, ,0.05279727692017658, ,0.034780592901508804, ,0.001150731835934839, ,0.1899715059730487,-0.21939511822384408,0.10480763908000001,1.6123059754525078,0.1867820951793571,-1.3426942331615621, ,0.22017851869714797,0.22120499197778737,0.04400224176795581,0.013390190216794585,0.19117268683620983,-0.1984900494705399, ,1.015197992324829
0.016428831678257646,0.021429952352594484,-0.09437692798260673, ,0.017463375771144655,0.020659234771799193,-0.0955002702683098, ,0.0017106095288881538, ,0.02804520844240326,-0.011589538205735073,-0.04320533922775946,-0.016327151210763988,-0.030712608617928832,-0.01254290682484949, ,0.05279727692017658, ,0.034780592901508804, ,0.0011589653314194467, ,0.1899715059730487,-0.21939511822384408,0.10480763908000001,1.6123059754525078,0.1867820951793571,-1.3426942331615621, ,0.22017851869714797,0.22120499197778737,0.04400224176795581,0.013390190216794585,0.19117268683620983,-0.1984900494705399, ,1.0204849243164062
0.016704967122765965,0.021312172873149918,-0.09480008627462405, ,0.017611887074118142,0.020608851794639293,-0.09574541805059918, ,0.0014868814694878228, ,0.02812232454388591,-0.012212204986368122,-0.042425182217233876,-0.05926137833111974,-0.06099768194749987,-0.024135866389089447, ,0.052344046218707814, ,0.08504405166119759, ,0.0011637177392175388, ,0.1921107029792089,-0.21719413935469012,0.10523800736000001,1.6125156653959922,0.1884217331765424,-1.344276284226341, ,0.21715547267384616,0.22381354141148768,0.04316751089430895,0.01624932756970909,0.15640768408256572,-0.15743152206221123, ,1.0257580280303955
0.016704967122765965,0.021312172873149918,-0.09480008627462405, ,0.017760840266204284,0.020558147908674215,-0.09599026478666023, ,0.0017606665307773508, ,0.02812232454388591,-0.012212204986368122,-0.042425182217233876,-0.05926137833111974,-0.06099768194749987,-0.024135866389089447, ,0.052344046218707814, ,0.08504405166119759, ,0.0011722455790969648, ,0.1921107029792089,-0.21719413935469012,0.10523800736000001,1.6125156653959922,0.1884217331765424,-1.344276284226341, ,0.21715547267384616,0.22381354141148768,0.04316751089430895,0.01624932756970909,0.15640768408256572,-0.15743152206221123, ,1.0310120582580566
0.016973657709439753,0.02119697021942087,-0.09521767756207841, ,0.0179102105704877,0.02050717375772927,-0.09623478662545483, ,0.0015451411802491716, ,0.028916995756642732,-0.011929994882877864,-0.04592253863170621,-0.018713154801961222,-0.0414446211650815,-0.020640429495883787, ,0.05556434986460054, ,0.045471249724436176, ,0.0011774976298174185, ,0.19416494992375263,-0.21505494234852993,0.10566319048000002,1.6125156653959922,0.19006137117372765,-1.3460216927714006, ,0.21815388864016272,0.22702617597720282,0.046849445647058834,0.01598335066665329,0.17747672239652015,-0.2010724707925653, ,1.036383867263794
0.016973657709439753,0.02119697021942087,-0.09521767756207841, ,0.018059973586100595,0.020455979321502168,-0.0964789599816386, ,0.0018220820608785423, ,0.028916995756642732,-0.011929994882877864,-0.04592253863170621,-0.018713154801961222,-0.0414446211650815,-0.020640429495883787, ,0.05556434986460054, ,0.045471249724436176, ,0.0011864501913599341, ,0.19416494992375263,-0.21505494234852993,0.10566319048000002,1.6125156653959922,0.19006137117372765,-1.3460216927714006, ,0.21815388864016272,0.22702617597720282,0.046849445647058834,0.01598335066665329,0.17747672239652015,-0.2010724707925653, ,1.0416820049285889
0.017277647027449265,0.02107859789633528,-0.09570531486359449, ,0.018210105286219823,0.02040461391862852,-0.09672276153464941, ,0.0015358810289197529, ,0.028403336072216765,-0.01069181913751881,-0.045792369521360746,-0.03855675584484737,-0.04390278723072875,0.0046615696880672386, ,0.05493637777358053, ,0.058428390286216984, ,0.0011912369151621234, ,0.1964277106559004,-0.21273812248626256,0.10616226213,1.612725355339477,0.1918376456706784,-1.347878519220157, ,0.21041450456423677,0.21182353026444373,0.04698764460176992,-0.009264250251050044,0.1724987116062436,-0.17097123170660325, ,1.0469319820404053
0.017277647027449265,0.02107859789633528,-0.09570531486359449, ,0.01836058201606617,0.02035312620975065,-0.09696616822779786, ,0.0018135072549150706, ,0.028403336072216765,-0.01069181913751881,-0.045792369521360746,-0.03855675584484737,-0.04390278723072875,0.0046615696880672386, ,0.05493637777358053, ,0.058428390286216984, ,0.0011996459738074334, ,0.1964277106559004,-0.21273812248626256,0.10616226213,1.612725355339477,0.1918376456706784,-1.347878519220157, ,0.21041450456423677,0.21182353026444373,0.04698764460176992,-0.009264250251050044,0.1724987116062436,-0.17097123170660325, ,1.0522000789642334
0.017568147638358327,0.02096908698500796,-0.09617492035777434, ,0.01851138049090196,0.020301564200583745,-0.09720915726735613, ,0.0015507807282089717, ,0.028797004961355604,-0.011026027653542657,-0.04719179324510432,-0.028097845969810076,-0.04561736734992892,0.0023838007348842695, ,0.05637292018557936, ,0.05357423904525544, ,0.0012043277705327871, ,0.1985669076620606,-0.2105757572814797,0.10664448201000001,1.612725355339477,0.1936139201676291,-1.3498987031491945, ,0.20902410034905458,0.21616615389173302,0.0484158404863222,-0.009264250251050044,0.1692283273004329,-0.1856255126354846, ,1.057440996170044
0.017568147638358327,0.02096908698500796,-0.09617492035777434, ,0.01866247779402996,0.020249975244984356,-0.09745170612164723, ,0.0018288964079686343, ,0.028797004961355604,-0.011026027653542657,-0.04719179324510432,-0.028097845969810076,-0.04561736734992892,0.0023838007348842695, ,0.05637292018557936, ,0.05357423904525544, ,0.001212545778920101, ,0.20062115460660432,-0.2084365602753195,0.10713966479,1.612725355339477,0.19539019466457985,-1.3515921721176696, ,0.19852916644031546,0.20948552220412975,0.051218043472668826,-0.009264250251050044,0.17337398648141156,-0.18508807296637933, ,1.06272292137146
0.01785495288610747,0.020862405332574805,-0.09665714114318957, ,0.0188138513747909,0.020198406048016433,-0.09769379252013477, ,0.0015604574453716349, ,0.028468385126102395,-0.010004673030024813,-0.04984711133544249,-0.022023778362986617,-0.03098400332598577,0.003866644444256925, ,0.058269004990764976, ,0.03800983457117316, ,0.0012170641122506403, ,0.20062115460660432,-0.2084365602753195,0.10713966479,1.612725355339477,0.19539019466457985,-1.3515921721176696, ,0.19852916644031546,0.20948552220412975,0.051218043472668826,-0.009264250251050044,0.17337398648141156,-0.18508807296637933, ,1.068781852722168
0.018128515291093564,0.020764442940018724,-0.09713234244098647, ,0.018965479046563642,0.02014690266902092,-0.09793539445251337, ,0.0013140612038607727, ,0.027454792461469986,-0.009894567029693012,-0.04732923017055593,-0.008135071230372931,-0.025633451291073108,0.004409381052338835, ,0.05560327431316378, ,0.026888951597070467, ,0.0012183076647071804, ,0.20253639235941198,-0.20642092699514691,0.10762836612000001,1.612725355339477,0.19716646916153055,-1.3533673198262854, ,0.1913244789485298,0.2010528422848957,0.04871196183486239,-0.009213994971613586,0.1713811212661088,-0.1906451181918896, ,1.0740950107574463
0.018128515291093564,0.020764442940018724,-0.09713234244098647, ,0.019117338984760937,0.020095510524680345,-0.09817649016779631, ,0.0015860287982412517, ,0.027454792461469986,-0.009894567029693012,-0.04732923017055593,-0.008135071230372931,-0.025633451291073108,0.004409381052338835, ,0.05560327431316378, ,0.026888951597070467, ,0.0012229623626000168, ,0.20253639235941198,-0.20642092699514691,0.10762836612000001,1.612725355339477,0.19716646916153055,-1.3533673198262854, ,0.1913244789485298,0.2010528422848957,0.04871196183486239,-0.009213994971613586,0.1713811212661088,-0.1906451181918896, ,1.079390048980713
0.01840239782215786,0.020662106780632277,-0.09759549493910633, ,0.019269409724830332,0.02004427439208872,-0.09841705817340657, ,0.0013447649042353292, ,0.026572599933101505,-0.010192090995206578,-0.04483821377943783,-0.048753844027874915,-0.019971326234965166,0.003368503359162779, ,0.05310788266340324, ,0.052684057781360163, ,0.001224484894370458, ,0.2044593528450939,-0.20440529371497432,0.10810540084,1.612725355339477,0.1989427436584813,-1.3552241462750414, ,0.18570830050581366,0.1968816214906033,0.04617046817391306,-0.00806536004340415,0.17110071867301777,-0.1456535155041875, ,1.0848040580749512
0.01840239782215786,0.020662106780632277,-0.09759549493910633, ,0.019421670160250523,0.019993238411816903,-0.09865707723426535, ,0.0016165574420346873, ,0.026572599933101505,-0.010192090995206578,-0.04483821377943783,-0.048753844027874915,-0.019971326234965166,0.003368503359162779, ,0.05310788266340324, ,0.052684057781360163, ,0.0012293252961934733, ,0.2044593528450939,-0.20440529371497432,0.10810540084,1.612725355339477,0.1989427436584813,-1.3552241462750414, ,0.18570830050581366,0.1968816214906033,0.04617046817391306,-0.00806536004340415,0.17110071867301777,-0.1456535155041875, ,1.0902910232543945
0.018673437770017384,0.020558559536933613,-0.09805056398628079, ,0.019574099540530736,0.01994244609098101,-0.09889652637188218, ,0.0013807388460531666, ,0.026716064145854115,-0.010164165634445523,-0.04415392128471784,-0.005860586411484555,-0.008099042975945936,0.005449030996129847, ,0.052598736784326805, ,0.009988651018912678, ,0.0012311718028990793, ,0.2063514223992789,-0.20241282863342439,0.10857465782000002,1.612725355339477,0.20071901815543203,-1.3569176152435167, ,0.18791473575934806,0.19366722767034852,0.04564129375358167,-0.007166625607751658,0.1852264174007038,-0.18516006525501907, ,1.0955619812011719
0.018673437770017384,0.020558559536933613,-0.09805056398628079, ,0.019726677469209326,0.01989194030631019,-0.09913538486344445, ,0.001652431964748029, ,0.026716064145854115,-0.010164165634445523,-0.04415392128471784,-0.005860586411484555,-0.008099042975945936,0.005449030996129847, ,0.052598736784326805, ,0.009988651018912678, ,0.0012362472265358135, ,0.2063514223992789,-0.20241282863342439,0.10857465782000002,1.612725355339477,0.20071901815543203,-1.3569176152435167, ,0.18791473575934806,0.19366722767034852,0.04564129375358167,-0.007166625607751658,0.1852264174007038,-0.18516006525501907, ,1.1008188724517822
0.01894133131048833,0.0204590445000825,-0.09849495564417055, ,0.019879383901850935,0.01984176330721224,-0.09937363224090581, ,0.0014258510780876437, ,0.02624023642010438,-0.009834436929948915,-0.04274692339903102,0.024781251926520042,0.013036751334665208,0.00963167407912875, ,0.05111326263500249, ,0.02799865352893951, ,0.001238504415244764, ,0.20816626462472165,-0.20055937274361052,0.10901928529000002,1.612725355339477,0.2026319291521482,-1.3586408233755476, ,0.18643799913255554,0.18680500306785586,0.044618519663865555,-0.00647468103283424,0.20470399219299093,-0.2005192049841817, ,1.1061038970947266
0.01894133131048833,0.0204590445000825,-0.09849495564417055, ,0.02003219914404642,0.019791956718843266,-0.09961124829007795, ,0.00169738269387824, ,0.02624023642010438,-0.009834436929948915,-0.04274692339903102,0.024781251926520042,0.013036751334665208,0.00963167407912875, ,0.05111326263500249, ,0.02799865352893951, ,0.0012439029832286871, ,0.20816626462472165,-0.20055937274361052,0.10901928529000002,1.612725355339477,0.2026319291521482,-1.3586408233755476, ,0.18643799913255554,0.18680500306785586,0.044618519663865555,-0.00647468103283424,0.20470399219299093,-0.2005192049841817, ,1.1114389896392822
0.01920311266465743,0.02036126662536751,-0.09893063043117155, ,0.02018510384940999,0.019742561545173155,-0.09984821304971771, ,0.0014795474054750874, ,0.02609254515915856,-0.009377841521147456,-0.04298855861627838,0.04991894480093356,0.02356984609227002,0.0017818789325104861, ,0.05115448168424432, ,0.055202281491655465, ,0.0012466430346501568, ,0.20995793865154175,-0.19876769871679043,0.10945613502000001,1.6125156653959922,0.20468147664862982,-1.3608021643718375, ,0.1828457448140092,0.181447306995164,0.0448698916056338,0.003212080535284887,0.2171762138297416,-0.23221234813615138, ,1.1167430877685547
0.01920311266465743,0.02036126662536751,-0.09893063043117155, ,0.020338079017578344,0.019693618172054027,-0.100084506810618, ,0.0017508094637963755, ,0.02609254515915856,-0.009377841521147456,-0.04298855861627838,0.04991894480093356,0.02356984609227002,0.0017818789325104861, ,0.05115448168424432, ,0.055202281491655465, ,0.001252438051077125, ,0.20995793865154175,-0.19876769871679043,0.10945613502000001,1.6125156653959922,0.20468147664862982,-1.3608021643718375, ,0.1828457448140092,0.181447306995164,0.0448698916056338,0.003212080535284887,0.2171762138297416,-0.23221234813615138, ,1.1220149993896484
0.019449449727571337,0.020272460441700554,-0.09933922176043933, ,0.020491105992208148,0.01964516637028665,-0.10032011011469699, ,0.0015622700116197754, ,0.025723775809208684,-0.009243570120244361,-0.04320741713777279,0.008619252875784323,0.04109753939918735,0.0042352126379721095, ,0.05112765519919534, ,0.041989863972167044, ,0.0012559588688105642, ,0.21178822634273295,-0.196929688292725,0.10991242910000001,1.6125156653959922,0.20686766064487683,-1.3629932445316832, ,0.17837770969637368,0.17837770969637368,0.04499664271186441,0.00319089304074382,0.2233292510132658,-0.1824248959170219, ,1.1273119449615479
0.019449449727571337,0.020272460441700554,-0.09933922176043933, ,0.020644166458975544,0.019597245298688858,-0.10055500375408721, ,0.0018334092324759038, ,0.025723775809208684,-0.009243570120244361,-0.04320741713777279,0.008619252875784323,0.04109753939918735,0.0042352126379721095, ,0.05112765519919534, ,0.041989863972167044, ,0.0012624470751438827, ,0.21178822634273295,-0.196929688292725,0.10991242910000001,1.6125156653959922,0.20686766064487683,-1.3629932445316832, ,0.17837770969637368,0.17837770969637368,0.04499664271186441,0.00319089304074382,0.2233292510132658,-0.1824248959170219, ,1.1325740814208984
0.019713807429728104,0.020179856893477652,-0.09977379842086391, ,0.020797242443574022,0.019549893507162373,-0.1007891687702264, ,0.001612966907189857, ,0.026802310443205375,-0.008618178371961013,-0.04415668211702546,-0.012642385014370728,-0.0337767711827262,-0.010408672752817559, ,0.05236840096020623, ,0.0360628936286744, ,0.0012663417399443936, ,0.21361079130104993,-0.19514573699877913,0.11036613060000001,1.6125156653959922,0.20891720814135845,-1.3647461918272699, ,0.17837770969637368,0.1728541740591453,0.04617046817391306,0.0031013656408795287,0.1468832077894519,-0.15568405779334724, ,1.1379430294036865
0.019713807429728104,0.020179856893477652,-0.09977379842086391, ,0.020950316309711715,0.01950314893975911,-0.10102258645294458, ,0.0018831780091038077, ,0.027485700734242516,-0.007697550333712614,-0.04594480621215966,-0.01006579450866998,-0.031754934319418206,-0.008701655164241902, ,0.05236840096020623, ,0.03330902794172286, ,0.001273120160484607, ,0.21541791079361847,-0.19344673576644975,0.11084316532,1.6125156653959922,0.21042020963877828,-1.3660534675080709, ,0.17972905598195224,0.1661942934474094,0.048269125818181824,0.002991231544521455,0.15031189947642398,-0.15170714816023867, ,1.1440510749816895
0.019987767034553107,0.020098772825398188,-0.1002286995399344, ,0.02110337075711223,0.01945704893775115,-0.10125523833955656, ,0.0016462573070131913, ,0.027485700734242516,-0.007697550333712614,-0.04594480621215966,-0.01006579450866998,-0.031754934319418206,-0.008701655164241902, ,0.05408919710871371, ,0.03330902794172286, ,0.0012771759990338307, ,0.21541791079361847,-0.19344673576644975,0.11084316532,1.6125156653959922,0.21042020963877828,-1.3660534675080709, ,0.17972905598195224,0.1661942934474094,0.048269125818181824,0.002991231544521455,0.15031189947642398,-0.15170714816023867, ,1.1497678756713867
0.020269744428623285,0.020021935686065653,-0.10069505821574515, ,0.021256388819511314,0.019411630242696088,-0.10148710621394999, ,0.0014047348218570038, ,0.027634505822709328,-0.007535207334843,-0.04516956508843295,-0.009126132237554117,-0.009766609236622717,-0.0031189002683146352, ,0.053485838050110125, ,0.013359824645538625, ,0.0012785475992792411, ,0.21727136668343236,-0.19177862546561725,0.11133445923000002,1.6125156653959922,0.21205984763596358,-1.3675538398327092, ,0.18319872887735672,0.1619401733079706,0.047691052455089825,0.002870381331478305,0.17625330003645667,-0.14845691732172198, ,1.1550228595733643
0.020269744428623285,0.020021935686065653,-0.10069505821574515, ,0.02140935386265445,0.019366928999503572,-0.10171817210567358, ,0.001665684680045521, ,0.027634505822709328,-0.007535207334843,-0.04516956508843295,-0.009126132237554117,-0.009766609236622717,-0.0031189002683146352, ,0.053485838050110125, ,0.013359824645538625, ,0.001282666078861861, ,0.21727136668343236,-0.19177862546561725,0.11133445923000002,1.6125156653959922,0.21205984763596358,-1.3675538398327092, ,0.18319872887735672,0.1619401733079706,0.047691052455089825,0.002870381331478305,0.17625330003645667,-0.14845691732172198, ,1.1602399349212646
0.020546549674860408,0.019945924242979376,-0.10114607306366201, ,0.021562249582297636,0.01932298075950555,-0.1019484182890294, ,0.0014364758077462859, ,0.028078712415663412,-0.007474639798016416,-0.046126995234004785,0.03256184276287316,0.0342824643671297,0.008360594458366857, ,0.05451590612242928, ,0.04727951084140134, ,0.0012842851286395918, ,0.21912482257324623,-0.1901568515620301,0.11181149395000001,1.612725355339477,0.2141093951324452,-1.3691434296480152, ,0.18791473575934806,0.1619401733079706,0.04886138503067485,0.0004458589130787612,0.22640093165017966,-0.19056568944756563, ,1.1654739379882812
0.020546549674860408,0.019945924242979376,-0.10114607306366201, ,0.02171506000220328,0.019279820483520355,-0.10217782728215953, ,0.0016951776812062565, ,0.028078712415663412,-0.007474639798016416,-0.046126995234004785,0.03256184276287316,0.0342824643671297,0.008360594458366857, ,0.05451590612242928, ,0.04727951084140134, ,0.0012885652593954946, ,0.21912482257324623,-0.1901568515620301,0.11181149395000001,1.612725355339477,0.2141093951324452,-1.3691434296480152, ,0.18791473575934806,0.1619401733079706,0.04886138503067485,0.0004458589130787612,0.22640093165017966,-0.19056568944756563, ,1.1707558631896973
0.02082841710570519,0.01987135403212361,-0.10161321946493033, ,0.021867769472141217,0.01923748254492341,-0.10240638184613905, ,0.0014529807179953383, ,0.027855501615744387,-0.007491831161488259,-0.04517363316590188,0.04295226379760166,0.04519030085111026,0.01009669775772347, ,0.05359770179610741, ,0.06234478438992396, ,0.0012902602641233281, ,0.22100916939455703,-0.18853507765844296,0.11230667673000001,1.612725355339477,0.2165688521282231,-1.3711489519145506, ,0.18680500306785586,0.15895635101921404,0.047978347951807235,0.0005154330227975919,0.23627769618881683,-0.19796742126123698, ,1.1761178970336914
0.02082841710570519,0.01987135403212361,-0.10161321946493033, ,0.02202036266588398,0.019196000732710973,-0.10263406498406152, ,0.0017084969626510011, ,0.027855501615744387,-0.007491831161488259,-0.04517363316590188,0.04295226379760166,0.04519030085111026,0.01009669775772347, ,0.05359770179610741, ,0.06234478438992396, ,0.0012945279855368758, ,0.22100916939455703,-0.18853507765844296,0.11230667673000001,1.612725355339477,0.2165688521282231,-1.3711489519145506, ,0.18680500306785586,0.15895635101921404,0.047978347951807235,0.0005154330227975919,0.23627769618881683,-0.19796742126123698, ,1.1814959049224854
0.020838380908130127,0.019869148000510505,-0.10163021285008354, ,0.022172824579208442,0.01915540825457107,-0.10286085994013218, ,0.0019505528950684305, ,0.027916979191899536,-0.007470205472297186,-0.04530990495965443,0.04081267278622862,0.04264606999376229,0.009559724867808043, ,0.05374150336985566, ,0.059026863169249336, ,0.0013011544997745682, ,0.22107867399042505,-0.18848101852832339,0.11232482479000001,1.612725355339477,0.21670548862798855,-1.371260369818247, ,0.18680500306785586,0.15895635101921404,0.04812329764350454,0.0005173961281042639,0.2336797925007282,-0.19582494329950814, ,1.1868438720703125
0.020838380908130127,0.019869148000510505,-0.10163021285008354, ,0.022325140527891512,0.019115737739947875,-0.10308675019875464, ,0.0022134999967806427, ,0.027916979191899536,-0.007470205472297186,-0.04530990495965443,0.04081267278622862,0.04264606999376229,0.009559724867808043, ,0.05374150336985566, ,0.059026863169249336, ,0.001310277954744629, ,0.22107867399042505,-0.18848101852832339,0.11232482479000001,1.612725355339477,0.21670548862798855,-1.371260369818247, ,0.18680500306785586,0.15895635101921404,0.04812329764350454,0.0005173961281042639,0.2336797925007282,-0.19582494329950814, ,1.1921019554138184
0.021392384499770076,0.019726199794481685,-0.10250045898497656, ,0.022477296145710018,0.01907702124311068,-0.10331171948362228, ,0.0015022016068821004, ,0.02803440784711378,-0.007006957898815074,-0.04356369288148236,0.0027518443884539923,-0.0067560582241777516,0.0002534405092116718, ,0.05227638874105784, ,0.007284234351530524, ,0.0013121781889242079, ,0.2247546948385559,-0.18545370724162738,0.11325296843000002,1.612725355339477,0.22066794712118631,-1.374573167765584, ,0.18355307844965332,0.14897479051565274,0.04657547228070176,0.0005917562394899847,0.17990446543861463,-0.14788560990883629, ,1.1973400115966797
0.021392384499770076,0.019726199794481685,-0.10250045898497656, ,0.022629277382438754,0.01903929024622113,-0.10353575175680718, ,0.0017531628144849178, ,0.02803440784711378,-0.007006957898815074,-0.04356369288148236,0.0027518443884539923,-0.0067560582241777516,0.0002534405092116718, ,0.05227638874105784, ,0.007284234351530524, ,0.0013165015676061757, ,0.2247546948385559,-0.18545370724162738,0.11325296843000002,1.612725355339477,0.22066794712118631,-1.374573167765584, ,0.18355307844965332,0.14897479051565274,0.04657547228070176,0.0005917562394899847,0.17990446543861463,-0.14788560990883629, ,1.2026000022888184
0.021681336028298918,0.019651919061401363,-0.1029384676502953, ,0.022781070501848903,0.01900257566240008,-0.1037588312178492, ,0.0015179127593872397, ,0.028713251574779202,-0.007662867029960835,-0.04186035609859648,-0.007124374281303024,-0.02346395728969384,-0.002553239384152956, ,0.05133672914996362, ,0.024519083743239696, ,0.0013184570160700694, ,0.22665448712561514,-0.18392460613253092,0.11372222541000002,1.612725355339477,0.22244422161813707,-1.3760216005136372, ,0.1909395202383718,0.15110977955170507,0.04499664271186441,0.0006115662411488855,0.17036292960079427,-0.14002271772896374, ,1.2079150676727295
0.021681336028298918,0.019651919061401363,-0.1029384676502953, ,0.02293266207970638,0.018966907838795448,-0.10398094230284659, ,0.0017668646420252402, ,0.028713251574779202,-0.007662867029960835,-0.04186035609859648,-0.007124374281303024,-0.02346395728969384,-0.002553239384152956, ,0.05133672914996362, ,0.024519083743239696, ,0.0013227686278581, ,0.22665448712561514,-0.18392460613253092,0.11372222541000002,1.612725355339477,0.22244422161813707,-1.3760216005136372, ,0.1909395202383718,0.15110977955170507,0.04499664271186441,0.0006115662411488855,0.17036292960079427,-0.14002271772896374, ,1.213352918624878
0.021967817638348878,0.019574637519033204,-0.10335401542215836, ,0.02308403900177037,0.01893231655964947,-0.10420206968354442, ,0.0015419865035976288, ,0.028329463833154746,-0.0075552761776614425,-0.04056762820596738,-0.0009826046004202604,-0.018927775196012655,-0.0016425515895766075, ,0.05005370293447191, ,0.018950364399512438, ,0.0013248564171508574, ,0.2285620021455486,-0.18241867322205715,0.11416944546,1.612725355339477,0.22422049611508776,-1.3774700332616907, ,0.18866191164705923,0.14667224352159317,0.04376047120879121,0.0006228651502088987,0.17261374414714145,-0.14177801678705237, ,1.2186498641967773
0.021967817638348878,0.019574637519033204,-0.10335401542215836, ,0.023235188461790516,0.018898831049364746,-0.10442219826642435, ,0.0017899602725594396, ,0.028329463833154746,-0.0075552761776614425,-0.04056762820596738,-0.0009826046004202604,-0.018927775196012655,-0.0016425515895766075, ,0.05005370293447191, ,0.018950364399512438, ,0.001329244189371693, ,0.23047723989835628,-0.18094363124308027,0.1146049989,1.612725355339477,0.22599677061203852,-1.3789184660097442, ,0.1917109930474157,0.14758466805360929,0.04293480194070081,0.0006282802610588362,0.19138247017542417,-0.15694299230057043, ,1.2239329814910889
0.022254006268370565,0.019497170892535012,-0.10375688865686711, ,0.02338609795950794,0.01886647997557458,-0.10464131319179476, ,0.0015689516843614608, ,0.02845524426670784,-0.007930671751293387,-0.039653061387092216,0.013351007743739093,-0.0034833926184591364,0.0011264220732447176, ,0.04944655456220662, ,0.013794397281241714, ,0.0013314844463342143, ,0.23047723989835628,-0.18094363124308027,0.1146049989,1.612725355339477,0.22599677061203852,-1.3789184660097442, ,0.1917109930474157,0.14758466805360929,0.04293480194070081,0.0006282802610588362,0.19138247017542417,-0.15694299230057043, ,1.2298119068145752
0.022548479219737932,0.019419560292930228,-0.10416382930704765, ,0.023536755298650642,0.018835291452206873,-0.1048593998328792, ,0.0013423405092586878, ,0.02923068082185542,-0.007305391732918036,-0.040574414408014514,0.003150065454891614,-0.022683885537225272,-0.0014744886222884067, ,0.050537951622853385, ,0.022899161746843286, ,0.0013315849654353669, ,0.23245425951415774,-0.1794685892641034,0.11504703379000002,1.612725355339477,0.22790968160875466,-1.380478316661494, ,0.19366722767034852,0.1424879002379441,0.044124131634349036,0.0006293503789041322,0.17379069682740816,-0.14171466010685768, ,1.235102891921997
0.022548479219737932,0.019419560292930228,-0.10416382930704765, ,0.023687148584935456,0.018805293042555734,-0.10507644379490866, ,0.0015832742597464854, ,0.02923068082185542,-0.007305391732918036,-0.040574414408014514,0.003150065454891614,-0.022683885537225272,-0.0014744886222884067, ,0.050537951622853385, ,0.022899161746843286, ,0.0013338940415299643, ,0.23245425951415774,-0.1794685892641034,0.11504703379000002,1.612725355339477,0.22790968160875466,-1.380478316661494, ,0.19366722767034852,0.1424879002379441,0.044124131634349036,0.0006293503789041322,0.17379069682740816,-0.14171466010685768, ,1.2404179573059082
0.022829481891749114,0.019349811428158215,-0.1045527178308207, ,0.023837266224061463,0.018776511762342945,-0.1052924309142061, ,0.00137530986072583, ,0.029034855965892205,-0.007132696854017843,-0.03987110547961653,0.01660932851787949,-0.009020685353027526,0.00129227069115596, ,0.04983576303758306, ,0.01889819560975091, ,0.0013342705489771997, ,0.2343308836025943,-0.17810938827823986,0.11547092062000001,1.612725355339477,0.22982259260547083,-1.3819564885731035, ,0.19287996251721704,0.13873821865273506,0.04352134295081967,0.0006273671417965158,0.1868365707567343,-0.15147432142321715, ,1.245743989944458
0.022829481891749114,0.019349811428158215,-0.1045527178308207, ,0.023987096919712972,0.01874897408279071,-0.10550734725728066, ,0.0016162906330296268, ,0.029034855965892205,-0.007132696854017843,-0.03987110547961653,0.01660932851787949,-0.009020685353027526,0.00129227069115596, ,0.04983576303758306, ,0.01889819560975091, ,0.0013368112704551494, ,0.2343308836025943,-0.17810938827823986,0.11547092062000001,1.612725355339477,0.22982259260547083,-1.3819564885731035, ,0.19287996251721704,0.13873821865273506,0.04352134295081967,0.0006273671417965158,0.1868365707567343,-0.15147432142321715, ,1.2510199546813965
0.02312508840582577,0.019280885706098316,-0.10496031109198822, ,0.024136629671555852,0.018722705933686558,-0.10572117911991512, ,0.0013833656590091499, ,0.02976206741315354,-0.006807156243807324,-0.04062620963167725,-0.046332496158844313,-0.08209521545237039,-0.012547652603919, ,0.05081935597653404, ,0.09426671697937021, ,0.0013372269346386672, ,0.23623839862252774,-0.1767347418266279,0.11591554809000001,1.612725355339477,0.23118895760312522,-1.3829889888699272, ,0.18979388311694156,0.1359555036654309,0.044369948523676886,0.0006230306655878797,0.10937732222274633,-0.08574289393657658, ,1.256269931793213
0.02312508840582577,0.019280885706098316,-0.10496031109198822, ,0.024285853773236946,0.018697732706452225,-0.10593391302625647, ,0.001623374382447966, ,0.02976206741315354,-0.006807156243807324,-0.04062620963167725,-0.046332496158844313,-0.08209521545237039,-0.012547652603919, ,0.05081935597653404, ,0.09426671697937021, ,0.0013397592129378647, ,0.23623839862252774,-0.1767347418266279,0.11591554809000001,1.612725355339477,0.23118895760312522,-1.3829889888699272, ,0.18979388311694156,0.1359555036654309,0.044369948523676886,0.0006230306655878797,0.10937732222274633,-0.08574289393657658, ,1.2615559101104736
0.023418693869861246,0.0192153446087881,-0.10536981438120874, ,0.02443475881038048,0.018674079257208133,-0.10614553572790338, ,0.0013882001843722248, ,0.0294310226447344,-0.006496266139997145,-0.04072369068683477,0.005108644171687006,-0.024276879721600038,-0.001408938004550218, ,0.05066365117945543, ,0.024806312296344418, ,0.0013401841337399203, ,0.23810729997809008,-0.17539870903938706,0.11636276814000002,1.612725355339477,0.23255532260077963,-1.3841031679068914, ,0.18979388311694156,0.13235277762687694,0.044618519663865555,0.0006170474360663531,0.16812729561152326,-0.13364955788387495, ,1.2667899131774902
0.023418693869861246,0.0192153446087881,-0.10536981438120874, ,0.024583334658588658,0.018651769909843855,-0.1063560342029979, ,0.00162684791696936, ,0.0294310226447344,-0.006496266139997145,-0.04072369068683477,0.005108644171687006,-0.024276879721600038,-0.001408938004550218, ,0.05066365117945543, ,0.024806312296344418, ,0.0013426768622897415, ,0.23810729997809008,-0.17539870903938706,0.11636276814000002,1.612725355339477,0.23255532260077963,-1.3841031679068914, ,0.18979388311694156,0.13235277762687694,0.044618519663865555,0.0006170474360663531,0.16812729561152326,-0.13364955788387495, ,1.2721068859100342
0.02366758859370429,0.01916502538472245,-0.10572096942493946, ,0.02473157148143855,0.01863082845908352,-0.10656539565531396, ,0.001459616935808131, ,0.029382974319913737,-0.0056560910182889106,-0.04221650544701118,0.03940506302120213,0.012038490164943566,0.00649117479952445, ,0.051745375422827915, ,0.04120133665939424, ,0.0013436849663717965, ,0.23969818295018033,-0.1743098037041214,0.11674776627000001,1.6129350452829614,0.2340583240981995,-1.3853287648475519, ,0.18754336276377626,0.12636077437878931,0.046304684651162796,0.0,0.20285497958114637,-0.1621972943003594, ,1.2774958610534668
0.02366758859370429,0.01916502538472245,-0.10572096942493946, ,0.024879459728482146,0.018611278173555085,-0.10677360751334736, ,0.0016980325575060215, ,0.029382974319913737,-0.0056560910182889106,-0.04221650544701118,0.03940506302120213,0.012038490164943566,0.00649117479952445, ,0.051745375422827915, ,0.04120133665939424, ,0.0013467135782618325, ,0.23969818295018033,-0.1743098037041214,0.11674776627000001,1.6129350452829614,0.2340583240981995,-1.3853287648475519, ,0.18754336276377626,0.12636077437878931,0.046304684651162796,0.0,0.20285497958114637,-0.1621972943003594, ,1.2829489707946777
0.02399981444621148,0.019100021776216683,-0.10618607358730717, ,0.02502699013324248,0.01859314179885527,-0.10698065742940427, ,0.0013940518948731084, ,0.0281037377391115,-0.005564175890098395,-0.03874087708667681,0.018172330814098966,-0.01041773793760504,0.0022167544188131105, ,0.04818335486129741, ,0.020944584133296276, ,0.0013471147504365043, ,0.24183737995634053,-0.17289654358813833,0.11725980082000001,1.6129350452829614,0.23638114459421197,-1.3868961542498288, ,0.1793893035131773,0.11862117694808846,0.04270458852546917,0.0,0.1716889882989327,-0.1333872039006543, ,1.2881989479064941
0.02399981444621148,0.019100021776216683,-0.10618607358730717, ,0.025174153711214464,0.018576441560619647,-0.10718653327869304, ,0.0016291496387932903, ,0.0281037377391115,-0.005564175890098395,-0.03874087708667681,0.018172330814098966,-0.01041773793760504,0.0022167544188131105, ,0.04818335486129741, ,0.020944584133296276, ,0.001349484791515133, ,0.24183737995634053,-0.17289654358813833,0.11725980082000001,1.6129350452829614,0.23638114459421197,-1.3868961542498288, ,0.1793893035131773,0.11862117694808846,0.04270458852546917,0.0,0.1716889882989327,-0.1333872039006543, ,1.2934720516204834
0.024294221529111294,0.01904138796858409,-0.10657865507466367, ,0.025320941757860267,0.01856119916758626,-0.10739122315840949, ,0.001394633501479304, ,0.028801572164257976,-0.005654674576396098,-0.039073786512519755,-0.0516361828772088,-0.035591034677954284,-0.0025780294402232853, ,0.048869895601728795, ,0.06271304529870535, ,0.0013498610307648344, ,0.24371400404477708,-0.17167635179401086,0.11769405797000002,1.6129350452829614,0.23788414609163183,-1.387468321269365, ,0.181447306995164,0.11921726326441054,0.04316751089430895,0.0,0.14816929557521666,-0.06410361452681287, ,1.2986879348754883
0.024294221529111294,0.01904138796858409,-0.10657865507466367, ,0.02546734584661134,0.01854743581466781,-0.1075947153868317, ,0.0016286767489687656, ,0.028801572164257976,-0.005654674576396098,-0.039073786512519755,-0.0516361828772088,-0.035591034677954284,-0.0025780294402232853, ,0.048869895601728795, ,0.06271304529870535, ,0.001352165292898751, ,0.24371400404477708,-0.17167635179401086,0.11769405797000002,1.6129350452829614,0.23788414609163183,-1.387468321269365, ,0.181447306995164,0.11921726326441054,0.04316751089430895,0.0,0.14816929557521666,-0.06410361452681287, ,1.3039369583129883
0.024577499529239637,0.018987152216708564,-0.1069610860547475, ,0.025613357826864747,0.01853517218601643,-0.10779699850240668, ,0.00140571618083268, ,0.028221962908158857,-0.004953618015668021,-0.03845752637489614,-0.00782220964021303,0.00955760213596502,0.003822133730429387, ,0.04795830331350847, ,0.012347088758009949, ,0.0013526042346031276, ,0.24552112353734562,-0.17051794186287716,0.11811794480000001,1.613144735226446,0.23966042058858256,-1.388263324096294, ,0.17972905598195224,0.11125081073677699,0.04270458852546917,0.0029988906921994706,0.1917530046959493,-0.09940173369488774, ,1.309278964996338
0.024850711732474245,0.018943384139881263,-0.1073348109461034, ,0.0257589698219805,0.018524428458089406,-0.10799806126283835, ,0.0012001489920456718, ,0.028221962908158857,-0.004953618015668021,-0.03845752637489614,-0.00782220964021303,0.00955760213596502,0.003822133730429387, ,0.04795830331350847, ,0.012347088758009949, ,0.0013513647610864004, ,0.24726646116692036,-0.16947537292485687,0.11853405389000002,1.6133544251699303,0.24170996808506415,-1.3894445202108967, ,0.17671683716661224,0.10292509930419824,0.0416984594764398,-0.006684822406544312,0.2108283000691045,-0.14936539968206342, ,1.3147568702697754
0.024850711732474245,0.018943384139881263,-0.1073348109461034, ,0.025904174227282015,0.0185152243027194,-0.10819789264417994, ,0.0014275903094654813, ,0.027586360273591244,-0.004317908171190127,-0.037356032785295964,0.04795900835383413,0.029723791782032626,0.018126176006736175, ,0.04663823313093358, ,0.05642249139382036, ,0.001351979483250748, ,0.24726646116692036,-0.16947537292485687,0.11853405389000002,1.6133544251699303,0.24170996808506415,-1.3894445202108967, ,0.17671683716661224,0.10292509930419824,0.0416984594764398,-0.006684822406544312,0.2108283000691045,-0.14936539968206342, ,1.3203258514404297
0.025131734337325372,0.01890045466686636,-0.10771448530980358, ,0.026048963708053964,0.01850757889018135,-0.10839648183992279, ,0.0012086274701195788, ,0.027936401707264524,-0.004035673491272941,-0.037853042050760496,-0.01847052863346802,-0.013881657233978934,0.009985015506812184, ,0.047218449713797864, ,0.023103746897965, ,0.0013508326671456984, ,0.24904268972799198,-0.16844052671971077,0.11895794072000002,1.6133544251699303,0.24362287908178032,-1.3903509409415222, ,0.17348618200817328,0.10042004397721775,0.04225148944297083,-0.006684822406544312,0.1632020637700418,-0.08048432088902994, ,1.3254940509796143
0.025131734337325372,0.01890045466686636,-0.10771448530980358, ,0.026193331197540446,0.01850151089225941,-0.10859381826008548, ,0.0014350506842504206, ,0.027936401707264524,-0.004035673491272941,-0.037853042050760496,-0.01847052863346802,-0.013881657233978934,0.009985015506812184, ,0.047218449713797864, ,0.023103746897965, ,0.0013515010641068472, ,0.24904268972799198,-0.16844052671971077,0.11895794072000002,1.6133544251699303,0.24362287908178032,-1.3903509409415222, ,0.17348618200817328,0.10042004397721775,0.04225148944297083,-0.006684822406544312,0.1632020637700418,-0.08048432088902994, ,1.3309130668640137
0.025419112294462386,0.018866749470172882,-0.10811681174382218, ,0.026337269894942325,0.01849703848531276,-0.10878989153030189, ,0.0011969695027914833, ,0.0281936733780569,-0.002706173199133066,-0.0393848285393131,-0.04778993343159457,-0.03116218930962539,0.008330255814544833, ,0.04851155852993544, ,0.057051424308751215, ,0.0013502842801594822, ,0.2507880273575667,-0.16745973964468427,0.11940645706000001,1.6133544251699303,0.2452625170789656,-1.3911162046048955, ,0.16915675857124915,0.09029204715363537,0.04400224176795581,-0.006684822406544312,0.14121966723941626,-0.041329367190118316, ,1.3361759185791016
0.025419112294462386,0.018866749470172882,-0.10811681174382218, ,0.026480773263644185,0.01849417935381344,-0.10898469149136168, ,0.0014209671921889544, ,0.0281936733780569,-0.002706173199133066,-0.0393848285393131,-0.04778993343159457,-0.03116218930962539,0.008330255814544833, ,0.04851155852993544, ,0.057051424308751215, ,0.0013508364904097124, ,0.2507880273575667,-0.16745973964468427,0.11940645706000001,1.6133544251699303,0.2452625170789656,-1.3911162046048955, ,0.16915675857124915,0.09029204715363537,0.04400224176795581,-0.006684822406544312,0.14121966723941626,-0.041329367190118316, ,1.3415188789367676
0.02570607464512901,0.018842464976695915,-0.1085201327149198, ,0.02662383502826981,0.018492950691509035,-0.10917820819647937, ,0.0011821622967436868, ,0.02750429564689263,-0.002006336065546412,-0.03884959665982795,0.004940460258646897,-0.009083506064829177,0.001622145638284154, ,0.04764244771284221, ,0.010335846950169435, ,0.0013495289385208286, ,0.2525024740556446,-0.16657162536414846,0.11985756598000001,1.613144735226446,0.24676551857638546,-1.3917700503645722, ,0.16418155978974183,0.08280710432676333,0.04352134295081967,0.004870157814876259,0.15659523106396922,-0.08398359224377593, ,1.3468310832977295
0.02570607464512901,0.018842464976695915,-0.1085201327149198, ,0.026766449174148235,0.018493369207396127,-0.10937043191315321, ,0.0014033070670570068, ,0.02750429564689263,-0.002006336065546412,-0.03884959665982795,0.004940460258646897,-0.009083506064829177,0.001622145638284154, ,0.04764244771284221, ,0.010335846950169435, ,0.0013499426164326454, ,0.2525024740556446,-0.16657162536414846,0.11985756598000001,1.613144735226446,0.24676551857638546,-1.3917700503645722, ,0.16418155978974183,0.08280710432676333,0.04352134295081967,0.004870157814876259,0.15659523106396922,-0.08398359224377593, ,1.3520889282226562
0.025980994548480532,0.018825899787323942,-0.10890159075853316, ,0.026908609944295968,0.018495451126814888,-0.10956135312037969, ,0.0011853071390552623, ,0.02699859427996803,-0.0014813616728536344,-0.03752673786339401,0.01703052215029777,-0.009089471491676111,-0.005984351125642198, ,0.04625337371660592, ,0.01930240281005998, ,0.0013486858570633524, ,0.254031575164741,-0.16583796574109713,0.12025682330000001,1.613144735226446,0.24813188357403987,-1.3923941569606932, ,0.16221699411704404,0.07585686775257457,0.042476830720000004,0.004870157814876259,0.1525420415810618,-0.07706849599459295, ,1.3573579788208008
0.025980994548480532,0.018825899787323942,-0.10890159075853316, ,0.027050311837679065,0.018499212195019144,-0.10975096250822, ,0.0014041355408616696, ,0.02699859427996803,-0.0014813616728536344,-0.03752673786339401,0.01703052215029777,-0.009089471491676111,-0.005984351125642198, ,0.04625337371660592, ,0.01930240281005998, ,0.0013491059304254608, ,0.254031575164741,-0.16583796574109713,0.12025682330000001,1.613144735226446,0.24813188357403987,-1.3923941569606932, ,0.16221699411704404,0.07585686775257457,0.042476830720000004,0.004870157814876259,0.1525420415810618,-0.07706849599459295, ,1.3625900745391846
0.026249937197410086,0.018813072649547784,-0.10927023583039623, ,0.02719154960721168,0.018504667680243416,-0.1099392509768892, ,0.0011955454075947914, ,0.02707691986478651,-0.0011165821032358499,-0.03665917717115969,-0.029849638761679027,-0.03165974097679345,-0.016984970203492177, ,0.04558839343323926, ,0.04351176765483705, ,0.0013479513400282378, ,0.25574602186281886,-0.16505024698792622,0.12070274706000002,1.6137738050568995,0.2496348850714597,-1.3930480027203695, ,0.16057012108032281,0.0710306448790949,0.04148128,0.021676045780561422,0.12720950625408015,-0.033456709395246566, ,1.3678669929504395
0.026249937197410086,0.018813072649547784,-0.10927023583039623, ,0.027332318257754357,0.018511832376770638,-0.11012620963584513, ,0.0014124395977702928, ,0.02707691986478651,-0.0011165821032358499,-0.03665917717115969,-0.029849638761679027,-0.03165974097679345,-0.016984970203492177, ,0.04558839343323926, ,0.04351176765483705, ,0.0013484325956830293, ,0.25574602186281886,-0.16505024698792622,0.12070274706000002,1.6137738050568995,0.2496348850714597,-1.3930480027203695, ,0.16057012108032281,0.0710306448790949,0.04148128,0.021676045780561422,0.12720950625408015,-0.033456709395246566, ,1.3731520175933838
0.026507058470464178,0.018807338747729253,-0.10961477545809892, ,0.027472613044112512,0.018520720607999294,-0.11031182980287876, ,0.0012248797297253061, ,0.026839797902254218,-0.0002962019788568939,-0.03511792604125909,0.021907208385162528,-0.0250270737622952,-0.03689102839925473, ,0.04420103184865113, ,0.03325998778807525, ,0.0013475173892685275, ,0.2572751229719153,-0.16442470562511405,0.12109422664000001,1.613983495000384,0.25086461356934864,-1.393560691412794, ,0.16111535069349878,0.06178186299379608,0.04012295093198993,0.04554313986345859,0.13055829176661454,-0.07020531353676793, ,1.3785810470581055
0.026507058470464178,0.018807338747729253,-0.10961477545809892, ,0.027612429469034656,0.018531346229511015,-0.11049610300320324, ,0.0014404010401109664, ,0.026839797902254218,-0.0002962019788568939,-0.03511792604125909,0.021907208385162528,-0.0250270737622952,-0.03689102839925473, ,0.04420103184865113, ,0.03325998778807525, ,0.0013482003572894278, ,0.2572751229719153,-0.16442470562511405,0.12109422664000001,1.613983495000384,0.25086461356934864,-1.393560691412794, ,0.16111535069349878,0.06178186299379608,0.04012295093198993,0.04554313986345859,0.13055829176661454,-0.07020531353676793, ,1.3840980529785156
0.026772826860731628,0.018805866379833395,-0.10996127135452549, ,0.02775176328121093,0.01854372263213784,-0.11067902096854346, ,0.0012418536017661799, ,0.025812900854908307,7.881299405678555e-05,-0.03323714535829987,-0.00829942256548691,-0.010157379578033717,-0.0270535920014553, ,0.04208348718443034, ,0.013115342652233224, ,0.0013474241035994771, ,0.2588737286768798,-0.16383777792667298,0.12149089138000001,1.613983495000384,0.25223097856700305,-1.3941031192687745, ,0.15633763024459765,0.05514058196308587,0.038198588776978425,0.03876170366650976,0.14190791445778023,-0.03521133423313546, ,1.3894569873809814
0.026772826860731628,0.018805866379833395,-0.10996127135452549, ,0.027890610473271252,0.018557862745029574,-0.11086057563622516, ,0.00145591696137568, ,0.025812900854908307,7.881299405678555e-05,-0.03323714535829987,-0.00829942256548691,-0.010157379578033717,-0.0270535920014553, ,0.04208348718443034, ,0.013115342652233224, ,0.00134821028372829, ,0.2588737286768798,-0.16383777792667298,0.12149089138000001,1.613983495000384,0.25223097856700305,-1.3941031192687745, ,0.15633763024459765,0.05514058196308587,0.038198588776978425,0.03876170366650976,0.14190791445778023,-0.03521133423313546, ,1.3948860168457031
0.02703497356946372,0.01880919200148248,-0.11030659399486611, ,0.028028967279783924,0.018573779038721237,-0.11104075914826535, ,0.0012579512040050962, ,0.02535525543734124,0.0008397749164745997,-0.03343535568599862,0.052310348144288484,0.010435804792702813,-0.013885575163223456, ,0.041970432569279084, ,0.05334076076276229, ,0.001347560937831001, ,0.26046461164897006,-0.16329718662547726,0.12188755612000002,1.613983495000384,0.2540072530639538,-1.3948981220957033, ,0.15232253861712805,0.04829360893560853,0.03847539014492755,0.03003433182757659,0.16018874475810418,-0.09136142152934099, ,1.4003489017486572
0.027286438972800264,0.01882293649501695,-0.11064327918155138, ,0.028166830175253794,0.01859148352820048,-0.11121956385046074, ,0.0010773871935500648, ,0.025120779649102424,0.0019850969211844755,-0.034522572233225156,0.032403739554020254,0.034797173651551626,-0.0032358186071139096, ,0.04274110636803291, ,0.04754783481024288, ,0.0013456311253718515, ,0.2619628218265696,-0.16286471358452068,0.12227514683000001,1.613983495000384,0.2556468910611391,-1.3952549920583737, ,0.14850851574095583,0.03960640298767562,0.03972272199501248,0.02481213875644687,0.18187045657130063,-0.06436442105725661, ,1.4055850505828857
0.027286438972800264,0.01882293649501695,-0.11064327918155138, ,0.028304195872120866,0.018610987775974846,-0.11139698229147812, ,0.0012840637614742964, ,0.025120779649102424,0.0019850969211844755,-0.034522572233225156,0.032403739554020254,0.034797173651551626,-0.0032358186071139096, ,0.04274110636803291, ,0.04754783481024288, ,0.001345194477400947, ,0.2619628218265696,-0.16286471358452068,0.12227514683000001,1.613983495000384,0.2556468910611391,-1.3952549920583737, ,0.14850851574095583,0.03960640298767562,0.03972272199501248,0.02481213875644687,0.18187045657130063,-0.06436442105725661, ,1.410851001739502
0.027286438972800264,0.01882293649501695,-0.11064327918155138, ,0.028441061318758325,0.0186323028951393,-0.11157300722194281, ,0.0014946197376851746, ,0.025120779649102424,0.0019850969211844755,-0.034522572233225156,0.032403739554020254,0.034797173651551626,-0.0032358186071139096, ,0.04274110636803291, ,0.04754783481024288, ,0.0013462467679663287, ,0.2619628218265696,-0.16286471358452068,0.12227514683000001,1.613983495000384,0.2556468910611391,-1.3952549920583737, ,0.14850851574095583,0.03960640298767562,0.03972272199501248,0.02481213875644687,0.18187045657130063,-0.06436442105725661, ,1.4164118766784668
0.027596124013804815,0.018850825380258347,-0.11105890920546113, ,0.02857742369747119,0.018655439552443472,-0.11174763159352946, ,0.001214686469300278, ,0.026296037627939788,0.0025002951216355086,-0.03492416329202448,-0.06531216416686361,-0.05222867765679685,0.007318650768096074, ,0.04378847168231942, ,0.08362691912664093, ,0.001345326765877755, ,0.2637622185862639,-0.1624245178106899,0.12275477413000001,1.6141931849438687,0.2572865290583244,-1.3952034683203411, ,0.1499161793972682,0.035147015392026214,0.04032610511392406,0.0,0.09907566807776502,0.03135711839390848, ,1.4218928813934326
0.027848134757524432,0.01887926501393091,-0.11138950550372202, ,0.028713280422494523,0.01868040797135914,-0.1119208485580505, ,0.0010345755585649825, ,0.02505368029506217,0.0031755301998351213,-0.03357842453092133,-0.00760769659439904,-0.01249448619929107,0.0037162607984314038, ,0.042015252972653044, ,0.014626911679246674, ,0.0013431687713825274, ,0.26521409236661814,-0.16212333122859512,0.12313847597000001,1.6146125648308374,0.25837962105644785,-1.395114666668226, ,0.14400142876854444,0.02733994282871529,0.03894574943765281,0.011695769811873053,0.13147637591075845,-0.01575083852590669, ,1.4275469779968262
0.027848134757524432,0.01887926501393091,-0.11138950550372202, ,0.028848629137991865,0.01870721793514752,-0.11209265146654561, ,0.0012349102994549522, ,0.02505368029506217,0.0031755301998351213,-0.03357842453092133,-0.00760769659439904,-0.01249448619929107,0.0037162607984314038, ,0.042015252972653044, ,0.014626911679246674, ,0.0013424221612313026, ,0.26521409236661814,-0.16212333122859512,0.12313847597000001,1.6146125648308374,0.25837962105644785,-1.395114666668226, ,0.14400142876854444,0.02733994282871529,0.03894574943765281,0.011695769811873053,0.13147637591075845,-0.01575083852590669, ,1.4329209327697754
0.028107257402945326,0.018916702436292267,-0.11173185227785339, ,0.028983467716053462,0.018735878789926688,-0.11226303386837223, ,0.0010404785370146438, ,0.024905217219357824,0.003933086203419494,-0.03294394641315178,0.059347102907938334,0.008187179545517818,-0.049973013748699606, ,0.041485450667668324, ,0.0599088451593867, ,0.00134035405421612, ,0.2667200252770919,-0.16187620377661996,0.12353773329,1.615241634661291,0.2598826225538677,-1.3955234762074809, ,0.14400142876854444,0.021139884508458627,0.03847539014492755,0.0718715810680777,0.14266771235922465,-0.06098410150920051, ,1.438391923904419
0.028107257402945326,0.018916702436292267,-0.11173185227785339, ,0.02911779425469484,0.018766399447738974,-0.1124319895102936, ,0.0012385345620372918, ,0.024905217219357824,0.003933086203419494,-0.03294394641315178,0.059347102907938334,0.008187179545517818,-0.049973013748699606, ,0.041485450667668324, ,0.0599088451593867, ,0.0013396614046094614, ,0.2667200252770919,-0.16187620377661996,0.12353773329,1.615241634661291,0.2598826225538677,-1.3955234762074809, ,0.14400142876854444,0.021139884508458627,0.03847539014492755,0.0718715810680777,0.14266771235922465,-0.06098410150920051, ,1.4438769817352295
0.028355349106055316,0.01895677621641351,-0.11205219072612807, ,0.029251607075854846,0.018798788389618307,-0.11259951233556934, ,0.0010619790233361592, ,0.024295799486634715,0.004141135344043547,-0.03087329378329851,0.03096435097364389,-0.009424184833347398,-0.03255356130482844, ,0.03950436866553248, ,0.03236631338532517, ,0.0013377851723035607, ,0.2681641763245719,-0.16169858092051279,0.12391365739000001,1.615241634661291,0.26124898755152215,-1.3959842253233208, ,0.141426142412028,0.015879675628927507,0.0363671495890411,0.05188971643169382,0.12543182990597218,-0.032678710202409395, ,1.4492390155792236
0.028355349106055316,0.01895677621641351,-0.11205219072612807, ,0.02938490472339429,0.01883305366865749,-0.11276559648304463, ,0.0012586658857771434, ,0.024295799486634715,0.004141135344043547,-0.03087329378329851,0.03096435097364389,-0.009424184833347398,-0.03255356130482844, ,0.03950436866553248, ,0.03236631338532517, ,0.0013372541703805644, ,0.2681641763245719,-0.16169858092051279,0.12391365739000001,1.615241634661291,0.26124898755152215,-1.3959842253233208, ,0.141426142412028,0.015879675628927507,0.0363671495890411,0.05188971643169382,0.12543182990597218,-0.032678710202409395, ,1.45477294921875
0.0285988568714819,0.01900179131653828,-0.11235967775460791, ,0.029517685961094248,0.018869202913075818,-0.11293023628623919, ,0.0010896621580415752, ,0.024545158025980885,0.00487828432338543,-0.03036901178644295,-0.004424417441480912,-0.03502018159258091,-0.02016137816372383, ,0.039351484309302395, ,0.0352981976417387, ,0.0013356035569649712, ,0.26956971370768074,-0.1615827399273994,0.12427661859000001,1.615241634661291,0.2623420795496456,-1.3960587811514862, ,0.1420612897581898,0.008675926370380031,0.03603803511312218,0.036720777907384025,0.10256578905143325,0.0057161762397109975, ,1.4601080417633057
0.0285988568714819,0.01900179131653828,-0.11235967775460791, ,0.02964994977065414,0.018907243329286155,-0.1130934262724372, ,0.001285349171237297, ,0.024545158025980885,0.00487828432338543,-0.03036901178644295,-0.004424417441480912,-0.03502018159258091,-0.02016137816372383, ,0.039351484309302395, ,0.0352981976417387, ,0.0013352707464634635, ,0.26956971370768074,-0.1615827399273994,0.12427661859000001,1.615241634661291,0.2623420795496456,-1.3960587811514862, ,0.1420612897581898,0.008675926370380031,0.03603803511312218,0.036720777907384025,0.10256578905143325,0.0057161762397109975, ,1.4653890132904053
0.02883302906378097,0.019049880021154438,-0.11264877247913936, ,0.029781695349690426,0.01894718170496252,-0.11325516116177725, ,0.001130584760467438, ,0.024800265878883294,0.0053631431714830655,-0.03043171302955274,0.006292672430317045,-0.027880587072046492,-0.009685692276964196, ,0.03962203490804301, ,0.02858144087180589, ,0.001333924128134542, ,0.27092119196067005,-0.1615209580644056,0.12462013544000002,1.615241634661291,0.2632985350480037,-1.395940240335815, ,0.14400142876854444,0.0046429289473036775,0.03628430870159454,0.028714391277371222,0.11308670040951276,-0.003202871297426392, ,1.4706289768218994
0.02883302906378097,0.019049880021154438,-0.11264877247913936, ,0.029912922109734764,0.018989024412107307,-0.11341543586634036, ,0.0013257620997472977, ,0.024800265878883294,0.0053631431714830655,-0.03043171302955274,0.006292672430317045,-0.027880587072046492,-0.009685692276964196, ,0.03962203490804301, ,0.02858144087180589, ,0.001333870781543776, ,0.27092119196067005,-0.1615209580644056,0.12462013544000002,1.615241634661291,0.2632985350480037,-1.395940240335815, ,0.14400142876854444,0.0046429289473036775,0.03628430870159454,0.028714391277371222,0.11308670040951276,-0.003202871297426392, ,1.475862979888916
0.029090241453278633,0.019111392106089226,-0.1129722092100584, ,0.03004362967423229,0.019032777410118697,-0.11357424548924087, ,0.0011302995407092718, ,0.025249695059123098,0.005879862328900548,-0.03172030303099739,-0.010560123573564888,-0.027764652932893735,0.01921505396373933, ,0.04096702949890108, ,0.029704545930668534, ,0.001332548890369526, ,0.2723962339396469,-0.1615132353315314,0.12500513357,1.6154513246047757,0.2645282635458927,-1.395962856587396, ,0.14422027592472764,0.0016358868892139963,0.03774599886255925,0.0,0.11810470851738569,0.008957580084731201, ,1.481144905090332
0.029090241453278633,0.019111392106089226,-0.1129722092100584, ,0.030173817876540276,0.019078446248858103,-0.1137315853237154, ,0.001323584291441232, ,0.025249695059123098,0.005879862328900548,-0.03172030303099739,-0.010560123573564888,-0.027764652932893735,0.01921505396373933, ,0.04096702949890108, ,0.029704545930668534, ,0.0013324910542474079, ,0.2723962339396469,-0.1615132353315314,0.12500513357,1.6154513246047757,0.2645282635458927,-1.395962856587396, ,0.14422027592472764,0.0016358868892139963,0.03774599886255925,0.0,0.11810470851738569,0.008957580084731201, ,1.4865648746490479
0.029330098101397965,0.019172020733436063,-0.11327289251753081, ,0.03030348675792601,0.01912603607171733,-0.113887450852212, ,0.0011520772597777347, ,0.024531372964679794,0.006250948634409942,-0.03107530527515718,0.0010069679163692354,-0.0066866123981057,-0.05132664466406049, ,0.04008163190672837, ,0.006759866209664261, ,0.0013313345555649098, ,0.27377088039125885,-0.1615209580644056,0.12536420590000003,1.6162900843787136,0.26575799204378164,-1.3959037940988366, ,0.13914507559893075,-0.0009747487255991753,0.037043747720930234,0.07563714576516997,0.12198506531619153,0.020157744685050757, ,1.4918889999389648
0.02958997629260227,0.019242617613964067,-0.11359869513889563, ,0.03043263656556546,0.01917555161868615,-0.11404183774547982, ,0.0013442024757100515, ,0.023603855282185907,0.006687115386233399,-0.02969519765602696,-0.0003792547253279032,0.011566657111396553,-0.01294936174521067, ,0.03851836263656185, ,0.011571875409723174, ,0.0013314165168397197, ,0.27525364510310996,-0.1615750171945252,0.12575438919,1.6169191542091674,0.26712435704143606,-1.3956294345534115, ,0.1353736684143663,-0.007294037162192881,0.03563492510067114,0.04069775205831594,0.14237059636567867,0.018414757914509028, ,1.4978070259094238
0.02958997629260227,0.019242617613964067,-0.11359869513889563, ,0.03056126775054161,0.019226997229419444,-0.11419474186165877, ,0.0011397029386625, ,0.023603855282185907,0.006687115386233399,-0.02969519765602696,-0.0003792547253279032,0.011566657111396553,-0.01294936174521067, ,0.03851836263656185, ,0.011571875409723174, ,0.0013302031397626486, ,0.27525364510310996,-0.1615750171945252,0.12575438919,1.6169191542091674,0.26712435704143606,-1.3956294345534115, ,0.1353736684143663,-0.007294037162192881,0.03563492510067114,0.04069775205831594,0.14237059636567867,0.018414757914509028, ,1.503037929534912
0.02981423375845814,0.019306726178167942,-0.11387492098907653, ,0.030689380965842526,0.01928037684630482,-0.1143461592453689, ,0.0009943049914768554, ,0.02348459073796394,0.006709726186207627,-0.02889622166755193,-0.04409788945068197,-0.005503947458225975,0.05914934366788794, ,0.03783567171709575, ,0.04443981486081367, ,0.0013280905727922976, ,0.2765510642259797,-0.16165996725614165,0.12608753572,1.617128844152652,0.2684907220390905,-1.3952733962678452, ,0.13518082843087004,-0.010043457085494773,0.034855167439824954,-0.03541755252922727,0.13725176091258692,0.04430550448913102, ,1.5083398818969727
0.02981423375845814,0.019306726178167942,-0.11387492098907653, ,0.03081697706436006,0.019335694017529676,-0.11449608612679946, ,0.0011799065223867277, ,0.02348459073796394,0.006709726186207627,-0.02889622166755193,-0.04409788945068197,-0.005503947458225975,0.05914934366788794, ,0.03783567171709575, ,0.04443981486081367, ,0.0013271644224772628, ,0.2765510642259797,-0.16165996725614165,0.12608753572,1.617128844152652,0.2684907220390905,-1.3952733962678452, ,0.13518082843087004,-0.010043457085494773,0.034855167439824954,-0.03541755252922727,0.13725176091258692,0.04430550448913102, ,1.5136549472808838
0.02981423375845814,0.019306726178167942,-0.11387492098907653, ,0.03094405709688794,0.019392951900148756,-0.11464451892079888, ,0.0013697505713461443, ,0.02348459073796394,0.006709726186207627,-0.02889622166755193,-0.04409788945068197,-0.005503947458225975,0.05914934366788794, ,0.03783567171709575, ,0.04443981486081367, ,0.0013274289327186845, ,0.2765510642259797,-0.16165996725614165,0.12608753572,1.617128844152652,0.2684907220390905,-1.3952733962678452, ,0.13518082843087004,-0.010043457085494773,0.034855167439824954,-0.03541755252922727,0.13725176091258692,0.04430550448913102, ,1.5190749168395996
0.03012526591420723,0.019399266242113536,-0.11425370922243293, ,0.031070622310120016,0.019452153263151317,-0.11479145422596394, ,0.0010888826571812205, ,0.02366646134355731,0.0071824298891678,-0.028358398384008634,-0.02556948494021803,-0.007599979854498175,0.025480235846157967, ,0.0376282799307256, ,0.026674705499963404, ,0.0013259564248449963, ,0.278350460985674,-0.16182214464650038,0.12654642238000002,1.6169191542091674,0.2704036330358066,-1.3948729571562217, ,0.1363461804001017,-0.0137671466064806,0.034477947012987016,0.0,0.13055744725697388,0.0388210679563028, ,1.52445387840271
0.03012526591420723,0.019399266242113536,-0.11425370922243293, ,0.031196674144649002,0.019513300490528764,-0.11493688882372909, ,0.0012757953494574174, ,0.02366646134355731,0.0071824298891678,-0.028358398384008634,-0.02556948494021803,-0.007599979854498175,0.025480235846157967, ,0.0376282799307256, ,0.026674705499963404, ,0.0013256486881861767, ,0.278350460985674,-0.16182214464650038,0.12654642238000002,1.6169191542091674,0.2704036330358066,-1.3948729571562217, ,0.1363461804001017,-0.0137671466064806,0.034477947012987016,0.0,0.13055744725697388,0.0388210679563028, ,1.5297660827636719
