NicholasDascanio/dvrk_moveit_final/test/execution/third_experiment_notsharpbends/thirdexp_200vel5.0/thirdexp_200vel5.0_8.csv
Current Position (x),Current Position (y),Current Position (z), ,Planned Position (x),Planned Position (y),Planned Position (z), ,Position Error,,Cartesian linear Velocity(x),Cartesian linear Velocity(y),Cartesian linear Velocity(z),Cartesian Angular Velocity(x),Cartesian Angular Velocity(y),Cartesian Angular Velocity(z), ,Total Linear Velocity, ,Total Angular Velocity, ,MSE, ,Joint 1 Position,Joint 2 Position,Joint 3 Position,Joint 4 Position,Joint 5 Position,Joint 6 Position, ,Joint 1 Velocity,Joint 2 Velocity,Joint 3 Velocity,Joint 4 Velocity,Joint 5 Velocity,Joint 6 Velocity, ,Time Stamp
0.008103444967560996,0.019827806189220573,-0.08037672022303925, ,0.008509534280150857,0.01983418875243348,-0.08051046469880996, ,0.0004275942606163616, ,0.0013768337470876986,0.00040216176941891443,-0.0014411778758106866,0.3151572923104086,-0.013190022038602537,-0.006860428943001066, ,0.0020333221401509175, ,0.31543318718518026, ,3.563285505136347e-05, ,0.11437367386726499,-0.2403468925116152,0.0897551196,1.5986761291260139,0.12174312129100744,-1.3180018338308406, ,0.02289431641941394,-0.00022920195643153708,0.0011194293487665106,0.05021279143373629,0.0,-0.24167058800380492, ,0.05257701873779297
0.008262963607471252,0.019864266299277185,-0.08049147628835218, ,0.008797954630484479,0.019920153463205626,-0.08070015960691204, ,0.0005769640346172885, ,0.005627865194017738,0.0008267652166911535,-0.002534606425479019,0.4595089724401872,-0.16139636730210943,-0.03032947101518084, ,0.006227410143683023, ,0.48702903725676305, ,4.566174069243864e-05, ,0.11577921125037385,-0.2403855061759863,0.08987567457000001,1.5988858190694981,0.12024011979358759,-1.3251074683845174, ,0.05292634777382642,-0.0010932191076962377,0.0030947758927530604,0.0,-0.11242237546554543,-0.458482520838612, ,0.10543298721313477
0.008541083361933542,0.019931316244460658,-0.08070234507065344, ,0.009083320521084483,0.02000348115344704,-0.08089088275305267, ,0.0005785977605708235, ,0.0049046037980989415,0.0009824295927573453,-0.0023800689949218484,0.25824637968204694,0.14991471107491305,0.08382023438606127, ,0.0055394074359664345, ,0.29860611717692964, ,4.94736267438898e-05, ,0.11930850017389445,-0.24045501077185433,0.09012715483000001,1.6003536486738899,0.12406594178701993,-1.317445575989463, ,0.08405397835116987,-0.0028662691937386266,0.003282937246496291,-0.027220122280011475,0.2474195857821592,-0.2583065030479274, ,0.16077303886413574
0.00902908689111792,0.020003457817555012,-0.0808865462434101, ,0.009365655118716273,0.0200842100613751,-0.08108262550283148, ,0.00039780167506674906, ,0.007869834975898044,0.0019175969780436237,-0.005132732796823437,-0.035314071676359554,-0.07688184893489344,-0.029457462386007698, ,0.009589391361377276, ,0.08460438730023657, ,4.8316042216371284e-05, ,0.12499243156932369,-0.24060946542933884,0.09037344993,1.601192408447828,0.12406594178701993,-1.3191608295324149, ,0.0885232663791705,-0.004787578550861543,0.00626378746362564,0.032326293603215164,0.004065825644398995,0.04398037520507406, ,0.2084789276123047
0.009360712247139602,0.02007428502521738,-0.08108013260721195, ,0.009644981522968152,0.020162378181234914,-0.08127537915625083, ,0.0003559362867548195, ,0.005528199544355433,0.0013558622770534806,-0.003674323736124914,0.059741788505054017,0.007690385794195538,0.015584634658254024, ,0.0067749544378098376, ,0.060234735217949274, ,4.673788035252084e-05, ,0.12898508446529777,-0.24076392008682332,0.09061585616000001,1.601611788334797,0.12638876228303242,-1.3187679291713181, ,0.07013816818807891,-0.0032240638603167515,0.004565437523645744,0.003945438477686052,0.07918752202097663,-0.0560598114265072, ,0.25945091247558594
0.009588526991135788,0.020136419267711852,-0.08125694173159041, ,0.009921322766822924,0.02023802326416749,-0.08146913494883423, ,0.0004075565750362066, ,0.0047912343108374895,0.0014551320693654791,-0.004158431936265657,0.06474589988039714,0.022909548586541983,-0.005571324523253908, ,0.006508908643482131, ,0.06867953819383203, ,4.6516111740038114e-05, ,0.13163398184115677,-0.24089520654568514,0.09082844772000001,1.6022408581652505,0.12789176378045228,-1.3192584174507136, ,0.060099393007264586,-0.0028916744952368293,0.00498554351173709,0.02594901318167249,0.07913263197542582,-0.058582038450962486, ,0.30765604972839355
0.00983367916486427,0.020207895281616074,-0.08145748641885718, ,0.01019470181715669,0.020311182819047674,-0.08166388405268313, ,0.0004284923034383323, ,0.005509822986655736,0.0017227266294410231,-0.0051057144344795954,0.00944827538841718,-0.028203094584695918,0.0594563961289025, ,0.007706766914246107, ,0.02974364551461452, ,4.735735665821762e-05, ,0.13453000666899095,-0.2410419384702954,0.09106955766000001,1.6039183777131267,0.13021458427646476,-1.319437268270601, ,0.06356124685764955,-0.004142999876959628,0.006026792099886493,-0.049062791996852026,0.048509029252161204,-0.011693607871975301, ,0.35023999214172363
0.010053058673456575,0.020278891658530772,-0.08167532958218682, ,0.010465141575175176,0.020381894113297477,-0.08185961757748547, ,0.00046301607832556463, ,0.00548663036428802,0.0015518810663922072,-0.004682393669144877,0.023009574247384746,0.036650858286555794,0.0024128276494552077, ,0.007378093118916427, ,0.04327500338459019, ,4.84794529923486e-05, ,0.13708623125035926,-0.24115777946340877,0.09132492679000001,1.6043377576000957,0.1326740412722427,-1.3194825007737632, ,0.069623581480903,-0.0021255838649956024,0.005646512414037576,0.023774455565145982,0.10366505655297169,-0.017686716977903166, ,0.3925619125366211
0.010326555845690153,0.020342150810951143,-0.08186268779999106, ,0.010732664876793484,0.020450194173677466,-0.08205632657147621, ,0.00046270280655640793, ,0.006473596574928415,0.0012532327998563786,-0.003789236792645296,0.04101586053464104,-0.00784734220695842,0.014411088008831808, ,0.0076050220602111055, ,0.041759808360779645, ,4.938146724075365e-05, ,0.14028344266028822,-0.24125045225789946,0.09155566641000001,1.6047571374870648,0.13472358876872428,-1.3198469094869605, ,0.07921280597535124,-0.001186805689922403,0.004816695349259147,0.0034780478540743804,0.07270366402762687,-0.03935162550764169, ,0.435945987701416
0.010612805621479754,0.020406469641779963,-0.08204703026109914, ,0.010997294492966811,0.0205161197870589,-0.08225400202236006, ,0.000450213456725289, ,0.007060799907189677,0.0016654215759199925,-0.004711618551522048,0.026655098580278175,0.001161373239064191,0.02714579606256343, ,0.008650310614651725, ,0.026680387287346938, ,5.05430581967538e-05, ,0.1436505541934501,-0.24134312505239014,0.09178640603,1.6060152771479719,0.1370464092647368,-1.3202707965272695, ,0.08626994687133707,-0.003094025112349593,0.005917091946508173,-0.004791120181501247,0.09130727480239711,-0.024199391192382486, ,0.47292494773864746
0.01081206445996677,0.02045365140488995,-0.08219405355755442, ,0.011259053129976788,0.020579707501178574,-0.08245263485819783, ,0.0005315574282909491, ,0.007954422453752264,0.0021994846388283446,-0.006579808699906222,0.023058692208818156,-0.017221162763786775,-0.003146115199044939, ,0.010554830731781616, ,0.028779710231079732, ,5.23755944948329e-05, ,0.14599826498721435,-0.2413894614496355,0.09196659034000002,1.6062249670914566,0.13909595676121836,-1.3208802414608884, ,0.09107192088144989,-0.003284917532753388,0.007948508742514971,0.0216140045404082,0.07079495348890621,-0.016735115709245605, ,0.5100109577178955
0.011142047407931246,0.020534538815115983,-0.08245077844676621, ,0.01151796342967948,0.020640993625380105,-0.08265221594826272, ,0.00043957086919465583, ,0.007282762293815581,0.0013966987699133894,-0.004291731309767963,0.011882985894185363,-0.0155343567648244,0.012935319469367518, ,0.008567867396111017, ,0.019558159228369364, ,5.307695706916776e-05, ,0.14981329502708127,-0.2414512433126293,0.09227899623000001,1.6070637268653947,0.1422385962558235,-1.3214008847423921, ,0.0866638735693797,-0.0009153796479554721,0.005494588313211453,0.004856460538961844,0.07211612689216465,-0.010260589912399186, ,0.5480799674987793
0.01136134940937117,0.020578483703852946,-0.08258294466871398, ,0.011774047969718301,0.020700014231341286,-0.08285273610386745, ,0.00050781609791967, ,0.007375835202157315,0.0019399455197332798,-0.006015787679317847,-0.00025822877582304404,0.0018314551505491275,-0.02098668819781795, ,0.009713703462199609, ,0.0018495681091249471, ,5.479836030102834e-05, ,0.15236951960844958,-0.2414821342441262,0.09244751393,1.6079024866393328,0.14401487075277425,-1.321460778908056, ,0.08503310175490213,-0.001621095969506586,0.007320225882352943,0.04203748643151548,0.07915029023642868,0.00808729763235094, ,0.5798730850219727
0.01165353308933993,0.020655808320306356,-0.08284518405884853, ,0.012027329263707465,0.020756805153791483,-0.08305418607916917, ,0.0004400065736371898, ,0.0072464122563174315,0.001867262974964874,-0.0059711253242888136,0.04115051283540073,0.016474364951031197,-0.07211242118849383, ,0.009573478952008269, ,0.04432571939140482, ,5.57571224719854e-05, ,0.15569801747724035,-0.24148985697700043,0.09276121611,1.6091606263002398,0.1472941467471448,-1.3220928400932561, ,0.08295187199167026,-6.606790156318128e-05,0.007263479945280439,0.0952315162359606,0.07904807871336725,-0.02668035605191993, ,0.6127541065216064
0.011882745556410041,0.020713832783700332,-0.08304069361756326, ,0.012277829761386954,0.0208114019912183,-0.08325655657195136, ,0.0004606604979321315, ,0.007701937017739042,0.001724776138645802,-0.006016729385284012,-0.011581320698611454,-0.03130365673063034,0.013383258935422382, ,0.009924500947120767, ,0.033377326225271724, ,5.6790874628544574e-05, ,0.15828513299010555,-0.24150530244274887,0.09299714089000001,1.6093703162437245,0.1496169672431573,-1.3225167271335652, ,0.08533897622164638,0.0003277604215748765,0.007323591503448277,0.0,0.05567580769383572,0.011280612339950117, ,0.6451199054718018
0.012032498479754995,0.020751550141362436,-0.08317103291071733, ,0.012525571848754814,0.02086384010656622,-0.08345983822438784, ,0.0005823563279527573, ,0.007712151013937689,0.0020860328269165793,-0.007120169326562364,0.05374500568801318,0.01926740864232138,-0.005061974418004968, ,0.01070166423766291, ,0.057094296159027544, ,5.914049631996216e-05, ,0.15996096602381227,-0.24149757970987465,0.09315399198,1.6099993860741781,0.15111996874057715,-1.3226805004523985, ,0.08811229485466182,0.0,0.008540917705093834,0.0314977233345527,0.10299131790198539,-0.04880933347034174, ,0.6716148853302002
0.012283670681662454,0.02081846811994121,-0.08340503951115419, ,0.012770577848177025,0.020914154627927697,-0.08366402162378875, ,0.0005597376450432435, ,0.008735429985866133,0.00237215653826733,-0.008245269937222608,0.005735320404224001,-0.00011476799678474374,-0.010011180925480825, ,0.012244155341128295, ,0.005736465263859927, ,6.114076270968514e-05, ,0.16279520898865266,-0.24148985697700043,0.09343399062,1.6104187659611469,0.15426260823518226,-1.3227927500331993, ,0.09604953599035504,0.000320679705364052,0.009838672958616432,0.03331864481122769,0.09066758963648648,-0.000775828531896075, ,0.6991169452667236
0.012529991197941293,0.02088807416356604,-0.08364386440390097, ,0.013012870018479356,0.020962380449228032,-0.08386909730333296, ,0.0005379807044863743, ,0.008972364193000334,0.0024725985037171655,-0.008275628274738022,0.02417075604913586,0.027943029955759913,-0.049537859089529034, ,0.012454038939800306, ,0.03694642516238698, ,6.28362144683563e-05, ,0.16554450189187658,-0.2414821342441262,0.09371917442000001,1.6118865955655386,0.1574052477297874,-1.322904999614, ,0.10042004397721775,0.00030315389093657155,0.00997420884157796,0.0802040047616667,0.11256300130847664,-0.011507869361592447, ,0.7275989055633545
0.012737704219145862,0.020931442125765497,-0.08379041597631424, ,0.013252470555021555,0.021008552230903713,-0.0840750557427856, ,0.0005932538626272781, ,0.009596790758933419,0.0016478134439498052,-0.005300684762097916,-0.02611937111126052,-0.0587361920140151,0.019083395209153423, ,0.011086520687932198, ,0.0642818932155109, ,6.526110102689427e-05, ,0.16780726262402437,-0.24147441151125196,0.09390195131000001,1.6120962855090233,0.15863497622767636,-1.321865792243754, ,0.10662577703198964,5.96857387500531e-05,0.0069497432460732984,-0.007112195262919852,0.05106922906843106,0.024948190204987224, ,0.7492549419403076
0.012920058156822406,0.020970448821212406,-0.0839238550011602, ,0.013489401589756703,0.021052704400576487,-0.08428188736920551, ,0.0006775729492313463, ,0.010077761745855642,0.002374336172322138,-0.008207087449666937,0.0006669311414361349,-0.020462803438056176,0.00569592509177137, ,0.013211927886266609, ,0.020473668075297595, ,6.813371168292026e-05, ,0.16990784596581343,-0.24145896604550351,0.09406917272000001,1.6123059754525078,0.16095779672368885,-1.3226980729847657, ,0.10996169357876104,0.0006242347526799915,0.010049723356466879,0.016289949799453626,0.0882350674607425,0.001436629969697208, ,0.7706201076507568
0.013022071151433516,0.020997308773280106,-0.08401760345841994, ,0.013723685191277897,0.0210948711537231,-0.08448958255764187, ,0.0008512020612562003, ,0.01067406569868366,0.002999230796580228,-0.010578097194449779,-0.016161921213832416,-0.008427624312708737,-0.05133082336762243, ,0.015324072701674208, ,0.018227243796927042, ,7.201738426362173e-05, ,0.17100447403395333,-0.24144352057975507,0.09418194995000001,1.613144735226446,0.16191425222204694,-1.3225795321690947, ,0.11177496061068408,0.0013648128963738998,0.012572069076558801,0.07557216778210499,0.08784658649912415,0.02739826729560567, ,0.7920820713043213
0.013357100974204278,0.021090950505359696,-0.08436688551716187, ,0.01395534336485137,0.021135086454339525,-0.0846981316318193, ,0.0006852488076860408, ,0.011036419705767355,0.003266647931202346,-0.012460781168617457,0.0429932397960776,0.032585989337920285,0.02444677825970075, ,0.016963036755264373, ,0.05394687265148752, ,7.510420436161631e-05, ,0.17451831749172547,-0.24138173871676127,0.09459417017,1.6133544251699303,0.1651935282164175,-1.3223131272127484, ,0.1178843994515165,0.0028930611860319036,0.014613588550458717,0.012664523558636693,0.15204771216971988,-0.04364225933254349, ,0.8079290390014648
0.013595217894319625,0.021160174866005944,-0.08461616414301641, ,0.014184398052441212,0.021173384035604616,-0.08490752486481867, ,0.0006574182923335791, ,0.012355852642965171,0.0035864872723689067,-0.012178445633255949,-0.02434469898283935,-0.014731623543855649,-0.041898672317998105, ,0.017715657581125924, ,0.028454961481457153, ,7.789198293741457e-05, ,0.1770204829429742,-0.24134312505239014,0.09488972429,1.6146125648308374,0.16778962171196088,-1.3222247413991854, ,0.12720769645907612,0.0,0.014573478060384264,0.06881704120753611,0.098913894182462,0.03621817711964941, ,0.8240349292755127
0.013719706854780266,0.021190523096628992,-0.08474224917298435, ,0.014410871132722878,0.02120979740053832,-0.08511775247974768, ,0.0007868178259834433, ,0.012673170903140931,0.0030967670075808273,-0.012882783891454504,0.014821023744089744,0.016354338682423558,-0.002267730382221709, ,0.01833481244609223, ,0.022070948862909903, ,8.139288089419431e-05, ,0.17831790206584394,-0.24128134318939637,0.09503879764,1.6146125648308374,0.16901935020984984,-1.3221656789106255, ,0.1338461799132169,0.007081728065353764,0.015257482298850577,0.03806653773970228,0.1454806093688313,-0.015122909618753247, ,0.8403520584106445
0.013841570637612082,0.021222491395304965,-0.08486917625334639, ,0.014634784421088341,0.021244359822657658,-0.08532880465040485, ,0.000917019409715045, ,0.01261909311506911,0.003456787110826322,-0.013291433611730049,0.03261491390145598,0.034491623249693744,0.014813298232998312, ,0.018650820240176755, ,0.04747003547901277, ,8.610684119373592e-05, ,0.17960759845583943,-0.241235006792151,0.09518916728000001,1.6146125648308374,0.17052235170726968,-1.322329452229459, ,0.13422481125667718,0.004101544547901741,0.015771100514851488,0.026382473944715417,0.16746287866898663,-0.03199722074630905, ,0.850924015045166
0.013919946402416252,0.0212433425278196,-0.08495371931044071, ,0.014856159669645184,0.0212771043466319,-0.08554067150194025, ,0.0011055080358148006, ,0.013546428009472537,0.003555417036817474,-0.014393266640631168,0.013208170923496108,0.01688764481392318,0.03871761704453243, ,0.02008264989262672, ,0.021439396185017192, ,9.186791744946016e-05, ,0.18044165360625566,-0.24119639312777988,0.09528898161,1.614822254774322,0.1716154437053932,-1.3225673655379058, ,0.14184894104405196,0.005893353796370377,0.016999798847385277,0.0,0.16365294786721035,-0.018929116852228388, ,0.8616559505462646
0.014129225710082982,0.021303525579806196,-0.085190093928049, ,0.015075018567207296,0.021308063788933667,-0.08575334311150709, ,0.0011008153190229823, ,0.015230652753560645,0.004591766699776799,-0.018375788130251175,0.02917395131305275,0.0624443763931022,-0.1154725781007853, ,0.02430486976168775, ,0.06892327243477792, ,9.745986552338737e-05, ,0.18258857334529008,-0.24109599760041497,0.09556638767,1.6164997743221983,0.17407490070117113,-1.3227759555213492, ,0.15355492161564852,0.008921939244148065,0.02138095506040269,0.16552052041371423,0.18194475668001012,-0.008467540953793207, ,0.8725628852844238
0.014290505437654605,0.021350304538027262,-0.08538821933599088, ,0.015291382739279866,0.021337270738489435,-0.0859668095089129, ,0.00115615390024036, ,0.0166518077224263,0.004858181980915666,-0.02058398610293516,0.020096737745939314,0.047482647786386556,-0.0006830653855204881, ,0.026918118739432322, ,0.05156042099861763, ,0.00010325043280768608, ,0.184202624516003,-0.24099560207305004,0.09579583100000001,1.6169191542091674,0.1759878116978873,-1.322865588850569, ,0.16707208020857534,0.010599033738335767,0.023845526227544912,0.051764947243601735,0.2084886055923043,-0.020963724788787427, ,0.8831610679626465
0.014468455711925893,0.021401859598257945,-0.08561127684835673, ,0.015505273748040067,0.021364757557327987,-0.08618106067726299, ,0.0011836476727201774, ,0.017760245502996676,0.005063294636193036,-0.022314164232487405,0.011068951813123859,0.045875854366849454,0.024122468125024374, ,0.028965241208973817, ,0.04719226817883112, ,0.00010906678284997659, ,0.18598657580994887,-0.2408797610799367,0.09605379271000002,1.6169191542091674,0.17831063219389978,-1.323126118410597, ,0.17638836720905351,0.01306357242922559,0.0257747759223301,0.028712514971514797,0.22208853295208097,-0.01847487499571139, ,0.8943860530853271
0.014580746188728573,0.021433095417425427,-0.08575408965181783, ,0.015716713092310985,0.021390556381227388,-0.0863960865536027, ,0.0013055230360038271, ,0.01827735394301636,0.005060068628421898,-0.023057725365785472,-0.015357568621273113,0.044424517706084625,0.030435093699759462, ,0.029855060889682036, ,0.047004108010431055, ,0.00011614640564970352, ,0.1871063720767114,-0.24078708828544598,0.09621842154000002,1.6169191542091674,0.1798136336913196,-1.3232082129892895, ,0.1804124364229482,0.015178653480241647,0.026592339766277135,0.022652720536449202,0.22618743218614207,0.0047597456941334965, ,0.8998479843139648
0.014845543766642369,0.021503598801783028,-0.08607714379490482, ,0.015925722207533518,0.02141469912036139,-0.0866118770295547, ,0.0012085645409997865, ,0.02034976464309939,0.005109839340421084,-0.023862550358042595,-0.011961047896088036,-0.008326814377131286,0.030807132991040372, ,0.031774906588447616, ,0.014573769836092614, ,0.00065116584674374, ,0.18966259665807975,-0.24056312903209348,0.09659175306000001,1.617548224039621,0.182409727186863,-1.3229564696954452, ,0.1968816214906033,0.01732960948839861,0.02770228090434783,0.012896781245460098,0.1911943562521797,-0.0024998770796634123, ,0.9052679538726807
0.014845543766642369,0.021503598801783028,-0.08607714379490482, ,0.016132322465731957,0.021437217459943193,-0.08682842195195431, ,0.001491517607081738, ,0.02034976464309939,0.005109839340421084,-0.023862550358042595,-0.011961047896088036,-0.008326814377131286,0.030807132991040372, ,0.031774906588447616, ,0.014573769836092614, ,0.0006766310516024672, ,0.18966259665807975,-0.24056312903209348,0.09659175306000001,1.617548224039621,0.182409727186863,-1.3229564696954452, ,0.1968816214906033,0.01732960948839861,0.02770228090434783,0.012896781245460098,0.1911943562521797,-0.0024998770796634123, ,0.910567045211792
0.015064945385850676,0.0215599107299557,-0.08634244404424567, ,0.016336535175478336,0.02145814286087039,-0.08704571112348158, ,0.0014566680737218413, ,0.02413868433552849,0.006181398238187486,-0.0301558007650177,0.11637708538180763,0.0726085922882887,-0.07735630874544049, ,0.039118513333315695, ,0.1371699994112062, ,0.0006995733169589194, ,0.19178634819849147,-0.2403468925116152,0.09689897379000001,1.6188063637005279,0.18473254768287548,-1.3235437142160356, ,0.23316201857118127,0.02671648129461452,0.034779064454148474,0.1469840118513738,0.2793659416169271,-0.11489204437980137, ,0.9158890247344971
0.015064945385850676,0.0215599107299557,-0.08634244404424567, ,0.01653838158185202,0.021477506560366677,-0.08726373430329201, ,0.0017397069903481587, ,0.02413868433552849,0.006181398238187486,-0.0301558007650177,0.11637708538180763,0.0726085922882887,-0.07735630874544049, ,0.039118513333315695, ,0.1371699994112062, ,0.0007292914219128976, ,0.19178634819849147,-0.2403468925116152,0.09689897379000001,1.6188063637005279,0.18473254768287548,-1.3235437142160356, ,0.23316201857118127,0.02671648129461452,0.034779064454148474,0.1469840118513738,0.2793659416169271,-0.11489204437980137, ,0.9212698936462402
0.015310531329893651,0.021624700452017948,-0.08666956218720395, ,0.01673788286639644,0.021495339572624193,-0.0874824812076426, ,0.0016476965678380608, ,0.026500594017810058,0.007322981745180485,-0.03683699190349819,0.14349632217109073,0.1178411369047974,0.04310991885918743, ,0.045965982176338065, ,0.18568160973506392, ,0.0007548026759663744, ,0.19414950445800416,-0.24005342866239465,0.09727360160000001,1.6196451234744662,0.18801182367724606,-1.3250742415427816, ,0.25238548286827334,0.031226371029440866,0.04202852643799473,0.042931695189043426,0.3714578117517107,-0.1653127749357827, ,0.9265530109405518
0.015310531329893651,0.021624700452017948,-0.08666956218720395, ,0.01693506014707588,0.021511672689445788,-0.08770194151052016, ,0.001928127646235693, ,0.026500594017810058,0.007322981745180485,-0.03683699190349819,0.14349632217109073,0.1178411369047974,0.04310991885918743, ,0.045965982176338065, ,0.18568160973506392, ,0.000786514161649329, ,0.19414950445800416,-0.24005342866239465,0.09727360160000001,1.6196451234744662,0.18801182367724606,-1.3250742415427816, ,0.25238548286827334,0.031226371029440866,0.04202852643799473,0.042931695189043426,0.3714578117517107,-0.1653127749357827, ,0.9321920871734619
0.015475651700383588,0.02167180713918114,-0.08690670346546311, ,0.017129934478225795,0.02152653648088435,-0.08792210484426347, ,0.0019464827338810298, ,0.02821010810284098,0.008275495350603275,-0.041025223621843805,0.08094649876254607,0.1009023760205546,0.05292194206072517, ,0.0504714077047007, ,0.1293580648258502, ,0.0008170396503922685, ,0.1957017737657233,-0.23986036034053904,0.09754322992000002,1.6196451234744662,0.19033464417325854,-1.3259065222837934, ,0.25999162070813914,0.03224496824956533,0.04657547228070176,0.030516374578994452,0.36468056236266994,-0.10617190839407002, ,0.9375689029693604
0.015475651700383588,0.02167180713918114,-0.08690670346546311, ,0.01732252685050463,0.021539961295883897,-0.08814296080018692, ,0.0022263565177634507, ,0.02821010810284098,0.008275495350603275,-0.041025223621843805,0.08094649876254607,0.1009023760205546,0.05292194206072517, ,0.0504714077047007, ,0.1293580648258502, ,0.0008531759803248628, ,0.1957017737657233,-0.23986036034053904,0.09754322992000002,1.6196451234744662,0.19033464417325854,-1.3259065222837934, ,0.25999162070813914,0.03224496824956533,0.04657547228070176,0.030516374578994452,0.36468056236266994,-0.10617190839407002, ,0.9430410861968994
0.015921082520384728,0.02179912133636497,-0.08755551934222129, ,0.017512858190842084,0.02155197726291896,-0.08836449892920134, ,0.001802575366038786, ,0.03148060886094881,0.008575053000316659,-0.04588955164026192,-0.06097094489693235,0.04717547937749423,0.022566534976668322, ,0.05630640476853903, ,0.07708941868984427, ,0.0008769109649677108, ,0.19968670392882315,-0.2393120463064691,0.09827822635000001,1.620483883248404,0.19525355816481438,-1.326160344770399, ,0.2766674681004979,0.042842863006081616,0.05188537954397395,0.04915266864045782,0.32170709122777014,0.029004527358661297, ,0.948340892791748
0.015921082520384728,0.02179912133636497,-0.08755551934222129, ,0.017700949362386264,0.02156261429063393,-0.08858670874243466, ,0.0020705586533709547, ,0.03148060886094881,0.008575053000316659,-0.04588955164026192,-0.06097094489693235,0.04717547937749423,0.022566534976668322, ,0.05630640476853903, ,0.07708941868984427, ,0.0009060243232214485, ,0.19968670392882315,-0.2393120463064691,0.09827822635000001,1.620483883248404,0.19525355816481438,-1.326160344770399, ,0.2766674681004979,0.042842863006081616,0.05188537954397395,0.04915266864045782,0.32170709122777014,0.029004527358661297, ,0.9536359310150146
0.016241912164007926,0.0218785857951764,-0.08801518322327245, ,0.01788682116444868,0.021571902068481544,-0.08880957971184957, ,0.0018522543856107061, ,0.03344376032982104,0.007601760932888761,-0.04725677978788997,-0.01710905978346219,0.08105989155479237,-0.0006552219561921067, ,0.058390710821160846, ,0.08284437377814445, ,0.0009285536104211927, ,0.20252094689366354,-0.2388023459367703,0.09879803864000002,1.6215323329658269,0.1986694706589504,-1.3260870364578896, ,0.2965529423702212,0.058005465500287755,0.053452387651006725,0.08208765934801956,0.3691709122950159,-0.02287076776168126, ,0.9589641094207764
0.016241912164007926,0.0218785857951764,-0.08801518322327245, ,0.018070494332449574,0.021579870067362228,-0.08903310127086292, ,0.0021140248306007895, ,0.03344376032982104,0.007601760932888761,-0.04725677978788997,-0.01710905978346219,0.08105989155479237,-0.0006552219561921067, ,0.058390710821160846, ,0.08284437377814445, ,0.0009561227085649042, ,0.20557914911185646,-0.23823086370407767,0.09932562867000001,1.6217420229093116,0.2026319291521482,-1.3267861147207285, ,0.3163231385282359,0.061541466639734616,0.05327361712374583,0.03079894482874378,0.4052593070523129,-0.08687205168683887, ,0.9644010066986084
0.01658215489918977,0.021952366844369266,-0.08847907985012644, ,0.018251989537859045,0.021586547540260927,-0.08925726281496142, ,0.001878227944238243, ,0.035144025645604905,0.007091471348196959,-0.04673039676711192,0.03344076712619382,0.08416199068285253,0.055568249963952585, ,0.0588992486070318, ,0.09056104427146203, ,0.0009770796457392985, ,0.20557914911185646,-0.23823086370407767,0.09932562867000001,1.6217420229093116,0.2026319291521482,-1.3267861147207285, ,0.3163231385282359,0.061541466639734616,0.05327361712374583,0.03079894482874378,0.4052593070523129,-0.08687205168683887, ,0.9696750640869141
0.01692173177970088,0.022007873016060376,-0.0888999601031563, ,0.0184313273881408,0.02159196352288647,-0.08948205370231833, ,0.0021343115977311817, ,0.03658759400730276,0.00498350628913499,-0.04264686487487489,-0.0028496134657214093,0.0229659177827312,0.07288532514358802, ,0.05641136812587425, ,0.02313898455464197, ,0.001002795911339118, ,0.2086527967957978,-0.2375821541426428,0.09980784855000001,1.6219517128527958,0.20618447814604965,-1.3274776542330402, ,0.33414416041715067,0.07282957909322392,0.049162998518518526,0.000282125387551721,0.3678767110249194,-0.06785299991190843, ,0.9752960205078125
0.01692173177970088,0.022007873016060376,-0.0888999601031563, ,0.018608528426691508,0.02159614683430794,-0.08970746325440902, ,0.0019149054066251788, ,0.03658759400730276,0.00498350628913499,-0.04264686487487489,-0.0028496134657214093,0.0229659177827312,0.07288532514358802, ,0.05641136812587425, ,0.02313898455464197, ,0.0010226243786279454, ,0.2086527967957978,-0.2375821541426428,0.09980784855000001,1.6219517128527958,0.20618447814604965,-1.3274776542330402, ,0.33414416041715067,0.07282957909322392,0.049162998518518526,0.000282125387551721,0.3678767110249194,-0.06785299991190843, ,0.983083963394165
0.017332537085180896,0.022055137196178517,-0.08933919715425062, ,0.018783613132781124,0.02159912607759269,-0.08993348075662537, ,0.0016330158714000628, ,0.038871960877469476,0.0035679280387400343,-0.03862861067301989,-0.035151338890052716,-0.053919087514346695,-0.06651192448038534, ,0.05491747459121633, ,0.06436457577609997, ,0.0010356114316656501, ,0.2124292131712936,-0.2367558217251008,0.1003198831,1.6230001625702186,0.20987366363971652,-1.3280355754286268, ,0.35541925677329883,0.08028506054016141,0.045381229401709404,0.12303815943975391,0.2808613765670345,-0.017656158735215713, ,0.9883689880371094
0.017332537085180896,0.022055137196178517,-0.08933919715425062, ,0.018956601921492785,0.021600929640443845,-0.09016009545888949, ,0.0018755706125843945, ,0.038871960877469476,0.0035679280387400343,-0.03862861067301989,-0.035151338890052716,-0.053919087514346695,-0.06651192448038534, ,0.05491747459121633, ,0.06436457577609997, ,0.001053110581268124, ,0.2124292131712936,-0.2367558217251008,0.1003198831,1.6230001625702186,0.20987366363971652,-1.3280355754286268, ,0.35541925677329883,0.08028506054016141,0.045381229401709404,0.12303815943975391,0.2808613765670345,-0.017656158735215713, ,0.9936559200286865
0.01771590204245863,0.022076578312383514,-0.08969266502119493, ,0.019127515143660186,0.02160158569583652,-0.09038729657626852, ,0.0016434057717319855, ,0.03772423627854769,0.0006700571557200637,-0.03136387942738015,-0.08455392668147296,-0.1682418854652547,-0.02068737549111764, ,0.04906383507357395, ,0.1882941002603264, ,0.0010651574218898353, ,0.21591216569756885,-0.23590632110893608,0.10073728848,1.623629232400672,0.21192321113619814,-1.3278282329608402, ,0.3463392027681415,0.08944103822664541,0.03747955651764706,0.04510269703914076,0.17256219105097695,0.006857180356714079, ,0.9989750385284424
0.01771590204245863,0.022076578312383514,-0.08969266502119493, ,0.0192963730858057,0.021601122202655303,-0.090615073289587, ,0.0018907099843007466, ,0.03772423627854769,0.0006700571557200637,-0.03136387942738015,-0.08455392668147296,-0.1682418854652547,-0.02068737549111764, ,0.04906383507357395, ,0.1882941002603264, ,0.0010816684731380537, ,0.21591216569756885,-0.23590632110893608,0.10073728848,1.623629232400672,0.21192321113619814,-1.3278282329608402, ,0.3463392027681415,0.08944103822664541,0.03747955651764706,0.04510269703914076,0.17256219105097695,0.006857180356714079, ,1.0042510032653809
0.018099077991985835,0.022073129584467024,-0.08999698026966217, ,0.019463195970076945,0.021599566906330386,-0.09084341474603869, ,0.0016737774018889449, ,0.03872528465585149,-0.0009668344926102106,-0.030820392810341244,0.007253258583970257,-0.15690866600442935,0.05006168880455427, ,0.04950231361862355, ,0.15707613255369152, ,0.0010932784521331693, ,0.21946462281971213,-0.2349332567667838,0.10110284226,1.6238389223441565,0.21383612213291428,-1.3285712962111844, ,0.3594581119639045,0.10382597544690457,0.036957799350348035,-0.022851369434898346,0.2141567996323638,-0.11318344354939745, ,1.009674072265625
0.018099077991985835,0.022073129584467024,-0.08999698026966217, ,0.019628003954184493,0.021596947339474856,-0.09107231005980046, ,0.0019289111658886023, ,0.03872528465585149,-0.0009668344926102106,-0.030820392810341244,0.007253258583970257,-0.15690866600442935,0.05006168880455427, ,0.04950231361862355, ,0.15707613255369152, ,0.0011093483120130814, ,0.21946462281971213,-0.2349332567667838,0.10110284226,1.6238389223441565,0.21383612213291428,-1.3285712962111844, ,0.3594581119639045,0.10382597544690457,0.036957799350348035,-0.022851369434898346,0.2141567996323638,-0.11318344354939745, ,1.0151360034942627
0.018347244653056875,0.02206622646011611,-0.09020135921669115, ,0.01979081713133714,0.02159329082252061,-0.0913017483126429, ,0.0018757467259322652, ,0.03766827987464285,-0.0008937458809452803,-0.0328749185204646,0.07401491596571272,-0.11122045285140414,0.03328831407282198, ,0.050004583371340235, ,0.13359700041008588, ,0.0011238086594455188, ,0.21946462281971213,-0.2349332567667838,0.10110284226,1.6238389223441565,0.21383612213291428,-1.3285712962111844, ,0.3594581119639045,0.10382597544690457,0.036957799350348035,0.0,0.23958180780789562,-0.17896440624063142, ,1.021399974822998
0.01887190950353156,0.022052525509240053,-0.09065460202392192, ,0.019951655530177276,0.021588624464354767,-0.09153171855454248, ,0.001466420495557368, ,0.0388536725310728,-0.0008761256901548587,-0.03325975031086505,-0.0005945466770782201,-0.20884281085491146,0.007711394622542173, ,0.05115258015113097, ,0.20884355970793886, ,0.0011301533230772198, ,0.2264845870023822,-0.23274772336337826,0.10188320884000002,1.6238389223441565,0.21820849012540838,-1.3315649179484859, ,0.3413559048865855,0.10771503014582383,0.03942775128712872,0.0005539234272514736,0.1362920556609936,-0.1042567456272254, ,1.0266571044921875
0.01887190950353156,0.022052525509240053,-0.09065460202392192, ,0.0201105391147166,0.021582975162955972,-0.09176220980429212, ,0.0017266950618266383, ,0.0388536725310728,-0.0008761256901548587,-0.03325975031086505,-0.0005945466770782201,-0.20884281085491146,0.007711394622542173, ,0.05115258015113097, ,0.20884355970793886, ,0.0011409995365090273, ,0.2264845870023822,-0.23274772336337826,0.10188320884000002,1.6238389223441565,0.21820849012540838,-1.3315649179484859, ,0.3413559048865855,0.10771503014582383,0.03942775128712872,0.0005539234272514736,0.1362920556609936,-0.1042567456272254, ,1.0319719314575195
0.019266141450194986,0.022045970009379162,-0.09102411555128231, ,0.02026748778427022,0.021576369606030425,-0.09199321105011321, ,0.0014704982507454773, ,0.040388634419564556,-0.00046077855563510283,-0.04149337430020337,-0.035611792145205795,-0.1563243039675654,-0.0826549646572155, ,0.05790642639613798, ,0.1603289267535637, ,0.0011468834421203924, ,0.22985169853554407,-0.2315893134322446,0.10231487341,1.6246776821180946,0.2195748551230628,-1.3320256670643258, ,0.33651397715769776,0.12502890850918416,0.04783426882882884,0.09776386573390866,0.16239002064899566,-0.06441409188387584, ,1.0372939109802246
0.019266141450194986,0.022045970009379162,-0.09102411555128231, ,0.020422521373392663,0.021568834271648372,-0.09222471125026538, ,0.001733869392835344, ,0.040388634419564556,-0.00046077855563510283,-0.04149337430020337,-0.035611792145205795,-0.1563243039675654,-0.0826549646572155, ,0.05790642639613798, ,0.1603289267535637, ,0.0011571814412557426, ,0.22985169853554407,-0.2315893134322446,0.10231487341,1.6246776821180946,0.2195748551230628,-1.3320256670643258, ,0.33651397715769776,0.12502890850918416,0.04783426882882884,0.09776386573390866,0.16239002064899566,-0.06441409188387584, ,1.0425388813018799
0.01968818564584728,0.022041349529149892,-0.09148766864850426, ,0.02057565965180942,0.021560395428879137,-0.09245669933365713, ,0.0013992667460472252, ,0.03868122017825,-0.00038786802354142817,-0.044055962751552824,0.056471957939193365,-0.04784965820568968,-0.01894115983377388, ,0.0586286200592181, ,0.07401692952442239, ,0.001161355325821113, ,0.23333465106181933,-0.23023011244638109,0.10284505602,1.6250970620050638,0.22189767561907528,-1.3334296989863215, ,0.3184461126123181,0.12789345223513582,0.0502486167823344,0.055342554439781096,0.2655788214358957,-0.1684124903017545, ,1.047888994216919
0.01968818564584728,0.022041349529149892,-0.09148766864850426, ,0.020726922324353726,0.021551079138428287,-0.09268916420045667, ,0.0016622065168487193, ,0.03868122017825,-0.00038786802354142817,-0.044055962751552824,0.056471957939193365,-0.04784965820568968,-0.01894115983377388, ,0.0586286200592181, ,0.07401692952442239, ,0.0011698443290588689, ,0.23333465106181933,-0.23023011244638109,0.10284505602,1.6250970620050638,0.22189767561907528,-1.3334296989863215, ,0.3184461126123181,0.12789345223513582,0.0502486167823344,0.055342554439781096,0.2655788214358957,-0.1684124903017545, ,1.0534729957580566
0.01976456301632296,0.022040560258633757,-0.0915765891902688, ,0.020876329030897863,0.021540911253272354,-0.09292209472270131, ,0.0018155048712490147, ,0.038457357736214115,-0.0003251073843844003,-0.044895576475899375,0.06079188510204962,-0.036271680006691766,-0.010216506276813964, ,0.05911587642897514, ,0.07078916349088134, ,0.0011806053380953713, ,0.2339601924246315,-0.22997526226153167,0.10294616664000002,1.6250970620050638,0.22244422161813707,-1.333712013120826, ,0.3142282833061946,0.1287611147333389,0.05105388307692308,0.04811481377872386,0.2748386493890543,-0.17517949777311342, ,1.0588150024414062
0.01976456301632296,0.022040560258633757,-0.0915765891902688, ,0.02102389934628772,0.02152991741929542,-0.09315547974490772, ,0.002083165736292871, ,0.038457357736214115,-0.0003251073843844003,-0.044895576475899375,0.06079188510204962,-0.036271680006691766,-0.010216506276813964, ,0.05911587642897514, ,0.07078916349088134, ,0.0011954014101969695, ,0.2339601924246315,-0.22997526226153167,0.10294616664000002,1.6250970620050638,0.22244422161813707,-1.333712013120826, ,0.3142282833061946,0.1287611147333389,0.05105388307692308,0.04811481377872386,0.2748386493890543,-0.17517949777311342, ,1.0640370845794678
0.020443845943844914,0.02202818849441082,-0.09240113329160413, ,0.02116965278027643,0.021518123075924742,-0.09338930808468227, ,0.0013279501935769752, ,0.034503767885336045,-0.001737151758091487,-0.04102210510333045,-0.1550913825838682,-0.11984537547174615,0.0159197968105956, ,0.05363152805602762, ,0.19600034388970583, ,0.001197539293799873, ,0.23931976903934332,-0.22759666053627053,0.10387690286000001,1.6253067519485482,0.2266799531108657,-1.3352056783720416, ,0.26581776346910585,0.12823911021414972,0.04617046817391306,-0.011713489693093465,0.15274770594320078,0.02772995259463573, ,1.0693199634552002
0.020443845943844914,0.02202818849441082,-0.09240113329160413, ,0.021313608777455202,0.021505553456765858,-0.09362356853332893, ,0.0015887047206811966, ,0.034503767885336045,-0.001737151758091487,-0.04102210510333045,-0.1550913825838682,-0.11984537547174615,0.0159197968105956, ,0.05363152805602762, ,0.19600034388970583, ,0.0012037482688297353, ,0.23931976903934332,-0.22759666053627053,0.10387690286000001,1.6253067519485482,0.2266799531108657,-1.3352056783720416, ,0.26581776346910585,0.12823911021414972,0.04617046817391306,-0.011713489693093465,0.15274770594320078,0.02772995259463573, ,1.074631929397583
0.02078649484299316,0.022001301644285386,-0.09283153735508524, ,0.02145578671718852,0.021492233590239086,-0.09385824985646082, ,0.001327117348615157, ,0.034361576251023804,-0.00262597235427515,-0.046121798209709915,-0.03536097091787644,-0.01660958637948058,0.03183353998302582, ,0.05757459442634, ,0.039064919298109624, ,0.0012056759107013824, ,0.24193777548370543,-0.22617567768741323,0.10435653016000002,1.6253067519485482,0.2287295006073473,-1.3356517658253795, ,0.2578721238001923,0.14781455071412894,0.05105388307692308,-0.009329370938635784,0.2501846683233098,-0.11051768637607907, ,1.079953908920288
0.02078649484299316,0.022001301644285386,-0.09283153735508524, ,0.021596205913545753,0.021478188300214737,-0.09409334079460849, ,0.0015879003459011178, ,0.034361576251023804,-0.00262597235427515,-0.046121798209709915,-0.03536097091787644,-0.01660958637948058,0.03183353998302582, ,0.05757459442634, ,0.039064919298109624, ,0.0012115562866275322, ,0.24193777548370543,-0.22617567768741323,0.10435653016000002,1.6253067519485482,0.2287295006073473,-1.3356517658253795, ,0.2578721238001923,0.14781455071412894,0.05105388307692308,-0.009329370938635784,0.2501846683233098,-0.11051768637607907, ,1.085319995880127
0.021117634739900006,0.02198263960872365,-0.09329719490622904, ,0.02173488561523292,0.021463442206648566,-0.0943288300638288, ,0.0013095173476577796, ,0.03189858026523962,-0.0015102829234842684,-0.04583254446939037,-0.002769151675775811,0.008106062408439958,0.024645036241204815, ,0.055860742118106065, ,0.008554192391785067, ,0.0012130405451279904, ,0.24438588180483461,-0.2247778630371786,0.10487115729000002,1.6250970620050638,0.23146223060265614,-1.3370633364979025, ,0.23033238242347276,0.13365766416686023,0.05056765561904762,0.0,0.24500062879289836,-0.12721170791610942, ,1.0907649993896484
0.021117634739900006,0.02198263960872365,-0.09329719490622904, ,0.021871845005525685,0.021448019726217495,-0.09456470635631546, ,0.0015688329482918969, ,0.03189858026523962,-0.0015102829234842684,-0.04583254446939037,-0.002769151675775811,0.008106062408439958,0.024645036241204815, ,0.055860742118106065, ,0.008554192391785067, ,0.001218350879503571, ,0.2465868606739886,-0.22341866205131505,0.10535726604000001,1.6250970620050638,0.23337514159937228,-1.3379697572285276, ,0.20856470672191377,0.13934940023270306,0.047978347951807235,0.0,0.17324254007009748,-0.08886415656087496, ,1.0962319374084473
0.021448505264555787,0.021958615774823373,-0.0937688536174741, ,0.02200710320220242,0.021431945072955438,-0.09480095834100688, ,0.0012863334888308772, ,0.029921630547980246,-0.002618791651945766,-0.04389855649391916,-0.04799710727390815,-0.04040873104993954,0.0056646901694940455, ,0.05319065055642709, ,0.06274093422845628, ,0.0012193506237583845, ,0.2465868606739886,-0.22341866205131505,0.10535726604000001,1.6250970620050638,0.23337514159937228,-1.3379697572285276, ,0.20856470672191377,0.13934940023270306,0.047978347951807235,0.0,0.17324254007009748,-0.08886415656087496, ,1.1017510890960693
0.021448505264555787,0.021958615774823373,-0.0937688536174741, ,0.022140679257474406,0.021415242258888304,-0.09503757466419548, ,0.0015440248406960073, ,0.029921630547980246,-0.002618791651945766,-0.04389855649391916,-0.04799710727390815,-0.04040873104993954,0.0056646901694940455, ,0.05319065055642709, ,0.06274093422845628, ,0.001224056047192263, ,0.24847120749529938,-0.22206718379832577,0.10581615270000001,1.6250970620050638,0.2348781430967921,-1.3389503179487665, ,0.1738039222682615,0.1403800910628266,0.04590435596541788,0.0,0.13543077783485738,-0.07374518259206389, ,1.1074728965759277
0.02170878318237572,0.021931478982252967,-0.09416132694372756, ,0.022272592157920667,0.0213979350946701,-0.09527454395013679, ,0.0013571299658620818, ,0.026902217764249097,-0.0034511522848443884,-0.04262232025995349,-0.062525915936001,-0.04191059879505024,-0.0032910837304989415, ,0.05052031232158317, ,0.07527182600544029, ,0.0012259571031732603, ,0.24847120749529938,-0.22206718379832577,0.10581615270000001,1.6250970620050638,0.2348781430967921,-1.3389503179487665, ,0.1738039222682615,0.1403800910628266,0.04590435596541788,0.0,0.13543077783485738,-0.07374518259206389, ,1.1127948760986328
0.021988006124402177,0.021890132378075713,-0.09463240847454463, ,0.022402860824415626,0.02138004719021751,-0.09551185480165865, ,0.0010980515303344964, ,0.024830902682088814,-0.004017456611841836,-0.043170670646916015,-0.045649064294480096,-0.012229383757384598,-0.009973747944775818, ,0.04996419207532424, ,0.04725722112976801, ,0.0012241556162318693, ,0.2502010996591257,-0.22049174629198398,0.10631911322000001,1.625516441892033,0.23638114459421197,-1.3400942361492867, ,0.15039134953798858,0.14488082680682562,0.04590435596541788,0.006783609991184339,0.14034317929443754,-0.09323623047959807, ,1.1181390285491943
0.021988006124402177,0.021890132378075713,-0.09463240847454463, ,0.022531504112064782,0.02136160195534606,-0.09574949580076915, ,0.0013500439121582448, ,0.024830902682088814,-0.004017456611841836,-0.043170670646916015,-0.045649064294480096,-0.012229383757384598,-0.009973747944775818, ,0.04996419207532424, ,0.04725722112976801, ,0.0012259040647864025, ,0.2502010996591257,-0.22049174629198398,0.10631911322000001,1.625516441892033,0.23638114459421197,-1.3400942361492867, ,0.15039134953798858,0.14488082680682562,0.04590435596541788,0.006783609991184339,0.14034317929443754,-0.09323623047959807, ,1.1234049797058105
0.021988006124402177,0.021890132378075713,-0.09463240847454463, ,0.022658540810134995,0.021342622600405446,-0.09598745550926585, ,0.0016079602568851432, ,0.024830902682088814,-0.004017456611841836,-0.043170670646916015,-0.045649064294480096,-0.012229383757384598,-0.009973747944775818, ,0.04996419207532424, ,0.04725722112976801, ,0.0012311377112535086, ,0.2516529734394799,-0.21903214977875554,0.10678707391000002,1.625516441892033,0.23788414609163183,-1.3412381543498069, ,0.13053224423448526,0.13873821865273506,0.04376047120879121,0.006256399810821181,0.1482906312249427,-0.1151936258748262, ,1.1287789344787598
0.02223337284154495,0.021850032615520997,-0.09507373603183694, ,0.02278398964198507,0.021323132136914565,-0.09622572246934463, ,0.0013812587474779168, ,0.022401510893029587,-0.004018063366174429,-0.04154740787923956,-0.017941492881380278,0.016165868518257954,-0.00643094827100459, ,0.04737256194242627, ,0.024147643198471545, ,0.0012331663739051897, ,0.2516529734394799,-0.21903214977875554,0.10678707391000002,1.625516441892033,0.23788414609163183,-1.3412381543498069, ,0.13053224423448526,0.13873821865273506,0.04376047120879121,0.006256399810821181,0.1482906312249427,-0.1151936258748262, ,1.1342830657958984
0.022469787274767335,0.021804175494192946,-0.09552622318370384, ,0.022907869265000144,0.021303153378197524,-0.09646428520420795, ,0.0011501736152403832, ,0.021345041576662754,-0.004388415674562012,-0.0414663719914795,-0.015392951491848213,0.025943727253719524,-0.006938363707634488, ,0.046843665507493734, ,0.030164504675957268, ,0.001232059803789659, ,0.25297356076097227,-0.2175107714025333,0.10726281234000001,1.625516441892033,0.23938714758905166,-1.3423820725503268, ,0.11803102183889398,0.14058806156810486,0.04352134295081967,0.005529897768466753,0.146533599987426,-0.1195159877279698, ,1.1396150588989258
0.022469787274767335,0.021804175494192946,-0.09552622318370384, ,0.023030198270519327,0.021282708940018217,-0.09670313221867376, ,0.0014039596603451368, ,0.021345041576662754,-0.004388415674562012,-0.0414663719914795,-0.015392951491848213,0.025943727253719524,-0.006938363707634488, ,0.046843665507493734, ,0.030164504675957268, ,0.001234321644007494, ,0.25297356076097227,-0.2175107714025333,0.10726281234000001,1.625516441892033,0.23938714758905166,-1.3423820725503268, ,0.11803102183889398,0.14058806156810486,0.04352134295081967,0.005529897768466753,0.146533599987426,-0.1195159877279698, ,1.1449060440063477
0.022673952476037734,0.02176363598689497,-0.09594134330103568, ,0.023150995183770676,0.021261821241216495,-0.09694225199978398, ,0.0012170480710356315, ,0.021092525994975537,-0.004070516630137803,-0.04479055615159214,-0.024893575563217564,0.03038847957666234,-0.002397622588816753, ,0.04967552394141279, ,0.03928065072835879, ,0.0012340973118909763, ,0.25404702063048945,-0.21614384768379558,0.10769706949,1.6257261318355174,0.24075351258670605,-1.3435779303274318, ,0.10544104617607865,0.14291708066034756,0.04671205724340176,-0.0018939870423874366,0.13980215494281611,-0.11399928322747209, ,1.1501879692077637
0.022673952476037734,0.02176363598689497,-0.09594134330103568, ,0.02327027846380127,0.021240512504342952,-0.09718163301741253, ,0.0014722708454050425, ,0.021092525994975537,-0.004070516630137803,-0.04479055615159214,-0.024893575563217564,0.03038847957666234,-0.002397622588816753, ,0.04967552394141279, ,0.03928065072835879, ,0.0012371508187309004, ,0.25404702063048945,-0.21614384768379558,0.10769706949,1.6257261318355174,0.24075351258670605,-1.3435779303274318, ,0.10544104617607865,0.14291708066034756,0.04671205724340176,-0.0018939870423874366,0.13980215494281611,-0.11399928322747209, ,1.1555259227752686
0.022881914242274703,0.02172792198624492,-0.0964084111817535, ,0.023388066503406735,0.02121880475629448,-0.09742126372487492, ,0.0012414752270540888, ,0.020383206559216473,-0.003290579746413039,-0.047303533349147824,-0.011466286917121241,0.055137563939747836,0.0008617227453980403, ,0.0516132472531726, ,0.05631509429863785, ,0.0012372055580767635, ,0.255027807705516,-0.2147305875678125,0.10818317824000001,1.6257261318355174,0.2422565140841259,-1.3448035272680923, ,0.0921329529693891,0.13894134928033788,0.049162998518518526,-0.0018939870423874366,0.1514949763592064,-0.12353399505591679, ,1.1608378887176514
0.022881914242274703,0.02172792198624492,-0.0964084111817535, ,0.023504377629065428,0.021196719828949568,-0.0976611325595351, ,0.0014963112143405312, ,0.020383206559216473,-0.003290579746413039,-0.047303533349147824,-0.011466286917121241,0.055137563939747836,0.0008617227453980403, ,0.0516132472531726, ,0.05631509429863785, ,0.0012404443787800608, ,0.255027807705516,-0.2147305875678125,0.10818317824000001,1.6257261318355174,0.2422565140841259,-1.3448035272680923, ,0.0921329529693891,0.13894134928033788,0.049162998518518526,-0.0018939870423874366,0.1514949763592064,-0.12353399505591679, ,1.1661710739135742
0.023056358036472463,0.0216985107160071,-0.09682503637431443, ,0.023619230100869484,0.021174279359803733,-0.09790122794341535, ,0.0013228120687041284, ,0.01917431934956142,-0.003480956224794221,-0.047806815916320036,-0.027015652467870306,0.05253739223824034,-0.003881766584410196, ,0.05162618741312213, ,0.05907430358363617, ,0.0012414612638408516, ,0.25577691279431575,-0.21351039577368502,0.10861484281000001,1.6257261318355174,0.24348624258201487,-1.3458879671415005, ,0.07665342613769853,0.13996599049921946,0.04931520594427245,-0.0018939870423874366,0.13291387214188685,-0.10892208461661476, ,1.1717920303344727
0.023056358036472463,0.0216985107160071,-0.09682503637431443, ,0.023732642112453198,0.02115150479260464,-0.09814153828380419, ,0.001577895088195878, ,0.01917431934956142,-0.003480956224794221,-0.047806815916320036,-0.027015652467870306,0.05253739223824034,-0.003881766584410196, ,0.05162618741312213, ,0.05907430358363617, ,0.0012455641153573764, ,0.25577691279431575,-0.21351039577368502,0.10861484281000001,1.6257261318355174,0.24348624258201487,-1.3458879671415005, ,0.07665342613769853,0.13996599049921946,0.04931520594427245,-0.0018939870423874366,0.13291387214188685,-0.10892208461661476, ,1.1772270202636719
0.02325577170763115,0.02165712347666985,-0.09733600714832072, ,0.023844631790926704,0.0211284173779875,-0.09838205197386428, ,0.0013116768327332826, ,0.017138507832645707,-0.003701590727756671,-0.0448275587950117,-0.06246057359718111,0.02035223106255263,-0.0037399045252862863, ,0.0481346055573919, ,0.06569136582365849, ,0.0012463606541209416, ,0.25653374061598977,-0.2119890173974628,0.10913984026000001,1.625516441892033,0.24485260757966928,-1.3469204674383244, ,0.05945923656545788,0.13328222128998704,0.04590435596541788,-0.012004933361404464,0.08441092721446782,-0.06947309489197741, ,1.1825320720672607
0.02325577170763115,0.02165712347666985,-0.09733600714832072, ,0.02395521719680718,0.021105038174110302,-0.09862275739324106, ,0.0015651672007915033, ,0.017138507832645707,-0.003701590727756671,-0.0448275587950117,-0.06246057359718111,0.02035223106255263,-0.0037399045252862863, ,0.0481346055573919, ,0.06569136582365849, ,0.001250155970152734, ,0.2571515592459277,-0.21058348001435392,0.10962206014,1.625516441892033,0.24567242657826194,-1.347588974860503, ,0.05818328728293733,0.13853568110725661,0.049162998518518526,-0.01199749642382778,0.10384254378293789,-0.08534057885677876, ,1.1880860328674316
0.023436093468422233,0.02161728501271582,-0.09780706926998418, ,0.024064416323947936,0.02108138804728931,-0.09886364290867168, ,0.0013410156681779126, ,0.017734866713942768,-0.0036781603787986203,-0.04803972370876265,-0.05164469370016324,0.040616523281342506,-0.0010043605515441985, ,0.05134071888031693, ,0.06570099307303585, ,0.0012512249077765597, ,0.2571515592459277,-0.21058348001435392,0.10962206014,1.625516441892033,0.24567242657826194,-1.347588974860503, ,0.05818328728293733,0.13853568110725661,0.049162998518518526,-0.01199749642382778,0.10384254378293789,-0.08534057885677876, ,1.1939749717712402
0.023595423565912592,0.02158504377675814,-0.09824872817353099, ,0.0241722470994726,0.021057487672634042,-0.09910469687459195, ,0.001159190773368747, ,0.016648478953535238,-0.0034862091583711162,-0.045996272667047824,-0.00093216925223532,0.0875241689779891,0.00872680603029608, ,0.04904062198854769, ,0.08752795676386904, ,0.0012501547434229804, ,0.2576844278142492,-0.20933239728872957,0.11007446535000001,1.6253067519485482,0.24703879157591632,-1.3489481901178888, ,0.05638558619041639,0.13125441432706886,0.047126661301775154,-0.01000635086471536,0.14958257239069622,-0.1285137922047351, ,1.1992321014404297
0.023595423565912592,0.02158504377675814,-0.09824872817353099, ,0.0242787273837022,0.021033357534682762,-0.09934590763374637, ,0.0014053699103864514, ,0.016648478953535238,-0.0034862091583711162,-0.045996272667047824,-0.00093216925223532,0.0875241689779891,0.00872680603029608, ,0.04904062198854769, ,0.08752795676386904, ,0.0012519388258018709, ,0.2576844278142492,-0.20933239728872957,0.11007446535000001,1.6253067519485482,0.24703879157591632,-1.3489481901178888, ,0.05638558619041639,0.13125441432706886,0.047126661301775154,-0.01000635086471536,0.14958257239069622,-0.1285137922047351, ,1.2050271034240723
0.023763824802293325,0.02154495142712722,-0.09870741873384316, ,0.024383874970090123,0.021009017928037655,-0.0995872635177944, ,0.0012024199640214845, ,0.01632756925585615,-0.004221262725578167,-0.04348308090218269,-0.012788698336824236,0.06877406448687358,9.993944038148595e-05, ,0.046638899017332085, ,0.06995189273583055, ,0.0012513761114634574, ,0.2582559100469418,-0.20798091903574026,0.11054372233000001,1.6250970620050638,0.24840515657357073,-1.350225726635134, ,0.05744366922425592,0.1319846196918926,0.044493886927374306,-0.0058203961974814976,0.13050261013058964,-0.11629840481187056, ,1.2121000289916992
0.023763824802293325,0.02154495142712722,-0.09870741873384316, ,0.02448770758515151,0.02098448895800006,-0.0998287528479205, ,0.0014475892573559154, ,0.01632756925585615,-0.004221262725578167,-0.04348308090218269,-0.012788698336824236,0.06877406448687358,9.993944038148595e-05, ,0.046638899017332085, ,0.06995189273583055, ,0.0012535807535521367, ,0.2582559100469418,-0.20798091903574026,0.11054372233000001,1.6250970620050638,0.24840515657357073,-1.350225726635134, ,0.05744366922425592,0.1319846196918926,0.044493886927374306,-0.0058203961974814976,0.13050261013058964,-0.11629840481187056, ,1.2174348831176758
0.023927483137292545,0.02149743725903932,-0.0991302844670056, ,0.02459024288839216,0.020959790541205912,-0.10007036393544155, ,0.0012696707793162301, ,0.013696023530693085,-0.00505536687702067,-0.034409569275831074,-0.07345098541009544,-0.00708516863563804,-0.00458317396071305, ,0.03737855337707432, ,0.07379158917887832, ,0.0012537595316161822, ,0.2588196695467602,-0.20664488624849944,0.11097538690000001,1.624887372061579,0.2492249755721634,-1.3509759127974532, ,0.04737740467222705,0.11951755863787251,0.034931604210526324,-0.01724368336032744,0.04488061478412068,-0.046413340316659446, ,1.2227790355682373
0.023927483137292545,0.02149743725903932,-0.0991302844670056, ,0.024691498472243986,0.02093494240626073,-0.10031208508241497, ,0.0015155106683970724, ,0.013696023530693085,-0.00505536687702067,-0.034409569275831074,-0.07345098541009544,-0.00708516863563804,-0.00458317396071305, ,0.03737855337707432, ,0.07379158917887832, ,0.0012566359177346535, ,0.25925986532059103,-0.20532429892700704,0.11133834810000001,1.624887372061579,0.24949824857169425,-1.351362106085127, ,0.047118640297155304,0.13914507559893075,0.03756795169811321,-0.01724368336032744,0.013167882323383413,-0.02950265462021004, ,1.2280550003051758
0.02406698339573467,0.021436787310980573,-0.09949056830914718, ,0.024791491861991068,0.020909964094375132,-0.10055390458224711, ,0.001390373780291382, ,0.014761671210200231,-0.006617582130549834,-0.03730740597293886,-0.10931936276520478,-0.03778994603390036,-0.016460633707122065, ,0.04066376606516299, ,0.1156664636952798, ,0.0012580895901537486, ,0.25925986532059103,-0.20532429892700704,0.11133834810000001,1.624887372061579,0.24949824857169425,-1.351362106085127, ,0.047118640297155304,0.13914507559893075,0.03756795169811321,-0.01724368336032744,0.013167882323383413,-0.02950265462021004, ,1.2332680225372314
0.02421205008677768,0.021381006062228626,-0.09988324158250263, ,0.02489024051570524,0.020884874959999807,-0.10079581072030139, ,0.0012405122972991855, ,0.014532433368212371,-0.00444691749384243,-0.041587059938834416,0.0744915716426094,0.11053999404133545,0.015190099369908994, ,0.04427697199622825, ,0.13329651209552973, ,0.0012579005870047746, ,0.2597386747587929,-0.20399598887264042,0.11173630913000002,1.6246776821180946,0.2505913405698178,-1.3528252004956824, ,0.04679336368760887,0.12652925541129437,0.04236386042553192,-0.013394525317646651,0.16384843484817377,-0.2001313877555532, ,1.2385358810424805
0.02421205008677768,0.021381006062228626,-0.09988324158250263, ,0.024987761824174545,0.020859694171460823,-0.10103779177450625, ,0.0014854228128202327, ,0.014532433368212371,-0.00444691749384243,-0.041587059938834416,0.0744915716426094,0.11053999404133545,0.015190099369908994, ,0.04427697199622825, ,0.13329651209552973, ,0.0012603210362155774, ,0.2597386747587929,-0.20399598887264042,0.11173630913000002,1.6246776821180946,0.2505913405698178,-1.3528252004956824, ,0.04679336368760887,0.12652925541129437,0.04236386042553192,-0.013394525317646651,0.16384843484817377,-0.2001313877555532, ,1.2438280582427979
0.02421205008677768,0.021381006062228626,-0.09988324158250263, ,0.025084073110831932,0.02083444071159537,-0.10127983601596474, ,0.0017348296309928942, ,0.014532433368212371,-0.00444691749384243,-0.041587059938834416,0.0744915716426094,0.11053999404133545,0.015190099369908994, ,0.04427697199622825, ,0.13329651209552973, ,0.0012653158635290227, ,0.2597386747587929,-0.20399598887264042,0.11173630913000002,1.6246776821180946,0.2505913405698178,-1.3528252004956824, ,0.04679336368760887,0.12652925541129437,0.04236386042553192,-0.013394525317646651,0.16384843484817377,-0.2001313877555532, ,1.252129077911377
0.024377105807553853,0.0213419420373112,-0.10034643115645778, ,0.02517919163169077,0.020809133378386094,-0.10152193170956042, ,0.0015195487115099613, ,0.017582658666093223,-0.003048000595650928,-0.04760176118736671,0.028732745721647433,0.05898588898175622,0.011182086812743004, ,0.05083667830945019, ,0.0656099182124779, ,0.0012679641223621574, ,0.26027154332711444,-0.2026908470168965,0.11221075127,1.6244679921746104,0.25223097856700305,-1.3548973240013047, ,0.05631865967861767,0.12470031742243204,0.049011727753846164,-0.01853517230269456,0.12180059393763851,-0.15389280609163775, ,1.2576708793640137
0.024562040651335108,0.021317513669599008,-0.10083865376992646, ,0.025273134575272853,0.020783790785597032,-0.10176406711456695, ,0.001283317787614306, ,0.018875392649778056,-0.002014446554614099,-0.05090442326425484,-0.04076874366091962,0.00600607126518119,0.006552617735398081, ,0.05432861815352109, ,0.04120463016901724, ,0.0012681224075709425, ,0.26084302555980704,-0.20147837795564325,0.11271889695000001,1.6240486122876412,0.25305079756559573,-1.3558108676439047, ,0.05498084678938052,0.12027495761529881,0.05257033504950496,-0.024753643081909065,0.06743005848930218,-0.08170008809575464, ,1.2630279064178467
0.024562040651335108,0.021317513669599008,-0.10083865376992646, ,0.02536591906254195,0.020758431363408283,-0.1020062304852559, ,0.0015238204983788143, ,0.018875392649778056,-0.002014446554614099,-0.05090442326425484,-0.04076874366091962,0.00600607126518119,0.006552617735398081, ,0.05432861815352109, ,0.04120463016901724, ,0.0012707315717628595, ,0.26084302555980704,-0.20147837795564325,0.11271889695000001,1.6240486122876412,0.25305079756559573,-1.3558108676439047, ,0.05498084678938052,0.12027495761529881,0.05257033504950496,-0.024753643081909065,0.06743005848930218,-0.08170008809575464, ,1.2683970928192139
0.02475158047153016,0.02129200532638753,-0.10134428580681855, ,0.025457562146828656,0.020733073359052192,-0.10224841007150563, ,0.001276031251953722, ,0.01862963106527618,-0.0029608859937044394,-0.04915359901469485,-0.1006893033910373,-0.049003494493747586,0.027195616803968124, ,0.052648896432816415, ,0.11197942382214542, ,0.0012707851038859996, ,0.26138361686100275,-0.2002427406957673,0.11324000553,1.623629232400672,0.25346070706489204,-1.3563084788352753, ,0.05211254341486588,0.12356372598759216,0.05056765561904762,-0.059064179003771804,0.015189323698411358,-0.03364060310761436, ,1.2746429443359375
0.02493408761075702,0.021258669520210743,-0.10182446981299581, ,0.025548080813768113,0.020707734837447467,-0.10249059411940814, ,0.0010603010278258727, ,0.017375769564261477,-0.0034854784058721356,-0.045148888952722996,-0.04715382381728985,-0.004227217604703088,-0.04445453660336048, ,0.04850245459080838, ,0.04734094283163624, ,0.0012686802631253983, ,0.2619164854293242,-0.19899165797014295,0.11373389202,1.6234195424571878,0.25387061656418836,-1.3570511262470673, ,0.05228481628565883,0.12135158767067875,0.04643968373177843,0.02352320958539321,0.04435969662583585,-0.06410229384744073, ,1.279953956604004
0.02493408761075702,0.021258669520210743,-0.10182446981299581, ,0.025637491981228094,0.020682433681834853,-0.10273277087187768, ,0.0012852378236701972, ,0.017375769564261477,-0.0034854784058721356,-0.045148888952722996,-0.04715382381728985,-0.004227217604703088,-0.04445453660336048, ,0.04850245459080838, ,0.04734094283163624, ,0.0012688441993684162, ,0.2619164854293242,-0.19899165797014295,0.11373389202,1.6234195424571878,0.25387061656418836,-1.3570511262470673, ,0.05228481628565883,0.12135158767067875,0.04643968373177843,0.02352320958539321,0.04435969662583585,-0.06410229384744073, ,1.285290002822876
0.025091226918161177,0.021217224874693633,-0.10223899091388157, ,0.025725812499238276,0.020657187594412596,-0.10297492856925963, ,0.0011215814048114842, ,0.015328532158183148,-0.004805601368656283,-0.03853684203177716,0.028445423945580663,0.03537218711963183,-0.0007346439983573364, ,0.041750998747587253, ,0.045389963346186175, ,0.001267400446480603, ,0.26241846306614885,-0.19779463437463815,0.11415907514000001,1.623629232400672,0.25482707206254646,-1.3584844814940666, ,0.053463065666744095,0.11921726326441054,0.039525586898263035,-0.011543004969975257,0.09313057461356679,-0.1465091161532887, ,1.290693998336792
0.025091226918161177,0.021217224874693633,-0.10223899091388157, ,0.02581305914992429,0.02063201409697111,-0.10321705544993723, ,0.0013491195876809779, ,0.015328532158183148,-0.004805601368656283,-0.03853684203177716,0.028445423945580663,0.03537218711963183,-0.0007346439983573364, ,0.041750998747587253, ,0.045389963346186175, ,0.0012681938362009949, ,0.26241846306614885,-0.19779463437463815,0.11415907514000001,1.623629232400672,0.25482707206254646,-1.3584844814940666, ,0.053463065666744095,0.11921726326441054,0.039525586898263035,-0.011543004969975257,0.09313057461356679,-0.1465091161532887, ,1.2959699630737305
0.025254831019581807,0.021163487428434023,-0.10263354044612781, ,0.025899248647434474,0.02060693053152903,-0.10345913975094127, ,0.0011860201814000652, ,0.016035098598544587,-0.005299233117156536,-0.03707826590250382,0.009097630577131475,0.015160830023267803,-0.007701748192367752, ,0.04074314741194883, ,0.01767901492254361, ,0.0012674037049048323, ,0.2630362816960868,-0.19653582891613955,0.11456481391000001,1.6234195424571878,0.2559201640606699,-1.3600292546447625, ,0.06198363263126765,0.12058061189132248,0.038198588776978425,-0.007585700172950388,0.0803421773352481,-0.12745862305610497, ,1.301285982131958
0.025254831019581807,0.021163487428434023,-0.10263354044612781, ,0.025984397637876282,0.020581954060967134,-0.1037011697085565, ,0.0014178436973097727, ,0.016035098598544587,-0.005299233117156536,-0.03707826590250382,0.009097630577131475,0.015160830023267803,-0.007701748192367752, ,0.04074314741194883, ,0.01767901492254361, ,0.0012688364667372601, ,0.2630362816960868,-0.19653582891613955,0.11456481391000001,1.6234195424571878,0.2559201640606699,-1.3600292546447625, ,0.06198363263126765,0.12058061189132248,0.038198588776978425,-0.007585700172950388,0.0803421773352481,-0.12745862305610497, ,1.3066198825836182
0.025416578810085067,0.021118770294253013,-0.1030010737923843, ,0.0260685226992405,0.0205571016696651,-0.10394313355893159, ,0.0012759228355197383, ,0.017423175066407448,-0.004180688424749862,-0.04050307960529511,-0.07741698052171028,-0.03856679775260965,0.007833360201148436, ,0.04428932876678526, ,0.08649091142162611, ,0.001268903319272944, ,0.2636309321274021,-0.1954237553822512,0.11494462688000001,1.6230001625702186,0.2561934370602008,-1.360497126672577, ,0.06162139062238363,0.11544640092271385,0.04191792505263159,-0.033531069412885535,0.030194177657093018,-0.042617085656121864, ,1.3120050430297852
0.025416578810085067,0.021118770294253013,-0.1030010737923843, ,0.02615164034133739,0.020532390164135383,-0.10418501953868553, ,0.001511914231002726, ,0.017423175066407448,-0.004180688424749862,-0.04050307960529511,-0.07741698052171028,-0.03856679775260965,0.007833360201148436, ,0.04428932876678526, ,0.08649091142162611, ,0.0012711744492891102, ,0.2636309321274021,-0.1954237553822512,0.11494462688000001,1.6230001625702186,0.2561934370602008,-1.360497126672577, ,0.06162139062238363,0.11544640092271385,0.04191792505263159,-0.033531069412885535,0.030194177657093018,-0.042617085656121864, ,1.31746506690979
0.025589361135205147,0.021077416363003997,-0.10340613554413342, ,0.02623376700572344,0.020507836173659776,-0.1044268158855179, ,0.00133471677794976, ,0.01743014212326558,-0.004521767508996064,-0.04108611483852319,-0.087137408454437,-0.06978043550084842,0.03049984104522304, ,0.04485894635818997, ,0.11163386606590729, ,0.0012717628041841163, ,0.26421785982584317,-0.19428079091686598,0.11536332855,1.6225807826832495,0.2563300735599663,-1.3609352595368356, ,0.057304916400042746,0.1178843994515165,0.04236386042553192,-0.06457794801550158,0.0,-0.043203859044395894, ,1.3230419158935547
0.025589361135205147,0.021077416363003997,-0.10340613554413342, ,0.026314919065638345,0.020483456150922088,-0.10466851083881236, ,0.0015725184986405218, ,0.01743014212326558,-0.004521767508996064,-0.04108611483852319,-0.087137408454437,-0.06978043550084842,0.03049984104522304, ,0.04485894635818997, ,0.11163386606590729, ,0.0012745220307387622, ,0.26421785982584317,-0.19428079091686598,0.11536332855,1.6225807826832495,0.2563300735599663,-1.3609352595368356, ,0.057304916400042746,0.1178843994515165,0.04236386042553192,-0.06457794801550158,0.0,-0.043203859044395894, ,1.3286759853363037
0.025757412327765218,0.021028383016749197,-0.10383836579141618, ,0.026395112825925843,0.020459266372647375,-0.10491009264025246, ,0.0013708224241179305, ,0.015148234728101334,-0.0048866119617082746,-0.041136932067470204,0.029892124512625375,0.04216123380352725,0.030332163076199938, ,0.04410890127588336, ,0.05168163058437997, ,0.001275397488860391, ,0.26471983746266775,-0.1930605991227385,0.11579240054,1.6225807826832495,0.2570132560587935,-1.3621457789764424, ,0.04430296057818431,0.1204275908102421,0.04191792505263159,-0.04506231022934378,0.09673459340942586,-0.1262019221757459, ,1.3340089321136475
0.025911871619280144,0.02098403246812551,-0.10427220214996323, ,0.02647436452297468,0.020435282940233095,-0.1051515495344213, ,0.0011793117202937061, ,0.01649181253532884,-0.004004855821539244,-0.04686772000084917,-0.00027230353740802,0.04079699233881936,0.013683027260663594, ,0.04984578145570339, ,0.04079512957950097, ,0.001274531851305736, ,0.2651445877707501,-0.19181723912998838,0.11624999091000002,1.6225807826832495,0.2579697115571516,-1.3635791342234418, ,0.04117003972167929,0.12181892369508443,0.047978347951807235,-0.029246264781655727,0.08936096635447383,-0.12480792085500653, ,1.3397400379180908
0.025911871619280144,0.02098403246812551,-0.10427220214996323, ,0.026552690324643413,0.02041152178038659,-0.10539286976941503, ,0.0014122014778375337, ,0.01649181253532884,-0.004004855821539244,-0.04686772000084917,-0.00027230353740802,0.04079699233881936,0.013683027260663594, ,0.04984578145570339, ,0.04079512957950097, ,0.00127576104439977, ,0.2651445877707501,-0.19181723912998838,0.11624999091000002,1.6225807826832495,0.2579697115571516,-1.3635791342234418, ,0.04117003972167929,0.12181892369508443,0.047978347951807235,-0.029246264781655727,0.08936096635447383,-0.12480792085500653, ,1.345017910003662
0.026085567022575473,0.02094946786248233,-0.10474899710462601, ,0.026630106330191798,0.020387998645760345,-0.10563404159745061, ,0.001181132716143628, ,0.0177006069898784,-0.0027726243548544015,-0.04829632180628741,-0.017034444821966685,-0.005714302217186666,-0.009991238384022834, ,0.05151246095499356, ,0.017960033227933176, ,0.0012749236255656445, ,0.26558478354458087,-0.19063566100023202,0.11673998853,1.622371092739765,0.2585162575562133,-1.3645965570192113, ,0.04419978647343771,0.11283821826215314,0.049777536000000004,-0.0118944712356079,0.04159416983248629,-0.09491004601593313, ,1.3503289222717285
0.026085567022575473,0.02094946786248233,-0.10474899710462601, ,0.026706628570214483,0.020364729115585404,-0.10587505327547027, ,0.001412670997782137, ,0.0177006069898784,-0.0027726243548544015,-0.04829632180628741,-0.017034444821966685,-0.005714302217186666,-0.009991238384022834, ,0.05151246095499356, ,0.017960033227933176, ,0.0012761319358482455, ,0.26558478354458087,-0.19063566100023202,0.11673998853,1.622371092739765,0.2585162575562133,-1.3645965570192113, ,0.04419978647343771,0.11283821826215314,0.049777536000000004,-0.0118944712356079,0.04159416983248629,-0.09491004601593313, ,1.3557579517364502
0.026267823032836306,0.020920593254446975,-0.10523383122439967, ,0.026782273006568373,0.02034172859630865,-0.10611589306575389, ,0.0011737871016022157, ,0.017976141400377173,-0.0031654755908602145,-0.04756674889516898,-0.07957177037639511,-0.04895866046981591,0.014311054511287549, ,0.05094857697540477, ,0.09342576499834948, ,0.001275241980767845, ,0.26605587024990857,-0.18950814200059524,0.11724035647000002,1.6217420229093116,0.2587895305557442,-1.3653911440075883, ,0.045038890155895,0.11337746900653618,0.049011727753846164,-0.04548228001429509,0.0047449319318468575,-0.041562787780039794, ,1.3613018989562988
0.026267823032836306,0.020920593254446975,-0.10523383122439967, ,0.026857055532304504,0.020319012322227162,-0.10635654923652488, ,0.0014034209244522425, ,0.017976141400377173,-0.0031654755908602145,-0.04756674889516898,-0.07957177037639511,-0.04895866046981591,0.014311054511287549, ,0.05094857697540477, ,0.09342576499834948, ,0.0012763469716616763, ,0.26605587024990857,-0.18950814200059524,0.11724035647000002,1.6217420229093116,0.2587895305557442,-1.3653911440075883, ,0.045038890155895,0.11337746900653618,0.049011727753846164,-0.04548228001429509,0.0047449319318468575,-0.041562787780039794, ,1.3667569160461426
0.026449120786831495,0.020882760410536477,-0.10571641023451646, ,0.026930991971600385,0.020296595356122663,-0.10659701006255792, ,0.001162430800896629, ,0.017317122086635963,-0.0040831190798602725,-0.04662561537576861,-0.02449936179572653,-0.035424989972964685,0.033461887331431114, ,0.04990493550695046, ,0.04306887841580621, ,0.0012753733291765048, ,0.2665037887566136,-0.18834973206946157,0.11771998377000001,1.6213226430223424,0.25906280355527506,-1.3666758034368085, ,0.04301765256503662,0.11832536353924038,0.047978347951807235,-0.06538921788587158,0.019148027417527986,-0.10621226838404335, ,1.37208890914917
0.026449120786831495,0.020882760410536477,-0.10571641023451646, ,0.02700409807968843,0.020274492589897945,-0.1068372638257884, ,0.001390791972323095, ,0.017317122086635963,-0.0040831190798602725,-0.04662561537576861,-0.02449936179572653,-0.035424989972964685,0.033461887331431114, ,0.04990493550695046, ,0.04306887841580621, ,0.0012763514532709674, ,0.2665037887566136,-0.18834973206946157,0.11771998377000001,1.6213226430223424,0.25906280355527506,-1.3666758034368085, ,0.04301765256503662,0.11832536353924038,0.047978347951807235,-0.06538921788587158,0.019148027417527986,-0.10621226838404335, ,1.377345085144043
0.02661190985063318,0.020843972533667262,-0.10617097265717897, ,0.027076389542787693,0.020252718745211652,-0.10707729881591961, ,0.0011776033002690815, ,0.01568283899292924,-0.004171152438500476,-0.04470597669906,0.023806802799304878,-0.009948817219422281,0.01404565838580607, ,0.047560217663087344, ,0.025798531849655807, ,0.0012755216368591869, ,0.2668822026674506,-0.18716043120683098,0.11820220365000002,1.6213226430223424,0.25933607655480595,-1.368042141606169, ,0.03304211057049818,0.11488733844851184,0.04564129375358167,-0.0400314221280226,0.031161270074049535,-0.14500954486936815, ,1.3826520442962646
0.02661190985063318,0.020843972533667262,-0.10617097265717897, ,0.027147881978035495,0.02023128837411258,-0.10731710333103041, ,0.0014057964014268026, ,0.01568283899292924,-0.004171152438500476,-0.04470597669906,0.023806802799304878,-0.009948817219422281,0.01404565838580607, ,0.047560217663087344, ,0.025798531849655807, ,0.0012766072598972501, ,0.2668822026674506,-0.18716043120683098,0.11820220365000002,1.6213226430223424,0.25933607655480595,-1.368042141606169, ,0.03304211057049818,0.11488733844851184,0.04564129375358167,-0.0400314221280226,0.031161270074049535,-0.14500954486936815, ,1.38789701461792
0.026758413812516924,0.020800158678585236,-0.10660384647090518, ,0.027218590933416362,0.02021021585967661,-0.10755666567818518, ,0.0012114701622173163, ,0.01441923918841881,-0.004522377551322187,-0.043370282345603334,-0.0008207414166501918,-0.005795311529476126,0.0023898789820563583, ,0.04592763599649875, ,0.005840017482112822, ,0.0012760689367759285, ,0.2671293301194258,-0.18601746674144576,0.11864164596000001,1.6213226430223424,0.25933607655480595,-1.3691039652279966, ,0.024370041489078266,0.11460983280008549,0.04400224176795581,-0.029117379044035184,0.024477015150014145,-0.1172791613328467, ,1.3932418823242188
0.026758413812516924,0.020800158678585236,-0.10660384647090518, ,0.027288531887693993,0.020189515416640453,-0.1077959741740399, ,0.001440513390277669, ,0.01441923918841881,-0.004522377551322187,-0.043370282345603334,-0.0008207414166501918,-0.005795311529476126,0.0023898789820563583, ,0.04592763599649875, ,0.005840017482112822, ,0.0012774168421325002, ,0.2671293301194258,-0.18601746674144576,0.11864164596000001,1.6213226430223424,0.25933607655480595,-1.3691039652279966, ,0.024370041489078266,0.11460983280008549,0.04400224176795581,-0.029117379044035184,0.024477015150014145,-0.1172791613328467, ,1.3989999294281006
0.026861224545124913,0.020766020818080516,-0.10691511962177774, ,0.027357720250341774,0.02016920109203745,-0.1080350171454509, ,0.001362670992654564, ,0.013543046310704299,-0.004689205199018261,-0.042625050329593295,-0.006443022682715467,0.0007144634277061143,-0.026274623064718835, ,0.04496996402458804, ,0.006471652758126876, ,0.0012781099653074762, ,0.2672837847769103,-0.18518341159102952,0.11895664443000001,1.6211129530788577,0.25933607655480595,-1.3698390738892612, ,0.017884836328396304,0.1144715820970697,0.04305084194594595,0.0,0.019006646304819796,-0.10396548724429716, ,1.4045829772949219
0.026861224545124913,0.020766020818080516,-0.10691511962177774, ,0.02742617136147328,0.02014928676583277,-0.10827378293008307, ,0.001595459739961884, ,0.013543046310704299,-0.004689205199018261,-0.042625050329593295,-0.006443022682715467,0.0007144634277061143,-0.026274623064718835, ,0.04496996402458804, ,0.006471652758126876, ,0.0012806692376837214, ,0.2672837847769103,-0.18518341159102952,0.11895664443000001,1.6211129530788577,0.25933607655480595,-1.3698390738892612, ,0.017884836328396304,0.1144715820970697,0.04305084194594595,0.0,0.019006646304819796,-0.10396548724429716, ,1.4099760055541992
0.02704599384947291,0.020706916624841375,-0.10750281855669294, ,0.027493900491774092,0.020129786151557787,-0.10851225987701743, ,0.0012460624874333168, ,0.013842972695667003,-0.0041646658814284985,-0.045156279057340765,-0.032870058744417695,-0.02118875117211469,0.08040082795327595, ,0.04741373085153022, ,0.03910519381652774, ,0.0012803923836817181, ,0.26749229856451434,-0.18368520141342995,0.11955034525000001,1.620064503361435,0.25933607655480595,-1.3710642549913699, ,0.013959538328695318,0.11047373871766097,0.04564129375358167,-0.11249127896305763,0.013558413158418395,-0.10291843729463229, ,1.4153308868408203
0.027181927169030076,0.020665539860683948,-0.10795475346482859, ,0.027560922842430766,0.020110712796946654,-0.10875043634736006, ,0.001041432686574307, ,0.012491976272573807,-0.0045316410715244655,-0.043609630899173704,-0.0280529966157572,-0.01676458497095422,0.03417086164140129, ,0.0455893095929061, ,0.03267819149201363, ,0.0012784958781491195, ,0.2676081395576277,-0.18257312787954164,0.12000663933000001,1.6196451234744662,0.2594727130545714,-1.3721558177767532, ,0.0047013522969759245,0.11073155374383986,0.04376047120879121,-0.06653211244849509,0.0,-0.09603834737861242, ,1.4206199645996094
0.027181927169030076,0.020665539860683948,-0.10795475346482859, ,0.02762725354506254,0.02009208008457058,-0.10898830071484936, ,0.0012630881259974238, ,0.012491976272573807,-0.0045316410715244655,-0.043609630899173704,-0.0280529966157572,-0.01676458497095422,0.03417086164140129, ,0.0455893095929061, ,0.03267819149201363, ,0.0012783745572660355, ,0.2676081395576277,-0.18257312787954164,0.12000663933000001,1.6196451234744662,0.2594727130545714,-1.3721558177767532, ,0.0047013522969759245,0.11073155374383986,0.04376047120879121,-0.06653211244849509,0.0,-0.09603834737861242, ,1.425889015197754
0.027305098360535147,0.020612415438146268,-0.10839610905452786, ,0.027692907661652694,0.020073901232472765,-0.10922584136646407, ,0.001062473205881662, ,0.01060947299864779,-0.005331812088317816,-0.04241417729324744,0.032549543811884254,0.0514123790052402,-0.021351918548585633, ,0.04404488134752091, ,0.06084873255694774, ,0.001276687827958345, ,0.2676699214206215,-0.18138382701691105,0.12044867422000001,1.6194354335309815,0.26001925905363316,-1.373663313013366, ,-0.005125149263338983,0.11572797751033022,0.04213971301587302,0.0,0.04709094113272498,-0.14419320849602352, ,1.432102918624878
0.027305098360535147,0.020612415438146268,-0.10839610905452786, ,0.027757900184476547,0.020056189294806136,-0.10946304670303428, ,0.0012856021780084624, ,0.01060947299864779,-0.005331812088317816,-0.04241417729324744,0.032549543811884254,0.0514123790052402,-0.021351918548585633, ,0.04404488134752091, ,0.06084873255694774, ,0.0012767569314471056, ,0.2676699214206215,-0.18138382701691105,0.12044867422000001,1.6194354335309815,0.26001925905363316,-1.373663313013366, ,-0.005125149263338983,0.11572797751033022,0.04213971301587302,0.0,0.04709094113272498,-0.14419320849602352, ,1.4375219345092773
0.02741368528315111,0.020561967934486097,-0.1088043936399085, ,0.0278222460360366,0.020038957162463965,-0.1096999051398437, ,0.0011146313305150477, ,0.01017672814536335,-0.004789950369909155,-0.038389793377116246,0.008288607575111483,0.03827553769433416,-0.02174647802962187, ,0.04000357053849696, ,0.03916164473134489, ,0.0012755098114399358, ,0.26766219868774727,-0.18027947621589696,0.12085570928000001,1.6194354335309815,0.26029253205316405,-1.374784614962305, ,0.0,0.1039396950257073,0.03829041230769231,0.0018397907381589914,0.03862458198873504,-0.10806737118801357, ,1.443099021911621
0.02741368528315111,0.020561967934486097,-0.1088043936399085, ,0.027885960068990304,0.020022217563717977,-0.10993640510724105, ,0.0013400835415212635, ,0.01017672814536335,-0.004789950369909155,-0.038389793377116246,0.008288607575111483,0.03827553769433416,-0.02174647802962187, ,0.04000357053849696, ,0.03916164473134489, ,0.001276002740677198, ,0.26766219868774727,-0.18027947621589696,0.12085570928000001,1.6194354335309815,0.26029253205316405,-1.374784614962305, ,0.0,0.1039396950257073,0.03829041230769231,0.0018397907381589914,0.03862458198873504,-0.10806737118801357, ,1.4483599662780762
0.02751845667531622,0.020511800321660507,-0.10919744872424697, ,0.027949057066080477,0.02000598306485421,-0.11017253505125044, ,0.0011798564060590123, ,0.010674586068261225,-0.005025042401187505,-0.04012852412622285,-0.08716420647758372,-0.011582997535244798,-0.03141053815241046, ,0.041826980376442405, ,0.08792986220308598, ,0.0012752743593543328, ,0.2676467532219988,-0.17920601634637975,0.12124718886000001,1.6196451234744662,0.2604291685529295,-1.3753044265667045, ,-0.00406704410986921,0.10783743358917133,0.03992183338345865,0.0,-0.015914695448360536,-0.016833822527677296, ,1.4536359310150146
0.02751845667531622,0.020511800321660507,-0.10919744872424697, ,0.028011551740067343,0.01999026607080691,-0.11040828343417551, ,0.0014075728799827995, ,0.010674586068261225,-0.005025042401187505,-0.04012852412622285,-0.08716420647758372,-0.011582997535244798,-0.03141053815241046, ,0.041826980376442405, ,0.08792986220308598, ,0.0012762690850733438, ,0.2676467532219988,-0.17920601634637975,0.12124718886000001,1.6196451234744662,0.2604291685529295,-1.3753044265667045, ,-0.00406704410986921,0.10783743358917133,0.03992183338345865,0.0,-0.015914695448360536,-0.016833822527677296, ,1.458928108215332
0.027631525616177047,0.020465672253757144,-0.10961530652080459, ,0.02807345873365925,0.019975078825792997,-0.11064363873520856, ,0.001222069529556372, ,0.011572235070787184,-0.004147031935866218,-0.04271748893766657,-0.06280162469628368,0.001973786732386491,-0.015862017999103004, ,0.04445107827207701, ,0.06283150210140884, ,0.0012758646107784409, ,0.26762358502337613,-0.178148001942611,0.12166459424,1.619225743587497,0.26029253205316405,-1.3756830811038512, ,-0.0009504717232280679,0.10359928117736984,0.042819385806451615,-0.011423923163824649,0.0031180414435494387,-0.040083361889950105, ,1.464184045791626
0.027631525616177047,0.020465672253757144,-0.10961530652080459, ,0.02813479261944259,0.019960433413949267,-0.11087858945104018, ,0.0014506645799945974, ,0.011572235070787184,-0.004147031935866218,-0.04271748893766657,-0.06280162469628368,0.001973786732386491,-0.015862017999103004, ,0.04445107827207701, ,0.06283150210140884, ,0.0012771594253652273, ,0.26762358502337613,-0.178148001942611,0.12166459424,1.619225743587497,0.26029253205316405,-1.3756830811038512, ,-0.0009504717232280679,0.10359928117736984,0.042819385806451615,-0.011423923163824649,0.0031180414435494387,-0.040083361889950105, ,1.469606876373291
0.027789182547834253,0.02041995786232817,-0.1102320089822789, ,0.02819556789981284,0.019946341759966145,-0.11111312409646541, ,0.001079733814959623, ,0.011888182976225991,-0.0027590576274454555,-0.04679979143640755,0.018932256285944186,0.029421788002619402,0.04461558701522454, ,0.04836488159769483, ,0.03498353092058329, ,0.001275707766465186, ,0.2675695258932566,-0.1767965236896217,0.12228422086000001,1.618386983813559,0.2608390780522258,-1.3772722550806047, ,-0.005099796753608676,0.09585549652370785,0.047126661301775154,-0.06633239570643897,0.03658545353975398,-0.1286623477727235, ,1.4749689102172852
0.027789182547834253,0.02041995786232817,-0.1102320089822789, ,0.028255799006905575,0.0199328156297234,-0.11134723120499326, ,0.001303364523339259, ,0.011888182976225991,-0.0027590576274454555,-0.04679979143640755,0.018932256285944186,0.029421788002619402,0.04461558701522454, ,0.04836488159769483, ,0.03498353092058329, ,0.001275909640602953, ,0.2675695258932566,-0.1767965236896217,0.12228422086000001,1.618386983813559,0.2608390780522258,-1.3772722550806047, ,-0.005099796753608676,0.09585549652370785,0.047126661301775154,-0.06633239570643897,0.03658545353975398,-0.1286623477727235, ,1.4804749488830566
0.027904016076960747,0.020393973188964833,-0.11068551295096239, ,0.028315500302527434,0.019919866630924023,-0.11158089932945198, ,0.001093532378602579, ,0.011356407098586959,-0.0024718524361161077,-0.04600163016137325,0.040419995550558814,0.04925818007506947,-0.03089507128665299, ,0.04744710754259457, ,0.06371764547707094, ,0.0012745880662406316, ,0.2675000212973886,-0.17586979574471476,0.12274051494000002,1.6181772938700745,0.26097571455199126,-1.378363817865988, ,-0.007524157027641376,0.09294509457244934,0.046304684651162796,0.014573202972472846,0.03983104506400448,-0.1262877216010674, ,1.485779047012329
0.027904016076960747,0.020393973188964833,-0.11068551295096239, ,0.028374686078085357,0.019907506213732745,-0.11181411704260262, ,0.0013160271895432717, ,0.011356407098586959,-0.0024718524361161077,-0.04600163016137325,0.040419995550558814,0.04925818007506947,-0.03089507128665299, ,0.04744710754259457, ,0.06371764547707094, ,0.0012748861894298592, ,0.2675000212973886,-0.17586979574471476,0.12274051494000002,1.6181772938700745,0.26097571455199126,-1.378363817865988, ,-0.007524157027641376,0.09294509457244934,0.046304684651162796,0.014573202972472846,0.03983104506400448,-0.1262877216010674, ,1.4910800457000732
0.0280228714734605,0.020366840549716343,-0.11115711384856537, ,0.028433370554519437,0.019895745671407183,-0.1120468729377409, ,0.0010872493351066373, ,0.011930114798039454,-0.0027316742555317432,-0.0465931751263673,-0.01550427689429053,-0.010538563668370537,-0.015678341379968947, ,0.04817378593892188, ,0.018740980143133183, ,0.0012735459261846935, ,0.2674227939686463,-0.1749044541354367,0.12321495708,1.618386983813559,0.2611123510517567,-1.3793737019112307, ,-0.008313820242162203,0.09470752650545987,0.046849445647058834,-0.012866354685935857,-0.016862893191123916,-0.07918418320503182, ,1.496401071548462
0.0280228714734605,0.020366840549716343,-0.11115711384856537, ,0.028491567882231884,0.01988459614093598,-0.11227915562930899, ,0.0013081336900827112, ,0.011930114798039454,-0.0027316742555317432,-0.0465931751263673,-0.01550427689429053,-0.010538563668370537,-0.015678341379968947, ,0.04817378593892188, ,0.018740980143133183, ,0.0012737912294747502, ,0.2674227939686463,-0.1749044541354367,0.12321495708,1.618386983813559,0.2611123510517567,-1.3793737019112307, ,-0.008313820242162203,0.09470752650545987,0.046849445647058834,-0.012866354685935857,-0.016862893191123916,-0.07918418320503182, ,1.5016849040985107
0.02814257576716979,0.020344695584828817,-0.11162100427419676, ,0.028549292141018943,0.019874068603672086,-0.11251095375350263, ,0.0010857799223905821, ,0.01177515917606552,-0.0018524415828969647,-0.04491322595635019,0.005320328841031855,-0.00790363345010536,-0.016590685936105652, ,0.04646809420716427, ,0.00951790758812834, ,0.001272467206185425, ,0.26736101210565255,-0.17400861712202664,0.12368291777000001,1.6181772938700745,0.2611123510517567,-1.3803538467929173, ,-0.005329727368919923,0.08420314246536893,0.045381229401709404,-0.008024614224472728,-0.01200566610456933,-0.08861987644916211, ,1.5071260929107666
0.02814257576716979,0.020344695584828817,-0.11162100427419676, ,0.028606557340000612,0.01986417388597009,-0.11274225596887945, ,0.0013051380638957107, ,0.01177515917606552,-0.0018524415828969647,-0.04491322595635019,0.005320328841031855,-0.00790363345010536,-0.016590685936105652, ,0.04646809420716427, ,0.00951790758812834, ,0.0012726956737218605, ,0.26736101210565255,-0.17400861712202664,0.12368291777000001,1.6181772938700745,0.2611123510517567,-1.3803538467929173, ,-0.005329727368919923,0.08420314246536893,0.045381229401709404,-0.008024614224472728,-0.01200566610456933,-0.08861987644916211, ,1.5128450393676758
0.028259859633568186,0.020323191457441256,-0.11207307654575278, ,0.02866337741755218,0.019854922659819006,-0.11297305095696651, ,0.0010918132668443984, ,0.01103728393789851,-0.002473796681488575,-0.041920249127624196,-0.013257473635635548,-0.014146673649961226,0.028124895569047795, ,0.04341944948602197, ,0.01938451772485518, ,0.0012714395458963228, ,0.267306952975533,-0.17315139377298774,0.12413921185000001,1.617548224039621,0.2611123510517567,-1.381333991674604, ,-0.004353447070734121,0.08331601541568988,0.04225148944297083,-0.05432730610393638,-0.009289052108826832,-0.08123152034607259, ,1.5182900428771973
0.028259859633568186,0.020323191457441256,-0.11207307654575278, ,0.028719766241234766,0.019846325443478797,-0.11320332742286827, ,0.0013101077544492902, ,0.01103728393789851,-0.002473796681488575,-0.041920249127624196,-0.013257473635635548,-0.014146673649961226,0.028124895569047795, ,0.04341944948602197, ,0.01938451772485518, ,0.001271706223196688, ,0.267306952975533,-0.17315139377298774,0.12413921185000001,1.617548224039621,0.2611123510517567,-1.381333991674604, ,-0.004353447070734121,0.08331601541568988,0.04225148944297083,-0.05432730610393638,-0.009289052108826832,-0.08123152034607259, ,1.5236411094665527
0.028358910656809292,0.020297039734979993,-0.1124517921245035, ,0.028775737607725643,0.01983839260211592,-0.11343307409587564, ,0.00116061027344869, ,0.009611397942302343,-0.003124365200330599,-0.03613895901172795,-0.043062708569335105,-0.01614896677970464,0.04167606063390809, ,0.037525524470174744, ,0.04599048113654239, ,0.0012709452920340305, ,0.26726833931116184,-0.17236367501981684,0.12452032111000001,1.6173385340961361,0.2611123510517567,-1.3819874215957286, ,-0.0028787881055011588,0.07927898208727718,0.03628430870159454,-0.0672045684801747,-0.007621959805710705,-0.050884531719453605, ,1.5289649963378906
0.028358910656809292,0.020297039734979993,-0.1124517921245035, ,0.02883130524274951,0.019831134348437276,-0.11366227973007272, ,0.0013804002018515651, ,0.009611397942302343,-0.003124365200330599,-0.03613895901172795,-0.043062708569335105,-0.01614896677970464,0.04167606063390809, ,0.037525524470174744, ,0.04599048113654239, ,0.001271689883257279, ,0.26726833931116184,-0.17236367501981684,0.12452032111000001,1.6173385340961361,0.2611123510517567,-1.3819874215957286, ,-0.0028787881055011588,0.07927898208727718,0.03628430870159454,-0.0672045684801747,-0.007621959805710705,-0.050884531719453605, ,1.5342469215393066
0.028463116997468542,0.020263982483013497,-0.1128493652216965, ,0.02888648280100881,0.019824560743326402,-0.11389093310494598, ,0.001207142793680074, ,0.010395174863068462,-0.0028442841651638183,-0.04010976882850548,-0.05540161011772874,-0.00831807996623117,0.017832746528367582, ,0.041532435135952735, ,0.05602164800492537, ,0.0012712537542736491, ,0.2672297256467907,-0.17149100620502947,0.12491957843000001,1.6173385340961361,0.2611123510517567,-1.3824774940365718, ,-0.005301132709793824,0.08273490981558046,0.04032610511392406,-0.04286353714837104,-0.006396661675326432,-0.03554849551220312, ,1.5395019054412842
0.028463116997468542,0.020263982483013497,-0.1128493652216965, ,0.028941283866114543,0.019818681696478997,-0.1141190230259924, ,0.0014279241173005151, ,0.010395174863068462,-0.0028442841651638183,-0.04010976882850548,-0.05540161011772874,-0.00831807996623117,0.017832746528367582, ,0.041532435135952735, ,0.05602164800492537, ,0.0012723052332201383, ,0.2671988347152938,-0.17072645565048122,0.12532272462000002,1.6173385340961361,0.2611123510517567,-1.3831309239576965, ,-0.002555113298878104,0.07507669427094206,0.04225148944297083,-0.032168318827423166,-0.005568694777957573,-0.06245370941713954, ,1.544800043106079
0.028568609428881467,0.020243508865566483,-0.11324834117903677, ,0.02899572195051731,0.019813506967036366,-0.11434653832532572, ,0.0012543379572486928, ,0.011156236859383424,-0.0016627057498875414,-0.04171169984372606,-0.018329302260336786,-0.008419264571519168,0.009902271105069528, ,0.04320986131806571, ,0.020167326803465658, ,0.0012721854513803286, ,0.2671988347152938,-0.17072645565048122,0.12532272462000002,1.6173385340961361,0.2611123510517567,-1.3831309239576965, ,-0.002555113298878104,0.07507669427094206,0.04225148944297083,-0.032168318827423166,-0.005568694777957573,-0.06245370941713954, ,1.5501270294189453
0.02867013650893028,0.020232406685419806,-0.11363301320442022, ,0.029049810495437596,0.019809046164222112,-0.11457346786228637, ,0.0010990183940413677, ,0.01199228036172094,-0.0008059762879417387,-0.04502496441391697,0.00887181878896251,-0.0018298593711853738,-0.019979843169122283, ,0.04660162879691365, ,0.009048343130141447, ,0.001271038649676097, ,0.26716794378379694,-0.17007002335617216,0.12571290791,1.617128844152652,0.2611123510517567,-1.3837843538788208, ,-0.0031040536789735977,0.07299764735266984,0.04577244689655173,0.0,-0.0049787461469653045,-0.07927997589302141, ,1.5558209419250488
0.02867013650893028,0.020232406685419806,-0.11363301320442022, ,0.0291035628707967,0.01980530874797768,-0.11479980052404956, ,0.0013159269389202042, ,0.01199228036172094,-0.0008059762879417387,-0.04502496441391697,0.00887181878896251,-0.0018298593711853738,-0.019979843169122283, ,0.04660162879691365, ,0.009048343130141447, ,0.0012713339673684925, ,0.26716794378379694,-0.17007002335617216,0.12571290791,1.617128844152652,0.2611123510517567,-1.3837843538788208, ,-0.0031040536789735977,0.07299764735266984,0.04577244689655173,0.0,-0.0049787461469653045,-0.07927997589302141, ,1.5613789558410645
0.028809115171327195,0.020228675724075256,-0.11415470708494335, ,0.0291569923751475,0.019802304029596176,-0.11502552522623193, ,0.0010301143654896196, ,0.012805543353475647,0.00012971944522778187,-0.0475654807691414,0.02343262380893002,-0.004716518606488581,-0.00488846850664772, ,0.04925925018219192, ,0.02389748791167486, ,0.0012697573686634017, ,0.2671370528523,-0.16928230460300125,0.12624438681000003,1.6167094642656827,0.2611123510517567,-1.3848461775006482, ,-0.00205436972378349,0.06812415043680602,0.04856344975609757,-0.014372958077138604,-0.004396857823220719,-0.09287976045661508, ,1.566715955734253
0.028809115171327195,0.020228675724075256,-0.11415470708494335, ,0.029210112235605122,0.019800041172358025,-0.11525063091350037, ,0.0012432116724373247, ,0.012805543353475647,0.00012971944522778187,-0.0475654807691414,0.02343262380893002,-0.004716518606488581,-0.00488846850664772, ,0.04925925018219192, ,0.02389748791167486, ,0.0012695849940125832, ,0.2671370528523,-0.16928230460300125,0.12624438681000003,1.6167094642656827,0.2611123510517567,-1.3848461775006482, ,-0.00205436972378349,0.06812415043680602,0.04856344975609757,-0.014372958077138604,-0.004396857823220719,-0.09287976045661508, ,1.5720090866088867
0.028944714259368343,0.020228969941772323,-0.11466426042956955, ,0.02926293560777759,0.019798529192167295,-0.11547510656018103, ,0.0009716046073540167, ,0.01289026636517652,0.00010539427320260233,-0.04864895252476857,-0.006829323731058128,-0.015074406440281945,0.06579479036187771, ,0.050327831829666686, ,0.016541006364384714, ,0.0012676625399051084, ,0.2671061619208031,-0.16855636771282415,0.1267641991,1.616080394435229,0.2611123510517567,-1.3857446436421945, ,-0.0036606259402267617,0.06778352968462198,0.04962246579439253,-0.08854428740010463,-0.003956476462294126,-0.08158797136605735, ,1.5772969722747803
0.028944714259368343,0.020228969941772323,-0.11466426042956955, ,0.02931547557569668,0.019797776958185645,-0.11569894117086583, ,0.0011806589597294088, ,0.01289026636517652,0.00010539427320260233,-0.04864895252476857,-0.006829323731058128,-0.015074406440281945,0.06579479036187771, ,0.050327831829666686, ,0.016541006364384714, ,0.001267104824647572, ,0.2671061619208031,-0.16855636771282415,0.1267641991,1.616080394435229,0.2611123510517567,-1.3857446436421945, ,-0.0036606259402267617,0.06778352968462198,0.04962246579439253,-0.08854428740010463,-0.003956476462294126,-0.08158797136605735, ,1.5825788974761963
0.02906552239497512,0.020229284392952965,-0.11512219319072736, ,0.0293677451517487,0.019797793193466386,-0.11592212378102024, ,0.000957816370309308, ,0.01289026636517652,0.00010539427320260233,-0.04864895252476857,-0.006829323731058128,-0.015074406440281945,0.06579479036187771, ,0.050327831829666686, ,0.016541006364384714, ,0.0012651348344925512, ,0.2670598255235578,-0.16790765815138928,0.1272308635,1.6156610145482602,0.26097571455199126,-1.3864500131399036, ,-0.004297834892650782,0.061862413010737145,0.04305084194594595,0.03640815063079333,0.0,-0.075373123350305, ,1.58803391456604
0.02906552239497512,0.020229284392952965,-0.11512219319072736, ,0.02941975727660495,0.019798586475593766,-0.1161446434575939, ,0.0011646405435138793, ,0.011036750389232975,-6.477777098192248e-05,-0.04225789529246292,0.025176507539857024,0.010412604716774247,-0.050771955726033366, ,0.04367543668771507, ,0.027242322140781233, ,0.0012644987946762304, ,0.2670598255235578,-0.16790765815138928,0.1272308635,1.6156610145482602,0.26097571455199126,-1.3864500131399036, ,-0.004297834892650782,0.061862413010737145,0.04305084194594595,0.03640815063079333,0.0,-0.075373123350305, ,1.594451904296875
0.02916635491210382,0.020225940446974455,-0.11550816222056355, ,0.029471524819152644,0.019800165237313556,-0.11636648929962595, ,0.0010055538652811017, ,0.010157309573626937,-0.0007316840411736355,-0.038905053584846395,0.008272103000092606,0.007834234963421808,-0.03826244369868889, ,0.04021578662354338, ,0.011389196382422709, ,0.0012628702102146258, ,0.26702121185918665,-0.16732845318582246,0.12762363937,1.6156610145482602,0.26097571455199126,-1.387103443061028, ,-0.00395187726510844,0.061862413010737145,0.039525586898263035,0.023217961066788105,0.0,-0.06190150082953655, ,1.5997259616851807
0.02916635491210382,0.020225940446974455,-0.11550816222056355, ,0.02952306057642572,0.019802537767171346,-0.11658765043885502, ,0.001213179118536862, ,0.010157309573626937,-0.0007316840411736355,-0.038905053584846395,0.008272103000092606,0.007834234963421808,-0.03826244369868889, ,0.04021578662354338, ,0.011389196382422709, ,0.0012625596408916396, ,0.26702121185918665,-0.16732845318582246,0.12762363937,1.6156610145482602,0.26097571455199126,-1.387103443061028, ,-0.00395187726510844,0.061862413010737145,0.039525586898263035,0.023217961066788105,0.0,-0.06190150082953655, ,1.6050729751586914
0.029271290480065052,0.020217741470227236,-0.11589525572561102, ,0.02957437727353537,0.01980571221014636,-0.11680811604032568, ,0.0010463955608276732, ,0.010177377145892903,-0.0005178480225890625,-0.0380532530264885,-0.010383033720096219,0.004665810508965163,-0.031235011820716273, ,0.039394126948597286, ,0.011379691780225099, ,0.0012612170068539753, ,0.2670134891263124,-0.1667106345558845,0.12801771153000002,1.6156610145482602,0.26097571455199126,-1.3875935155018715, ,-0.001887738031680162,0.05847008105882364,0.03875623240875913,0.016719428596573705,0.0,-0.041664759701948974, ,1.6104769706726074
0.029371924820075713,0.02021594442213929,-0.11627007399832116, ,0.02962548756360068,0.019809696568286447,-0.1170278753029971, ,0.0008964341587827314, ,0.009968353606495194,-4.992722241971406e-05,-0.0369642030396269,-0.021678665975034518,0.001139519248083985,-0.013783034110288932, ,0.039394126948597286, ,0.021707004708498068, ,0.001258965260878227, ,0.26699804366056396,-0.16616232052181454,0.12840011708000001,1.6158707044917449,0.26097571455199126,-1.3879202304624338, ,-0.001146950061881558,0.052487246437207286,0.03774599886255925,0.0,0.0,-0.02894883754196744, ,1.6162500381469727
0.029371924820075713,0.02021594442213929,-0.11627007399832116, ,0.02967640402767983,0.019814498701344767,-0.11724691746035203, ,0.001099131204142575, ,0.009968353606495194,-4.992722241971406e-05,-0.0369642030396269,-0.021678665975034518,0.001139519248083985,-0.013783034110288932, ,0.038284760319302336, ,0.021707004708498068, ,0.0012579846838430388, ,0.26699804366056396,-0.16616232052181454,0.12840011708000001,1.6158707044917449,0.26097571455199126,-1.3879202304624338, ,-0.001146950061881558,0.052487246437207286,0.03774599886255925,0.0,0.0,-0.02894883754196744, ,1.6216349601745605
0.029422625128953866,0.020214788772254196,-0.11647300582882844, ,0.029727139174700407,0.019820126327414186,-0.11746523178100457, ,0.0011104051466000351, ,0.008835543813409367,-0.00019293632681214746,-0.037179924807209164,-0.025486617177447213,0.010695203741110661,-0.014022362633568642, ,0.038215845765527785, ,0.027638451326703062, ,0.0012570848086159473, ,0.2669594299961929,-0.16586885667259402,0.12860622719,1.6158707044917449,0.26097571455199126,-1.388083587942715, ,-0.01070387270434773,0.05337285801938739,0.03765676482269504,0.0,0.0,-0.025995651899165306, ,1.6269829273223877
