NicholasDascanio/dvrk_moveit_final/test/execution/third_experiment_notsharpbends/thirdexp_200vel5.0/thirdexp_200vel5.0_7.csv
Current Position (x),Current Position (y),Current Position (z), ,Planned Position (x),Planned Position (y),Planned Position (z), ,Position Error,,Cartesian linear Velocity(x),Cartesian linear Velocity(y),Cartesian linear Velocity(z),Cartesian Angular Velocity(x),Cartesian Angular Velocity(y),Cartesian Angular Velocity(z), ,Total Linear Velocity, ,Total Angular Velocity, ,MSE, ,Joint 1 Position,Joint 2 Position,Joint 3 Position,Joint 4 Position,Joint 5 Position,Joint 6 Position, ,Joint 1 Velocity,Joint 2 Velocity,Joint 3 Velocity,Joint 4 Velocity,Joint 5 Velocity,Joint 6 Velocity, ,Time Stamp
0.010387754673695465,0.01944580387756726,-0.07979962319438158, ,0.010525601192939164,0.019542949721355618,-0.08000002673186721, ,0.0002619170778504311, ,0.0017945364508266414,0.001251661169537196,-0.0028604277078776784,0.3142649098654895,-0.14869053119657633,-0.03782156833142288, ,0.0036012585895304782, ,0.34766551114554456, ,2.182642315420259e-05, ,0.1466083608842781,-0.23655503067037095,0.08938308437,1.605176517374034,0.15248633373823153,-1.3231412495682382, ,-0.0003381965831190164,-0.006531380598728185,0.0030869789767441866,-0.0006860443241293247,-0.15403726371399287,-0.30788372980059586, ,0.052709102630615234
0.010488902642259556,0.01956169237343954,-0.08006421918889114, ,0.01054137742965629,0.01973314799510415,-0.08023665712706035, ,0.00024876791600360874, ,0.002707409565703955,0.002504357430952583,-0.004843404062840675,-0.07212988699530466,-0.2185400007924568,-0.0503738137043596, ,0.006087728280267957, ,0.23013572634785998, ,2.321295426609272e-05, ,0.1465774699527812,-0.23715740383456047,0.08966956446,1.605176517374034,0.14538123575042863,-1.3317229768407635, ,-0.000716355046919376,-0.015480740874138789,0.005334498164768922,-0.000650542949304498,-0.22545848114915165,0.08741804351275284, ,0.10515594482421875
0.010498165092373626,0.019684124028386516,-0.08024557369525177, ,0.010560506481395606,0.0199161643887148,-0.08047348815670005, ,0.0003311709216457996, ,-0.0003885721338132086,0.0035719047537228253,-0.005126554950041228,0.08707586078540308,0.09590406581550702,0.025460457980788727, ,0.0062602761543430405, ,0.12953684945961508, ,2.715664243547869e-05, ,0.1464847971582905,-0.23806868631371897,0.08987567457000001,1.6053862073175185,0.14647432774855218,-1.3246914822767, ,-0.003446033534090645,-0.027097927343937973,0.005847581321585905,0.0008984797772591416,0.09490779632211634,-0.06015923708381343, ,0.15284395217895508
0.010521518576345104,0.0198751757049433,-0.080476710861172, ,0.010582937198756862,0.02009212554793586,-0.08071051049074354, ,0.000324810326715829, ,0.0005200991758722855,0.004019946226788067,-0.004623955974571187,0.026782680552346255,-0.0015902667922817638,0.01930173086378859, ,0.006149100720738214, ,0.02682985135862363, ,2.916665605539171e-05, ,0.14635351069942867,-0.23960551015568965,0.09014271031000001,1.6058055872044876,0.14647432774855218,-1.3233029436943107, ,-0.0019605785136650156,-0.03347334799240592,0.005519338711018712,-0.015088827439206913,0.0,-0.0009515334171243395, ,0.20077300071716309
0.01054980996255248,0.020047055825157128,-0.0806905519376324, ,0.010608618857398337,0.02026115707332835,-0.08094771480457333, ,0.0003397507479237428, ,0.000613135710429326,0.004158776689379973,-0.00562615588528235,0.017507607184628366,0.0013699325209204254,0.01431087500218569, ,0.007023175136434456, ,0.01756112236749082, ,3.074320388039614e-05, ,0.14628400610356065,-0.2410110475387985,0.09039678315,1.6058055872044876,0.14620105474902126,-1.3216915693045281, ,-0.0024813999191258093,-0.03222307013869975,0.006490958239608803,-0.00964108686474793,0.0012412347293352028,0.013006497053224231, ,0.24847793579101562
0.010581189304041226,0.02022078802018671,-0.08091649264041983, ,0.010637501156537927,0.02042338352389018,-0.08118509177933135, ,0.0003411179565435996, ,0.0010064489509330583,0.0039014098133520266,-0.0066221170857186954,0.02571542533039655,-0.009272811439623784,0.00852033332856529, ,0.00775154002244207, ,0.027336205281337945, ,3.241289380145633e-05, ,0.146260837904938,-0.24237024852466202,0.09065993002000002,1.6058055872044876,0.14620105474902126,-1.3214465330841065, ,-0.0005455111383608748,-0.02607058834023922,0.007429482985074627,-0.007034537803205672,-0.008381171181751168,-0.0009157242824567053, ,0.2912020683288574
0.010622872254930535,0.020403743914073173,-0.08123459023844992, ,0.010669534217450375,0.020578928420677167,-0.08142263210224743, ,0.0002920283034552799, ,0.0007285093027058864,0.0028245804688492924,-0.004481278826994075,0.020709013209606483,-0.006428036984775491,-0.002531147218298106, ,0.0053470403546634375, ,0.02168370092456734, ,3.2916357694435237e-05, ,0.1461681651104473,-0.24355954938729257,0.09101511348,1.6060152771479719,0.1459277817494904,-1.3204069098753082, ,0.0,-0.019474028639128005,0.005077721236850495,0.0036733454982336698,-0.0075422165847917255,-0.000921407465938882, ,0.33722400665283203
0.010651380054094562,0.020522207728461493,-0.08143311645898582, ,0.010704668581960959,0.020727914250420146,-0.08166032646696657, ,0.00031109360023167396, ,0.0007606498027913173,0.0031579289880355145,-0.0061282825250831684,-0.00915835530470441,-0.003333203955390792,-0.0017302554579438315, ,0.0069359174103503585, ,0.00974606135071268, ,3.357064178588992e-05, ,0.14612955144607617,-0.24434726814046348,0.09123807536,1.6060152771479719,0.14565450874995953,-1.3197756803672123, ,-0.0024347153621430734,-0.018523705164643918,0.006749496406779663,0.003022980860767763,-0.00666472369882836,0.027914413705668398, ,0.379763126373291
0.010679408099242005,0.020615642095231312,-0.08161102478499384, ,0.01074285521093808,0.02087046246914133,-0.08189816557387324, ,0.0003891128262862815, ,0.0011115726959934284,0.003369128448957666,-0.006710668920084913,-0.008361962506232785,-0.007182992668662572,-0.0014811092230529567, ,0.007590763974663394, ,0.011023510648818454, ,3.549712095820308e-05, ,0.14612182871320195,-0.24490330490740767,0.09143511144000001,1.6060152771479719,0.14538123575042863,-1.3189810933788355, ,0.0006870272370769177,-0.019078597016178284,0.007405305216178523,0.002666137342583434,-0.007328939802053757,0.027617310140165552, ,0.4164769649505615
0.010718641678263688,0.02075697937636921,-0.08187740106136684, ,0.01078404548278261,0.021006693505767296,-0.08213614013041191, ,0.00036548694903772324, ,0.0009512887464264104,0.0034588240086507733,-0.006329537568410679,-0.007320572993183424,-0.008608835121518598,0.00977434663569141, ,0.007275400994571963, ,0.011300567283937975, ,3.684203018039045e-05, ,0.14612182871320195,-0.2457373600578239,0.09173066556000001,1.6066443469784255,0.14538123575042863,-1.318491020937992, ,-0.0005470710527604339,-0.021277341156607798,0.007041914907161805,-0.008709166545353683,-0.007236139382672334,0.027140901824818472, ,0.4549870491027832
0.010758183533757687,0.02089897433825057,-0.08212884499521933, ,0.010828191191915675,0.021136726765740962,-0.08237424085140638, ,0.000348778461508324, ,0.0009068247079379904,0.0035790293118924937,-0.0063904373489645375,0.014706676229844886,-0.004381028350679666,0.009019912437608713, ,0.007380343581253747, ,0.015345348626913086, ,3.780888390640737e-05, ,0.1461372741789504,-0.2466254743383597,0.09201196049,1.6066443469784255,0.14524459925066321,-1.3178078518533118, ,-0.0007893549434674691,-0.022302453950286905,0.007130175255147718,-0.006915579248834576,-0.003586779998192479,0.006381752042777924, ,0.4942760467529297
0.010788711558529677,0.021008567296523152,-0.08232376605107064, ,0.010875244547263904,0.021260680634631,-0.08261245845937691, ,0.0003929279832295417, ,0.0011179326623031987,0.003754710069216654,-0.006723206879812205,-0.010342069173447524,-0.008956557749925083,0.00738499132775009, ,0.007781332269610096, ,0.013681312355889614, ,3.946963070431835e-05, ,0.14612955144607617,-0.24730507483129147,0.09222973721000001,1.6066443469784255,0.1449713262511323,-1.3169315861247943, ,0.0007831548920553681,-0.02315124214649202,0.007517136158565362,-0.005861468738275638,-0.006921746500362286,0.03242032833116587, ,0.5257880687713623
0.010825101423684836,0.021126391104907733,-0.08254932028447859, ,0.010925158170744012,0.02137867248174047,-0.08285078368485613, ,0.0004056321332141631, ,0.0011761495188307971,0.003967394167756851,-0.007650714886455541,0.026098140130499485,0.004635677761515993,-0.004755678613240527, ,0.00869810223248896, ,0.026506648229589543, ,4.1062218902320736e-05, ,0.14615271964469884,-0.24798467532422322,0.09247992118000001,1.6066443469784255,0.14483468975136687,-1.3163300957802546, ,0.0009584718758992933,-0.022508762229238796,0.008481795271565496,0.00925448055808139,0.0034269301221794514,-0.00252372748461729, ,0.557318925857544
0.010862364929258227,0.021250563051203777,-0.0827891091550925, ,0.010977885095746147,0.021490818663714745,-0.08308920726670213, ,0.0004014057109709412, ,0.0009812555824018382,0.0033820357423814135,-0.006627067612641841,-0.00652112757153027,0.004953191149086219,-0.004978928940056864, ,0.007504602149565732, ,0.008188967858119676, ,4.244643673765125e-05, ,0.14617588784332153,-0.24868744401577766,0.09274566063,1.6068540369219102,0.14483468975136687,-1.3159217020795517, ,0.00041496900591558454,-0.01876175198862609,0.007330332038656236,0.00897788908064903,0.003286556737005809,0.02634986193362665, ,0.5890119075775146
0.010895141258118428,0.021347797389026535,-0.0829851073947863, ,0.01103337876561423,0.02159723452814683,-0.08332771995241216, ,0.00044577108418346236, ,0.001503509529778936,0.0039157458934862615,-0.008987520289482994,-0.004436415125364648,0.002027449337406582,-0.003883672302520167, ,0.009918121181068473, ,0.004877732192277239, ,4.444249571624275e-05, ,0.14622222424056686,-0.24921258985122494,0.09296214106,1.6068540369219102,0.14483468975136687,-1.315513308378849, ,0.002411249071827335,-0.017804304232358494,0.00979631704797048,0.007527667969217497,0.0026905866091309683,0.023113094673408142, ,0.6153531074523926
0.010946597755832663,0.021478191875736255,-0.08330770714815584, ,0.011091593032127377,0.02169803441718294,-0.08356631249843294, ,0.0003690949747279908, ,0.001772096680845895,0.004203090209022552,-0.011100563752561831,0.03476114774770339,0.00033136909900716047,0.0026733068982425683, ,0.012001200338971759, ,0.03476272471583364, ,4.5646450602691746e-05, ,0.1462685606378122,-0.2497377356866722,0.09331084307000001,1.6070637268653947,0.14483468975136687,-1.3150232359380056, ,0.0018490769336849424,-0.014927944243899762,0.011931694022471913,0.0,0.002233078138327995,-0.019992996376981376, ,0.6415901184082031
0.010985461624184383,0.02155699873431233,-0.08350896316240806, ,0.01115248215397877,0.02179333167112684,-0.08380497567047132, ,0.000413971640726836, ,0.0020526543430514025,0.003700087595465483,-0.009624457279247822,0.010015831238897344,-0.0032752730124400563,-0.006985285897808136, ,0.010513525383344624, ,0.010537751474146626, ,4.71089654665766e-05, ,0.14637667889805137,-0.2500311995358927,0.09352861979,1.6072734168088794,0.14483468975136687,-1.3148598784577246, ,0.00765325366081221,-0.013158200437946585,0.01042461486910995,0.009828107321059524,0.002013317693019709,0.004390626637838825, ,0.6684489250183105
0.011024431188163123,0.021629861546523927,-0.0836928379410548, ,0.011216000795254581,0.021883238632043583,-0.08404370024380364, ,0.0004732897815480855, ,0.0018608361820867574,0.0034804833695324796,-0.008648495382194954,-0.005337840743635284,-0.00316984649675314,-0.005699470171912015, ,0.009506468753328064, ,0.0062080932848401545, ,4.928342286872759e-05, ,0.14658519268565542,-0.2504405043782266,0.09382547020000001,1.6072734168088794,0.14483468975136687,-1.3144514847570217, ,0.005681577667175987,-0.011906835642032876,0.009566853765765769,0.0079600955263276,0.0017480349692847264,0.008610077103415367, ,0.6895499229431152
0.011082752543178346,0.021735320258007878,-0.08396694351917569, ,0.011282104023910956,0.021967866647361986,-0.0842824770035839, ,0.00043975017436574806, ,0.002287882048045987,0.0037818911032794418,-0.010446738571649579,0.000178377093557622,-0.006157517727899849,-0.002303022628566834, ,0.0113433439235186, ,0.0061600907893518565, ,5.108058200125232e-05, ,0.14672420187739146,-0.25067990909732757,0.09402509886,1.607692796695848,0.14483468975136687,-1.3142881272767406, ,0.008859114085824649,-0.011590381847275746,0.01126507179632249,0.0046261973063047865,0.0016106695515407442,0.011943126618304377, ,0.7105929851531982
0.011136766376634823,0.02181917595381786,-0.08421058461900312, ,0.011350747310251569,0.022047326073477255,-0.08452129674515138, ,0.0004408881291072189, ,0.0029305881621295104,0.004155607137527462,-0.012580786017415652,0.014805319347549074,-0.01608128889286107,0.015414108431286105, ,0.013569583430359385, ,0.021858751525943042, ,5.2782494239397717e-05, ,0.14694816113074397,-0.2508961456178059,0.09428694944,1.6081121765828172,0.1449713262511323,-1.3139911514797342, ,0.012452032746158087,-0.009720279556043697,0.013487562675698563,-0.01462094802858178,0.0,-0.007263650859696351, ,0.7317180633544922
0.011165704649549765,0.021861830920232635,-0.08433879084214366, ,0.011421886525403638,0.022121726279352858,-0.08476015027433732, ,0.0005574213149017603, ,0.002963527701593128,0.00433452588436551,-0.013281566589587346,-0.0028322295629416325,-0.015223872736019424,0.015455991235519616, ,0.014281828389740136, ,0.015485070619719106, ,5.559287333928199e-05, ,0.14706400212385734,-0.2509965411451708,0.09442435618000002,1.6081121765828172,0.1449713262511323,-1.3139911514797342, ,0.0115911740025004,-0.009685398014092317,0.01420946611953613,-0.01462094802858178,0.0,0.010337720071830968, ,0.7476840019226074
0.011210316133956906,0.021924846967517387,-0.0845365865105394, ,0.011495477939793367,0.022191175650121363,-0.08499902840777152, ,0.0006050625843672041, ,0.0033867901824290187,0.004747902873200726,-0.014908476142341776,-0.0011195038187451804,-0.017280753857388337,0.01542025483106729, ,0.016008609880933423, ,0.017316957186261455, ,5.861552136927756e-05, ,0.1472416249799645,-0.2511201048711584,0.09463565145000001,1.6081121765828172,0.1449713262511323,-1.3139911514797342, ,0.013646382162564103,-0.009479864408461427,0.015928811520000002,-0.01462094802858178,0.0,0.008418999769553908, ,0.7645010948181152
0.01129961447015378,0.02204557036051767,-0.08491716034405453, ,0.011571478221621493,0.022255781590686,-0.08523792197318782, ,0.0004700922073117382, ,0.0036316772926963947,0.004528758594008216,-0.014798199879884085,0.0024781918012363913,-0.01202164830642069,-0.010210606048882048, ,0.01589608297808272, ,0.012274394199168997, ,6.060366760714179e-05, ,0.14763548435654994,-0.25135178685738513,0.09504268651000002,1.6079024866393328,0.14510796275089774,-1.3137758544228684, ,0.016695450661236944,-0.006805736876665247,0.015802392380952386,0.012163373745182397,0.001705751656328232,0.0059867930542092385, ,0.7810690402984619
0.011339710309862078,0.02209312529372945,-0.08507348100861639, ,0.011649844435337503,0.022315650529320788,-0.0854768218097285, ,0.0005553237417049139, ,0.004022595855192474,0.004632410413031631,-0.015364110015965708,-0.00517213657651822,-0.016187340897549824,-0.009111236259403676, ,0.01654377164469074, ,0.016993532474883444, ,6.3497776983746e-05, ,0.14784399814415403,-0.25142129145325315,0.09520990792,1.6079024866393328,0.14524459925066321,-1.3138055935864243, ,0.020118071138111253,-0.006213405135828481,0.016421455175257733,0.010830134842107389,0.0012834069894525697,0.012863095953979636, ,0.7914910316467285
0.011382559717359358,0.022141503632783492,-0.08523866733654918, ,0.011730534040113877,0.022370887921270566,-0.08571571876824985, ,0.000633467717874276, ,0.0047421032492137175,0.005054561579581651,-0.01764065486189549,-0.0019871577491992723,-0.019347412373321764,-0.010054921811736763, ,0.018953333214622257, ,0.019449150447428058, ,6.682983069365905e-05, ,0.14806795739750653,-0.2514676278504985,0.09538620336,1.608321866526302,0.14538123575042863,-1.31383533274998, ,0.024514838945613737,-0.00418712442745109,0.018806152916174736,0.011765457422762459,0.0023149566530916736,0.007810634089228051, ,0.8024590015411377
0.011432991390824845,0.022195094988659597,-0.08542713622409434, ,0.01181350488831994,0.022421598252351144,-0.08595460371162607, ,0.0006887061787452647, ,0.005231976386266189,0.005288363134060518,-0.01889343045912767,0.006200671786923176,-0.017191898418723893,-0.010742005046269258, ,0.02030522287634466, ,0.018275866447763498, ,7.043402885832104e-05, ,0.14833825304810438,-0.2515062415148696,0.09558712831,1.6085315564697864,0.14551787225019408,-1.3138650719135359, ,0.028480474657404192,-0.0030072268870649896,0.020137561972187107,0.013806122466123274,0.008113644181460607,-0.0012456384465439445, ,0.8131051063537598
0.01148559644204227,0.022251616543506676,-0.08563328150800693, ,0.011898715223995394,0.022467885042549235,-0.0861934675150526, ,0.0007288673090284093, ,0.005708170013845782,0.00615905143787048,-0.022402298644732633,0.0195926329163836,0.0015748988968841422,-0.005580094309423687, ,0.02392446664168487, ,0.019655684387576415, ,7.420325482826826e-05, ,0.14861627143157646,-0.2515294097134923,0.09580620132,1.6085315564697864,0.14579114524972495,-1.3140062289807881, ,0.029964301092033716,-0.002492977339971884,0.02380988269058296,0.013806122466123274,0.029036677501042638,-0.015133158424631404, ,0.8236310482025146
0.01148559644204227,0.022251616543506676,-0.08563328150800693, ,0.011986123681322661,0.022509850849620976,-0.08643230106634987, ,0.0009775708305440225, ,0.005708170013845782,0.00615905143787048,-0.022402298644732633,0.0195926329163836,0.0015748988968841422,-0.005580094309423687, ,0.02392446664168487, ,0.019655684387576415, ,7.995718843155333e-05, ,0.14861627143157646,-0.2515294097134923,0.09580620132,1.6085315564697864,0.14579114524972495,-1.3140062289807881, ,0.029964301092033716,-0.002492977339971884,0.02380988269058296,0.013806122466123274,0.029036677501042638,-0.015133158424631404, ,0.8288969993591309
0.011548644511580984,0.022314852474089708,-0.08587290267923714, ,0.012075689283100592,0.022547597272691924,-0.0866710952662667, ,0.0009844073031278742, ,0.007056856987327592,0.007043786212789469,-0.02719383662261967,0.015659051296544407,-0.005787090202284643,-0.006291595872945631, ,0.02896409682708591, ,0.016693754194244015, ,0.0004512561962293916, ,0.1489406262122939,-0.2515294097134923,0.09606027416000001,1.6085315564697864,0.1459277817494904,-1.3141176468844846, ,0.03693925323412642,0.0016503034866300352,0.028804360795660042,0.013806122466123274,0.028636236831003265,-0.015295339791411625, ,0.834197998046875
0.011548644511580984,0.022314852474089708,-0.08587290267923714, ,0.012167371439216017,0.022581224955855492,-0.08690984102878273, ,0.001236534856274209, ,0.007056856987327592,0.007043786212789469,-0.02719383662261967,0.015659051296544407,-0.005787090202284643,-0.006291595872945631, ,0.02896409682708591, ,0.016693754194244015, ,0.0004765877659082567, ,0.1489406262122939,-0.2515294097134923,0.09606027416000001,1.6085315564697864,0.1459277817494904,-1.3141176468844846, ,0.03693925323412642,0.0016503034866300352,0.028804360795660042,0.013806122466123274,0.028636236831003265,-0.015295339791411625, ,0.8395440578460693
0.011601048776585115,0.022368035614183084,-0.08607975574439006, ,0.012261129945116724,0.022610833591772284,-0.087148529281411, ,0.0012794275596561546, ,0.008219797123437405,0.008194363038879018,-0.03158833425161121,0.02128641087836043,-0.00906255732746927,-0.005661105449686716, ,0.033653164950044896, ,0.023134601411229718, ,0.0005016765094628785, ,0.1492263673286402,-0.2515139642477438,0.09627934717000002,1.6085315564697864,0.14633769124878673,-1.3142885431152926, ,0.04274637007138323,0.0017458553663111886,0.03346388974789917,0.013806122466123274,0.03124967115828476,-0.0210144743380119, ,0.8449051380157471
0.011601048776585115,0.022368035614183084,-0.08607975574439006, ,0.012356924980282336,0.02263652192526772,-0.08738715096550094, ,0.0015338565769781516, ,0.008219797123437405,0.008194363038879018,-0.03158833425161121,0.02128641087836043,-0.00906255732746927,-0.005661105449686716, ,0.033653164950044896, ,0.023134601411229718, ,0.0005329546933269777, ,0.1492263673286402,-0.2515139642477438,0.09627934717000002,1.6085315564697864,0.14633769124878673,-1.3142885431152926, ,0.04274637007138323,0.0017458553663111886,0.03346388974789917,0.013806122466123274,0.03124967115828476,-0.0210144743380119, ,0.8502840995788574
0.011743571163159897,0.022511757568328367,-0.086650647823944, ,0.012454717106697382,0.022658387756931825,-0.08762569703653919, ,0.0012157096414038265, ,0.011331420481114771,0.010687680573949776,-0.04394620058882429,0.06676003556885515,0.040453142180750384,0.004339102672461501, ,0.04662505927464105, ,0.0780589210211816, ,0.000553035721211591, ,0.15002180881468533,-0.25142901418612734,0.09688341831000001,1.6091606263002398,0.14784069274620656,-1.3153507825756723, ,0.06351870251571003,0.010211582850505248,0.04643968373177843,0.020504077356393657,0.1021628659781547,-0.07381065806214455, ,0.8556311130523682
0.011743571163159897,0.022511757568328367,-0.086650647823944, ,0.012554467267321564,0.022676527946716495,-0.08786415846445342, ,0.0014687783508645304, ,0.011331420481114771,0.010687680573949776,-0.04394620058882429,0.06676003556885515,0.040453142180750384,0.004339102672461501, ,0.04662505927464105, ,0.0780589210211816, ,0.0005791997963445321, ,0.15002180881468533,-0.25142901418612734,0.09688341831000001,1.6091606263002398,0.14784069274620656,-1.3153507825756723, ,0.06351870251571003,0.010211582850505248,0.04643968373177843,0.020504077356393657,0.1021628659781547,-0.07381065806214455, ,0.8609559535980225
0.011866425658232743,0.022622636719087746,-0.08711738238584368, ,0.012656136784561858,0.022691038417534358,-0.08810252623391258, ,0.0012644488351793374, ,0.013336860205146291,0.011652136040480274,-0.049131631145041335,0.04464496633509882,0.009029133685602828,-0.03640027760834562, ,0.05222605952405245, ,0.04554571312812238, ,0.000598234491867721, ,0.15069368657474286,-0.2512900049943913,0.09737600851000001,1.609580006187209,0.14866051174479922,-1.3159376112577104, ,0.07333612176079658,0.015020092047874451,0.05188537954397395,0.05419637040611229,0.07119300264358618,-0.05154073702379402, ,0.8662600517272949
0.011866425658232743,0.022622636719087746,-0.08711738238584368, ,0.012759687358743691,0.022702014158856716,-0.08834079134462927, ,0.0015168871823510227, ,0.013336860205146291,0.011652136040480274,-0.049131631145041335,0.04464496633509882,0.009029133685602828,-0.03640027760834562, ,0.05222605952405245, ,0.04554571312812238, ,0.0006230629429618644, ,0.15148140532791377,-0.2511123821382842,0.09789711709000001,1.6097896961306934,0.14948033074339184,-1.3164427611996077, ,0.0858019363096481,0.021339541614227745,0.053096038400000004,-0.027345641169555294,0.0946481752993624,-0.06394188896952938, ,0.8717939853668213
0.012004364247153943,0.022736785835268693,-0.0876108725782867, ,0.012865081066581375,0.022709549230311262,-0.088578944811661, ,0.0012956616552654368, ,0.01449029003266894,0.011271174993223712,-0.050298142776911615,0.03895028362764182,-0.0010084414823806327,0.046563750433780596, ,0.05354354356750515, ,0.03895920456271454, ,0.0006407629090751162, ,0.15148140532791377,-0.2511123821382842,0.09789711709000001,1.6097896961306934,0.14948033074339184,-1.3164427611996077, ,0.0858019363096481,0.021339541614227745,0.053096038400000004,-0.027345641169555294,0.0946481752993624,-0.06394188896952938, ,0.8775849342346191
0.012153583692890144,0.022841919087658508,-0.08810743210654934, ,0.012972280359649235,0.022713736765280396,-0.08881697766571235, ,0.0010909398885642812, ,0.01523374984589557,0.00982292724621232,-0.04789644160556674,0.07327545422196544,0.01783633258735872,0.016664398394671813, ,0.05121158221073792, ,0.07541336011911094, ,0.0006523059085491973, ,0.1524081332728207,-0.25083436375481205,0.09842081825000001,1.609580006187209,0.15057342274151536,-1.3171707469488978, ,0.09957706354509001,0.030810695311191814,0.05056765561904762,0.008607060955485704,0.11908043354126036,-0.10238405162074454, ,0.883526086807251
0.012153583692890144,0.022841919087658508,-0.08810743210654934, ,0.013081248062852959,0.022714668974498958,-0.08905488095343535, ,0.0013320709786130971, ,0.01523374984589557,0.00982292724621232,-0.04789644160556674,0.07327545422196544,0.01783633258735872,0.016664398394671813, ,0.05121158221073792, ,0.07541336011911094, ,0.0006693000353007949, ,0.1524081332728207,-0.25083436375481205,0.09842081825000001,1.609580006187209,0.15057342274151536,-1.3171707469488978, ,0.09957706354509001,0.030810695311191814,0.05056765561904762,0.008607060955485704,0.11908043354126036,-0.10238405162074454, ,0.889117956161499
0.01230723296196491,0.022930221210602543,-0.08856306217991951, ,0.01319194737289913,0.022712437149651883,-0.08929264573773094, ,0.001167236760022416, ,0.015891682899262603,0.008114850583394407,-0.044213157671490616,0.06839212691764761,0.008614053982024406,0.01701039126401132, ,0.04767808402867738, ,0.0689312411068555, ,0.0006814448334647368, ,0.15344297947796678,-0.25048684077547195,0.09890174184000002,1.609580006187209,0.1516665147396389,-1.3180620901784694, ,0.11243713454795115,0.038860336428530214,0.04671205724340176,0.007897561150519252,0.12298797298775517,-0.10557038802783132, ,0.8945910930633545
0.01230723296196491,0.022930221210602543,-0.08856306217991951, ,0.013304341856766674,0.022707131666971903,-0.08953026309805075, ,0.0014069373506322286, ,0.015891682899262603,0.008114850583394407,-0.044213157671490616,0.06839212691764761,0.008614053982024406,0.01701039126401132, ,0.04767808402867738, ,0.0689312411068555, ,0.0006987184648258675, ,0.15344297947796678,-0.25048684077547195,0.09890174184000002,1.609580006187209,0.1516665147396389,-1.3180620901784694, ,0.11243713454795115,0.038860336428530214,0.04671205724340176,0.007897561150519252,0.12298797298775517,-0.10557038802783132, ,0.8999021053314209
0.012472651710964342,0.023001178067923643,-0.08897953347839055, ,0.013418395450176451,0.022698841990837198,-0.08976772413069796, ,0.0012677077061182926, ,0.016588054283102536,0.0055940203958079,-0.03681095512896005,0.026591260604588853,-0.04261179803354604,-0.006439850979472957, ,0.04076153857000716, ,0.05022741165666816, ,0.0007119507727629007, ,0.15466317127209425,-0.2500543677345154,0.09934248044,1.6099993860741781,0.15275960673776243,-1.3188717546679, ,0.12754965263235318,0.04557970295795907,0.03904120470588236,0.020732655619939235,0.08242387310147344,-0.06848046151534498, ,0.905256986618042
0.012472651710964342,0.023001178067923643,-0.08897953347839055, ,0.013534072456062227,0.022687656677368724,-0.09000501994912782, ,0.0015088181342112874, ,0.016588054283102536,0.0055940203958079,-0.03681095512896005,0.026591260604588853,-0.04261179803354604,-0.006439850979472957, ,0.04076153857000716, ,0.05022741165666816, ,0.0007300613946140004, ,0.15466317127209425,-0.2500543677345154,0.09934248044,1.6099993860741781,0.15275960673776243,-1.3188717546679, ,0.12754965263235318,0.04557970295795907,0.03904120470588236,0.020732655619939235,0.08242387310147344,-0.06848046151534498, ,0.9105551242828369
0.012641955515534481,0.023044835703743802,-0.08933749200687083, ,0.013651337543040695,0.022673663378028296,-0.09024214168424927, ,0.0014053512057882634, ,0.01777495352049378,0.0038710666296101364,-0.03718019006694155,0.0707879794038403,0.019275212894658958,-0.04666623047763156, ,0.04139203622583087, ,0.07336484724446325, ,0.0007450678348623173, ,0.15601464952508354,-0.24949060823469701,0.09972099712000002,1.6106284559046316,0.15385269873588595,-1.3197630978974715, ,0.14554745637802266,0.06562720716353443,0.03923352591133005,0.0770463138703498,0.15061459184862944,-0.12386651477092585, ,0.9158730506896973
0.012641955515534481,0.023044835703743802,-0.08933749200687083, ,0.013770155743881402,0.022656948843215303,-0.09047908048472583, ,0.0016512165892407953, ,0.01777495352049378,0.0038710666296101364,-0.03718019006694155,0.0707879794038403,0.019275212894658958,-0.04666623047763156, ,0.04139203622583087, ,0.07336484724446325, ,0.0007647667208270667, ,0.15601464952508354,-0.24949060823469701,0.09972099712000002,1.6106284559046316,0.15385269873588595,-1.3197630978974715, ,0.14554745637802266,0.06562720716353443,0.03923352591133005,0.0770463138703498,0.15061459184862944,-0.12386651477092585, ,0.9220941066741943
0.012810130065662085,0.0230768230261231,-0.08969094031032064, ,0.013890492453976815,0.022637598925864404,-0.09071582751727642, ,0.0015525767250975963, ,0.01885978425871894,0.003268851279788331,-0.03914164652568062,0.0710290330790297,0.022335017774665854,-0.023878589089773094, ,0.043571152655353544, ,0.07445726750652498, ,0.000781528635811546, ,0.15740474144244396,-0.2488264532075137,0.10009303235000001,1.610838145848116,0.15549233673307122,-1.3211001127418285, ,0.1545552794111902,0.07665342613769853,0.041159719689922485,0.05582611535304449,0.1684886451809845,-0.13809163500284138, ,0.9274270534515381
0.012810130065662085,0.0230768230261231,-0.08969094031032064, ,0.0140123134298126,0.02261569858504291,-0.09095237396697615, ,0.0018025247463890949, ,0.01885978425871894,0.003268851279788331,-0.03914164652568062,0.0710290330790297,0.022335017774665854,-0.023878589089773094, ,0.043571152655353544, ,0.07445726750652498, ,0.000802799388115245, ,0.15740474144244396,-0.2488264532075137,0.10009303235000001,1.610838145848116,0.15549233673307122,-1.3211001127418285, ,0.1545552794111902,0.07665342613769853,0.041159719689922485,0.05582611535304449,0.1684886451809845,-0.13809163500284138, ,0.9328000545501709
0.0130685507315675,0.023113506018424376,-0.09020403755769617, ,0.014135584787437228,0.022591331889547844,-0.09118871103755759, ,0.0015429871545791188, ,0.02092501711233269,0.0021716749247585074,-0.040408753319505254,0.005269555887067575,-0.05818050516336521,0.034433039644436246, ,0.04555699570830882, ,0.05841773412449139, ,0.000817905260900222, ,0.1594976020513588,-0.24776843880374494,0.10063228899000001,1.6110478357916007,0.15726861123002195,-1.322548545489882, ,0.16795918859906334,0.08986452799097612,0.04236386042553192,-0.020422266435881017,0.11851109573354993,-0.09704228801061647, ,0.9381330013275146
0.0130685507315675,0.023113506018424376,-0.09020403755769617, ,0.01426027300093211,0.02256458202150355,-0.09142482995171163, ,0.0017921644988619398, ,0.02092501711233269,0.0021716749247585074,-0.040408753319505254,0.005269555887067575,-0.05818050516336521,0.034433039644436246, ,0.04555699570830882, ,0.05841773412449139, ,0.0008373904456594562, ,0.1594976020513588,-0.24776843880374494,0.10063228899000001,1.6110478357916007,0.15726861123002195,-1.322548545489882, ,0.16795918859906334,0.08986452799097612,0.04236386042553192,-0.020422266435881017,0.11851109573354993,-0.09704228801061647, ,0.943397045135498
0.013279589514959627,0.023125544107122184,-0.09061036323009351, ,0.014386344900881323,0.022535531279958373,-0.09166072195138777, ,0.0016359327809795342, ,0.022515121154625898,0.000712743734124867,-0.04350101052756976,-0.005443273484191684,-0.05232734319030785,0.029630042019396438, ,0.04898751474771661, ,0.052608215108953055, ,0.0008530481385088694, ,0.16118888055081396,-0.24676448353009575,0.10105617582000001,1.6110478357916007,0.15849833972791091,-1.3236329853632904, ,0.17972905598195224,0.11270420612644985,0.04525230545454546,-0.015145574821174108,0.13530409251700867,-0.10808342549558815, ,0.9486739635467529
0.013279589514959627,0.023125544107122184,-0.09061036323009351, ,0.01451376767284108,0.022504261084482342,-0.09189637829809584, ,0.001887597169615696, ,0.022515121154625898,0.000712743734124867,-0.04350101052756976,-0.005443273484191684,-0.05232734319030785,0.029630042019396438, ,0.04898751474771661, ,0.052608215108953055, ,0.0008729433121840007, ,0.16118888055081396,-0.24676448353009575,0.10105617582000001,1.6110478357916007,0.15849833972791091,-1.3236329853632904, ,0.17972905598195224,0.11270420612644985,0.04525230545454546,-0.015145574821174108,0.13530409251700867,-0.10808342549558815, ,0.9539511203765869
0.013516654871265016,0.023130803027636728,-0.09107116502618226, ,0.014642508855810097,0.02247085197876404,-0.09213179027320616, ,0.0016816683668454669, ,0.02391178751971599,0.00013133859254404968,-0.046404317281098895,0.06894525132320937,0.030026953129490157,0.03680140353259749, ,0.052202983578899305, ,0.07519873947878809, ,0.0008882022754795, ,0.1631272865022443,-0.2455520144688425,0.10153580312,1.610838145848116,0.16054788722439253,-1.3253042539187367, ,0.19729093879099954,0.12602515479212587,0.048269125818181824,0.0,0.23443023025938736,-0.19328592758655938, ,0.9592339992523193
0.013757059869812183,0.023125241489069512,-0.0915277370570283, ,0.014772536340698425,0.02243538363420745,-0.09236694917825077, ,0.001487068696209149, ,0.024853742996321374,-0.0012328549910053561,-0.046246401706766437,0.0620046581511772,0.029342480584200574,0.0187720931795824, ,0.05251626551059824, ,0.0685955338241838, ,0.0008992923943819009, ,0.16512747431666847,-0.24423914988022435,0.10201024526000001,1.6112575257350852,0.16300734422017046,-1.3273097761852721, ,0.20585019860839648,0.13894134928033788,0.047978347951807235,0.016939448854064326,0.23825589741985703,-0.1963116352540695, ,0.9649419784545898
0.013757059869812183,0.023125241489069512,-0.0915277370570283, ,0.014903818368798078,0.022397934853529564,-0.09260184633522456, ,0.0017313984921456169, ,0.024853742996321374,-0.0012328549910053561,-0.046246401706766437,0.0620046581511772,0.029342480584200574,0.0187720931795824, ,0.05251626551059824, ,0.0685955338241838, ,0.000914421596159423, ,0.16512747431666847,-0.24423914988022435,0.10201024526000001,1.6112575257350852,0.16300734422017046,-1.3273097761852721, ,0.20585019860839648,0.13894134928033788,0.047978347951807235,0.016939448854064326,0.23825589741985703,-0.1963116352540695, ,0.9702229499816895
0.014026866134370259,0.023105494892161668,-0.09201412274772214, ,0.015036323530251503,0.022358583574356928,-0.09283647308688514, ,0.0015010465785863087, ,0.026406715503218128,-0.002648050368709242,-0.04603425634106154,0.03513400885658283,0.0022983749658641137,-0.017289254660109717, ,0.05313642396038415, ,0.0352061695558146, ,0.0009248970422741889, ,0.16735162138444512,-0.2427100487711279,0.10251450207000001,1.6116769056220543,0.16533016471618295,-1.3292038805481114, ,0.21815388864016272,0.15232253861712805,0.047691052455089825,0.04594466250852526,0.2158361369221921,-0.17783607999024847, ,0.9755480289459229
0.014026866134370259,0.023105494892161668,-0.09201412274772214, ,0.015170020762522229,0.022317406872822788,-0.09307082079705513, ,0.0017448484167843625, ,0.026406715503218128,-0.002648050368709242,-0.04603425634106154,0.03513400885658283,0.0022983749658641137,-0.017289254660109717, ,0.05313642396038415, ,0.0352061695558146, ,0.0009392821541077007, ,0.16735162138444512,-0.2427100487711279,0.10251450207000001,1.6116769056220543,0.16533016471618295,-1.3292038805481114, ,0.21815388864016272,0.15232253861712805,0.047691052455089825,0.04594466250852526,0.2158361369221921,-0.17783607999024847, ,0.9808180332183838
0.014290951956107393,0.02306615652722389,-0.09246160881319879, ,0.015304879348863688,0.022274480967164136,-0.09330488085092162, ,0.0015381504086995916, ,0.026849052847032966,-0.005215640367279398,-0.04380374169390502,-0.02543014313327498,-0.049013041134412294,-0.031776200192251865, ,0.05164147877055726, ,0.055216022222799886, ,0.0009496074688420436, ,0.1695217093221022,-0.2411037203332892,0.10297598131,1.6116769056220543,0.1672430757128991,-1.3307637311998612, ,0.21966884620016383,0.17129411833658983,0.04499664271186441,0.0443352498608676,0.16488927980469179,-0.13614009468513197, ,0.9860959053039551
0.014290951956107393,0.02306615652722389,-0.09246160881319879, ,0.01544086891678964,0.02222988122131889,-0.09353864465533795, ,0.0017837240843201134, ,0.026849052847032966,-0.005215640367279398,-0.04380374169390502,-0.02543014313327498,-0.049013041134412294,-0.031776200192251865, ,0.05164147877055726, ,0.055216022222799886, ,0.0009637450385959092, ,0.1695217093221022,-0.2411037203332892,0.10297598131,1.6116769056220543,0.1672430757128991,-1.3307637311998612, ,0.21966884620016383,0.17129411833658983,0.04499664271186441,0.0443352498608676,0.16488927980469179,-0.13614009468513197, ,0.9913580417633057
0.01455777978865964,0.02300764030631307,-0.09289266443909353, ,0.015577959436541807,0.022183682148521885,-0.09377210363912447, ,0.001578951191865885, ,0.027190123990849607,-0.006559821690704326,-0.04343678566102663,-0.01119997128773419,-0.024522127941878843,-0.015980938092619662, ,0.05166322146182503, ,0.026955880389095594, ,0.0009739984744837422, ,0.17171496545838197,-0.23935838270371446,0.1034180162,1.6116769056220543,0.16901935020984984,-1.3322121639479148, ,0.2248742690959023,0.18249411838167456,0.044493886927374306,0.0335040372689739,0.19809653299923513,-0.16309028890496277, ,0.996628999710083
0.01455777978865964,0.02300764030631307,-0.09289266443909353, ,0.01571612121956159,0.022135957414902926,-0.09400524925336967, ,0.0018274109835171232, ,0.027190123990849607,-0.006559821690704326,-0.04343678566102663,-0.01119997128773419,-0.024522127941878843,-0.015980938092619662, ,0.05166322146182503, ,0.026955880389095594, ,0.0009879888434842895, ,0.17171496545838197,-0.23935838270371446,0.1034180162,1.6116769056220543,0.16901935020984984,-1.3322121639479148, ,0.2248742690959023,0.18249411838167456,0.044493886927374306,0.0335040372689739,0.19809653299923513,-0.16309028890496277, ,1.0031650066375732
0.01455777978865964,0.02300764030631307,-0.09289266443909353, ,0.0158553249169583,0.02208677984308299,-0.09423807297173015, ,0.0020836821908350946, ,0.027190123990849607,-0.006559821690704326,-0.04343678566102663,-0.01119997128773419,-0.024522127941878843,-0.015980938092619662, ,0.05166322146182503, ,0.026955880389095594, ,0.0010056613168286572, ,0.17171496545838197,-0.23935838270371446,0.1034180162,1.6116769056220543,0.16901935020984984,-1.3322121639479148, ,0.2248742690959023,0.18249411838167456,0.044493886927374306,0.0335040372689739,0.19809653299923513,-0.16309028890496277, ,1.0086169242858887
0.01495282666262147,0.02289544463198222,-0.09352916898347402, ,0.01599554151797865,0.0220362214157712,-0.0944705662907323, ,0.0016467385023043904, ,0.026753656887502857,-0.008701875665665455,-0.042537984151868984,0.03314684383237574,0.04701798739333159,0.0064091203924900265, ,0.05099961659326065, ,0.057526212424639775, ,0.001015837145169542, ,0.17501257239567583,-0.23654730793749673,0.10406745749000001,1.6116769056220543,0.1725718992037513,-1.3351090294440218, ,0.22594509894873996,0.19936332260182937,0.043284813913043486,0.024736618329391735,0.2747936676133768,-0.22542293768016314, ,1.0141489505767822
0.015215395615350553,0.022803978357244983,-0.0939335913867291, ,0.016136742348476476,0.02198435327936171,-0.09470272073007341, ,0.0014533495855196762, ,0.026989437110525222,-0.010185481833775557,-0.04013168752874656,-0.04219903244699727,-0.03283139768431279,0.009402058769886874, ,0.04942394257476957, ,0.0534654553579471, ,0.001022673277050013, ,0.17722127399770404,-0.23457028832169527,0.10447838142000002,1.6118865955655386,0.1750313561995292,-1.3371145517105574, ,0.22328692131404887,0.20629769904015388,0.04063472326530613,0.0,0.19579643731824567,-0.16096724506818308, ,1.0197820663452148
0.015215395615350553,0.022803978357244983,-0.0939335913867291, ,0.016278899069381982,0.021931245747530425,-0.09493452783292222, ,0.0017013452248481704, ,0.026989437110525222,-0.010185481833775557,-0.04013168752874656,-0.04219903244699727,-0.03283139768431279,0.009402058769886874, ,0.04942394257476957, ,0.0534654553579471, ,0.0010331143839392154, ,0.17722127399770404,-0.23457028832169527,0.10447838142000002,1.6118865955655386,0.1750313561995292,-1.3371145517105574, ,0.22328692131404887,0.20629769904015388,0.04063472326530613,0.0,0.19579643731824567,-0.16096724506818308, ,1.0250799655914307
0.015504894428467416,0.02268846405794007,-0.09435846651219121, ,0.01642198367517132,0.021876968304832052,-0.09516597916621992, ,0.0014668519796314779, ,0.027674935149117383,-0.011201996926203939,-0.04131730660493016,-0.07538662320898043,-0.05895140250901007,-0.005507032462281024, ,0.05097554899879295, ,0.09569895719043535, ,0.0010396861656921284, ,0.17958443025721674,-0.2323152503224217,0.10490745341,1.6120962855090233,0.17680763069647995,-1.3385629844586109, ,0.22328692131404887,0.21765353568456597,0.0416984594764398,0.0057599941875229295,0.16751890304853054,-0.13784365698631734, ,1.0304369926452637
0.015504894428467416,0.02268846405794007,-0.09435846651219121, ,0.016565968492335433,0.021821589610296444,-0.09539706632098087, ,0.0017193135373772736, ,0.027674935149117383,-0.011201996926203939,-0.04131730660493016,-0.07538662320898043,-0.05895140250901007,-0.005507032462281024, ,0.05097554899879295, ,0.09569895719043535, ,0.001049829857806832, ,0.17958443025721674,-0.2323152503224217,0.10490745341,1.6120962855090233,0.17680763069647995,-1.3385629844586109, ,0.22328692131404887,0.21765353568456597,0.0416984594764398,0.0057599941875229295,0.16751890304853054,-0.13784365698631734, ,1.035742998123169
0.015779871851446355,0.02257130422217088,-0.0947711968404658, ,0.016710826177850687,0.02176517750102595,-0.0956277809125943, ,0.00150008417131142, ,0.027027715771723845,-0.012193114621263853,-0.0404731185345333,-0.032681145241571764,0.0022529713520741657,0.0016187271206192996, ,0.050172131586317434, ,0.032757053184526534, ,0.0010564512447701349, ,0.18182402279074186,-0.23009110325464505,0.10532356250000001,1.6125156653959922,0.17885717819296154,-1.3403976104943385, ,0.22172182607119342,0.22381354141148768,0.04073864838874681,0.010761031032074835,0.22759784588826518,-0.1855907822450354, ,1.0423150062561035
0.015779871851446355,0.02257130422217088,-0.0947711968404658, ,0.016856529717646413,0.02170779899579138,-0.09585811458112471, ,0.0017567650986384758, ,0.027027715771723845,-0.012193114621263853,-0.0404731185345333,-0.032681145241571764,0.0022529713520741657,0.0016187271206192996, ,0.050172131586317434, ,0.032757053184526534, ,0.0010666007209131543, ,0.18182402279074186,-0.23009110325464505,0.10532356250000001,1.6125156653959922,0.17885717819296154,-1.3403976104943385, ,0.22172182607119342,0.22381354141148768,0.04073864838874681,0.010761031032074835,0.22759784588826518,-0.1855907822450354, ,1.0476830005645752
0.016032982941478785,0.022452349074589924,-0.0951421057913204, ,0.01700305242507607,0.02164952029862961,-0.09608805899161295, ,0.0015749273963139854, ,0.026437986370082333,-0.012556903072724569,-0.03897339200564086,-0.01581877606085538,0.021879787351741814,0.004681778889021173, ,0.04873980121530872, ,0.026997571257103375, ,0.0010738625305617376, ,0.18392460613253092,-0.22797507444710752,0.10569689402000002,1.6125156653959922,0.18117999868897403,-1.342373393597318, ,0.21815388864016272,0.2222410809331868,0.03923352591133005,0.010761031032074835,0.24396822277212032,-0.200829120898656, ,1.0530071258544922
0.016032982941478785,0.022452349074589924,-0.0951421057913204, ,0.017150367939385323,0.021590406802439614,-0.09631760583437735, ,0.0018366529517829728, ,0.026437986370082333,-0.012556903072724569,-0.03897339200564086,-0.01581877606085538,0.021879787351741814,0.004681778889021173, ,0.04873980121530872, ,0.026997571257103375, ,0.0010846060576211916, ,0.18392460613253092,-0.22797507444710752,0.10569689402000002,1.6125156653959922,0.18117999868897403,-1.342373393597318, ,0.21815388864016272,0.2222410809331868,0.03923352591133005,0.010761031032074835,0.24396822277212032,-0.200829120898656, ,1.0583031177520752
0.01629506342243672,0.02232718211647441,-0.09552598421668222, ,0.017298450224182006,0.021530523092579554,-0.0965467468253145, ,0.0016381107952307481, ,0.027325991132490828,-0.012955130371469075,-0.04102477193106131,-0.068285969388184,-0.03065588800467953,-0.010234989257309458, ,0.05096643117102005, ,0.0748507907641428, ,0.0010922936234213244, ,0.18604835767294267,-0.22578181831082778,0.10608318844,1.6125156653959922,0.18322954618545564,-1.3440446621527644, ,0.21616615389173302,0.22921966560017099,0.04126635108808291,0.010761031032074835,0.18790228505671328,-0.1551111080708364, ,1.063971996307373
0.01629506342243672,0.02232718211647441,-0.09552598421668222, ,0.017447273565905794,0.02146993295046345,-0.09677547370620072, ,0.0019035987843441999, ,0.027325991132490828,-0.012955130371469075,-0.04102477193106131,-0.068285969388184,-0.03065588800467953,-0.010234989257309458, ,0.05096643117102005, ,0.0748507907641428, ,0.001103407392749035, ,0.18834973206946157,-0.22331826652395015,0.10653948252,1.6125156653959922,0.18500582068240637,-1.3454930949008177, ,0.21567486717834267,0.22921966560017099,0.044124131634349036,0.010761031032074835,0.1464779966553002,-0.12133237849473809, ,1.0694899559020996
0.0165922566631235,0.022189463425094993,-0.09597905997359604, ,0.017596812572296366,0.021408699357157602,-0.0970037782449928, ,0.001633637854657706, ,0.028376384635685533,-0.012534599769183655,-0.04367945967067798,-0.10193631928841926,-0.07048296789952026,-0.020395242958289435, ,0.0535745330683187, ,0.12393023423669883, ,0.0011105726692613141, ,0.18834973206946157,-0.22331826652395015,0.10653948252,1.6125156653959922,0.18500582068240637,-1.3454930949008177, ,0.21567486717834267,0.22921966560017099,0.044124131634349036,0.010761031032074835,0.1464779966553002,-0.12133237849473809, ,1.0747380256652832
0.0165922566631235,0.022189463425094993,-0.09597905997359604, ,0.01774704217086402,0.021346884496977556,-0.09723165223612881, ,0.0019006462572377903, ,0.027785850710339528,-0.012284223483205478,-0.04394797615449877,-0.06164106888290259,-0.02595698571209221,-0.011057144560464471, ,0.05342640035000491, ,0.06688215409740908, ,0.0011211069837676671, ,0.1904425926783764,-0.2210941194561735,0.10697244338,1.6125156653959922,0.18664545867959165,-1.3470751459655965, ,0.2108820923521573,0.2254084122528997,0.044493886927374306,0.010470923828021296,0.18723375814026386,-0.1578562041516112, ,1.0800421237945557
0.016867430129577903,0.022067743598448965,-0.0964071330385771, ,0.01789793760735843,0.021284549761084723,-0.09745908750082945, ,0.001667916796275978, ,0.027785850710339528,-0.012284223483205478,-0.04394797615449877,-0.06164106888290259,-0.02595698571209221,-0.011057144560464471, ,0.05342640035000491, ,0.06688215409740908, ,0.001128301849721724, ,0.1904425926783764,-0.2210941194561735,0.10697244338,1.6125156653959922,0.18664545867959165,-1.3470751459655965, ,0.2108820923521573,0.2254084122528997,0.044493886927374306,0.010470923828021296,0.18723375814026386,-0.1578562041516112, ,1.0856459140777588
0.017157706635938057,0.021940808989054175,-0.09687144283583485, ,0.018049474444238055,0.02122175575108292,-0.09768607588739951, ,0.0014056722205616375, ,0.02805707050382708,-0.01220074241315929,-0.044973768529723936,-0.013999830792000869,-0.024128654878724995,-0.010356566099790597, ,0.05439390753066169, ,0.02789270975607663, ,0.0011319040623300346, ,0.19262040334890773,-0.21875413139528346,0.10744299665000001,1.6125156653959922,0.18855836967630782,-1.3492884265384708, ,0.20948552220412975,0.2248742690959023,0.04564129375358167,0.009083582280198262,0.18788210900026278,-0.20512564139258804, ,1.0909819602966309
0.017157706635938057,0.021940808989054175,-0.09687144283583485, ,0.01820162855913921,0.021158562282615014,-0.09791260927152774, ,0.0016690447682097557, ,0.02805707050382708,-0.01220074241315929,-0.044973768529723936,-0.013999830792000869,-0.024128654878724995,-0.010356566099790597, ,0.05439390753066169, ,0.02789270975607663, ,0.0011387904816361847, ,0.19262040334890773,-0.21875413139528346,0.10744299665000001,1.6125156653959922,0.18855836967630782,-1.3492884265384708, ,0.20948552220412975,0.2248742690959023,0.04564129375358167,0.009083582280198262,0.18788210900026278,-0.20512564139258804, ,1.0972580909729004
0.017437382543454862,0.021819240727590068,-0.09732102941712366, ,0.018354376143345973,0.02109502838895974,-0.09813867955658909, ,0.0014261530507745303, ,0.027934756517443992,-0.012310949655440998,-0.044710263880450136,-0.042358090419282415,-0.05163902250340552,-0.017267030874142674, ,0.05413795156234826, ,0.06678785672141627, ,0.0011424279825113539, ,0.19467465029345143,-0.2165222615946326,0.10789929073000001,1.6125156653959922,0.1901980076734931,-1.351197192563812, ,0.20364150549028065,0.22328692131404887,0.045381229401709404,0.008061490291299624,0.1538866287933614,-0.1752809857344665, ,1.1032519340515137
0.017437382543454862,0.021819240727590068,-0.09732102941712366, ,0.018507693700258964,0.02103121232462819,-0.0983642786739453, ,0.0016896519606454151, ,0.027934756517443992,-0.012310949655440998,-0.044710263880450136,-0.042358090419282415,-0.05163902250340552,-0.017267030874142674, ,0.05413795156234826, ,0.06678785672141627, ,0.0011492682822380296, ,0.19467465029345143,-0.2165222615946326,0.10789929073000001,1.6125156653959922,0.1901980076734931,-1.351197192563812, ,0.20364150549028065,0.22328692131404887,0.045381229401709404,0.008061490291299624,0.1538866287933614,-0.1752809857344665, ,1.108551025390625
0.01769956464062563,0.021702987824368074,-0.0977368372517267, ,0.018661558043865042,0.02096717156896045,-0.09858939858324604, ,0.0014811204183321062, ,0.02733774783962179,-0.012171253830014593,-0.04264421145024219,-0.05588299666376913,-0.049421474529371685,-0.016023822359871726, ,0.052096263272430186, ,0.07460060612604562, ,0.0011533652221898082, ,0.19658988804625913,-0.21443712371859197,0.10832188127000002,1.6125156653959922,0.19170100917091293,-1.3527495044650348, ,0.19978303485993848,0.21567486717834267,0.0434027561852861,0.007280384826021285,0.15234814354019238,-0.15434342100738385, ,1.113793134689331
0.01769956464062563,0.021702987824368074,-0.0977368372517267, ,0.018815946297207082,0.020902962829722396,-0.09881403127272985, ,0.0017454784312887666, ,0.02733774783962179,-0.012171253830014593,-0.04264421145024219,-0.05588299666376913,-0.049421474529371685,-0.016023822359871726, ,0.052096263272430186, ,0.07460060612604562, ,0.0011605861149836978, ,0.19658988804625913,-0.21443712371859197,0.10832188127000002,1.6125156653959922,0.19170100917091293,-1.3527495044650348, ,0.19978303485993848,0.21567486717834267,0.0434027561852861,0.007280384826021285,0.15234814354019238,-0.15434342100738385, ,1.1191051006317139
0.017975607997996548,0.021572730325944676,-0.09815460774084316, ,0.01897083589085176,0.020838642046701952,-0.0990381687595254, ,0.001519882967262074, ,0.02606652051108621,-0.013019170336749819,-0.038985891110570194,-0.029601914132584967,-0.012758941771201836,-0.006474771794118164, ,0.0486709563651406, ,0.03223311735338719, ,0.0011649149927219916, ,0.19864413499080283,-0.21222069938368954,0.10874706439000001,1.612725355339477,0.19347728366786368,-1.3545246521736507, ,0.1956637970277748,0.21421431503040805,0.03962390925373134,0.004485908598877546,0.18624697344464194,-0.1796160614691665, ,1.1244170665740967
0.017975607997996548,0.021572730325944676,-0.09815460774084316, ,0.019126204561360424,0.020774264395306104,-0.09926180308995276, ,0.0017853016090020276, ,0.02606652051108621,-0.013019170336749819,-0.038985891110570194,-0.029601914132584967,-0.012758941771201836,-0.006474771794118164, ,0.0486709563651406, ,0.03223311735338719, ,0.0011723005476777064, ,0.19864413499080283,-0.21222069938368954,0.10874706439000001,1.612725355339477,0.19347728366786368,-1.3545246521736507, ,0.1956637970277748,0.21421431503040805,0.03962390925373134,0.004485908598877546,0.18624697344464194,-0.1796160614691665, ,1.1298820972442627
0.018227096987942885,0.02144043217580947,-0.09851981820472623, ,0.019282030349758183,0.020709884290157254,-0.09948492633982398, ,0.00160562085298295, ,0.025157872931366853,-0.013233642779762892,-0.036520617333939756,-0.014244181484305195,-0.005949624629775535,-0.005924711163812935, ,0.04627962145594141, ,0.015434693801026616, ,0.001177398433622474, ,0.20054392727786208,-0.21012011604190045,0.10911780333000001,1.612725355339477,0.19525355816481438,-1.3562181211421258, ,0.19017423158010174,0.20948552220412975,0.03713009678321679,0.004415329886741382,0.1875420135183925,-0.19026466118430557, ,1.1351730823516846
0.01849224657275856,0.02130668023960925,-0.09890576053012975, ,0.019438291600002235,0.02064555538868976,-0.09970753061474454, ,0.001405319369630618, ,0.026260236611004843,-0.012487250688153772,-0.03924981054541747,-0.0388333357594395,0.008873158592645845,-0.0015821765661715697, ,0.048847508477566394, ,0.0398329983625478, ,0.0011800486770644292, ,0.2025441150922862,-0.20797319630286604,0.10951187549000001,1.612725355339477,0.197303105661296,-1.358297783398275, ,0.1956637970277748,0.20674714936486008,0.04022427151515152,0.0041620833465851,0.2083036284003717,-0.16295993109087586, ,1.1404519081115723
0.01849224657275856,0.02130668023960925,-0.09890576053012975, ,0.019594966957453067,0.020581330594746993,-0.09992960805041436, ,0.001670445479180788, ,0.026260236611004843,-0.012487250688153772,-0.03924981054541747,-0.0388333357594395,0.008873158592645845,-0.0015821765661715697, ,0.048847508477566394, ,0.0398329983625478, ,0.0011856854219163412, ,0.2025441150922862,-0.20797319630286604,0.10951187549000001,1.612725355339477,0.197303105661296,-1.358297783398275, ,0.1956637970277748,0.20674714936486008,0.04022427151515152,0.0041620833465851,0.2083036284003717,-0.16295993109087586, ,1.1457240581512451
0.018752392386170238,0.02118868719944905,-0.09930949231584257, ,0.019752035367341374,0.02051726206217726,-0.10015115081292948, ,0.001469178964756761, ,0.02681474984393787,-0.011422285134472783,-0.042585959459344784,0.02238505179082127,0.038499806191717285,0.005024548282415759, ,0.05160487719159035, ,0.044532971545285405, ,0.0011889069394486187, ,0.20446707557796812,-0.20595756302269344,0.10992668829,1.612725355339477,0.19962592615730848,-1.3604369239815357, ,0.19526119662236785,0.20190838629461869,0.043881023471074386,0.003930072444740177,0.23812073594067965,-0.21941230688022811, ,1.1509931087493896
0.018752392386170238,0.02118868719944905,-0.09930949231584257, ,0.019909476073239514,0.020453401198430993,-0.10037215109908192, ,0.001734569644543186, ,0.02681474984393787,-0.011422285134472783,-0.042585959459344784,0.02238505179082127,0.038499806191717285,0.005024548282415759, ,0.05160487719159035, ,0.044532971545285405, ,0.001195037981078895, ,0.20446707557796812,-0.20595756302269344,0.10992668829,1.612725355339477,0.19962592615730848,-1.3604369239815357, ,0.19526119662236785,0.20190838629461869,0.043881023471074386,0.003930072444740177,0.23812073594067965,-0.21941230688022811, ,1.156264066696167
0.018752392386170238,0.02118868719944905,-0.09930949231584257, ,0.02006726861553035,0.020389798668156923,-0.10059260113666191, ,0.002003369818588356, ,0.02681474984393787,-0.011422285134472783,-0.042585959459344784,0.02238505179082127,0.038499806191717285,0.005024548282415759, ,0.05160487719159035, ,0.044532971545285405, ,0.001204019445940111, ,0.20446707557796812,-0.20595756302269344,0.10992668829,1.612725355339477,0.19962592615730848,-1.3604369239815357, ,0.19526119662236785,0.20190838629461869,0.043881023471074386,0.003930072444740177,0.23812073594067965,-0.21941230688022811, ,1.164484977722168
0.019000367239945443,0.021086582767295952,-0.09969972284764435, ,0.02022539282987529,0.020326504396798957,-0.10081249318475873, ,0.0018211712298523656, ,0.027428410070169953,-0.011206317689911928,-0.043004382247050624,0.007681380662474916,0.025102931045022158,0.003499015926137494, ,0.052223329342307126, ,0.02624906993713411, ,0.0012108013336754107, ,0.2083979466109484,-0.2020035237910905,0.11082890613000002,1.6129350452829614,0.20386165765003716,-1.364054236476406, ,0.18941505301091974,0.18534558898138823,0.044618519663865555,0.0026701803623567118,0.18203392171887645,-0.1473198645709313, ,1.1700880527496338
0.019304114547693783,0.020970370039408333,-0.10018096834727323, ,0.020383828845685906,0.02026356757419267,-0.10103181953406125, ,0.001545736210413063, ,0.02716712796285351,-0.00995003697523384,-0.042911108858979044,-0.03352136619319084,-0.010675231729818485,-0.003576212228488289, ,0.05175344762492377, ,0.035178076535486574, ,0.0012144419301616896, ,0.2083979466109484,-0.2020035237910905,0.11082890613000002,1.6129350452829614,0.20386165765003716,-1.364054236476406, ,0.18941505301091974,0.18534558898138823,0.044618519663865555,0.0026701803623567118,0.18203392171887645,-0.1473198645709313, ,1.1753571033477783
0.019585090448184343,0.020864681499295063,-0.10060273263629865, ,0.02054255708459015,0.02020103665816158,-0.1012505725071602, ,0.0013329903725350918, ,0.027637844678536517,-0.011283861529063905,-0.03941926272660733,-0.08676924018607893,-0.07369194992346768,-0.017127180428902572, ,0.04944748996047516, ,0.1138389623402144, ,0.0012157166445958122, ,0.21035952076100142,-0.2001114542369055,0.11126834844000001,1.6129350452829614,0.205364659147457,-1.3652798334170666, ,0.19406327517069688,0.18979388311694156,0.04105363793814434,0.002528920292412552,0.12240631146557533,-0.09835673030347744, ,1.1806600093841553
0.019585090448184343,0.020864681499295063,-0.10060273263629865, ,0.02070155825890587,0.02013895937811442,-0.10146874445884811, ,0.0015884424592485838, ,0.027637844678536517,-0.011283861529063905,-0.03941926272660733,-0.08676924018607893,-0.07369194992346768,-0.017127180428902572, ,0.04944748996047516, ,0.1138389623402144, ,0.001219681812836799, ,0.21035952076100142,-0.2001114542369055,0.11126834844000001,1.6129350452829614,0.205364659147457,-1.3652798334170666, ,0.19406327517069688,0.18979388311694156,0.04105363793814434,0.002528920292412552,0.12240631146557533,-0.09835673030347744, ,1.1859230995178223
0.019852483350806038,0.02074728132605664,-0.10098334952944243, ,0.020860813370106732,0.020077382738641028,-0.10168632777642106, ,0.0013998828383009457, ,0.02678844843185883,-0.011353259959554184,-0.038520229744454945,0.030196005606202038,0.05737271903853469,0.010702692882520716, ,0.048273445916582, ,0.0648331923861191, ,0.0012215786657364216, ,0.212305649445306,-0.19820393921697205,0.11166501318000001,1.6129350452829614,0.20741420664393861,-1.3668694232323721, ,0.19811470053960498,0.18754336276377626,0.04032610511392406,0.002405710940451605,0.26030842001825305,-0.21310327468282078, ,1.1911790370941162
0.019852483350806038,0.02074728132605664,-0.10098334952944243, ,0.021020303707292017,0.020016353023109293,-0.10190331487997994, ,0.0016566221099762412, ,0.02678844843185883,-0.011353259959554184,-0.038520229744454945,0.030196005606202038,0.05737271903853469,0.010702692882520716, ,0.048273445916582, ,0.0648331923861191, ,0.0012261103682805865, ,0.212305649445306,-0.19820393921697205,0.11166501318000001,1.6129350452829614,0.20741420664393861,-1.3668694232323721, ,0.19811470053960498,0.18754336276377626,0.04032610511392406,0.002405710940451605,0.26030842001825305,-0.21310327468282078, ,1.1964669227600098
0.019986874486968634,0.02069129417334302,-0.10117499902115823, ,0.021180010845658695,0.01995591579726178,-0.10211969822273108, ,0.0016902107288407678, ,0.02680189791351847,-0.01083323599056327,-0.03857672073707701,0.0430277162512415,0.06246122148326622,0.01239370910649432, ,0.04820647380404761, ,0.07584657620358447, ,0.001230894908080176, ,0.21329415925320674,-0.1972772112720651,0.11186593813000001,1.6129350452829614,0.20864393514182755,-1.3680355418459214, ,0.19770196158014744,0.18214384176289977,0.040531327022900764,0.0023472985297552655,0.26503382937927894,-0.22063148147763684, ,1.2018160820007324
0.019986874486968634,0.02069129417334302,-0.10117499902115823, ,0.021339916644966147,0.019896115912812002,-0.1023354702912877, ,0.0019518517146893122, ,0.02680189791351847,-0.01083323599056327,-0.03857672073707701,0.0430277162512415,0.06246122148326622,0.01239370910649432, ,0.04820647380404761, ,0.07584657620358447, ,0.0012382516101884324, ,0.21329415925320674,-0.1972772112720651,0.11186593813000001,1.6129350452829614,0.20864393514182755,-1.3680355418459214, ,0.19770196158014744,0.18214384176289977,0.040531327022900764,0.0023472985297552655,0.26503382937927894,-0.22063148147763684, ,1.2070751190185547
0.02040931494884635,0.020528056312083823,-0.10173957139387466, ,0.0215000032480108,0.019836997511041315,-0.10255062360597128, ,0.0015247848776727085, ,0.026992129506772045,-0.009922562460151498,-0.033324033681619444,-0.06492756613527881,-0.07474410337840658,-0.012511890769377037, ,0.0440173093441622, ,0.09900620555905976, ,0.0012411458856175666, ,0.21625968867690895,-0.19469009575919988,0.11243889831000001,1.6129350452829614,0.21178657463643272,-1.37076151111122, ,0.1944609458165385,0.16138935639195712,0.03500837696703297,0.0021886772752029043,0.12621371421016,-0.09551754921183897, ,1.2123429775238037
0.02040931494884635,0.020528056312083823,-0.10173957139387466, ,0.021660253079091262,0.019778604026395304,-0.10276515072111192, ,0.001782789356789192, ,0.026992129506772045,-0.009922562460151498,-0.033324033681619444,-0.06492756613527881,-0.07474410337840658,-0.012511890769377037, ,0.0440173093441622, ,0.09900620555905976, ,0.0012465623203292827, ,0.21625968867690895,-0.19469009575919988,0.11243889831000001,1.6129350452829614,0.21178657463643272,-1.37076151111122, ,0.1944609458165385,0.16138935639195712,0.03500837696703297,0.0021886772752029043,0.12621371421016,-0.09551754921183897, ,1.2176039218902588
0.02067935080676307,0.02042312953081606,-0.10208617348939329, ,0.021820648842479858,0.01972097819008054,-0.10297904422535037, ,0.001610216091944252, ,0.0288643349686901,-0.011614490601599177,-0.03921781736559568,-0.0039568671658548864,-0.0024812383675404267,-0.0017644784691632116, ,0.0500607972773167, ,0.004660533184785348, ,0.0012501628527215101, ,0.21833710382007535,-0.19288297626663137,0.11283167418000001,1.6129350452829614,0.21328957613385255,-1.3718237505715996, ,0.20674714936486008,0.18791473575934806,0.04148128,0.0020894711401783484,0.2078713803848893,-0.17912707708910838, ,1.2229089736938477
0.02067935080676307,0.02042312953081606,-0.10208617348939329, ,0.021981173520890452,0.01966416203366096,-0.10319229674193868, ,0.0018693000536504174, ,0.0288643349686901,-0.011614490601599177,-0.03921781736559568,-0.0039568671658548864,-0.0024812383675404267,-0.0017644784691632116, ,0.0500607972773167, ,0.004660533184785348, ,0.0012562328252796367, ,0.21833710382007535,-0.19288297626663137,0.11283167418000001,1.6129350452829614,0.21328957613385255,-1.3718237505715996, ,0.20674714936486008,0.18791473575934806,0.04148128,0.0020894711401783484,0.2078713803848893,-0.17912707708910838, ,1.2281830310821533
0.020973143745874383,0.020318079342268133,-0.10251524430806265, ,0.022141810373950892,0.019608196892654625,-0.10340490092904096, ,0.0016313196140240402, ,0.028484435438592567,-0.00909951339121171,-0.04369796161745021,0.09404883214757678,0.09456875498433999,0.01896179531597961, ,0.05294975028961271, ,0.1333726842893706, ,0.0012598744445878349, ,0.22042224169611596,-0.19104496584256592,0.11328667197000002,1.6129350452829614,0.21602230612916135,-1.374215466125809, ,0.19978303485993848,0.17129411833658983,0.04643968373177843,0.0019988861647157836,0.2996055155456339,-0.2608814975943955, ,1.2335379123687744
0.020973143745874383,0.020318079342268133,-0.10251524430806265, ,0.02230254293666852,0.019553123410130192,-0.10361684948003584, ,0.00188838389675278, ,0.028484435438592567,-0.00909951339121171,-0.04369796161745021,0.09404883214757678,0.09456875498433999,0.01896179531597961, ,0.05294975028961271, ,0.1333726842893706, ,0.0012659178047048055, ,0.22042224169611596,-0.19104496584256592,0.11328667197000002,1.6129350452829614,0.21602230612916135,-1.374215466125809, ,0.19978303485993848,0.17129411833658983,0.04643968373177843,0.0019988861647157836,0.2996055155456339,-0.2608814975943955, ,1.238976001739502
0.021263765643854564,0.020231460820530876,-0.10296156486843784, ,0.022463355017901324,0.019498981540303696,-0.10382813512381625, ,0.0016512070039200496, ,0.030355300538933597,-0.008336296218685882,-0.0459405176808337,0.08713612157746196,0.07277454606158311,0.01644955288222006, ,0.055690836501507614, ,0.11352811811733518, ,0.0012695872256497124, ,0.22244559770916278,-0.18936141007598498,0.11376241040000001,1.6129350452829614,0.21902830912400104,-1.3766666600071304, ,0.20948552220412975,0.16736673996202958,0.049162998518518526,0.001917501339282731,0.2871539779575393,-0.25007932497144875, ,1.244278907775879
0.021263765643854564,0.020231460820530876,-0.10296156486843784, ,0.022624230698828622,0.01944581055213472,-0.10403875062509087, ,0.0019048466248946844, ,0.030355300538933597,-0.008336296218685882,-0.0459405176808337,0.08713612157746196,0.07277454606158311,0.01644955288222006, ,0.055690836501507614, ,0.11352811811733518, ,0.0012755802388501366, ,0.22244559770916278,-0.18936141007598498,0.11376241040000001,1.6129350452829614,0.21902830912400104,-1.3766666600071304, ,0.20948552220412975,0.16736673996202958,0.049162998518518526,0.001917501339282731,0.2871539779575393,-0.25007932497144875, ,1.249561071395874
0.021566744030545947,0.02014965610754381,-0.10340922098216626, ,0.022785154331418787,0.019393649032923413,-0.10424868878468577, ,0.0016615584701165536, ,0.031201829004776513,-0.00854807261902385,-0.04530903512565133,-0.024758900757389093,-0.03029132618436151,-0.004518163745764685, ,0.05567344378391662, ,0.03912002884436904, ,0.0012791875120395425, ,0.22449212192083226,-0.1877319134395236,0.11424203770000001,1.6129350452829614,0.2212144931202481,-1.3786127039465543, ,0.20765195089380914,0.1667784561660295,0.04856344975609757,0.0018427217254823015,0.18026256710571698,-0.137511145413091, ,1.2548670768737793
0.021566744030545947,0.02014965610754381,-0.10340922098216626, ,0.022946110536897393,0.019342534891907067,-0.10445794243984544, ,0.0019115212034847694, ,0.031201829004776513,-0.00854807261902385,-0.04530903512565133,-0.024758900757389093,-0.03029132618436151,-0.004518163745764685, ,0.05567344378391662, ,0.03912002884436904, ,0.0012850424536269983, ,0.22449212192083226,-0.1877319134395236,0.11424203770000001,1.6129350452829614,0.2212144931202481,-1.3786127039465543, ,0.20765195089380914,0.1667784561660295,0.04856344975609757,0.0018427217254823015,0.18026256710571698,-0.137511145413091, ,1.260138988494873
0.021873272206697866,0.020061894731331027,-0.10384706577554595, ,0.02310708420422007,0.01929250536385631,-0.10466650446453338, ,0.0016690511702827787, ,0.03173989898675773,-0.009308164097606628,-0.04501203702293939,-0.0564308945672711,-0.05815826819058445,-0.01126119732723677, ,0.05585827229258012, ,0.0810348397020489, ,0.0012885654693761336, ,0.2265154779338791,-0.18607924860443956,0.11471129468,1.6129350452829614,0.22271749461766793,-1.3797566221470743, ,0.20902410034905458,0.17191474920012823,0.048269125818181824,0.0017740980654183795,0.1532630936850244,-0.11077170358732988, ,1.2653999328613281
0.021873272206697866,0.020061894731331027,-0.10384706577554595, ,0.023268060488539334,0.019243597012672132,-0.1048743677697336, ,0.0019158274699947707, ,0.03173989898675773,-0.009308164097606628,-0.04501203702293939,-0.0564308945672711,-0.05815826819058445,-0.01126119732723677, ,0.05585827229258012, ,0.0810348397020489, ,0.0012942678511999395, ,0.2265154779338791,-0.18607924860443956,0.11471129468,1.6129350452829614,0.22271749461766793,-1.3797566221470743, ,0.20902410034905458,0.17191474920012823,0.048269125818181824,0.0017740980654183795,0.1532630936850244,-0.11077170358732988, ,1.2709181308746338
0.022193616076279458,0.019968918708532027,-0.10428438998654152, ,0.02342902480967415,0.01919584573498239,-0.10508152530375228, ,0.0016611144677370845, ,0.031345891441484565,-0.00910238576469835,-0.040985538638738356,-0.003045426560990384,-0.03169009459465231,-0.00334325464920919, ,0.05239496840707353, ,0.0318342750244617, ,0.0012975727756732473, ,0.22867012040578774,-0.1843879701049844,0.11518314424000001,1.6129350452829614,0.22449376911461866,-1.3811233761549873, ,0.2146989628019701,0.1619401733079706,0.044493886927374306,0.001707961723590282,0.18594181616798425,-0.1543907520435301, ,1.2763519287109375
0.022522621294309944,0.019862525233067092,-0.1046908455233422, ,0.023589962850580713,0.019149286763738126,-0.10528797005251793, ,0.0014157982960918466, ,0.029608741827761728,-0.010230432919236462,-0.03514828874218971,0.030256287447522782,0.01008182346404324,0.00385391714464438, ,0.04708228490464735, ,0.03189094621511314, ,0.0012986283606769846, ,0.2309946630009293,-0.18263490974253543,0.11562647542000001,1.6129350452829614,0.22681658961063117,-1.3830174805178266, ,0.21277341156607796,0.16084227382791658,0.03847539014492755,0.0016423284516950722,0.22643146447980206,-0.18657857630709768, ,1.2817480564117432
0.022522621294309944,0.019862525233067092,-0.1046908455233422, ,0.02375086055582085,0.01910395467181044,-0.10549369503988279, ,0.0016518378631486677, ,0.029608741827761728,-0.010230432919236462,-0.03514828874218971,0.030256287447522782,0.01008182346404324,0.00385391714464438, ,0.04708228490464735, ,0.03189094621511314, ,0.0013017541084864687, ,0.2309946630009293,-0.18263490974253543,0.11562647542000001,1.6129350452829614,0.22681658961063117,-1.3830174805178266, ,0.21277341156607796,0.16084227382791658,0.03847539014492755,0.0016423284516950722,0.22643146447980206,-0.18657857630709768, ,1.2870140075683594
0.022805331873495403,0.019760329434854763,-0.10501691393115918, ,0.02391170413003102,0.01905988337558711,-0.10569869332792481, ,0.0014763154804544325, ,0.030037425623688784,-0.011042380607960948,-0.034621562361414254,0.03797533431633713,0.02168884554619026,0.006601833043267468, ,0.04714693720630221, ,0.04373193677863889, ,0.0013032853485914508, ,0.2330411872125988,-0.1810749177019421,0.11598425146,1.613144735226446,0.22900277360687818,-1.3848001669769692, ,0.21765353568456597,0.16648586238328208,0.03801625661097852,0.0,0.24347292765628367,-0.20004879161961486, ,1.2922449111938477
0.022805331873495403,0.019760329434854763,-0.10501691393115918, ,0.0240724800363912,0.019017106138569478,-0.10590295801724876, ,0.0017155522310223262, ,0.030037425623688784,-0.011042380607960948,-0.034621562361414254,0.03797533431633713,0.02168884554619026,0.006601833043267468, ,0.04714693720630221, ,0.04373193677863889, ,0.0013068702780038933, ,0.2330411872125988,-0.1810749177019421,0.11598425146,1.613144735226446,0.22900277360687818,-1.3848001669769692, ,0.21765353568456597,0.16648586238328208,0.03801625661097852,0.0,0.24347292765628367,-0.20004879161961486, ,1.2975349426269531
0.023122325680470183,0.019650834999272688,-0.10539005077253846, ,0.024233174995097525,0.01897565557496807,-0.10610648224728514, ,0.0014842936073499902, ,0.03099220489950107,-0.010089625378979923,-0.03609846092383092,-0.02908330339344939,-0.06024968358870202,-0.008390765165436702, ,0.04863554446996725, ,0.06690143205657066, ,0.0013083997894637735, ,0.2352807797461239,-0.17937591646961268,0.11639387910000001,1.613144735226446,0.23118895760312522,-1.3866645321762525, ,0.21421431503040805,0.15922305630615904,0.03972272199501248,0.0,0.15657311362280726,-0.12581336243966879, ,1.303544044494629
0.023122325680470183,0.019650834999272688,-0.10539005077253846, ,0.024393775981828302,0.018935563653300132,-0.10630925919659402, ,0.0017242804569001383, ,0.03099220489950107,-0.010089625378979923,-0.03609846092383092,-0.02908330339344939,-0.06024968358870202,-0.008390765165436702, ,0.04863554446996725, ,0.06690143205657066, ,0.0013119543250828879, ,0.2352807797461239,-0.17937591646961268,0.11639387910000001,1.613144735226446,0.23118895760312522,-1.3866645321762525, ,0.21421431503040805,0.15922305630615904,0.03972272199501248,0.0,0.15657311362280726,-0.12581336243966879, ,1.3090989589691162
0.023122325680470183,0.019650834999272688,-0.10539005077253846, ,0.02455427022621434,0.01889686169998609,-0.10651128208316518, ,0.0019687814937298814, ,0.03099220489950107,-0.010089625378979923,-0.03609846092383092,-0.02908330339344939,-0.06024968358870202,-0.008390765165436702, ,0.04863554446996725, ,0.06690143205657066, ,0.0013175206570205742, ,0.23655503067037095,-0.1784414657918315,0.11663758162000001,1.613144735226446,0.23200877660171787,-1.3873330395984311, ,0.21373185035691616,0.15633763024459765,0.04158958621409923,0.0,0.12967782117377996,-0.10397089837945644, ,1.315006971359253
0.023309639175833837,0.019593276738207165,-0.10561146946329056, ,0.024714645210308403,0.01885958040294611,-0.10671254416471943, ,0.0019299527889075716, ,0.03170245010256859,-0.009523438537186606,-0.03778608800892402,-0.04806526139546586,-0.08620004964050983,-0.012913745025355966, ,0.05023474565572691, ,0.09869468517140735, ,0.0013226671455238263, ,0.23655503067037095,-0.1784414657918315,0.11663758162000001,1.613144735226446,0.23200877660171787,-1.3873330395984311, ,0.21373185035691616,0.15633763024459765,0.04158958621409923,0.0,0.12967782117377996,-0.10397089837945644, ,1.3203229904174805
0.023883941621630926,0.019419860538180057,-0.10631726002535685, ,0.02487488866705545,0.018823749815196283,-0.10691303873900891, ,0.001300875211745052, ,0.030969885400365414,-0.008989279051755977,-0.0389567830581396,0.013980828324332308,-0.005147920106711864,0.0011770694370638948, ,0.05057244196023223, ,0.014895466312039057, ,0.0013224855460756697, ,0.24041639710748322,-0.17558405462836846,0.11741405933000001,1.613144735226446,0.235151416096323,-1.3895689364228865, ,0.20765195089380914,0.15135078398480187,0.04293480194070081,0.0,0.20582436858481248,-0.16106910672688, ,1.3256170749664307
0.023883941621630926,0.019419860538180057,-0.10631726002535685, ,0.025034988578760155,0.018789399358446302,-0.10711275914411997, ,0.0015346690993893858, ,0.030969885400365414,-0.008989279051755977,-0.0389567830581396,0.013980828324332308,-0.005147920106711864,0.0011770694370638948, ,0.05057244196023223, ,0.014895466312039057, ,0.0013242391291609069, ,0.24041639710748322,-0.17558405462836846,0.11741405933000001,1.613144735226446,0.235151416096323,-1.3895689364228865, ,0.20765195089380914,0.15135078398480187,0.04293480194070081,0.0,0.20582436858481248,-0.16106910672688, ,1.3308830261230469
0.024193815410182506,0.019333019920781003,-0.10670289646605227, ,0.025194933175559354,0.018756557826694466,-0.10731169875877158, ,0.0013058275374995202, ,0.031203646808571895,-0.008676016469220718,-0.03808508667943639,0.009896742495421839,-0.017495514660619202,-0.00018865367025821397, ,0.04999414629042556, ,0.02009871685020317, ,0.0013240882144751579, ,0.24249381225064962,-0.17410901264939158,0.11784053874000001,1.613144735226446,0.2372009635928046,-1.3912402049783328, ,0.20902410034905458,0.1462202489344696,0.04225148944297083,0.0,0.19461581288533086,-0.15192928111919354, ,1.3361871242523193
0.024193815410182506,0.019333019920781003,-0.10670289646605227, ,0.025354710933886845,0.018725253389826464,-0.10750985100262041, ,0.0015389068188792919, ,0.031203646808571895,-0.008676016469220718,-0.03808508667943639,0.009896742495421839,-0.017495514660619202,-0.00018865367025821397, ,0.04999414629042556, ,0.02009871685020317, ,0.0013258347071938908, ,0.24249381225064962,-0.17410901264939158,0.11784053874000001,1.613144735226446,0.2372009635928046,-1.3912402049783328, ,0.20902410034905458,0.1462202489344696,0.04225148944297083,0.0,0.19461581288533086,-0.15192928111919354, ,1.3414440155029297
0.024495615882411368,0.019247235474020463,-0.10706303128163613, ,0.025514310574948792,0.018695513597209328,-0.10770720933655734, ,0.0013255569668626018, ,0.030930895567313273,-0.008751796168275221,-0.0359275974901525,-0.012725695064875118,-0.04173686532613077,-0.004452085025791004, ,0.04820898773238751, ,0.043633122528200785, ,0.0013258324673525094, ,0.24451716826369643,-0.1726957525334085,0.11824109235000001,1.613144735226446,0.23897723808975535,-1.3924436015059645, ,0.20765195089380914,0.1424879002379441,0.04012295093198993,0.0,0.16855175000335354,-0.12560613142166316, ,1.346771001815796
0.024495615882411368,0.019247235474020463,-0.10706303128163613, ,0.02567372106318654,0.0186673653812911,-0.10790376726301312, ,0.0015591722585375828, ,0.030930895567313273,-0.008751796168275221,-0.0359275974901525,-0.012725695064875118,-0.04173686532613077,-0.004452085025791004, ,0.04820898773238751, ,0.043633122528200785, ,0.00132769918568199, ,0.24451716826369643,-0.1726957525334085,0.11824109235000001,1.613144735226446,0.23897723808975535,-1.3924436015059645, ,0.20765195089380914,0.1424879002379441,0.04012295093198993,0.0,0.16855175000335354,-0.12560613142166316, ,1.352294921875
0.02474095942886179,0.01917848991715297,-0.1073442103762172, ,0.025832931604751766,0.01864083506119462,-0.10809951832625592, ,0.0014324685254640552, ,0.02998126652346662,-0.008458808943584757,-0.03449746824453202,-0.012188921365123062,-0.027217153835559373,-0.0018616236264418298, ,0.04648121240219219, ,0.029821039701945287, ,0.001328530688378673, ,0.24616983309878046,-0.17157595626664593,0.11855609082000002,1.6133544251699303,0.24034360308740974,-1.393312744322507, ,0.20190838629461869,0.13673910887387722,0.03866216388349515,0.0,0.17746432571755086,-0.12048270352814039, ,1.3576951026916504
0.02474095942886179,0.01917848991715297,-0.1073442103762172, ,0.0259919316459711,0.01861594834631686,-0.10829445611269554, ,0.001668637607928516, ,0.02998126652346662,-0.008458808943584757,-0.03449746824453202,-0.012188921365123062,-0.027217153835559373,-0.0018616236264418298, ,0.04648121240219219, ,0.029821039701945287, ,0.001331208695619223, ,0.24616983309878046,-0.17157595626664593,0.11855609082000002,1.6133544251699303,0.24034360308740974,-1.393312744322507, ,0.20190838629461869,0.13673910887387722,0.03866216388349515,0.0,0.17746432571755086,-0.12048270352814039, ,1.3629701137542725
0.02474095942886179,0.01917848991715297,-0.1073442103762172, ,0.026150710871820908,0.01859273033992215,-0.10848857425118037, ,0.001907899916547946, ,0.02998126652346662,-0.008458808943584757,-0.03449746824453202,-0.012188921365123062,-0.027217153835559373,-0.0018616236264418298, ,0.04648121240219219, ,0.029821039701945287, ,0.0013357140957827285, ,0.24616983309878046,-0.17157595626664593,0.11855609082000002,1.6133544251699303,0.24034360308740974,-1.393312744322507, ,0.20190838629461869,0.13673910887387722,0.03866216388349515,0.0,0.17746432571755086,-0.12048270352814039, ,1.3692200183868408
0.02474095942886179,0.01917848991715297,-0.1073442103762172, ,0.02630925920439072,0.018571205542742622,-0.10868186641330368, ,0.002148879282528679, ,0.02998126652346662,-0.008458808943584757,-0.03449746824453202,-0.012188921365123062,-0.027217153835559373,-0.0018616236264418298, ,0.04648121240219219, ,0.029821039701945287, ,0.0013420177018815345, ,0.24616983309878046,-0.17157595626664593,0.11855609082000002,1.6133544251699303,0.24034360308740974,-1.393312744322507, ,0.20190838629461869,0.13673910887387722,0.03866216388349515,0.0,0.17746432571755086,-0.12048270352814039, ,1.3745129108428955
0.025339134487327514,0.019000726995923346,-0.1079365360923678, ,0.026467566801356517,0.01855139785657255,-0.10887432631370156, ,0.0015345053476752072, ,0.0272220855670513,-0.00871727380650781,-0.023836648570733157,-0.15581865239272613,-0.13489611127725407,-0.014667482978117038, ,0.03721852523034899, ,0.20609804845243734, ,0.0013434983760799474, ,0.2503401088508617,-0.16891933615791271,0.11923405049000001,1.6137738050568995,0.24334960608224945,-1.3945387571017198, ,0.18643799913255554,0.11832536353924038,0.027089815510204087,-0.005880132179761455,0.055952987148511386,0.02892807334767324, ,1.3798060417175293
0.025636297139930306,0.018914454408662632,-0.10825279939127891, ,0.026625624054449383,0.01853333058786516,-0.10906594771035406, ,0.0013361262288368756, ,0.02971065646463178,-0.006319969503226707,-0.03773439701087621,0.09739429959518237,0.08232392379645821,0.02516409194521756, ,0.0484411998184965, ,0.1275256896408138, ,0.001343442100146794, ,0.2523866330625312,-0.1675987488364203,0.11959441911000002,1.6137738050568995,0.24539915357873104,-1.395719953216323, ,0.19647399908586083,0.1204275908102421,0.042476830720000004,-0.005880132179761455,0.28414102371259636,-0.2154602206991949, ,1.3857331275939941
0.025636297139930306,0.018914454408662632,-0.10825279939127891, ,0.026783421587924516,0.01851702645132983,-0.10925672440488735, ,0.0015753440619129667, ,0.02971065646463178,-0.006319969503226707,-0.03773439701087621,0.09739429959518237,0.08232392379645821,0.02516409194521756, ,0.0484411998184965, ,0.1275256896408138, ,0.0013451989331904773, ,0.2523866330625312,-0.1675987488364203,0.11959441911000002,1.6137738050568995,0.24539915357873104,-1.395719953216323, ,0.19647399908586083,0.1204275908102421,0.042476830720000004,-0.005880132179761455,0.28414102371259636,-0.2154602206991949, ,1.3910269737243652
0.02592879996051424,0.018871995075827895,-0.10865655233904446, ,0.02694095025703054,0.018502507573528535,-0.10944665024287487, ,0.0013361227244271584, ,0.029739001691308747,-0.003010134581673901,-0.04090597256585842,0.15041558320929807,0.10712198473599287,0.03378743817191, ,0.05066327785836814, ,0.1846614544299551, ,0.0013451306910193244, ,0.2542787026167162,-0.16654073443265155,0.12004812061000002,1.6137738050568995,0.2486784295731016,-1.3983123041648964, ,0.18941505301091974,0.09537381061152843,0.04617046817391306,-0.005880132179761455,0.3020308165349402,-0.24420584292762448, ,1.3963520526885986
0.02592879996051424,0.018871995075827895,-0.10865655233904446, ,0.027098201146479182,0.018489795496472464,-0.10963571911413784, ,0.0015723686672159474, ,0.029739001691308747,-0.003010134581673901,-0.04090597256585842,0.15041558320929807,0.10712198473599287,0.03378743817191, ,0.05066327785836814, ,0.1846614544299551, ,0.0013468264968118364, ,0.2542787026167162,-0.16654073443265155,0.12004812061000002,1.6137738050568995,0.2486784295731016,-1.3983123041648964, ,0.18941505301091974,0.09537381061152843,0.04617046817391306,-0.005880132179761455,0.3020308165349402,-0.24420584292762448, ,1.4016540050506592
0.026184898569568106,0.018850780193813792,-0.1090008083974023, ,0.027255165568914556,0.018478911181218735,-0.1098239249530467, ,0.0014004566671605315, ,0.032871543939343925,-0.002210401771521061,-0.0442775763047243,-0.1080267190494858,-0.07054717293253236,0.0034662255764125933, ,0.05518992698281494, ,0.12902133720119138, ,0.001347223757332938, ,0.25584641739018377,-0.16577618387810333,0.12043700761000001,1.6137738050568995,0.2503180675702869,-1.3989142103479884, ,0.19366722767034852,0.09312751870311164,0.049933578432601884,-0.005880132179761455,0.12592866133270067,0.01644317871132104, ,1.4068920612335205
0.026184898569568106,0.018850780193813792,-0.1090008083974023, ,0.0274118350633827,0.018469875011466713,-0.11001126173882186, ,0.001634465623064273, ,0.032871543939343925,-0.002210401771521061,-0.0442775763047243,-0.1080267190494858,-0.07054717293253236,0.0034662255764125933, ,0.05518992698281494, ,0.12902133720119138, ,0.0013493358298750802, ,0.25584641739018377,-0.16577618387810333,0.12043700761000001,1.6137738050568995,0.2503180675702869,-1.3989142103479884, ,0.19366722767034852,0.09312751870311164,0.049933578432601884,-0.005880132179761455,0.12592866133270067,0.01644317871132104, ,1.412217140197754
0.02656541707207889,0.018828804932412426,-0.10954439328410019, ,0.027568201393800385,0.01846270679715558,-0.11019772349583647, ,0.001251576847858871, ,0.030793493897770575,-0.0015983811887146193,-0.046536496462947725,-0.1722176475329825,-0.0684853597000996,-0.015569811327769864, ,0.05582508031254784, ,0.18533468201587844, ,0.001348622260663283, ,0.25797789166346974,-0.1646950012757119,0.12104496762000001,1.6135641151134148,0.2514111595684104,-1.3978452638141863, ,0.16648586238328208,0.08960995425729064,0.05171692051948052,0.009443471793793358,0.0978591258863552,0.08790607530105564, ,1.417531967163086
0.02656541707207889,0.018828804932412426,-0.10954439328410019, ,0.02772425654742527,0.018457425778059998,-0.11038330429391542, ,0.0014780402864258508, ,0.030793493897770575,-0.0015983811887146193,-0.046536496462947725,-0.1722176475329825,-0.0684853597000996,-0.015569811327769864, ,0.05582508031254784, ,0.18533468201587844, ,0.0013495600724441712, ,0.25797789166346974,-0.1646950012757119,0.12104496762000001,1.6135641151134148,0.2514111595684104,-1.3978452638141863, ,0.16648586238328208,0.08960995425729064,0.05171692051948052,0.009443471793793358,0.0978591258863552,0.08790607530105564, ,1.4229609966278076
0.02656541707207889,0.018828804932412426,-0.10954439328410019, ,0.027879992733325365,0.0184540506273865,-0.11056799824863686, ,0.0017077227765949579, ,0.030793493897770575,-0.0015983811887146193,-0.046536496462947725,-0.1722176475329825,-0.0684853597000996,-0.015569811327769864, ,0.05582508031254784, ,0.18533468201587844, ,0.0013521367825459752, ,0.25797789166346974,-0.1646950012757119,0.12104496762000001,1.6135641151134148,0.2514111595684104,-1.3978452638141863, ,0.16648586238328208,0.08960995425729064,0.05171692051948052,0.009443471793793358,0.0978591258863552,0.08790607530105564, ,1.4286811351776123
0.02698489375199048,0.018811408186461587,-0.11016970340640712, ,0.02803540238084711,0.018452599455371786,-0.11075179952163486, ,0.0012534544156736355, ,0.028095941171570486,-0.0006483064368352524,-0.03866900349179626,-0.013296667791845618,0.04586058025003927,0.0027215116329474265, ,0.04780265727552123, ,0.047748379399751094, ,0.001351431908496887, ,0.26034877065585665,-0.16352114587882977,0.12174496422000002,1.613983495000384,0.2540072530639538,-1.398001914221045, ,0.16825698857884888,0.06921731696460305,0.04400224176795581,0.016462737683683584,0.21451249637379996,-0.04943893149013065, ,1.4343130588531494
0.02698489375199048,0.018811408186461587,-0.11016970340640712, ,0.028190478138086502,0.01845308981287738,-0.11093470232089855, ,0.0014720900475241388, ,0.028095941171570486,-0.0006483064368352524,-0.03866900349179626,-0.013296667791845618,0.04586058025003927,0.0027215116329474265, ,0.04780265727552123, ,0.047748379399751094, ,0.0013522876399793497, ,0.26034877065585665,-0.16352114587882977,0.12174496422000002,1.613983495000384,0.2540072530639538,-1.398001914221045, ,0.16825698857884888,0.06921731696460305,0.04400224176795581,0.016462737683683584,0.21451249637379996,-0.04943893149013065, ,1.4396591186523438
0.02727658952522085,0.018798362924795697,-0.11052900605738668, ,0.02834521287035705,0.018455538694988137,-0.11111670090107559, ,0.0012668344546987024, ,0.02666085981258186,-0.0017627847057651552,-0.02958456090406866,-0.010554964769920067,0.057860614665229834,-0.014777789769661986, ,0.03986420825441752, ,0.05881526457733951, ,0.0013516858569844155, ,0.26220222654567055,-0.16280293172152688,0.12216107331,1.6144028748873531,0.2564667100597317,-1.3986188979051908, ,0.17671683716661224,0.06590065386004916,0.034855167439824954,0.03844031955788894,0.23164863536392555,-0.043231392156789866, ,1.4449329376220703
0.02727658952522085,0.018798362924795697,-0.11052900605738668, ,0.028499599658659988,0.018459962544607366,-0.11129778956377052, ,0.0014836767449462392, ,0.02666085981258186,-0.0017627847057651552,-0.02958456090406866,-0.010554964769920067,0.057860614665229834,-0.014777789769661986, ,0.03986420825441752, ,0.05881526457733951, ,0.0013526088701869457, ,0.263970732373868,-0.16215422216009204,0.12250199758000001,1.6146125648308374,0.2579697115571516,-1.3982109200430402, ,0.18214384176289977,0.06473188373701963,0.03571482403587444,-0.02821802844733494,0.12670688946657654,0.05950792371064309, ,1.4504609107971191
0.02754930311186605,0.018780050694392612,-0.11081710285647293, ,0.028653631798153487,0.018466377256054083,-0.1114779626578481, ,0.001324639026433266, ,0.02854523999263357,-0.0016880120646967918,-0.030194711948091497,-0.12923799827382706,-0.06173869142152773,0.0310279713613572, ,0.0415860642595068, ,0.14322744540548737, ,0.0013524146351608785, ,0.263970732373868,-0.16215422216009204,0.12250199758000001,1.6146125648308374,0.2579697115571516,-1.3982109200430402, ,0.18214384176289977,0.06473188373701963,0.03571482403587444,-0.02821802844733494,0.12670688946657654,0.05950792371064309, ,1.4557280540466309
0.027844058352636994,0.01877350789495106,-0.1111311239035279, ,0.02880730279662174,0.018474798178659997,-0.11165721457973361, ,0.00139732376520157, ,0.028177091823141136,0.0003863224084872659,-0.030696319818984744,-0.04529407889730765,-0.0279780077686948,-0.0067758350524593945, ,0.04166967481325505, ,0.05323809958834808, ,0.00135272435329909, ,0.26585507919517876,-0.1615750171945252,0.12287532910000001,1.6144028748873531,0.2594727130545714,-1.3979662996611708, ,0.17837770969637368,0.048342812816337635,0.036533971376146786,0.01987224149737766,0.14928614301519458,0.003777952104269247, ,1.461733102798462
0.027844058352636994,0.01877350789495106,-0.1111311239035279, ,0.028960606372944727,0.018485240120365436,-0.11183553977371329, ,0.0013512880927791433, ,0.028177091823141136,0.0003863224084872659,-0.030696319818984744,-0.04529407889730765,-0.0279780077686948,-0.0067758350524593945, ,0.04166967481325505, ,0.05323809958834808, ,0.0013527145158982686, ,0.26585507919517876,-0.1615750171945252,0.12287532910000001,1.6144028748873531,0.2594727130545714,-1.3979662996611708, ,0.17837770969637368,0.048342812816337635,0.036533971376146786,0.01987224149737766,0.14928614301519458,0.003777952104269247, ,1.467432975769043
0.028105474173490602,0.018773822889782812,-0.11141537887415968, ,0.029113536455566993,0.018497717351317545,-0.11201293273223822, ,0.0012039495197975715, ,0.025321080915207243,-0.0004089158472292821,-0.02767850399965201,-0.0008930901743684229,0.009235949281363294,1.3103119046460718e-06, ,0.03751564919528036, ,0.009278153072471308, ,0.0013517025091220735, ,0.26751546676313703,-0.1611039304891975,0.12321366079000001,1.6144028748873531,0.26097571455199126,-1.398130072980004, ,0.1619401733079706,0.04984083065045734,0.03291076760330579,0.016123573005563774,0.1709720153904114,-0.04302300597944472, ,1.4727461338043213
0.028105474173490602,0.018773822889782812,-0.11141537887415968, ,0.029266087180968098,0.018512243607463643,-0.11218938799622032, ,0.0014193436494019476, ,0.025321080915207243,-0.0004089158472292821,-0.02767850399965201,-0.0008930901743684229,0.009235949281363294,1.3103119046460718e-06, ,0.03751564919528036, ,0.009278153072471308, ,0.0013521595438536942, ,0.26751546676313703,-0.1611039304891975,0.12321366079000001,1.6144028748873531,0.26097571455199126,-1.398130072980004, ,0.1619401733079706,0.04984083065045734,0.03291076760330579,0.016123573005563774,0.1709720153904114,-0.04302300597944472, ,1.4780209064483643
0.02837050484358763,0.018770284821218064,-0.11171631274898619, ,0.029418252892130722,0.018528832094152053,-0.11236490015533931, ,0.0012556834857213584, ,0.02587767914789379,0.00017951349875126724,-0.030307781423572357,-0.025658516334107376,-0.011685185444471882,-0.000843028513400814, ,0.03985283074006925, ,0.02819357102220106, ,0.0013515120535306584, ,0.2691140724681015,-0.16059423011949867,0.12355717764000002,1.6144028748873531,0.26261535254917656,-1.3984869429426743, ,0.15816156926411795,0.04846626228726802,0.03539735893333334,0.012957861450512602,0.14590720309112756,-0.01644371424918359, ,1.483302116394043
0.02837050484358763,0.018770284821218064,-0.11171631274898619, ,0.029570028137011067,0.018547495489724872,-0.1125394638483389, ,0.001471757096146702, ,0.02587767914789379,0.00017951349875126724,-0.030307781423572357,-0.025658516334107376,-0.011685185444471882,-0.000843028513400814, ,0.03985283074006925, ,0.02819357102220106, ,0.0013523136871480986, ,0.2691140724681015,-0.16059423011949867,0.12355717764000002,1.6144028748873531,0.26261535254917656,-1.3984869429426743, ,0.15816156926411795,0.04846626228726802,0.03539735893333334,0.012957861450512602,0.14590720309112756,-0.01644371424918359, ,1.488577127456665
0.028630075074481977,0.01878633084905329,-0.11203731417451335, ,0.029721407667007333,0.018568245949118323,-0.11271307376333232, ,0.001302005711572938, ,0.027649621473356138,0.002547144823743365,-0.034769547523599245,-0.014289062195177027,-0.014874110901844376,-0.01597827240447446, ,0.04449619027926802, ,0.020624394734293946, ,0.0013519805217469386, ,0.2706972327073175,-0.16018492527716477,0.12394476835000001,1.6150319447178065,0.2639817175468309,-1.3985392983578113, ,0.16084227382791658,0.03482456570953056,0.04073864838874681,0.031878224636799735,0.14285605012049468,-0.010852060485932222, ,1.493844985961914
0.028630075074481977,0.01878633084905329,-0.11203731417451335, ,0.029872386435429776,0.018591095107456136,-0.1128857246380994, ,0.0015169887366290045, ,0.027649621473356138,0.002547144823743365,-0.034769547523599245,-0.014289062195177027,-0.014874110901844376,-0.01597827240447446, ,0.04449619027926802, ,0.020624394734293946, ,0.0013530661021080048, ,0.2706972327073175,-0.16018492527716477,0.12394476835000001,1.6150319447178065,0.2639817175468309,-1.3985392983578113, ,0.16084227382791658,0.03482456570953056,0.04073864838874681,0.031878224636799735,0.14285605012049468,-0.010852060485932222, ,1.5004420280456543
0.02885560002097725,0.018811406034296683,-0.1123208352766713, ,0.030022959595969893,0.018616054083647623,-0.11305741126038996, ,0.0013940713546086861, ,0.029371371178328352,0.0034600567811003515,-0.03628548182142346,0.01141251933285665,-0.001858922675323078,-0.058591378414639836, ,0.046811169915271594, ,0.011560202811074224, ,0.0013533341102942836, ,0.27201009729593567,-0.15993007509231538,0.12427791488,1.6156610145482602,0.2652114460447199,-1.398643593349533, ,0.17191474920012823,0.030621794630032523,0.042819385806451615,0.08073528668533914,0.15941046724050356,-0.01942121127722147, ,1.505868911743164
0.029220560298726442,0.018852430271575033,-0.11275877794836181, ,0.03017312250116944,0.01864313348398485,-0.11322812846822487, ,0.0010823445871414286, ,0.02891401064481641,0.0032665949317788002,-0.0341911002662157,-0.015425095082247368,-0.0056836927917412235,0.02044135393080211, ,0.04489679266307666, ,0.016437493583815736, ,0.0013515744380660185, ,0.27417246250071853,-0.15956710664722681,0.12479772717000001,1.6158707044917449,0.26726099354120153,-1.3988446445824492, ,0.17222675418960212,0.02754628201987541,0.04073864838874681,0.0,0.16886819400178596,-0.011025064538933947, ,1.5113170146942139
0.029220560298726442,0.018852430271575033,-0.11275877794836181, ,0.03032287070089019,0.018672343405738354,-0.11339787115019634, ,0.0012868409468914151, ,0.02891401064481641,0.0032665949317788002,-0.0341911002662157,-0.015425095082247368,-0.0056836927917412235,0.02044135393080211, ,0.04489679266307666, ,0.016437493583815736, ,0.0013511568026390855, ,0.27417246250071853,-0.15956710664722681,0.12479772717000001,1.6158707044917449,0.26726099354120153,-1.3988446445824492, ,0.17222675418960212,0.02754628201987541,0.04073864838874681,0.0,0.16886819400178596,-0.011025064538933947, ,1.516632080078125
0.029506810165538862,0.018887692126157957,-0.11308868148644796, ,0.03047219994078311,0.018703693440753493,-0.1135666342457692, ,0.0010928274221117863, ,0.02801248019303988,0.0037807701870246927,-0.03179855777571482,-0.038423438435543786,-0.02291618476453204,0.007009367866670461, ,0.042545758265519484, ,0.044737899300974424, ,0.0013495008450716028, ,0.27587918646592213,-0.1593354246610001,0.12519309562,1.6156610145482602,0.26876399503862136,-1.398763381680861, ,0.16736673996202958,0.019886198985429752,0.03829041230769231,0.011897461609546108,0.14452460856745156,0.022485847100391643, ,1.5219910144805908
0.029506810165538862,0.018887692126157957,-0.11308868148644796, ,0.03062110616075782,0.018737192679048113,-0.1137344127455823, ,0.001296639698437692, ,0.02801248019303988,0.0037807701870246927,-0.03179855777571482,-0.038423438435543786,-0.02291618476453204,0.007009367866670461, ,0.042545758265519484, ,0.044737899300974424, ,0.0013491641498701128, ,0.27587918646592213,-0.1593354246610001,0.12519309562,1.6156610145482602,0.26876399503862136,-1.398763381680861, ,0.16736673996202958,0.019886198985429752,0.03829041230769231,0.011897461609546108,0.14452460856745156,0.022485847100391643, ,1.5272729396820068
0.029789732796229217,0.018929781180234327,-0.11340949447341793, ,0.03076958549345172,0.018772849712408966,-0.11390120169175019, ,0.0011074812785813067, ,0.027413684932350916,0.00425650817718795,-0.030862274754353707,-0.017089195473447914,-0.005402704250568187,0.017332119820721748, ,0.041498288958050904, ,0.01792210412682683, ,0.0013476345114442343, ,0.27757818769825154,-0.15916552453776714,0.12558068633000002,1.6158707044917449,0.2704036330358066,-1.3986301792026876, ,0.16475163465012285,0.014363090897301466,0.03739157633802818,0.005440666026893981,0.1606762500761379,0.004739180073287594, ,1.532573938369751
0.029789732796229217,0.018929781180234327,-0.11340949447341793, ,0.03091763426269953,0.018810672637987833,-0.11406699617816302, ,0.0013109756117657815, ,0.027413684932350916,0.00425650817718795,-0.030862274754353707,-0.017089195473447914,-0.005402704250568187,0.017332119820721748, ,0.041498288958050904, ,0.01792210412682683, ,0.0013474039523267598, ,0.27757818769825154,-0.15916552453776714,0.12558068633000002,1.6158707044917449,0.2704036330358066,-1.3986301792026876, ,0.16475163465012285,0.014363090897301466,0.03739157633802818,0.005440666026893981,0.1606762500761379,0.004739180073287594, ,1.5378639698028564
0.03000137273373918,0.01896480734545222,-0.11364502795708126, ,0.031065248982002632,0.018850669061897862,-0.11423179135078762, ,0.001220307952766704, ,0.027413684932350916,0.00425650817718795,-0.030862274754353707,-0.017089195473447914,-0.005402704250568187,0.017332119820721748, ,0.041498288958050904, ,0.01792210412682683, ,0.0013466096023295093, ,0.2788524386224986,-0.15907285174327646,0.12586716642,1.616080394435229,0.2716333615336956,-1.3985711167141281, ,0.15763611554563253,0.01063639362439344,0.034931604210526324,0.013222989997497665,0.16610132650751921,0.0030065587378034636, ,1.543226957321167
0.03000137273373918,0.01896480734545222,-0.11364502795708126, ,0.031212426352998313,0.01889284610281131,-0.11439558240797006, ,0.0014265907867752608, ,0.025952308499735382,0.004316163153930167,-0.02862292699666643,-0.00964457355362721,0.008296168346733026,0.011848740242790097, ,0.038877030888344315, ,0.012721045411962605, ,0.0013471063798726507, ,0.2788524386224986,-0.15907285174327646,0.12586716642,1.616080394435229,0.2716333615336956,-1.3985711167141281, ,0.15763611554563253,0.01063639362439344,0.034931604210526324,0.013222989997497665,0.16610132650751921,0.0030065587378034636, ,1.548516035079956
0.030305857231792025,0.01902260217526675,-0.11396741254412929, ,0.03135916326392908,0.018937210395555005,-0.114558364600735, ,0.001210772351263924, ,0.027292273007547066,0.005588575605656525,-0.02872254751203965,0.025712565281421924,-0.010030146072193408,-0.0521965554058704, ,0.040013561186177826, ,0.0275992806975187, ,0.001346264811794819, ,0.2807136172451867,-0.15901106988028266,0.12626512745000001,1.6169191542091674,0.27340963603064633,-1.3985493321396514, ,0.16561420865352666,0.0020005010890084885,0.03555538285714287,0.07962893944109854,0.1449625172965626,-0.005782809730695476, ,1.5538389682769775
0.030305857231792025,0.01902260217526675,-0.11396741254412929, ,0.03150545678811219,0.018983768094708,-0.1147201332330886, ,0.0014167341376997188, ,0.027292273007547066,0.005588575605656525,-0.02872254751203965,0.025712565281421924,-0.010030146072193408,-0.0521965554058704, ,0.040013561186177826, ,0.0275992806975187, ,0.00134669713894761, ,0.2807136172451867,-0.15901106988028266,0.12626512745000001,1.6169191542091674,0.27340963603064633,-1.3985493321396514, ,0.16561420865352666,0.0020005010890084885,0.03555538285714287,0.07962893944109854,0.1449625172965626,-0.005782809730695476, ,1.5591590404510498
