NicholasDascanio/dvrk_moveit_final/test/execution/third_experiment_notsharpbends/thirdexp_200vel5.0/thirdexp_200vel5.0_13.csv
Current Position (x),Current Position (y),Current Position (z), ,Planned Position (x),Planned Position (y),Planned Position (z), ,Position Error,,Cartesian linear Velocity(x),Cartesian linear Velocity(y),Cartesian linear Velocity(z),Cartesian Angular Velocity(x),Cartesian Angular Velocity(y),Cartesian Angular Velocity(z), ,Total Linear Velocity, ,Total Angular Velocity, ,MSE, ,Joint 1 Position,Joint 2 Position,Joint 3 Position,Joint 4 Position,Joint 5 Position,Joint 6 Position, ,Joint 1 Velocity,Joint 2 Velocity,Joint 3 Velocity,Joint 4 Velocity,Joint 5 Velocity,Joint 6 Velocity, ,Time Stamp
0.009990863812835739,0.020079498140302344,-0.07998793015092154, ,0.010169697941935313,0.02011613168409697,-0.08011245174048062, ,0.0002209735018686108, ,0.001546140514868564,0.0004608475517199923,-0.0013802086385826474,0.18378855488467388,-0.13870595968577043,-0.03724785057171733, ,0.0021231831865532714, ,0.2302554584780616, ,1.84144584890509e-05, ,0.14081631122860971,-0.24364449944890906,0.08966956446,1.6049668274305493,0.14579114524972495,-1.3126176903983988, ,0.0005920870534344484,-0.004050637550157778,0.00044224361005998667,0.000771719028533155,-0.15856193765552248,-0.0640312834453916, ,0.052390098571777344
0.010076524537906499,0.020136645078319915,-0.08014007449640585, ,0.010229657965815674,0.020225450692554273,-0.08030721524715907, ,0.0002434590610864711, ,0.000859746112586564,0.0012633032531921748,-0.0033224949125702317,-0.10469515876362645,-0.011803920384689068,-8.838194506724041e-05, ,0.003657057687771511, ,0.10535847761136334, ,2.1110571043412815e-05, ,0.14090126129022618,-0.2438221223050162,0.08982382297000001,1.605176517374034,0.14100886775793453,-1.3174576889640641, ,0.0038834638819215074,-0.004892075841280348,0.0035997314169491533,-0.000714925617097773,-0.00788687178890399,0.10944115712344413, ,0.10492300987243652
0.01010141949469271,0.020193874694545064,-0.08029208235489305, ,0.010291877186179679,0.020329875854089116,-0.0805042624315922, ,0.00031589687018381544, ,0.0005289196692201544,0.0016034472528128796,-0.004154375061398635,-0.012820427840437557,0.04082261561073309,0.013124594534401216, ,0.004484376351268038, ,0.04278842500111547, ,2.5171917198028946e-05, ,0.14107888414633335,-0.24403835882549452,0.08998845180000001,1.605176517374034,0.1422385962558235,-1.313968119389601, ,0.004471686234030002,-0.006378205157817586,0.004506028718528997,-0.000714925617097773,0.04690734130468933,0.019041531292000664, ,0.15204691886901855
0.010154763599796631,0.020278709758989655,-0.0804981362326919, ,0.010356317016554411,0.020429501306693514,-0.0807035406248132, ,0.0003248889579046678, ,0.0011187717663366542,0.0017904443808599618,-0.00410199584063735,0.0005691877999071106,-0.005143322581203738,-0.004278490582852776, ,0.00461342727510808, ,0.005174721322399762, ,2.763045977608913e-05, ,0.1413877934613023,-0.24440905000345728,0.09021400626000001,1.6053862073175185,0.14237523275558894,-1.3144062522538595, ,0.006524357976431086,-0.008502307685734827,0.0045188117787234045,0.005747039800487154,0.0,0.00863419923875848, ,0.1993861198425293
0.010216877322296581,0.020378836946395675,-0.08072495264818574, ,0.010422939237199884,0.02052442038438084,-0.08090499757891109, ,0.00030995520203586254, ,0.0010589285029516948,0.0017459485794126684,-0.00331929136450579,0.02193244041011835,-0.006007948599626747,-0.0029553648707699057, ,0.003897096506220925, ,0.022740435095138834, ,2.888109373631485e-05, ,0.14175076190639088,-0.24489558217453342,0.09046419023,1.6053862073175185,0.14237523275558894,-1.3138345010728756, ,0.007118537879195292,-0.010220897353116222,0.0037479556517647063,0.004525541565413014,0.0,-0.01119390355032587, ,0.24656295776367188
0.010267046810471013,0.02046114177256581,-0.08090253070830868, ,0.010491705993632949,0.020614725620044978,-0.08110858146575403, ,0.0003413453697200206, ,0.001420921657853294,0.0022563928904770314,-0.005332171699277156,-0.0008996464402484338,-0.0053948188991876445,-0.00880609071056722, ,0.005961743223632169, ,0.005469317175119172, ,3.0816122154376286e-05, ,0.14205194848848562,-0.24531260974974156,0.09066122631000001,1.6058055872044876,0.14237523275558894,-1.3135077861123134, ,0.007986204387946826,-0.010071649513124297,0.005854028489525911,0.010713314419600444,0.0,0.01234133748052476, ,0.2884979248046875
0.010330120390910134,0.020550645025481155,-0.08111164565057127, ,0.010562579795148675,0.020700508748315454,-0.08131424087571322, ,0.0003428430184370234, ,0.001808303199617858,0.0024006916837134547,-0.005678728551940543,0.007519732775467298,-0.009616165024451045,-0.006761422646634517, ,0.0064250477810381965, ,0.012207252143149497, ,3.2297876634407256e-05, ,0.14244580786507108,-0.24571419185920124,0.09088807706,1.6058055872044876,0.14237523275558894,-1.3126909987109077, ,0.012353099970950045,-0.01043658378733818,0.006258865037328095,0.008749367461459958,0.0003450878084412842,0.004046241749452456, ,0.3328399658203125
0.01039316556960743,0.020629526978537097,-0.08129210990655876, ,0.010635523513342002,0.020781860708415003,-0.08152192481638348, ,0.00036709376312804706, ,0.0017925670459424654,0.0019079873469863213,-0.004771136569671813,0.013977098906021928,-0.008561784810939466,-0.0021828921481269275, ,0.005442192251006805, ,0.01639095636334888, ,3.3787064991294776e-05, ,0.14306362649500903,-0.24616211036590624,0.09114344619,1.6062249670914566,0.1426485057551198,-1.3120970471168951, ,0.013811227122467002,-0.0075056587107095035,0.005281436180371354,0.00446452495426364,0.004289636011740564,-0.005929365101212843, ,0.3752429485321045
0.01046499018413877,0.020704100262234137,-0.08148329145033248, ,0.010710500380627801,0.020858871647013694,-0.08173158271130569, ,0.00038193977064758826, ,0.00169873660609016,0.001650204214042194,-0.004391991330242358,0.00013003231935356917,-0.003460316282177626,-0.0010875403475699825, ,0.004989836455219486, ,0.0034627583719589665, ,3.560494393765134e-05, ,0.14349609953596562,-0.24636290142063608,0.09130418615000001,1.6062249670914566,0.14292177875465073,-1.312074846703866, ,0.013873821865273505,-0.005625460058503403,0.004848953278538814,0.00446452495426364,0.00962564792458443,0.006058778372144639, ,0.41199207305908203
0.010550568369632335,0.02078761868264939,-0.081732553348017, ,0.010787473988760237,0.020931630921083553,-0.08194316439868446, ,0.0003481677926753749, ,0.002215387214794645,0.0019855050522988435,-0.006110636922649871,-0.00438299675420047,-0.013200255506314516,-0.0036947991265308127, ,0.0067963265389938176, ,0.013908896342250154, ,3.6742106984913585e-05, ,0.14410619543302935,-0.24657141520824014,0.09157511076000001,1.606434657034941,0.14305841525441615,-1.31177787090686, ,0.016149921980679167,-0.004351598064266,0.006639771371404753,0.004993510410250388,0.0017917412435286603,0.00938538770376492, ,0.4487450122833252
0.010638184773517783,0.02086267620259079,-0.08195788898738829, ,0.010866408287351446,0.021000227100752118,-0.08215662013010899, ,0.0003324158373763929, ,0.002135993926344956,0.0018117343125308865,-0.0055113329374823486,0.0004339662862972804,-0.00758014873714437,-0.0011281364318182227, ,0.006182203654067223, ,0.0075925606042997395, ,3.754233133046675e-05, ,0.14479351865883533,-0.2467490380643473,0.09182140586000001,1.6066443469784255,0.14333168825394704,-1.3115106342734093, ,0.016888581875506455,-0.0040697870526421424,0.006019959002267574,0.004010589492536541,0.008596601441298238,0.004156511521746172, ,0.48717403411865234
0.01070467758209479,0.020919438804668792,-0.08213768532645904, ,0.010947267582389363,0.021064747972155164,-0.08237190056927071, ,0.0003671803948522203, ,0.0023133193520083156,0.002083165770995631,-0.006607443768874962,0.0038170034420646616,-0.001424924047032512,0.0006464728370908356, ,0.007304063198841352, ,0.004074298862680298, ,3.896159539916095e-05, ,0.14533410996003104,-0.24685715632458646,0.09201714565,1.6066443469784255,0.14387823425300877,-1.3115479121874922, ,0.01780764525398213,-0.003931942034371646,0.007171909734353896,0.004010589492536541,0.01589486481652621,0.0006382320884913044, ,0.5186119079589844
0.01078159574867688,0.02098405604836699,-0.08234829538860557, ,0.01103001653475536,0.021125280540289757,-0.08258895679068043, ,0.0003735975836690227, ,0.002550093408904838,0.0022320504435402646,-0.0071838546824735785,-0.014391327725308123,-0.00568340357340014,-0.0020893991822689066, ,0.007943097234425985, ,0.015472923794233467, ,4.028072758099168e-05, ,0.14589786945984945,-0.24695755185195137,0.09224529269000001,1.6070637268653947,0.14401487075277425,-1.311169257650345, ,0.01914402694340746,-0.0038579078106928534,0.007789149887530563,0.006001449367733948,0.012382590184464137,0.01905877710002217, ,0.551408052444458
0.01085567351697475,0.021041484132884467,-0.08254574939481532, ,0.011114620158740629,0.021181911031865536,-0.08280774027838601, ,0.0003942236678757609, ,0.0024102301253755005,0.0018734973404465319,-0.006381916953116556,0.016048079054237312,0.005656696367333716,0.0007186140465296098, ,0.007074465742259576, ,0.01701584686510417, ,4.164268563804356e-05, ,0.1464925198911647,-0.24701933371494517,0.09245918054,1.6070637268653947,0.144561416751836,-1.3112882143045688, ,0.020165095953776194,-0.002063836642249676,0.006928582653327534,0.006001449367733948,0.025127419611951776,-0.013151872995104771, ,0.582798957824707
0.010935767134862589,0.021098202135466204,-0.08275250032787626, ,0.011201043820562643,0.021234724898156303,-0.08302820292468811, ,0.0004062291306606916, ,0.0028051174641926715,0.001970906956606159,-0.007253670501317374,-0.006428124608814279,-0.01904953174578722,-0.0056074241080651425, ,0.008023022744651739, ,0.02010486074657131, ,4.33351275395006e-05, ,0.14709489305535423,-0.24704250191356783,0.09268214242000002,1.6072734168088794,0.14469805325160143,-1.311236274727984, ,0.02050495712153647,-0.0006345202028807022,0.007812070387444827,0.005960329569081014,0.0,0.007902884051375951, ,0.6089119911193848
0.010994431018583963,0.021142542388493592,-0.08291751352478821, ,0.011289253236880917,0.021283806817851338,-0.08325029702885674, ,0.00046649827436276, ,0.0029113049592851908,0.0023360272468138563,-0.008994732992437167,0.022161790649292506,0.011995277127643166,0.006145362830683685, ,0.009738477369129783, ,0.025199832921581247, ,4.538285406954369e-05, ,0.1475582570278077,-0.24705022464644205,0.09285973415000001,1.6074831067523636,0.14524459925066321,-1.3116819463427696, ,0.02236552947406806,0.00026527439382689554,0.009630478548972188,0.002475674303009614,0.03483120295342686,-0.02205914378214999, ,0.6349999904632568
0.011064275802644028,0.02119256646860556,-0.08310991398411659, ,0.011379214473312376,0.02132924069990595,-0.08347397529584617, ,0.0005004066850894026, ,0.0035442445657578973,0.0026998517783440954,-0.010350802444601633,0.005391554297417276,-0.006206798380704193,-0.005204897791072635, ,0.011268983113577874, ,0.008221501387583171, ,4.79136101712201e-05, ,0.14829191665085903,-0.2470347791806936,0.09316695488000001,1.607692796695848,0.14524459925066321,-1.3113552313822074, ,0.025393883210722713,0.00027764361429035036,0.011084767933194156,0.009840731201291163,0.01731788227471646,-0.0042497683670405925, ,0.6566429138183594
0.011171113035152953,0.02127018186240902,-0.08341321842301917, ,0.011470893942946177,0.021371109686391675,-0.0836991908350105, ,0.0004264214332691778, ,0.003831514139401569,0.002690377725692257,-0.01029715065883345,0.027814039696123585,0.012757609625327865,0.0023817337284038867, ,0.011311496125537475, ,0.030600282544490476, ,4.971951011417624e-05, ,0.14887112161642588,-0.24701933371494517,0.09339121305,1.607692796695848,0.14620105474902126,-1.3121351567080821, ,0.0315272231091265,0.00041360777640548144,0.011100217087108016,0.00861540933992496,0.043521734725586576,-0.026973736250534626, ,0.678286075592041
0.011257701451770154,0.02132842067710376,-0.08363898420811426, ,0.01156425840485837,0.021409496155346246,-0.0839258971588177, ,0.0004276323654031917, ,0.004213938234467793,0.0028885566125517784,-0.011185720337800067,0.009625745487907877,-0.015289815847794293,0.004008920102157156, ,0.012297210017857716, ,0.018067464397194123, ,5.1426631942135094e-05, ,0.14948894024636383,-0.24700388824919672,0.09363361928000001,1.6079024866393328,0.14620105474902126,-1.3118901204876607, ,0.03141242686477021,0.0006019792266588857,0.012021744543396226,0.0,0.016638405444116287,-0.010216136321978358, ,0.6993439197540283
0.011302751882040368,0.021357495047582213,-0.0837534821215031, ,0.011659274962626252,0.02144448172362376,-0.0841540481815648, ,0.0005432573582313974, ,0.004518204823365421,0.00274997373455135,-0.01086871701930019,-0.005530453406232519,-0.030925724568097952,-0.010948523875717205, ,0.012087412461409201, ,0.03141633656671729, ,5.42658834925365e-05, ,0.14979784956133282,-0.24698844278344828,0.09374898909000001,1.6081121765828172,0.14633769124878673,-1.3119198596512165, ,0.03371116929252958,0.0014893333857891181,0.011772957516629714,0.011194072303366387,0.0,0.005678066346624296, ,0.7155740261077881
0.011389567196099338,0.021413018827062657,-0.08398271177256246, ,0.011755911062841958,0.0214761472497435,-0.08438359821809144, ,0.0005467201922912343, ,0.004644210499860902,0.0028787487633788623,-0.011744540051044387,0.02831269808415636,0.004953723826562923,0.021178926230853035, ,0.012953382053358083, ,0.028742790906670822, ,5.700818736263381e-05, ,0.15053923191725838,-0.24692666092045448,0.09400306193,1.6085315564697864,0.1472941467471448,-1.3126181062369509, ,0.03843537527682089,0.0023667810141949235,0.012651955138999207,-0.0102949370163465,0.047385599935072,-0.0321182647139157, ,0.7312130928039551
0.011441074650427948,0.02144142720338819,-0.08410321608821218, ,0.01185413449362661,0.02150457283673988,-0.084614501982493, ,0.0006603174015314327, ,0.005833827001181566,0.00324304580816613,-0.01442684506620207,-0.014722377107554481,-0.044765090276028686,0.008968506347635385, ,0.015896060586125672, ,0.047123890651678976, ,6.042981561049067e-05, ,0.1513655643348004,-0.24683398812596377,0.09428824573000001,1.6085315564697864,0.1475674197466757,-1.3126775845640626, ,0.042251532305641486,0.006013918489578606,0.01541995306873185,-0.0102949370163465,0.0,0.00727188826216967, ,0.7479279041290283
0.011551486184112902,0.021507936009600923,-0.08439263526817112, ,0.011953913383143378,0.021529837835011004,-0.08484671458683561, ,0.0006071370258142879, ,0.005331735664227832,0.0034735496870867185,-0.015004854012003648,0.04743168755137183,0.026730580767729325,0.02748504246705185, ,0.016298423130579266, ,0.05444527685251123, ,6.378345281458243e-05, ,0.15179803737575695,-0.2467799289958442,0.09444250424,1.6085315564697864,0.14825060224550288,-1.3132346740825447, ,0.043134973435668536,0.005115480106680578,0.01605726967741936,-0.0102949370163465,0.07470061443308086,-0.05396977367490806, ,0.7585930824279785
0.011615795605892735,0.021545035743409196,-0.0845666276029683, ,0.012055216198110816,0.02155202084516763,-0.0850801915398686, ,0.0006759342910345562, ,0.006972440529274644,0.004131580077081688,-0.019571509294156537,0.02752841859600597,0.0011887932395684448,-0.002263550639089144, ,0.02118322111764086, ,0.02755402308518535, ,6.751384319148984e-05, ,0.15229229227970734,-0.2466872562013535,0.09462787371,1.608321866526302,0.14879714824456466,-1.3135986669571897, ,0.051295644085659876,0.011295910196223162,0.020794793107049615,0.013596839264712307,0.050726324074792585,-0.036690159491852205, ,0.7690351009368896
0.0116873103380556,0.02158822039325415,-0.08476926334015286, ,0.012158011742315202,0.02157119972088155,-0.08531488874573748, ,0.0007208027458877724, ,0.00790267993024118,0.004752505054356356,-0.02196931598515033,0.010417838462263069,-0.01836912321903273,-0.008966768970336651, ,0.023826235523617685, ,0.021117550243086338, ,7.144521942977706e-05, ,0.15280199264940614,-0.24657141520824014,0.09484305785000001,1.6087412464132707,0.14920705774386098,-1.3138512419281385, ,0.05582173032851222,0.011335684904137599,0.02335602862170088,0.016421756323052577,0.034514174760569706,-0.01918476591359764, ,0.7795720100402832
0.011763469829809511,0.021633256732329638,-0.08497885690161361, ,0.012262269155124598,0.021587451571735077,-0.08555076250269757, ,0.0007602466022436948, ,0.008578502025904874,0.00510671522289143,-0.02389624926628404,0.0253401081836335,-0.0026094842953855455,-0.03190342450201066, ,0.025897875711581936, ,0.025473961196690716, ,7.553367084291706e-05, ,0.1533503066834761,-0.2464555742151268,0.09506601973,1.6091606263002398,0.1496169672431573,-1.3141038168990873, ,0.06146174971403549,0.013397845765702498,0.02540480306220096,0.04391225649285085,0.04968916044974359,-0.03204265419842393, ,0.7902541160583496
0.011763469829809511,0.021633256732329638,-0.08497885690161361, ,0.012367957909999958,0.02160085276606804,-0.08578776950182576, ,0.0010103442239671589, ,0.008578502025904874,0.00510671522289143,-0.02389624926628404,0.0253401081836335,-0.0026094842953855455,-0.03190342450201066, ,0.025897875711581936, ,0.025473961196690716, ,8.168374027136601e-05, ,0.1533503066834761,-0.2464555742151268,0.09506601973,1.6091606263002398,0.1496169672431573,-1.3141038168990873, ,0.06146174971403549,0.013397845765702498,0.02540480306220096,0.04391225649285085,0.04968916044974359,-0.03204265419842393, ,0.7956829071044922
0.011854893115737635,0.021685653850316747,-0.08524075898832736, ,0.012475047813008563,0.021611478933827193,-0.08602586682573463, ,0.0010032387966689366, ,0.008915773482786089,0.00511404291593532,-0.02586120642524166,0.034218959827728594,0.015776490976574062,-0.026773517568823246, ,0.027828877977944786, ,0.03768054287836807, ,0.0004627299075143645, ,0.15400673897778516,-0.24627795135901961,0.09534342579,1.6091606263002398,0.1503001497419845,-1.3144975489372883, ,0.06368922252246362,0.018776601020670913,0.027369091958762887,0.04318877418592547,0.07114656511858668,-0.04631036242960718, ,0.8009970188140869
0.011854893115737635,0.021685653850316747,-0.08524075898832736, ,0.012583509001335312,0.021619404969413114,-0.08626501194728399, ,0.0012587152763423798, ,0.008915773482786089,0.00511404291593532,-0.02586120642524166,0.034218959827728594,0.015776490976574062,-0.026773517568823246, ,0.027828877977944786, ,0.03768054287836807, ,0.000489262753141965, ,0.15400673897778516,-0.24627795135901961,0.09534342579,1.6091606263002398,0.1503001497419845,-1.3144975489372883, ,0.06368922252246362,0.018776601020670913,0.027369091958762887,0.04318877418592547,0.07114656511858668,-0.04631036242960718, ,0.8062460422515869
0.011959849947325144,0.02173812699160775,-0.08553814567579156, ,0.012693311941795586,0.021624705034529183,-0.08650516272829313, ,0.0012189967257990985, ,0.011115477125928565,0.005586893181506228,-0.032100388213566686,0.05137076456568825,0.0279210680109339,-0.0069694373556917245, ,0.03442676474227999, ,0.058468003274154516, ,0.0005128025587115499, ,0.15477901226520763,-0.24599993297554754,0.09565712797,1.6091606263002398,0.1512566052403426,-1.3151957955230227, ,0.08076335451784747,0.031123955906353157,0.03381913273885351,0.02911584969630582,0.10483107127659015,-0.07772932811508819, ,0.8115699291229248
0.012076309573742096,0.021801820815942397,-0.08589930473108187, ,0.012804427429346801,0.02162745256102904,-0.08674627741825441, ,0.001130452401823359, ,0.011115477125928565,0.005586893181506228,-0.032100388213566686,0.05137076456568825,0.0279210680109339,-0.0069694373556917245, ,0.03442676474227999, ,0.058468003274154516, ,0.000532104116308794, ,0.15560534468274964,-0.24566785546195588,0.09603694094000001,1.6091606263002398,0.15262297023799698,-1.3161466170797058, ,0.09204359026039842,0.03673904047946991,0.044246698666666674,0.02306006745690275,0.14969122372716018,-0.12042855154656433, ,0.8177499771118164
0.012076309573742096,0.021801820815942397,-0.08589930473108187, ,0.012916826585600139,0.02162772025376415,-0.08698831465304438, ,0.0013866226823135205, ,0.01331996924486933,0.007605296541486998,-0.042069149661791275,0.08763371115293281,0.05867908815073633,0.00883088473320089, ,0.04477806906773015, ,0.1054645482899037, ,0.0005579986183089373, ,0.15560534468274964,-0.24566785546195588,0.09603694094000001,1.6091606263002398,0.15262297023799698,-1.3161466170797058, ,0.09204359026039842,0.03673904047946991,0.044246698666666674,0.02306006745690275,0.14969122372716018,-0.12042855154656433, ,0.8232839107513428
0.01222174098402779,0.021883384798894262,-0.08635280354732437, ,0.013030480857332338,0.02162558009343174,-0.08723123345363605, ,0.0012215410550341802, ,0.01508028089437569,0.008051269221464114,-0.04576128872192985,0.06376541296224697,0.025744794988765737,0.009591233601798204, ,0.0488501110891428, ,0.06876497426162341, ,0.000577514572330268, ,0.1566015772235246,-0.2452662733524962,0.09651397566000001,1.609580006187209,0.1541259717354168,-1.3173722140203663, ,0.10214956034281031,0.04191561022900653,0.04812329764350454,0.015742249581243675,0.1279844576977106,-0.10272813934937129, ,0.8285191059112549
0.01222174098402779,0.021883384798894262,-0.08635280354732437, ,0.013145362014997193,0.02162110333942214,-0.08747499322481198, ,0.0014768808499982461, ,0.01508028089437569,0.008051269221464114,-0.04576128872192985,0.06376541296224697,0.025744794988765737,0.009591233601798204, ,0.0488501110891428, ,0.06876497426162341, ,0.0006032107516922102, ,0.1566015772235246,-0.2452662733524962,0.09651397566000001,1.609580006187209,0.1541259717354168,-1.3173722140203663, ,0.10214956034281031,0.04191561022900653,0.04812329764350454,0.015742249581243675,0.1279844576977106,-0.10272813934937129, ,0.8337969779968262
0.012381289833277291,0.021961433766627448,-0.08682954406235004, ,0.01326144215123716,0.021614360532666542,-0.08771955375387551, ,0.0012989400230770777, ,0.0160820616285437,0.007287524971218033,-0.04827505515156696,0.08185221225187417,0.06940670712213814,0.004283585699509501, ,0.05140254542644007, ,0.10731641745516253, ,0.0006225365647862343, ,0.15769048255879026,-0.2447642957156716,0.09701434360000001,1.6099993860741781,0.15549233673307122,-1.318568071797471, ,0.1131072009040176,0.057132415146580844,0.05056765561904762,0.03195462711683565,0.18028335730169062,-0.13328498484954357, ,0.8390979766845703
0.012381289833277291,0.021961433766627448,-0.08682954406235004, ,0.01337869367939445,0.0216054214984841,-0.08796487520936301, ,0.0015525900877873936, ,0.0160820616285437,0.007287524971218033,-0.04827505515156696,0.08185221225187417,0.06940670712213814,0.004283585699509501, ,0.05140254542644007, ,0.10731641745516253, ,0.0006476731464889684, ,0.15769048255879026,-0.2447642957156716,0.09701434360000001,1.6099993860741781,0.15549233673307122,-1.318568071797471, ,0.1131072009040176,0.057132415146580844,0.05056765561904762,0.03195462711683565,0.18028335730169062,-0.13328498484954357, ,0.8444581031799316
0.012550670529384446,0.02203223784137638,-0.08733939424344656, ,0.013497089332022493,0.02159435534942943,-0.08821091813975607, ,0.0013590450796713922, ,0.017636348670981582,0.006617600610309387,-0.051386014925084884,0.07612811418478332,0.06937453307055155,-0.01554306558069659, ,0.05472984525981275, ,0.10299493835297423, ,0.0006663934605200848, ,0.15879483335980438,-0.24415419981860786,0.09750693380000001,1.6102090760176624,0.1574052477297874,-1.3201279224492213, ,0.12324278124476726,0.07260668826202814,0.05363236202020203,0.05305461454745971,0.18638137450849943,-0.13942831639740447, ,0.849776029586792
0.012550670529384446,0.02203223784137638,-0.08733939424344656, ,0.013616602159397138,0.021581230488140042,-0.08845764347219363, ,0.0016093785167350155, ,0.017636348670981582,0.006617600610309387,-0.051386014925084884,0.07612811418478332,0.06937453307055155,-0.01554306558069659, ,0.05472984525981275, ,0.10299493835297423, ,0.0006905725645255957, ,0.15879483335980438,-0.24415419981860786,0.09750693380000001,1.6102090760176624,0.1574052477297874,-1.3201279224492213, ,0.12324278124476726,0.07260668826202814,0.05363236202020203,0.05305461454745971,0.18638137450849943,-0.13942831639740447, ,0.8550450801849365
0.012729751097554138,0.022090305627272027,-0.08782325931984344, ,0.013737205528027489,0.021566114610182967,-0.08870501251118276, ,0.0014377862644754677, ,0.01867877557793314,0.0047006480821405764,-0.047254049893194636,0.026844943752713152,8.594936336538607e-05,0.04722791545294883, ,0.05102879560396709, ,0.02684069264360113, ,0.0007092529070243426, ,0.16016947981141633,-0.2433742037983112,0.09805267189000001,1.6104187659611469,0.15904488572697267,-1.321464937293578, ,0.13793160110242844,0.08055767534674939,0.04931520594427245,-0.025283931238537654,0.1485798146788857,-0.11018170648605646, ,0.8603470325469971
0.012729751097554138,0.022090305627272027,-0.08782325931984344, ,0.013858873119167357,0.021549074706902666,-0.08895298693731248, ,0.00168645543627101, ,0.01867877557793314,0.0047006480821405764,-0.047254049893194636,0.026844943752713152,8.594936336538607e-05,0.04722791545294883, ,0.05102879560396709, ,0.02684069264360113, ,0.000733087115054749, ,0.16016947981141633,-0.2433742037983112,0.09805267189000001,1.6104187659611469,0.15904488572697267,-1.321464937293578, ,0.13793160110242844,0.08055767534674939,0.04931520594427245,-0.025283931238537654,0.1485798146788857,-0.11018170648605646, ,0.8656039237976074
0.01291749204403662,0.022122939444524533,-0.08827000725567455, ,0.013981578927325995,0.02153017706826777,-0.0892015288059645, ,0.0015334211843289053, ,0.01991851221290074,0.0024996114158256774,-0.0452805418465823,0.041823818234759266,0.019459432296793054,0.012968636275408235, ,0.04953102720442705, ,0.04612711702210344, ,0.0007521426881327052, ,0.16161363085889632,-0.24248608951777537,0.09851804000000002,1.6102090760176624,0.16068452372415798,-1.3227202733977945, ,0.15659561313279005,0.09905735026980249,0.047126661301775154,0.0144174258870522,0.17783962946241913,-0.13728936812401207, ,0.8708491325378418
0.01291749204403662,0.022122939444524533,-0.08827000725567455, ,0.014105297258778675,0.02150948728571782,-0.08945060054602486, ,0.0017835372988903807, ,0.01991851221290074,0.0024996114158256774,-0.0452805418465823,0.041823818234759266,0.019459432296793054,0.012968636275408235, ,0.04953102720442705, ,0.04612711702210344, ,0.0007761286093131162, ,0.16161363085889632,-0.24248608951777537,0.09851804000000002,1.6102090760176624,0.16068452372415798,-1.3227202733977945, ,0.15659561313279005,0.09905735026980249,0.047126661301775154,0.0144174258870522,0.17783962946241913,-0.13728936812401207, ,0.8761551380157471
0.013130901266295118,0.022142530862080196,-0.0887408356691663, ,0.014230002730078361,0.021487070255010815,-0.08970016495859648, ,0.001599364036318451, ,0.021501078429133385,0.001170807729378629,-0.045578805891634426,0.06490082188116893,0.037804277340521296,0.027783827849392522, ,0.050409272072330175, ,0.07510714587441178, ,0.0007948385053814194, ,0.16333580028984837,-0.2413894614496355,0.09900803762000002,1.6104187659611469,0.16287070772040502,-1.3244212811167968, ,0.17573507696013105,0.11337746900653618,0.04740717714285715,0.006180151503199513,0.21841931951577107,-0.17574224680639458, ,0.8815169334411621
0.013130901266295118,0.022142530862080196,-0.0887408356691663, ,0.014355670266565826,0.021462990179069993,-0.08995018521571138, ,0.0018505028964092129, ,0.021501078429133385,0.001170807729378629,-0.045578805891634426,0.06490082188116893,0.037804277340521296,0.027783827849392522, ,0.050409272072330175, ,0.07510714587441178, ,0.0008182977140709259, ,0.16333580028984837,-0.2413894614496355,0.09900803762000002,1.6104187659611469,0.16287070772040502,-1.3244212811167968, ,0.17573507696013105,0.11337746900653618,0.04740717714285715,0.006180151503199513,0.21841931951577107,-0.17574224680639458, ,0.8869330883026123
0.013176754158541361,0.022144499247585964,-0.08883689826600692, ,0.014482275100880229,0.021437310570830394,-0.09020062485904115, ,0.002015998753959288, ,0.021545104806592375,0.00068326350113107,-0.04481675499452253,0.06570271167583788,0.04150862710006895,0.013348705262761412, ,0.04973127706361548, ,0.07771506703199092, ,0.0008443346931989338, ,0.16370649146781116,-0.2411423339976603,0.09910785195,1.6106284559046316,0.16328061721970133,-1.324755534827886, ,0.17737746085695474,0.11658100928559063,0.04657547228070176,0.0210611667879823,0.22028198755152611,-0.17730577643471698, ,0.8923909664154053
0.01358835908362385,0.02213255543458442,-0.08965492444104103, ,0.014609792771470648,0.021410094256086195,-0.09045144779861011, ,0.0014831474614004064, ,0.02333971290729168,-0.002317577099402192,-0.043583169362139504,0.03371106093096638,0.020301492904977382,-0.039116102409141776, ,0.04949349466197964, ,0.03935008249082314, ,0.0008579264542244971, ,0.1671199393982184,-0.23876373227239917,0.09995562561000002,1.6114672156785694,0.16737971221266457,-1.3280980719387787, ,0.19406327517069688,0.14400142876854444,0.04499664271186441,0.06615980058329304,0.20461323570120174,-0.16485467583868252, ,0.8982639312744141
0.01358835908362385,0.02213255543458442,-0.08965492444104103, ,0.01473819912110613,0.02138140337633763,-0.09070261831150696, ,0.001727432769348059, ,0.02333971290729168,-0.002317577099402192,-0.043583169362139504,0.03371106093096638,0.020301492904977382,-0.039116102409141776, ,0.04949349466197964, ,0.03935008249082314, ,0.0008760411691229046, ,0.1671199393982184,-0.23876373227239917,0.09995562561000002,1.6114672156785694,0.16737971221266457,-1.3280980719387787, ,0.19406327517069688,0.14400142876854444,0.04499664271186441,0.06615980058329304,0.20461323570120174,-0.16485467583868252, ,0.9037349224090576
0.0138144818707984,0.022102561257035348,-0.09006961194462573, ,0.014867470295386188,0.02135129939163699,-0.09095410104059586, ,0.0015670035014663292, ,0.024222858316182646,-0.004315287233294903,-0.04233159392978762,-0.04966930846656743,-0.059179040762720805,-0.03545137892601917, ,0.04896256134587047, ,0.0772597122483928, ,0.0008901424412115459, ,0.16895794982228382,-0.23732730395779342,0.10038210502000001,1.6114672156785694,0.1688827137100844,-1.3291603113991584, ,0.1968816214906033,0.16002856923856792,0.0434027561852861,0.04120251341940268,0.13175811547952013,-0.10127110865003523, ,0.9090240001678467
0.0138144818707984,0.022102561257035348,-0.09006961194462573, ,0.014997582741251956,0.021319843083436554,-0.09120586099322933, ,0.0018175360544986107, ,0.024222858316182646,-0.004315287233294903,-0.04233159392978762,-0.04966930846656743,-0.059179040762720805,-0.03545137892601917, ,0.04896256134587047, ,0.0772597122483928, ,0.0009086903134772873, ,0.16895794982228382,-0.23732730395779342,0.10038210502000001,1.6114672156785694,0.1688827137100844,-1.3291603113991584, ,0.1968816214906033,0.16002856923856792,0.0434027561852861,0.04120251341940268,0.13175811547952013,-0.10127110865003523, ,0.914330005645752
0.014065821030542627,0.02205466897825882,-0.09051257391484004, ,0.015128513205496227,0.02128709455743445,-0.09145786353995963, ,0.0016161861358055985, ,0.025398378508267958,-0.005159276533415689,-0.04428800175729889,-0.0224760110971242,-0.03938763820576729,0.017030781726554846, ,0.05131396364394404, ,0.045347400516803874, ,0.000922562780581764, ,0.17099675130107908,-0.23563602545833823,0.10083580652000002,1.6116769056220543,0.17038571520750423,-1.3302225508595378, ,0.20810732797910259,0.17191474920012823,0.045381229401709404,-0.005704092504093781,0.17496638211282423,-0.1477753702575051, ,0.9196441173553467
0.014065821030542627,0.02205466897825882,-0.09051257391484004, ,0.015260238733273732,0.021253113246421342,-0.09171007441325035, ,0.0018716657510175062, ,0.025398378508267958,-0.005159276533415689,-0.04428800175729889,-0.0224760110971242,-0.03938763820576729,0.017030781726554846, ,0.05131396364394404, ,0.045347400516803874, ,0.0009408147607824514, ,0.17099675130107908,-0.23563602545833823,0.10083580652000002,1.6116769056220543,0.17038571520750423,-1.3302225508595378, ,0.20810732797910259,0.17191474920012823,0.045381229401709404,-0.005704092504093781,0.17496638211282423,-0.1477753702575051, ,0.925076961517334
0.014327672326783905,0.02200088378144005,-0.09097388173902753, ,0.015392736666612705,0.021217957913128107,-0.09196245970618891, ,0.0016506427113109306, ,0.02640118923925279,-0.006182064134072789,-0.04517236924743863,0.018698312751138077,0.01035291621710271,0.029509913758347668, ,0.052685706350314464, ,0.021368708068722767, ,0.0009542077409811019, ,0.17315911650586197,-0.23385207416439238,0.10130895237000001,1.6116769056220543,0.1725718992037513,-1.3320052373186804, ,0.22120499197778737,0.18355307844965332,0.046304684651162796,-0.005897280473071234,0.23951345351180206,-0.2004091789203669, ,0.9303960800170898
0.014327672326783905,0.02200088378144005,-0.09097388173902753, ,0.015525984642924094,0.021181686653071245,-0.09221498587119765, ,0.0019098104118028913, ,0.02640118923925279,-0.006182064134072789,-0.04517236924743863,0.018698312751138077,0.01035291621710271,0.029509913758347668, ,0.052685706350314464, ,0.021368708068722767, ,0.0009719040867370609, ,0.17315911650586197,-0.23385207416439238,0.10130895237000001,1.6116769056220543,0.1725718992037513,-1.3320052373186804, ,0.22120499197778737,0.18355307844965332,0.046304684651162796,-0.005897280473071234,0.23951345351180206,-0.2004091789203669, ,0.9356880187988281
0.014601296460123911,0.021934935001423857,-0.09143778292982199, ,0.015659960593512653,0.02114435689740039,-0.09246761971874683, ,0.0016752155973808534, ,0.027095030450963346,-0.007040093482445831,-0.0453180573754184,0.01703574985544454,0.012638669106119261,0.023051461615599587, ,0.05326753153340148, ,0.0212075832611776, ,0.0009846915687487662, ,0.17544504543663242,-0.23195228187733316,0.10178469080000001,1.6114672156785694,0.1750313561995292,-1.334010759585216, ,0.22648434739491832,0.1913244789485298,0.04643968373177843,0.0,0.24568178359931697,-0.20543903850282308, ,0.9410390853881836
0.014601296460123911,0.021934935001423857,-0.09143778292982199, ,0.015794642742087337,0.021106025415744606,-0.0927203284160653, ,0.0019380633050006281, ,0.027095030450963346,-0.007040093482445831,-0.0453180573754184,0.01703574985544454,0.012638669106119261,0.023051461615599587, ,0.05326753153340148, ,0.0212075832611776, ,0.001001716064038978, ,0.17544504543663242,-0.23195228187733316,0.10178469080000001,1.6114672156785694,0.1750313561995292,-1.334010759585216, ,0.22648434739491832,0.1913244789485298,0.04643968373177843,0.0,0.24568178359931697,-0.20543903850282308, ,0.9464840888977051
0.01487813461231444,0.02186163115781819,-0.09191172938383933, ,0.015930009603271275,0.021066748319058835,-0.09297307948585343, ,0.001692555394366725, ,0.028121737443526803,-0.007517623979111085,-0.04822630616711578,-0.021963013363387723,-0.021290243979208978,0.012261178954633923, ,0.05633048369806843, ,0.030584106610843046, ,0.001013836052290342, ,0.17770780616878018,-0.22996753952865745,0.10226950326,1.6114672156785694,0.1773541766955417,-1.335904863948055, ,0.22594509894873996,0.20147970606894008,0.04931520594427245,0.0,0.21013633405728815,-0.1763964530537795, ,0.9519729614257812
0.01487813461231444,0.02186163115781819,-0.09191172938383933, ,0.016066039981112577,0.021026581062470826,-0.0932258408049942, ,0.0019583964496926415, ,0.028121737443526803,-0.007517623979111085,-0.04822630616711578,-0.021963013363387723,-0.021290243979208978,0.012261178954633923, ,0.05633048369806843, ,0.030584106610843046, ,0.001030121576383485, ,0.17770780616878018,-0.22996753952865745,0.10226950326,1.6114672156785694,0.1773541766955417,-1.335904863948055, ,0.22594509894873996,0.20147970606894008,0.04931520594427245,0.0,0.21013633405728815,-0.1763964530537795, ,0.9574711322784424
0.015165269755934886,0.021782410003670788,-0.09239905346319291, ,0.01620271296759454,0.020985578448127516,-0.0934785806032654, ,0.001696056541357423, ,0.028708051524048386,-0.008462532993461256,-0.048206837175186396,-0.08321561186619401,-0.08294701582347738,-0.004804053589460676, ,0.056742099339095395, ,0.11749376643427106, ,0.001041408609688128, ,0.17996284416805375,-0.2279055698512395,0.10276727862000001,1.6116769056220543,0.178993814692727,-1.3372418787924123, ,0.22328692131404887,0.20902410034905458,0.049162998518518526,0.0,0.14405373979642094,-0.12246231893343083, ,0.9627509117126465
0.015165269755934886,0.021782410003670788,-0.09239905346319291, ,0.016340007941145648,0.02094379462804135,-0.09373126746205192, ,0.001964199503815813, ,0.028953383078729432,-0.008882464060084133,-0.04883098053171753,-0.09603732980630428,-0.09122669487183518,-0.008957600941416935, ,0.05746008370313533, ,0.13245829885907126, ,0.0010567884579235896, ,0.1821252093728366,-0.22583587744094732,0.10324560963000001,1.6116769056220543,0.1803601796903814,-1.3383560578293765, ,0.22120499197778737,0.21277341156607796,0.049777536000000004,0.0004350690412655399,0.1332621973584146,-0.11318466417324241, ,0.968217134475708
0.015445167045178444,0.02169569600130063,-0.09286863263313541, ,0.016477904565150532,0.020901283106937465,-0.09398387031305672, ,0.0017150491872260736, ,0.028953383078729432,-0.008882464060084133,-0.04883098053171753,-0.09603732980630428,-0.09122669487183518,-0.008957600941416935, ,0.05746008370313533, ,0.13245829885907126, ,0.0010675796174203515, ,0.1821252093728366,-0.22583587744094732,0.10324560963000001,1.6116769056220543,0.1803601796903814,-1.3383560578293765, ,0.22120499197778737,0.21277341156607796,0.049777536000000004,0.0004350690412655399,0.1332621973584146,-0.11318466417324241, ,0.9739279747009277
0.015735219971412494,0.021604543527611864,-0.09335936505107566, ,0.016616382786459646,0.020858096745099343,-0.09423635843701392, ,0.0014500855508295266, ,0.029025023643281838,-0.00939791346754371,-0.049116185083867815,-0.06610793578824978,-0.05767251704801218,-0.0027413651636085975, ,0.05782017305603009, ,0.08772737632432115, ,0.0010737490679592092, ,0.18434163370773904,-0.2236889577019129,0.10374597757000001,1.6116769056220543,0.18186318118780123,-1.3398266909904588, ,0.2222410809331868,0.21665968392344928,0.05009060226415095,0.0007646505313712457,0.16860097397279236,-0.14682061507385682, ,0.9792051315307617
0.015735219971412494,0.021604543527611864,-0.09335936505107566, ,0.016755422833899695,0.020814287761215855,-0.0944887014623999, ,0.0017148524096527817, ,0.029025023643281838,-0.00939791346754371,-0.049116185083867815,-0.06610793578824978,-0.05767251704801218,-0.0027413651636085975, ,0.05782017305603009, ,0.08772737632432115, ,0.0010839253114781548, ,0.18434163370773904,-0.2236889577019129,0.10374597757000001,1.6116769056220543,0.18186318118780123,-1.3398266909904588, ,0.2222410809331868,0.21665968392344928,0.05009060226415095,0.0007646505313712457,0.16860097397279236,-0.14682061507385682, ,0.9845740795135498
0.015735219971412494,0.021604543527611864,-0.09335936505107566, ,0.01689500521678423,0.020769907735227786,-0.09474086936414564, ,0.0019875293427623984, ,0.029025023643281838,-0.00939791346754371,-0.049116185083867815,-0.06610793578824978,-0.05767251704801218,-0.0027413651636085975, ,0.05782017305603009, ,0.08772737632432115, ,0.0010980441244669713, ,0.18434163370773904,-0.2236889577019129,0.10374597757000001,1.6116769056220543,0.18186318118780123,-1.3398266909904588, ,0.2222410809331868,0.21665968392344928,0.05009060226415095,0.0007646505313712457,0.16860097397279236,-0.14682061507385682, ,0.9899411201477051
0.016022749087026333,0.02150785580911061,-0.0938450479239631, ,0.01703511072342371,0.02072500761117406,-0.09499283246234812, ,0.0017190511133812697, ,0.028521125427093626,-0.010240083341550786,-0.04725597773038343,-0.03729409707108656,-0.05380222408668209,-0.004153311635702607, ,0.05613769975448235, ,0.06546215192127981, ,0.001107598078142576, ,0.18654261257689303,-0.22151886976425583,0.10424116035000001,1.6116769056220543,0.18363945568475198,-1.3416835174392152, ,0.21815388864016272,0.21865654736974832,0.04812329764350454,0.0009329719811974148,0.16823120664511182,-0.1774938399532056, ,0.9952630996704102
0.0163042078832772,0.02140224775106153,-0.09431152196738014, ,0.017175720419634895,0.02067963770003791,-0.0952445614209828, ,0.0014670589657025106, ,0.0275200497463397,-0.01069809388141664,-0.04515900180858118,-0.03002957770265713,-0.05999033263797196,-0.008191163489575324, ,0.05395496080143191, ,0.06708522740317803, ,0.0011130444552268175, ,0.18868180958305322,-0.21932561362797606,0.10471560249,1.6116769056220543,0.18527909368193726,-1.3434289259842749, ,0.20810732797910259,0.21616615389173302,0.04590435596541788,0.0010157316143421648,0.15148948814893684,-0.1822099525515615, ,1.0006229877471924
0.0163042078832772,0.02140224775106153,-0.09431152196738014, ,0.017316815647253226,0.02063384768259443,-0.09549602724661554, ,0.0017374883900105095, ,0.0275200497463397,-0.01069809388141664,-0.04515900180858118,-0.03002957770265713,-0.05999033263797196,-0.008191163489575324, ,0.05395496080143191, ,0.06708522740317803, ,0.0011223645139549323, ,0.18868180958305322,-0.21932561362797606,0.10471560249,1.6116769056220543,0.18527909368193726,-1.3434289259842749, ,0.20810732797910259,0.21616615389173302,0.04590435596541788,0.0010157316143421648,0.15148948814893684,-0.1822099525515615, ,1.0058751106262207
0.016583281726635042,0.021289374263261177,-0.09476721082117515, ,0.01745837802264042,0.02058768661225559,-0.09574720128711398, ,0.00148947655241265, ,0.026810772923879816,-0.01164946860749587,-0.04366321698959719,-0.05866820942794277,-0.043163322176258394,-0.0059952214611130785, ,0.05254525841114046, ,0.07283455552237779, ,0.0011277632204028398, ,0.19078239292484228,-0.2171014665601994,0.10517837802,1.6118865955655386,0.1867820951793571,-1.3448178804052167, ,0.20277124264630508,0.22017851869714797,0.044246698666666674,0.0,0.16348875857057033,-0.15759367820228146, ,1.011152982711792
0.016583281726635042,0.021289374263261177,-0.09476721082117515, ,0.017600389435196744,0.020541202917917792,-0.09599805523036029, ,0.0017633055357568865, ,0.026810772923879816,-0.01164946860749587,-0.04366321698959719,-0.05866820942794277,-0.043163322176258394,-0.0059952214611130785, ,0.05254525841114046, ,0.07283455552237779, ,0.0011369739785963768, ,0.19078239292484228,-0.2171014665601994,0.10517837802,1.6118865955655386,0.1867820951793571,-1.3448178804052167, ,0.20277124264630508,0.22017851869714797,0.044246698666666674,0.0,0.16348875857057033,-0.15759367820228146, ,1.016427993774414
0.016852952440784236,0.021173800335414578,-0.0952116705320661, ,0.017742832045870193,0.020494444406807706,-0.09624856110296218, ,0.0015259594507372862, ,0.026517527475216934,-0.011269207993588161,-0.04466515105235396,0.010652857889730956,-0.005777151641153485,0.001370844463367895, ,0.053152140415332595, ,0.012111197224599177, ,0.0011425309139126755, ,0.19281347167076332,-0.21490048769104544,0.10562948694000002,1.6118865955655386,0.18855836967630782,-1.3466747068539728, ,0.19894537014354458,0.21665968392344928,0.045381229401709404,0.0,0.1977575450268316,-0.22339889991570216, ,1.0217170715332031
0.016852952440784236,0.021173800335414578,-0.0952116705320661, ,0.017885688285666824,0.020447458267328755,-0.096498691268966, ,0.0018029249852356335, ,0.026517527475216934,-0.011269207993588161,-0.04466515105235396,0.010652857889730956,-0.005777151641153485,0.001370844463367895, ,0.053152140415332595, ,0.012111197224599177, ,0.0011518322388608861, ,0.19281347167076332,-0.21490048769104544,0.10562948694000002,1.6118865955655386,0.18855836967630782,-1.3466747068539728, ,0.19894537014354458,0.21665968392344928,0.045381229401709404,0.0,0.1977575450268316,-0.22339889991570216, ,1.027143955230713
0.017121395619824047,0.021063640770584778,-0.09567941767571717, ,0.018028940854161457,0.020400291071907804,-0.09674841842856761, ,0.0015512684437898568, ,0.02695647755725485,-0.010581389844241805,-0.04738275262558728,-0.03375551967753311,-0.02059445454964742,-0.0032449691813368838, ,0.05553145720857869, ,0.03953894067869405, ,0.0011573799639293442, ,0.1947904912865648,-0.21272267702051412,0.10610522537000001,1.6118865955655386,0.1906079171727894,-1.348754369110122, ,0.19406327517069688,0.21373185035691616,0.048269125818181824,0.0,0.17751587764216395,-0.17602827193424375, ,1.0325090885162354
0.017121395619824047,0.021063640770584778,-0.09567941767571717, ,0.018172572718006957,0.020352988779841145,-0.09699771561682491, ,0.0018297292163653742, ,0.02695647755725485,-0.010581389844241805,-0.04738275262558728,-0.03375551967753311,-0.02059445454964742,-0.0032449691813368838, ,0.05553145720857869, ,0.03953894067869405, ,0.0011665902276613445, ,0.1947904912865648,-0.21272267702051412,0.10610522537000001,1.6118865955655386,0.1906079171727894,-1.348754369110122, ,0.19406327517069688,0.21373185035691616,0.048269125818181824,0.0,0.17751587764216395,-0.17602827193424375, ,1.0377960205078125
0.017402913628485048,0.020958680261154668,-0.09617984508707197, ,0.018316567109445504,0.020305596740141357,-0.0972465562023698, ,0.001548920066430231, ,0.027386868831858573,-0.009882254896819667,-0.04981921819012084,-0.023921153403306226,-0.03317733423213767,-0.006909537437133537, ,0.05770315457004071, ,0.040898046354586486, ,0.0011717568471041673, ,0.19670572903937247,-0.21062209367872506,0.10659781557,1.6118865955655386,0.19224755516997472,-1.3505814563953225, ,0.18979388311694156,0.21041450456423677,0.05105388307692308,0.0,0.16019548682955326,-0.18323979939371773, ,1.0431060791015625
0.017402913628485048,0.020958680261154668,-0.09617984508707197, ,0.018460907524817802,0.02025815969438325,-0.09749491388611975, ,0.001827426084791412, ,0.027386868831858573,-0.009882254896819667,-0.04981921819012084,-0.023921153403306226,-0.03317733423213767,-0.006909537437133537, ,0.05770315457004071, ,0.040898046354586486, ,0.001180499103606664, ,0.19860552132643172,-0.20853695580268444,0.10711373899000001,1.6118865955655386,0.19375055666739455,-1.3521337682965457, ,0.18355307844965332,0.20407944421176513,0.0515495518446602,0.0,0.15368619267860906,-0.17323064940673427, ,1.0483880043029785
0.0176695944502866,0.020865464688439212,-0.09666633005610357, ,0.01860557772307397,0.020210721779550602,-0.09774276269999028, ,0.0015695413981487104, ,0.027135703645704345,-0.009379458264591184,-0.05037331993002309,-0.026920500508772788,-0.03324999010142414,-0.0077491299901367985, ,0.05798096248301818, ,0.042777924769962034, ,0.0011856180811664278, ,0.19860552132643172,-0.20853695580268444,0.10711373899000001,1.6118865955655386,0.19375055666739455,-1.3521337682965457, ,0.18355307844965332,0.20407944421176513,0.0515495518446602,0.0,0.15368619267860906,-0.17323064940673427, ,1.0542011260986328
0.0176695944502866,0.020865464688439212,-0.09666633005610357, ,0.01875056172428288,0.020163326530881952,-0.09799007700560664, ,0.0018476455899515763, ,0.027135703645704345,-0.009379458264591184,-0.05037331993002309,-0.026920500508772788,-0.03324999010142414,-0.0077491299901367985, ,0.05798096248301818, ,0.042777924769962034, ,0.0011942158410207806, ,0.19860552132643172,-0.20853695580268444,0.10711373899000001,1.6118865955655386,0.19375055666739455,-1.3521337682965457, ,0.18355307844965332,0.20407944421176513,0.0515495518446602,0.0,0.15368619267860906,-0.17323064940673427, ,1.0595030784606934
0.01796570442684576,0.02076173177853116,-0.0972157562671676, ,0.01889584380814375,0.020116016884718126,-0.09823683149301578, ,0.0015246972189829385, ,0.026455974062015334,-0.009386952618947043,-0.04937541686341439,-0.011107575405309024,-0.015180789462802081,-0.006328469352814961, ,0.056797581229101037, ,0.018802689614648472, ,0.001198452781763885, ,0.20035858168888068,-0.20658310438550564,0.10760503290000001,1.6120962855090233,0.19539019466457985,-1.3538791768416054, ,0.17871363758657396,0.20020451805584552,0.05040763139240506,0.001361057323920565,0.16502264493383834,-0.1884170204720119, ,1.0650660991668701
0.01819811252568495,0.020676125296702926,-0.09764080293859097, ,0.01904140851249458,0.020068835181347264,-0.09848300117939829, ,0.0013376274826710423, ,0.02543485147719901,-0.009571864575155332,-0.04639851945124515,-0.021648555721779282,-0.006926707882598745,-0.005108423268257031, ,0.053771506101092804, ,0.022724968784475375, ,0.001200214486838659, ,0.20218114664719766,-0.20454430290671036,0.10811188229000002,1.6120962855090233,0.19702983266176513,-1.355624585386665, ,0.17222675418960212,0.19366722767034852,0.047548691104477625,0.001361057323920565,0.16866083814779056,-0.1678580275273598, ,1.0703251361846924
0.01819811252568495,0.020676125296702926,-0.09764080293859097, ,0.019187240631823945,0.020021823167852296,-0.09872856140778052, ,0.0016092557824864855, ,0.02543485147719901,-0.009571864575155332,-0.04639851945124515,-0.021648555721779282,-0.006926707882598745,-0.005108423268257031, ,0.053771506101092804, ,0.022724968784475375, ,0.001205327503034257, ,0.20218114664719766,-0.20454430290671036,0.10811188229000002,1.6120962855090233,0.19702983266176513,-1.355624585386665, ,0.17222675418960212,0.19366722767034852,0.047548691104477625,0.001361057323920565,0.16866083814779056,-0.1678580275273598, ,1.0755670070648193
0.01845751098973251,0.02057625149105393,-0.0981082771895158, ,0.019333325215779962,0.019975022000956553,-0.0989734878457466, ,0.0013700791721521696, ,0.025268814746792823,-0.009728848288991915,-0.04493901569543213,0.018794544539298696,0.004300848237418623,-0.0026524661504433293, ,0.052465975826360554, ,0.01927560424112256, ,0.0012073614742579347, ,0.20395737520826931,-0.2025672832909089,0.10859150959000001,1.6120962855090233,0.1989427436584813,-1.3576745084792585, ,0.1728541740591453,0.1905561075471301,0.04617046817391306,0.0013650391897915073,0.18070275482130377,-0.20518126924895522, ,1.0807931423187256
0.01845751098973251,0.02057625149105393,-0.0981082771895158, ,0.01947964756768021,0.01992847224987009,-0.09921775648414988, ,0.0016417446313324977, ,0.025268814746792823,-0.009728848288991915,-0.04493901569543213,0.018794544539298696,0.004300848237418623,-0.0026524661504433293, ,0.052465975826360554, ,0.01927560424112256, ,0.0012126588298320149, ,0.20395737520826931,-0.2025672832909089,0.10859150959000001,1.6120962855090233,0.1989427436584813,-1.3576745084792585, ,0.1728541740591453,0.1905561075471301,0.04617046817391306,0.0013650391897915073,0.18070275482130377,-0.20518126924895522, ,1.086097002029419
0.018716498636307272,0.020479869168337054,-0.09856652927708653, ,0.019626193243024115,0.019882213899137264,-0.09946134363582594, ,0.001409052459952503, ,0.02530130107876424,-0.009258603994030438,-0.04395719516686773,0.03952179506613961,-0.002136453669573931,-0.0029973014566990436, ,0.05155688694184951, ,0.0395774254333455, ,0.0012150250181467196, ,0.2057181583035925,-0.20065976827097542,0.10906335915000001,1.6120962855090233,0.20071901815543203,-1.3596946924082958, ,0.1728541740591453,0.18249411838167456,0.045381229401709404,0.0013629110031202038,0.17406438158157891,-0.21794091818155786, ,1.0913350582122803
0.018716498636307272,0.020479869168337054,-0.09856652927708653, ,0.01977294804800021,0.01983628635148132,-0.0997042259343031, ,0.001680665905366103, ,0.02530130107876424,-0.009258603994030438,-0.04395719516686773,0.03952179506613961,-0.002136453669573931,-0.0029973014566990436, ,0.05155688694184951, ,0.0395774254333455, ,0.0012205683620421883, ,0.2057181583035925,-0.20065976827097542,0.10906335915000001,1.6120962855090233,0.20071901815543203,-1.3596946924082958, ,0.1728541740591453,0.18249411838167456,0.045381229401709404,0.0013629110031202038,0.17406438158157891,-0.21794091818155786, ,1.096696138381958
0.018867795560825493,0.020426406927937464,-0.09883124871462146, ,0.019919898037998138,0.01979072843065204,-0.09994638033251613, ,0.0016596762634960645, ,0.025425923315470788,-0.009080341613655866,-0.04441165698376996,0.018911679677416963,-0.006926492893795891,-0.004251453816174704, ,0.05197427687143838, ,0.020135917050003355, ,0.0012257343373534104, ,0.20673755904299013,-0.19958630840145822,0.10933687634000001,1.6120962855090233,0.2016754736537901,-1.3607196539545925, ,0.1716038726192962,0.18075607915899194,0.04590435596541788,0.0013555546443504922,0.1678685308254916,-0.19558872502888439, ,1.1020889282226562
0.018867795560825493,0.020426406927937464,-0.09883124871462146, ,0.020067029516118506,0.019745578384271663,-0.10018778410151652, ,0.0019343934039632057, ,0.025425923315470788,-0.009080341613655866,-0.04441165698376996,0.018911679677416963,-0.006926492893795891,-0.004251453816174704, ,0.05197427687143838, ,0.020135917050003355, ,0.0012339745590581755, ,0.20673755904299013,-0.19958630840145822,0.10933687634000001,1.6120962855090233,0.2016754736537901,-1.3607196539545925, ,0.1716038726192962,0.18075607915899194,0.04590435596541788,0.0013555546443504922,0.1678685308254916,-0.19558872502888439, ,1.1074540615081787
0.019211357328478576,0.020313887708283036,-0.09944026970517664, ,0.020214329031682472,0.01970087388668129,-0.1004284148291855, ,0.0015356330841073337, ,0.02592342255335132,-0.008016415183590865,-0.04677216054480242,-0.03163567749038883,-0.0034825901207052616,-0.0032152283776229864, ,0.05407329980040132, ,0.03182327268686073, ,0.0012374418984265566, ,0.20901576524088636,-0.19723859760769397,0.10996816957000001,1.6120962855090233,0.20386165765003716,-1.363074091594719, ,0.16945882421155498,0.17316960138407075,0.04856344975609757,0.001328989731377813,0.16913332593284866,-0.13753491325019557, ,1.1128270626068115
0.019211357328478576,0.020313887708283036,-0.09944026970517664, ,0.02036178337874198,0.019656652041786866,-0.10066825041894628, ,0.0018064815116212857, ,0.02592342255335132,-0.008016415183590865,-0.04677216054480242,-0.03163567749038883,-0.0034825901207052616,-0.0032152283776229864, ,0.05407329980040132, ,0.03182327268686073, ,0.0012439082576674058, ,0.20901576524088636,-0.19723859760769397,0.10996816957000001,1.6120962855090233,0.20386165765003716,-1.363074091594719, ,0.16945882421155498,0.17316960138407075,0.04856344975609757,0.001328989731377813,0.16913332593284866,-0.13753491325019557, ,1.118077039718628
0.019485498572853102,0.020227656817280032,-0.09993572366283479, ,0.0205093795945911,0.01961294938590655,-0.10090726908847515, ,0.0015395122886627888, ,0.02560801557014239,-0.008123295178381071,-0.046290947201455906,0.017196728770782765,0.02130907912209017,0.0012157572974535145, ,0.05352205320056157, ,0.027378673708507453, ,0.0012472296512740957, ,0.21080743926770645,-0.19540058718362854,0.11048279670000001,1.6120962855090233,0.2057745686467533,-1.3648789784668907, ,0.1676624409160261,0.1716038726192962,0.04812329764350454,0.0013010887193231748,0.192539741860174,-0.18477700846089973, ,1.1233839988708496
0.019485498572853102,0.020227656817280032,-0.09993572366283479, ,0.02065710495827466,0.019569801890615874,-0.10114544936841344, ,0.0018080019108492739, ,0.02560801557014239,-0.008123295178381071,-0.046290947201455906,0.017196728770782765,0.02130907912209017,0.0012157572974535145, ,0.05352205320056157, ,0.027378673708507453, ,0.0012534604541582642, ,0.21080743926770645,-0.19540058718362854,0.11048279670000001,1.6120962855090233,0.2057745686467533,-1.3648789784668907, ,0.1676624409160261,0.1716038726192962,0.04812329764350454,0.0013010887193231748,0.192539741860174,-0.18477700846089973, ,1.1286160945892334
0.01974407105708806,0.020147953362425176,-0.10040457721260544, ,0.020804946989098894,0.01952724496559478,-0.10138277010108043, ,0.001570858995606756, ,0.0256603810156946,-0.0075635035848096,-0.046352442328442926,0.03246326429553845,0.0516033016327832,0.00828839330979297, ,0.05351832069637159, ,0.0609635160820674, ,0.0012569483502181378, ,0.2124678268356647,-0.19375564508141874,0.11095464626000001,1.6120962855090233,0.2080973891427658,-1.3670181190501514, ,0.16885576789763485,0.1650381592321231,0.0484158404863222,0.0012728633205742418,0.22488471860671475,-0.19375767178595674, ,1.1346359252929688
0.01997292587843284,0.020082664469481606,-0.10079677485720877, ,0.020952893445142024,0.019485313461473926,-0.10161921043918466, ,0.0014119365938560205, ,0.025811298707787138,-0.007150254397303565,-0.0429818865094368,-0.056006242358998384,-0.060760588252083164,-0.012857849620802109, ,0.05064377401851958, ,0.08263414287594685, ,0.0012586330050402888, ,0.2140123734105096,-0.19228832583531608,0.11138242196,1.6120962855090233,0.2094637541404202,-1.3682139768272563, ,0.1659037439833405,0.15355492161564852,0.04512411195467422,0.0012453554084472089,0.10695699960491466,-0.09380809989709349, ,1.1400930881500244
0.01997292587843284,0.020082664469481606,-0.10079677485720877, ,0.02110093232176372,0.019444041672680806,-0.10185474984453606, ,0.0016731851919616798, ,0.025811298707787138,-0.007150254397303565,-0.0429818865094368,-0.056006242358998384,-0.060760588252083164,-0.012857849620802109, ,0.05064377401851958, ,0.08263414287594685, ,0.0012630905554372929, ,0.2140123734105096,-0.19228832583531608,0.11138242196,1.6120962855090233,0.2094637541404202,-1.3682139768272563, ,0.1659037439833405,0.15355492161564852,0.04512411195467422,0.0012453554084472089,0.10695699960491466,-0.09380809989709349, ,1.1454710960388184
0.020267438599502884,0.019996678263501152,-0.10127777175666461, ,0.02124905185011575,0.019403463340286226,-0.10208936808675746, ,0.001405047017691521, ,0.026897297735297483,-0.00792657928023183,-0.044123140616771354,-0.018438390900584422,-0.01865562394515831,-0.004540541235644144, ,0.052279506715676057, ,0.026226691116007776, ,0.001264600730567657, ,0.2159276111633173,-0.19051982000711865,0.11188797506,1.6120962855090233,0.21083011913807462,-1.36924647712408, ,0.17671683716661224,0.1619401733079706,0.04643968373177843,0.0012111487124960424,0.16087955386276623,-0.13952025146134614, ,1.1507160663604736
0.020267438599502884,0.019996678263501152,-0.10127777175666461, ,0.02139724049565307,0.019363611654851284,-0.10232304524199794, ,0.0016642783164701998, ,0.026897297735297483,-0.00792657928023183,-0.044123140616771354,-0.018438390900584422,-0.01865562394515831,-0.004540541235644144, ,0.052279506715676057, ,0.026226691116007776, ,0.0012688078630508418, ,0.2159276111633173,-0.19051982000711865,0.11188797506,1.6120962855090233,0.21083011913807462,-1.36924647712408, ,0.17671683716661224,0.1619401733079706,0.04643968373177843,0.0012111487124960424,0.16087955386276623,-0.13952025146134614, ,1.1560049057006836
0.020537329381105515,0.019921402417755796,-0.10173114551555079, ,0.021545486956640474,0.019324519259272043,-0.10255576169164277, ,0.0014327047985759726, ,0.02641445603303255,-0.007082245343129784,-0.04387129718002606,0.04339169354003711,0.046905077487817304,0.00985477941886597, ,0.05169692836986987, ,0.06389650103151383, ,0.0012705151227958953, ,0.2176575033271436,-0.18897527343227374,0.11234945430000001,1.6120962855090233,0.21287966663455624,-1.3709177456795263, ,0.17638836720905351,0.15232253861712805,0.04643968373177843,0.0011807163953767468,0.22485460146213102,-0.18970896897682377, ,1.1612370014190674
0.020537329381105515,0.019921402417755796,-0.10173114551555079, ,0.021693780162667778,0.01928621825162807,-0.10278749812102744, ,0.0016901828783219448, ,0.02641445603303255,-0.007082245343129784,-0.04387129718002606,0.04339169354003711,0.046905077487817304,0.00985477941886597, ,0.05169692836986987, ,0.06389650103151383, ,0.0012748415945023493, ,0.2176575033271436,-0.18897527343227374,0.11234945430000001,1.6120962855090233,0.21287966663455624,-1.3709177456795263, ,0.17638836720905351,0.15232253861712805,0.04643968373177843,0.0011807163953767468,0.22485460146213102,-0.18970896897682377, ,1.166506052017212
0.020804018625200333,0.01985126207417648,-0.10217118268338488, ,0.021842109273155372,0.019248740188026917,-0.10301823551814812, ,0.0014690688620828459, ,0.026938261643462295,-0.007074141386013746,-0.04340554758709471,0.04467805072437523,0.05184183509917814,0.011543270137015673, ,0.05157281239234959, ,0.0684364669609806, ,0.0012768235053960278, ,0.21950323648408324,-0.18740755865880618,0.11283297047000002,1.6120962855090233,0.21533912363033417,-1.3730049466862027, ,0.1817949072001356,0.15039134953798858,0.04617046817391306,0.0011495495828230285,0.23774983136756334,-0.191271400188532, ,1.1749420166015625
0.021072143087985593,0.01978544508373305,-0.10260597070067479, ,0.02199046367586772,0.01921211608545189,-0.10324795517237441, ,0.0012586353341225171, ,0.026714312009235974,-0.006182499091976322,-0.04347854173485024,0.0026396983420379928,-0.0009277346067480942,0.0010692064716574742, ,0.05140293136133591, ,0.002770076910370797, ,0.001276639786494275, ,0.22127174231228064,-0.18595568487845196,0.11329574600000002,1.6120962855090233,0.21738867112681573,-1.374676215241649, ,0.17253989374267414,0.1407966491965442,0.046304684651162796,0.001120196788957902,0.17452457555469644,-0.13980765635280865, ,1.1803181171417236
0.021072143087985593,0.01978544508373305,-0.10260597070067479, ,0.02213883298542068,0.019176376424607147,-0.10347663867316106, ,0.0015056077467696786, ,0.026714312009235974,-0.006182499091976322,-0.04347854173485024,0.0026396983420379928,-0.0009277346067480942,0.0010692064716574742, ,0.05140293136133591, ,0.002770076910370797, ,0.001278929466097029, ,0.22127174231228064,-0.18595568487845196,0.11329574600000002,1.6120962855090233,0.21738867112681573,-1.374676215241649, ,0.17253989374267414,0.1407966491965442,0.046304684651162796,0.001120196788957902,0.17452457555469644,-0.13980765635280865, ,1.185621976852417
0.021338674963897988,0.01971771628221968,-0.10302062828973726, ,0.02228720704179464,0.019141551152765397,-0.10370426790876022, ,0.0013034732401917073, ,0.027007533305269147,-0.007201560805179704,-0.04041266367922332,-0.04831551128263691,-0.06245002529224442,-0.01129411959395612, ,0.04913708089534764, ,0.07895749804352255, ,0.0012791724737613328, ,0.22299391174323271,-0.18453470202959465,0.11373778089000001,1.6120962855090233,0.21875503612447017,-1.3757087155384724, ,0.17508660804145898,0.1437832447855618,0.04316751089430895,0.0010913103489861241,0.11445730431377607,-0.09170227448708415, ,1.1909809112548828
0.021338674963897988,0.01971771628221968,-0.10302062828973726, ,0.022435575908842577,0.01910766968661331,-0.10393082506493301, ,0.0015504214592838904, ,0.027007533305269147,-0.007201560805179704,-0.04041266367922332,-0.04831551128263691,-0.06245002529224442,-0.01129411959395612, ,0.04913708089534764, ,0.07895749804352255, ,0.0012818317775409656, ,0.22299391174323271,-0.18453470202959465,0.11373778089000001,1.6120962855090233,0.21875503612447017,-1.3757087155384724, ,0.17508660804145898,0.1437832447855618,0.04316751089430895,0.0010913103489861241,0.11445730431377607,-0.09170227448708415, ,1.1962800025939941
0.02160684507289059,0.01964599253291486,-0.10341521684924063, ,0.022583929872799193,0.019074760915097678,-0.1041562926236615, ,0.0013528464697961705, ,0.02642636003593473,-0.007079344263486553,-0.03876828706709474,-0.01838658771705579,-0.036608678210085746,-0.005808759341937263, ,0.04744944364338188, ,0.04096552639205749, ,0.0012825212405725695, ,0.22474697210568167,-0.18312144191361157,0.11416037143,1.6120962855090233,0.21998476462235914,-1.3766297979315998, ,0.1738039222682615,0.13873821865273506,0.04158958621409923,0.001063575320104841,0.1394362278610946,-0.11667110663672242, ,1.2015011310577393
0.02160684507289059,0.01964599253291486,-0.10341521684924063, ,0.022732259440795575,0.019042853202273256,-0.10438065336186125, ,0.0016007505150881125, ,0.02642636003593473,-0.007079344263486553,-0.03876828706709474,-0.01838658771705579,-0.036608678210085746,-0.005808759341937263, ,0.04744944364338188, ,0.04096552639205749, ,0.0012855811374429113, ,0.22474697210568167,-0.18312144191361157,0.11416037143,1.6120962855090233,0.21998476462235914,-1.3766297979315998, ,0.1738039222682615,0.13873821865273506,0.04158958621409923,0.001063575320104841,0.1394362278610946,-0.11667110663672242, ,1.2068030834197998
0.02185934341637705,0.019581361447018657,-0.10378753652257136, ,0.022880555339364218,0.019011974390147474,-0.1046038903500928, ,0.001426011565132797, ,0.02648035063346003,-0.006996459467333816,-0.03835322068062203,0.031352356011271586,0.01622070454496768,0.005249531805578721, ,0.047128854763568415, ,0.035298703893465726, ,0.001286918570087577, ,0.2264228051393884,-0.18182402279074186,0.11456092504000001,1.6120962855090233,0.22162440261954441,-1.3779668127759566, ,0.17871363758657396,0.1365423619546342,0.04137353641558442,0.0010378757796191906,0.19815759578870912,-0.16424502941342564, ,1.212224006652832
0.02185934341637705,0.019581361447018657,-0.10378753652257136, ,0.02302880851295121,0.018982151801527413,-0.10482598695127351, ,0.0016748373366469466, ,0.02648035063346003,-0.006996459467333816,-0.03835322068062203,0.031352356011271586,0.01622070454496768,0.005249531805578721, ,0.047128854763568415, ,0.035298703893465726, ,0.0012905781810928542, ,0.2264228051393884,-0.18182402279074186,0.11456092504000001,1.6120962855090233,0.22162440261954441,-1.3779668127759566, ,0.17871363758657396,0.1365423619546342,0.04137353641558442,0.0010378757796191906,0.19815759578870912,-0.16424502941342564, ,1.217581033706665
0.0221493124554473,0.01950864419675679,-0.10421087501802216, ,0.023177010122427753,0.018953412242866605,-0.10504692681938989, ,0.0014364635853052461, ,0.02716610820931568,-0.006348481520799719,-0.04022656002197595,0.04786114972032503,0.03021162156975394,0.008505343083696243, ,0.0489538229769833, ,0.05659793633534415, ,0.0012919415960854933, ,0.2283766565565672,-0.18036442627751342,0.11501851541000001,1.6120962855090233,0.2239472231155569,-1.3799425958789364, ,0.18075607915899194,0.13290888173455292,0.04352134295081967,0.0010100237646257979,0.21440292543962872,-0.17717200419511567, ,1.2228209972381592
0.0221493124554473,0.01950864419675679,-0.10421087501802216, ,0.02332515154359839,0.01892578200711099,-0.10526669389820975, ,0.0016843632034401791, ,0.02716610820931568,-0.006348481520799719,-0.04022656002197595,0.04786114972032503,0.03021162156975394,0.008505343083696243, ,0.0489538229769833, ,0.05659793633534415, ,0.0012955751294869255, ,0.2283766565565672,-0.18036442627751342,0.11501851541000001,1.6120962855090233,0.2239472231155569,-1.3799425958789364, ,0.18075607915899194,0.13290888173455292,0.04352134295081967,0.0010100237646257979,0.21440292543962872,-0.17717200419511567, ,1.2281110286712646
0.022413995702449504,0.019449881004125688,-0.10460350604848148, ,0.023473224365710893,0.018899286876544994,-0.1054852724199935, ,0.0014841264057789455, ,0.02813160989104063,-0.005838932934598573,-0.04186945513763436,0.022993021252773325,-0.003752046047907701,0.0034844201684186456, ,0.050779246611177796, ,0.023294381364115924, ,0.001297304957709788, ,0.2301142714532677,-0.1790978980861406,0.11544369853000001,1.6123059754525078,0.22586013411227307,-1.3815024465306864, ,0.1817949072001356,0.13017413108157858,0.045381229401709404,0.0,0.18107828257861933,-0.14977099708153643, ,1.2334671020507812
0.022413995702449504,0.019449881004125688,-0.10460350604848148, ,0.023621220389969118,0.018873952125638787,-0.10570264690420647, ,0.0017312412136833708, ,0.02813160989104063,-0.005838932934598573,-0.04186945513763436,0.022993021252773325,-0.003752046047907701,0.0034844201684186456, ,0.050779246611177796, ,0.023294381364115924, ,0.0013012498327640933, ,0.2301142714532677,-0.1790978980861406,0.11544369853000001,1.6123059754525078,0.22586013411227307,-1.3815024465306864, ,0.1817949072001356,0.13017413108157858,0.045381229401709404,0.0,0.18107828257861933,-0.14977099708153643, ,1.238779067993164
0.022670839896532517,0.019397961507185497,-0.10498742882702974, ,0.023769131628039866,0.018849802523893757,-0.10591880215623158, ,0.0015408371999693375, ,0.02793423666099407,-0.00561446571968241,-0.04121904547248362,-0.0009251823646229105,-0.029918669801005496,-0.0016253175252441013, ,0.05010841758439979, ,0.02993098362519291, ,0.00130340827751369, ,0.23175149082260332,-0.1779240426892585,0.11585980762,1.6123059754525078,0.2273631356096929,-1.382728043471347, ,0.17737746085695474,0.12602515479212587,0.04474385258426967,0.0,0.14994052560435903,-0.12176501728084096, ,1.2441010475158691
0.022670839896532517,0.019397961507185497,-0.10498742882702974, ,0.02391695030056533,0.01882686233868944,-0.1061337232660793, ,0.001786878938342392, ,0.02793423666099407,-0.00561446571968241,-0.04121904547248362,-0.0009251823646229105,-0.029918669801005496,-0.0016253175252441013, ,0.05010841758439979, ,0.02993098362519291, ,0.0013077249798425178, ,0.23175149082260332,-0.1779240426892585,0.11585980762,1.6123059754525078,0.2273631356096929,-1.382728043471347, ,0.17737746085695474,0.12602515479212587,0.04474385258426967,0.0,0.14994052560435903,-0.12176501728084096, ,1.249424934387207
0.02296732477916442,0.019338724481881765,-0.1054150904667557, ,0.02406466883567062,0.01880515533812944,-0.10634739560710249, ,0.0015355952866009668, ,0.027192591688746878,-0.0058190466541975855,-0.0383100977841586,-0.005450281677423572,-0.029289732546071263,-0.0013903126926863656, ,0.04733879950892743, ,0.02979113092243673, ,0.0013097415312297608, ,0.23362811491103988,-0.1766111781006403,0.11632517573000001,1.6123059754525078,0.2287295006073473,-1.38367886502803, ,0.17348618200817328,0.12073402233902134,0.04148128,0.0,0.13548206435328616,-0.1028616963700379, ,1.2551860809326172
0.023243558991943088,0.01928142091320161,-0.10581472102702905, ,0.024212279867477888,0.018784704793888527,-0.10655980483470556, ,0.0013192031376342665, ,0.028511526489163528,-0.005167179542394617,-0.041567603709992434,-0.008518327313886822,-0.03362681044539599,-0.0016552751703098661, ,0.05067023352380164, ,0.034687176017270574, ,0.0013098245277771686, ,0.23538889800636306,-0.1753755408407644,0.11676072917000001,1.6123059754525078,0.23036913860453262,-1.3847708436519657, ,0.17804304232358495,0.12150696742441842,0.04512411195467422,0.0,0.14815572420406783,-0.10976763978875527, ,1.2604451179504395
0.023243558991943088,0.01928142091320161,-0.10581472102702905, ,0.024359776234613894,0.018765533484058468,-0.1067709368850584, ,0.001557700080095763, ,0.028511526489163528,-0.005167179542394617,-0.041567603709992434,-0.008518327313886822,-0.03362681044539599,-0.0016552751703098661, ,0.05067023352380164, ,0.034687176017270574, ,0.0013119799673625477, ,0.23538889800636306,-0.1753755408407644,0.11676072917000001,1.6123059754525078,0.23036913860453262,-1.3847708436519657, ,0.17804304232358495,0.12150696742441842,0.04512411195467422,0.0,0.14815572420406783,-0.10976763978875527, ,1.2656490802764893
0.02352392755185187,0.019236873460139588,-0.1062286802362273, ,0.024507150978718348,0.01874766369599416,-0.1069807779738074, ,0.0013310542841474921, ,0.02859240556442024,-0.003990075234755887,-0.042223126493907595,0.0015738955115845166,-0.019287607280237404,0.002856796739514638, ,0.051149181491592054, ,0.01934824906433279, ,0.001312144401127935, ,0.23711879017018936,-0.1742402991082534,0.11721313438000001,1.6123059754525078,0.231735503602187,-1.3857216652086484, ,0.17737746085695474,0.11047373871766097,0.046304684651162796,0.0,0.16065461644350262,-0.10901317557586959, ,1.2712221145629883
0.02352392755185187,0.019236873460139588,-0.1062286802362273, ,0.024654397342957882,0.018731117229160748,-0.10718931459478775, ,0.0015673447880489033, ,0.02859240556442024,-0.003990075234755887,-0.042223126493907595,0.0015738955115845166,-0.019287607280237404,0.002856796739514638, ,0.051149181491592054, ,0.01934824906433279, ,0.0013143256010161484, ,0.23711879017018936,-0.1742402991082534,0.11721313438000001,1.6123059754525078,0.231735503602187,-1.3857216652086484, ,0.17737746085695474,0.11047373871766097,0.046304684651162796,0.0,0.16065461644350262,-0.10901317557586959, ,1.2765319347381592
0.023832885742300552,0.0191955456751611,-0.10668235483570108, ,0.024801508770534907,0.01871591539797963,-0.10739653351873525, ,0.0012955025916282369, ,0.0278342951968067,-0.003892346254934525,-0.04101392768470871,0.03289796717966233,0.022387650530873295,0.008869962236191423, ,0.049719619996514405, ,0.039791545430284195, ,0.0013141660839874373, ,0.23893363239563212,-0.1731436710401135,0.11768109507,1.6125156653959922,0.23364841459890315,-1.3871181583801173, ,0.17476416493272703,0.10686592517845808,0.04525230545454546,0.001563533389099065,0.1968334477277529,-0.13343427151837603, ,1.281938076019287
0.023832885742300552,0.0191955456751611,-0.10668235483570108, ,0.024948478903195938,0.01870207903467469,-0.10760242179199814, ,0.0015279334507691171, ,0.0278342951968067,-0.003892346254934525,-0.04101392768470871,0.03289796717966233,0.022387650530873295,0.008869962236191423, ,0.049719619996514405, ,0.039791545430284195, ,0.0013159624484141742, ,0.23893363239563212,-0.1731436710401135,0.11768109507,1.6125156653959922,0.23364841459890315,-1.3871181583801173, ,0.17476416493272703,0.10686592517845808,0.04525230545454546,0.001563533389099065,0.1968334477277529,-0.13343427151837603, ,1.2872099876403809
0.024102051184780208,0.019158285397182825,-0.1070778823163694, ,0.02509530157974445,0.01868962849211904,-0.1078069667352492, ,0.0013182373578433748, ,0.027733435426597383,-0.003965648674963827,-0.04180127622608228,0.023408101312382936,0.033241004211979876,0.006777051739485908, ,0.050321133772041754, ,0.040654347117613676, ,0.0013159814059927508, ,0.24074075188820063,-0.1720393202390994,0.11814775947000002,1.612725355339477,0.23569796209538477,-1.388381033234861, ,0.17129411833658983,0.10783743358917133,0.04590435596541788,0.004342382866551769,0.2070504264850366,-0.12713091001202062, ,1.2924869060516357
0.024102051184780208,0.019158285397182825,-0.1070778823163694, ,0.02524197083454677,0.018678583646680805,-0.10801015594219827, ,0.001548762309321459, ,0.027733435426597383,-0.003965648674963827,-0.04180127622608228,0.023408101312382936,0.033241004211979876,0.006777051739485908, ,0.050321133772041754, ,0.040654347117613676, ,0.00131790521511117, ,0.24074075188820063,-0.1720393202390994,0.11814775947000002,1.612725355339477,0.23569796209538477,-1.388381033234861, ,0.17129411833658983,0.10783743358917133,0.04590435596541788,0.004342382866551769,0.2070504264850366,-0.12713091001202062, ,1.2977209091186523
0.024384494025730976,0.019118807101005823,-0.10750109392198279, ,0.025388480896048442,0.018668963901070323,-0.10821197727830338, ,0.001309848726606131, ,0.027266766148513203,-0.0034490537131368995,-0.04012366994634247,-0.051801622065531905,-0.00033246713135637947,0.0013238998333523148, ,0.048634158753666494, ,0.051801685206368416, ,0.0013178391783201452, ,0.24247836678490114,-0.17095813763670797,0.11861312758,1.612725355339477,0.23774750959186638,-1.3892355143889015, ,0.1661942934474094,0.09968166130091469,0.044246698666666674,0.004342382866551769,0.16771671121837536,-0.043957227474049274, ,1.3029799461364746
0.024384494025730976,0.019118807101005823,-0.10750109392198279, ,0.025534826185278924,0.018660788187185952,-0.10841241887948268, ,0.0015373869327105513, ,0.027266766148513203,-0.0034490537131368995,-0.04012366994634247,-0.051801622065531905,-0.00033246713135637947,0.0013238998333523148, ,0.048634158753666494, ,0.051801685206368416, ,0.00131962411941275, ,0.24247836678490114,-0.17095813763670797,0.11861312758,1.612725355339477,0.23774750959186638,-1.3892355143889015, ,0.1661942934474094,0.09968166130091469,0.044246698666666674,0.004342382866551769,0.16771671121837536,-0.043957227474049274, ,1.3083009719848633
0.024658195942352076,0.019086292240546046,-0.1078906471451937, ,0.0256810013143648,0.018654074968960658,-0.10861146915082685, ,0.0013238304131118197, ,0.02738632298043087,-0.00302865067515222,-0.03816329585619216,-0.050583238728736095,-0.015767225124457357,0.0005595696801975245, ,0.04707037881627712, ,0.05298290739550217, ,0.0013196580411361297, ,0.24415419981860786,-0.17000051876030414,0.11904479215000001,1.612725355339477,0.23925051108928622,-1.389562645188016, ,0.16915675857124915,0.0924020852565441,0.042476830720000004,0.004342382866551769,0.15502564363756396,-0.038073138850394685, ,1.3136510848999023
0.024658195942352076,0.019086292240546046,-0.1078906471451937, ,0.025827001085037875,0.018648842245208266,-0.10880911676531124, ,0.001549533608241094, ,0.02738632298043087,-0.00302865067515222,-0.03816329585619216,-0.050583238728736095,-0.015767225124457357,0.0005595696801975245, ,0.04707037881627712, ,0.05298290739550217, ,0.0013214970456729693, ,0.24415419981860786,-0.17000051876030414,0.11904479215000001,1.612725355339477,0.23925051108928622,-1.389562645188016, ,0.16915675857124915,0.0924020852565441,0.042476830720000004,0.004342382866551769,0.15502564363756396,-0.038073138850394685, ,1.318972110748291
0.024937472590626467,0.019055303445170996,-0.10827658702477301, ,0.025972820487146626,0.01864510755246995,-0.10900535066250688, ,0.0013309028427727677, ,0.027733469808030743,-0.0030570514529670275,-0.03776367151111267,0.0013093322365152838,0.0019263710659621965,0.004411249829111771, ,0.046953016912422825, ,0.0023126726205655794, ,0.001321571694856301, ,0.24588409198243416,-0.16906606808252297,0.11947516043000002,1.612725355339477,0.24089014908647152,-1.390164551371108, ,0.17348618200817328,0.09159936443867836,0.04225148944297083,0.004342382866551769,0.1773630108142013,-0.08915900725977102, ,1.3242430686950684
0.024937472590626467,0.019055303445170996,-0.10827658702477301, ,0.02611845469716539,0.01864288796786058,-0.1092001600472935, ,0.0015549252039303814, ,0.027733469808030743,-0.0030570514529670275,-0.03776367151111267,0.0013093322365152838,0.0019263710659621965,0.004411249829111771, ,0.046953016912422825, ,0.0023126726205655794, ,0.0013234091240616089, ,0.24588409198243416,-0.16906606808252297,0.11947516043000002,1.612725355339477,0.24089014908647152,-1.390164551371108, ,0.17348618200817328,0.09159936443867836,0.04225148944297083,0.004342382866551769,0.1773630108142013,-0.08915900725977102, ,1.329477071762085
0.025200897946519214,0.019029302715598,-0.10863355772469659, ,0.02626389907670634,0.018642200111915263,-0.10939353438857093, ,0.0013628588915183524, ,0.02812983010265842,-0.0024645430026852483,-0.03775873383900709,0.019308502769612657,0.0004303644231296079,0.006646260223220252, ,0.04714958424993259, ,0.019311311224205777, ,0.0013237173253698646, ,0.24753675681751822,-0.1682242901992325,0.11987571404000001,1.6129350452829614,0.24266642358342222,-1.3911229116783181, ,0.17573507696013105,0.08595737460006411,0.042476830720000004,0.0033302946800448634,0.17828911741448508,-0.10186746481420866, ,1.334744930267334
0.025200897946519214,0.019029302715598,-0.10863355772469659, ,0.026409149171026863,0.018643060151435395,-0.10958546341797072, ,0.0015859315208365237, ,0.02812983010265842,-0.0024645430026852483,-0.03775873383900709,0.019308502769612657,0.0004303644231296079,0.006646260223220252, ,0.04714958424993259, ,0.019311311224205777, ,0.0013257499935517766, ,0.2490504124608662,-0.16752152150767807,0.12023478637000001,1.613144735226446,0.24416942508084208,-1.3920217936584165, ,0.16945882421155498,0.07646812373768798,0.04012295093198993,0.010094168961413958,0.14894100122438172,-0.09355157612642277, ,1.3406860828399658
0.0254421827321156,0.01901127030195418,-0.10895129278197899, ,0.026554200707542608,0.018645483802335293,-0.1097759371285688, ,0.0014319294812729971, ,0.02721707445066496,-0.0018414423612366439,-0.03543609048397045,0.021890965863458803,-0.021069748254041586,-0.002769914905996974, ,0.044719979432139026, ,0.030382442321966515, ,0.00132656675884194, ,0.2490504124608662,-0.16752152150767807,0.12023478637000001,1.613144735226446,0.24416942508084208,-1.3920217936584165, ,0.16945882421155498,0.07646812373768798,0.04012295093198993,0.010094168961413958,0.14894100122438172,-0.09355157612642277, ,1.345999002456665
0.0257631066082501,0.018985882363718353,-0.10936091337730466, ,0.026699049594333224,0.018649486332488554,-0.1099649457735973, ,0.0011636179350613264, ,0.02607642428347917,-0.0021335784062290843,-0.03323563971436569,-0.03939052888781518,-0.054713555854484335,-0.01606807461046472, ,0.04229822463710115, ,0.06741770099582713, ,0.001325322874690943, ,0.25102743207666767,-0.16660251629564535,0.12069885819000001,1.6133544251699303,0.2455357900784965,-1.3925642215143967, ,0.15949065808146348,0.07489892782831158,0.03765676482269504,0.01596719542420795,0.10366852934121129,-0.029243826407204455, ,1.3513209819793701
0.0257631066082501,0.018985882363718353,-0.10936091337730466, ,0.026843691918658763,0.018655082564574297,-0.11015247986515554, ,0.0013797357083417492, ,0.02607642428347917,-0.0021335784062290843,-0.03323563971436569,-0.03939052888781518,-0.054713555854484335,-0.01606807461046472, ,0.04229822463710115, ,0.06741770099582713, ,0.0013257350931276913, ,0.25102743207666767,-0.16660251629564535,0.12069885819000001,1.6133544251699303,0.2455357900784965,-1.3925642215143967, ,0.15949065808146348,0.07489892782831158,0.03765676482269504,0.01596719542420795,0.10366852934121129,-0.029243826407204455, ,1.3565750122070312
0.026024194935057306,0.018969448330738475,-0.10969378219394157, ,0.026988123945464328,0.018662286878923698,-0.11033853017292328, ,0.001199669642437538, ,0.02654110028639465,-0.0010501972218356715,-0.03456963904233153,-0.014480887254156392,-0.022295916706710137,-0.008209341421061184, ,0.043595789500068725, ,0.02658485708441195, ,0.0013247872325961865, ,0.25263376051450637,-0.16589974760409093,0.12107737487000002,1.6133544251699303,0.24676551857638546,-1.3929952314666807, ,0.16221699411704404,0.06725509678134002,0.039330398814814815,0.01596719542420795,0.13933821357454962,-0.04670962694517973, ,1.3618121147155762
0.026024194935057306,0.018969448330738475,-0.10969378219394157, ,0.02713234211589139,0.01867111321636629,-0.11052308772287221, ,0.0014158890052447326, ,0.02654110028639465,-0.0010501972218356715,-0.03456963904233153,-0.014480887254156392,-0.022295916706710137,-0.008209341421061184, ,0.043595789500068725, ,0.02658485708441195, ,0.0013254670965711756, ,0.25263376051450637,-0.16589974760409093,0.12107737487000002,1.6133544251699303,0.24676551857638546,-1.3929952314666807, ,0.16221699411704404,0.06725509678134002,0.039330398814814815,0.01596719542420795,0.13933821357454962,-0.04670962694517973, ,1.3670470714569092
0.026294861466289822,0.01896524879131952,-0.11005208991439212, ,0.027276343045792982,0.018681575081076027,-0.11070614379597613, ,0.0012130801065067499, ,0.026899454399844515,0.00027260267785803575,-0.03572337509432486,0.059240734137706905,0.008904869251883876,0.001570204580021296, ,0.04471928540751875, ,0.05990578518875445, ,0.001324634600348476, ,0.25428642534959045,-0.1652664835084045,0.12148570622000002,1.6133544251699303,0.24840515657357073,-1.3938421738701945, ,0.16418155978974183,0.057270332865703544,0.040843106461538464,0.014352578433989361,0.1732663758890722,-0.11113808815449334, ,1.3723320960998535
0.026294861466289822,0.01896524879131952,-0.11005208991439212, ,0.027420123524231555,0.018693685543418808,-0.11088768992692744, ,0.0014276514552238099, ,0.026899454399844515,0.00027260267785803575,-0.03572337509432486,0.059240734137706905,0.008904869251883876,0.001570204580021296, ,0.04471928540751875, ,0.05990578518875445, ,0.0013253920772225594, ,0.25428642534959045,-0.1652664835084045,0.12148570622000002,1.6133544251699303,0.24840515657357073,-1.3938421738701945, ,0.16418155978974183,0.057270332865703544,0.040843106461538464,0.014352578433989361,0.1732663758890722,-0.11113808815449334, ,1.3777449131011963
0.02656467270497039,0.018972183179112267,-0.11040726918219708, ,0.027563680513009073,0.01870745724262658,-0.11106771790242778, ,0.0012264945715431657, ,0.02779370680955602,0.000680181040005441,-0.03569071894951212,-0.013151846555188121,-0.027681046740181188,0.006117018350769548, ,0.04524135501502809, ,0.030645611486596124, ,0.0013246701976190602, ,0.2559159219860518,-0.164733614940083,0.12189274128000001,1.6135641151134148,0.24990815807099057,-1.3944143408897305, ,0.16825698857884888,0.05340289339249904,0.04105363793814434,0.004693164471576092,0.14186644420011915,-0.03735587650723583, ,1.3831229209899902
0.02656467270497039,0.018972183179112267,-0.11040726918219708, ,0.027707011141087635,0.018722902390314752,-0.11124621976156537, ,0.0014390677846844824, ,0.02779370680955602,0.000680181040005441,-0.03569071894951212,-0.013151846555188121,-0.027681046740181188,0.006117018350769548, ,0.04524135501502809, ,0.030645611486596124, ,0.0013254991656412734, ,0.2559159219860518,-0.164733614940083,0.12189274128000001,1.6135641151134148,0.24990815807099057,-1.3944143408897305, ,0.16825698857884888,0.05340289339249904,0.04105363793814434,0.004693164471576092,0.14186644420011915,-0.03735587650723583, ,1.3884389400482178
0.026830897500075813,0.018983164338103355,-0.11075476319960975, ,0.02785011270931493,0.018740032772343342,-0.1114231877920353, ,0.0012428612298935541, ,0.02792814495978117,0.001346671259658469,-0.036198529153513216,-0.04002534519585152,-0.03075350312175584,-0.009724508135193793, ,0.045739789213046084, ,0.050475182618556255, ,0.0013249046481179085, ,0.25749908222526785,-0.16424708276900687,0.12229199860000001,1.613983495000384,0.25113788656887953,-1.3944369571413113, ,0.16648586238328208,0.04844152197982173,0.0416984594764398,0.021039373048391253,0.13422304325104137,-0.001513273232409837, ,1.3938391208648682
0.026830897500075813,0.018983164338103355,-0.11075476319960975, ,0.027992982684728357,0.018758859752305703,-0.11159861453050966, ,0.0014535610039693358, ,0.02792814495978117,0.001346671259658469,-0.036198529153513216,-0.04002534519585152,-0.03075350312175584,-0.009724508135193793, ,0.045739789213046084, ,0.050475182618556255, ,0.001325823622088276, ,0.25749908222526785,-0.16424708276900687,0.12229199860000001,1.613983495000384,0.25113788656887953,-1.3944369571413113, ,0.16648586238328208,0.04844152197982173,0.0416984594764398,0.021039373048391253,0.13422304325104137,-0.001513273232409837, ,1.399064064025879
0.027111925347591652,0.019001952839982263,-0.11112584004365433, ,0.02813561870013296,0.018779394274218215,-0.11177249276093609, ,0.0012311133708964807, ,0.027193514190254522,0.00218349674397509,-0.035877569472997264,0.036129397599969124,0.020562587333896924,-0.03154358175610174, ,0.045071663640654194, ,0.04157034909447501, ,0.0013251519181791142, ,0.25917491525897457,-0.16379144152942762,0.12271977430000001,1.6144028748873531,0.25277752456606484,-1.3947938271039817, ,0.1630531641898123,0.041116525805229974,0.04148128,0.05358940604579935,0.17747274411603678,-0.06225409328274051, ,1.4042840003967285
0.027111925347591652,0.019001952839982263,-0.11112584004365433, ,0.028278018552611774,0.018801646865366558,-0.11194481551324938, ,0.0014389637473054245, ,0.027193514190254522,0.00218349674397509,-0.035877569472997264,0.036129397599969124,0.020562587333896924,-0.03154358175610174, ,0.045071663640654194, ,0.04157034909447501, ,0.001325953409933525, ,0.25917491525897457,-0.16379144152942762,0.12271977430000001,1.6144028748873531,0.25277752456606484,-1.3947938271039817, ,0.1630531641898123,0.041116525805229974,0.04148128,0.05358940604579935,0.17747274411603678,-0.06225409328274051, ,1.4096870422363281
0.027376920232664827,0.01902546772686747,-0.11146692378136383, ,0.02842018020203582,0.01882562763915204,-0.11211557606208296, ,0.0012446193014862808, ,0.026174907533057734,0.002428613615391618,-0.033594377708661256,0.006267245412632308,0.016955855999187742,0.04856150681683142, ,0.04265684191415469, ,0.018075857618435078, ,0.0013253846399443835, ,0.26078124369681327,-0.16342847308433908,0.12311643904000001,1.6146125648308374,0.25455379906301556,-1.3950987574900675, ,0.15895635101921404,0.03379520710771751,0.039137129041769046,-0.027629552868067522,0.18305959676779104,-0.04587400079740843, ,1.415053129196167
0.027376920232664827,0.01902546772686747,-0.11146692378136383, ,0.028562101769574154,0.01885134629793809,-0.11228476792548198, ,0.0014504628887053628, ,0.026174907533057734,0.002428613615391618,-0.033594377708661256,0.006267245412632308,0.016955855999187742,0.04856150681683142, ,0.04265684191415469, ,0.018075857618435078, ,0.0013262532388941125, ,0.2624339085318973,-0.16311184103649587,0.1235105112,1.6144028748873531,0.2566033465594972,-1.3957082024236862, ,0.1602988877676871,0.02658922430890187,0.03847539014492755,0.010949976355567529,0.18043558979244628,-0.03813328828718035, ,1.4204490184783936
0.027644889975151934,0.019052662547557456,-0.11180300785863162, ,0.028703781536203926,0.01887881213589642,-0.11245238486361371, ,0.0012542590634718757, ,0.026260748920402196,0.0032120432461848715,-0.03272201396637473,0.015259212260757282,0.019335648621424416,0.013064512918893175, ,0.04207938157448835, ,0.024630739977649956, ,0.0013257567273394764, ,0.2624339085318973,-0.16311184103649587,0.1235105112,1.6144028748873531,0.2566033465594972,-1.3957082024236862, ,0.1602988877676871,0.02658922430890187,0.03847539014492755,0.010949976355567529,0.18043558979244628,-0.03813328828718035, ,1.4263339042663574
0.02790534276248422,0.019087262630727377,-0.11211277732145972, ,0.028845217941220507,0.01890803404185352,-0.11261842087748047, ,0.0010822031437856738, ,0.026738720862044044,0.0037366942634734436,-0.03128477968615367,-0.05236120410789996,-0.0709216133769329,0.00014784209956954046, ,0.041323837156877846, ,0.0881563439071851, ,0.001324088552109656, ,0.2640093460382391,-0.1628956045160176,0.12387736127000001,1.6144028748873531,0.2578330750573861,-1.3955674611949864, ,0.15949065808146348,0.01997830348599385,0.03713009678321679,0.009813639056948731,0.08821957390400235,0.035584700172898394, ,1.4315619468688965
0.02790534276248422,0.019087262630727377,-0.11211277732145972, ,0.028986409580747607,0.018939020502137093,-0.11278287020763168, ,0.0012805099259034954, ,0.026738720862044044,0.0037366942634734436,-0.03128477968615367,-0.05236120410789996,-0.0709216133769329,0.00014784209956954046, ,0.041323837156877846, ,0.0881563439071851, ,0.0013237920988701582, ,0.2640093460382391,-0.1628956045160176,0.12387736127000001,1.6144028748873531,0.2578330750573861,-1.3955674611949864, ,0.15949065808146348,0.01997830348599385,0.03713009678321679,0.009813639056948731,0.08821957390400235,0.035584700172898394, ,1.4368541240692139
0.028171881721683046,0.01912777105829752,-0.1124243926151693, ,0.029127355206247228,0.018971779603422122,-0.1129457273328747, ,0.0010995693709740767, ,0.02662159866840243,0.004223837513827208,-0.030966052451390357,-0.010611228498635198,-0.0453409838322881,-0.00901539612911942, ,0.04105419251948525, ,0.046565808404799354, ,0.001322277080438428, ,0.2656002290103293,-0.16271798165991042,0.12424810021000002,1.614822254774322,0.2587895305557442,-1.3953672416391747, ,0.16002856923856792,0.015716618343569192,0.036957799350348035,0.024900324256961245,0.11224267278695263,0.001893815212518614, ,1.4422099590301514
0.028171881721683046,0.01912777105829752,-0.1124243926151693, ,0.02926805372302992,0.019006319035577493,-0.11310698696898776, ,0.0012970268702784961, ,0.02662159866840243,0.004223837513827208,-0.030966052451390357,-0.010611228498635198,-0.0453409838322881,-0.00901539612911942, ,0.04105419251948525, ,0.046565808404799354, ,0.0013221076159407102, ,0.2656002290103293,-0.16271798165991042,0.12424810021000002,1.614822254774322,0.2587895305557442,-1.3953672416391747, ,0.16002856923856792,0.015716618343569192,0.036957799350348035,0.024900324256961245,0.11224267278695263,0.001893815212518614, ,1.4476430416107178
0.028433531988839987,0.01917304195713661,-0.1127260211887893, ,0.02940850418876464,0.019042646094512162,-0.11326664406743141, ,0.0011224290483263402, ,0.025553484927346853,0.004559814675309668,-0.029361469327198002,0.04969691872678598,-0.0025483538427294936,-0.048761093912558943, ,0.03919015670876172, ,0.049761993695261256, ,0.0013207764254899478, ,0.2671833892495454,-0.1625866952010486,0.12460976512000001,1.6156610145482602,0.26001925905363316,-1.3955532153710366, ,0.15556875665323078,0.011860325270042644,0.03524073345132744,0.07354749982875657,0.1432338425532214,-0.039223710646741586, ,1.452942132949829
0.028433531988839987,0.01917304195713661,-0.1127260211887893, ,0.02954870581198909,0.019080767685021687,-0.11342469381406049, ,0.0013191931755564322, ,0.025553484927346853,0.004559814675309668,-0.029361469327198002,0.04969691872678598,-0.0025483538427294936,-0.048761093912558943, ,0.03919015670876172, ,0.049761993695261256, ,0.0013207659403910504, ,0.2671833892495454,-0.1625866952010486,0.12460976512000001,1.6156610145482602,0.26001925905363316,-1.3955532153710366, ,0.15556875665323078,0.011860325270042644,0.03524073345132744,0.07354749982875657,0.1432338425532214,-0.039223710646741586, ,1.4582130908966064
0.028694321672351794,0.019222596769782368,-0.11302621516072282, ,0.02968865795061945,0.019120690323634382,-0.1135811316278362, ,0.0011432505602532112, ,0.025736579793988235,0.005278404080832739,-0.029405454909962186,0.03889935881065961,-0.0049698049254484795,-0.01947846035405653, ,0.03943239616856544, ,0.03921526604802287, ,0.0013195980760480383, ,0.26877427222163564,-0.16250946787230636,0.12497143003000001,1.6156610145482602,0.261522260551053,-1.3958803461701512, ,0.1568544488569765,0.004976278141219603,0.03555538285714287,0.04506786618578866,0.14670068231697092,-0.03184053181354168, ,1.4634411334991455
0.028694321672351794,0.019222596769782368,-0.11302621516072282, ,0.02982836011046071,0.01916242014145773,-0.1137359531595375, ,0.00133917602751337, ,0.025736579793988235,0.005278404080832739,-0.029405454909962186,0.03889935881065961,-0.0049698049254484795,-0.01947846035405653, ,0.03943239616856544, ,0.03921526604802287, ,0.001319726036515132, ,0.26877427222163564,-0.16250946787230636,0.12497143003000001,1.6156610145482602,0.261522260551053,-1.3958803461701512, ,0.1568544488569765,0.004976278141219603,0.03555538285714287,0.04506786618578866,0.14670068231697092,-0.03184053181354168, ,1.4686589241027832
0.028953906596808278,0.01927952722341308,-0.11332682653933066, ,0.029967811943716793,0.019205962887024797,-0.11388915429047378, ,0.0011617350230511277, ,0.026175701209942,0.0058086363056347005,-0.03006616900179745,-0.0119083301695135,-0.025906405831942682,-0.00756692077053915, ,0.04028501095951126, ,0.028511850542997742, ,0.001318700120843288, ,0.27033426426222895,-0.16249402240655791,0.12533439123,1.6156610145482602,0.26288862554870746,-1.395932701585288, ,0.15659561313279005,0.0012468915735873273,0.0363671495890411,0.03004288670585041,0.12762380698672726,0.01863183200477788, ,1.4739511013031006
0.028953906596808278,0.01927952722341308,-0.11332682653933066, ,0.030107013247500286,0.019251323929140383,-0.11404073113119567, ,0.0013565065941468658, ,0.026175701209942,0.0058086363056347005,-0.03006616900179745,-0.0119083301695135,-0.025906405831942682,-0.00756692077053915, ,0.04028501095951126, ,0.028511850542997742, ,0.0013189440335742788, ,0.27033426426222895,-0.16249402240655791,0.12533439123,1.6156610145482602,0.26288862554870746,-1.395932701585288, ,0.15659561313279005,0.0012468915735873273,0.0363671495890411,0.03004288670585041,0.12762380698672726,0.01863183200477788, ,1.4794480800628662
0.029222049288284733,0.019341120872142153,-0.11363364362822356, ,0.030245963962342817,0.01929850825972761,-0.11419068002020806, ,0.001166407577343088, ,0.02660614738667158,0.006091935166637799,-0.030305937134730048,-0.029955085772722465,-0.02877610791641232,0.022349243612135365, ,0.04078539663225085, ,0.04153728428643846, ,0.0013179662357779252, ,0.27194059270006765,-0.16250174513943214,0.12570642646000002,1.6158707044917449,0.2642549905463618,-1.3957400207800035, ,0.15895635101921404,-0.001187585311137266,0.036787093579676675,0.0,0.13203142958104563,0.03109789157108754, ,1.4848480224609375
0.029222049288284733,0.019341120872142153,-0.11363364362822356, ,0.030384664170705004,0.019347520496674042,-0.11433899752268172, ,0.0013598670657261073, ,0.02660614738667158,0.006091935166637799,-0.030305937134730048,-0.029955085772722465,-0.02877610791641232,0.022349243612135365, ,0.04078539663225085, ,0.04153728428643846, ,0.001318233120045111, ,0.27194059270006765,-0.16250174513943214,0.12570642646000002,1.6158707044917449,0.2642549905463618,-1.3957400207800035, ,0.15895635101921404,-0.001187585311137266,0.036787093579676675,0.0,0.13203142958104563,0.03109789157108754, ,1.49025297164917
0.029495251889983094,0.01940902662491456,-0.11393369257980401, ,0.03052311409548654,0.01939836488667817,-0.11448568042916446, ,0.0011667497469492758, ,0.025856243908962514,0.006559986762932821,-0.02811757766358514,-0.005687014642780178,-0.009160449780081549,-0.052981729603034364, ,0.03875792756427202, ,0.010781391420219572, ,0.001317274364519188, ,0.2735932575351517,-0.1625558042695517,0.12607457282,1.6167094642656827,0.2656213555440162,-1.3953023037542969, ,0.1571141416530973,-0.006475341792567052,0.03462785113043479,0.08162884233568873,0.13664497347765767,0.033756024117436015, ,1.4955370426177979
0.029495251889983094,0.01940902662491456,-0.11393369257980401, ,0.03066131409853622,0.019451045308095542,-0.1146307257542932, ,0.0013591622016119079, ,0.025856243908962514,0.006559986762932821,-0.02811757766358514,-0.005687014642780178,-0.009160449780081549,-0.052981729603034364, ,0.03875792756427202, ,0.010781391420219572, ,0.0013175378100354945, ,0.2735932575351517,-0.1625558042695517,0.12607457282,1.6167094642656827,0.2656213555440162,-1.3953023037542969, ,0.1571141416530973,-0.006475341792567052,0.03462785113043479,0.08162884233568873,0.13664497347765767,0.033756024117436015, ,1.5009009838104248
0.029741772721464443,0.019474753656068943,-0.11419969143372098, ,0.030799264679162115,0.019505565273785292,-0.11477413073550759, ,0.0012038351663822735, ,0.02584347831743404,0.007199816277661541,-0.028546813459487275,0.023359255018306855,0.022379277100613947,-0.04135404818971223, ,0.03917452341339365, ,0.03234915579648896, ,0.001316827168512662, ,0.2751069131784997,-0.1626484770640424,0.12640383048,1.6173385340961361,0.26712435704143606,-1.3951393621125678, ,0.15763611554563253,-0.011093197215404475,0.03524073345132744,0.07681105265006703,0.1699898350494488,0.008049042894335515, ,1.5066509246826172
0.02999657271707132,0.01954544812229138,-0.11448244172793917, ,0.030936966472641478,0.01956192793395643,-0.11491589283175908, ,0.0010356118283944805, ,0.02521946526498453,0.006897067682327392,-0.027711173296245905,-0.007268465069082441,0.009167370311007297,0.03324535759127009, ,0.03809855766719966, ,0.011698500845506641, ,0.0013150804893814932, ,0.2751069131784997,-0.1626484770640424,0.12640383048,1.6173385340961361,0.26712435704143606,-1.3951393621125678, ,0.15763611554563253,-0.011093197215404475,0.03524073345132744,0.07681105265006703,0.1699898350494488,0.008049042894335515, ,1.512049913406372
0.02999657271707132,0.01954544812229138,-0.11448244172793917, ,0.03107442024873084,0.019620136079014104,-0.11505600972222482, ,0.00122323907575453, ,0.02521946526498453,0.006897067682327392,-0.027711173296245905,-0.007268465069082441,0.009167370311007297,0.03324535759127009, ,0.03809855766719966, ,0.011698500845506641, ,0.0013145135670751538, ,0.2766514597533446,-0.16276431805715577,0.12675253249,1.617548224039621,0.26876399503862136,-1.3949244808942542, ,0.15330685227539706,-0.011407253462972807,0.034255508645161296,-0.002490200104723351,0.16521429118704803,0.017693811378727595, ,1.5173819065093994
0.03025212627130498,0.019618537268986467,-0.11475646242646281, ,0.031211626910176215,0.01968019214240592,-0.11519447930501907, ,0.0010565517428459635, ,0.02554716538933327,0.0074185574733248065,-0.02643871095089602,-0.029814345563733434,-0.01610941289713742,0.02849573602557337, ,0.03750597407293937, ,0.03388798411092949, ,0.0013129309791964471, ,0.2782037290610637,-0.16291877271464025,0.12709345676,1.6173385340961361,0.2702669965360412,-1.3945981817722441, ,0.15633763024459765,-0.017147983657114344,0.033185024,0.0,0.14222011828934236,0.046337314640898394, ,1.5227069854736328
0.03025212627130498,0.019618537268986467,-0.11475646242646281, ,0.03134858749122279,0.01974209820346826,-0.1153312996959045, ,0.0012441593136141523, ,0.02554716538933327,0.0074185574733248065,-0.02643871095089602,-0.029814345563733434,-0.01610941289713742,0.02849573602557337, ,0.03750597407293937, ,0.03388798411092949, ,0.0013125116397721649, ,0.2782037290610637,-0.16291877271464025,0.12709345676,1.6173385340961361,0.2702669965360412,-1.3945981817722441, ,0.15633763024459765,-0.017147983657114344,0.033185024,0.0,0.14222011828934236,0.046337314640898394, ,1.527966022491455
