NicholasDascanio/dvrk_moveit_final/test/execution/third_experiment_notsharpbends/thirdexp_200vel5.0/thirdexp_200vel5.0_6.csv
Current Position (x),Current Position (y),Current Position (z), ,Planned Position (x),Planned Position (y),Planned Position (z), ,Position Error,,Cartesian linear Velocity(x),Cartesian linear Velocity(y),Cartesian linear Velocity(z),Cartesian Angular Velocity(x),Cartesian Angular Velocity(y),Cartesian Angular Velocity(z), ,Total Linear Velocity, ,Total Angular Velocity, ,MSE, ,Joint 1 Position,Joint 2 Position,Joint 3 Position,Joint 4 Position,Joint 5 Position,Joint 6 Position, ,Joint 1 Velocity,Joint 2 Velocity,Joint 3 Velocity,Joint 4 Velocity,Joint 5 Velocity,Joint 6 Velocity, ,Time Stamp
0.009672933775513898,0.019846435730705714,-0.07963496242745088, ,0.009895753391857741,0.019849339017219404,-0.07978645804698917, ,0.0002694585928106326, ,0.002056727977629035,0.0001837176530004221,-0.00032372639153113665,0.15305506874918975,-0.18714274608871792,-0.04910852970163674, ,0.002090138973025424, ,0.24176075257048144, ,2.2454882734219382e-05, ,0.13735652690095712,-0.24203044827819614,0.08922493699,1.6037086877696423,0.1459277817494904,-1.3902422326954889, ,0.0035184685317166866,-0.0010827277128171895,0.0003727464104922234,0.0014976956655423457,-0.1901167956723675,-0.15175658751623367, ,0.05206799507141113
0.009791589472386156,0.019898766287306545,-0.07979014365195265, ,0.010031800971589887,0.019975827213440735,-0.08002609819249394, ,0.00034541930445244944, ,0.002099351283110833,0.0019039933714589375,-0.005771479930811225,0.15123554339495773,-0.04223772547655316,-0.008971465467620104, ,0.006429809263128684, ,0.15702297613087404, ,2.794899533014009e-05, ,0.1378198908734106,-0.2421771802028064,0.08939086211000001,1.6037086877696423,0.13936922976074928,-1.4005764914250485, ,0.012504538352677662,-0.005392963888370321,0.0063436127120669065,0.0013838214038408526,-0.03123797399792898,-0.15933600235474338, ,0.10431408882141113
0.009870493950298513,0.019963025554744752,-0.0799786324825737, ,0.010167917360312436,0.020097550295308197,-0.08026769432733802, ,0.0004360210324588999, ,0.002060787098718386,0.0017914691990002561,-0.004436999918051667,-0.13918207599936205,0.02019709020881344,0.009017261408196644, ,0.0052099110961705735, ,0.1406398689229888, ,3.3899965474902644e-05, ,0.13843770950334855,-0.24235480305891358,0.0895995648,1.6041280676566114,0.13909595676121836,-1.3964330760909085, ,0.022589131530223943,-0.007297841982389605,0.0049996269679849345,0.0033127825676296384,0.04346621050547729,0.14685145697780463, ,0.1514129638671875
0.010029164727073249,0.020088998044825387,-0.08031797505593173, ,0.010304097925896035,0.020214591435843993,-0.08051118487394444, ,0.0003587366686846884, ,0.003038122665002965,0.002137070395678198,-0.005383885060660807,-0.05898731737467243,-0.02952545762740722,-0.014964995251351788, ,0.006540908006545843, ,0.06596405274575393, ,3.524088996016676e-05, ,0.1400285924754388,-0.24277955336699591,0.08997808148000001,1.6047571374870648,0.14114550425769998,-1.3958990186625595, ,0.02719110073308618,-0.008168481117586184,0.006058886085964246,0.015563513710261018,-0.006178372973182562,0.06918482767646297, ,0.19983506202697754
0.010148844984207758,0.020171992883044495,-0.08052042505309392, ,0.010440338114311623,0.020327033148677388,-0.08075650882435083, ,0.0004058833279603253, ,0.0031156353960601103,0.0021285665151425286,-0.004809627560574177,-0.0032921527738506355,-0.029151454452721257,-0.0007061438771898295, ,0.006113141303945407, ,0.02933676130764537, ,3.705140666055093e-05, ,0.14114066600932715,-0.2431193536134618,0.09020752481000001,1.6049668274305493,0.14114550425769998,-1.3955723037019974, ,0.029673840387264155,-0.009811546667424113,0.005523166269070736,0.0022272263657182488,0.0,0.013310349394315085, ,0.24708914756774902
0.010284896383315294,0.02026918072489559,-0.08074910174165764, ,0.010576633449296269,0.020434957290284248,-0.08100360573828273, ,0.00042114685039471933, ,0.0033540183043940025,0.002383490791438273,-0.005819604126114277,0.01271068902155278,-0.02673056451905468,-0.00381047398091922, ,0.0071272897600537745, ,0.029598727814463956, ,3.923975046950377e-05, ,0.14243036239932264,-0.2435363811886699,0.09046807910000002,1.6053862073175185,0.14141877725723084,-1.395631782029109, ,0.030951383417635606,-0.009657912010583523,0.006593051125827815,0.006103933609610268,0.002832390053469451,-0.0023096241688707305, ,0.2891669273376465
0.010451607446844495,0.02039164803199579,-0.08106094505168601, ,0.01071297953201011,0.020538445062220374,-0.08125241574122027, ,0.00035570459645231574, ,0.0028848825522609987,0.0023082493132255666,-0.006154247693853557,0.020367611792025894,0.0162964812240886,-0.0008733925094741597, ,0.007178114439715213, ,0.0260847637821294, ,3.98826211263697e-05, ,0.14398263170704176,-0.24399202242824916,0.09081678111000001,1.6058055872044876,0.1422385962558235,-1.395320144569601, ,0.02902934890133704,-0.007681827944928287,0.006857000223848473,0.013040712069728885,0.0441640142604683,-0.01148618228506387, ,0.33173298835754395
0.010583341766320253,0.0204832712698309,-0.08129749153302591, ,0.010849372040685938,0.020637577013350263,-0.08150287952245877, ,0.0003698196797973516, ,0.00306364381808736,0.00219374501477231,-0.0056478523754359454,0.020969791279207298,0.011197113410299012,-0.0010673807028071126, ,0.006789452635423618, ,0.023771989594267046, ,4.0577945931662767e-05, ,0.14524915989841458,-0.2443163772089666,0.09108640943000001,1.6062249670914566,0.14292177875465073,-1.3948970892063963, ,0.03182325337306196,-0.007692309015772472,0.006420319032648127,0.012645531900527144,0.040856788330290245,-0.0183827096658498, ,0.3738420009613037
0.010690082915871922,0.02055115325918359,-0.08148319281069083, ,0.010985806730269653,0.020732433042069287,-0.08175493833316251, ,0.00044063654304702846, ,0.0034832157892612705,0.0022452594685791185,-0.006239148513006704,-0.0009840098229280984,-0.012826528836602616,-0.0030540910962458924, ,0.00749005717489239, ,0.012864218121346417, ,4.253533245073013e-05, ,0.14622222424056686,-0.24452489099657065,0.09129511212000001,1.606434657034941,0.14305841525441615,-1.3945184346692496, ,0.03289322064418398,-0.006541621478505771,0.007007836128464585,0.008892812323441277,0.018477402766082264,0.008712969869744517, ,0.41028404235839844
0.010837540017545564,0.020650193309544262,-0.08176119912709054, ,0.011122279432057151,0.020823092398524555,-0.08200853398441485, ,0.00041490379703523295, ,0.003674780437131024,0.0023255252449075753,-0.006684544163925412,-0.02388799623148308,-0.013925937622605002,-0.010031360229171017, ,0.00797466046959321, ,0.027650824386947194, ,4.388195854130625e-05, ,0.1475891479593046,-0.24480290938004273,0.09160622172,1.6070637268653947,0.14387823425300877,-1.3944518334301628, ,0.03397670660883308,-0.005970105622225721,0.007481827862846407,0.01567083609045056,0.016761023343438264,0.032033139577784274, ,0.44733715057373047
0.01098532673611935,0.020745677087153486,-0.08203939902028254, ,0.011258786053322326,0.020909633686829302,-0.08226360884526371, ,0.0003897843126146308, ,0.0038886603599934985,0.0023202818068443166,-0.006735104025756119,0.010304372472489384,-0.013874487007751339,0.0012482329255884602, ,0.00811584951168476, ,0.01728240341854651, ,4.476079474157738e-05, ,0.14899468534241347,-0.2450423140991437,0.09191733132,1.6072734168088794,0.14510796275089774,-1.3947194859021657, ,0.0368102954066993,-0.005772590255082117,0.007567131363420429,0.005296701160510208,0.022332107989006623,-0.003831265336602349, ,0.48439908027648926
0.011083917676254561,0.02080964640432999,-0.08222956983698157, ,0.011395322576941305,0.020992134867274876,-0.08252010584076151, ,0.000463342444388733, ,0.004158377893337241,0.002607817511376472,-0.008384564452096423,-0.027990657637312566,-0.03292337129563146,-0.005433247232004624, ,0.009715644081984305, ,0.043213716005464003, ,4.6708571500970063e-05, ,0.14984418595857815,-0.24518904602375396,0.09212862659000001,1.607692796695848,0.14524459925066321,-1.394422510105159, ,0.03447037470340384,-0.004317772410009884,0.00923409363478261,0.006335335547031258,0.0,0.03317754519034016, ,0.5160510540008545
0.01120576924153665,0.020883157562320898,-0.08245793121321032, ,0.01153188506101237,0.021070673258541096,-0.08277796845000393, ,0.0004939002905200138, ,0.004111201894086419,0.0023506546605227656,-0.007456225824607204,-0.011104718001339383,-0.013556695106641533,0.0028117002228220944, ,0.00883305507140743, ,0.01752423239567785, ,4.8724126798273775e-05, ,0.1509562594924665,-0.24532805521549,0.09238269943,1.6079024866393328,0.1459277817494904,-1.3943261697025169, ,0.03798916795775452,-0.003948426456287708,0.008304906944734099,0.0038829049264881253,0.024226505858050956,0.015578938451939996, ,0.5482280254364014
0.011342434554001954,0.02097022618946069,-0.08273939376890876, ,0.011668469638470482,0.021145325539902268,-0.08303714070416396, ,0.0004749862064137476, ,0.004242366831060061,0.0026635258360643206,-0.008931625423216235,0.029787630331109115,-0.0006590983251043897,-0.004517270354543515, ,0.010240409118258085, ,0.029794920280228503, ,5.035485399134614e-05, ,0.15219961948521663,-0.24545934167435182,0.09269380903,1.608321866526302,0.14715751024737936,-1.3944304646942383, ,0.03773238232941184,-0.0030632990241696613,0.009832599703703704,0.014103000466042239,0.03471970904530954,-0.024676384094624297, ,0.5801420211791992
0.011482759170100911,0.02104754875425625,-0.08299909227010949, ,0.011805072516698392,0.02121616775343165,-0.08329756718452337, ,0.0004705374956495579, ,0.004430924274794515,0.0025574819122983756,-0.008898531465894031,0.03172939548336016,0.015256966183416803,0.011859080442869147, ,0.01026438823847787, ,0.03520695242515119, ,5.222462515111389e-05, ,0.15345842494371523,-0.24554429173596828,0.09298158541000001,1.6085315564697864,0.14784069274620656,-1.3944974817718772, ,0.0423269141652412,-0.0019476951646367942,0.009832599703703704,0.0030113429889619555,0.058663433606715616,-0.029349248402054766, ,0.6063840389251709
0.011610377280378649,0.021117497280128492,-0.08324897847390048, ,0.011941689977134523,0.021283275306204025,-0.08355919302050185, ,0.00048320132645125074, ,0.005224328070664269,0.002910133663175058,-0.010466836327296539,-0.028543167134896692,-0.029277786097648882,-0.015562236072479823, ,0.01205475609167974, ,0.040888886304777404, ,5.4044938271570295e-05, ,0.15456277574472935,-0.2455751826674652,0.09325639889000001,1.6089509363567556,0.14838723874526832,-1.3945347596859599, ,0.04327265916938932,-0.0011356323420702553,0.01147608899135447,0.01885778444190415,0.00968649988609053,0.032484186269264526, ,0.6342270374298096
0.011715596351109605,0.021177991577127065,-0.08347274870923463, ,0.012078318374877777,0.02134672297249655,-0.08382196388768454, ,0.0005310261680648264, ,0.005263684214093103,0.003137220490614957,-0.01168102671607613,0.03223902182591874,0.023960846780535037,0.015655582135377023, ,0.013190712985055492, ,0.040168102883500374, ,5.654371934282859e-05, ,0.15548950368963627,-0.24558290540033942,0.0935013977,1.6091606263002398,0.1493436942436264,-1.3947429338308508, ,0.048097790957157015,-0.00029899917485398203,0.012783957881219905,0.0026694666971490495,0.07369281316642863,-0.03152292977126865, ,0.6551389694213867
0.011834323821639429,0.02124321530699326,-0.08371427723626307, ,0.012214954138288464,0.021406584895987155,-0.08408582600584588, ,0.00055643287891612, ,0.005975877413307946,0.0031485432148957364,-0.011746327051591558,-0.028965603883653202,-0.03210842217820189,-0.012824710672867702, ,0.013549931159895303, ,0.04324299665261943, ,5.908416550855787e-05, ,0.156478013497537,-0.24559062813321364,0.09376584086,1.6093703162437245,0.1497536037429227,-1.394587115101097, ,0.049632291610078864,5.385641701373e-05,0.01287696970088925,0.016864142957932288,0.013825985853202436,0.03146496776750538, ,0.6763830184936523
0.011940670897815782,0.021299197423229464,-0.08392673426995417, ,0.012351593768587976,0.021462934591952424,-0.08435072613697278, ,0.0006127287894680622, ,0.0053223365401523694,0.0029794683947377593,-0.011222744810848529,0.045436384507490345,0.044386192145386985,0.011715798962137293, ,0.0127731945593618, ,0.06351849267928829, ,6.189306198194467e-05, ,0.15742790964106662,-0.2455751826674652,0.09399917306000001,1.6097896961306934,0.1507100592412808,-1.3947952892459878, ,0.05140679391033087,0.0004682027124721238,0.012347915906976746,0.012372460899471829,0.09576787258478255,-0.04397767255488766, ,0.6976101398468018
0.01207891949581098,0.021370400089088883,-0.08419583415300128, ,0.01248823383945562,0.021515844949464204,-0.08461661158328651, ,0.0006047694479388694, ,0.007152935601658533,0.0037441793838263356,-0.014037750291413728,-0.016345651705537485,-0.04404928589979254,-0.009097414924760835, ,0.01619388156754984, ,0.0469842460069981, ,6.495211498919309e-05, ,0.15860948777082298,-0.24556745993459095,0.09429472718000001,1.6097896961306934,0.15139324174010801,-1.3948623063236267, ,0.05818328728293733,0.0001629665923501177,0.015390156057971019,0.012372460899471829,0.011465591970813116,0.018081797182380666, ,0.71340012550354
0.01215062340458947,0.02140966886140109,-0.08434650134867554, ,0.012624870996622945,0.021565388233584136,-0.08488343018526247, ,0.0007331110945697292, ,0.007496321731573757,0.004153803747888969,-0.015927392531909345,-0.0023233661330917055,-0.03199398693031408,-0.010441808377027021, ,0.018086756424101114, ,0.032078220101597964, ,6.879679177206559e-05, ,0.15920413820213827,-0.2455520144688425,0.09445935601000001,1.6102090760176624,0.15180315123940433,-1.3951148812945755, ,0.05979643450439242,0.001077237385125805,0.017370568724100328,0.016988862136530794,0.02441949201990821,0.003881959491215777, ,0.7298519611358643
0.012332500320318254,0.02151342020687388,-0.0847550548612732, ,0.01276150195746691,0.021611636087558398,-0.08515113031964819, ,0.0005920849032206591, ,0.00811024909956418,0.004257788325885556,-0.016857900318236807,-0.00013252458792251305,-0.030641890057566817,-0.0016813949852694757, ,0.01918576829383274, ,0.030642154421110193, ,7.149395630286603e-05, ,0.16070234837973782,-0.24549795533872293,0.09490398348000001,1.6104187659611469,0.15330615273682416,-1.395605369573971, ,0.06549133302862027,0.0026420230986034673,0.018393546789838337,0.00991759794173123,0.03346886636020319,-0.0009279893889144377, ,0.7455151081085205
0.012416906376790033,0.021561152923177382,-0.08494411486520717, ,0.0128981235106007,0.021654659535010667,-0.08541966089748144, ,0.0006829768994199572, ,0.008118647913780695,0.004662139720772812,-0.018729329138560794,0.04880971920159792,0.042250794135234734,0.022479508246189387, ,0.02093885767429746, ,0.06455630092341334, ,7.521801828089517e-05, ,0.1614205625370407,-0.24546706440722604,0.09511009359000001,1.6106284559046316,0.15426260823518226,-1.395976901199143, ,0.07029403078405243,0.0035251759852209068,0.020395405275288096,0.005540918151012919,0.11476976015522886,-0.051393567155450876, ,0.7559630870819092
0.01247277218274798,0.02159280998562366,-0.0850726924957524, ,0.01303473251546287,0.021694528982134188,-0.08568897136210568, ,0.0008402058146131944, ,0.008907699390860682,0.004936136720011171,-0.02040023899845239,0.06917137716422443,0.044812012581365114,0.004421816507346681, ,0.022800927730041165, ,0.08241839817129595, ,7.991032969621084e-05, ,0.16190709470811684,-0.24543617347572913,0.09525009291000001,1.610838145848116,0.1550824272337749,-1.3963186936607594, ,0.07640655520005699,0.005694155364479305,0.022184974261838443,0.025098278095422703,0.11883299043483396,-0.07082264658480351, ,0.7685871124267578
0.012633150900116612,0.021679643668218607,-0.08542389045065922, ,0.013171325901906084,0.021731314219884366,-0.08595901168718595, ,0.0007606950218336098, ,0.010167750135996287,0.005263006352096581,-0.021065270137004034,-0.016100969854175407,-0.039049194311074474,-0.014263107598733409, ,0.023975570579971926, ,0.042238331626892466, ,8.394304353809802e-05, ,0.16321223656386077,-0.2453589461469869,0.09563249846,1.6112575257350852,0.15631215573166388,-1.3963413099123405, ,0.08035304111640201,0.004088877414540616,0.02298529800865801,0.023607562345946943,0.03668220616129437,0.015805014516794016, ,0.779102087020874
0.012735032222820686,0.02172984052571497,-0.08564758066477775, ,0.01330790066978342,0.021765084426169097,-0.08622973237472373, ,0.0008175090234595242, ,0.010373528220056105,0.005573632726569137,-0.02478237931639281,0.02472405398216548,0.03935835727077768,0.005909364122739643, ,0.027437962644565234, ,0.04647956308364932, ,8.824518218964323e-05, ,0.16403856898140282,-0.24525855061962198,0.09587490469000001,1.6112575257350852,0.15713197473025653,-1.396438066153535, ,0.08405397835116987,0.01108350170035865,0.02677111179831933,0.02322837019796584,0.12152996763137296,-0.03194412833457057, ,0.7896411418914795
0.012735032222820686,0.02172984052571497,-0.08564758066477775, ,0.013444453888533719,0.021795908168039432,-0.08650108445306894, ,0.0011118060756142578, ,0.010373528220056105,0.005573632726569137,-0.02478237931639281,0.02472405398216548,0.03935835727077768,0.005909364122739643, ,0.027437962644565234, ,0.04647956308364932, ,9.49791354358578e-05, ,0.16403856898140282,-0.24525855061962198,0.09587490469000001,1.6112575257350852,0.15713197473025653,-1.396438066153535, ,0.08405397835116987,0.01108350170035865,0.02677111179831933,0.02322837019796584,0.12152996763137296,-0.03194412833457057, ,0.7949709892272949
0.012735032222820686,0.02172984052571497,-0.08564758066477775, ,0.013580982696766754,0.02182385340387993,-0.08677301947493489, ,0.0014110574549033646, ,0.010373528220056105,0.005573632726569137,-0.02478237931639281,0.02472405398216548,0.03935835727077768,0.005909364122739643, ,0.027437962644565234, ,0.04647956308364932, ,0.0005464788290053017, ,0.16474133767295723,-0.24516587782513127,0.09610694060000001,1.6112575257350852,0.15822506672838005,-1.3969210156824037, ,0.08935681879328698,0.011770893271951226,0.030168203636363643,0.019303694710293473,0.14222996325538054,-0.0863613567982425, ,0.8003659248352051
0.012822518707499448,0.021778143374670277,-0.08586266518721068, ,0.013717484301845571,0.02184898748559718,-0.08704548951540872, ,0.001484942993684765, ,0.011219825516852357,0.006328186103686115,-0.02797200418957677,0.07783918248383209,0.05314864013215699,0.01469444728392247, ,0.03079551010087668, ,0.09425337740976673, ,0.0005777609678279505, ,0.16474133767295723,-0.24516587782513127,0.09610694060000001,1.6112575257350852,0.15822506672838005,-1.3969210156824037, ,0.08935681879328698,0.011770893271951226,0.030168203636363643,0.019303694710293473,0.14222996325538054,-0.0863613567982425, ,0.8064579963684082
0.013017994659415362,0.021884957394447895,-0.08634377249229488, ,0.013853955979470492,0.0218713771608102,-0.08731844716996434, ,0.0012841364719779706, ,0.014229467091027265,0.007614517311322825,-0.0354589876637358,0.06420120801490053,0.03452786739855465,0.0028624728154697317, ,0.03895893239959266, ,0.07289658894921604, ,0.000600547274413435, ,0.1662704387820537,-0.24493419583890455,0.0966254566,1.6120962855090233,0.16041125072462709,-1.3980502722204218, ,0.10783743358917133,0.019117030934421995,0.038107204593301434,0.029600380297133196,0.13953077207831538,-0.0782155317647279, ,0.8117859363555908
0.013017994659415362,0.021884957394447895,-0.08634377249229488, ,0.013990395073259571,0.02189108857503797,-0.08759184555247244, ,0.001582177777546125, ,0.014229467091027265,0.007614517311322825,-0.0354589876637358,0.06420120801490053,0.03452786739855465,0.0028624728154697317, ,0.03895893239959266, ,0.07289658894921604, ,0.0006312232276363315, ,0.1662704387820537,-0.24493419583890455,0.0966254566,1.6120962855090233,0.16041125072462709,-1.3980502722204218, ,0.10783743358917133,0.019117030934421995,0.038107204593301434,0.029600380297133196,0.13953077207831538,-0.0782155317647279, ,0.8170311450958252
0.013175934382116717,0.02196991953195871,-0.08676194787189172, ,0.014126798994330501,0.02190818727388862,-0.08786563829321216, ,0.00145811073947125, ,0.017346863187819847,0.009565583903645722,-0.04752740151296532,0.10465552245212716,0.10022594311947353,-0.009836916010698617, ,0.05149046467501768, ,0.14490609217389042, ,0.0006562804249646624, ,0.16745201691181005,-0.24465617745543247,0.09707267665000001,1.612725355339477,0.16232416172134326,-1.3990383716911876, ,0.12703740503142005,0.03203813016828858,0.05072869910828026,0.06099429299412295,0.21933237219042875,-0.12616434193363665, ,0.8222451210021973
0.013175934382116717,0.02196991953195871,-0.08676194787189172, ,0.014263165220880504,0.021922738205246834,-0.0881397795368802, ,0.00175576680438896, ,0.017346863187819847,0.009565583903645722,-0.04752740151296532,0.10465552245212716,0.10022594311947353,-0.009836916010698617, ,0.05149046467501768, ,0.14490609217389042, ,0.0006886182596536123, ,0.16745201691181005,-0.24465617745543247,0.09707267665000001,1.612725355339477,0.16232416172134326,-1.3990383716911876, ,0.12703740503142005,0.03203813016828858,0.05072869910828026,0.06099429299412295,0.21933237219042875,-0.12616434193363665, ,0.8275370597839355
0.013362902357673352,0.022077776278290006,-0.08729584035881732, ,0.014399491297766144,0.02193480572146207,-0.08841422394060118, ,0.0015315805714509695, ,0.0196543961305424,0.011717269403630812,-0.05705142327784231,0.13971921763058157,0.12390492252659084,0.024100959585939413, ,0.06146913524331597, ,0.1867439026863872, ,0.0007127028971335369, ,0.16879577243192512,-0.2443163772089666,0.09764174796000001,1.612725355339477,0.1649202552168866,-1.4006652394205763, ,0.13733276636537015,0.03444535083792043,0.06079699053435115,0.0353805868130606,0.26071262563939945,-0.1677205062568436, ,0.832888126373291
0.013362902357673352,0.022077776278290006,-0.08729584035881732, ,0.01453577483608275,0.021944453581536044,-0.08868892667193694, ,0.001825950236967359, ,0.0196543961305424,0.011717269403630812,-0.05705142327784231,0.13971921763058157,0.12390492252659084,0.024100959585939413, ,0.06146913524331597, ,0.1867439026863872, ,0.000743626434351143, ,0.16879577243192512,-0.2443163772089666,0.09764174796000001,1.612725355339477,0.1649202552168866,-1.4006652394205763, ,0.13733276636537015,0.03444535083792043,0.06079699053435115,0.0353805868130606,0.26071262563939945,-0.1677205062568436, ,0.8381850719451904
0.013568641938304888,0.02219339656603992,-0.08787508187755175, ,0.014672013512742629,0.021951744953309926,-0.08896384340689513, ,0.0015688295002932494, ,0.021231923013836636,0.011313592581820424,-0.057469695326880184,0.04257715814978368,0.04983845933009085,0.01738773510476838, ,0.0623021493444435, ,0.06554433255429819, ,0.0007659292199171458, ,0.17021675528078242,-0.24393796329812958,0.098258782,1.612725355339477,0.1672430757128991,-1.4018242351221506, ,0.14554745637802266,0.039589879665611505,0.061264659692307696,0.02466804330426221,0.19537123192028374,-0.07745562065170986, ,0.8435699939727783
0.013568641938304888,0.02219339656603992,-0.08787508187755175, ,0.014808205070053482,0.02195674241565146,-0.08923893032793846, ,0.0018581185484539758, ,0.021231923013836636,0.011313592581820424,-0.057469695326880184,0.04257715814978368,0.04983845933009085,0.01738773510476838, ,0.0623021493444435, ,0.06554433255429819, ,0.0007946710443523256, ,0.17021675528078242,-0.24393796329812958,0.098258782,1.612725355339477,0.1672430757128991,-1.4018242351221506, ,0.14554745637802266,0.039589879665611505,0.061264659692307696,0.02466804330426221,0.19537123192028374,-0.07745562065170986, ,0.8488790988922119
0.013788822882545562,0.022296868152440676,-0.08845205052234417, ,0.014944347315295845,0.02195950796064191,-0.08951414412199275, ,0.0016053321862181187, ,0.0238995154390642,0.009877973834301662,-0.06085640631729349,-0.046764414171815066,-0.037726168505707085,0.01985007395746854, ,0.06612309275244721, ,0.06007777892730438, ,0.0008154572274770896, ,0.17169951999263353,-0.243435985661305,0.09887192717000001,1.6129350452829614,0.16874607721031895,-1.402151365921265, ,0.15949065808146348,0.06330683226048751,0.06448911546558705,0.0,0.12557245784344873,-0.01556649889145216, ,0.8541750907897949
0.013788822882545562,0.022296868152440676,-0.08845205052234417, ,0.015080438120300875,0.02196010299576288,-0.08978944197845484, ,0.0018895228498305471, ,0.0238995154390642,0.009877973834301662,-0.06085640631729349,-0.046764414171815066,-0.037726168505707085,0.01985007395746854, ,0.06612309275244721, ,0.06007777892730438, ,0.0008423088680359259, ,0.17169951999263353,-0.243435985661305,0.09887192717000001,1.6129350452829614,0.16874607721031895,-1.402151365921265, ,0.15949065808146348,0.06330683226048751,0.06448911546558705,0.0,0.12557245784344873,-0.01556649889145216, ,0.8594729900360107
0.014034936954502598,0.022390448145162247,-0.08905848522528517, ,0.015216475421026417,0.021958588346082667,-0.09006478158720115, ,0.0016109526380194536, ,0.024836572737951854,0.008710709366054135,-0.058572842904934704,-0.055068863845276636,-0.007410647019754417,-0.060876511551762484, ,0.06421456010122312, ,0.05555905001174761, ,0.0008610562770599144, ,0.17337535302634025,-0.24274093970262478,0.09951488701000001,1.6137738050568995,0.17011244220797336,-1.4022037213364018, ,0.1741228285476528,0.07076580280273734,0.06222192000000001,0.08912804229096587,0.14981508073860883,0.0004225251014676676, ,0.8647470474243164
0.014034936954502598,0.022390448145162247,-0.08905848522528517, ,0.015352457217135147,0.021955024256443523,-0.09034012113659474, ,0.001888926736131551, ,0.024836572737951854,0.008710709366054135,-0.058572842904934704,-0.055068863845276636,-0.007410647019754417,-0.060876511551762484, ,0.06421456010122312, ,0.05555905001174761, ,0.0008855293832282867, ,0.17337535302634025,-0.24274093970262478,0.09951488701000001,1.6137738050568995,0.17011244220797336,-1.4022037213364018, ,0.1741228285476528,0.07076580280273734,0.06222192000000001,0.08912804229096587,0.14981508073860883,0.0004225251014676676, ,0.8700809478759766
0.014283899604755464,0.022466059131772534,-0.08962053640521153, ,0.015488381571569048,0.021949470393646878,-0.09061541931149306, ,0.0016454278258096133, ,0.02515728003494487,0.006211722507842012,-0.052840076457328446,-0.03949893263984661,0.0234406467329609,-0.028542990389868933, ,0.05885191513695525, ,0.04592621990606899, ,0.0009032014400325036, ,0.17519791798465723,-0.2419841118809508,0.10011247670000001,1.6141931849438687,0.17202535320468954,-1.4024567121459026, ,0.1917109930474157,0.08131700219234857,0.05628555307420496,0.06719636367309705,0.20523032748047088,-0.028998854590173095, ,0.8787219524383545
0.014403710328209455,0.02249133774306132,-0.08986271659790683, ,0.015624246610126496,0.021941985848640363,-0.09089063529125503, ,0.001687635375166817, ,0.025316531872828785,0.004760739857694575,-0.04981298841537855,-0.05265767812514229,0.0234597461577098,-0.00993529057999593, ,0.056079633067016715, ,0.0576444624909785, ,0.0009210294840128288, ,0.17612464592956417,-0.2415825297714911,0.10037043841000001,1.6141931849438687,0.1729818087030476,-1.4025015288105127, ,0.19936332260182937,0.08811229485466182,0.053096038400000004,0.04945940773113219,0.2175138371703242,-0.025496087802896472, ,0.8840539455413818
0.014403710328209455,0.02249133774306132,-0.08986271659790683, ,0.015760050521037988,0.02193262913870396,-0.09116572874774853, ,0.0019620536908811098, ,0.025316531872828785,0.004760739857694575,-0.04981298841537855,-0.05265767812514229,0.0234597461577098,-0.00993529057999593, ,0.056079633067016715, ,0.0576444624909785, ,0.0009441633552765684, ,0.17612464592956417,-0.2415825297714911,0.10037043841000001,1.6141931849438687,0.1729818087030476,-1.4025015288105127, ,0.19936332260182937,0.08811229485466182,0.053096038400000004,0.04945940773113219,0.2175138371703242,-0.025496087802896472, ,0.8893229961395264
0.014783754323774595,0.022524703835511896,-0.09052672737676415, ,0.01589579155454132,0.021921458209635664,-0.09144065984335664, ,0.0015607064558211987, ,0.024138260669162588,-0.0005927728223306854,-0.036901407214425266,-0.16247544333524255,-0.05208774228144438,0.01729016430428542, ,0.0440989893552695, ,0.1706204388635427, ,0.0009575664661579733, ,0.17922918454500242,-0.24009976505964,0.10107821275000001,1.6141931849438687,0.1759878116978873,-1.4023390030073362, ,0.20233889458096116,0.10820631876678537,0.03923352591133005,0.0009121663706911822,0.1546193478161616,0.05621219625898871, ,0.894568920135498
0.014783754323774595,0.022524703835511896,-0.09052672737676415, ,0.01603146802245657,0.021908530437937435,-0.09171538922898505, ,0.0018301300851803755, ,0.024138260669162588,-0.0005927728223306854,-0.036901407214425266,-0.16247544333524255,-0.05208774228144438,0.01729016430428542, ,0.0440989893552695, ,0.1706204388635427, ,0.0009761316495414287, ,0.17922918454500242,-0.24009976505964,0.10107821275000001,1.6141931849438687,0.1759878116978873,-1.4023390030073362, ,0.20233889458096116,0.10820631876678537,0.03923352591133005,0.0009121663706911822,0.1546193478161616,0.05621219625898871, ,0.8998501300811768
0.015001095036962737,0.02250745829263465,-0.09084464791612658, ,0.01616707829776216,0.021893902633001797,-0.09198987804206908, ,0.0017457146253893397, ,0.02552983231061149,-0.002174652333488292,-0.03812729028832928,-0.15413867467918113,-0.04484046345794409,0.016583596500711565, ,0.04593682308682237, ,0.16052824556382966, ,0.000992164628204927, ,0.1810826404348163,-0.23904175065587124,0.10141524815000001,1.6141931849438687,0.17749081319530713,-1.4020127038853258, ,0.2151858085226095,0.12737844504492724,0.04032610511392406,0.0026920687289168368,0.17484909176552693,0.029326578605209236, ,0.9051480293273926
0.015001095036962737,0.02250745829263465,-0.09084464791612658, ,0.016302620814168903,0.021877631039297008,-0.09226408790457845, ,0.0020261938699431496, ,0.02552983231061149,-0.002174652333488292,-0.03812729028832928,-0.15413867467918113,-0.04484046345794409,0.016583596500711565, ,0.04593682308682237, ,0.16052824556382966, ,0.0010132672657914212, ,0.1810826404348163,-0.23904175065587124,0.10141524815000001,1.6141931849438687,0.17749081319530713,-1.4020127038853258, ,0.2151858085226095,0.12737844504492724,0.04032610511392406,0.0026920687289168368,0.17484909176552693,0.029326578605209236, ,0.9104421138763428
0.015339147625779597,0.02247842467726346,-0.09136558464926323, ,0.016438094065694898,0.021859771338552835,-0.09253798092102594, ,0.001721896701124499, ,0.027238291722253158,-0.002104248930034315,-0.04371324206362029,-0.16286171181127768,-0.054810742190698404,0.015079803770531582, ,0.05154803518291243, ,0.171837117706741, ,0.0010274398544980828, ,0.18387054700241134,-0.2373195812249192,0.10196487511,1.6144028748873531,0.1796769971915542,-1.401671743100814, ,0.2191615278486623,0.13955432582128055,0.04603702751445087,-0.00013515453940260696,0.16929246846885804,0.025621120148680815, ,0.9157450199127197
0.015339147625779597,0.02247842467726346,-0.09136558464926323, ,0.016573496606240138,0.021840378651946723,-0.0928115196764724, ,0.0020053548910097833, ,0.027238291722253158,-0.002104248930034315,-0.04371324206362029,-0.16286171181127768,-0.054810742190698404,0.015079803770531582, ,0.05154803518291243, ,0.171837117706741, ,0.001046614659135567, ,0.18387054700241134,-0.2373195812249192,0.10196487511,1.6144028748873531,0.1796769971915542,-1.401671743100814, ,0.2191615278486623,0.13955432582128055,0.04603702751445087,-0.00013515453940260696,0.16929246846885804,0.025621120148680815, ,0.9209930896759033
0.01562518525242341,0.022458480511476663,-0.09182830650328089, ,0.016708827049160744,0.021819507542288733,-0.09308466723453267, ,0.0017779224634444737, ,0.029288396629164718,-0.0019211617268037433,-0.04851743500662232,-0.15958315917246402,-0.0747542119657632,-0.01863322575978256, ,0.056704872269582124, ,0.1762234605862961, ,0.001060678270756892, ,0.1861255850016849,-0.23586770744456498,0.10245228015,1.614822254774322,0.18117999868897403,-1.401345443978804, ,0.22702617597720282,0.14920902760765847,0.05105388307692308,0.02791464213132089,0.15004480072437845,0.01798116755468479, ,0.9262371063232422
0.01562518525242341,0.022458480511476663,-0.09182830650328089, ,0.016844084066843925,0.02179721201620827,-0.0933573871353829, ,0.0020642378550205284, ,0.029288396629164718,-0.0019211617268037433,-0.04851743500662232,-0.15958315917246402,-0.0747542119657632,-0.01863322575978256, ,0.056704872269582124, ,0.1762234605862961, ,0.0010796133572524324, ,0.1861255850016849,-0.23586770744456498,0.10245228015,1.614822254774322,0.18117999868897403,-1.401345443978804, ,0.22702617597720282,0.14920902760765847,0.05105388307692308,0.02791464213132089,0.15004480072437845,0.01798116755468479, ,0.9314911365509033
0.0159254098165443,0.02244123380855512,-0.09234945648500889, ,0.016979266390281387,0.021773545526338693,-0.09362964339376553, ,0.0017875401650228407, ,0.030953571006233097,-0.0014015961722225944,-0.05677578606198975,-0.14395787917140834,-0.07149392579637905,-0.0245259334366435, ,0.06468058373905367, ,0.16073164732102138, ,0.0010927231129518845, ,0.1883883457338327,-0.23431543813684585,0.10299931453000001,1.6150319447178065,0.18268300018639388,-1.4013458598173565, ,0.2254084122528997,0.16277348466290012,0.05943586388059702,0.03107949660314579,0.15096886230782353,-0.010274315846137937, ,0.9368009567260742
0.0159254098165443,0.02244123380855512,-0.09234945648500889, ,0.01711437280864294,0.021748560973502782,-0.0939014004969957, ,0.0020741164068926615, ,0.030953571006233097,-0.0014015961722225944,-0.05677578606198975,-0.14395787917140834,-0.07149392579637905,-0.0245259334366435, ,0.06468058373905367, ,0.16073164732102138, ,0.0011105666273871712, ,0.1899715059730487,-0.23314158273996372,0.10343227539000001,1.615241634661291,0.1837760921845174,-1.4015020943856624, ,0.2222410809331868,0.16976197058760426,0.06271185637795276,-0.02874276841239481,0.132431841337425,-0.004020039783263256, ,0.9423739910125732
0.016146154829519463,0.022431602257371026,-0.09276353533095608, ,0.017249402168851638,0.021722310708898962,-0.09417262340296734, ,0.0019250398404089806, ,0.03165159316780197,-0.0015392446349616323,-0.060081008940575394,-0.16796238039249542,-0.100161310802562,0.026536813469607373, ,0.06792584382562948, ,0.19555783427218498, ,0.0011251107919054179, ,0.1899715059730487,-0.23314158273996372,0.10343227539000001,1.615241634661291,0.1837760921845174,-1.4015020943856624, ,0.2222410809331868,0.16976197058760426,0.06271185637795276,-0.02874276841239481,0.132431841337425,-0.004020039783263256, ,0.9476919174194336
0.01655067173828431,0.022399304662638203,-0.0935118435165398, ,0.017384353375156925,0.021694846536286474,-0.0944432775381577, ,0.0014348713043576078, ,0.029593180240239988,-0.003762497022412699,-0.053180074023506975,-0.1764985602627039,-0.10212552324547702,0.01613017989391564, ,0.060975675262523135, ,0.20391404788460102, ,0.0011305451868607196, ,0.19282119440363757,-0.23090199020643862,0.10421264197,1.615241634661291,0.18541573018170268,-1.4015322493877704, ,0.20948552220412975,0.17253989374267414,0.055308373333333334,-0.023250571763277394,0.11586675781409117,0.0027951848000817917, ,0.95296311378479
0.01655067173828431,0.022399304662638203,-0.0935118435165398, ,0.017519225388708117,0.021666219714170452,-0.09471332879563561, ,0.0017085305356660148, ,0.029593180240239988,-0.003762497022412699,-0.053180074023506975,-0.1764985602627039,-0.10212552324547702,0.01613017989391564, ,0.060975675262523135, ,0.20391404788460102, ,0.0011405104514952936, ,0.19282119440363757,-0.23090199020643862,0.10421264197,1.615241634661291,0.18541573018170268,-1.4015322493877704, ,0.20948552220412975,0.17253989374267414,0.055308373333333334,-0.023250571763277394,0.11586675781409117,0.0027951848000817917, ,0.9582109451293945
0.016844808921072447,0.022350893080220743,-0.09402486284321221, ,0.017654017227128622,0.02163648095798791,-0.09498274353306418, ,0.0014431694907303236, ,0.03019167081937122,-0.006043962462517143,-0.0519463518990902,-0.1689611353189554,-0.08813142352616142,0.012689023499168346, ,0.060386173456658934, ,0.19056399138928337, ,0.001145640265719616, ,0.19492950047830085,-0.22911803891249274,0.10474541716,1.615241634661291,0.18664545867959165,-1.4016365443794923, ,0.21765353568456597,0.1909395202383718,0.05381355243243244,-0.01864790257899253,0.13749103608121105,-0.021929594130779606, ,0.963468074798584
0.016844808921072447,0.022350893080220743,-0.09402486284321221, ,0.017788727964088705,0.021605680442292472,-0.09525148857070864, ,0.001717828778095447, ,0.03019167081937122,-0.006043962462517143,-0.0519463518990902,-0.1689611353189554,-0.08813142352616142,0.012689023499168346, ,0.060386173456658934, ,0.19056399138928337, ,0.00115517674092588, ,0.19492950047830085,-0.22911803891249274,0.10474541716,1.615241634661291,0.18664545867959165,-1.4016365443794923, ,0.21765353568456597,0.1909395202383718,0.05381355243243244,-0.01864790257899253,0.13749103608121105,-0.021929594130779606, ,0.9687530994415283
0.017154973649823466,0.022289260181921466,-0.0945718319587746, ,0.017923356728879767,0.021573867802940315,-0.09551953118944109, ,0.001414331164858577, ,0.029826071285323524,-0.005724716796588864,-0.05277655683710078,-0.1527199555125997,-0.053313883514362996,-0.0034913113437335876, ,0.06089114765134646, ,0.16175705713511782, ,0.0011594251741051046, ,0.19714592481320328,-0.22714101929669128,0.10531189589,1.6150319447178065,0.18828509667677693,-1.4019934143421624, ,0.21182353026444373,0.18791473575934806,0.05473818391752577,0.004105115931217502,0.1619036213929992,-0.030885207117404806, ,0.974174976348877
0.017154973649823466,0.022289260181921466,-0.0945718319587746, ,0.01805790270598748,0.021541092139275304,-0.0957868391287459, ,0.0016885729843817549, ,0.029826071285323524,-0.005724716796588864,-0.05277655683710078,-0.1527199555125997,-0.053313883514362996,-0.0034913113437335876, ,0.06089114765134646, ,0.16175705713511782, ,0.001167959816206341, ,0.19714592481320328,-0.22714101929669128,0.10531189589,1.6150319447178065,0.18828509667677693,-1.4019934143421624, ,0.21182353026444373,0.18791473575934806,0.05473818391752577,0.004105115931217502,0.1619036213929992,-0.030885207117404806, ,0.9796340465545654
0.01735099421750958,0.02224885964213169,-0.09491593116174693, ,0.018192365134665354,0.021507402016314306,-0.09605338058472562, ,0.001597327649842968, ,0.028751271986197424,-0.006686685997757385,-0.04931095540509168,-0.18379812568002218,-0.052413653190959204,-0.005318138672149515, ,0.057471016464126036, ,0.1911246988005458, ,0.0011747751786450175, ,0.19852829399768948,-0.2258899365710669,0.10566837564,1.6150319447178065,0.18924155217513502,-1.4019565522666317, ,0.20585019860839648,0.18791473575934806,0.05105388307692308,0.004165561225364777,0.15663217744855806,0.0002531988986775868, ,0.9849710464477539
0.01735099421750958,0.02224885964213169,-0.09491593116174693, ,0.01832674330850662,0.021472845466932147,-0.0963191242081059, ,0.0018770282400758756, ,0.028751271986197424,-0.006686685997757385,-0.04931095540509168,-0.18379812568002218,-0.052413653190959204,-0.005318138672149515, ,0.057471016464126036, ,0.1911246988005458, ,0.0011857478827298747, ,0.19852829399768948,-0.2258899365710669,0.10566837564,1.6150319447178065,0.18924155217513502,-1.4019565522666317, ,0.20585019860839648,0.18791473575934806,0.05105388307692308,0.004165561225364777,0.15663217744855806,0.0002531988986775868, ,0.9902639389038086
0.017697003445289242,0.022143733821861872,-0.09547687646624654, ,0.018461036575019404,0.021437469994047397,-0.0965840391022416, ,0.0015193302209684186, ,0.02544586382646519,-0.010007053335465938,-0.03970248203885154,-0.2490918170738699,-0.07983822429661122,-0.018990308064763574, ,0.048207055317444965, ,0.26157365452965087, ,0.0011908799187027755, ,0.20104590491468666,-0.22347272118143463,0.10624652098000001,1.6150319447178065,0.19101782667208575,-1.4015263739914523, ,0.18498429153698007,0.1956637970277748,0.040531327022900764,0.003961975473343019,0.10701609579090299,0.05804689261406197, ,0.9955630302429199
0.017697003445289242,0.022143733821861872,-0.09547687646624654, ,0.018595244335199154,0.021401322572807614,-0.09684809482112136, ,0.0017995140832385986, ,0.02544586382646519,-0.010007053335465938,-0.03970248203885154,-0.2490918170738699,-0.07983822429661122,-0.018990308064763574, ,0.048207055317444965, ,0.26157365452965087, ,0.0012001016484684698, ,0.20104590491468666,-0.22347272118143463,0.10624652098000001,1.6150319447178065,0.19101782667208575,-1.4015263739914523, ,0.18498429153698007,0.1956637970277748,0.040531327022900764,0.003961975473343019,0.10701609579090299,0.05804689261406197, ,1.0008599758148193
0.01794857116047747,0.022042836652429062,-0.09591207092195503, ,0.01872936604310189,0.021364449652774342,-0.09711126136737389, ,0.001583637362029859, ,0.02603241021590765,-0.009680142600010409,-0.04896578788308087,-0.19209801153140246,-0.0005984625025278974,-0.005799346829448, ,0.05629422639504604, ,0.19209821108274514, ,0.0012058260621037144, ,0.20280668801000984,-0.22143391970263937,0.10668855587000001,1.6150319447178065,0.19238419166974016,-1.401252014446027, ,0.17671683716661224,0.21135176293646052,0.049777536000000004,0.003731767020238306,0.17986734699610138,-0.014347307415638624, ,1.006201982498169
0.01794857116047747,0.022042836652429062,-0.09591207092195503, ,0.01886340120541604,0.021326897160108268,-0.0973735091902721, ,0.0018668918500782158, ,0.02603241021590765,-0.009680142600010409,-0.04896578788308087,-0.19209801153140246,-0.0005984625025278974,-0.005799346829448, ,0.05629422639504604, ,0.19209821108274514, ,0.0012155476178092217, ,0.20280668801000984,-0.22143391970263937,0.10668855587000001,1.6150319447178065,0.19238419166974016,-1.401252014446027, ,0.17671683716661224,0.21135176293646052,0.049777536000000004,0.003731767020238306,0.17986734699610138,-0.014347307415638624, ,1.0121519565582275
0.01794857116047747,0.022042836652429062,-0.09591207092195503, ,0.01899734938103772,0.02128871049975485,-0.09763480918373937, ,0.002153246183947501, ,0.02603241021590765,-0.009680142600010409,-0.04896578788308087,-0.19209801153140246,-0.0005984625025278974,-0.005799346829448, ,0.05629422639504604, ,0.19209821108274514, ,0.001229137452101081, ,0.20280668801000984,-0.22143391970263937,0.10668855587000001,1.6150319447178065,0.19238419166974016,-1.401252014446027, ,0.17671683716661224,0.21135176293646052,0.049777536000000004,0.003731767020238306,0.17986734699610138,-0.014347307415638624, ,1.0175039768218994
0.018205673477138213,0.02195938737725088,-0.09642552205863039, ,0.019131210180642125,0.021249934557629344,-0.09789513268435439, ,0.0018760855215162007, ,0.025044518231178113,-0.007394676656793801,-0.05039017568284971,-0.1685730279144739,0.021794056040251315,4.115995073966541e-05, ,0.05675454996419937, ,0.16997506209489205, ,0.0012383795673784398, ,0.20450568924233925,-0.21941056368959255,0.10721225703000001,1.6150319447178065,0.19443373916622175,-1.4016164231592243, ,0.16277348466290012,0.18979388311694156,0.0515495518446602,0.003485314090413546,0.18851344365205772,-0.016737290821965206, ,1.0228171348571777
0.018205673477138213,0.02195938737725088,-0.09642552205863039, ,0.019264983266256305,0.021210613702801646,-0.09815445146935664, ,0.0021614800836796616, ,0.025044518231178113,-0.007394676656793801,-0.05039017568284971,-0.1685730279144739,0.021794056040251315,4.115995073966541e-05, ,0.05675454996419937, ,0.16997506209489205, ,0.0012513809831009924, ,0.20450568924233925,-0.21941056368959255,0.10721225703000001,1.6150319447178065,0.19443373916622175,-1.4016164231592243, ,0.16277348466290012,0.18979388311694156,0.0515495518446602,0.003485314090413546,0.18851344365205772,-0.016737290821965206, ,1.0280921459197998
0.018615265687126147,0.021826644174047113,-0.09723822960229997, ,0.019398668350833932,0.021170791789682303,-0.09841273775465106, ,0.001556705329701367, ,0.02513317486872149,-0.008481472294422216,-0.051296874649347846,-0.2377140329352189,-0.016777557437503803,-0.013375225352475777, ,0.05774929610007113, ,0.2383046216567501, ,0.0012556215990259976, ,0.20712369568670136,-0.2162442432111605,0.10804188263000002,1.6150319447178065,0.19702983266176513,-1.4012013223850988, ,0.1545552794111902,0.19894537014354458,0.05222561154098361,0.0031219786958320396,0.14049901108183296,0.04353537639543513, ,1.033371925354004
0.018615265687126147,0.021826644174047113,-0.09723822960229997, ,0.01953226519782633,0.021130512160207,-0.09866996419281375, ,0.0018372130581375493, ,0.02513317486872149,-0.008481472294422216,-0.051296874649347846,-0.2377140329352189,-0.016777557437503803,-0.013375225352475777, ,0.05774929610007113, ,0.2383046216567501, ,0.001263588605315197, ,0.20712369568670136,-0.2162442432111605,0.10804188263000002,1.6150319447178065,0.19702983266176513,-1.4012013223850988, ,0.1545552794111902,0.19894537014354458,0.05222561154098361,0.0031219786958320396,0.14049901108183296,0.04353537639543513, ,1.0386481285095215
0.018869367087279994,0.02174316530845957,-0.09777816208205925, ,0.019665773620756118,0.021089817646022038,-0.09892610387109692, ,0.0015423672991849392, ,0.025424130880146827,-0.007836674654983479,-0.055189507319576496,-0.1874499268179849,0.027721329871885178,-0.004315852402801283, ,0.061267296487085864, ,0.1894872955610749, ,0.0012673558849620853, ,0.2086527967957978,-0.21422088719811366,0.10859150959000001,1.6150319447178065,0.1986694706589504,-1.4010681199069257, ,0.15135078398480187,0.19894537014354458,0.05628555307420496,0.002926108480126175,0.18280617236011337,-0.00672195754196156, ,1.0439341068267822
0.019125687880615465,0.021664575709466952,-0.09833164965568143, ,0.019799193482789783,0.02104875057066939,-0.09918113030943426, ,0.0012467829718261156, ,0.024601972493906474,-0.007554639084141779,-0.05263462582761874,-0.172744108758159,0.03741380071984721,-0.0013746349189758381, ,0.0585895336924267, ,0.1767481700526744, ,0.001267081579453606, ,0.21018189790489425,-0.21223614484943798,0.10915669203000002,1.6150319447178065,0.20058238165566658,-1.4011577532361457, ,0.14735549931439562,0.18866191164705923,0.05381355243243244,0.0027456105320766994,0.1886078212793862,-0.011330266725049831, ,1.0499639511108398
0.019125687880615465,0.021664575709466952,-0.09833164965568143, ,0.01993252469631135,0.021007352751772068,-0.09943501745844528, ,0.0015166898731973557, ,0.024601972493906474,-0.007554639084141779,-0.05263462582761874,-0.172744108758159,0.03741380071984721,-0.0013746349189758381, ,0.0585895336924267, ,0.1767481700526744, ,0.001270365899108129, ,0.21018189790489425,-0.21223614484943798,0.10915669203000002,1.6150319447178065,0.20058238165566658,-1.4011577532361457, ,0.14735549931439562,0.18866191164705923,0.05381355243243244,0.0027456105320766994,0.1886078212793862,-0.011330266725049831, ,1.0553839206695557
0.01936343621409693,0.021582834478427494,-0.0988455769146642, ,0.020065767222494164,0.0209656655032193,-0.09968773969744177, ,0.0012583340343531493, ,0.02324243655749297,-0.008617360534365844,-0.049392760481826704,-0.20186468140455918,0.02761363242934794,-0.006487373206257773, ,0.05526404389585903, ,0.20374387920961304, ,0.001270209641124298, ,0.21159515802087733,-0.2103286298295045,0.10968039319000002,1.6150319447178065,0.20249529265238275,-1.4012473865653654, ,0.1375317993601026,0.18979388311694156,0.0502486167823344,0.002587235123153453,0.16847304542768157,0.016739107273064283, ,1.0608470439910889
0.01936343621409693,0.021582834478427494,-0.0988455769146642, ,0.02019892107087416,0.020923729637351233,-0.09993927183243151, ,0.0015259825394100292, ,0.02324243655749297,-0.008617360534365844,-0.049392760481826704,-0.20186468140455918,0.02761363242934794,-0.006487373206257773, ,0.05526404389585903, ,0.20374387920961304, ,0.0012734887808459098, ,0.21159515802087733,-0.2103286298295045,0.10968039319000002,1.6150319447178065,0.20249529265238275,-1.4012473865653654, ,0.1375317993601026,0.18979388311694156,0.0502486167823344,0.002587235123153453,0.16847304542768157,0.016739107273064283, ,1.0661959648132324
0.019593388457645092,0.021497160950705894,-0.09932665827008413, ,0.020331986298922432,0.02088158546714474,-0.10018958909412452, ,0.0012919402285632721, ,0.023290473782948115,-0.008616836397079695,-0.04804934821364169,-0.17244080618304522,0.01880749846313306,-0.005048576750432408, ,0.054087298899871336, ,0.1734626689493481, ,0.0012737223434752434, ,0.2129620817396151,-0.20846745120681642,0.11017039081,1.615241634661291,0.20413493064956803,-1.4011141840871923, ,0.13873821865273506,0.18534558898138823,0.049011727753846164,0.0,0.16119697064196672,-0.00876173424564386, ,1.0715079307556152
0.019593388457645092,0.021497160950705894,-0.09932665827008413, ,0.020464963011618213,0.02083927280839815,-0.10043866713593695, ,0.0015585322353605167, ,0.023290473782948115,-0.008616836397079695,-0.04804934821364169,-0.17244080618304522,0.01880749846313306,-0.005048576750432408, ,0.054087298899871336, ,0.1734626689493481, ,0.0012772824671238093, ,0.2129620817396151,-0.20846745120681642,0.11017039081,1.615241634661291,0.20413493064956803,-1.4011141840871923, ,0.13873821865273506,0.18534558898138823,0.049011727753846164,0.0,0.16119697064196672,-0.00876173424564386, ,1.0767560005187988
0.019827349344723518,0.021415569254976057,-0.09981384262684669, ,0.02059785136102151,0.020796830981916543,-0.10068648203199711, ,0.0013183360493778601, ,0.022963971432930608,-0.00788710222509041,-0.0477923777232076,-0.18498616527536962,-0.0012496193072126295,-0.009377289036093438, ,0.05360654562569042, ,0.18498971201391515, ,0.0012777893014726247, ,0.21432900545835282,-0.20665260898137366,0.11066816617000001,1.615241634661291,0.20563793214698786,-1.4011145999257444, ,0.13235277762687694,0.1760611160639532,0.04886138503067485,0.0,0.13407688054696854,0.012928817267859168, ,1.0820989608764648
0.019827349344723518,0.021415569254976057,-0.09981384262684669, ,0.020730651545845677,0.020754298815696768,-0.10093301027515003, ,0.0015829623133308012, ,0.022963971432930608,-0.00788710222509041,-0.0477923777232076,-0.18498616527536962,-0.0012496193072126295,-0.009377289036093438, ,0.05360654562569042, ,0.18498971201391515, ,0.0012815109235684563, ,0.21432900545835282,-0.20665260898137366,0.11066816617000001,1.615241634661291,0.20563793214698786,-1.4011145999257444, ,0.13235277762687694,0.1760611160639532,0.04886138503067485,0.0,0.13407688054696854,0.012928817267859168, ,1.0879440307617188
0.020052204248074162,0.021332927475048495,-0.10028226362625882, ,0.020863363811030412,0.02071171464711292,-0.10117822877496273, ,0.0013589108734052813, ,0.02225794353869535,-0.008771988659648245,-0.04664186141524071,-0.1501243503786849,0.03451936106717707,-0.003579640389658977, ,0.052419720257697554, ,0.15404118321395627, ,0.0012824434530845626, ,0.21563414731409675,-0.20488410315317623,0.11114649718000001,1.615241634661291,0.20714093364440772,-1.4011966945044372, ,0.12964063054435898,0.1804124364229482,0.047548691104477625,0.0,0.16785214316501978,-0.02612492916836307, ,1.0933489799499512
0.020052204248074162,0.021332927475048495,-0.10028226362625882, ,0.020995988447313096,0.020669116325100902,-0.10142211485572902, ,0.0016219231433247869, ,0.02225794353869535,-0.008771988659648245,-0.04664186141524071,-0.1501243503786849,0.03451936106717707,-0.003579640389658977, ,0.052419720257697554, ,0.15404118321395627, ,0.0012864848779683747, ,0.21563414731409675,-0.20488410315317623,0.11114649718000001,1.615241634661291,0.20714093364440772,-1.4011966945044372, ,0.12964063054435898,0.1804124364229482,0.047548691104477625,0.0,0.16785214316501978,-0.02612492916836307, ,1.0987210273742676
0.0203339927692364,0.02121044499782504,-0.1008534892732596, ,0.021128525790804955,0.02062654121234442,-0.1016646462544743, ,0.001276793640818594, ,0.02225794353869535,-0.008771988659648245,-0.04664186141524071,-0.1501243503786849,0.03451936106717707,-0.003579640389658977, ,0.052419720257697554, ,0.15404118321395627, ,0.0012863708634136713, ,0.21726364395055814,-0.2025441150922862,0.11172723510000002,1.615241634661291,0.208780571641593,-1.4012268495065454, ,0.12119660480009038,0.16915675857124915,0.040531327022900764,0.0,0.06693581343135603,0.05194468034067303, ,1.1040499210357666
0.0203339927692364,0.02121044499782504,-0.1008534892732596, ,0.021260976222560235,0.02058402618745921,-0.10190580111896119, ,0.0015359228721912499, ,0.020945807039136156,-0.00924637422045448,-0.03981084152941131,-0.21711981003304393,-0.05564802740679029,-0.022888654925494994, ,0.04592521499160686, ,0.22413749097705324, ,0.0012892726309575967, ,0.21726364395055814,-0.2025441150922862,0.11172723510000002,1.615241634661291,0.208780571641593,-1.4012268495065454, ,0.12119660480009038,0.16915675857124915,0.040531327022900764,0.0,0.06693581343135603,0.05194468034067303, ,1.1093499660491943
0.020567605309461074,0.02111296623303881,-0.10130522424746083, ,0.02139334016814824,0.020541607647178658,-0.10214555800569394, ,0.0013093698926252334, ,0.022210735200961167,-0.008700256708045508,-0.04391388698064515,-0.13067316653806746,0.0033472471578311685,-0.009334435711918526, ,0.04997440039362135, ,0.13071540539619655, ,0.0012895036339652705, ,0.21862284493642165,-0.20070610466822078,0.11218871434000001,1.6150319447178065,0.20987366363971652,-1.4010563691142894, ,0.12928738631944245,0.17098548028553293,0.04499664271186441,5.02685867702128e-05,0.13550547871108456,-0.03623582836206677, ,1.114630937576294
0.020567605309461074,0.02111296623303881,-0.10130522424746083, ,0.021525618097229984,0.020499321508538927,-0.10238389587792403, ,0.0015677630037098825, ,0.022210735200961167,-0.008700256708045508,-0.04391388698064515,-0.13067316653806746,0.0033472471578311685,-0.009334435711918526, ,0.04997440039362135, ,0.13071540539619655, ,0.001292665672257823, ,0.21862284493642165,-0.20070610466822078,0.11218871434000001,1.6150319447178065,0.20987366363971652,-1.4010563691142894, ,0.12928738631944245,0.17098548028553293,0.04499664271186441,5.02685867702128e-05,0.13550547871108456,-0.03623582836206677, ,1.1198899745941162
0.020795328048542287,0.021028808060361927,-0.10175949309164495, ,0.021657810523127895,0.020457203211064007,-0.10262079410365431, ,0.0013462717244288244, ,0.02245952866978436,-0.00798855822415723,-0.044026983120277,-0.10432257959611503,0.021466206794910438,-0.0037141736728048907, ,0.050066183529831505, ,0.106507432722925, ,0.0012932679874507556, ,0.21994343225791405,-0.19899938070301718,0.11265537874,1.6150319447178065,0.21137666513713638,-1.4015468573936851, ,0.1319846196918926,0.16333380646896864,0.045381229401709404,2.5555758602086993e-05,0.1567394217749832,-0.05506102202116438, ,1.1251311302185059
0.020795328048542287,0.021028808060361927,-0.10175949309164495, ,0.021789918002399503,0.020415287718951,-0.10285623245364427, ,0.0016026395770095507, ,0.02245952866978436,-0.00798855822415723,-0.044026983120277,-0.10432257959611503,0.021466206794910438,-0.0037141736728048907, ,0.050066183529831505, ,0.106507432722925, ,0.0012967054495569643, ,0.21994343225791405,-0.19899938070301718,0.11265537874,1.6150319447178065,0.21137666513713638,-1.4015468573936851, ,0.1319846196918926,0.16333380646896864,0.045381229401709404,2.5555758602086993e-05,0.1567394217749832,-0.05506102202116438, ,1.1304950714111328
0.02101698188594853,0.02095164416249405,-0.10218632457807485, ,0.02192194113440778,0.020373609523254812,-0.10309019109941585, ,0.0014035846871255939, ,0.02237889845336421,-0.007408742227389681,-0.042372258052954706,-0.16047885771571996,-0.007641507146942636,-0.008433168349631363, ,0.04848827497327657, ,0.16066026210185064, ,0.001297879946673103, ,0.22124085138078375,-0.19742394319667536,0.11309611734000001,1.6150319447178065,0.21274303013479076,-1.4016808915489625, ,0.13089233318409763,0.15355492161564852,0.043881023471074386,-3.449161320452838e-05,0.12581188632054102,0.01067735766606319, ,1.1360290050506592
0.02101698188594853,0.02095164416249405,-0.10218632457807485, ,0.022053880560899315,0.020332202644073958,-0.10332265061125662, ,0.0016583436044872908, ,0.02237889845336421,-0.007408742227389681,-0.042372258052954706,-0.16047885771571996,-0.007641507146942636,-0.008433168349631363, ,0.04848827497327657, ,0.16066026210185064, ,0.0013017980299102137, ,0.22124085138078375,-0.19742394319667536,0.11309611734000001,1.6150319447178065,0.21274303013479076,-1.4016808915489625, ,0.13089233318409763,0.15355492161564852,0.043881023471074386,-3.449161320452838e-05,0.12581188632054102,0.01067735766606319, ,1.141313076019287
0.021245312786685514,0.020880954046663867,-0.10262619405401018, ,0.02218573696556851,0.020291100632734954,-0.1035535919562269, ,0.0014465101296525173, ,0.02388234342267735,-0.007117556906329826,-0.0469330004581986,-0.150474908031854,0.014982956589498076,-0.004034078316668928, ,0.05313880386010597, ,0.15121825028870936, ,0.0013033540739934644, ,0.22256143870227615,-0.1958948420875789,0.11355241142000001,1.6150319447178065,0.2141093951324452,-1.4017332469640995, ,0.1365423619546342,0.15842561195070248,0.04871196183486239,-8.19571602791765e-05,0.15465180132026424,-0.004028751743256578, ,1.1465449333190918
0.021245312786685514,0.020880954046663867,-0.10262619405401018, ,0.02231751107363721,0.020250336573977935,-0.10378299649616256, ,0.0016986699071828693, ,0.02388234342267735,-0.007117556906329826,-0.0469330004581986,-0.150474908031854,0.014982956589498076,-0.004034078316668928, ,0.05313880386010597, ,0.15121825028870936, ,0.0013075595615805859, ,0.22256143870227615,-0.1958948420875789,0.11355241142000001,1.6150319447178065,0.2141093951324452,-1.4017332469640995, ,0.1365423619546342,0.15842561195070248,0.04871196183486239,-8.19571602791765e-05,0.15465180132026424,-0.004028751743256578, ,1.151798963546753
0.021486888970450795,0.02081555062462173,-0.10310201742266713, ,0.02244920365142567,0.02020994308814182,-0.10401084598568175, ,0.001455602758451723, ,0.02460664915496439,-0.006255166503080522,-0.04898608282151114,-0.14389541691844515,0.019794454451934153,-0.001954194909843353, ,0.055174727917885726, ,0.14524954169585136, ,0.0013091179110213346, ,0.22392836242101388,-0.19435801824560822,0.1140475942,1.6150319447178065,0.21561239662986503,-1.401651984062511, ,0.1381323749031598,0.15305958315882384,0.05105388307692308,-0.00012027203646823342,0.1611445557005935,-0.005325401070285646, ,1.1570820808410645
0.021486888970450795,0.02081555062462173,-0.10310201742266713, ,0.02258081550592337,0.020169952333349134,-0.10423712257018862, ,0.0017035070045746557, ,0.02460664915496439,-0.006255166503080522,-0.04898608282151114,-0.14389541691844515,0.019794454451934153,-0.001954194909843353, ,0.055174727917885726, ,0.14524954169585136, ,0.0013132261307458482, ,0.22392836242101388,-0.19435801824560822,0.1140475942,1.6150319447178065,0.21561239662986503,-1.401651984062511, ,0.1381323749031598,0.15305958315882384,0.05105388307692308,-0.00012027203646823342,0.1611445557005935,-0.005325401070285646, ,1.1623320579528809
0.021653112107521435,0.020773063295987087,-0.10342739087529644, ,0.022712347484362135,0.020130396007691193,-0.10446180878387848, ,0.0016140078180082323, ,0.02478643845215139,-0.006304923893041785,-0.04743743525681144,-0.15178700753981972,0.01504846523517721,-0.0009751009772871568, ,0.053892762595579714, ,0.15253036335620376, ,0.001316326972882574, ,0.22487053583166927,-0.1933386175062106,0.11438722218000001,1.614822254774322,0.21670548862798855,-1.4016448611505363, ,0.1420612897581898,0.1499161793972682,0.04962246579439253,-0.0009215470523652596,0.16042371525157278,0.005459978386826034, ,1.1676969528198242
0.021653112107521435,0.020773063295987087,-0.10342739087529644, ,0.022843800473789855,0.020091305351413492,-0.10468488754774323, ,0.001861136900330258, ,0.02478643845215139,-0.006304923893041785,-0.04743743525681144,-0.15178700753981972,0.01504846523517721,-0.0009751009772871568, ,0.053892762595579714, ,0.15253036335620376, ,0.0013218862578565302, ,0.22487053583166927,-0.1933386175062106,0.11438722218000001,1.614822254774322,0.21670548862798855,-1.4016448611505363, ,0.1420612897581898,0.1499161793972682,0.04962246579439253,-0.0009215470523652596,0.16042371525157278,0.005459978386826034, ,1.173011064529419
0.02198847968630175,0.020690486209357935,-0.10405615377900436, ,0.02297517540064053,0.020052711149100653,-0.10490634216757641, ,0.0014502226574714104, ,0.02399561183537402,-0.005876651104359617,-0.04347359910020241,-0.14648174701119937,0.0033715029121735105,-0.0014223560360043432, ,0.05000278226540432, ,0.1465200121310579, ,0.0013231825851253672, ,0.22680894178309963,-0.19136932062328335,0.11504703379000002,1.614822254774322,0.21889167262423562,-1.4016306153265865, ,0.14017273494604252,0.1371343086105069,0.04577244689655173,-0.0009215470523652596,0.14652273415162767,0.012678843313359486, ,1.178318977355957
0.022234332111992713,0.02062314707078348,-0.10448576204214154, ,0.023106473230311692,0.020014643731861462,-0.10512615633197651, ,0.0012413747581593445, ,0.025046288219039616,-0.007318814146102614,-0.04295153170599034,-0.15343440704127864,-0.007580331681317649,-0.004716838801708502, ,0.05025649878321298, ,0.15362106792597222, ,0.001322364506855707, ,0.22826081556345384,-0.1899328923086776,0.11549943900000001,1.614822254774322,0.22025803762189,-1.4014379345213017, ,0.14944400245428469,0.14850851574095583,0.04525230545454546,-0.0009215470523652596,0.14477096046597326,0.008600782010712307, ,1.1840851306915283
0.022234332111992713,0.02062314707078348,-0.10448576204214154, ,0.023237694966732444,0.019977132979514024,-0.10534431411035368, ,0.0014700962139334668, ,0.025046288219039616,-0.007318814146102614,-0.04295153170599034,-0.15343440704127864,-0.007580331681317649,-0.004716838801708502, ,0.05025649878321298, ,0.15362106792597222, ,0.001323827197024794, ,0.22826081556345384,-0.1899328923086776,0.11549943900000001,1.614822254774322,0.22025803762189,-1.4014379345213017, ,0.14944400245428469,0.14850851574095583,0.04525230545454546,-0.0009215470523652596,0.14477096046597326,0.008600782010712307, ,1.189345121383667
0.022477391734711666,0.020552240392213875,-0.10490083207390263, ,0.023368841651934893,0.019940208322771262,-0.10556079995093434, ,0.0012668164064525082, ,0.023774180464474794,-0.006819808604696255,-0.040135046263415804,-0.11796968404184083,0.02370361725553166,0.005423122065430888, ,0.04714385839882679, ,0.12032706962119892, ,0.0013232682677054577, ,0.22972813480955648,-0.18850418672694605,0.11593758502000001,1.6146125648308374,0.22189767561907528,-1.4015497682635505, ,0.14488082680682562,0.13773141009937706,0.042476830720000004,-0.003718289995437831,0.17251232652764756,-0.01697158806825421, ,1.1946420669555664
0.022477391734711666,0.020552240392213875,-0.10490083207390263, ,0.02349991436563309,0.019903898745425436,-0.10577559867876504, ,0.0014936920816183375, ,0.023774180464474794,-0.006819808604696255,-0.040135046263415804,-0.11796968404184083,0.02370361725553166,0.005423122065430888, ,0.04714385839882679, ,0.12032706962119892, ,0.0013249228678405343, ,0.22972813480955648,-0.18850418672694605,0.11593758502000001,1.6146125648308374,0.22189767561907528,-1.4015497682635505, ,0.14488082680682562,0.13773141009937706,0.042476830720000004,-0.003718289995437831,0.17251232652764756,-0.01697158806825421, ,1.1999521255493164
0.022477391734711666,0.020552240392213875,-0.10490083207390263, ,0.023630914224789096,0.019868232786533727,-0.1059886954937184, ,0.001726825804740005, ,0.023774180464474794,-0.006819808604696255,-0.040135046263415804,-0.11796968404184083,0.02370361725553166,0.005423122065430888, ,0.04714385839882679, ,0.12032706962119892, ,0.0013287873191568755, ,0.22972813480955648,-0.18850418672694605,0.11593758502000001,1.6146125648308374,0.22189767561907528,-1.4015497682635505, ,0.14488082680682562,0.13773141009937706,0.042476830720000004,-0.003718289995437831,0.17251232652764756,-0.01697158806825421, ,1.2053649425506592
0.02262053083341201,0.020510943481532127,-0.10513816012453632, ,0.023761842383188406,0.019833238542603316,-0.10620007596849766, ,0.0016998650821631795, ,0.02374264934968467,-0.007007718030098281,-0.03912579520468966,-0.1208474891812297,0.019952748869809328,-0.008253066876164198, ,0.046299561126761916, ,0.12248320758436221, ,0.001332321393090269, ,0.23060080362434385,-0.18768557704227826,0.11618906528000002,1.6144028748873531,0.22285413111743338,-1.4015129061880196, ,0.14554745637802266,0.13733276636537015,0.04148128,0.009250397633277545,0.1668662460176009,-0.010800880309205493, ,1.2109739780426025
0.022964828078942404,0.02039660899064289,-0.1056593251514063, ,0.023892700031013243,0.019798943669776147,-0.10640972604664135, ,0.0013346354179235853, ,0.023768547511867088,-0.007907562332757901,-0.03404547068224247,-0.14705265878667093,-0.01559323959265124,-0.014075839157516775, ,0.042267806506202404, ,0.1478769347706552, ,0.0013323432235132246, ,0.23277861429487517,-0.18566994376210566,0.11674387740000002,1.6144028748873531,0.22504031511368042,-1.4014169816239295, ,0.15256743015831317,0.13556705936924396,0.03645036961098399,0.009250397633277545,0.13775306676780408,0.017221656156207923, ,1.216439962387085
0.022964828078942404,0.02039660899064289,-0.1056593251514063, ,0.024023488394412026,0.019765375386014743,-0.10661763204052883, ,0.0015612717959733306, ,0.023768547511867088,-0.007907562332757901,-0.03404547068224247,-0.14705265878667093,-0.01559323959265124,-0.014075839157516775, ,0.042267806506202404, ,0.1478769347706552, ,0.0013344827428820106, ,0.23277861429487517,-0.18566994376210566,0.11674387740000002,1.6144028748873531,0.22504031511368042,-1.4014169816239295, ,0.15256743015831317,0.13556705936924396,0.03645036961098399,0.009250397633277545,0.13775306676780408,0.017221656156207923, ,1.2216849327087402
0.023192902800426282,0.02032634849954037,-0.10600350696977663, ,0.024154208735076434,0.019732560473286396,-0.10682378062938398, ,0.0013962600749007424, ,0.0243866576713681,-0.007173306086976548,-0.03794041272277295,-0.10989702835641449,0.004049117981678305,-0.010818945371143354, ,0.045668811131584136, ,0.10997123979534262, ,0.0013350547552155173, ,0.23421504260948092,-0.18439569283785862,0.11711202376000002,1.6144028748873531,0.22654331661110025,-1.4014990762026223, ,0.15015338854188412,0.1347967919864642,0.040531327022900764,0.009250397633277545,0.1552953137187395,-0.019126156251453426, ,1.226958990097046
0.023192902800426282,0.02032634849954037,-0.10600350696977663, ,0.02428486234980833,0.01970052527974935,-0.10702815885728172, ,0.0016229423435488934, ,0.0243866576713681,-0.007173306086976548,-0.03794041272277295,-0.10989702835641449,0.004049117981678305,-0.010818945371143354, ,0.045668811131584136, ,0.10997123979534262, ,0.001337695925750686, ,0.23421504260948092,-0.18439569283785862,0.11711202376000002,1.6144028748873531,0.22654331661110025,-1.4014990762026223, ,0.15015338854188412,0.1347967919864642,0.040531327022900764,0.009250397633277545,0.1552953137187395,-0.019126156251453426, ,1.2322239875793457
0.023459691672037434,0.020252841462487268,-0.10641765547019284, ,0.02441545057009657,0.019669295721937274,-0.10723075413115148, ,0.001383882269192714, ,0.025302178488652294,-0.006532330894510094,-0.03962045959196506,-0.11930292371122479,-0.011667635315631567,-0.013001972414264673, ,0.04746211543394927, ,0.11987169677075635, ,0.001338115801600159, ,0.23583681651306806,-0.1829747099890013,0.11755535494000001,1.6144028748873531,0.2280463181085201,-1.401581170781315, ,0.15232253861712805,0.13107312369954527,0.042476830720000004,0.009250397633277545,0.14146935680142053,-0.0060293054521156145, ,1.2375130653381348
0.023459691672037434,0.020252841462487268,-0.10641765547019284, ,0.02454597476168905,0.019638897286944186,-0.10743155421878293, ,0.0016077714619742729, ,0.025302178488652294,-0.006532330894510094,-0.03962045959196506,-0.11930292371122479,-0.011667635315631567,-0.013001972414264673, ,0.04746211543394927, ,0.11987169677075635, ,0.0013405451318737997, ,0.23583681651306806,-0.1829747099890013,0.11755535494000001,1.6144028748873531,0.2280463181085201,-1.401581170781315, ,0.15232253861712805,0.13107312369954527,0.042476830720000004,0.009250397633277545,0.14146935680142053,-0.0060293054521156145, ,1.2429461479187012
0.023518580018295356,0.020238159440009267,-0.10651086029153665, ,0.024676436324162346,0.019609355034610573,-0.10763054724683044, ,0.0017290821504890451, ,0.025451139153200478,-0.006183041329620846,-0.04011950585043834,-0.12360980379566573,-0.016705957516014735,-0.013581721745314046, ,0.04791205729211312, ,0.12473318993791259, ,0.0013440142123971501, ,0.2361843394924082,-0.18267352340690654,0.11765516927000001,1.6144028748873531,0.228319591108051,-1.4015589703682862, ,0.15183510649355325,0.12858664167814468,0.04305084194594595,0.009250397633277545,0.1358354038330483,0.0007100044042681747, ,1.2483620643615723
0.023518580018295356,0.020238159440009267,-0.10651086029153665, ,0.02480683669049806,0.019580693599707228,-0.10782772169881773, ,0.0019560139443841242, ,0.025451139153200478,-0.006183041329620846,-0.04011950585043834,-0.12360980379566573,-0.016705957516014735,-0.013581721745314046, ,0.04791205729211312, ,0.12473318993791259, ,0.0013494301392288934, ,0.2361843394924082,-0.18267352340690654,0.11765516927000001,1.6144028748873531,0.228319591108051,-1.4015589703682862, ,0.15183510649355325,0.12858664167814468,0.04305084194594595,0.009250397633277545,0.1358354038330483,0.0007100044042681747, ,1.2536959648132324
0.023944124756235256,0.020130062214767885,-0.10715874649087663, ,0.02493717732665166,0.019552937194121742,-0.10802306641314414, ,0.001437454564532374, ,0.025627448977827004,-0.006715713781300573,-0.036099608647828574,-0.18553353144332346,-0.1025251783872093,-0.028997748121482834, ,0.044777770123464795, ,0.21197651328819525, ,0.0013502022833105029, ,0.23874828680665072,-0.18053432640074638,0.11835257329000001,1.6144028748873531,0.23050577510429804,-1.4014630458041961, ,0.15305958315882384,0.1251938542987741,0.03904120470588236,0.008685382044136698,0.049782621619373385,0.065908819868603, ,1.2589900493621826
0.024219428654504292,0.02005668739375529,-0.10755682037770492, ,0.02506745973112841,0.019526109609042257,-0.10821657058108748, ,0.0011983070655781772, ,0.026243296727461708,-0.006381116712637739,-0.03901331669669369,-0.0808337022257846,-0.019469689714861568,-0.012107173902321248, ,0.04744963807346085, ,0.08314484863645259, ,0.0013488814553302218, ,0.240408674374609,-0.17916740268200862,0.11878294157000001,1.6144028748873531,0.23159886710242156,-1.4014559228922212, ,0.15816156926411795,0.12636077437878931,0.04225148944297083,0.008170770721164023,0.13963542010922547,-0.0399865938186492, ,1.2652480602264404
0.024219428654504292,0.02005668739375529,-0.10755682037770492, ,0.025197685434553255,0.019500234217143707,-0.10840822374480986, ,0.0014112101753426106, ,0.026243296727461708,-0.006381116712637739,-0.03901331669669369,-0.0808337022257846,-0.019469689714861568,-0.012107173902321248, ,0.04744963807346085, ,0.08314484863645259, ,0.0013494187718820524, ,0.240408674374609,-0.17916740268200862,0.11878294157000001,1.6144028748873531,0.23159886710242156,-1.4014559228922212, ,0.15816156926411795,0.12636077437878931,0.04225148944297083,0.008170770721164023,0.13963542010922547,-0.0399865938186492, ,1.2705330848693848
0.02446644038888398,0.020002319783842714,-0.10792969745166786, ,0.02532785599924383,0.01947533397477268,-0.1085980157953636, ,0.0012109501662963048, ,0.025430886550926683,-0.005314375074566295,-0.03822839237960584,-0.052584753983676936,0.004216333931205701,-0.005713840577018295, ,0.04622101856437589, ,0.05275274569379232, ,0.0013482352795266188, ,0.24188371635358588,-0.1780244382166234,0.11918738405000001,1.6144028748873531,0.23296523210007597,-1.4018349932679204, ,0.15305958315882384,0.11474841784579294,0.04158958621409923,0.007754822294757456,0.1586069616053149,-0.0570043398741247, ,1.2758209705352783
0.02446644038888398,0.020002319783842714,-0.10792969745166786, ,0.025457973018784524,0.019451431424132012,-0.10878593697069425, ,0.0014211829772991142, ,0.025430886550926683,-0.005314375074566295,-0.03822839237960584,-0.052584753983676936,0.004216333931205701,-0.005713840577018295, ,0.04622101856437589, ,0.05275274569379232, ,0.0013488534803551993, ,0.24188371635358588,-0.1780244382166234,0.11918738405000001,1.6144028748873531,0.23296523210007597,-1.4018349932679204, ,0.15305958315882384,0.11474841784579294,0.04158958621409923,0.007754822294757456,0.1586069616053149,-0.0570043398741247, ,1.2832870483398438
0.024731042629228105,0.019947814210586577,-0.10831276332082039, ,0.025588038117597255,0.01942854869546642,-0.10897197785364596, ,0.001199433925886086, ,0.02467453347801362,-0.005574035151640079,-0.03425972529665513,-0.10451203056648184,-0.016571762801188248,-0.008786612162560086, ,0.04258674967207061, ,0.1058174874863605, ,0.0013475978538470554, ,0.24349004479142455,-0.17686602828548972,0.11960608572,1.6144028748873531,0.2344682335974958,-1.4020804453268942, ,0.1520784319847288,0.10983442310008192,0.03756795169811321,0.007351673782632234,0.13647018810745584,-0.0003476515624847229, ,1.2890739440917969
0.024731042629228105,0.019947814210586577,-0.10831276332082039, ,0.025718052950514082,0.019406707509247955,-0.10915612936996824, ,0.0014065035120517358, ,0.02467453347801362,-0.005574035151640079,-0.03425972529665513,-0.10451203056648184,-0.016571762801188248,-0.008786612162560086, ,0.04258674967207061, ,0.1058174874863605, ,0.0013480887343320946, ,0.24349004479142455,-0.17686602828548972,0.11960608572,1.6144028748873531,0.2344682335974958,-1.4020804453268942, ,0.1520784319847288,0.10983442310008192,0.03756795169811321,0.007351673782632234,0.13647018810745584,-0.0003476515624847229, ,1.2944350242614746
0.024947663864540802,0.01989607736016611,-0.10861594797637256, ,0.02584801920235061,0.01938592917836031,-0.10933838278631762, ,0.0012620629763774609, ,0.02320355831209443,-0.00572349711138573,-0.032677661711022245,-0.1268960688793868,-0.015022245887793967,-0.01007368294920428, ,0.04048447989571827, ,0.12778201323944166, ,0.0013473777776547835, ,0.24481835484579118,-0.17587751847758898,0.11993793596,1.6144028748873531,0.23569796209538477,-1.401939704098194, ,0.14100585669906504,0.10759290426130474,0.03571482403587444,0.007029948792303525,0.12680739447675687,0.02417961841194132, ,1.3004429340362549
0.02520892637090444,0.01983126347278632,-0.10898597221303695, ,0.025977938587478062,0.019366234610284496,-0.10951872970826512, ,0.0010447306738681566, ,0.02299133096092165,-0.0056782866180126864,-0.0323655197287696,-0.09537069428895843,0.014951512004511365,-0.004003228826284889, ,0.04010450231064226, ,0.0965353900146906, ,0.0013448970636893193, ,0.2464015150850072,-0.17466504941633573,0.12034237844000001,1.6144028748873531,0.2372009635928046,-1.4017767624564652, ,0.14121568684296246,0.10603010229996734,0.035476194922048995,0.006675365438543648,0.15755723661479662,-0.005864847123644226, ,1.3057670593261719
0.02520892637090444,0.01983126347278632,-0.10898597221303695, ,0.026107812849395774,0.019347644309283558,-0.10969716207829969, ,0.0012440560361069329, ,0.02299133096092165,-0.0056782866180126864,-0.0323655197287696,-0.09537069428895843,0.014951512004511365,-0.004003228826284889, ,0.04010450231064226, ,0.0965353900146906, ,0.001344077217936617, ,0.2464015150850072,-0.17466504941633573,0.12034237844000001,1.6144028748873531,0.2372009635928046,-1.4017767624564652, ,0.14121568684296246,0.10603010229996734,0.035476194922048995,0.006675365438543648,0.15755723661479662,-0.005864847123644226, ,1.3110649585723877
0.02520892637090444,0.01983126347278632,-0.10898597221303695, ,0.02623764376030217,0.019330178378589285,-0.10987367217383458, ,0.0014482254518119215, ,0.02299133096092165,-0.0056782866180126864,-0.0323655197287696,-0.09537069428895843,0.014951512004511365,-0.004003228826284889, ,0.04010450231064226, ,0.0965353900146906, ,0.0013449171230485147, ,0.2464015150850072,-0.17466504941633573,0.12034237844000001,1.6144028748873531,0.2372009635928046,-1.4017767624564652, ,0.14121568684296246,0.10603010229996734,0.035476194922048995,0.006675365438543648,0.15755723661479662,-0.005864847123644226, ,1.3166000843048096
0.02520892637090444,0.01983126347278632,-0.10898597221303695, ,0.026367433120669963,0.01931385652258514,-0.11004825260521069, ,0.001654777167163468, ,0.02299133096092165,-0.0056782866180126864,-0.0323655197287696,-0.09537069428895843,0.014951512004511365,-0.004003228826284889, ,0.04010450231064226, ,0.0965353900146906, ,0.0013473960034014344, ,0.2464015150850072,-0.17466504941633573,0.12034237844000001,1.6144028748873531,0.2372009635928046,-1.4017767624564652, ,0.14121568684296246,0.10603010229996734,0.035476194922048995,0.006675365438543648,0.15755723661479662,-0.005864847123644226, ,1.321932077407837
0.02565171510989497,0.019721022905053485,-0.1095587506048281, ,0.02649718275881785,0.019298698048991692,-0.11022089631370054, ,0.0011539544051655491, ,0.021091283446830776,-0.005302284170966354,-0.02530051230971133,-0.11124273865179102,-0.01045259089434191,-0.0058670195954437, ,0.03336273936591677, ,0.1117326863201223, ,0.0013458607526217845, ,0.24921258985122494,-0.1727034752662827,0.12097756054000001,1.6144028748873531,0.24020696658764432,-1.4016142366532884, ,0.13615056177685905,0.09055051675426601,0.028343080996441283,0.006111686232016459,0.12662943704984025,0.024962410714570643, ,1.3272569179534912
0.02565171510989497,0.019721022905053485,-0.1095587506048281, ,0.0266268945304811,0.01928472187105367,-0.11039159656951628, ,0.0013546091301557756, ,0.021091283446830776,-0.005302284170966354,-0.02530051230971133,-0.11124273865179102,-0.01045259089434191,-0.0058670195954437, ,0.03336273936591677, ,0.1117326863201223, ,0.0013459296374842568, ,0.24921258985122494,-0.1727034752662827,0.12097756054000001,1.6144028748873531,0.24020696658764432,-1.4016142366532884, ,0.13615056177685905,0.09055051675426601,0.028343080996441283,0.006111686232016459,0.12662943704984025,0.024962410714570643, ,1.3325450420379639
0.025873899703414825,0.01966884048025988,-0.1098306875381868, ,0.026756570318386016,0.0192719465097233,-0.11056034696981254, ,0.00121203759204998, ,0.022812514789025632,-0.004696218886955941,-0.02940458978752748,-0.04711608299949157,0.0024421435957858832,-0.002270175690874737, ,0.037511267685943116, ,0.047179098763447475, ,0.0013448836058793016, ,0.25063357270008224,-0.17177674732137577,0.12128218869000001,1.6144028748873531,0.2415733315852987,-1.401748270808566, ,0.1427021677570989,0.09151103332542987,0.03284291035051547,0.005865515689973326,0.14646711739663265,-0.04012116304558301, ,1.337796926498413
0.025873899703414825,0.01966884048025988,-0.1098306875381868, ,0.02688621203182156,0.01926039009584606,-0.1107271414366905, ,0.0014125287816234245, ,0.022812514789025632,-0.004696218886955941,-0.02940458978752748,-0.04711608299949157,0.0024421435957858832,-0.002270175690874737, ,0.037511267685943116, ,0.047179098763447475, ,0.0013454079870866204, ,0.25063357270008224,-0.17177674732137577,0.12128218869000001,1.6144028748873531,0.2415733315852987,-1.401748270808566, ,0.1427021677570989,0.09151103332542987,0.03284291035051547,0.005865515689973326,0.14646711739663265,-0.04012116304558301, ,1.343106985092163
0.02611094399373982,0.019631471636871692,-0.11015802500344282, ,0.027015821606211892,0.0192500703723461,-0.11089197421520552, ,0.0012259493723567744, ,0.023351681376020842,-0.0029306132496201807,-0.033306416726463776,-0.051125657765917265,0.00871005109808749,0.00034730420183246745, ,0.04078243386879839, ,0.051861902064515464, ,0.0013444890746656215, ,0.25206227828181377,-0.17089635577371418,0.12164644618,1.6144028748873531,0.24307633308271853,-1.4019937228675399, ,0.13793160110242844,0.08166690323448432,0.037043747720930234,0.005640725005527597,0.1479972411838348,-0.026598323462461826, ,1.351423978805542
0.026277140844765935,0.01961468285309797,-0.11039801274670734, ,0.027145401002689553,0.019241004696410317,-0.11105483987136831, ,0.0011510573132183428, ,0.023114846029182613,-0.002293358688654878,-0.03323476185032353,-0.07439643486092694,0.008544746108262113,0.0011646484383392092, ,0.04054756461583566, ,0.07488525661761038, ,0.001343012496333963, ,0.25302761989109185,-0.17034804173964424,0.12191348192000001,1.6144028748873531,0.24403278858107663,-1.401956860792009, ,0.13518082843087004,0.07567539199240093,0.037043747720930234,0.005493435370494675,0.14502760322691163,0.002457789716014354, ,1.356938123703003
0.026277140844765935,0.01961468285309797,-0.11039801274670734, ,0.027274952207666427,0.019233210041675247,-0.11121573329015375, ,0.0013452939860723306, ,0.023114846029182613,-0.002293358688654878,-0.03323476185032353,-0.07439643486092694,0.008544746108262113,0.0011646484383392092, ,0.04054756461583566, ,0.07488525661761038, ,0.0013430297803471325, ,0.25302761989109185,-0.17034804173964424,0.12191348192000001,1.6144028748873531,0.24403278858107663,-1.401956860792009, ,0.13518082843087004,0.07567539199240093,0.037043747720930234,0.005493435370494675,0.14502760322691163,0.002457789716014354, ,1.3622889518737793
0.02657102810547784,0.019587355711294527,-0.11082376689107087, ,0.027404477232408186,0.019226703000409708,-0.11137464967350123, ,0.0010621580226255144, ,0.022579405225427764,-0.0017099175360470852,-0.033079767385583624,-0.0753374082291412,-0.001679130303410548,0.004854953706358476, ,0.04008770844783321, ,0.07535585542335692, ,0.0013409179626199023, ,0.2547266211234212,-0.16939814559611463,0.12238792406000001,1.6146125648308374,0.24580906307802738,-1.401853397477392, ,0.12858664167814468,0.06957253779946537,0.036872248888888896,0.0,0.12886723458182817,0.00800313927330698, ,1.3676221370697021
0.02657102810547784,0.019587355711294527,-0.11082376689107087, ,0.027533978112604426,0.019221499785703453,-0.11153158453832503, ,0.001249851629706343, ,0.022579405225427764,-0.0017099175360470852,-0.033079767385583624,-0.0753374082291412,-0.001679130303410548,0.004854953706358476, ,0.04008770844783321, ,0.07535585542335692, ,0.0013402383631205474, ,0.2547266211234212,-0.16939814559611463,0.12238792406000001,1.6146125648308374,0.24580906307802738,-1.401853397477392, ,0.12858664167814468,0.06957253779946537,0.036872248888888896,0.0,0.12886723458182817,0.00800313927330698, ,1.37294602394104
0.026790494074636052,0.019574624975937916,-0.11115036733150191, ,0.02766345690794319,0.0192176162336491,-0.1116865337145145, ,0.0010848934236500208, ,0.022858890307107603,-0.0011983776237534513,-0.03260477040681569,-0.04280918027069731,0.007410470583152558,0.008399424406354498, ,0.0398376207658371, ,0.043445415666185073, ,0.0013383469191244693, ,0.25596998111617136,-0.16874943603467976,0.12275218155,1.6146125648308374,0.24717542807568177,-1.4019874316326695, ,0.13216844228199273,0.06429332083907234,0.03661795751724139,0.0,0.14174151986671862,-0.01940482224449052, ,1.378242015838623
0.026790494074636052,0.019574624975937916,-0.11115036733150191, ,0.02779291570168277,0.019215067805527706,-0.11183949334293966, ,0.0012684735459616364, ,0.022858890307107603,-0.0011983776237534513,-0.03260477040681569,-0.04280918027069731,0.007410470583152558,0.008399424406354498, ,0.0398376207658371, ,0.043445415666185073, ,0.0013378331443218013, ,0.25596998111617136,-0.16874943603467976,0.12275218155,1.6146125648308374,0.24717542807568177,-1.4019874316326695, ,0.13216844228199273,0.06429332083907234,0.03661795751724139,0.0,0.14174151986671862,-0.01940482224449052, ,1.3835649490356445
0.026952297055319496,0.019567757392229494,-0.11137556277413321, ,0.02792235660022339,0.0192138695899962,-0.1119904598734586, ,0.0012018113579041576, ,0.022741235437902053,-0.0009502209576868405,-0.03130253291990428,-0.04693473664249393,0.004069522167932576,0.008922150136948461, ,0.03870291043722954, ,0.04711051327159442, ,0.001336840284566928, ,0.25691215452682675,-0.1683169629937232,0.12300625439000001,1.6146125648308374,0.24813188357403987,-1.4020322482972793, ,0.13328222128998704,0.060061355416753656,0.03539735893333334,0.0,0.13946268470257497,-0.011178176086379006, ,1.388965129852295
0.026952297055319496,0.019567757392229494,-0.11137556277413321, ,0.028051781732680643,0.0192140363052702,-0.11213943006292013, ,0.0013847304423570243, ,0.022741235437902053,-0.0009502209576868405,-0.03130253291990428,-0.04693473664249393,0.004069522167932576,0.008922150136948461, ,0.03870291043722954, ,0.04711051327159442, ,0.0013371873146958415, ,0.25691215452682675,-0.1683169629937232,0.12300625439000001,1.6146125648308374,0.24813188357403987,-1.4020322482972793, ,0.13328222128998704,0.060061355416753656,0.03539735893333334,0.0,0.13946268470257497,-0.011178176086379006, ,1.394247055053711
0.027248112298091876,0.019557489390936576,-0.1117522000076671, ,0.028181193250457513,0.019215582301310288,-0.11228640097316958, ,0.001128233660705116, ,0.022011737403189912,-0.0008430941139737016,-0.02644144595401301,-0.03783767369175959,0.005701968290851381,0.011840494888142155, ,0.034414785417477146, ,0.038264723544398936, ,0.0013356840509980666, ,0.2587038285536469,-0.1675987488364203,0.12343791896000002,1.6146125648308374,0.24990815807099057,-1.4020921424629433, ,0.13733276636537015,0.051771381101184274,0.030632329846153848,0.0,0.14521419732066063,-0.012253389198165002, ,1.3995530605316162
0.027248112298091876,0.019557489390936576,-0.1117522000076671, ,0.028310593326816944,0.019218521562005913,-0.11243136996905193, ,0.0013057706390856368, ,0.022011737403189912,-0.0008430941139737016,-0.02644144595401301,-0.03783767369175959,0.005701968290851381,0.011840494888142155, ,0.034414785417477146, ,0.038264723544398936, ,0.0013354703837701206, ,0.2587038285536469,-0.1675987488364203,0.12343791896000002,1.6146125648308374,0.24990815807099057,-1.4020921424629433, ,0.13733276636537015,0.051771381101184274,0.030632329846153848,0.0,0.14521419732066063,-0.012253389198165002, ,1.4048490524291992
0.02746590439317344,0.01954732908887883,-0.11201306923238419, ,0.028439984156454132,0.01922286770736329,-0.11257433471642034, ,0.0011700963707739092, ,0.02204481867957413,-0.0008289609604294913,-0.026691599429712026,-0.06242818364630772,-0.00909570969653754,0.00859532786170775, ,0.03462806213182337, ,0.0630872134455888, ,0.001334297518429722, ,0.26005530680663613,-0.16707360300097304,0.12373995453000002,1.6146125648308374,0.251274523068645,-1.4019811403977989, ,0.13498853706752598,0.05171495452777699,0.030869789767441865,0.0,0.1277871511883276,0.012402243535140738, ,1.410167932510376
0.02746590439317344,0.01954732908887883,-0.11201306923238419, ,0.028569367955069314,0.019228633995686,-0.11271529318013522, ,0.0013462231864190114, ,0.02204481867957413,-0.0008289609604294913,-0.026691599429712026,-0.06242818364630772,-0.00909570969653754,0.00859532786170775, ,0.03462806213182337, ,0.0630872134455888, ,0.0013343815020071112, ,0.2614685669226192,-0.16659479356277113,0.12405884187,1.6150319447178065,0.25277752456606484,-1.402063234976492, ,0.133469678703897,0.04234580167714001,0.030282911634980987,0.005666636477556569,0.15655688239099502,-0.01841129300846823, ,1.4156200885772705
0.02769421117902612,0.01954594335145953,-0.11228686793349718, ,0.028698746958939706,0.019235833325765683,-0.11285424362207648, ,0.0011946445216687977, ,0.02149604007734854,0.00013913983291392965,-0.0259566237894808,-0.021067645045799558,0.02169444007844929,0.010590530595659911, ,0.03370230581798103, ,0.030240413613185337, ,0.0013334043203264236, ,0.2614685669226192,-0.16659479356277113,0.12405884187,1.6150319447178065,0.25277752456606484,-1.402063234976492, ,0.133469678703897,0.04234580167714001,0.030282911634980987,0.005666636477556569,0.15655688239099502,-0.01841129300846823, ,1.421647071838379
0.027821476662106683,0.019547252407262506,-0.11243857998931053, ,0.02882812342449259,0.01924447823906157,-0.1129911845991407, ,0.0011875949460810925, ,0.02128640209358358,0.00017859704392092344,-0.025082658720930344,-0.011369567050405073,0.03326682264446694,0.014148710189531802, ,0.032898063461311515, ,0.03515591864299883, ,0.0013323917552274978, ,0.2622640084086644,-0.16634766611079593,0.12423643360000002,1.615241634661291,0.25373398006442294,-1.4021897303812425, ,0.13422481125667718,0.040658501096174283,0.029443274528650653,0.004646876235616574,0.1692460624322557,-0.026706972336225605, ,1.4291050434112549
0.027821476662106683,0.019547252407262506,-0.11243857998931053, ,0.02895749962787715,0.01925458092189081,-0.11312611496125291, ,0.001359745974346462, ,0.02128640209358358,0.00017859704392092344,-0.025082658720930344,-0.011369567050405073,0.03326682264446694,0.014148710189531802, ,0.032898063461311515, ,0.03515591864299883, ,0.001332580405014525, ,0.2622640084086644,-0.16634766611079593,0.12423643360000002,1.615241634661291,0.25373398006442294,-1.4021897303812425, ,0.13422481125667718,0.040658501096174283,0.029443274528650653,0.004646876235616574,0.1692460624322557,-0.026706972336225605, ,1.434615135192871
0.028104715129147726,0.019549446942314648,-0.11275333505534976, ,0.02908687786453729,0.019266153207609372,-0.11325903384936542, ,0.001140451774157971, ,0.01934708960012209,0.000143097680739544,-0.020003465231188716,-0.0488062900283821,0.005482601802307411,-0.0003804146780328989, ,0.027829282674850984, ,0.04911323310559048, ,0.0013312644554881103, ,0.2640711279012329,-0.16583024300822288,0.12460976512000001,1.6154513246047757,0.25578352756090456,-1.4022274241338772, ,0.12569131332247785,0.03325050510107595,0.02406164882175227,0.014633205057958431,0.13066232912784626,0.02048207913995701, ,1.4399139881134033
0.028104715129147726,0.019549446942314648,-0.11275333505534976, ,0.029216260448784014,0.01927920657879949,-0.1133899406934673, ,0.0013091331445506933, ,0.01934708960012209,0.000143097680739544,-0.020003465231188716,-0.0488062900283821,0.005482601802307411,-0.0003804146780328989, ,0.027829282674850984, ,0.04911323310559048, ,0.0013311139023524817, ,0.2640711279012329,-0.16583024300822288,0.12460976512000001,1.6154513246047757,0.25578352756090456,-1.4022274241338772, ,0.12569131332247785,0.03325050510107595,0.02406164882175227,0.014633205057958431,0.13066232912784626,0.02048207913995701, ,1.4451780319213867
0.028321871072796392,0.019555766748944277,-0.11297427178500132, ,0.029345649713367877,0.019293752169454784,-0.11351883521058674, ,0.0011888329021526893, ,0.02307654437477795,0.0009711193680735389,-0.023500703921622654,-0.06478475934222287,-0.04540919257266281,-0.005584542035289111, ,0.03295076718256972, ,0.07911417474148337, ,0.0013301525442430235, ,0.2654689425514675,-0.16550588822750548,0.12487680086000001,1.6154513246047757,0.2570132560587935,-1.4019233254248962, ,0.14577103157983223,0.032124895585128904,0.028393603422459897,0.014633205057958431,0.09938025967693404,0.037561859426455624, ,1.4504239559173584
0.028321871072796392,0.019555766748944277,-0.11297427178500132, ,0.029475048009051187,0.0193098007671639,-0.11364571740279628, ,0.0013568918631045128, ,0.02307654437477795,0.0009711193680735389,-0.023500703921622654,-0.06478475934222287,-0.04540919257266281,-0.005584542035289111, ,0.03295076718256972, ,0.07911417474148337, ,0.0013303320027588724, ,0.26689764813319905,-0.16521242437828493,0.12516716982,1.6154513246047757,0.2582429845566825,-1.4019459416764772, ,0.14465997188791277,0.027261402343714675,0.030750601389961392,0.014633205057958431,0.15726861489922306,-0.0421586347398951, ,1.45585298538208
0.028556766212362857,0.019569259120304012,-0.11322418027034938, ,0.029604457704180905,0.01932736281529747,-0.11377058755521802, ,0.00120612279862428, ,0.02304692756282476,0.0019935666252091522,-0.025757727054115272,0.022088013163689347,0.015457839629135594,0.006421912081362334, ,0.03462074061844347, ,0.026959484295647054, ,0.001329503941397975, ,0.26689764813319905,-0.16521242437828493,0.12516716982,1.6154513246047757,0.2582429845566825,-1.4019459416764772, ,0.14465997188791277,0.027261402343714675,0.030750601389961392,0.014633205057958431,0.15726861489922306,-0.0421586347398951, ,1.4612641334533691
0.028556766212362857,0.019569259120304012,-0.11322418027034938, ,0.029733881184260735,0.019346448415191838,-0.11389344623402846, ,0.0013722832060176276, ,0.02304692756282476,0.0019935666252091522,-0.025757727054115272,0.022088013163689347,0.015457839629135594,0.006421912081362334, ,0.03462074061844347, ,0.026959484295647054, ,0.0013297872477861848, ,0.26689764813319905,-0.16521242437828493,0.12516716982,1.6154513246047757,0.2582429845566825,-1.4019459416764772, ,0.14465997188791277,0.027261402343714675,0.030750601389961392,0.014633205057958431,0.15726861489922306,-0.0421586347398951, ,1.4667210578918457
0.02870937296887978,0.01958472575591807,-0.11339056654825394, ,0.029863320851523642,0.019367067328334722,-0.11401429428446277, ,0.0013296643169885048, ,0.023555166361851135,0.00232007220822433,-0.024596030553297503,0.019021583872276787,0.005055866430206249,0.003546365880125982, ,0.0341349280995962, ,0.019681804710392752, ,0.0013297864390309367, ,0.2679170488725967,-0.165042524255052,0.12537846509,1.6156610145482602,0.2594727130545714,-1.4022952728886207, ,0.15015338854188412,0.02258375572548091,0.029941375037593993,0.017811697065863375,0.15455849101980895,-0.036179901739207425, ,1.4723389148712158
0.029024992811122682,0.019619969946719423,-0.11370561285557998, ,0.029992779124504366,0.0193892289785511,-0.11413313282882095, ,0.0010828781419347836, ,0.022880485898309023,0.0027358287627424977,-0.02332263431498044,-0.014574185180709567,-0.017161556324099294,-0.009949318590688611, ,0.03278637926566565, ,0.022514861503647055, ,0.001328172659311354, ,0.2698245638925301,-0.1647953968030768,0.12574531516,1.6162900843787136,0.2611123510517567,-1.4023254278907287, ,0.14422027592472764,0.017320120744382328,0.02844430628571429,0.02784086213965724,0.12394548881843874,0.0055989051330584405, ,1.4776921272277832
0.029024992811122682,0.019619969946719423,-0.11370561285557998, ,0.03012225843761175,0.019412942454186326,-0.11424996326447044, ,0.0012422437785709387, ,0.022880485898309023,0.0027358287627424977,-0.02332263431498044,-0.014574185180709567,-0.017161556324099294,-0.009949318590688611, ,0.03278637926566565, ,0.022514861503647055, ,0.0013276146795662865, ,0.2698245638925301,-0.1647953968030768,0.12574531516,1.6162900843787136,0.2611123510517567,-1.4023254278907287, ,0.14422027592472764,0.017320120744382328,0.02844430628571429,0.02784086213965724,0.12394548881843874,0.0055989051330584405, ,1.4829299449920654
0.029254629803950504,0.01965121160012336,-0.11395028458014062, ,0.0302517612407014,0.019438216510293756,-0.11436478726185356, ,0.0011006591132569827, ,0.024098150635766785,0.0038235588935689657,-0.026420311318731588,0.017650375024555277,0.00826165422533642,-0.03173977653717368, ,0.03596349978596902, ,0.01948788843752638, ,0.0013261504501062265, ,0.2713613877345008,-0.1646332194127181,0.1260642025,1.6164997743221983,0.26261535254917656,-1.4024075224694215, ,0.1482764711851106,0.01336953248217396,0.03211453935483872,0.05644117615406712,0.14947820850651394,-0.015587088539972808, ,1.488227128982544
0.029254629803950504,0.01965121160012336,-0.11395028458014062, ,0.030381289998647757,0.01946505957081815,-0.11447760676249032, ,0.0012578093879152563, ,0.024098150635766785,0.0038235588935689657,-0.026420311318731588,0.017650375024555277,0.00826165422533642,-0.03173977653717368, ,0.03596349978596902, ,0.01948788843752638, ,0.001325712366374233, ,0.2713613877345008,-0.1646332194127181,0.1260642025,1.6164997743221983,0.26261535254917656,-1.4024075224694215, ,0.1482764711851106,0.01336953248217396,0.03211453935483872,0.05644117615406712,0.14947820850651394,-0.015587088539972808, ,1.4935669898986816
0.029500588104553173,0.019693194730948507,-0.11421411043297494, ,0.030510847190916908,0.01949347973078083,-0.11458842397698397, ,0.0010957281287349828, ,0.02374972478319584,0.004240335998895351,-0.02418916173790047,0.004106066656086404,0.006282507677861352,-0.0132993523727621, ,0.034163510098398596, ,0.007504758803607236, ,0.001324247498618569, ,0.27288276611072304,-0.1645405466182274,0.12638697871000001,1.6164997743221983,0.2641183540465964,-1.402489617048114, ,0.1499161793972682,0.006499050928265784,0.02999776180790961,0.039331759866342034,0.15196509709399783,7.680888039404699e-05, ,1.4989049434661865
0.029500588104553173,0.019693194730948507,-0.11421411043297494, ,0.030640435311138758,0.019523484758466218,-0.11469724138302624, ,0.0012495873895083816, ,0.02374972478319584,0.004240335998895351,-0.02418916173790047,0.004106066656086404,0.006282507677861352,-0.0132993523727621, ,0.034163510098398596, ,0.007504758803607236, ,0.0013237749662824286, ,0.27288276611072304,-0.1645405466182274,0.12638697871000001,1.6164997743221983,0.2641183540465964,-1.402489617048114, ,0.1499161793972682,0.006499050928265784,0.02999776180790961,0.039331759866342034,0.15196509709399783,7.680888039404699e-05, ,1.5042829513549805
0.029592968794345247,0.01970957336944458,-0.114308283821055, ,0.030770056866679517,0.01955508209760484,-0.1148040617234011, ,0.001286545611924028, ,0.023877796792690788,0.004334510106399046,-0.02359658220605315,0.001420136427651059,0.007139817046312188,-0.00844584438711008, ,0.033848720054716015, ,0.0072791798578321285, ,0.0013235408193996716, ,0.2734619710762899,-0.16451737841960473,0.12650364481,1.6164997743221983,0.2646649000456581,-1.4024452162220564, ,0.15232253861712805,0.004917525626053876,0.02949779911111111,0.03536383268990272,0.1559345676131755,0.0032362897492512616, ,1.5096149444580078
0.029592968794345247,0.01970957336944458,-0.114308283821055, ,0.030899714378214604,0.01958827886956135,-0.11490888800399174, ,0.0014432677371940034, ,0.023877796792690788,0.004334510106399046,-0.02359658220605315,0.001420136427651059,0.007139817046312188,-0.00844584438711008, ,0.033848720054716015, ,0.0072791798578321285, ,0.001324289112635886, ,0.2734619710762899,-0.16451737841960473,0.12650364481,1.6164997743221983,0.2646649000456581,-1.4024452162220564, ,0.15232253861712805,0.004917525626053876,0.02949779911111111,0.03536383268990272,0.1559345676131755,0.0032362897492512616, ,1.5148630142211914
0.029983388117824073,0.019778199168530092,-0.11466842941715771, ,0.031029410379299963,0.01962308187551586,-0.11501172349178206, ,0.0011117889942643716, ,0.024512282475706353,0.004205679025135846,-0.0213364232469704,-0.019038630053484353,-0.010643841835534622,0.014592296490453288, ,0.032768623486578545, ,0.02181184039556829, ,0.0013229692361242616, ,0.27599502745903554,-0.16445559655661093,0.12696123518000002,1.6169191542091674,0.26712435704143606,-1.4022454125047967, ,0.16111535069349878,0.002740307366663565,0.0275109007253886,0.010750385785399798,0.1508931186833304,0.019261270532226968, ,1.5201270580291748
0.029983388117824073,0.019778199168530092,-0.11466842941715771, ,0.031159147415945693,0.019659497598652376,-0.11511257171286446, ,0.0012624430159997465, ,0.024512282475706353,0.004205679025135846,-0.0213364232469704,-0.019038630053484353,-0.010643841835534622,0.014592296490453288, ,0.032768623486578545, ,0.02181184039556829, ,0.001322595617481518, ,0.27599502745903554,-0.16445559655661093,0.12696123518000002,1.6169191542091674,0.26712435704143606,-1.4022454125047967, ,0.16111535069349878,0.002740307366663565,0.0275109007253886,0.010750385785399798,0.1508931186833304,0.019261270532226968, ,1.5253770351409912
0.030218466536187108,0.01982222512672241,-0.11486430233978435, ,0.031288928046187735,0.01969753220634216,-0.1152114364504431, ,0.0011322271236676037, ,0.02373590023302498,0.004540531637695039,-0.019045246510556516,0.023949432138330055,0.017005654377889538,-0.06243394033640472, ,0.030768990917365, ,0.029372862898364237, ,0.001321427712611494, ,0.27757046496537735,-0.16445559655661093,0.12721790060000002,1.6177579139831053,0.26876399503862136,-1.4021938887667642, ,0.1602988877676871,-0.0015003545955573777,0.02524375835182251,0.09563966261319606,0.16403423791880545,0.0034022288738220913, ,1.5306570529937744
