NicholasDascanio/dvrk_moveit_final/test/execution/third_experiment_notsharpbends/thirdexp_200vel5.0/thirdexp_200vel5.0_19.csv
Current Position (x),Current Position (y),Current Position (z), ,Planned Position (x),Planned Position (y),Planned Position (z), ,Position Error,,Cartesian linear Velocity(x),Cartesian linear Velocity(y),Cartesian linear Velocity(z),Cartesian Angular Velocity(x),Cartesian Angular Velocity(y),Cartesian Angular Velocity(z), ,Total Linear Velocity, ,Total Angular Velocity, ,MSE, ,Joint 1 Position,Joint 2 Position,Joint 3 Position,Joint 4 Position,Joint 5 Position,Joint 6 Position, ,Joint 1 Velocity,Joint 2 Velocity,Joint 3 Velocity,Joint 4 Velocity,Joint 5 Velocity,Joint 6 Velocity, ,Time Stamp
0.008939743650585693,0.020107640906594053,-0.07890073430930082, ,0.009268548650808655,0.020110088006688034,-0.07916715245434876, ,0.00042319894196615765, ,0.0021807152854614797,0.0007429714874844159,-0.002835160092700922,0.24645227463212083,-0.11691077428897473,-0.029604314475015738, ,0.0036531710251101095, ,0.27277619547169196, ,3.5266578497179804e-05, ,0.12842132496547937,-0.24755992501614088,0.08848734798,1.6024505481087352,0.13663649976544046,-1.3071946593542525, ,0.01009048856405544,1.9402215789848933e-05,0.003029443042982123,-0.0006946923630128021,-0.11081691568736093,-0.24657826931779114, ,0.05242800712585449
0.00909793655411979,0.020194383438264178,-0.07924081763933113, ,0.009481516714049796,0.02019001443146152,-0.07954274455489799, ,0.00048817280716574563, ,0.0048369261524027615,0.0018187561787283795,-0.007161798470471721,0.16306622881502733,-0.21614409370396395,-0.05179134109386068, ,0.008831482659956454, ,0.2707560972613941, ,4.1425988596904694e-05, ,0.1296260712938584,-0.24751358861889552,0.08891512368000001,1.602869927995704,0.13089776677529194,-1.3172989593644446, ,0.032734371010165846,0.0021247078326140185,0.007453819148338794,0.0020746312255585974,-0.15088857598640587,0.16221966880959493, ,0.10476112365722656
0.009289249745097669,0.02027605741315299,-0.07957423870118877, ,0.009692974628108624,0.020266796560302027,-0.079915856772665, ,0.0005289446580852057, ,0.004617237840654958,0.001919358005014587,-0.00721542753312207,0.007094867609054934,-0.017982981021956095,-0.007814801576709112, ,0.008778679565534082, ,0.019331961443906427, ,4.646181958764868e-05, ,0.13137913165630735,-0.24742863855727906,0.08921327038000001,1.603289307882673,0.13404040626989708,-1.311366982174844, ,0.04844152197982173,0.000619622864787496,0.007968389954977489,0.01509898218379385,0.027606711450156786,-0.005787638604790597, ,0.1515340805053711
0.009567969219262139,0.02038088143566865,-0.08001122728682214, ,0.00990293061460263,0.020340489797040038,-0.08028650285999844, ,0.00043543915996048824, ,0.0057378210896181815,0.00159338486730393,-0.0072223941653552105,0.018964821759817868,-0.05387513633142305,-0.019117860685435185, ,0.009360792897590318, ,0.0571156262283722, ,4.689388917943993e-05, ,0.13411297909378284,-0.24726646116692036,0.08969160139000001,1.6039183777131267,0.13417704276966252,-1.3133570111017732, ,0.05857835898671035,0.0048197409409926565,0.008004427899497488,0.019135767932764874,0.0,-0.021260552551313944, ,0.19859099388122559
0.00980048334484466,0.02045274197039437,-0.08033154993374955, ,0.010111392939340314,0.02041114913012206,-0.08065469647428593, ,0.00045035366876711185, ,0.005112258968393593,0.0014651082338902823,-0.007186659370207923,-0.0059485011781788095,-0.02793568114592923,0.005704140696019903, ,0.008940347129744525, ,0.028561983967911583, ,4.74716170600961e-05, ,0.13648385808616975,-0.24708111557793896,0.09004030340000001,1.6039183777131267,0.13499686176825518,-1.3135354460831081, ,0.05343296258922904,0.005784843106412555,0.00798436667669173,0.012875894651460253,0.02713505121546478,-0.00046138360346803173, ,0.24632000923156738
0.010001276527606892,0.020518123833033856,-0.08065216877054172, ,0.010318369911982617,0.020478829133917312,-0.08102045117860426, ,0.00048756970771557774, ,0.005263545125969553,0.001833364529944793,-0.009191759976871756,-0.04117278589323828,-0.043741509068750344,-0.012604661553400993, ,0.01074963181998337, ,0.060070940130885944, ,4.9362788485268186e-05, ,0.13859988689370728,-0.24682626539308955,0.09039548686000001,1.6045474475435806,0.136499863265675,-1.3133725044413793, ,0.04874008297815653,0.007465489059452265,0.009924493158878505,0.012637385638325314,0.002002063425462832,0.03547140558707533, ,0.2884180545806885
0.010232899727728843,0.020607025742992505,-0.08109445709641219, ,0.01052386988568721,0.020543583970021727,-0.08138378044235094, ,0.00041520656291198335, ,0.004523224103253413,0.0016806443634249525,-0.008130453972065448,0.012383819551532945,-0.020321548207368412,-0.008076368067046612, ,0.009454544069199718, ,0.023797568630031615, ,4.9675161639573384e-05, ,0.14083947942723238,-0.24647874241374945,0.09087252158,1.605176517374034,0.1381395012628603,-1.3135660169237686, ,0.04305668854740053,0.005911506855030241,0.008805313167495854,0.012714467924320788,0.020246833400728827,-0.01650993503106751, ,0.3312101364135742
0.010413027951072868,0.020671943349878274,-0.08143258919735946, ,0.010727901256736947,0.02060546738855921,-0.08174469764186057, ,0.0004483033941227965, ,0.004747119225289325,0.0017509386312494386,-0.00912617304718378,0.004334110816972639,-0.023701519799945614,-0.014943439878003844, ,0.010434939459175452, ,0.024094532452305726, ,5.037245069445297e-05, ,0.1425384806595618,-0.24617755583165468,0.09123677907000001,1.6058055872044876,0.13909595676121836,-1.3141825847693624, ,0.043134973435668536,0.008061865923717387,0.009808381477832513,0.018321815206767417,0.015441469763970185,-0.009789153862367398, ,0.3733820915222168
0.010605711601278751,0.02073641968502793,-0.0817861604141871, ,0.010930472464154857,0.020664532729481194,-0.08210321606100834, ,0.0004595232699385853, ,0.005174430707987658,0.0017102431137718888,-0.009117320211930176,-0.0019654135580794343,-0.026871271788671346,0.0018281032933727887, ,0.010621920377541923, ,0.026943051701609103, ,5.170890213292065e-05, ,0.1443764910836272,-0.24583003285231458,0.09161788833000001,1.6060152771479719,0.14032568525910732,-1.314858630942068, ,0.04856547674435557,0.008386040817300405,0.00985693782178218,0.002411457586552249,0.021773748628213137,-0.006000071445583203, ,0.41054201126098633
0.010764295007836086,0.02079438575266071,-0.08208794247869886, ,0.0111315919893066,0.02072083292386382,-0.08245934889180065, ,0.0005275033790550689, ,0.005632943068199853,0.001947258533994997,-0.00997076734765049,-0.03626730248285616,-0.045140859242655845,-0.009902661301109594, ,0.011616284470895601, ,0.05790521827954165, ,5.361167298492783e-05, ,0.1458515330626041,-0.24556745993459095,0.09194325712000001,1.606434657034941,0.14128214075746542,-1.3149851263468184, ,0.05010398181545448,0.008273808629603651,0.010777274370771315,0.009744788260811934,0.0026764404237950294,0.029454992689944386, ,0.44775915145874023
0.010928899556169984,0.020850909931616483,-0.08240058193140241, ,0.011331268355492145,0.020774420495203234,-0.08281310923495437, ,0.0005813175214343898, ,0.0059094205710521945,0.00188230876566795,-0.010143060051060278,-0.008505301903289372,-0.024993020245056445,4.844592389855639e-05, ,0.011888902597561314, ,0.026400589275152285, ,5.640358140992592e-05, ,0.14742697056894588,-0.24525855061962198,0.09228029252000002,1.6066443469784255,0.14278514225488526,-1.3157206508466357, ,0.055658030239572304,0.00958292280370272,0.011000560441988952,0.006173087974910516,0.030085193770983253,-9.982050196663712e-05, ,0.47894716262817383
0.011175270191779932,0.020923946508753663,-0.08282844947783191, ,0.011529510127527766,0.02082534756071045,-0.08316451010046855, ,0.000498140970730958, ,0.006066417986098229,0.001363600289258684,-0.009438705125355091,0.0003013228205049326,-0.04168936970234295,0.04120175748096439, ,0.011302653996930407, ,0.04169045774163366, ,5.801690951367746e-05, ,0.1497669586298359,-0.24477201844854585,0.09274306805000002,1.607692796695848,0.14442478025207056,-1.3159958420691655, ,0.057270332865703544,0.012724180954474494,0.010296581460892051,-0.038627779984838066,0.026725293689232873,-0.018944185012119898, ,0.5147969722747803
0.01135903436756596,0.020965353322815117,-0.08311968749787818, ,0.011726325911319342,0.020873665832603444,-0.0835135644081853, ,0.0005463045802911988, ,0.005928372268462727,0.0012480455023983928,-0.008895756656659244,-0.008173952285326925,-0.011626834489025708,0.002366727159999813, ,0.010762792473332932, ,0.014212555030338353, ,5.99045583061454e-05, ,0.1516204145196498,-0.2443549908733377,0.09305936281,1.6074831067523636,0.14633769124878673,-1.3170656202800721, ,0.05886907044570147,0.013180130772009831,0.009689058102189783,0.007410149040995303,0.046872261293342744,-0.0037811595513637646, ,0.5498700141906738
0.011546154570820226,0.021011938530481958,-0.08343129590012369, ,0.011921724353427981,0.02091942661939952,-0.08386028498834477, ,0.0005776181724226845, ,0.005957058763334999,0.0017757738799084875,-0.011462157006210548,0.07701856487710232,0.03880423880803897,0.008548687668516696, ,0.013039208765006145, ,0.08624168416346988, ,6.243269813243594e-05, ,0.1533889203478472,-0.24393024056525536,0.09339639821000001,1.6081121765828172,0.1475674197466757,-1.3173332727520748, ,0.059571212528857984,0.014570388693147671,0.012357495360744767,0.013841609021448927,0.09802737114242638,-0.08936642831202007, ,0.5759639739990234
0.011750153521924182,0.021082245480402807,-0.08384960600894359, ,0.012115714140628625,0.020962680827205597,-0.08420468458213262, ,0.0005234606626860355, ,0.007268750298387259,0.0025273960811671536,-0.014605928487095134,-0.03349473800434465,-0.0392739760460124,-0.017590599212208898, ,0.016509258275935388, ,0.05161726458958837, ,6.427006484568685e-05, ,0.15520376257328997,-0.2434745993256761,0.09384491455,1.6085315564697864,0.1493436942436264,-1.3182099543191441, ,0.05987188741859355,0.015015338854188414,0.015647162593320236,0.020030750498465092,0.016252186765632184,0.021665553698651106, ,0.6025650501251221
0.011882415696922787,0.02112026285101797,-0.08410448172599773, ,0.012308303999462469,0.021003478961008234,-0.08454677584222099, ,0.0006250147265878258, ,0.006137979369580677,0.0015114561127743094,-0.011030918520229012,0.0403290743023845,0.014125239843875698,0.002433542179025062, ,0.012713789903965388, ,0.04273121191128463, ,6.680060153201511e-05, ,0.156408508901669,-0.24314252181208446,0.09411843174000001,1.6087412464132707,0.15057342274151536,-1.3187226430115686, ,0.058759716135276016,0.016108800128750767,0.011887172776119406,0.013174415185753564,0.07189377789855425,-0.054249696635179735, ,0.6292331218719482
0.01202143060731149,0.021153325195109655,-0.08434736604801363, ,0.012499502695784072,0.021041871125962505,-0.08488657133330571, ,0.0007291894616578803, ,0.006989402480388072,0.0018362133953295197,-0.012973954921273121,0.023266211431721816,0.00907771654346628,0.012387796410277667, ,0.014850822635977765, ,0.024974410192046548, ,7.052630359273947e-05, ,0.1577059280245387,-0.24278727609987014,0.09438028232000001,1.6089509363567556,0.15180315123940433,-1.319235331703993, ,0.06508706554078929,0.01789832922641848,0.013960395723049959,0.003388080142755097,0.07563185571825527,-0.040430392943666064, ,0.6505041122436523
0.01216904570102399,0.02119369385315233,-0.08463776608883349, ,0.012689319034303153,0.02107790702868053,-0.08522408353263652, ,0.0007923755895725233, ,0.007799980542261243,0.0024791586055578864,-0.017021372312057994,0.016854430754428513,0.02319761847023808,0.00381374353575324, ,0.01888684831402159, ,0.028674028491683944, ,7.45127908990017e-05, ,0.15904968354465376,-0.24237797125753624,0.09469139192,1.6093703162437245,0.15344278923658963,-1.320082274107507, ,0.06802648140392172,0.022177364234276884,0.01814215435079727,0.01526839356531731,0.09027488390414531,-0.03639605082767267, ,0.6714050769805908
0.012333426301631218,0.02124827549968527,-0.0849975667081575, ,0.012877761858122347,0.02111163597851935,-0.08555932483054514, ,0.0007940678465178168, ,0.008963003929973413,0.0027491619973058724,-0.018874709042690556,-0.02388788932207167,-0.003253474285398134,0.010208260802386565, ,0.02107481844719841, ,0.024108379366122264, ,7.886797772206133e-05, ,0.1604474981948884,-0.24193777548370543,0.09507509376,1.609580006187209,0.1550824272337749,-1.32084753777088, ,0.07561509287527553,0.02423313114363401,0.020137561972187107,0.003937471038020294,0.07361597673471224,0.0005787754081732974, ,0.68802809715271
0.012530694652634147,0.021308081907210938,-0.08541006287824596, ,0.013064840048270491,0.0211431068888677,-0.08589230753096715, ,0.0007383007283181016, ,0.00990633157871843,0.003016100451656661,-0.020785767025770424,0.029329741112917633,0.03947395464427272,0.000658015736038989, ,0.023222411117961084, ,0.04917746362940874, ,8.261198365603085e-05, ,0.1621387766943436,-0.24139718418250972,0.09551583236000001,1.6102090760176624,0.15699533823049108,-1.3216722797613647, ,0.08730169416602647,0.027097927343937973,0.022246943463687153,0.026154831939162636,0.12424058064454296,-0.051932292509422634, ,0.7037441730499268
0.01263050631486858,0.02133771934604025,-0.08561321903137241, ,0.013250562523232813,0.02117236827843323,-0.08622304385196222, ,0.0008852666202321247, ,0.010404749395711996,0.0027875408366714906,-0.020631863873149296,0.051289940187431396,0.01415317074789548,-0.005186846835478618, ,0.023274513975244326, ,0.05320682727050155, ,8.726476226379752e-05, ,0.16301144550913096,-0.24113461126478608,0.09573360908,1.6104187659611469,0.1580884302286146,-1.3220735505500927, ,0.09046419595659749,0.029181101340243164,0.022092665076282943,0.026082122372180633,0.1014304859804604,-0.0759371428938927, ,0.7196581363677979
0.01273925965653102,0.02136344820395152,-0.08582441432800204, ,0.013434938238477568,0.021199468272528693,-0.08655154592623099, ,0.0010195972089171164, ,0.010869463678306886,0.0026007139485919734,-0.021030993902612097,-0.0074956602319965916,-0.01646562754119508,-0.01070884862806096, ,0.023816205789926756, ,0.01809137082451677, ,9.334438589249911e-05, ,0.16393817345403788,-0.24081025648406867,0.09595916354,1.6104187659611469,0.15890824922720723,-1.3224970217518495, ,0.0914228724070046,0.03216845476558331,0.02246658888575459,0.023710009676047507,0.07142301539029575,-0.020470072920970195, ,0.7301599979400635
0.012849035743311182,0.021391810865138375,-0.08604667843637451, ,0.013617976185979843,0.02122445460435794,-0.08687782580162845, ,0.0011445887755707099, ,0.011792435765261374,0.0031043475014383187,-0.024363879921355792,0.014312555312767488,0.016230195544118538,0.003557293455766457, ,0.027245130932145395, ,0.021639313809370987, ,0.00010013800294062472, ,0.16486490139894483,-0.24048590170335124,0.09619638461,1.6104187659611469,0.15986470472556533,-1.322950232117162, ,0.09957706354509001,0.03576967265679261,0.025985010636215337,0.01904467431429272,0.11466160014222186,-0.0465597388881331, ,0.7407741546630859
0.01297694502908626,0.02142933783973749,-0.08632654123045866, ,0.013799685393742588,0.021247374616301024,-0.08720189544167442, ,0.0012150132992734635, ,0.012841812127686985,0.003957586493783525,-0.028943630595140764,0.0757540676080178,0.054468242550451934,0.011532882323905192, ,0.03191094454268872, ,0.09330298973300684, ,0.00010723406792938146, ,0.16593836126846204,-0.2400920423267658,0.09649453131,1.6110478357916007,0.16136770622298516,-1.3239307928374013, ,0.10686592517845808,0.0389560515428862,0.03081008030947776,0.02169740693675027,0.16095963402354566,-0.11062293529400011, ,0.7515830993652344
0.01310888126987231,0.021470400846894343,-0.08661829760422549, ,0.013980074925315633,0.021268275261200276,-0.0875237667260637, ,0.0012726772836345174, ,0.01415694470124444,0.004310420715803581,-0.030778337289618422,0.04811671294709678,0.049260496090416744,-0.055294981001485125, ,0.03415120578156557, ,0.06886063403551981, ,0.00011453206205197287, ,0.16826290386360362,-0.23925798717634952,0.09714656518,1.6116769056220543,0.16423707271805943,-1.3254537814136205, ,0.12260586764660306,0.0457114362035023,0.03470329307189543,0.045961146233297244,0.13247098291313456,-0.06716206852501742, ,0.76214599609375
0.01326054459288821,0.021511965902414654,-0.08693803737645717, ,0.014159153879312238,0.021287203103644636,-0.08784345145117152, ,0.0012952959553898412, ,0.015264681268418697,0.0042716124960844,-0.03256461760724114,0.029658505908978047,0.016847526231644615,-0.019908226258452337, ,0.03621755772341582, ,0.034109082249496187, ,0.00012261948597894459, ,0.16826290386360362,-0.23925798717634952,0.09714656518,1.6116769056220543,0.16423707271805943,-1.3254537814136205, ,0.12260586764660306,0.0457114362035023,0.03470329307189543,0.045961146233297244,0.13247098291313456,-0.06716206852501742, ,0.7681601047515869
0.01341907882288657,0.021553736287728362,-0.0872767633190502, ,0.01433693138892384,0.021304204321254988,-0.08816096133056008, ,0.0012986630274367918, ,0.01701577727267725,0.004352325795308764,-0.036451935763024856,0.02083595991396524,0.015409025498034343,0.013621175699062404, ,0.04046261282830806, ,0.02591352801665472, ,0.000685753856441525, ,0.16952943205497645,-0.23876373227239917,0.09750693380000001,1.6116769056220543,0.1656034377157138,-1.3258328517893196, ,0.13576100366018712,0.05475876604643438,0.03875623240875913,0.014185011910602684,0.15227176888208713,-0.07242141340708061, ,0.7734861373901367
0.01341907882288657,0.021553736287728362,-0.0872767633190502, ,0.014513416621433031,0.02131932470596837,-0.0884763079954802, ,0.00164055827014535, ,0.01701577727267725,0.004352325795308764,-0.036451935763024856,0.02083595991396524,0.015409025498034343,0.013621175699062404, ,0.04046261282830806, ,0.02591352801665472, ,0.0007186781465692431, ,0.16952943205497645,-0.23876373227239917,0.09750693380000001,1.6116769056220543,0.1656034377157138,-1.3258328517893196, ,0.13576100366018712,0.05475876604643438,0.03875623240875913,0.014185011910602684,0.15227176888208713,-0.07242141340708061, ,0.7788431644439697
0.013563793615513143,0.021593376265930962,-0.08759349583311983, ,0.014688618777724942,0.021332609665322407,-0.08878950299537444, ,0.0016624271405694959, ,0.019277710160770425,0.005508019792596128,-0.04315943460079401,0.07252309472894564,0.05439645630072083,0.03290686114928975, ,0.04758891873260536, ,0.09065552367636359, ,0.0007501364463692514, ,0.17068784198611012,-0.2383080910328199,0.0978439692,1.6118865955655386,0.16710643921313365,-1.3267317337694178, ,0.15305958315882384,0.06025202638633065,0.04590435596541788,0.0077195973472239604,0.21180639701245518,-0.13053706333968307, ,0.7842891216278076
0.013563793615513143,0.021593376265930962,-0.08759349583311983, ,0.014862547091797585,0.021344104223740112,-0.08910055779837721, ,0.0020050269101197496, ,0.019277710160770425,0.005508019792596128,-0.04315943460079401,0.07252309472894564,0.05439645630072083,0.03290686114928975, ,0.04758891873260536, ,0.09065552367636359, ,0.0007906167839095902, ,0.17068784198611012,-0.2383080910328199,0.0978439692,1.6118865955655386,0.16710643921313365,-1.3267317337694178, ,0.15305958315882384,0.06025202638633065,0.04590435596541788,0.0077195973472239604,0.21180639701245518,-0.13053706333968307, ,0.7901370525360107
0.013813591690098267,0.02167373528101861,-0.08818658617705791, ,0.015035210830269347,0.021353853023812285,-0.0894094837918131, ,0.0017578841140079968, ,0.022428029662790668,0.00747714542117576,-0.05374677025983831,0.10692015446761255,0.09413245752927855,-0.03629582753043248, ,0.05871660354250974, ,0.14245136184848148, ,0.0008208438879751653, ,0.17261852520466625,-0.23752809501252325,0.09847396614000001,1.612725355339477,0.17011244220797336,-1.3286111764697552, ,0.16915675857124915,0.06822210032959797,0.057092514408602156,0.08759099969752285,0.2499611893877821,-0.15927815802093884, ,0.7954301834106445
0.013813591690098267,0.02167373528101861,-0.08818658617705791, ,0.015206619291888355,0.021361900327583973,-0.0897162922826967, ,0.0020923115702880476, ,0.022428029662790668,0.00747714542117576,-0.05374677025983831,0.10692015446761255,0.09413245752927855,-0.03629582753043248, ,0.05871660354250974, ,0.14245136184848148, ,0.0008593732116816163, ,0.17261852520466625,-0.23752809501252325,0.09847396614000001,1.612725355339477,0.17011244220797336,-1.3286111764697552, ,0.16915675857124915,0.06822210032959797,0.057092514408602156,0.08759099969752285,0.2499611893877821,-0.15927815802093884, ,0.8006770610809326
0.014058398866948086,0.021754567846344944,-0.08877014652630726, ,0.015376781807036818,0.02136829001783561,-0.09002099449822792, ,0.0018579463895314488, ,0.026345782105979817,0.008682742337972898,-0.0625170272100486,0.009265349712970569,0.029432696403394708,-0.016825224794814422, ,0.06839494820866049, ,0.030841130796074735, ,0.0008887430110301408, ,0.17441792196436054,-0.23679443538947192,0.09909359276000002,1.6133544251699303,0.17243526270398585,-1.3297701721713295, ,0.18903773218818878,0.07759357445500473,0.066370048,0.05588263038402086,0.21148624626750628,-0.07599554964221267, ,0.8059329986572266
0.014058398866948086,0.021754567846344944,-0.08877014652630726, ,0.01554570773723804,0.021373065599368652,-0.09032360158628945, ,0.002184228528216639, ,0.026345782105979817,0.008682742337972898,-0.0625170272100486,0.009265349712970569,0.029432696403394708,-0.016825224794814422, ,0.06839494820866049, ,0.030841130796074735, ,0.000925756882949755, ,0.17441792196436054,-0.23679443538947192,0.09909359276000002,1.6133544251699303,0.17243526270398585,-1.3297701721713295, ,0.18903773218818878,0.07759357445500473,0.066370048,0.05588263038402086,0.21148624626750628,-0.07599554964221267, ,0.8112239837646484
0.014340766927612096,0.021845915387261633,-0.08944239398054991, ,0.01571340647466024,0.021376270200288084,-0.09062412461594122, ,0.0018711475683094276, ,0.028466147706816308,0.008644006804327083,-0.06709750630202714,0.02102391280105302,-0.0033237299566135046,0.03212098700467407, ,0.07339697385349145, ,0.0212530494809732, ,0.000952017735320857, ,0.17633315971716823,-0.23598354843767835,0.09978192275000002,1.6135641151134148,0.17434817370070202,-1.3305132354216738, ,0.19894537014354458,0.08730169416602647,0.07142964807174888,0.0,0.20066525688328563,-0.105073578212713, ,0.8165969848632812
0.014340766927612096,0.021845915387261633,-0.08944239398054991, ,0.015879887441620263,0.021377946573286153,-0.09092257457791586, ,0.002186051547496763, ,0.028466147706816308,0.008644006804327083,-0.06709750630202714,0.02102391280105302,-0.0033237299566135046,0.03212098700467407, ,0.07339697385349145, ,0.0212530494809732, ,0.0009853700005148006, ,0.17633315971716823,-0.23598354843767835,0.09978192275000002,1.6135641151134148,0.17434817370070202,-1.3305132354216738, ,0.19894537014354458,0.08730169416602647,0.07142964807174888,0.0,0.20066525688328563,-0.105073578212713, ,0.8220641613006592
0.014640426181457895,0.021925260076881406,-0.09012221376386663, ,0.016045160090086854,0.021378137096925893,-0.09121896238511132, ,0.001864263513414753, ,0.0300645608344021,0.007122448347474559,-0.0652017491710007,0.036833895379466276,-0.0030363689237466527,0.019946828608017896, ,0.07215175107775278, ,0.03694288802422236, ,0.0010084987771700625, ,0.1784646339904542,-0.23501820682840027,0.10050395628000001,1.6133544251699303,0.17653435769694906,-1.3316424919596919, ,0.21715547267384616,0.09864546939549977,0.06955812890829695,0.01450209622094567,0.21709197169869823,-0.12787371638321363, ,0.8273890018463135
0.014640426181457895,0.021925260076881406,-0.09012221376386663, ,0.016209233901182722,0.021376883776924194,-0.0915132988730856, ,0.0021672544864214075, ,0.0300645608344021,0.007122448347474559,-0.0652017491710007,0.036833895379466276,-0.0030363689237466527,0.019946828608017896, ,0.07215175107775278, ,0.03694288802422236, ,0.0010382104620226611, ,0.1784646339904542,-0.23501820682840027,0.10050395628000001,1.6133544251699303,0.17653435769694906,-1.3316424919596919, ,0.21715547267384616,0.09864546939549977,0.06955812890829695,0.01450209622094567,0.21709197169869823,-0.12787371638321363, ,0.8327240943908691
0.014943691310157449,0.021985234948814554,-0.09075699043975705, ,0.016372118384686454,0.02137422824743522,-0.09180559480054844, ,0.001874381018322761, ,0.03028994047183661,0.004493880850214843,-0.06050702815043229,0.007425448485727292,-0.012724246304576931,0.025920486850010912, ,0.06781427515265896, ,0.014704853410006625, ,0.0010591147259301635, ,0.18077373111984732,-0.2339215787602604,0.10120136030000002,1.6135641151134148,0.17885717819296154,-1.3330465238816878, ,0.22702617597720282,0.1131072009040176,0.06422907870967744,0.005233851224935907,0.21921782336045598,-0.11768252841024222, ,0.8383409976959229
0.015258045364606275,0.02201953918089865,-0.0913270679664342, ,0.016533823078533513,0.021370211772333482,-0.09209586084985381, ,0.0016248930292373153, ,0.03187460082385955,0.002477033714561921,-0.05415743459125875,0.004289971427219092,-0.05405469858186775,-0.07226226697725786, ,0.06289001188750033, ,0.05422036883018017, ,0.0010729141967425332, ,0.1831909465094796,-0.2327554460962525,0.10180932031,1.6144028748873531,0.1807700891896777,-1.3341163020925941, ,0.24907333742380783,0.11921726326441054,0.05792295098181819,0.09612671898027471,0.17783250136105813,-0.10431636786991542, ,0.843757152557373
0.015258045364606275,0.02201953918089865,-0.0913270679664342, ,0.016694357548317162,0.021364875246497234,-0.09238410762749201, ,0.0018997132418161172, ,0.03187460082385955,0.002477033714561921,-0.05415743459125875,0.004289971427219092,-0.05405469858186775,-0.07226226697725786, ,0.06289001188750033, ,0.05422036883018017, ,0.0010925998882919043, ,0.1831909465094796,-0.2327554460962525,0.10180932031,1.6144028748873531,0.1807700891896777,-1.3341163020925941, ,0.24907333742380783,0.11921726326441054,0.05792295098181819,0.09612671898027471,0.17783250136105813,-0.10431636786991542, ,0.8490111827850342
0.015590152713495817,0.022029020272924787,-0.09185483634648643, ,0.016853731386787904,0.021358259197090744,-0.09267034566458018, ,0.0016466957619276149, ,0.032491454037674984,-0.00034680444085336535,-0.04888265363016446,-0.027093938165242703,-0.07373495126519207,-0.020844213042471926, ,0.05869692227646329, ,0.07855345577607568, ,0.001105485838841572, ,0.18584756661821283,-0.23145030424050855,0.10237450275000001,1.614822254774322,0.18268300018639388,-1.335186080303501, ,0.26360261544019664,0.133469678703897,0.05239740631578948,0.041086075655568065,0.18561107671617533,-0.09651960588409053, ,0.8542389869689941
0.015590152713495817,0.022029020272924787,-0.09185483634648643, ,0.01701195421335421,0.021350403784848312,-0.0929545854173533, ,0.0019213245071463987, ,0.032491454037674984,-0.00034680444085336535,-0.04888265363016446,-0.027093938165242703,-0.07373495126519207,-0.020844213042471926, ,0.05869692227646329, ,0.07855345577607568, ,0.0011240276267575908, ,0.18584756661821283,-0.23145030424050855,0.10237450275000001,1.614822254774322,0.18268300018639388,-1.335186080303501, ,0.26360261544019664,0.133469678703897,0.05239740631578948,0.041086075655568065,0.18561107671617533,-0.09651960588409053, ,0.859525203704834
0.015905707348623194,0.02201563887029286,-0.09231037716656103, ,0.01716903567358101,0.021341348805356444,-0.09323683726765589, ,0.0017055772826915143, ,0.03269991970754174,-0.0023566630203901004,-0.04552182278813726,-0.0029429589440300953,-0.07336439748565488,0.04263580886995254, ,0.05609879641691008, ,0.07342206989475299, ,0.0011369509524450114, ,0.18844240486395225,-0.2301065487203935,0.10286320408,1.6150319447178065,0.18459591118311003,-1.336500894734829, ,0.2719110073308618,0.1437832447855618,0.04886138503067485,-0.022123566427868176,0.2093763947022986,-0.14217265603663973, ,0.8648371696472168
0.015905707348623194,0.02201563887029286,-0.09231037716656103, ,0.017324985438689412,0.021331133690337303,-0.09351711152343042, ,0.0019847179765339444, ,0.03269991970754174,-0.0023566630203901004,-0.04552182278813726,-0.0029429589440300953,-0.07336439748565488,0.04263580886995254, ,0.05609879641691008, ,0.07342206989475299, ,0.0011553806703599881, ,0.18844240486395225,-0.2301065487203935,0.10286320408,1.6150319447178065,0.18459591118311003,-1.336500894734829, ,0.2719110073308618,0.1437832447855618,0.04886138503067485,-0.022123566427868176,0.2093763947022986,-0.14217265603663973, ,0.8703901767730713
0.016238258021871045,0.021985883850503277,-0.09277639715017155, ,0.017479813205054734,0.021319797508931468,-0.09379541841920871, ,0.001738831398977172, ,0.03322950205663014,-0.003618390672741495,-0.04688755105548701,-0.029539229242245484,-0.05126793026483045,0.0223794103806619, ,0.0575824192091047, ,0.05916705268421384, ,0.0011677945156497156, ,0.19119169776717618,-0.22858517034417125,0.10336227573000001,1.614822254774322,0.1867820951793571,-1.3378751874932688, ,0.27347821774775444,0.15895635101921404,0.05009060226415095,0.0,0.2283717776275479,-0.12647735101404717, ,0.8756811618804932
0.016238258021871045,0.021985883850503277,-0.09277639715017155, ,0.01763352869370503,0.02130737896898023,-0.09407176811660077, ,0.002021171705372512, ,0.03322950205663014,-0.003618390672741495,-0.04688755105548701,-0.029539229242245484,-0.05126793026483045,0.0223794103806619, ,0.0575824192091047, ,0.05916705268421384, ,0.0011855732071022738, ,0.19119169776717618,-0.22858517034417125,0.10336227573000001,1.614822254774322,0.1867820951793571,-1.3378751874932688, ,0.27347821774775444,0.15895635101921404,0.05009060226415095,0.0,0.2283717776275479,-0.12647735101404717, ,0.8809731006622314
0.01657224536327286,0.021955517485094424,-0.09325758821189403, ,0.01778614164981936,0.021293916418309303,-0.09434617070478407, ,0.0017596226896381183, ,0.03415402426572197,-0.0031565314546576503,-0.04930129027302749,-0.006322306003117314,-0.06060804689310509,0.019703073443841312, ,0.06005895675878064, ,0.06093451923415, ,0.0011972885026642298, ,0.19389465427315478,-0.22703290103645213,0.10387690286000001,1.614822254774322,0.18896827917560413,-1.3392494802517088, ,0.2742686172210138,0.15869053772319527,0.05274440900662252,0.0,0.21947572668205653,-0.1494258110799529, ,0.886275053024292
0.01657224536327286,0.021955517485094424,-0.09325758821189403, ,0.01793766184222569,0.021279447846011074,-0.09461863620099344, ,0.0020430085527275124, ,0.03415402426572197,-0.0031565314546576503,-0.04930129027302749,-0.006322306003117314,-0.06060804689310509,0.019703073443841312, ,0.06005895675878064, ,0.06093451923415, ,0.0012142029036654955, ,0.19389465427315478,-0.22703290103645213,0.10387690286000001,1.614822254774322,0.18896827917560413,-1.3392494802517088, ,0.2742686172210138,0.15869053772319527,0.05274440900662252,0.0,0.21947572668205653,-0.1494258110799529, ,0.8916201591491699
0.016916689211532353,0.021919925425107938,-0.09375498142577186, ,0.018088099062897916,0.02126401088372746,-0.0948891745510091, ,0.0017575036190022708, ,0.03544152252020246,-0.003950428908189394,-0.05187233045310536,-0.05123138282843567,-0.08334666865206204,-0.008680486055556002, ,0.06294796322157563, ,0.09783121282274714, ,0.0012248558588681775, ,0.19662850171063023,-0.22539568166711654,0.10440838176000002,1.615241634661291,0.19101782667208575,-1.3402673188860306, ,0.2766674681004979,0.1716038726192962,0.055308373333333334,0.020253507719046205,0.1938953601762724,-0.11321788324443126, ,0.8969950675964355
0.016916689211532353,0.021919925425107938,-0.09375498142577186, ,0.018237463126453662,0.021247642806932532,-0.09515779562964613, ,0.002040660516506539, ,0.03544152252020246,-0.003950428908189394,-0.05187233045310536,-0.05123138282843567,-0.08334666865206204,-0.008680486055556002, ,0.06294796322157563, ,0.09783121282274714, ,0.0012405444099766077, ,0.19662850171063023,-0.22539568166711654,0.10440838176000002,1.615241634661291,0.19101782667208575,-1.3402673188860306, ,0.2766674681004979,0.1716038726192962,0.055308373333333334,0.020253507719046205,0.1938953601762724,-0.11321788324443126, ,0.9023821353912354
0.01728060296299982,0.021877615869438805,-0.09428858672035215, ,0.018385763869651798,0.021230380536215898,-0.0954245092412425, ,0.001711903671247272, ,0.03588093292124235,-0.004410406605645315,-0.05278254954147871,-0.07064919604106602,-0.06170777564995995,-0.029576201137714926, ,0.06397570296467611, ,0.09380164598906307, ,0.0012494379809439785, ,0.1994550219425964,-0.2236194531060449,0.10497745307,1.6156610145482602,0.19306737416856737,-1.3414485150006337, ,0.2774764373054701,0.177046532758341,0.05628555307420496,0.044374860083959154,0.2114350418542427,-0.0943001795288056, ,0.9076371192932129
0.01728060296299982,0.021877615869438805,-0.09428858672035215, ,0.018533011150888356,0.021212260638564174,-0.09568932512014795, ,0.001993311796233844, ,0.03588093292124235,-0.004410406605645315,-0.05278254954147871,-0.07064919604106602,-0.06170777564995995,-0.029576201137714926, ,0.06397570296467611, ,0.09380164598906307, ,0.001263213421967865, ,0.1994550219425964,-0.2236194531060449,0.10497745307,1.6156610145482602,0.19306737416856737,-1.3414485150006337, ,0.2774764373054701,0.177046532758341,0.05628555307420496,0.044374860083959154,0.2114350418542427,-0.0943001795288056, ,0.9128880500793457
0.017642572572019642,0.021831896042217608,-0.09482067716598404, ,0.018679214849694693,0.021193319328645016,-0.09595225293121179, ,0.0016621886606012148, ,0.03558818451180038,-0.004830937489703249,-0.05299940623600207,-0.018499009464311544,-0.05333064693248665,0.049306574947634074, ,0.06402182358574414, ,0.056444247548622074, ,0.0012704675172157441, ,0.20224292851019146,-0.22183550181209905,0.10554522809000001,1.6158707044917449,0.19525355816481438,-1.342741129018933, ,0.2726923608002034,0.17837770969637368,0.056485147234042556,-0.034087303148587544,0.2328695296973276,-0.1629251396096109, ,0.9181160926818848
0.017642572572019642,0.021831896042217608,-0.09482067716598404, ,0.01882438486623273,0.021173592470088536,-0.09621330227027125, ,0.0019415067790049228, ,0.03558818451180038,-0.004830937489703249,-0.05299940623600207,-0.018499009464311544,-0.05333064693248665,0.049306574947634074, ,0.06402182358574414, ,0.056444247548622074, ,0.0012824503611762652, ,0.20224292851019146,-0.22183550181209905,0.10554522809000001,1.6158707044917449,0.19525355816481438,-1.342741129018933, ,0.2726923608002034,0.17837770969637368,0.056485147234042556,-0.034087303148587544,0.2328695296973276,-0.1629251396096109, ,0.923497200012207
0.018004564909502082,0.021779116667586227,-0.09536118456956566, ,0.018968531120792866,0.021153115576771065,-0.09647248266463958, ,0.0015987781829656666, ,0.03500180527152193,-0.005021405228261419,-0.053079695114873024,-0.045487414984554185,-0.05011775830842723,-0.00249131064764112, ,0.06377926713454637, ,0.06767919378001006, ,0.0012879999720848512, ,0.2049922214134154,-0.21998976865515937,0.10612078085000001,1.6156610145482602,0.19757637866082686,-1.3441451609409287, ,0.26142408142829415,0.17905083312919012,0.056485147234042556,0.014521264607139161,0.21350321835169536,-0.1270297447349733, ,0.9292421340942383
0.01834273669346977,0.021724148455876106,-0.09586445914593537, ,0.019111663553289193,0.021131923814097002,-0.09672980357359336, ,0.001300307471546968, ,0.033441329254919765,-0.006042159888030848,-0.04929300172120396,-0.08090812635658315,-0.062468249075704314,-0.0062693136368910055, ,0.05987178147621046, ,0.10221602629126973, ,0.0012882121703514395, ,0.20750983233041256,-0.2182289855598362,0.10665614862000002,1.6156610145482602,0.19948928965754306,-1.3452149391518353, ,0.24842131298029,0.17837770969637368,0.05239740631578948,0.011866131852031357,0.18802974128196584,-0.0913830323359422, ,0.9349980354309082
0.01834273669346977,0.021724148455876106,-0.09586445914593537, ,0.019253792122756568,0.02111005200028165,-0.09698527438886086, ,0.001569510516301415, ,0.033441329254919765,-0.006042159888030848,-0.04929300172120396,-0.08090812635658315,-0.062468249075704314,-0.0062693136368910055, ,0.05987178147621046, ,0.10221602629126973, ,0.0012929799389268628, ,0.20750983233041256,-0.2182289855598362,0.10665614862000002,1.6156610145482602,0.19948928965754306,-1.3452149391518353, ,0.24842131298029,0.17837770969637368,0.05239740631578948,0.011866131852031357,0.18802974128196584,-0.0913830323359422, ,0.9402730464935303
0.018678024533760496,0.021658987017833697,-0.09635882723401187, ,0.019394926806846357,0.02108753460763411,-0.0972389044351098, ,0.0012708432657770766, ,0.03214393650176662,-0.006494989968402009,-0.04796985442211404,-0.05545584744930138,-0.044638893889128506,-0.0033285392666500195, ,0.058107869362058535, ,0.07118797552339173, ,0.0012926109943743663, ,0.20998882958303863,-0.2164064206015192,0.10718114607000001,1.6156610145482602,0.20140220065425923,-1.346284717362742, ,0.23606204367778796,0.17770962838664942,0.05089077162939297,0.009678824564696868,0.1940579414144397,-0.1165452803687565, ,0.9455771446228027
0.018678024533760496,0.021658987017833697,-0.09635882723401187, ,0.019535077601322406,0.021064405763839188,-0.09749070297043413, ,0.0015392236715046973, ,0.03214393650176662,-0.006494989968402009,-0.04796985442211404,-0.05545584744930138,-0.044638893889128506,-0.0033285392666500195, ,0.058107869362058535, ,0.07118797552339173, ,0.0012966538251469946, ,0.20998882958303863,-0.2164064206015192,0.10718114607000001,1.6156610145482602,0.20140220065425923,-1.346284717362742, ,0.23606204367778796,0.17770962838664942,0.05089077162939297,0.009678824564696868,0.1940579414144397,-0.1165452803687565, ,0.9508390426635742
0.018989352563902002,0.021595745486563147,-0.09683599809805508, ,0.019674254519557496,0.021040699253240976,-0.09774067918684233, ,0.001263176504846067, ,0.030520959982633787,-0.006605818478845336,-0.04723674090247001,-0.0463037681501369,-0.03356044757590192,0.004926714359739194, ,0.05662574968266708, ,0.057184852949066264, ,0.0012961138683679474, ,0.21225159031518642,-0.21466108297194447,0.10768669917000001,1.6158707044917449,0.20345174815074082,-1.3476292709576259, ,0.21865654736974832,0.17476416493272703,0.049933578432601884,0.0,0.1896466708546944,-0.12468773210332001, ,0.956078052520752
0.018989352563902002,0.021595745486563147,-0.09683599809805508, ,0.019812467592028545,0.021016448518124353,-0.09798884221074433, ,0.0015304093816140805, ,0.030520959982633787,-0.006605818478845336,-0.04723674090247001,-0.0463037681501369,-0.03356044757590192,0.004926714359739194, ,0.05662574968266708, ,0.057184852949066264, ,0.0012998328447686798, ,0.21225159031518642,-0.21466108297194447,0.10768669917000001,1.6158707044917449,0.20345174815074082,-1.3476292709576259, ,0.21865654736974832,0.17476416493272703,0.049933578432601884,0.0,0.1896466708546944,-0.12468773210332001, ,0.9613571166992188
0.018989352563902002,0.021595745486563147,-0.09683599809805508, ,0.019949726865812922,0.02099168665999836,-0.09823520110343917, ,0.0018013813910434308, ,0.030520959982633787,-0.006605818478845336,-0.04723674090247001,-0.0463037681501369,-0.03356044757590192,0.004926714359739194, ,0.05662574968266708, ,0.057184852949066264, ,0.0013076695408042226, ,0.21225159031518642,-0.21466108297194447,0.10768669917000001,1.6158707044917449,0.20345174815074082,-1.3476292709576259, ,0.21865654736974832,0.17476416493272703,0.049933578432601884,0.0,0.1896466708546944,-0.12468773210332001, ,0.9666900634765625
0.019379251158046198,0.021505572131049554,-0.09744687917676012, ,0.02008604240408353,0.020966446440878136,-0.09847976486160154, ,0.001362741066097347, ,0.028538248079064483,-0.006736789291874768,-0.045834904935161604,-0.03571195669000123,-0.01929095426891752,-0.003438888247802411, ,0.05441189616068023, ,0.04058672780419986, ,0.0013085167950395015, ,0.21484642856092587,-0.21250644050003584,0.10829336289000001,1.616080394435229,0.20563793214698786,-1.3490852424562063, ,0.20020451805584552,0.1716038726192962,0.0484158404863222,0.007183229450230621,0.18131009841934134,-0.1193618185610252, ,0.9719572067260742
0.019643606488600536,0.021438045278442366,-0.09787578111307471, ,0.020221424285605593,0.020940760284568316,-0.09872254241777036, ,0.0011393728445061179, ,0.026148335490161306,-0.006930994913003601,-0.042761535710773554,-0.017994829459149948,-0.008845668584448862,-0.004493483343218463, ,0.05059963513439472, ,0.020047861803064095, ,0.0013059540079102079, ,0.21685433910822424,-0.21073793467183843,0.10878206422000002,1.616080394435229,0.20782411614323493,-1.350541213954787, ,0.17905083312919012,0.16361541648012204,0.0448698916056338,0.0071372090592478855,0.1727283615368794,-0.14041829940435177, ,0.9772031307220459
0.019643606488600536,0.021438045278442366,-0.09787578111307471, ,0.020355882604230408,0.02091466027794424,-0.09896354264083443, ,0.0014016041755493442, ,0.026148335490161306,-0.006930994913003601,-0.042761535710773554,-0.017994829459149948,-0.008845668584448862,-0.004493483343218463, ,0.05059963513439472, ,0.020047861803064095, ,0.001307381622352583, ,0.21685433910822424,-0.21073793467183843,0.10878206422000002,1.616080394435229,0.20782411614323493,-1.350541213954787, ,0.17905083312919012,0.16361541648012204,0.0448698916056338,0.0071372090592478855,0.1727283615368794,-0.14041829940435177, ,0.982450008392334
0.01990754008159253,0.021363809820920107,-0.09830031463957807, ,0.020489427468392447,0.020888178172235657,-0.09920277433652078, ,0.001174415557097677, ,0.02616807666765394,-0.007064882587493473,-0.043625345022119726,-0.09167229344204726,-0.052855439127813396,-0.016068631503878314, ,0.051360018796319275, ,0.10581752603776488, ,0.0013054262390400106, ,0.21862284493642165,-0.20906982437100594,0.10922669169000002,1.616080394435229,0.20905384464112386,-1.351298938867633, ,0.17098548028553293,0.1650381592321231,0.04564129375358167,0.006258831272544186,0.11957144257000524,-0.06820335538094402, ,0.9877161979675293
0.01990754008159253,0.021363809820920107,-0.09830031463957807, ,0.02062206900060451,0.020861345384309078,-0.09944024624788088, ,0.001436128879234414, ,0.02616807666765394,-0.007064882587493473,-0.043625345022119726,-0.09167229344204726,-0.052855439127813396,-0.016068631503878314, ,0.051360018796319275, ,0.10581752603776488, ,0.0013073204802022485, ,0.21862284493642165,-0.20906982437100594,0.10922669169000002,1.616080394435229,0.20905384464112386,-1.351298938867633, ,0.17098548028553293,0.1650381592321231,0.04564129375358167,0.006258831272544186,0.11957144257000524,-0.06820335538094402, ,0.9931080341339111
0.01990754008159253,0.021363809820920107,-0.09830031463957807, ,0.02075381733695174,0.020834192997949332,-0.09967596705577726, ,0.0016997349035383876, ,0.02616807666765394,-0.007064882587493473,-0.043625345022119726,-0.09167229344204726,-0.052855439127813396,-0.016068631503878314, ,0.051360018796319275, ,0.10581752603776488, ,0.0013129264005356219, ,0.21862284493642165,-0.20906982437100594,0.10922669169000002,1.616080394435229,0.20905384464112386,-1.351298938867633, ,0.17098548028553293,0.1650381592321231,0.04564129375358167,0.006258831272544186,0.11957144257000524,-0.06820335538094402, ,0.9986460208892822
0.020140206114991673,0.02130249097049264,-0.09870975625104893, ,0.02088468262658952,0.020806751765143735,-0.09990994537937264, ,0.0014968154795389143, ,0.023878667726656425,-0.006228114531515201,-0.04361552770783039,0.017670394116512358,0.023309314693924617,-0.0007231866607234161, ,0.050112817125464566, ,0.029247378410414363, ,0.0013155163875638374, ,0.2201287778468954,-0.20757933692628058,0.10965446739000001,1.616080394435229,0.21055684613854375,-1.3523611783280125, ,0.15256743015831317,0.15506036202364507,0.04551089005714286,0.005616016033462262,0.1787777023520418,-0.16793043410810898, ,1.0039551258087158
0.020401962612811044,0.021236263095114182,-0.09919822120885609, ,0.02101467503123572,0.020779052107362583,-0.10014218977661396, ,0.0012147160375690503, ,0.023199580862494844,-0.005918883889681371,-0.04338885911797291,0.003595349485819345,0.019153381537512098,-0.0024235513503800448, ,0.04955650143275116, ,0.01948396225946328, ,0.0013141163827027986, ,0.22176599721623103,-0.20588805842682542,0.11016390936,1.616080394435229,0.2124697571352599,-1.3539210289797623, ,0.1437832447855618,0.1499161793972682,0.04525230545454546,0.005002407419134353,0.16560852892276812,-0.14889071758582853, ,1.00925612449646
0.020401962612811044,0.021236263095114182,-0.09919822120885609, ,0.021143804724668817,0.020751124116843697,-0.10037270874472123, ,0.0014714314523842122, ,0.023199580862494844,-0.005918883889681371,-0.04338885911797291,0.003595349485819345,0.019153381537512098,-0.0024235513503800448, ,0.04955650143275116, ,0.01948396225946328, ,0.0013162713836573385, ,0.22176599721623103,-0.20588805842682542,0.11016390936,1.616080394435229,0.2124697571352599,-1.3539210289797623, ,0.1437832447855618,0.1499161793972682,0.04525230545454546,0.005002407419134353,0.16560852892276812,-0.14889071758582853, ,1.0145740509033203
0.0206310084154518,0.021179254177953237,-0.09963894541478588, ,0.02127208189222108,0.020722997557873338,-0.1006015107206739, ,0.0012432526992060327, ,0.022532949803821267,-0.005498881630199575,-0.04427934289712129,-0.02883166251247203,-0.0043299205942031955,-0.009447108820931716, ,0.049986315461787355, ,0.029152062661957568, ,0.0013152846446782668, ,0.22314064366784297,-0.20440529371497432,0.11062279602000001,1.616080394435229,0.21397275863267975,-1.3552283046605638, ,0.13089233318409763,0.14599529470533967,0.04603702751445087,0.0045432630875645716,0.1284676558085091,-0.1126541434118389, ,1.0198161602020264
0.0206310084154518,0.021179254177953237,-0.09963894541478588, ,0.021399516730274373,0.020694701868069355,-0.1008286040816973, ,0.0014968913503399983, ,0.022532949803821267,-0.005498881630199575,-0.04427934289712129,-0.02883166251247203,-0.0043299205942031955,-0.009447108820931716, ,0.049986315461787355, ,0.029152062661957568, ,0.001317706067420423, ,0.22314064366784297,-0.20440529371497432,0.11062279602000001,1.616080394435229,0.21397275863267975,-1.3552283046605638, ,0.13089233318409763,0.14599529470533967,0.04603702751445087,0.0045432630875645716,0.1284676558085091,-0.1126541434118389, ,1.0250790119171143
0.020859315239881892,0.02112924241874074,-0.10011305640950148, ,0.021526119445755523,0.020666266159663493,-0.10105399714574984, ,0.001242716514162229, ,0.023066978762941358,-0.004303208588735336,-0.04921906695547728,-0.008388628046784117,0.030531926992121747,-0.002281486328444072, ,0.054526320849438474, ,0.031658787090007044, ,0.001316719362772289, ,0.22442261732496424,-0.20293797446887166,0.11111538622000001,1.616080394435229,0.2154757601300996,-1.3565355803413648, ,0.12669818632639623,0.14313264186798005,0.051218043472668826,0.0041690221025683346,0.15985979697429825,-0.1303549453827333, ,1.03035306930542
0.020859315239881892,0.02112924241874074,-0.10011305640950148, ,0.02165190025563126,0.020637719220784247,-0.10127769817200956, ,0.001492037699355391, ,0.023066978762941358,-0.004303208588735336,-0.04921906695547728,-0.008388628046784117,0.030531926992121747,-0.002281486328444072, ,0.054526320849438474, ,0.031658787090007044, ,0.0013189962242863553, ,0.22442261732496424,-0.20293797446887166,0.11111538622000001,1.616080394435229,0.2154757601300996,-1.3565355803413648, ,0.12669818632639623,0.14313264186798005,0.051218043472668826,0.0041690221025683346,0.15985979697429825,-0.1303549453827333, ,1.0370450019836426
0.020874644475488063,0.021126818408305704,-0.10014661981183602, ,0.02177686938640351,0.020609089516738992,-0.10149971536136149, ,0.0017067280278898873, ,0.022970740379672113,-0.00433496009656084,-0.04890230256322357,-0.008163014138889767,0.03063713684105184,-0.002245557280438987, ,0.05420223232131806, ,0.03170156594278072, ,0.001323967144845375, ,0.22450756738658073,-0.20284530167438097,0.11115038605000001,1.616080394435229,0.21561239662986503,-1.3566469982450613, ,0.12636077437878931,0.1427021677570989,0.05089077162939297,0.004145972404682625,0.15962347439942576,-0.13016224016901928, ,1.0424270629882812
0.020874644475488063,0.021126818408305704,-0.10014661981183602, ,0.021901037073603774,0.020580405191296367,-0.10172005685688307, ,0.0019564644908394305, ,0.020372023321895524,-0.0034302345809387874,-0.04458975364310171,-0.0065093242154551124,0.028662933553376388,-0.0025322858572939706, ,0.04914297481289289, ,0.029389773610238274, ,0.001331973440364287, ,0.22675488265298005,-0.20031996802450955,0.11211482581000001,1.616080394435229,0.21875503612447017,-1.3592096100300788, ,0.10698640536467957,0.12276447808340334,0.04643968373177843,0.003583540165213214,0.13784526945191916,-0.1124035743243315, ,1.0483360290527344
0.021295465840971337,0.02106038197351407,-0.10107222355255127, ,0.02202441356128906,0.020551694067969143,-0.10193873074433221, ,0.0012413552584220936, ,0.020372023321895524,-0.0034302345809387874,-0.04458975364310171,-0.0065093242154551124,0.028662933553376388,-0.0025322858572939706, ,0.04914297481289289, ,0.029389773610238274, ,0.0013308407130900096, ,0.22675488265298005,-0.20031996802450955,0.11211482581000001,1.616080394435229,0.21875503612447017,-1.3592096100300788, ,0.10698640536467957,0.12276447808340334,0.04643968373177843,0.003583540165213214,0.13784526945191916,-0.1124035743243315, ,1.053685188293457
0.021501602101988586,0.0210155705610974,-0.10150632293283943, ,0.022147009101535896,0.020522983651296126,-0.10215574505263346, ,0.001039683196194881, ,0.019668254576021643,-0.00489365972806226,-0.04061087274671002,-0.04710764938881141,-0.011821917803728021,-0.01273739824725303, ,0.04538756579560893, ,0.04856725141311744, ,0.0013272461758443907, ,0.2278437879882457,-0.19902254890163984,0.11256593473000001,1.616080394435229,0.2198481281225937,-1.3601009532596504, ,0.10428235336095688,0.12754965263235318,0.04213971301587302,0.0033403168595957026,0.09375958282074966,-0.07645465294611689, ,1.0589120388031006
0.021501602101988586,0.0210155705610974,-0.10150632293283943, ,0.022268833953936,0.02049430112812502,-0.10237110775436385, ,0.0012681558752507664, ,0.019668254576021643,-0.00489365972806226,-0.04061087274671002,-0.04710764938881141,-0.011821917803728021,-0.01273739824725303, ,0.04538756579560893, ,0.04856725141311744, ,0.0013265255624225173, ,0.2278437879882457,-0.19902254890163984,0.11256593473000001,1.616080394435229,0.2198481281225937,-1.3601009532596504, ,0.10428235336095688,0.12754965263235318,0.04213971301587302,0.0033403168595957026,0.09375958282074966,-0.07645465294611689, ,1.0642101764678955
0.021683293292687967,0.020968831868697704,-0.1018859706092376, ,0.022389898385091384,0.020465673368895168,-0.10258482676624117, ,0.0011139385803157127, ,0.018000246042114868,-0.004749123068350739,-0.0371951368362859,-0.001448762491428366,0.03770165348275263,-0.001506456758168223, ,0.041593764337518734, ,0.03772853556863884, ,0.0013239642734814714, ,0.22882457506327222,-0.19782552530613504,0.11296000689,1.616080394435229,0.22107785662048265,-1.3610220356527776, ,0.09916085847280122,0.11862117694808846,0.03866216388349515,0.003139515561191629,0.1391224416121436,-0.11344502258300262, ,1.069432020187378
0.021683293292687967,0.020968831868697704,-0.1018859706092376, ,0.022510212668108112,0.020437126928918907,-0.10279690994960942, ,0.0013402672413617657, ,0.018000246042114868,-0.004749123068350739,-0.0371951368362859,-0.001448762491428366,0.03770165348275263,-0.001506456758168223, ,0.041593764337518734, ,0.03772853556863884, ,0.0013241583564324272, ,0.22882457506327222,-0.19782552530613504,0.11296000689,1.616080394435229,0.22107785662048265,-1.3610220356527776, ,0.09916085847280122,0.11862117694808846,0.03866216388349515,0.003139515561191629,0.1391224416121436,-0.11344502258300262, ,1.0747201442718506
0.021874611516227185,0.020914079941436892,-0.10226955148888561, ,0.02262978708209298,0.020408688049665523,-0.10300736511092536, ,0.0011705041821439054, ,0.017342907778791553,-0.00534726815719863,-0.03348977528993141,0.021651655981993763,0.059591187880047185,0.004038479409355597, ,0.03809113776114806, ,0.06340237970814744, ,0.0013223506602643269, ,0.22991348039853787,-0.196551274381888,0.11335926421,1.616080394435229,0.22271749461766793,-1.3623590504971346, ,0.10248049844327299,0.11643796510241813,0.034931604210526324,0.002941158497069164,0.16485956345788194,-0.13443191970166576, ,1.0800511837005615
0.021874611516227185,0.020914079941436892,-0.10226955148888561, ,0.022748631911646888,0.02038038266004256,-0.10321620000224631, ,0.0013945923589441217, ,0.017342907778791553,-0.00534726815719863,-0.03348977528993141,0.021651655981993763,0.059591187880047185,0.004038479409355597, ,0.03809113776114806, ,0.06340237970814744, ,0.0013231906800164177, ,0.22991348039853787,-0.196551274381888,0.11335926421,1.616080394435229,0.22271749461766793,-1.3623590504971346, ,0.10248049844327299,0.11643796510241813,0.034931604210526324,0.002941158497069164,0.16485956345788194,-0.13443191970166576, ,1.0854260921478271
0.022057391231904446,0.02085980890612826,-0.10262346913980477, ,0.022866757446360388,0.020352236377678575,-0.10342342232171503, ,0.0012460451974097453, ,0.017859766257780053,-0.005070787111594302,-0.03449065643219732,0.005082939959058362,0.0380274680270904,-0.0002821495934966191, ,0.039170007835556075, ,0.03836503347252822, ,0.0013223039503312834, ,0.23097921753518086,-0.19534652805350897,0.11372870686000001,1.616080394435229,0.2243571326148532,-1.3636960653414916, ,0.10248049844327299,0.11502659582844943,0.03603803511312218,0.0027711313707109663,0.14284341744863746,-0.11647922887574935, ,1.0910589694976807
0.022057391231904446,0.02085980890612826,-0.10262346913980477, ,0.022984173980308078,0.020324274510205634,-0.1036290397140475, ,0.0014686373043531322, ,0.017859766257780053,-0.005070787111594302,-0.03449065643219732,0.005082939959058362,0.0380274680270904,-0.0002821495934966191, ,0.039170007835556075, ,0.03836503347252822, ,0.001323966829354259, ,0.23097921753518086,-0.19534652805350897,0.11372870686000001,1.616080394435229,0.2243571326148532,-1.3636960653414916, ,0.10248049844327299,0.11502659582844943,0.03603803511312218,0.0027711313707109663,0.14284341744863746,-0.11647922887574935, ,1.0965461730957031
0.02216965576690001,0.020830179567664385,-0.10284160279611017, ,0.023100891811544653,0.02029652205654207,-0.1038330597710194, ,0.0014611563376719285, ,0.018680991316298048,-0.004585586990672382,-0.036558459963657156,0.0013845835081580428,0.030298888413912865,-0.0013002673551790512, ,0.041310144511039294, ,0.03032943136061001, ,0.0013255082845038957, ,0.23161248163086728,-0.19464375936195455,0.11395685390000002,1.616080394435229,0.22517695161344586,-1.3643645727636702, ,0.10462727845476381,0.11405882398854661,0.03829041230769231,0.002681114578432136,0.13714733476426483,-0.1118344553850367, ,1.1020290851593018
0.02216965576690001,0.020830179567664385,-0.10284160279611017, ,0.0232169212415988,0.020269003708174825,-0.10403549003195227, ,0.0016843544910964037, ,0.018680991316298048,-0.004585586990672382,-0.036558459963657156,0.0013845835081580428,0.030298888413912865,-0.0013002673551790512, ,0.041310144511039294, ,0.03032943136061001, ,0.0013294954645771456, ,0.23161248163086728,-0.19464375936195455,0.11395685390000002,1.616080394435229,0.22517695161344586,-1.3643645727636702, ,0.10462727845476381,0.11405882398854661,0.03829041230769231,0.002681114578432136,0.13714733476426483,-0.1118344553850367, ,1.1073031425476074
0.022438949813841255,0.02077878730271159,-0.10338467820615566, ,0.023332272574967096,0.020241743850440815,-0.10423633798419965, ,0.0013460184258435523, ,0.02024609718543417,-0.0031504383501270287,-0.04173798857808827,-0.000606501267336978,0.021226398115987765,-0.0020480909424608978, ,0.046496122457519225, ,0.021232078454264915, ,0.0013296770355800732, ,0.2330720781440957,-0.1931146582528581,0.11452722150000001,1.616080394435229,0.22708986261016204,-1.3659244234154202, ,0.10591176513222186,0.10945437319316122,0.043881023471074386,0.0024995411064412344,0.12919834636809746,-0.10535258835003117, ,1.1126961708068848
0.022438949813841255,0.02077878730271159,-0.10338467820615566, ,0.023446956118610494,0.020214766563810882,-0.10443561106363511, ,0.0015616196640970438, ,0.02024609718543417,-0.0031504383501270287,-0.04173798857808827,-0.000606501267336978,0.021226398115987765,-0.0020480909424608978, ,0.046496122457519225, ,0.021232078454264915, ,0.0013321981511074316, ,0.2330720781440957,-0.1931146582528581,0.11452722150000001,1.616080394435229,0.22708986261016204,-1.3659244234154202, ,0.10591176513222186,0.10945437319316122,0.043881023471074386,0.0024995411064412344,0.12919834636809746,-0.10535258835003117, ,1.117988109588623
0.02264787246656885,0.020748302966666538,-0.103814610240334, ,0.023560982181449208,0.020188095625171938,-0.10463331665513727, ,0.0013482884745162477, ,0.02051856800122111,-0.003299149544389749,-0.04247171546490691,-0.011175283910125967,0.011544660350415216,-0.004748930316276379, ,0.04728364024764797, ,0.016063248611395155, ,0.001332371165337634, ,0.23415326074648712,-0.192010307451844,0.11497962671,1.616080394435229,0.228319591108051,-1.366927184548688, ,0.10497449287441457,0.11125081073677699,0.044618519663865555,0.0023788193935300765,0.11836838472581251,-0.09652148081019034, ,1.1232471466064453
0.02285627422843812,0.020711552105413134,-0.1042342745248892, ,0.023674361073855187,0.0201617545091082,-0.1048294620930765, ,0.001323618598871073, ,0.021012090926047278,-0.003474492662047991,-0.04095324872500641,0.001395073009328566,0.016706622435577724,-0.0019127593026817336, ,0.04616003298823932, ,0.016761332427354246, ,0.0013322780529284152, ,0.23526533428037547,-0.190875065719333,0.11542166160000002,1.616080394435229,0.22982259260547083,-1.368234460229489, ,0.11297254947436998,0.10958076392433115,0.043284813913043486,0.0022693368102358535,0.13178102876160194,-0.10745859266580265, ,1.1294641494750977
0.02285627422843812,0.020711552105413134,-0.1042342745248892, ,0.023787103107149255,0.020135766389184913,-0.1050240546618025, ,0.0013497126572414786, ,0.021012090926047278,-0.003474492662047991,-0.04095324872500641,0.001395073009328566,0.016706622435577724,-0.0019127593026817336, ,0.04616003298823932, ,0.016761332427354246, ,0.001332461575079079, ,0.23526533428037547,-0.190875065719333,0.11542166160000002,1.616080394435229,0.22982259260547083,-1.368234460229489, ,0.11297254947436998,0.10958076392433115,0.043284813913043486,0.0022693368102358535,0.13178102876160194,-0.10745859266580265, ,1.134817123413086
0.023060324821339767,0.02067730323511736,-0.10461114570897775, ,0.023899218593096048,0.020110154139231052,-0.10521710159613001, ,0.001180077706945868, ,0.02180247201323886,-0.003753771955098223,-0.038105213836821104,-0.06631278134909012,-0.07200967232028224,-0.01785860967739071, ,0.04406184189668889, ,0.0978912536427117, ,0.001330874243119358, ,0.23635423961564112,-0.1898479422470611,0.11582091892000002,1.616080394435229,0.23050577510429804,-1.3688732284881118, ,0.11847308559109959,0.10650610724856428,0.040531327022900764,0.0021759406162575284,0.04694968648091314,-0.036738148046982, ,1.1402170658111572
0.023060324821339767,0.02067730323511736,-0.10461114570897775, ,0.024010717843396562,0.02008494033462021,-0.10540861008182524, ,0.0013748054874129214, ,0.02180247201323886,-0.003753771955098223,-0.038105213836821104,-0.06631278134909012,-0.07200967232028224,-0.01785860967739071, ,0.04406184189668889, ,0.0978912536427117, ,0.001331327142545065, ,0.23635423961564112,-0.1898479422470611,0.11582091892000002,1.616080394435229,0.23050577510429804,-1.3688732284881118, ,0.11847308559109959,0.10650610724856428,0.040531327022900764,0.0021759406162575284,0.04694968648091314,-0.036738148046982, ,1.1454730033874512
0.023279568691003616,0.020636116944225995,-0.10498142747623249, ,0.024121611169184373,0.020060147253554154,-0.10559858725609225, ,0.0011923350256995565, ,0.02084184996021084,-0.004661946983607961,-0.03366377764092122,-0.013747365690329832,-0.019823102145584352,-0.004469339246895516, ,0.03986685822207839, ,0.02412264929915362, ,0.0013299088556384783, ,0.23759759960839127,-0.18876675964466968,0.11621628737000002,1.6162900843787136,0.23132559410289066,-1.3695417359102904, ,0.12340304493949386,0.10626757173400983,0.03603803511312218,0.0,0.10560430765948868,-0.08952657294814512, ,1.1506750583648682
0.023279568691003616,0.020636116944225995,-0.10498142747623249, ,0.024231908880520056,0.020035796878344874,-0.10578704020805987, ,0.0013843221777281867, ,0.02084184996021084,-0.004661946983607961,-0.03366377764092122,-0.013747365690329832,-0.019823102145584352,-0.004469339246895516, ,0.03986685822207839, ,0.02412264929915362, ,0.001330458485154536, ,0.23759759960839127,-0.18876675964466968,0.11621628737000002,1.6162900843787136,0.23132559410289066,-1.3695417359102904, ,0.12340304493949386,0.10626757173400983,0.03603803511312218,0.0,0.10560430765948868,-0.08952657294814512, ,1.155853033065796
0.023491834435676845,0.020585098331913944,-0.10531970940698474, ,0.02434162128588653,0.02001191089669753,-0.10597397597926826, ,0.0012160371187948601, ,0.01992274663932039,-0.005195487035459132,-0.031162967089097438,0.027158057439148682,0.025972967941572597,0.00437883964759941, ,0.03735022673273009, ,0.03757826177379329, ,0.0013293142714909392, ,0.23889501873126098,-0.1876624088436556,0.11657924857000002,1.6162900843787136,0.23282859560031052,-1.3709306903312322, ,0.12356372598759216,0.10603010229996734,0.03346388974789917,0.0,0.15242355703347987,-0.13016416420540813, ,1.1610901355743408
0.023491834435676845,0.020585098331913944,-0.10531970940698474, ,0.024450758691683,0.01998851070299226,-0.10615940156415501, ,0.0014073149777333541, ,0.01992274663932039,-0.005195487035459132,-0.031162967089097438,0.027158057439148682,0.025972967941572597,0.00437883964759941, ,0.03735022673273009, ,0.03757826177379329, ,0.0013300865557111612, ,0.23889501873126098,-0.1876624088436556,0.11657924857000002,1.6162900843787136,0.23282859560031052,-1.3709306903312322, ,0.12356372598759216,0.10603010229996734,0.03346388974789917,0.0,0.15242355703347987,-0.13016416420540813, ,1.1663620471954346
0.023734887990285582,0.020521736041912243,-0.10570532236525486, ,0.024559331401720393,0.01996561739956702,-0.10634332391054141, ,0.0011815332643688838, ,0.01992274663932039,-0.005195487035459132,-0.031162967089097438,0.027158057439148682,0.025972967941572597,0.00437883964759941, ,0.03735022673273009, ,0.03757826177379329, ,0.00132863015089408, ,0.23889501873126098,-0.1876624088436556,0.11657924857000002,1.6162900843787136,0.23282859560031052,-1.3709306903312322, ,0.12356372598759216,0.10603010229996734,0.03346388974789917,0.0,0.15242355703347987,-0.13016416420540813, ,1.1729869842529297
0.023734887990285582,0.020521736041912243,-0.10570532236525486, ,0.024667349716715168,0.019943251797999877,-0.10652574992011989, ,0.0013701205291844632, ,0.020543173273106747,-0.004959199481119335,-0.03258074437303607,0.02147195582269328,0.011858535119922492,0.0013926611830319727, ,0.03883452756920757, ,0.024528208868534965, ,0.0013290329701007829, ,0.2403777834431121,-0.18636498972078586,0.11699276508,1.6162900843787136,0.23460487009726125,-1.372460801819426, ,0.12388634668207675,0.10567588146823026,0.03500837696703297,0.0,0.13832984391859324,-0.12409524591938634, ,1.1783452033996582
0.023964014424505697,0.020468106904292863,-0.10606854400680461, ,0.024774823933784655,0.019921434420391175,-0.10670668644893902, ,0.001167685163665999, ,0.02056100538483609,-0.004928936925791417,-0.03192581705441604,-0.016302720276553197,-0.03126459593276677,-0.007361085543891335, ,0.038292390317734556, ,0.03525933181380375, ,0.0013274815488850638, ,0.24172926169610137,-0.1852065797896522,0.11738294837000002,1.6162900843787136,0.2358345985951502,-1.373463562952694, ,0.12073402233902134,0.10348630486201829,0.034329335172413794,0.0,0.0911577992847651,-0.08416406261465373, ,1.1836330890655518
0.023964014424505697,0.020468106904292863,-0.10606854400680461, ,0.02488176434594122,0.019900185500646192,-0.10688614030789144, ,0.0013539805576764294, ,0.02056100538483609,-0.004928936925791417,-0.03192581705441604,-0.016302720276553197,-0.03126459593276677,-0.007361085543891335, ,0.038292390317734556, ,0.03525933181380375, ,0.0013277339203973625, ,0.24172926169610137,-0.1852065797896522,0.11738294837000002,1.6162900843787136,0.2358345985951502,-1.373463562952694, ,0.12073402233902134,0.10348630486201829,0.034329335172413794,0.0,0.0911577992847651,-0.08416406261465373, ,1.1889550685882568
0.024177008855928942,0.02041763546153589,-0.10639609237998295, ,0.024988181241588223,0.019879524985757988,-0.10706411826319927, ,0.0011806024326779258, ,0.02126558837205933,-0.0049877432987161,-0.03323751201789846,-0.03770405213968515,-0.053678170954649794,-0.01226515894169251, ,0.039772289815444326, ,0.0655965015883016, ,0.0013263458874943489, ,0.24297262168885153,-0.18414856538588342,0.11773553925000001,1.6162900843787136,0.23665441759374287,-1.3741320703748723, ,0.12150696742441842,0.10567588146823026,0.03571482403587444,0.0,0.06910200917582487,-0.06485874610428191, ,1.1942481994628906
0.024177008855928942,0.02041763546153589,-0.10639609237998295, ,0.02509408490401339,0.01985947253708919,-0.10724062703690099, ,0.001365947698461679, ,0.02126558837205933,-0.0049877432987161,-0.03323751201789846,-0.03770405213968515,-0.053678170954649794,-0.01226515894169251, ,0.039772289815444326, ,0.0655965015883016, ,0.0013267159978772212, ,0.24297262168885153,-0.18414856538588342,0.11773553925000001,1.6162900843787136,0.23665441759374287,-1.3741320703748723, ,0.12150696742441842,0.10567588146823026,0.03571482403587444,0.0,0.06910200917582487,-0.06485874610428191, ,1.1995131969451904
0.02439497558049046,0.020365557941504856,-0.10673439373378436, ,0.025199485610883983,0.019840047531654536,-0.10741567330733803, ,0.0011779386389818053, ,0.02147439628030771,-0.004817999203951933,-0.033390554777686404,-0.00821930181140147,-0.022466956647175972,-0.004733496518080502, ,0.03999114852432537, ,0.023922365195691672, ,0.0013253384297393007, ,0.24423914988022435,-0.183067382783492,0.11809979674000001,1.616080394435229,0.23761087309210094,-1.3749119957007472, ,0.12502890850918416,0.1039396950257073,0.03603803511312218,-0.0006063775926915808,0.10456320507917083,-0.09278559869991486, ,1.2047650814056396
0.02439497558049046,0.020365557941504856,-0.10673439373378436, ,0.025304393633741738,0.019821269063403885,-0.10758926370964092, ,0.0013616512967807675, ,0.02147439628030771,-0.004817999203951933,-0.033390554777686404,-0.00821930181140147,-0.022466956647175972,-0.004733496518080502, ,0.03999114852432537, ,0.023922365195691672, ,0.0013256715753084884, ,0.24423914988022435,-0.183067382783492,0.11809979674000001,1.616080394435229,0.23761087309210094,-1.3749119957007472, ,0.12502890850918416,0.1039396950257073,0.03603803511312218,-0.0006063775926915808,0.10456320507917083,-0.09278559869991486, ,1.2101070880889893
0.024612009547082,0.02032163404361932,-0.1070734643386272, ,0.02540881923749772,0.01980315594450399,-0.10776140483621575, ,0.0011734510429604762, ,0.02202037678507828,-0.0044737920052406845,-0.03402286821469862,0.0012756446877875201,-0.0166262868135585,-0.00805544233004497, ,0.04077336594172377, ,0.016673784637820422, ,0.001324287752287143, ,0.24539755981135802,-0.18214065483858505,0.11843942472,1.6158707044917449,0.23856732859045904,-1.3756919210266223, ,0.12858664167814468,0.10106170560007538,0.037216849345794396,0.004862322287649306,0.11121178159861045,-0.0975058111320071, ,1.2156751155853271
0.024612009547082,0.02032163404361932,-0.1070734643386272, ,0.025512772679924713,0.019785726706620564,-0.10793210323723042, ,0.0013549286525615521, ,0.02202037678507828,-0.0044737920052406845,-0.03402286821469862,0.0012756446877875201,-0.0166262868135585,-0.00805544233004497, ,0.04077336594172377, ,0.016673784637820422, ,0.0013245637964337594, ,0.24539755981135802,-0.18214065483858505,0.11843942472,1.6158707044917449,0.23856732859045904,-1.3756919210266223, ,0.12858664167814468,0.10106170560007538,0.037216849345794396,0.004862322287649306,0.11121178159861045,-0.0975058111320071, ,1.2212550640106201
0.024830159808706443,0.020274622459386247,-0.10741092321752431, ,0.025616264211156346,0.01976899960220237,-0.108101365421102, ,0.0011620348711373209, ,0.021278331766385317,-0.00473420371678817,-0.03257050291106683,0.009849469551762722,-0.003203019725516982,-0.0060177060654814036, ,0.03919206230185172, ,0.010355420403501712, ,0.001323112645315041, ,0.24677220626296997,-0.18103630403757096,0.11883220059,1.6158707044917449,0.23993369358811342,-1.3768061000635865, ,0.12486439678746157,0.10073985303447004,0.03531887254988914,0.0047198342638227,0.12297250621627055,-0.10643374517172084, ,1.2265141010284424
0.024830159808706443,0.020274622459386247,-0.10741092321752431, ,0.02571930407317753,0.019752992605761754,-0.10826919785498199, ,0.001341383830429323, ,0.021278331766385317,-0.00473420371678817,-0.03257050291106683,0.009849469551762722,-0.003203019725516982,-0.0060177060654814036, ,0.03919206230185172, ,0.010355420403501712, ,0.001323274337218707, ,0.24677220626296997,-0.18103630403757096,0.11883220059,1.6158707044917449,0.23993369358811342,-1.3768061000635865, ,0.12486439678746157,0.10073985303447004,0.03531887254988914,0.0047198342638227,0.12297250621627055,-0.10643374517172084, ,1.2317771911621094
0.02504112705598219,0.020229814307608496,-0.10773202910202319, ,0.025821902499320943,0.019737723415158046,-0.1084356069652432, ,0.001160510899977564, ,0.02116279159204207,-0.004519065652379774,-0.0321548487645813,0.00028901733387661134,-0.01578960294785506,-0.008075099034323891, ,0.03875848296066063, ,0.015791159491609016, ,0.0013218465877692235, ,0.2480001207899717,-0.18006323969541868,0.11918090260000001,1.6158707044917449,0.24102678558623697,-1.3776974432931577, ,0.12276447808340334,0.09753025853902444,0.034931604210526324,0.004549173567704783,0.10804308080384788,-0.09376267691788041, ,1.2370941638946533
0.02504112705598219,0.020229814307608496,-0.10773202910202319, ,0.025924069713762814,0.01972320945288031,-0.10860059913796703, ,0.0013381517563798085, ,0.020891300334379435,-0.004262435888285038,-0.032145771121257126,0.0015112078156607708,-0.013993894872314347,-0.007678395114663206, ,0.03857415443458523, ,0.014074036985608234, ,0.0013219883718440981, ,0.24918169891972802,-0.17912106628476326,0.11952182687000001,1.6158707044917449,0.2421198775843605,-1.3785887865227293, ,0.11951755863787251,0.09461310225171563,0.034931604210526324,0.004393711931294119,0.10658289245911964,-0.09216043882301043, ,1.2428851127624512
0.02524587631330328,0.0201863634236778,-0.10804593273322699, ,0.026025815931015075,0.019709467867328682,-0.10876418071942827, ,0.0011625899314135434, ,0.020891300334379435,-0.004262435888285038,-0.032145771121257126,0.0015112078156607708,-0.013993894872314347,-0.007678395114663206, ,0.03857415443458523, ,0.014074036985608234, ,0.0013206142473576278, ,0.24918169891972802,-0.17912106628476326,0.11952182687000001,1.6158707044917449,0.2421198775843605,-1.3785887865227293, ,0.11951755863787251,0.09461310225171563,0.034931604210526324,0.004393711931294119,0.10658289245911964,-0.09216043882301043, ,1.2484550476074219
0.025452999906653544,0.020144902573829563,-0.10836434240193935, ,0.02612715135542133,0.01969651553409755,-0.10892635801658224, ,0.000985592544806305, ,0.020226581317608204,-0.004066929715950889,-0.031028930060305795,-0.004801091691909579,-0.021080417422063166,-0.008950650114596418, ,0.03726189756037191, ,0.02161956792200964, ,0.0013177508140024884, ,0.25035555431661016,-0.17819433833985635,0.1198679363,1.6158707044917449,0.24307633308271853,-1.379368711848604, ,0.1144715820970697,0.09037803957949597,0.03374748203389831,0.004242787657522839,0.09425687374545798,-0.08174561771373134, ,1.2538421154022217
0.025452999906653544,0.020144902573829563,-0.10836434240193935, ,0.026228086180652838,0.01968436905725829,-0.10908713729755223, ,0.0011555441632199342, ,0.020226581317608204,-0.004066929715950889,-0.031028930060305795,-0.004801091691909579,-0.021080417422063166,-0.008950650114596418, ,0.03726189756037191, ,0.02161956792200964, ,0.0013163761813687381, ,0.25035555431661016,-0.17819433833985635,0.1198679363,1.6158707044917449,0.24307633308271853,-1.379368711848604, ,0.1144715820970697,0.09037803957949597,0.03374748203389831,0.004242787657522839,0.09425687374545798,-0.08174561771373134, ,1.2591190338134766
0.02565537973313721,0.020104186749320095,-0.10867129415526586, ,0.02632863058919971,0.019673044770640562,-0.10924652479211457, ,0.0009849062932776708, ,0.018621296679823988,-0.0039467309154201475,-0.028140489328484293,-0.010914495763498656,-0.026343158287652192,-0.010096827258446415, ,0.033973762149683916, ,0.02851439215298425, ,0.0013135907201242752, ,0.2515062415148696,-0.17729850132644628,0.12020237912000001,1.6158707044917449,0.24403278858107663,-1.380148637174479, ,0.10509074369708835,0.08383122045801306,0.030632329846153848,0.0040993417025731995,0.07937770029576285,-0.0692919154841881, ,1.2644140720367432
0.02565537973313721,0.020104186749320095,-0.10867129415526586, ,0.026428794751870315,0.01966255873911643,-0.10940452669218559, ,0.0011536186734775584, ,0.018621296679823988,-0.0039467309154201475,-0.028140489328484293,-0.010914495763498656,-0.026343158287652192,-0.010096827258446415, ,0.033973762149683916, ,0.02851439215298425, ,0.0013122576197355524, ,0.2515062415148696,-0.17729850132644628,0.12020237912000001,1.6158707044917449,0.24403278858107663,-1.380148637174479, ,0.10509074369708835,0.08383122045801306,0.030632329846153848,0.0040993417025731995,0.07937770029576285,-0.0692919154841881, ,1.269639015197754
0.02584956069116433,0.02006159266127616,-0.10895786262378093, ,0.026528588827279646,0.01965292675988006,-0.1095611491523073, ,0.0009960128835017766, ,0.01940329387942614,-0.00417569717394239,-0.028368735921124315,-0.0211772587608211,-0.040786617346871855,-0.012416434895421147, ,0.03462238348268842, ,0.04595656720625722, ,0.0013096440268741164, ,0.2526028695830095,-0.17642583251165891,0.12051478501000001,1.6158707044917449,0.24471597107990384,-1.3807057266929612, ,0.10996169357876104,0.08595737460006411,0.030989905680933853,0.003965630951550074,0.06966151941228316,-0.06109034261910069, ,1.2748889923095703
0.02584956069116433,0.02006159266127616,-0.10895786262378093, ,0.026628022961352672,0.01964416436373435,-0.10971639829013576, ,0.0011643136376543021, ,0.01940329387942614,-0.00417569717394239,-0.028368735921124315,-0.0211772587608211,-0.040786617346871855,-0.012416434895421147, ,0.03462238348268842, ,0.04595656720625722, ,0.0013084527941755932, ,0.2526028695830095,-0.17642583251165891,0.12051478501000001,1.6158707044917449,0.24471597107990384,-1.3807057266929612, ,0.10996169357876104,0.08595737460006411,0.030989905680933853,0.003965630951550074,0.06966151941228316,-0.06109034261910069, ,1.280189037322998
0.026027086440099743,0.020027644567206272,-0.10922840722432474, ,0.026727107286809316,0.019636286816368656,-0.10987028018692525, ,0.001027224890219385, ,0.018488601896926124,-0.003265044635541366,-0.02843003604673647,0.02311217707442828,0.008225977161918476,-0.002140945241926025, ,0.03406986742260429, ,0.024532037342516074, ,0.0013061663884523721, ,0.2536068248566587,-0.1756612819571107,0.12081033913000001,1.6158707044917449,0.24567242657826194,-1.381485652018836, ,0.10485849895963623,0.07759357445500473,0.031110960000000003,0.003850643425693496,0.11433705647748645,-0.09729449788832782, ,1.285478115081787
0.026027086440099743,0.020027644567206272,-0.10922840722432474, ,0.026825851922666368,0.01962930911964475,-0.11002280088801605, ,0.0011948885796746246, ,0.018488601896926124,-0.003265044635541366,-0.02843003604673647,0.02311217707442828,0.008225977161918476,-0.002140945241926025, ,0.03406986742260429, ,0.024532037342516074, ,0.0013052689867686805, ,0.2536068248566587,-0.1756612819571107,0.12081033913000001,1.6158707044917449,0.24567242657826194,-1.381485652018836, ,0.10485849895963623,0.07759357445500473,0.031110960000000003,0.003850643425693496,0.11433705647748645,-0.09729449788832782, ,1.2912650108337402
0.02620905451020028,0.019996819139764203,-0.10951278689668532, ,0.026924266973729124,0.019623246012877713,-0.11017396640332032, ,0.0010431893831480661, ,0.018317487436901862,-0.00291357899599901,-0.02844317229238828,0.02521966429431577,0.01345626502949462,-0.0007199230183440844, ,0.03395634460040522, ,0.028584679804040773, ,0.0013031723499397157, ,0.25463394832893055,-0.1749044541354367,0.12112144873000001,1.6158707044917449,0.2469021550761509,-1.382651770632385, ,0.10303685294079346,0.0741382355925553,0.031171842504892373,0.0037361854278961694,0.11780590281915354,-0.09606281453130663, ,1.2965881824493408
0.02620905451020028,0.019996819139764203,-0.10951278689668532, ,0.02702236253008488,0.01961811197411804,-0.11032378270780863, ,0.0012093813534943812, ,0.018317487436901862,-0.00291357899599901,-0.02844317229238828,0.02521966429431577,0.01345626502949462,-0.0007199230183440844, ,0.03395634460040522, ,0.028584679804040773, ,0.0013024279769520543, ,0.25463394832893055,-0.1749044541354367,0.12112144873000001,1.6158707044917449,0.2469021550761509,-1.382651770632385, ,0.10303685294079346,0.0741382355925553,0.031171842504892373,0.0037361854278961694,0.11780590281915354,-0.09606281453130663, ,1.3019111156463623
0.026401111469622374,0.01997040771508408,-0.10981328437533472, ,0.02712014866660112,0.019613921221435376,-0.11047225574199647, ,0.0010384316890739895, ,0.01811240821077422,-0.002168476927874057,-0.028480127661852976,0.0020729266522096896,-0.017251755647871007,-0.0056682504453606005, ,0.03382128464467142, ,0.01737530893034816, ,0.0013003492660238806, ,0.25565334906832815,-0.17418623997813382,0.12143903978000001,1.6158707044917449,0.24785861057450898,-1.3834316959582602, ,0.0974301248033581,0.06701761409496525,0.031232963764705888,0.003624336747941897,0.0811953199775772,-0.06620933906673437, ,1.3072130680084229
0.026401111469622374,0.01997040771508408,-0.10981328437533472, ,0.027217635442418245,0.019610687714200346,-0.1106193914124309, ,0.0012024634848685184, ,0.01811240821077422,-0.002168476927874057,-0.028480127661852976,0.0020729266522096896,-0.017251755647871007,-0.0056682504453606005, ,0.03382128464467142, ,0.01737530893034816, ,0.0012995845333586044, ,0.25565334906832815,-0.17418623997813382,0.12143903978000001,1.6158707044917449,0.24785861057450898,-1.3834316959582602, ,0.0974301248033581,0.06701761409496525,0.031232963764705888,0.003624336747941897,0.0811953199775772,-0.06620933906673437, ,1.3124439716339111
0.02658604655204722,0.019949810334869807,-0.11010536456096898, ,0.027314832900442624,0.019608425154366158,-0.11076519559217594, ,0.0010406970610214424, ,0.01838763789666972,-0.0016349248104928012,-0.029955220684723814,-0.01366773275531747,-0.034376768356516714,-0.008712076926734742, ,0.035186552158822194, ,0.03699385086908392, ,0.0012975776537280837, ,0.25666502707485156,-0.17349119401945362,0.12177089002000001,1.6158707044917449,0.24854179307333618,-1.3839071067366016, ,0.09461310225171563,0.06446803095004808,0.03277533234567902,0.003517539158226847,0.06062647369763546,-0.04782109183089273, ,1.31862211227417
0.026765180631505403,0.019935129331594834,-0.11039355059156145, ,0.027411751066843393,0.019607146987752094,-0.11090967412130047, ,0.0008899490118405688, ,0.017887186434190357,-0.0009501780667927893,-0.028575376425635478,-0.002248176002296427,-0.028967657329192955,-0.005832030699482046, ,0.03372545647959211, ,0.029054438794017926, ,0.0012944420487904873, ,0.25759947775263276,-0.1728810981223899,0.12208718478000001,1.6158707044917449,0.2492249755721634,-1.3844641962550837, ,0.09321899956627777,0.05611883001683665,0.031479864664031625,0.003422065687849754,0.06472225816794364,-0.05117412620214142, ,1.3238370418548584
0.026765180631505403,0.019935129331594834,-0.11039355059156145, ,0.02750839995054752,0.019606866405325933,-0.11105283280736356, ,0.0010463195233928243, ,0.017887186434190357,-0.0009501780667927893,-0.028575376425635478,-0.002248176002296427,-0.028967657329192955,-0.005832030699482046, ,0.03372545647959211, ,0.029054438794017926, ,0.0012925479837111158, ,0.25759947775263276,-0.1728810981223899,0.12208718478000001,1.6158707044917449,0.2492249755721634,-1.3844641962550837, ,0.09321899956627777,0.05611883001683665,0.031479864664031625,0.003422065687849754,0.06472225816794364,-0.05117412620214142, ,1.3291771411895752
0.02686565080042247,0.01993054411700738,-0.1105546037559937, ,0.027604789542731625,0.019607596344485455,-0.11119467742590078, ,0.0010297162944556864, ,0.017744195071004613,-0.0005771283411185788,-0.02876302274008002,0.012512569205859466,-0.012923088928347372,-0.002221687355951154, ,0.03380090254691947, ,0.017987521477263086, ,0.00129055683455009, ,0.25812462358808,-0.1725721888074209,0.12226477651,1.6158707044917449,0.2496348850714597,-1.3847167712260324, ,0.09249214576849003,0.0530446850522475,0.03173070023904383,0.0033696580564839145,0.08030078656135266,-0.06297114562769517, ,1.3347342014312744
0.02686565080042247,0.01993054411700738,-0.1105546037559937, ,0.027700929816320205,0.019609349490341998,-0.11133521372091187, ,0.0011875221850253404, ,0.017744195071004613,-0.0005771283411185788,-0.02876302274008002,0.012512569205859466,-0.012923088928347372,-0.002221687355951154, ,0.03380090254691947, ,0.017987521477263086, ,0.001289782137937122, ,0.25812462358808,-0.1725721888074209,0.12226477651,1.6158707044917449,0.2496348850714597,-1.3847167712260324, ,0.09249214576849003,0.0530446850522475,0.03173070023904383,0.0033696580564839145,0.08030078656135266,-0.06297114562769517, ,1.3402180671691895
0.027116221136475365,0.019924253046769553,-0.11096085005965568, ,0.027796830725476236,0.019612138277001718,-0.1114744474053456, ,0.0009079797771133926, ,0.016805109193625888,-0.0004505405371843442,-0.026175207226761206,0.014724909956442876,-0.013768515569845334,0.0016888914323536155, ,0.031108779390217608, ,0.020158936159605484, ,0.0012869328665876913, ,0.2594220427109497,-0.17183852918436957,0.12271329285000002,1.616080394435229,0.2507279770695832,-1.3855264357154633, ,0.08935681879328698,0.04747220688267672,0.029067174306569344,0.0,0.0768451268180356,-0.0606143844347004, ,1.3454880714416504
0.027116221136475365,0.019924253046769553,-0.11096085005965568, ,0.02789250220510118,0.019615974888849745,-0.11161238416158728, ,0.0010593131766088242, ,0.016805109193625888,-0.0004505405371843442,-0.026175207226761206,0.014724909956442876,-0.013768515569845334,0.0016888914323536155, ,0.031108779390217608, ,0.020158936159605484, ,0.00128524679481007, ,0.2594220427109497,-0.17183852918436957,0.12271329285000002,1.616080394435229,0.2507279770695832,-1.3855264357154633, ,0.08935681879328698,0.04747220688267672,0.029067174306569344,0.0,0.0768451268180356,-0.0606143844347004, ,1.3507270812988281
0.027327508062819257,0.019921074789131975,-0.11128275321314843, ,0.027987954171198443,0.019620871262106605,-0.11174902964203066, ,0.0008623948792999965, ,0.016610799559662333,-0.00021362071401879968,-0.02462324420034795,0.01778997140860997,-0.008779572902458808,0.00398227619041906, ,0.02970300406980252, ,0.019838218958559632, ,0.0012821375895489665, ,0.2605572844434607,-0.1712747696845512,0.12307236518000002,1.616080394435229,0.2516844325679413,-1.3860613248209166, ,0.09115940591591815,0.04293979256039402,0.027606259133448878,0.0,0.08373443036562395,-0.05929149165988308, ,1.3563940525054932
0.027327508062819257,0.019921074789131975,-0.11128275321314843, ,0.028083196516844707,0.01962683908499389,-0.11188438946921192, ,0.0010097553534134422, ,0.016610799559662333,-0.00021362071401879968,-0.02462324420034795,0.01778997140860997,-0.008779572902458808,0.00398227619041906, ,0.02970300406980252, ,0.019838218958559632, ,0.0012801493980443277, ,0.2605572844434607,-0.1712747696845512,0.12307236518000002,1.616080394435229,0.2516844325679413,-1.3860613248209166, ,0.09115940591591815,0.04293979256039402,0.027606259133448878,0.0,0.08373443036562395,-0.05929149165988308, ,1.3616561889648438
0.02748327378964971,0.01991981919603854,-0.11151755605354575, ,0.02817823911701789,0.01963388980071504,-0.11201846923683792, ,0.0009031314647103786, ,0.015351710893725326,-0.00010952899989924996,-0.023117454076162565,0.02733594701839109,0.01840314489030818,0.008646836298071957, ,0.027750742457271823, ,0.03295334791600913, ,0.0012774173840346614, ,0.26141450779249964,-0.1708731875750915,0.12333551205000001,1.616080394435229,0.2526408880662994,-1.3865145351862291, ,0.08518576441514432,0.03937632429812066,0.025942689771986976,0.0,0.10527349480076681,-0.06539343579128992, ,1.366913080215454
0.02748327378964971,0.01991981919603854,-0.11151755605354575, ,0.028273091824505665,0.019642034607590553,-0.11215127450990252, ,0.001050036136373478, ,0.015351710893725326,-0.00010952899989924996,-0.023117454076162565,0.02733594701839109,0.01840314489030818,0.008646836298071957, ,0.027750742457271823, ,0.03295334791600913, ,0.0012757815477205522, ,0.26141450779249964,-0.1708731875750915,0.12333551205000001,1.616080394435229,0.2526408880662994,-1.3865145351862291, ,0.08518576441514432,0.03937632429812066,0.025942689771986976,0.0,0.10527349480076681,-0.06539343579128992, ,1.372192144393921
0.02764102573108664,0.019923898020250373,-0.11175697931016403, ,0.028367764470304244,0.019651284460631,-0.11228281082526767, ,0.0009375319355862679, ,0.016034041486251354,0.0009640597524648324,-0.02448895839519473,0.017622460858280568,0.035245136048367605,0.013971348906918226, ,0.029287010446112975, ,0.039405100358856776, ,0.0012733654790624501, ,0.26229489934016126,-0.17051021913000294,0.12360514037000002,1.616080394435229,0.25387061656418836,-1.3870272238786536, ,0.08902152116179247,0.032399092372301395,0.027654186666666667,0.0,0.12625282109351285,-0.04894358585659135, ,1.3775200843811035
0.02764102573108664,0.019923898020250373,-0.11175697931016403, ,0.028462266863112973,0.01966165007281945,-0.11241308369214983, ,0.0010833669474949875, ,0.016034041486251354,0.0009640597524648324,-0.02448895839519473,0.017622460858280568,0.035245136048367605,0.013971348906918226, ,0.029287010446112975, ,0.039405100358856776, ,0.001272017971746369, ,0.26229489934016126,-0.17051021913000294,0.12360514037000002,1.616080394435229,0.25387061656418836,-1.3870272238786536, ,0.08902152116179247,0.032399092372301395,0.027654186666666667,0.0,0.12625282109351285,-0.04894358585659135, ,1.3829290866851807
0.027803798149757118,0.019936652714975883,-0.11200976268533942, ,0.028556608788829117,0.019673141916393935,-0.11254209859260678, ,0.0009589282128686409, ,0.016034278789879657,0.0012864755021106376,-0.024972539673376398,0.006261713968527844,0.04120797732997965,0.01524792952355736, ,0.02970489611608621, ,0.04168089184917388, ,0.0012698131142894835, ,0.26318301362069707,-0.17020130981503398,0.12389032417000001,1.616080394435229,0.25510034506207735,-1.387376555090797, ,0.08786753848006552,0.030241217832527333,0.02819258676106195,0.0,0.1311178427821842,-0.03550280562414291, ,1.3884429931640625
0.027803798149757118,0.019936652714975883,-0.11200976268533942, ,0.028650800010042384,0.01968577022412995,-0.11266986098202329, ,0.0011027619583684907, ,0.016034278789879657,0.0012864755021106376,-0.024972539673376398,0.006261713968527844,0.04120797732997965,0.01524792952355736, ,0.02970489611608621, ,0.04168089184917388, ,0.0012686449243879381, ,0.26318301362069707,-0.17020130981503398,0.12389032417000001,1.616080394435229,0.25510034506207735,-1.387376555090797, ,0.08786753848006552,0.030241217832527333,0.02819258676106195,0.0,0.1311178427821842,-0.03550280562414291, ,1.3937671184539795
0.027966685131805377,0.01995371913477215,-0.11226435258196328, ,0.028744850265529642,0.019699544990622816,-0.11279637628959849, ,0.0009763169036660494, ,0.016873022249921755,0.00198788008741921,-0.02643271806403903,-0.022824307537995206,0.024570381261374126,0.009103649423914817, ,0.03142195301602508, ,0.03353564888847321, ,0.0012666148686884806, ,0.26406340516835863,-0.16992329143156187,0.12417810055000002,1.6162900843787136,0.2563300735599663,-1.387562528822659, ,0.08994970763836094,0.026596676445759745,0.029885199849906192,0.00439160786820671,0.11556051468796352,-0.001742893367395408, ,1.3990511894226074
0.027966685131805377,0.01995371913477215,-0.11226435258196328, ,0.028838769269749362,0.019714475973570022,-0.11292164991883093, ,0.0011179480412294618, ,0.016873022249921755,0.00198788008741921,-0.02643271806403903,-0.022824307537995206,0.024570381261374126,0.009103649423914817, ,0.03142195301602508, ,0.03353564888847321, ,0.001265589580223246, ,0.26406340516835863,-0.16992329143156187,0.12417810055000002,1.6162900843787136,0.2563300735599663,-1.387562528822659, ,0.08994970763836094,0.026596676445759745,0.029885199849906192,0.00439160786820671,0.11556051468796352,-0.001742893367395408, ,1.4043760299682617
0.028141920771060185,0.019975064781449642,-0.11252705870968988, ,0.028932566712336554,0.019730572695053863,-0.11304568724800668, ,0.0009766641928132605, ,0.01727752894130808,0.0022889792616574024,-0.025802339696167718,-0.06363793289779027,-0.04728238161122686,-0.005015315901836209, ,0.03113700637785316, ,0.07928050629109623, ,0.0012636106392135886, ,0.2649824103803914,-0.1696684412467125,0.12447624725000002,1.6164997743221983,0.2570132560587935,-1.3871394734594544, ,0.08860592115636862,0.02302206248385997,0.029280903529411772,0.00625976764547599,0.040868327483066964,0.04303220110278016, ,1.409696102142334
0.028141920771060185,0.019975064781449642,-0.11252705870968988, ,0.029026252257597134,0.019747844442823802,-0.11316849363068389, ,0.0011158449794825829, ,0.01727752894130808,0.0022889792616574024,-0.025802339696167718,-0.06363793289779027,-0.04728238161122686,-0.005015315901836209, ,0.03113700637785316, ,0.07928050629109623, ,0.0012626054306439898, ,0.2649824103803914,-0.1696684412467125,0.12447624725000002,1.6164997743221983,0.2570132560587935,-1.3871394734594544, ,0.08860592115636862,0.02302206248385997,0.029280903529411772,0.00625976764547599,0.040868327483066964,0.04303220110278016, ,1.4149670600891113
0.028309498320521997,0.01999992453026936,-0.11277437458628467, ,0.02911983554400269,0.019766300271578937,-0.11329007439618104, ,0.000988520613813489, ,0.017102152631195546,0.002694634370688502,-0.025176961764778898,0.02015151045404938,0.010729215423795435,0.009616533811178888, ,0.030555262766298427, ,0.022829571196337106, ,0.001260753506205946, ,0.2658782473938014,-0.16946765019198265,0.12475883847000001,1.6167094642656827,0.2578330750573861,-1.3873179084407896, ,0.09294509457244934,0.018772886559539223,0.028856542608695655,0.00407164128372691,0.10462254976105405,-0.03720911341429073, ,1.42022705078125
0.028309498320521997,0.01999992453026936,-0.11277437458628467, ,0.02921332618368505,0.01978594900425014,-0.11341043485006173, ,0.0011257277606602947, ,0.017102152631195546,0.002694634370688502,-0.025176961764778898,0.02015151045404938,0.010729215423795435,0.009616533811178888, ,0.030555262766298427, ,0.022829571196337106, ,0.0012598472931485926, ,0.2658782473938014,-0.16946765019198265,0.12475883847000001,1.6167094642656827,0.2578330750573861,-1.3873179084407896, ,0.09294509457244934,0.018772886559539223,0.028856542608695655,0.00407164128372691,0.10462254976105405,-0.03720911341429073, ,1.4255051612854004
0.028483404548712336,0.020028423939202972,-0.11302822379550584, ,0.029306733761931054,0.0198067992332831,-0.11352958027462205, ,0.000989114160633255, ,0.017037211615681915,0.002767396985773244,-0.024192937921597775,0.030133593286226782,-0.001920655544088112,0.007970889359526308, ,0.02971907318529091, ,0.030194603395083425, ,0.0012580424055984904, ,0.26682814353733103,-0.16929002733587548,0.12505050372,1.6167094642656827,0.2589261670555097,-1.3877191792295176, ,0.09321899956627777,0.01666905701009499,0.02789634241681261,0.00407164128372691,0.09205072031319815,-0.04516464941579853, ,1.4308180809020996
0.028578056685353286,0.020045449958026963,-0.11315908140714954, ,0.029400067836676876,0.019828859321920137,-0.11364751592937694, ,0.0011241086989467821, ,0.017409836870792946,0.0031410154014345796,-0.024286082119906745,0.013430996529756207,-0.02481913199728843,-0.002771264078366845, ,0.03004633392536475, ,0.02822007321449751, ,0.0012571554274087438, ,0.26734556663990405,-0.16921280000713323,0.12520216965,1.6169191542091674,0.25933607655480595,-1.3878900754603256, ,0.09405048717390563,0.013861662512192634,0.028093142010582012,0.011700563660682152,0.06832600821488856,-0.023751785929220417, ,1.4371020793914795
0.028578056685353286,0.020045449958026963,-0.11315908140714954, ,0.029493337938003128,0.01985213740548313,-0.11376424705154607, ,0.0011141521312554858, ,0.017409836870792946,0.0031410154014345796,-0.024286082119906745,0.013430996529756207,-0.02481913199728843,-0.002771264078366845, ,0.03004633392536475, ,0.02822007321449751, ,0.0012562146162498407, ,0.26734556663990405,-0.16921280000713323,0.12520216965,1.6169191542091674,0.25933607655480595,-1.3878900754603256, ,0.09405048717390563,0.013861662512192634,0.028093142010582012,0.011700563660682152,0.06832600821488856,-0.023751785929220417, ,1.4426941871643066
0.02883501457689149,0.0200933330696172,-0.11348790071440704, ,0.029586553567628925,0.01987664139265556,-0.11387977885654053, ,0.0008748340504033279, ,0.0166536265603295,0.0030582834753228928,-0.01942817482735103,-0.014971370218047488,-0.05016011566557191,-0.005315239092368702, ,0.025771114693556845, ,0.05234669389587166, ,0.0012537219328129356, ,0.26878199495450983,-0.16906606808252297,0.12558846407000002,1.6169191542091674,0.26015589555339863,-1.3878234742212392, ,0.09643998125860852,0.007483041565956411,0.023219841865889216,0.011700563660682152,0.044992862649684114,0.010811664437908316, ,1.4480111598968506
0.02883501457689149,0.0200933330696172,-0.11348790071440704, ,0.02967972419840708,0.019902378966765253,-0.1139941165384496, ,0.0010031212661428797, ,0.0166536265603295,0.0030582834753228928,-0.01942817482735103,-0.014971370218047488,-0.05016011566557191,-0.005315239092368702, ,0.025771114693556845, ,0.05234669389587166, ,0.0012520946557566365, ,0.26878199495450983,-0.16906606808252297,0.12558846407000002,1.6169191542091674,0.26015589555339863,-1.3878234742212392, ,0.09643998125860852,0.007483041565956411,0.023219841865889216,0.011700563660682152,0.044992862649684114,0.010811664437908316, ,1.4532489776611328
0.029001606439331522,0.020124460278687632,-0.11368538454061176, ,0.02977285927381822,0.019929357587066644,-0.11410726527052627, ,0.0009004883926263101, ,0.0169058767862197,0.003196397432465905,-0.01999904379237321,0.015418551121240827,-0.010943997956589284,-0.0039503107345426405, ,0.026381572717834284, ,0.01890766010687309, ,0.0012498262282525697, ,0.2697550592966621,-0.16898884075378073,0.12582438885000002,1.617128844152652,0.2608390780522258,-1.3879721700390184, ,0.09999677719543813,0.0074580923443474155,0.02395310003007519,0.018179972933538093,0.08734492090811202,-0.017842856605365973, ,1.458549976348877
0.029001606439331522,0.020124460278687632,-0.11368538454061176, ,0.029865968207465794,0.01995758449002323,-0.11421923020567462, ,0.0010295435829341933, ,0.0169058767862197,0.003196397432465905,-0.01999904379237321,0.015418551121240827,-0.010943997956589284,-0.0039503107345426405, ,0.026381572717834284, ,0.01890766010687309, ,0.0012484141600133496, ,0.2697550592966621,-0.16898884075378073,0.12582438885000002,1.617128844152652,0.2608390780522258,-1.3879721700390184, ,0.09999677719543813,0.0074580923443474155,0.02395310003007519,0.018179972933538093,0.08734492090811202,-0.017842856605365973, ,1.4638340473175049
0.02916593599871906,0.02015940513890386,-0.11388307674878477, ,0.029959060382570523,0.019987066690590177,-0.11433001647693566, ,0.0009265538028773758, ,0.016723631584688394,0.0036041749621041714,-0.01961905930147419,0.024062427471065916,0.007454668678531349,0.0020630864393900647, ,0.026030317293736678, ,0.025190664823884698, ,0.0012463640940443305, ,0.2707358463716886,-0.16894250435653538,0.12606160992,1.6173385340961361,0.26193217005034936,-1.3882100833474653, ,0.10042004397721775,0.0035276392146376028,0.023668367786032693,0.01653799209693916,0.10674522814826118,-0.023111396750889877, ,1.4691681861877441
0.02916593599871906,0.02015940513890386,-0.11388307674878477, ,0.030052145151465044,0.020017810983496472,-0.11443962919797351, ,0.0010560142972300501, ,0.016723631584688394,0.0036041749621041714,-0.01961905930147419,0.024062427471065916,0.007454668678531349,0.0020630864393900647, ,0.026030317293736678, ,0.025190664823884698, ,0.001245159348494873, ,0.2707358463716886,-0.16894250435653538,0.12606160992,1.6173385340961361,0.26193217005034936,-1.3882100833474653, ,0.10042004397721775,0.0035276392146376028,0.023668367786032693,0.01653799209693916,0.10674522814826118,-0.023111396750889877, ,1.4744811058044434
0.029331911331019762,0.020198929403973255,-0.1140770156495936, ,0.03014523183508859,0.020049823944527576,-0.11454807346356263, ,0.0009516397135873211, ,0.017465388571151787,0.004040736458543982,-0.020375863396143543,-0.017833038362531504,-0.011026190298771995,-0.009567893295746175, ,0.02713932862483942, ,0.020966416420964085, ,0.0012433133130552029, ,0.2717243561795894,-0.16893478162366116,0.12629623841,1.6177579139831053,0.26288862554870746,-1.3881732212719347, ,0.10303685294079346,0.0013573047254159581,0.024619492302936634,0.025917554923087616,0.08899339914146573,0.023395825072833075, ,1.4797379970550537
0.029331911331019762,0.020198929403973255,-0.1140770156495936, ,0.03023832972248155,0.020083111931807878,-0.11465535435007349, ,0.0010814266686704705, ,0.017465388571151787,0.004040736458543982,-0.020375863396143543,-0.017833038362531504,-0.011026190298771995,-0.009567893295746175, ,0.02713932862483942, ,0.020966416420964085, ,0.0012423015215277983, ,0.2717243561795894,-0.16893478162366116,0.12629623841,1.6177579139831053,0.26288862554870746,-1.3881732212719347, ,0.10303685294079346,0.0013573047254159581,0.024619492302936634,0.025917554923087616,0.08899339914146573,0.023395825072833075, ,1.4850170612335205
0.029414299173711744,0.020217420463965748,-0.11417244020079625, ,0.030331448070280154,0.020117681087082926,-0.11476147691595909, ,0.0010945658013968118, ,0.017913820767131362,0.004332466835603828,-0.021023126580390628,-0.017665772004234925,-0.012209236870685446,-0.009054107936111491, ,0.02795795226002149, ,0.02147419052796, ,0.001241383908359283, ,0.27221088835066554,-0.16892705889078694,0.12641160822,1.6177579139831053,0.2632985350480037,-1.3880174025421805, ,0.10509074369708835,0.0,0.02540480306220096,0.025917554923087616,0.08987845286785276,0.02454075201335315, ,1.4902830123901367
0.029414299173711744,0.020217420463965748,-0.11417244020079625, ,0.030424596102211023,0.02015353733700207,-0.11486644620224154, ,0.0012273651729162787, ,0.017913820767131362,0.004332466835603828,-0.021023126580390628,-0.017665772004234925,-0.012209236870685446,-0.009054107936111491, ,0.02795795226002149, ,0.02147419052796, ,0.0012412973729553137, ,0.27221088835066554,-0.16892705889078694,0.12641160822,1.6177579139831053,0.2632985350480037,-1.3880174025421805, ,0.10509074369708835,0.0,0.02540480306220096,0.025917554923087616,0.08987845286785276,0.02454075201335315, ,1.495549201965332
0.029697247866383544,0.020290348610576048,-0.11452056852901461, ,0.030517783008585885,0.020190686394400793,-0.11497026723299823, ,0.0009409778962794643, ,0.018109978969205652,0.004787091931613223,-0.022975982458539625,-0.012821858867323494,-0.007629234759159886,-0.008274549720116679, ,0.029644280348187033, ,0.014919748155256794, ,0.0012394549221781614, ,0.27382493952137843,-0.1689502270894096,0.1268290136,1.6177579139831053,0.2646649000456581,-1.3876613642566147, ,0.10160272115467964,-0.0009841614437752322,0.027416198829604135,0.025619641555652804,0.09104688108539491,0.020578460185615634, ,1.5008530616760254
