NicholasDascanio/dvrk_moveit_final/test/execution/third_experiment_notsharpbends/thirdexp_200vel5.0/thirdexp_200vel5.0_28.csv
Current Position (x),Current Position (y),Current Position (z), ,Planned Position (x),Planned Position (y),Planned Position (z), ,Position Error,,Cartesian linear Velocity(x),Cartesian linear Velocity(y),Cartesian linear Velocity(z),Cartesian Angular Velocity(x),Cartesian Angular Velocity(y),Cartesian Angular Velocity(z), ,Total Linear Velocity, ,Total Angular Velocity, ,MSE, ,Joint 1 Position,Joint 2 Position,Joint 3 Position,Joint 4 Position,Joint 5 Position,Joint 6 Position, ,Joint 1 Velocity,Joint 2 Velocity,Joint 3 Velocity,Joint 4 Velocity,Joint 5 Velocity,Joint 6 Velocity, ,Time Stamp
0.0089083194481972,0.019557442751550184,-0.07715021703121172, ,0.009254118226967313,0.01959864097448963,-0.07764242932590971, ,0.0006029486147460123, ,0.0032272991818200094,0.002044640035294696,-0.00830090230331856,0.19585281149965755,-0.17760595117498554,-0.04587248741764598, ,0.009137887717199493, ,0.2643902373872377, ,5.0245717895501025e-05, ,0.13125556793031976,-0.24621616949602582,0.08666606053,1.602869927995704,0.13964250276028015,-1.3130763603214772, ,0.006689564372538307,0.0009058660222401988,0.008656962782608697,-7.819434501139003e-05,-0.1769371030129136,-0.196759452356571, ,0.052259206771850586
0.009120400149422855,0.019734046827878618,-0.07786718215685964, ,0.009470043842518783,0.01971272873361379,-0.0782240898440763, ,0.0005000882626688916, ,0.004029023871351101,0.002323230002798034,-0.009523268840847013,-0.06044890942024635,-0.10926058293383363,-0.022588766904277666, ,0.010598258367150028, ,0.12486771221900361, ,5.0138039882495635e-05, ,0.1321436822108556,-0.24612349670153513,0.08741790873000001,1.603289307882673,0.1344503157691934,-1.3232179382457523, ,0.02490733374238078,0.001792456015558521,0.010100704831959418,0.0013254806876472948,-0.08726634752052252,0.05883243289899831, ,0.10824203491210938
0.009338857550932247,0.019850516269927933,-0.07841951794432087, ,0.009684909932917912,0.019823482446869017,-0.07879898686793735, ,0.0005142759401894913, ,0.005033740460215028,0.0026163600918633107,-0.01254645413598595,0.024322699968970945,-0.026854004394683856,0.0027541981347955894, ,0.01376943697242192, ,0.03623162948200814, ,5.217138121304501e-05, ,0.1341670382239024,-0.24578369645506926,0.08800512810000001,1.6034989978261578,0.13622659026614414,-1.318867180443826, ,0.04391343894422526,0.007907063813734634,0.013318404280936457,0.0002969476658556766,0.01746912206533691,-0.03212301015908, ,0.15953707695007324
0.00954632579240981,0.019958602928904473,-0.07892839771971644, ,0.009898715663216354,0.019930946909910253,-0.07936717116910713, ,0.0005634408720743203, ,0.005246530317760787,0.0023820839415990376,-0.012048921831026533,-0.045256635284156625,-0.04223986984544831,-0.011588790955308011, ,0.01335578232714935, ,0.061906133685264514, ,5.4518842241967896e-05, ,0.13591237585347715,-0.24548250987297449,0.08854568103,1.6039183777131267,0.13636322676590956,-1.319958743229209, ,0.04484732587829433,0.00931343153954148,0.01279422612048193,0.010915814625341877,0.0,0.03746420953503127, ,0.20896601676940918
0.009810831505138293,0.02007753877215353,-0.07952846555452288, ,0.010111460313532878,0.02003516666845185,-0.07992869329162243, ,0.0005023497956132573, ,0.00490731580195296,0.002037834039936387,-0.01085973199395874,-0.007702833790019116,-0.03851246519274889,-0.015037888823285207, ,0.012090008061826581, ,0.039275227212304156, ,5.475721398555047e-05, ,0.1382909775787383,-0.245019145900521,0.089184752,1.6045474475435806,0.13745631876403308,-1.3206867289784994, ,0.04197122581091144,0.009702328046803519,0.01153425888486604,0.014258317016538397,0.0,0.0, ,0.25687599182128906
0.01002319896361824,0.020196024858311082,-0.08010373805110636, ,0.010323143278449595,0.02013618601875397,-0.08048360355262502, ,0.000487693631251435, ,0.004930124281919168,0.002570638657703314,-0.012687384094722889,0.0024500411911525495,-0.01972945243546874,-0.0063692793969791295, ,0.013852220894523558, ,0.019880987563393238, ,5.5628019588480845e-05, ,0.14003631520831303,-0.24465617745543247,0.0897940083,1.6045474475435806,0.13854941076215663,-1.3211696785073679, ,0.040658501096174283,0.008676561036467422,0.01345338810810811,0.010185077528016031,0.01902924280196363,-0.009669548657667375, ,0.2995181083679199
0.010204354548193106,0.020287572345937015,-0.08056963262489678, ,0.010533764066397668,0.02023404900811198,-0.08103195204302743, ,0.0005701882344948591, ,0.004523908335171507,0.002191749474790973,-0.011720447152570621,-0.001582864830432692,-0.008819921467186385,-0.004361484923015016, ,0.012752975881788592, ,0.008960817741225499, ,5.755362078520411e-05, ,0.1415654163174095,-0.24430093174321815,0.09028789479,1.605176517374034,0.13964250276028015,-1.321734306776377, ,0.03782261520863722,0.010082598262495204,0.012395962272373542,0.010009583692466493,0.027406604340279438,-0.00703066744227609, ,0.34188199043273926
0.010443503697864894,0.020411914737870435,-0.08121508057718473, ,0.01074332229903326,0.02032879943534787,-0.0815737886281614, ,0.00047483767010996663, ,0.005065051585101165,0.002254607865862474,-0.012425507495980839,-0.01532147730846113,-0.035865008995679584,-0.01619045467051719, ,0.01360629415826443, ,0.03900059282861827, ,5.775100028970183e-05, ,0.14344976313872027,-0.24379895410639355,0.09096974333,1.6055958972610032,0.14059895825863825,-1.32218751714169, ,0.03952392401435684,0.011408802433372837,0.013131748985985164,0.015167488228467753,0.0,0.006134118181885756, ,0.3862030506134033
0.010583322770408807,0.02047472096475609,-0.08156800111126229, ,0.010951817710604737,0.020420480851302575,-0.08210916294841303, ,0.0006569525438308402, ,0.005309691328380653,0.0024895975548385844,-0.014276546031832241,-0.00011601900909519186,-0.019117700604350283,-0.008652297657068143, ,0.015434075436732964, ,0.019118037130539115, ,6.090969456223843e-05, ,0.1446236185356024,-0.2434668765928019,0.09134307485000001,1.6055958972610032,0.1415554137569963,-1.322722406247143, ,0.04100991424307294,0.013955432582128054,0.015027180679245284,0.011872389473162437,0.01961307685565811,-0.012038860861164435, ,0.42330408096313477
0.010812204166273555,0.020602347862887557,-0.08222524840388683, ,0.011159250147312566,0.020509136559330916,-0.08263812441984544, ,0.0005473535097356343, ,0.005950183751823584,0.00305807213080133,-0.01593092868208863,-0.008736028653017884,-0.026377969325938527,-0.014085637566632166, ,0.01727862785383849, ,0.02778694722795616, ,6.230033419212308e-05, ,0.14634578796655445,-0.24298034442172575,0.09203659000000002,1.6062249670914566,0.14278514225488526,-1.323316773679708, ,0.04455255472228675,0.01222684256341565,0.01683806714587738,0.016516470476345222,0.014639472233308541,-0.0010226204593195513, ,0.46171998977661133
0.011046685990809864,0.020697801063078492,-0.08277786766889217, ,0.011365619566661793,0.02059480961579678,-0.0831607222348107, ,0.000508825591596522, ,0.005984271681607868,0.0020265745237329586,-0.01276616665244232,-0.022782878919176623,-0.04451993007644306,-0.0011065454020297478, ,0.01424406974349212, ,0.050010832894253524, ,6.30739858118216e-05, ,0.1482764711851106,-0.24243203038765582,0.09262251308000001,1.606434657034941,0.14387823425300877,-1.323718044468436, ,0.04876512926951222,0.014671759671996099,0.013544907755102044,0.0,0.004377476687876131,0.0082712221770919, ,0.4997091293334961
0.011219252437105252,0.02077092091562438,-0.08320918182240569, ,0.011570926036808978,0.020677542830570286,-0.08367700536255075, ,0.0005926657170874679, ,0.006653599809019553,0.0031820768500455143,-0.017507768589474625,-0.01988200588556739,-0.03979678537159301,-0.011692937615936993, ,0.01899784104788686, ,0.04448681421490532, ,6.521620383398698e-05, ,0.14968200856821945,-0.241991834613825,0.09307880716000001,1.6068540369219102,0.14510796275089774,-1.3243940906411416, ,0.04785524032197215,0.015015338854188414,0.018478899675174017,0.011241113751977304,0.005529363529856246,0.006661709767463883, ,0.5310070514678955
0.01138382951264355,0.020855112073282354,-0.08366727187663654, ,0.011775169735903163,0.020757378767525553,-0.08418702254979146, ,0.0006579055643783752, ,0.006673974108770094,0.0034881588670079315,-0.019447329882577087,0.025783243864590952,0.015030734400764936,0.013890563202921816, ,0.020854443705066682, ,0.02984452812784649, ,6.773137686582145e-05, ,0.15090220036234692,-0.241613420702988,0.09356232333,1.6070637268653947,0.14606441824925584,-1.324847301006454, ,0.05074702757137475,0.01678403635629126,0.02050040092664093,0.0,0.06779050135431311,-0.042383303989613444, ,0.5631492137908936
0.011607394417010074,0.02093953686124457,-0.0841894701498351, ,0.011978350951422221,0.020834359745039156,-0.08469082232132773, ,0.000632475277032016, ,0.0050357509777883055,0.0012014666598858111,-0.009569908733637852,0.0605113998222706,0.03432505770992364,0.009757261092816933, ,0.01088050840794083, ,0.0695689515155498, ,6.975001093579543e-05, ,0.15270931985491545,-0.2410419384702954,0.09411583916,1.6074831067523636,0.1472941467471448,-1.3251966322185975, ,0.05045026132826729,0.014832282206700654,0.010263409484536084,0.008973456132889291,0.0851657409564959,-0.07384873242745361, ,0.5964231491088867
0.011783652618483745,0.02099523252116398,-0.08458559136987737, ,0.012180470079504605,0.020908527836490495,-0.08518845298060232, ,0.0007269277277702744, ,0.0067504051349898285,0.002825626913283203,-0.01762169696960061,-0.041777386112097636,-0.021225171056221678,0.004122742887959874, ,0.019080784602002056, ,0.046859963482146154, ,7.298229873999456e-05, ,0.1542306982311377,-0.24051679263484813,0.09453583712000001,1.607692796695848,0.14907042124409553,-1.326073313785667, ,0.04947702896687736,0.018698904740585377,0.018565048391608396,0.0,0.029107794580090413,0.023296981924291818, ,0.622779130935669
0.011850237473366639,0.021028124201655677,-0.0847790261706039, ,0.01238152762427697,0.020979924870760808,-0.08567996261027726, ,0.0010470333654112186, ,0.0072949112393649014,0.00391299851563337,-0.022215180875217847,0.0024678339124394005,0.011673271457596234,-0.004645308803573884, ,0.02370741547896367, ,0.011931054441845395, ,7.857346162287362e-05, ,0.1547095076693396,-0.24033144704586673,0.09473935465000001,1.6079024866393328,0.1496169672431573,-1.3261922704398903, ,0.0505039603823687,0.019494030722775425,0.02335602862170088,0.016762304558892813,0.05995345326818602,-0.019220225145920866, ,0.6517541408538818
0.012133060073975957,0.021170333399776614,-0.08558934103835547, ,0.012581524197178747,0.021048592432735266,-0.08616539907280225, ,0.0007401241733026302, ,0.007225644382244081,0.002689461056812505,-0.017947828187162347,-0.0010650507579046259,0.005612952946834738,0.0004286963734157289, ,0.01953375729732162, ,0.005712942460584865, ,8.195306739121597e-05, ,0.1567251409495122,-0.2396209556214381,0.09559360976,1.6081121765828172,0.15180315123940433,-1.3269948120173465, ,0.056519917545247635,0.02113047017556686,0.01896287085714286,0.011439301247821188,0.06120696269908084,-0.018082307754796946, ,0.6728620529174805
0.012261697612128709,0.021220789872961242,-0.08590524941375557, ,0.012780460516282554,0.021114571863803337,-0.08664481001097589, ,0.0009095862208479572, ,0.008064546709035975,0.0034730491459113336,-0.0208747245780904,0.014840218579938232,-0.012113656623060236,-0.010796920692587416, ,0.02264626040217832, ,0.019156429744459982, ,8.642825163185514e-05, ,0.1577059280245387,-0.23928115537497222,0.09592805258,1.6085315564697864,0.15262297023799698,-1.327418283219103, ,0.05847008105882364,0.020527134232851133,0.022062065817174518,0.018706546976497977,0.04318950811049566,-0.03225569961735016, ,0.6940100193023682
0.012457713763058851,0.021318103879255947,-0.08647318220225025, ,0.012978337405612815,0.02117790426236152,-0.08711824284850371, ,0.0008407188276162426, ,0.008572314564536339,0.004107319549812809,-0.02433752229356402,0.02827342721875145,0.007823241152015513,0.00040918763008442873, ,0.026127947532620353, ,0.02933566515884926, ,9.012232492356278e-05, ,0.15911146540764756,-0.23876373227239917,0.09652693856000001,1.6089509363567556,0.1546725177344786,-1.329007873034409, ,0.059571212528857984,0.022621440180803525,0.02565026009661836,0.012399070241701131,0.06640184725198647,-0.04868581806545907, ,0.7151100635528564
0.012549049403875046,0.021355255419571124,-0.08671198417163054, ,0.013175155794460639,0.021238630484314944,-0.08758574479055163, ,0.0010812345753965715, ,0.009134105816165994,0.003404705987351558,-0.023100470307203205,-0.020725228095865713,-0.039844362044632764,-0.0111589366632579, ,0.025073006208574233, ,0.04491215523902554, ,9.604106653397067e-05, ,0.15973700677045977,-0.23850888208754975,0.09677841882,1.6089509363567556,0.15494579073400946,-1.3289856726213802, ,0.0631383510036399,0.02691348314193726,0.024318796213740463,0.012399070241701131,0.02097384135468755,-0.003926964438258771, ,0.7318141460418701
0.01266786577042802,0.02139912484044315,-0.08701078532622251, ,0.013370916716697026,0.02129679114358045,-0.08804736282429651, ,0.0012566804399196626, ,0.010082949187107058,0.0035309810313531925,-0.02429068171385629,-0.022006788705875458,-0.03517055874367544,-0.008005587949401571, ,0.026536218824041818, ,0.04148805243481852, ,0.00010295933253624033, ,0.16058650738662444,-0.23816135910820965,0.09709341729000001,1.6089509363567556,0.15549233673307122,-1.3292679867558848, ,0.07266228296973261,0.028861600230678464,0.02565026009661836,0.012399070241701131,0.03559691774400888,-0.0045582826677158204, ,0.7477481365203857
0.012962200641022534,0.021488431350664246,-0.08768502370294068, ,0.013565621310083625,0.021352426612589286,-0.08850314371947288, ,0.0010256384129309986, ,0.012497449292394902,0.004163092109533398,-0.03017875342869859,-0.052222100017818594,-0.067624284836627,-0.016102876003566732, ,0.032928327215918936, ,0.08544101238460435, ,0.00010797164313289961, ,0.16291104998176603,-0.2372577993619254,0.09780767308,1.609580006187209,0.1580884302286146,-1.330813175745133, ,0.08541578898152184,0.03756806870881661,0.031794034970059885,0.014129703411636812,0.014894844957948138,0.017381527257126883, ,0.7634232044219971
0.013076633111999738,0.021537259891764422,-0.08798451173179248, ,0.01375927081558159,0.021405577022791042,-0.08895313402891783, ,0.0011922934902199893, ,0.013190372511695258,0.006147643655269614,-0.035112496852418386,-0.03432867240530164,-0.040745878604690804,-0.06031319597391957, ,0.03800877378606884, ,0.05327880442523312, ,0.00011470509281534229, ,0.16367560053631425,-0.23696433551270485,0.09812396784,1.6099993860741781,0.15849833972791091,-1.3309023932358004, ,0.0849569754328297,0.029907639949092592,0.03713009678321679,0.06517783217452788,0.02975532735127038,0.015157899956024928, ,0.7739801406860352
0.01321759064524019,0.021607061434952887,-0.08839452213183491, ,0.0139518665766585,0.021456282265156366,-0.08939738008911177, ,0.0012520461588848395, ,0.013228261118787775,0.0065358767475221175,-0.039789108719354115,0.06778159973770093,0.06966205809017273,0.06496059865660889, ,0.04243674999061797, ,0.09719592517927118, ,0.00012166180011639096, ,0.16464866487846655,-0.2366013670676163,0.0985569287,1.6104187659611469,0.1601379777250962,-1.3321577293400169, ,0.09037803957949597,0.036331141484866304,0.04191792505263159,-0.03128061214063525,0.172375833235602,-0.10848757183623445, ,0.7847352027893066
0.013399565708454155,0.021695967438111825,-0.08894711310424708, ,0.014143410038593844,0.021504581990681317,-0.08983592802071853, ,0.0011747019761247101, ,0.014933588444582473,0.007242789088626248,-0.04472962310720977,0.022841566108572627,-0.0049081278694838104,0.033382607231453754, ,0.047709634676106304, ,0.023359105520226253, ,0.00012791266169955826, ,0.16581479754247444,-0.23607622123216904,0.09913766662000001,1.6104187659611469,0.16191425222204694,-1.333279447127508, ,0.09098460360351944,0.04136745490779023,0.04698764460176992,-0.0189553993365158,0.09318622180372699,-0.06663770420290206, ,0.7954261302947998
0.013558527483769943,0.021767725972161953,-0.08939276392486618, ,0.014333902747782986,0.021550515610891337,-0.09026882372912227, ,0.0011899024841220507, ,0.016825055369820832,0.007018831355842639,-0.04467510380391747,-0.03991705202536479,-0.04773251088400567,0.007257672255000879, ,0.048251542790776106, ,0.06222206743151812, ,0.00013409860316129955, ,0.16680330735037519,-0.23565919365696092,0.09960692360000001,1.6102090760176624,0.16259743472087412,-1.3334281429452874, ,0.10759290426130474,0.04407661010611741,0.047126661301775154,0.0,0.06160986697757268,-0.003540456569000948, ,0.8059341907501221
0.013558527483769943,0.021767725972161953,-0.08939276392486618, ,0.01452334635103956,0.02159412229834512,-0.09069611290496299, ,0.0016308685557461426, ,0.016825055369820832,0.007018831355842639,-0.04467510380391747,-0.03991705202536479,-0.04773251088400567,0.007257672255000879, ,0.048251542790776106, ,0.06222206743151812, ,0.00014394577390198932, ,0.16680330735037519,-0.23565919365696092,0.09960692360000001,1.6102090760176624,0.16259743472087412,-1.3334281429452874, ,0.10759290426130474,0.04407661010611741,0.047126661301775154,0.0,0.06160986697757268,-0.003540456569000948, ,0.8112599849700928
0.013558527483769943,0.021767725972161953,-0.08939276392486618, ,0.014711742594897064,0.021635440987139407,-0.09111784102467023, ,0.0020792535704099893, ,0.016825055369820832,0.007018831355842639,-0.04467510380391747,-0.03991705202536479,-0.04773251088400567,0.007257672255000879, ,0.048251542790776106, ,0.06222206743151812, ,0.0008261728001211161, ,0.16680330735037519,-0.23565919365696092,0.09960692360000001,1.6102090760176624,0.16259743472087412,-1.3334281429452874, ,0.10759290426130474,0.04407661010611741,0.047126661301775154,0.0,0.06160986697757268,-0.003540456569000948, ,0.8165700435638428
0.013558527483769943,0.021767725972161953,-0.08939276392486618, ,0.014899093324908828,0.021674510373413235,-0.09153405335099511, ,0.002528028150304114, ,0.016825055369820832,0.007018831355842639,-0.04467510380391747,-0.03991705202536479,-0.04773251088400567,0.007257672255000879, ,0.048251542790776106, ,0.06222206743151812, ,0.0008829013117938827, ,0.16680330735037519,-0.23565919365696092,0.09960692360000001,1.6102090760176624,0.16259743472087412,-1.3334281429452874, ,0.10759290426130474,0.04407661010611741,0.047126661301775154,0.0,0.06160986697757268,-0.003540456569000948, ,0.8219730854034424
0.013711545068545062,0.021831240546372272,-0.08980288560931135, ,0.015085400484947227,0.021711368915852337,-0.09194479493354124, ,0.002547473938277685, ,0.017207726972957322,0.00718620967807668,-0.04671257025828282,0.032609155641281695,0.034529099436323034,0.021469292834685294, ,0.05029723349497599, ,0.04749098148164299, ,0.0009365972029707796, ,0.16782270808977282,-0.2352421660817528,0.10003988446,1.6104187659611469,0.16369052671899764,-1.333911092474156, ,0.11601093100057551,0.047543557895025436,0.04931520594427245,0.007038056211137325,0.15323906297477333,-0.0783181789543209, ,0.8274741172790527
0.013711545068545062,0.021831240546372272,-0.08980288560931135, ,0.015270666116502176,0.021746054836194663,-0.09235011060929416, ,0.002987719907879378, ,0.017207726972957322,0.00718620967807668,-0.04671257025828282,0.032609155641281695,0.034529099436323034,0.021469292834685294, ,0.05029723349497599, ,0.04749098148164299, ,0.0010006947874991732, ,0.16782270808977282,-0.2352421660817528,0.10003988446,1.6104187659611469,0.16369052671899764,-1.333911092474156, ,0.11601093100057551,0.047543557895025436,0.04931520594427245,0.007038056211137325,0.15323906297477333,-0.0783181789543209, ,0.8327991962432861
0.014112709842209838,0.021973275533835084,-0.09081169092774785, ,0.015454892357978122,0.02177860611973408,-0.09275004500314946, ,0.0023657063655590314, ,0.021993864679272637,0.006703857935840467,-0.05272630945843821,-0.0016355453848267295,-0.01672925361046237,-0.03250150976426069, ,0.05752160901662156, ,0.016796887401596506, ,0.0010420587747131081, ,0.17062606012311632,-0.23406831068487066,0.10110673113000002,1.6112575257350852,0.16710643921313365,-1.336043110145442, ,0.15063006596582662,0.06846821180264846,0.055695145174825184,0.05244368621452122,0.12526535271880743,-0.057112180756652066, ,0.8381180763244629
0.014112709842209838,0.021973275533835084,-0.09081169092774785, ,0.015638081443990887,0.021809060515826515,-0.09314464252844049, ,0.0027922013299248255, ,0.021993864679272637,0.006703857935840467,-0.05272630945843821,-0.0016355453848267295,-0.01672925361046237,-0.03250150976426069, ,0.05752160901662156, ,0.016796887401596506, ,0.001093533555748747, ,0.17062606012311632,-0.23406831068487066,0.10110673113000002,1.6112575257350852,0.16710643921313365,-1.336043110145442, ,0.15063006596582662,0.06846821180264846,0.055695145174825184,0.05244368621452122,0.12526535271880743,-0.057112180756652066, ,0.8434209823608398
0.014354301780833995,0.022068449436304514,-0.09149171588204283, ,0.015820235704663607,0.02183745553839419,-0.09353394738746448, ,0.0025244860806990176, ,0.027768426420292792,0.013834354809454214,-0.08650306214130044,0.14426819548018596,0.17878147099989086,0.03371647538077427, ,0.09189806656657565, ,0.22972001027587863, ,0.001134417913604469, ,0.1722014976294581,-0.23330376013032245,0.10182228321000002,1.6112575257350852,0.16970253270867705,-1.3376699778748307, ,0.16915675857124915,0.07842722442848825,0.09102178011428572,0.03578477378399944,0.34935274846394765,-0.21547671518204858, ,0.8487350940704346
0.014354301780833995,0.022068449436304514,-0.09149171588204283, ,0.016001357564921725,0.021863828466431118,-0.09391800357200807, ,0.002939648695284119, ,0.027768426420292792,0.013834354809454214,-0.08650306214130044,0.14426819548018596,0.17878147099989086,0.03371647538077427, ,0.09189806656657565, ,0.22972001027587863, ,0.0011845632130955703, ,0.1722014976294581,-0.23330376013032245,0.10182228321000002,1.6112575257350852,0.16970253270867705,-1.3376699778748307, ,0.16915675857124915,0.07842722442848825,0.09102178011428572,0.03578477378399944,0.34935274846394765,-0.21547671518204858, ,0.8539900779724121
0.01464543610998947,0.022224854448058887,-0.09242084344343109, ,0.016181449543787568,0.021888216344507754,-0.09429685486387189, ,0.0024478728176102306, ,0.030570333380890588,0.01575942606593859,-0.09379665989576147,0.16366016200603387,0.16225936321191906,0.03823406059699368, ,0.09990354448440619, ,0.23044628348849774, ,0.0012187067159202909, ,0.1739313897932844,-0.23254693230864842,0.10280098216000001,1.6118865955655386,0.17352835470210937,-1.3402179279973465, ,0.181447306995164,0.07573578735711954,0.09893671751552796,0.029897415951096244,0.3463261776232946,-0.23300966493148945, ,0.8595139980316162
0.01464543610998947,0.022224854448058887,-0.09242084344343109, ,0.016360514253674623,0.0219106559832768,-0.09467054483539501, ,0.0028462905802504345, ,0.030570333380890588,0.01575942606593859,-0.09379665989576147,0.16366016200603387,0.16225936321191906,0.03823406059699368, ,0.09990354448440619, ,0.23044628348849774, ,0.0012615378702447682, ,0.1739313897932844,-0.23254693230864842,0.10280098216000001,1.6118865955655386,0.17352835470210937,-1.3402179279973465, ,0.181447306995164,0.07573578735711954,0.09893671751552796,0.029897415951096244,0.3463261776232946,-0.23300966493148945, ,0.8650760650634766
0.014667524773143197,0.022236521307182438,-0.09248966390569269, ,0.01653855439968088,0.021931183959978413,-0.0950391168499776, ,0.003177057297894125, ,0.030698384189589863,0.01576007930596773,-0.09379511112597722,0.1516692352809052,0.14818906258387615,0.03478061112394376, ,0.09994145167404998, ,0.21202899753437207, ,0.0013106537530050081, ,0.17406267625214622,-0.23249287317852887,0.10287357440000001,1.6118865955655386,0.17380162770164026,-1.3404407638047395, ,0.18110103350853202,0.07561509287527553,0.09893671751552796,0.029897415951096244,0.3314885111782295,-0.22091054285288042, ,0.8703970909118652
0.014667524773143197,0.022236521307182438,-0.09248966390569269, ,0.016715572778881926,0.021949836618945045,-0.09540261406260427, ,0.0035723895869475583, ,0.030698384189589863,0.01576007930596773,-0.09379511112597722,0.1516692352809052,0.14818906258387615,0.03478061112394376, ,0.09994145167404998, ,0.21202899753437207, ,0.001367197148853572, ,0.17406267625214622,-0.23249287317852887,0.10287357440000001,1.6118865955655386,0.17380162770164026,-1.3404407638047395, ,0.18110103350853202,0.07561509287527553,0.09893671751552796,0.029897415951096244,0.3314885111782295,-0.22091054285288042, ,0.8756811618804932
0.015449149104441857,0.022597660044142886,-0.09473699998754832, ,0.01689157227962348,0.021966650072107265,-0.09576107942036591, ,0.0018781631680526106, ,0.037682815254492956,0.014666097112471858,-0.10233159928407083,-0.1646199149349943,-0.1569617472696668,-0.0824811275270786, ,0.11003111006461921, ,0.2274323746821705, ,0.0013796597346876947, ,0.17825612020285014,-0.23053902176135008,0.10524059994000001,1.613983495000384,0.17626108469741816,-1.3395875301663551, ,0.19978303485993848,0.10462727845476381,0.10762710486486488,0.07343624687081352,0.026672947643999124,0.07438160997214413, ,0.8809480667114258
0.015449149104441857,0.022597660044142886,-0.09473699998754832, ,0.0170665558808137,0.02198166019949897,-0.09611455566298203, ,0.002212039811525669, ,0.037682815254492956,0.014666097112471858,-0.10233159928407083,-0.1646199149349943,-0.1569617472696668,-0.0824811275270786, ,0.11003111006461921, ,0.2274323746821705, ,0.0013994783079457418, ,0.17825612020285014,-0.23053902176135008,0.10524059994000001,1.613983495000384,0.17626108469741816,-1.3395875301663551, ,0.19978303485993848,0.10462727845476381,0.10762710486486488,0.07343624687081352,0.026672947643999124,0.07438160997214413, ,0.8862490653991699
0.01580870402135647,0.022707553653253023,-0.09564264557600519, ,0.01724052665121493,0.02199490264976288,-0.09646308532332099, ,0.00179752854640084, ,0.03283970111171759,0.006831690587805443,-0.07373965709847588,0.16982124756834294,0.07137594312920198,0.09352952622951322, ,0.08101021537062632, ,0.18420532331314055, ,0.0014087352902353953, ,0.18046482180487836,-0.22942694822746174,0.10619596567000002,1.6135641151134148,0.17858390519343065,-1.3412365983087726, ,0.22594509894873996,0.1120388920406975,0.07808240941176472,-0.04331710424179141,0.3158963892977859,-0.28720976073319127, ,0.8915259838104248
0.01580870402135647,0.022707553653253023,-0.09564264557600519, ,0.017413487748735246,0.022006412840655926,-0.09680671072792164, ,0.0021028497161364916, ,0.03283970111171759,0.006831690587805443,-0.07373965709847588,0.16982124756834294,0.07137594312920198,0.09352952622951322, ,0.08101021537062632, ,0.18420532331314055, ,0.0014245106180967838, ,0.18046482180487836,-0.22942694822746174,0.10619596567000002,1.6135641151134148,0.17858390519343065,-1.3412365983087726, ,0.22594509894873996,0.1120388920406975,0.07808240941176472,-0.04331710424179141,0.3158963892977859,-0.28720976073319127, ,0.8968381881713867
0.016007937492427158,0.0227347253975129,-0.09604929578199485, ,0.01758544241971973,0.022016225959554974,-0.09714547399751403, ,0.0020509436652811804, ,0.032337592432420924,0.0018923255358037413,-0.05895687911478159,0.13628427019496425,0.038462447375252944,0.13058636012850355, ,0.06726971365491154, ,0.1416052606547855, ,0.001438431352478659, ,0.18191669558523255,-0.22870101133728463,0.10662763024000001,1.6133544251699303,0.18063345268991227,-1.3430712243445002, ,0.24584699885614195,0.1251938542987741,0.06271185637795276,-0.08588928662522347,0.3121958551725051,-0.27427883901352756, ,0.9022049903869629
0.016007937492427158,0.0227347253975129,-0.09604929578199485, ,0.01775639399824101,0.022024376963961804,-0.09747941704753807, ,0.0023678981996551737, ,0.032337592432420924,0.0018923255358037413,-0.05895687911478159,0.13628427019496425,0.038462447375252944,0.13058636012850355, ,0.06726971365491154, ,0.1416052606547855, ,0.0014586371535042356, ,0.18191669558523255,-0.22870101133728463,0.10662763024000001,1.6133544251699303,0.18063345268991227,-1.3430712243445002, ,0.24584699885614195,0.1251938542987741,0.06271185637795276,-0.08588928662522347,0.3121958551725051,-0.27427883901352756, ,0.9075651168823242
0.016452850013121717,0.02270536087810186,-0.09666899674852546, ,0.017926345905390124,0.022030900582009023,-0.0978085815886654, ,0.001981095768360097, ,0.0330377076456325,-0.006372858112942468,-0.03101641206645141,-0.14606700469751102,-0.22828650768123177,-0.04876771600847329, ,0.04576156973358643, ,0.271017104156878, ,0.0014697532942458498, ,0.18542281631013047,-0.2268630009132192,0.10729133072000001,1.6135641151134148,0.18268300018639388,-1.3445791354196654, ,0.2766674681004979,0.14313264186798005,0.03381913273885351,0.0334199013791517,0.04197576000889994,0.011416427929043307, ,0.9133210182189941
0.016452850013121717,0.02270536087810186,-0.09666899674852546, ,0.018095301648566813,0.022035831312965694,-0.09813300912731701, ,0.0022998368330432914, ,0.0330377076456325,-0.006372858112942468,-0.03101641206645141,-0.14606700469751102,-0.22828650768123177,-0.04876771600847329, ,0.04576156973358643, ,0.271017104156878, ,0.0014870467013041297, ,0.18542281631013047,-0.2268630009132192,0.10729133072000001,1.6135641151134148,0.18268300018639388,-1.3445791354196654, ,0.2766674681004979,0.14313264186798005,0.03381913273885351,0.0334199013791517,0.04197576000889994,0.011416427929043307, ,0.9188652038574219
0.016452850013121717,0.02270536087810186,-0.09666899674852546, ,0.01826326482076984,0.02203920342774283,-0.09845274096618413, ,0.002627377201402794, ,0.0330377076456325,-0.006372858112942468,-0.03101641206645141,-0.14606700469751102,-0.22828650768123177,-0.04876771600847329, ,0.04576156973358643, ,0.271017104156878, ,0.0015103187523265514, ,0.18542281631013047,-0.2268630009132192,0.10729133072000001,1.6135641151134148,0.18268300018639388,-1.3445791354196654, ,0.2766674681004979,0.14313264186798005,0.03381913273885351,0.0334199013791517,0.04197576000889994,0.011416427929043307, ,0.9242310523986816
0.01710984646876261,0.02256654851318422,-0.09726116532641454, ,0.018430239099886468,0.022041050969398727,-0.09876781820474574, ,0.0020711318800681064, ,0.03248402385886891,-0.005501779558449427,-0.041336193515818874,0.08406959396617697,-0.010122857191427968,0.05961418544690603, ,0.0528598361589455, ,0.0846761370316466, ,0.0015215350148813824, ,0.18780141803539163,-0.22568914551633706,0.10752207034000001,1.6137738050568995,0.18295627318592475,-1.3446386137467772, ,0.2688298627718719,0.12703740503142005,0.024772646220839814,0.023036676094051543,0.0051151196941079755,0.03422137699162607, ,0.9298651218414307
0.01710984646876261,0.02256654851318422,-0.09726116532641454, ,0.018596228247982356,0.022041407753644528,-0.09907828173978799, ,0.0024056216807049145, ,0.03248402385886891,-0.005501779558449427,-0.041336193515818874,0.08406959396617697,-0.010122857191427968,0.05961418544690603, ,0.0528598361589455, ,0.0846761370316466, ,0.001538870047544589, ,0.19109130223981127,-0.22396697608538502,0.10794206830000001,1.613983495000384,0.18527909368193726,-1.3466143968497568, ,0.268070456379861,0.15506036202364507,0.044369948523676886,-0.028706531888550255,0.27146148894385325,-0.24155788853696036, ,0.9352200031280518
0.017426744677391564,0.022523128729279522,-0.09770296654467969, ,0.01876123611059156,0.022040307369350583,-0.09938417226592368, ,0.0022000992086793096, ,0.03415366782749283,-0.003436311130107098,-0.05140398931935289,0.02760711643993887,-0.06767761289543331,-0.0017686214608103438, ,0.06181141786270367, ,0.07308935118427835, ,0.001551585992951026, ,0.19357802222531156,-0.22247648864065966,0.10841391786000001,1.6137738050568995,0.1874652776781843,-1.348315404568759, ,0.25509930526470637,0.15659561313279005,0.05473818391752577,0.014957706649552495,0.18895753874526044,-0.1785179167008117, ,0.9404730796813965
0.017426744677391564,0.022523128729279522,-0.09770296654467969, ,0.01892526661600479,0.02203778317905073,-0.09968553027610838, ,0.0025321309707059918, ,0.03415366782749283,-0.003436311130107098,-0.05140398931935289,0.02760711643993887,-0.06767761289543331,-0.0017686214608103438, ,0.06181141786270367, ,0.07308935118427835, ,0.0015700868415879123, ,0.19357802222531156,-0.22247648864065966,0.10841391786000001,1.6137738050568995,0.1874652776781843,-1.348315404568759, ,0.25509930526470637,0.15659561313279005,0.05473818391752577,0.014957706649552495,0.18895753874526044,-0.1785179167008117, ,0.9457600116729736
0.017741867677889826,0.022505239856833236,-0.09823087912352467, ,0.019088323774559823,0.022033868319449333,-0.09998239606216128, ,0.0022589702815323676, ,0.0378296599730319,-0.0007895863841229084,-0.06774996434338344,-0.029814198131158813,-0.059059796152577095,0.009347996252349527, ,0.07760002763442118, ,0.06614770240074337, ,0.0015828439423276244, ,0.19581761475883666,-0.22105550579180236,0.10897391514000002,1.613983495000384,0.18924155217513502,-1.3496004798365313, ,0.2578721238001923,0.16561420865352666,0.07175140324324325,0.004174734533277802,0.203039023205371,-0.1318981692885811, ,0.9524760246276855
0.017741867677889826,0.022505239856833236,-0.09823087912352467, ,0.01925041167792954,0.02202859570192575,-0.10027480971528085, ,0.002584675398261856, ,0.0378296599730319,-0.0007895863841229084,-0.06774996434338344,-0.029814198131158813,-0.059059796152577095,0.009347996252349527, ,0.07760002763442118, ,0.06614770240074337, ,0.0016010590597082468, ,0.19581761475883666,-0.22105550579180236,0.10897391514000002,1.613983495000384,0.18924155217513502,-1.3496004798365313, ,0.2578721238001923,0.16561420865352666,0.07175140324324325,0.004174734533277802,0.203039023205371,-0.1318981692885811, ,0.9579141139984131
0.018139422247709855,0.022524303029338767,-0.09900440428556426, ,0.01941153449841147,0.022021998013040618,-0.10056281112656483, ,0.002908473283003617, ,0.041198352864985854,0.003365047814509683,-0.08303874600318639,-0.04318052235137717,-0.05902581244213622,-0.02777411752194943, ,0.09131177393004065, ,0.07310715287617052, ,0.0016244057422670926, ,0.19836611660733075,-0.21944917735396366,0.10979317042000002,1.6146125648308374,0.1911544631718512,-1.3507519367875784, ,0.25578690447027164,0.15763611554563253,0.08800448353591162,0.04146515914557622,0.1925972385358618,-0.10337294786152723, ,0.9638011455535889
0.018139422247709855,0.022524303029338767,-0.09900440428556426, ,0.019571696488216224,0.02201410771504132,-0.10084643998752567, ,0.002388473212336625, ,0.041198352864985854,0.003365047814509683,-0.08303874600318639,-0.04318052235137717,-0.05902581244213622,-0.02777411752194943, ,0.09275807869594717, ,0.07310715287617052, ,0.0016378104347244528, ,0.19836611660733075,-0.21944917735396366,0.10979317042000002,1.6146125648308374,0.1911544631718512,-1.3507519367875784, ,0.25578690447027164,0.15763611554563253,0.08800448353591162,0.04146515914557622,0.1925972385358618,-0.10337294786152723, ,0.9690251350402832
0.01869525399573683,0.022556934817978047,-0.10006381467257298, ,0.01973090197875637,0.022004957046367613,-0.10112573579061054, ,0.0015826947482122395, ,0.04177734035631593,0.0015187521050384711,-0.07497065910130361,-0.04838466582095178,-0.09694108776284162,-0.0449731438013592, ,0.08583852574041508, ,0.10833412193101744, ,0.0016368601642673458, ,0.20187223733222867,-0.21735631674504882,0.11091964643,1.614822254774322,0.19347728366786368,-1.3519926112292933, ,0.2688298627718719,0.15556875665323078,0.08004427899497489,0.05259464372186274,0.1646430669609153,-0.09374113754160762, ,0.9743030071258545
0.019116402347128154,0.02255839454212487,-0.10078620093179125, ,0.019889155379934662,0.021994578022157124,-0.10140073782971687, ,0.0018785657319090679, ,0.038990913775379714,-0.001476017162804455,-0.06386562159906009,-0.04633005185250616,-0.08795012246957044,0.02160873001551666, ,0.08583852574041508, ,0.09940138444953436, ,0.0016409568688036463, ,0.20463697570120107,-0.2157422655743359,0.11169223527000001,1.6150319447178065,0.19525355816481438,-1.352787614056222, ,0.26142408142829415,0.1568544488569765,0.06836399793991417,-0.014083781917890958,0.18094950817046343,-0.11007773719842599, ,0.9802050590515137
0.019116402347128154,0.02255839454212487,-0.10078620093179125, ,0.02004646117943287,0.02198300243475144,-0.10167148520071113, ,0.0014070585437616526, ,0.038990913775379714,-0.001476017162804455,-0.06386562159906009,-0.04633005185250616,-0.08795012246957044,0.02160873001551666, ,0.07484175042005846, ,0.09940138444953436, ,0.0016370585633862795, ,0.20463697570120107,-0.2157422655743359,0.11169223527000001,1.6150319447178065,0.19525355816481438,-1.352787614056222, ,0.26142408142829415,0.1568544488569765,0.06836399793991417,-0.014083781917890958,0.18094950817046343,-0.11007773719842599, ,0.9854559898376465
0.019116402347128154,0.02255839454212487,-0.10078620093179125, ,0.02020282394199973,0.02197026185420109,-0.10193801680194535, ,0.0016890505436921062, ,0.038990913775379714,-0.001476017162804455,-0.06386562159906009,-0.04633005185250616,-0.08795012246957044,0.02160873001551666, ,0.07484175042005846, ,0.09940138444953436, ,0.0016379108909322768, ,0.20463697570120107,-0.2157422655743359,0.11169223527000001,1.6150319447178065,0.19525355816481438,-1.352787614056222, ,0.26142408142829415,0.1568544488569765,0.06836399793991417,-0.014083781917890958,0.18094950817046343,-0.11007773719842599, ,0.990725040435791
0.019116402347128154,0.02255839454212487,-0.10078620093179125, ,0.020358248308739616,0.021956387628771997,-0.10220037133477418, ,0.0019759735941475166, ,0.038990913775379714,-0.001476017162804455,-0.06386562159906009,-0.04633005185250616,-0.08795012246957044,0.02160873001551666, ,0.07484175042005846, ,0.09940138444953436, ,0.0016433635151776838, ,0.20463697570120107,-0.2157422655743359,0.11169223527000001,1.6150319447178065,0.19525355816481438,-1.352787614056222, ,0.26142408142829415,0.1568544488569765,0.06836399793991417,-0.014083781917890958,0.18094950817046343,-0.11007773719842599, ,0.9961800575256348
0.019399000916512237,0.022531635082103815,-0.1012152859017086, ,0.020512738996399934,0.021941410885449923,-0.10245858730407259, ,0.0017704732390036097, ,0.03571891962208815,-0.004686177726957404,-0.05147527949016616,-0.0102165954662312,-0.0486352443791125,0.013922542097481448, ,0.06282918015738027, ,0.04969310228017132, ,0.0016453811298415871, ,0.2066062725841283,-0.21452979651308265,0.11215241822000001,1.614822254774322,0.19675655966223426,-1.353931532256742, ,0.25509930526470637,0.15975916087284645,0.055308373333333334,0.0,0.21159635953192985,-0.14626418876586952, ,1.0033609867095947
0.019399000916512237,0.022531635082103815,-0.1012152859017086, ,0.020666300796660157,0.021925362530447634,-0.10271270301875272, ,0.002053259217812346, ,0.03571891962208815,-0.004686177726957404,-0.05147527949016616,-0.0102165954662312,-0.0486352443791125,0.013922542097481448, ,0.06282918015738027, ,0.04969310228017132, ,0.0016517542249661302, ,0.2066062725841283,-0.21452979651308265,0.11215241822000001,1.614822254774322,0.19675655966223426,-1.353931532256742, ,0.25509930526470637,0.15975916087284645,0.055308373333333334,0.0,0.21159635953192985,-0.14626418876586952, ,1.0087511539459229
0.01981357865510775,0.022451943419544665,-0.10174149049789714, ,0.02081893857541948,0.021908273249709762,-0.10296275659228064, ,0.0016726675390609598, ,0.028647713745229807,-0.007233181267358927,-0.031728356209856964,-0.04859979679732924,-0.05006839755897888,0.00759062026443939, ,0.043355495636132106, ,0.06977644680444983, ,0.001652075968259897, ,0.20970308846669233,-0.2125913905616523,0.11272148953000001,1.614822254774322,0.19935265315777762,-1.3556400787262715, ,0.22172182607119342,0.14017273494604252,0.034552736485900216,0.0015800734165931447,0.17547065890400157,-0.08832823397138259, ,1.014742136001587
0.020278718786721012,0.022314803154362437,-0.10227623229424898, ,0.020970657272084282,0.021890173509418034,-0.10320878594319294, ,0.0012364244865947594, ,0.027856606234682363,-0.007505234166885678,-0.037997647435760847,-0.04832071722519906,0.00857777883590978,-0.013045543716777727, ,0.04770891176149709, ,0.049075358299980616, ,0.001645778218537698, ,0.2132555455888356,-0.2100969478432778,0.11329833858,1.6154513246047757,0.2023586561526173,-1.3574378426864682, ,0.20190838629461869,0.15355492161564852,0.040531327022900764,0.02701969594513163,0.20974994022525542,-0.09626268144726262, ,1.0200650691986084
0.020278718786721012,0.022314803154362437,-0.10227623229424898, ,0.02112146189885661,0.021871093556497672,-0.10345082879561454, ,0.001512207360552618, ,0.027856606234682363,-0.007505234166885678,-0.037997647435760847,-0.04832071722519906,0.00857777883590978,-0.013045543716777727, ,0.04770891176149709, ,0.049075358299980616, ,0.0016437846236423983, ,0.2132555455888356,-0.2100969478432778,0.11329833858,1.6154513246047757,0.2023586561526173,-1.3574378426864682, ,0.20190838629461869,0.15355492161564852,0.040531327022900764,0.02701969594513163,0.20974994022525542,-0.09626268144726262, ,1.025407075881958
0.020542544685013545,0.022257669121818008,-0.10265435167773984, ,0.02127135754002175,0.021851063419122903,-0.10368892267977443, ,0.001329222905813864, ,0.025400414708642165,-0.00447476553765394,-0.03783069524026289,-0.016297730881855724,0.01079159098314654,-0.055459452952872856, ,0.04578609064278834, ,0.019544743081850065, ,0.0016391587160272726, ,0.21511672421152372,-0.20873774685741428,0.11370278106000001,1.6158707044917449,0.20427156714933348,-1.3583442634170937, ,0.17476416493272703,0.124210656490145,0.040531327022900764,0.06969039940607381,0.17519310407125352,-0.0905280106269447, ,1.0307650566101074
0.020542544685013545,0.022257669121818008,-0.10265435167773984, ,0.021420349351235896,0.021830112907222185,-0.10392310493252305, ,0.0016009622638289201, ,0.025400414708642165,-0.00447476553765394,-0.03783069524026289,-0.016297730881855724,0.01079159098314654,-0.055459452952872856, ,0.04578609064278834, ,0.019544743081850065, ,0.0016386051442562818, ,0.21511672421152372,-0.20873774685741428,0.11370278106000001,1.6158707044917449,0.20427156714933348,-1.3583442634170937, ,0.17476416493272703,0.124210656490145,0.040531327022900764,0.06969039940607381,0.17519310407125352,-0.0905280106269447, ,1.036113977432251
0.020816519605728567,0.022204556191767928,-0.10309385722928524, ,0.021568442558814096,0.021808271612984324,-0.1041534126978483, ,0.0013583399374679495, ,0.0254337364179746,-0.0050017832735103655,-0.045130721630521335,-0.032595696435762406,0.04384431518707818,0.030728985496240407, ,0.05204493077126515, ,0.05463164079919645, ,0.0016346013555878771, ,0.21693156643696648,-0.20730904127568273,0.11416944546,1.616080394435229,0.20618447814604965,-1.3593323628878595, ,0.1619401733079706,0.1403800910628266,0.047548691104477625,-0.015958035522997637,0.21399793031320988,-0.10786792299648923, ,1.041383981704712
0.020816519605728567,0.022204556191767928,-0.10309385722928524, ,0.021715642459017772,0.021785568911364142,-0.1043798829273931, ,0.001624141109214618, ,0.0254337364179746,-0.0050017832735103655,-0.045130721630521335,-0.032595696435762406,0.04384431518707818,0.030728985496240407, ,0.05204493077126515, ,0.05463164079919645, ,0.0016344540281741694, ,0.21693156643696648,-0.20730904127568273,0.11416944546,1.616080394435229,0.20618447814604965,-1.3593323628878595, ,0.1619401733079706,0.1403800910628266,0.047548691104477625,-0.015958035522997637,0.21399793031320988,-0.10786792299648923, ,1.046658992767334
0.02106803797392962,0.022158552721522024,-0.10356323137881415, ,0.021861954417342316,0.021762033960587818,-0.104602552380971, ,0.0013666450133147936, ,0.025183132780141455,-0.004145369155314761,-0.04621575457928536,-0.007265605735624069,0.023509439483731805,0.022181658916407106, ,0.052794604207142284, ,0.024602274953500564, ,0.0016307344585233447, ,0.21850700394330827,-0.2059112266254481,0.11466333195000002,1.616080394435229,0.20864393514182755,-1.3609294914536925, ,0.15330685227539706,0.13328222128998704,0.04871196183486239,-0.012588347879486355,0.18357822565947526,-0.12553584394315653, ,1.0520730018615723
0.02106803797392962,0.022158552721522024,-0.10356323137881415, ,0.022007383867804542,0.02173769570265852,-0.10482145762708318, ,0.0016256151544875304, ,0.025183132780141455,-0.004145369155314761,-0.04621575457928536,-0.007265605735624069,0.023509439483731805,0.022181658916407106, ,0.052794604207142284, ,0.024602274953500564, ,0.0016306643310707992, ,0.21850700394330827,-0.2059112266254481,0.11466333195000002,1.616080394435229,0.20864393514182755,-1.3609294914536925, ,0.15330685227539706,0.13328222128998704,0.04871196183486239,-0.012588347879486355,0.18357822565947526,-0.12553584394315653, ,1.0574309825897217
0.021302445549665188,0.022124969220846925,-0.10397550009800019, ,0.02215193631223049,0.02171258286386241,-0.10503663504343483, ,0.0014204592340272598, ,0.026540260659322967,-0.0030551024273349887,-0.04653438710289912,-0.0704118351983159,-0.026598423375262935,0.012149936414424875, ,0.053657881711345806, ,0.07526675530660873, ,0.001627823721651292, ,0.21993570952503982,-0.20475281669431442,0.11510018168000001,1.616080394435229,0.21001030013948196,-1.3615535980498132, ,0.16002856923856792,0.12340304493949386,0.04946835875776398,-0.010415349504693378,0.1386332876250847,-0.05226305063872527, ,1.0627691745758057
0.021302445549665188,0.022124969220846925,-0.10397550009800019, ,0.022295617319542785,0.0216867239552743,-0.10524812081745182, ,0.001672726090206102, ,0.026540260659322967,-0.0030551024273349887,-0.04653438710289912,-0.0704118351983159,-0.026598423375262935,0.012149936414424875, ,0.053657881711345806, ,0.07526675530660873, ,0.0016284224198986894, ,0.21993570952503982,-0.20475281669431442,0.11510018168000001,1.616080394435229,0.21001030013948196,-1.3615535980498132, ,0.16002856923856792,0.12340304493949386,0.04946835875776398,-0.010415349504693378,0.1386332876250847,-0.05226305063872527, ,1.0681180953979492
0.021626257284744425,0.022088817212488624,-0.10453470600110341, ,0.022438432525047836,0.021660147273262688,-0.1054559509467967, ,0.0013007992880238299, ,0.02456026555585704,-0.003132330443464827,-0.04326382795909839,-0.0016361480920052184,0.017988294504234493,0.018728421230138813, ,0.04984753702898206, ,0.018058353904744577, ,0.0016241115892161255, ,0.22191272914084129,-0.20327777471533753,0.11569647508000001,1.616080394435229,0.21192321113619814,-1.3627050550008604, ,0.1496797185464839,0.11629527151773382,0.04603702751445087,-0.008298336641326901,0.17318325598204487,-0.11363768035513273, ,1.073477029800415
0.021626257284744425,0.022088817212488624,-0.10453470600110341, ,0.022580387629723704,0.021632880899996147,-0.10566016123988545, ,0.0015443095967976883, ,0.02456026555585704,-0.003132330443464827,-0.04326382795909839,-0.0016361480920052184,0.017988294504234493,0.018728421230138813, ,0.04984753702898206, ,0.018058353904744577, ,0.0016230751997041977, ,0.22191272914084129,-0.20327777471533753,0.11569647508000001,1.616080394435229,0.21192321113619814,-1.3627050550008604, ,0.1496797185464839,0.11629527151773382,0.04603702751445087,-0.008298336641326901,0.17318325598204487,-0.11363768035513273, ,1.0787880420684814
0.021866172482197414,0.02206118071166069,-0.10496431959549882, ,0.022721488399507314,0.021604952703948663,-0.10586078731640373, ,0.0013203649828926153, ,0.025759178194211245,-0.0020450462597070484,-0.04722078334580926,0.04459023200307887,0.05691316453011818,0.027338896338343223, ,0.0538286155797948, ,0.07229911689851475, ,0.0016191942994886648, ,0.22337232565406973,-0.202157978448575,0.11615406545000001,1.616080394435229,0.21383612213291428,-1.364101548172329, ,0.1548074087413879,0.11337746900653618,0.05040763139240506,-0.007198646732423392,0.21793734542026638,-0.1567780489950657, ,1.0846951007843018
0.021866172482197414,0.02206118071166069,-0.10496431959549882, ,0.022861740664581603,0.02157639034040526,-0.10605786460782328, ,0.0015562835229537848, ,0.025759178194211245,-0.0020450462597070484,-0.04722078334580926,0.04459023200307887,0.05691316453011818,0.027338896338343223, ,0.0538286155797948, ,0.07229911689851475, ,0.0016183979605451852, ,0.22337232565406973,-0.202157978448575,0.11615406545000001,1.616080394435229,0.21383612213291428,-1.364101548172329, ,0.1548074087413879,0.11337746900653618,0.05040763139240506,-0.007198646732423392,0.21793734542026638,-0.1567780489950657, ,1.090013027191162
0.022141533287087477,0.022046130364243115,-0.10547328410886969, ,0.023001150318662886,0.02154722125196746,-0.10625142835791784, ,0.0012622837302337826, ,0.024524329818406968,-0.0007213267314803793,-0.04637048739472276,0.038824243180059885,0.0552227267800701,0.019878212850351278, ,0.05246127301657572, ,0.06750301489315108, ,0.0016139465326662928, ,0.2250095450234053,-0.20100729125031555,0.11669850725000001,1.6158707044917449,0.21615894262892676,-1.3657506163147466, ,0.1424879002379441,0.09864546939549977,0.04962246579439253,0.0,0.20202013104532934,-0.13510129377761884, ,1.0953822135925293
0.0222443782792628,0.02204232042448164,-0.10566205754386868, ,0.023139723318288518,0.02151747266905951,-0.10644151362327983, ,0.0012979444075193003, ,0.02475483485544979,-0.000907665138592694,-0.04485034934755987,0.01918114647152142,0.018458124950127493,0.012650587133086349, ,0.05123650594373676, ,0.026616485051139498, ,0.0016100452718620089, ,0.2256041954547206,-0.20059798640798163,0.11690072849000001,1.6158707044917449,0.216842125127754,-1.3662260270930882, ,0.14422027592472764,0.09723047290826925,0.04812329764350454,0.0,0.16620554562466142,-0.11405028015768999, ,1.1013951301574707
0.0222443782792628,0.02204232042448164,-0.10566205754386868, ,0.023277465682104075,0.021487171610433568,-0.10662815527383722, ,0.0015194751105229358, ,0.02475483485544979,-0.000907665138592694,-0.04485034934755987,0.01918114647152142,0.018458124950127493,0.012650587133086349, ,0.05123650594373676, ,0.026616485051139498, ,0.0016089407576993374, ,0.2256041954547206,-0.20059798640798163,0.11690072849000001,1.6158707044917449,0.216842125127754,-1.3662260270930882, ,0.14422027592472764,0.09723047290826925,0.04812329764350454,0.0,0.16620554562466142,-0.11405028015768999, ,1.1067039966583252
0.0226399270068027,0.02201280534818045,-0.10636849013878105, ,0.023414383490150126,0.021456344883675472,-0.10681138799336803, ,0.0010514702101123486, ,0.02133542991591049,-0.0031395812249278105,-0.03650909551332833,-0.034395972100225325,-0.011628132081255191,0.00020273932686840892, ,0.0424024951525966, ,0.036307457748696675, ,0.0016022242450778072, ,0.2278746789197426,-0.19893759884002338,0.11765646556,1.616080394435229,0.21902830912400104,-1.3675186411113873, ,0.12470031742243204,0.09968166130091469,0.03894574943765281,0.0009433161083888908,0.11529918052287563,-0.062558396829485, ,1.1120572090148926
0.0226399270068027,0.02201280534818045,-0.10636849013878105, ,0.023550482883149912,0.02142501908571016,-0.10699124628001848, ,0.0012499719619848105, ,0.02133542991591049,-0.0031395812249278105,-0.03650909551332833,-0.034395972100225325,-0.011628132081255191,0.00020273932686840892, ,0.0424024951525966, ,0.036307457748696675, ,0.0015980307655171764, ,0.2278746789197426,-0.19893759884002338,0.11765646556,1.616080394435229,0.21902830912400104,-1.3675186411113873, ,0.12470031742243204,0.09968166130091469,0.03894574943765281,0.0009433161083888908,0.11529918052287563,-0.062558396829485, ,1.1174161434173584
0.02284335542094938,0.021970445851302353,-0.10669843618258588, ,0.023685770061796556,0.02139322060330781,-0.10716776444681787, ,0.0011238863081482265, ,0.020087450040278697,-0.004957792856544686,-0.03025796799979006,0.027817176181701982,0.05699339939413434,0.014769623616753044, ,0.036655558740870633, ,0.06341937797179795, ,0.0015924525954304828, ,0.22914120711111544,-0.1979104753677515,0.11800905644000001,1.616080394435229,0.22066794712118631,-1.3686922984754633, ,0.1319846196918926,0.10405366398955129,0.0325077786122449,0.0010083724113384954,0.1927717195875725,-0.12902981346828463, ,1.1227381229400635
0.02284335542094938,0.021970445851302353,-0.10669843618258588, ,0.0238202512860402,0.02136097561358926,-0.10734097662219545, ,0.001318574123219189, ,0.020087450040278697,-0.004957792856544686,-0.03025796799979006,0.027817176181701982,0.05699339939413434,0.014769623616753044, ,0.036655558740870633, ,0.06341937797179795, ,0.0015892679620326772, ,0.22914120711111544,-0.1979104753677515,0.11800905644000001,1.616080394435229,0.22066794712118631,-1.3686922984754633, ,0.1319846196918926,0.10405366398955129,0.0325077786122449,0.0010083724113384954,0.1927717195875725,-0.12902981346828463, ,1.1280431747436523
0.0230267052134139,0.02192015858238718,-0.10696563007499563, ,0.023953932874374854,0.021328310084531125,-0.10751091675049647, ,0.0012277513340022694, ,0.018780018340535696,-0.005885863804629948,-0.025330331453383984,0.038404443510811015,0.08498616393115675,0.021023965231557466, ,0.03207737790306128, ,0.09326059678679043, ,0.0015851125984920977, ,0.23038456710386557,-0.196929688292725,0.11829683282000002,1.6162900843787136,0.22271749461766793,-1.3702002095506285, ,0.13216844228199273,0.1027023177039727,0.02775054271777004,0.00039754469359163833,0.22150254737700953,-0.13966469998881972, ,1.1334052085876465
0.0230267052134139,0.02192015858238718,-0.10696563007499563, ,0.024086821203126156,0.021295249775472407,-0.10767761859249812, ,0.0014217188813751623, ,0.018780018340535696,-0.005885863804629948,-0.025330331453383984,0.038404443510811015,0.08498616393115675,0.021023965231557466, ,0.03207737790306128, ,0.09326059678679043, ,0.001583255851706678, ,0.23038456710386557,-0.196929688292725,0.11829683282000002,1.6162900843787136,0.22271749461766793,-1.3702002095506285, ,0.13216844228199273,0.1027023177039727,0.02775054271777004,0.00039754469359163833,0.22150254737700953,-0.13966469998881972, ,1.1388351917266846
0.023214444398195252,0.02185630972162578,-0.10719648954934309, ,0.02421892270573795,0.02126182023761931,-0.10784111572592571, ,0.0013333931619944849, ,0.018659651043728697,-0.006969821276152642,-0.020387412868044547,0.026894063971887705,0.045993937357340586,0.005299994715949034, ,0.028502764587796457, ,0.0532797281185135, ,0.0015804484057548556, ,0.23173604535685485,-0.1958948420875789,0.11854831308000001,1.6164997743221983,0.22476704211414955,-1.371463084405372, ,0.13793160110242844,0.10348630486201829,0.022403391729957808,0.008790999195169515,0.18600072999009598,-0.1256696968806505, ,1.1445469856262207
0.023214444398195252,0.02185630972162578,-0.10719648954934309, ,0.024350243872059845,0.02122804681455145,-0.10800144154596941, ,0.001527318710063252, ,0.018659651043728697,-0.006969821276152642,-0.020387412868044547,0.026894063971887705,0.045993937357340586,0.005299994715949034, ,0.028502764587796457, ,0.0532797281185135, ,0.0015798580758027267, ,0.23173604535685485,-0.1958948420875789,0.11854831308000001,1.6164997743221983,0.22476704211414955,-1.371463084405372, ,0.13793160110242844,0.10348630486201829,0.022403391729957808,0.008790999195169515,0.18600072999009598,-0.1256696968806505, ,1.1501080989837646
0.02341236181414154,0.021785372366951772,-0.10740514052726881, ,0.024480791247634186,0.021193954642727213,-0.10815862926579961, ,0.0014349430852731114, ,0.01911944198956652,-0.006662513008217122,-0.020984965429470707,-0.0246590869474727,0.016768503833197272,0.023905613204536148, ,0.029160091146173437, ,0.029820282030603655, ,0.0015782656033793245, ,0.2331956418700833,-0.19483682768381017,0.11877905270000001,1.6167094642656827,0.22654331661110025,-1.3723397659724417, ,0.1381323749031598,0.10106170560007538,0.02311873950653121,-0.015769402867572307,0.16120108731215715,-0.07724890302689455, ,1.1556830406188965
6.89834307756676e-310,0.0217195635502122,-0.10763084385675196, ,0.024610571432982644,0.02115956865198898,-0.10831271191708335, ,0.0016281960594334056, ,0.020994712986815586,-0.00601042335866676,-0.025414442537085417,-0.04960380267689329,0.00022627965812896337,0.020883139665616144, ,0.029160091146173437, ,0.029820282030603655, ,0.0015788083257277383, ,0.2345857337874437,-0.1938405951430352,0.11901886635000002,1.6167094642656827,0.2280463181085201,-1.3730752904722587, ,0.1437832447855618,0.1027023177039727,0.027606259133448878,-0.015769402867572307,0.15002852707017172,-0.05390388359813408, ,1.1617841720581055
0.023614948078147905,0.0217195635502122,-0.10763084385675196, ,0.024739591082894415,0.02112491356606992,-0.10846372235050042, ,0.0015205647230928277, ,0.020994712986815586,-0.00601042335866676,-0.025414442537085417,-0.04960380267689329,0.00022627965812896337,0.020883139665616144, ,0.033508163957757915, ,0.04960421191917325, ,0.001578182050430589, ,0.2345857337874437,-0.1938405951430352,0.11901886635000002,1.6167094642656827,0.2280463181085201,-1.3730752904722587, ,0.1437832447855618,0.1027023177039727,0.027606259133448878,-0.015769402867572307,0.15002852707017172,-0.05390388359813408, ,1.1670911312103271
0.02380168255356945,0.02167277112423343,-0.10786912843512453, ,0.024867856905712287,0.021090013903098496,-0.10861169323625944, ,0.0014239860293684902, ,0.02251938203862205,-0.004592263540330569,-0.030393949493289794,0.016177869856440496,0.045101908790108364,0.03188873085695179, ,0.038105165235515166, ,0.047915339001731796, ,0.0015765416672278007, ,0.23590632110893608,-0.19292158993100247,0.11928979096000002,1.6167094642656827,0.22968595610570539,-1.374003911615913, ,0.15015338854188412,0.09926458322015773,0.033393734842767295,-0.015769402867572307,0.2022650967613115,-0.11633886328480365, ,1.1724321842193604
0.02380168255356945,0.02167277112423343,-0.10786912843512453, ,0.024995375662620018,0.021054893976104484,-0.10875665706461415, ,0.0016107086877950674, ,0.02251938203862205,-0.004592263540330569,-0.030393949493289794,0.016177869856440496,0.045101908790108364,0.03188873085695179, ,0.038105165235515166, ,0.047915339001731796, ,0.001576901320075877, ,0.23590632110893608,-0.19292158993100247,0.11928979096000002,1.6167094642656827,0.22968595610570539,-1.374003911615913, ,0.15015338854188412,0.09926458322015773,0.033393734842767295,-0.015769402867572307,0.2022650967613115,-0.11633886328480365, ,1.1777100563049316
0.02407513352806503,0.021627403990017915,-0.10823423124588492, ,0.025122154166929637,0.021019577893524943,-0.1088986461463793, ,0.001380996720410763, ,0.0257496989160782,-0.0038367068720612358,-0.034457127755420154,-0.09228942738496482,-0.08330487652269267,0.005361106994733694, ,0.04318635162923752, ,0.12432615286598701, ,0.0015748606471626986, ,0.2376439360056366,-0.19181723912998838,0.11969164086000002,1.6167094642656827,0.2310523211033598,-1.374628018212034, ,0.15895635101921404,0.09957706354509001,0.03792574171428572,-0.013781632405765314,0.07982715054950769,-0.007692041943495591, ,1.1830739974975586
0.02407513352806503,0.021627403990017915,-0.10823423124588492, ,0.02524819928336832,0.020984089559709318,-0.10903769261344652, ,0.0015606046557897052, ,0.0257496989160782,-0.0038367068720612358,-0.034457127755420154,-0.09228942738496482,-0.08330487652269267,0.005361106994733694, ,0.04318635162923752, ,0.12432615286598701, ,0.001574713678179472, ,0.2376439360056366,-0.19181723912998838,0.11969164086000002,1.6167094642656827,0.2310523211033598,-1.374628018212034, ,0.15895635101921404,0.09957706354509001,0.03792574171428572,-0.013781632405765314,0.07982715054950769,-0.007692041943495591, ,1.1884021759033203
0.024344270897392852,0.021591517083850233,-0.10861038418889728, ,0.02537351792736506,0.020948452675425312,-0.10917382841930079, ,0.0013380398659473916, ,0.02782036617468686,-0.003388177769131557,-0.03954188919047605,-0.00410633146423086,-0.013812837734406905,-0.0004579915946539929, ,0.04846662277733806, ,0.014406934976083523, ,0.0015722986392791443, ,0.23929660084072066,-0.1907901156577165,0.12010515737,1.6164997743221983,0.23228204960124876,-1.3754674218650207, ,0.17129411833658983,0.10474276110206487,0.04352134295081967,0.0072353874595710785,0.15916047465678457,-0.09605032721783616, ,1.193763017654419
0.024344270897392852,0.021591517083850233,-0.10861038418889728, ,0.025498117064338157,0.020912690738364454,-0.109307085339536, ,0.0015091582679100507, ,0.02782036617468686,-0.003388177769131557,-0.03954188919047605,-0.00410633146423086,-0.013812837734406905,-0.0004579915946539929, ,0.04846662277733806, ,0.014406934976083523, ,0.0015716608577501635, ,0.23929660084072066,-0.1907901156577165,0.12010515737,1.6164997743221983,0.23228204960124876,-1.3754674218650207, ,0.17129411833658983,0.10474276110206487,0.04352134295081967,0.0072353874595710785,0.15916047465678457,-0.09605032721783616, ,1.1992251873016357
0.024344270897392852,0.021591517083850233,-0.10861038418889728, ,0.025622003708982342,0.020876827043647985,-0.10943749497237196, ,0.0016815157565472807, ,0.02782036617468686,-0.003388177769131557,-0.03954188919047605,-0.00410633146423086,-0.013812837734406905,-0.0004579915946539929, ,0.04846662277733806, ,0.014406934976083523, ,0.0015727594067381349, ,0.23929660084072066,-0.1907901156577165,0.12010515737,1.6164997743221983,0.23228204960124876,-1.3754674218650207, ,0.17129411833658983,0.10474276110206487,0.04352134295081967,0.0072353874595710785,0.15916047465678457,-0.09605032721783616, ,1.2045960426330566
0.024564825636937338,0.02156466150402029,-0.10892300280722322, ,0.025745184924555194,0.02084088468433208,-0.10956508873916913, ,0.0015262291035708095, ,0.026559921674412994,-0.003623337248061024,-0.036839530192656476,0.06327764865494251,0.03302009544521877,0.008923417695704578, ,0.045559949483946836, ,0.0713745029355511, ,0.0015722987106671711, ,0.2406712472923326,-0.1899637832401745,0.12044997051000002,1.6164997743221983,0.23378505109866862,-1.3766113400655406, ,0.16855584646264793,0.1014940551427495,0.04073864838874681,0.0072353874595710785,0.2040744804099268,-0.1602738609564808, ,1.2099480628967285
0.024564825636937338,0.02156466150402029,-0.10892300280722322, ,0.025867667822164608,0.020804886551913718,-0.10968989788494557, ,0.0016919762993881072, ,0.026559921674412994,-0.003623337248061024,-0.036839530192656476,0.06327764865494251,0.03302009544521877,0.008923417695704578, ,0.045559949483946836, ,0.0713745029355511, ,0.0015734720203605136, ,0.2406712472923326,-0.1899637832401745,0.12044997051000002,1.6164997743221983,0.23378505109866862,-1.3766113400655406, ,0.16855584646264793,0.1014940551427495,0.04073864838874681,0.0072353874595710785,0.2040744804099268,-0.1602738609564808, ,1.215278148651123
0.025055663094284437,0.021456882650882813,-0.1094843264898893, ,0.02598945956005574,0.020768855336836367,-0.109811953478893, ,0.0012052787512789615, ,0.023415448408290924,-0.007820277861010135,-0.019992696643911775,-0.055757554691530445,-0.062333610625381744,-0.012945114017181954, ,0.0317670881429227, ,0.08363241431774006, ,0.001569897328427683, ,0.24396113149675225,-0.18794042722712767,0.12107996745,1.6167094642656827,0.23679105409350829,-1.3785724615060184, ,0.1676624409160261,0.10808307694586651,0.023018513757225436,0.007679079679046506,0.10586804448372573,-0.04736071888333255, ,1.2209441661834717
0.025055663094284437,0.021456882650882813,-0.1094843264898893, ,0.02611056734289786,0.020732813528995468,-0.10993128641489215, ,0.001355312599207989, ,0.023415448408290924,-0.007820277861010135,-0.019992696643911775,-0.055757554691530445,-0.062333610625381744,-0.012945114017181954, ,0.0317670881429227, ,0.08363241431774006, ,0.0015678340137236476, ,0.24396113149675225,-0.18794042722712767,0.12107996745,1.6167094642656827,0.23679105409350829,-1.3785724615060184, ,0.1676624409160261,0.10808307694586651,0.023018513757225436,0.007679079679046506,0.10586804448372573,-0.04736071888333255, ,1.2262091636657715
0.025269719240691352,0.021374632210254912,-0.1096517656042807, ,0.026230998421071582,0.02069678341824419,-0.11004792741202976, ,0.0012411610795468465, ,0.021922756394753714,-0.008973511266325078,-0.015625338647598727,0.010081165610437743,-0.020943292131168575,-0.007041691503278838, ,0.028377497427411046, ,0.023243288363160586, ,0.001564722842921964, ,0.24554429173596828,-0.1868824128233589,0.12127441095000001,1.6169191542091674,0.23802078259139725,-1.3792485076787242, ,0.1667784561660295,0.11034528088194276,0.018414811005780348,0.009101127911635849,0.1468804101380636,-0.11500120122873038, ,1.2314791679382324
0.025269719240691352,0.021374632210254912,-0.1096517656042807, ,0.026350760089955114,0.02066078709489866,-0.11016190701511329, ,0.0013922889159729635, ,0.021922756394753714,-0.008973511266325078,-0.015625338647598727,0.010081165610437743,-0.020943292131168575,-0.007041691503278838, ,0.028377497427411046, ,0.023243288363160586, ,0.0015630961077620676, ,0.24554429173596828,-0.1868824128233589,0.12127441095000001,1.6169191542091674,0.23802078259139725,-1.3792485076787242, ,0.1667784561660295,0.11034528088194276,0.018414811005780348,0.009101127911635849,0.1468804101380636,-0.11500120122873038, ,1.236802101135254
0.025491670099472372,0.021278264821149702,-0.10979283264291916, ,0.02646985968921222,0.02062484645024423,-0.11027325559518848, ,0.0012706756682880765, ,0.020843529283717153,-0.009423676225972368,-0.011768645185730838,0.018098746735009875,0.015022478050140006,0.0005530296547242477, ,0.02572468456795451, ,0.023521038548341863, ,0.0015603632064585722, ,0.24728962936554302,-0.1857471710908479,0.12144422494000001,1.6169191542091674,0.239797057088348,-1.3804519042063559, ,0.16825698857884888,0.10759290426130474,0.014520338669097542,0.009101127911635849,0.1849927635447217,-0.12031388903102748, ,1.2422020435333252
0.025491670099472372,0.021278264821149702,-0.10979283264291916, ,0.02658830460207864,0.020588983177040623,-0.11038200335005409, ,0.0014229682144581057, ,0.020843529283717153,-0.009423676225972368,-0.011768645185730838,0.018098746735009875,0.015022478050140006,0.0005530296547242477, ,0.02572468456795451, ,0.023521038548341863, ,0.001559091030606716, ,0.24728962936554302,-0.1857471710908479,0.12144422494000001,1.6169191542091674,0.239797057088348,-1.3804519042063559, ,0.16825698857884888,0.10759290426130474,0.014520338669097542,0.009101127911635849,0.1849927635447217,-0.12031388903102748, ,1.2480731010437012
0.025627180403077775,0.021216953233750474,-0.10987214772763947, ,0.026706102254648784,0.02055321877002754,-0.11048818030477833, ,0.0014085850830629074, ,0.02118001817489229,-0.009591637802495157,-0.012686370278341382,0.035793695656897224,0.02524821044556485,0.002242535153975259, ,0.02648653764579669, ,0.043802516490122664, ,0.0015577102420971398, ,0.24837853470080867,-0.18504440239929348,0.12154144669000001,1.6169191542091674,0.24102678558623697,-1.3814546653396236, ,0.16976197058760426,0.11047373871766097,0.015494952840466926,0.008771574319192057,0.19697786754016955,-0.14085530765959434, ,1.2535350322723389
0.025627180403077775,0.021216953233750474,-0.10987214772763947, ,0.026823260115163946,0.020517574526431225,-0.1105918163122158, ,0.001561300779972197, ,0.02118001817489229,-0.009591637802495157,-0.012686370278341382,0.035793695656897224,0.02524821044556485,0.002242535153975259, ,0.02648653764579669, ,0.043802516490122664, ,0.0015577428833505494, ,0.24837853470080867,-0.18504440239929348,0.12154144669000001,1.6169191542091674,0.24102678558623697,-1.3814546653396236, ,0.16976197058760426,0.11047373871766097,0.015494952840466926,0.008771574319192057,0.19697786754016955,-0.14085530765959434, ,1.258838176727295
0.025896937083300573,0.02110283596217403,-0.11006031617483591, ,0.026939785693296844,0.020482071546467927,-0.11069294105352134, ,0.0013686109455611718, ,0.022798683401435874,-0.008373310781090892,-0.018638148493525096,-0.024817513817774618,-0.021144241859136794,-0.0067906340662512105, ,0.030614912665926915, ,0.03260346157644676, ,0.0015560389920191136, ,0.2504636725768493,-0.1836697559476815,0.12176570486000002,1.6169191542091674,0.24334960608224945,-1.3830220547419008, ,0.1659037439833405,0.10932827368487416,0.021730984338335608,0.007754373782971873,0.14594979213353518,-0.07929078040418232, ,1.2641491889953613
0.02616022577507746,0.021015897437712674,-0.11028574910428728, ,0.0270556865394413,0.020446730733851996,-0.11079158403866793, ,0.0011754444683346724, ,0.023811943477748565,-0.007230143994873009,-0.021764891297914115,-0.054634752345259316,-0.06008966387651681,-0.013068354781179408, ,0.033060461696475266, ,0.08121403194364551, ,0.0015526408266290739, ,0.25231712846666315,-0.18248045508505095,0.12202755544000002,1.6169191542091674,0.24457933458013842,-1.3834530646941845, ,0.16361541648012204,0.10416788315968253,0.0251243083911672,0.007025054196235731,0.10409025410316017,-0.044573832572452565, ,1.2698981761932373
0.02616022577507746,0.021015897437712674,-0.11028574910428728, ,0.027170970243997554,0.020411572796300178,-0.11088777460696266, ,0.001322591153585434, ,0.023811943477748565,-0.007230143994873009,-0.021764891297914115,-0.054634752345259316,-0.06008966387651681,-0.013068354781179408, ,0.033060461696475266, ,0.08121403194364551, ,0.0015506049888145284, ,0.25231712846666315,-0.18248045508505095,0.12202755544000002,1.6169191542091674,0.24457933458013842,-1.3834530646941845, ,0.16361541648012204,0.10416788315968253,0.0251243083911672,0.007025054196235731,0.10409025410316017,-0.044573832572452565, ,1.2751731872558594
0.0264165159883516,0.02094305788852878,-0.11053372119495893, ,0.027285644436659272,0.020376618246037124,-0.11098154192756127, ,0.0011299475814356501, ,0.024479377910558403,-0.006916224700840794,-0.02469487251921886,-0.01422414457392847,-0.009265758735245362,-0.00293555136911722, ,0.03545293832309144, ,0.01697561161655351, ,0.001546915011556819, ,0.2540624660962379,-0.18138382701691105,0.12231273924000001,1.6169191542091674,0.2459456995777928,-1.3841588500304458, ,0.1661942934474094,0.10591176513222186,0.028292738046181175,0.006454489548054458,0.15853652915117744,-0.0867982795705789, ,1.2804310321807861
0.0264165159883516,0.02094305788852878,-0.11053372119495893, ,0.027399716785701203,0.02034188740030171,-0.1110729149999854, ,0.0012723284651390099, ,0.024479377910558403,-0.006916224700840794,-0.02469487251921886,-0.01422414457392847,-0.009265758735245362,-0.00293555136911722, ,0.03545293832309144, ,0.01697561161655351, ,0.0015445273024575336, ,0.2540624660962379,-0.18138382701691105,0.12231273924000001,1.6169191542091674,0.2459456995777928,-1.3841588500304458, ,0.1661942934474094,0.10591176513222186,0.028292738046181175,0.006454489548054458,0.15853652915117744,-0.0867982795705789, ,1.2867910861968994
0.0264165159883516,0.02094305788852878,-0.11053372119495893, ,0.027513194997265535,0.02030740038185225,-0.11116192265463831, ,0.0014147092946361752, ,0.024479377910558403,-0.006916224700840794,-0.02469487251921886,-0.01422414457392847,-0.009265758735245362,-0.00293555136911722, ,0.03545293832309144, ,0.01697561161655351, ,0.0015434081817004527, ,0.2540624660962379,-0.18138382701691105,0.12231273924000001,1.6169191542091674,0.2459456995777928,-1.3841588500304458, ,0.1661942934474094,0.10591176513222186,0.028292738046181175,0.006454489548054458,0.15853652915117744,-0.0867982795705789, ,1.292268991470337
0.026641298721957495,0.020880998226601,-0.11076041296161787, ,0.027626086814648707,0.02027317711947187,-0.11124859355332038, ,0.0012560152769345966, ,0.02469729378686294,-0.006656400581615068,-0.02468277944453526,0.012540487334728172,0.0012325645689531216,0.00027719590271570437, ,0.03554579567551016, ,0.012600550639971975, ,0.0015409518320870692, ,0.2555992899382086,-0.18042620814050722,0.12257329353000002,1.6169191542091674,0.24758533757497808,-1.3852508286543812, ,0.16825698857884888,0.10337357468243004,0.02844430628571429,0.006024777401079983,0.171369392375639,-0.11118022957399194, ,1.2976770401000977
0.026641298721957495,0.020880998226601,-0.11076041296161787, ,0.027738400017589076,0.02023923734847482,-0.11133295618974598, ,0.001394020812486362, ,0.02469729378686294,-0.006656400581615068,-0.02468277944453526,0.012540487334728172,0.0012325645689531216,0.00027719590271570437, ,0.03554579567551016, ,0.012600550639971975, ,0.0015397066539548597, ,0.2555992899382086,-0.18042620814050722,0.12257329353000002,1.6169191542091674,0.24758533757497808,-1.3852508286543812, ,0.16825698857884888,0.10337357468243004,0.02844430628571429,0.006024777401079983,0.171369392375639,-0.11118022957399194, ,1.303002119064331
0.026905622191664893,0.020807372877130397,-0.11100235768817279, ,0.027850142421552718,0.020205600611211145,-0.11141503889005859, ,0.0011935468566783825, ,0.02301933516492348,-0.0067559485872125,-0.019490108904386093,-0.01959776263944343,-0.02439659519688846,-0.003661178190231879, ,0.030909496564210995, ,0.031293183687667626, ,0.0015367977480953937, ,0.25742957762939983,-0.17933730280524157,0.12285588475000002,1.6169191542091674,0.2492249755721634,-1.3860977710578948, ,0.16221699411704404,0.09527805377356505,0.023051825643994214,0.0055848205163890096,0.13920010221003212,-0.0712506809041973, ,1.308326005935669
0.026905622191664893,0.020807372877130397,-0.11100235768817279, ,0.027961321877021515,0.02017228625757333,-0.11149486981334705, ,0.0013268025600842663, ,0.02301933516492348,-0.0067559485872125,-0.019490108904386093,-0.01959776263944343,-0.02439659519688846,-0.003661178190231879, ,0.030909496564210995, ,0.031293183687667626, ,0.001535047788195301, ,0.25742957762939983,-0.17933730280524157,0.12285588475000002,1.6169191542091674,0.2492249755721634,-1.3860977710578948, ,0.16221699411704404,0.09527805377356505,0.023051825643994214,0.0055848205163890096,0.13920010221003212,-0.0712506809041973, ,1.313650131225586
0.027185884362903888,0.020713561080854002,-0.11118682996453894, ,0.028071946268779267,0.020139313445501242,-0.11157247695216192, ,0.0011240950346009136, ,0.021048946887491246,-0.00844749666339282,-0.010392423350555707,-0.1606201458673283,-0.1427966246972049,-0.03149623298274873, ,0.024948363233840327, ,0.2149179079605361, ,0.0015316514844465872, ,0.25946065637532084,-0.1781557246754852,0.12308273550000001,1.6173385340961361,0.2501814310705215,-1.3860609089823643, ,0.15531414330355284,0.09470752650545987,0.013374316977329978,0.00930553490637937,0.01101968687730892,0.07142834613169566, ,1.3189771175384521
0.02738651171739429,0.020622822483209756,-0.1112846809412581, ,0.028182023515198794,0.020106701141487705,-0.111647888133031, ,0.001015450502970326, ,0.01850241378451991,-0.008538891226220762,-0.009672325418880131,0.07892692912362692,0.05259182050328814,0.005028960988404809, ,0.022556725343797955, ,0.09484386980759874, ,0.0015274203288607163, ,0.2610283711487884,-0.17716721486758447,0.12320977192000002,1.6173385340961361,0.2514111595684104,-1.3867369551550697, ,0.1499161793972682,0.09395736787967403,0.012512813448546743,0.00930553490637937,0.20437090088014656,-0.16743937320677574, ,1.3251590728759766
0.02738651171739429,0.020622822483209756,-0.1112846809412581, ,0.028291561567529218,0.020074468121084873,-0.11172113101697559, ,0.001144681792588862, ,0.01850241378451991,-0.008538891226220762,-0.009672325418880131,0.07892692912362692,0.05259182050328814,0.005028960988404809, ,0.022556725343797955, ,0.09484386980759874, ,0.0015243086334438718, ,0.2610283711487884,-0.17716721486758447,0.12320977192000002,1.6173385340961361,0.2514111595684104,-1.3867369551550697, ,0.1499161793972682,0.09395736787967403,0.012512813448546743,0.00930553490637937,0.20437090088014656,-0.16743937320677574, ,1.3304359912872314
0.027570045489558756,0.020543161537491167,-0.11139080660462597, ,0.028400568409182255,0.0200426329694088,-0.11179223310002626, ,0.0010494953066573862, ,0.01805198608766809,-0.007279427002584694,-0.010861645437048085,0.10750993612682608,0.10238830782945127,0.015554569554022589, ,0.02228989907548863, ,0.1484646483005242, ,0.0015204794937117227, ,0.2625343040592622,-0.1762636551213002,0.12334588237,1.6173385340961361,0.2540072530639538,-1.3887722165851613, ,0.14667224352159317,0.08488098529380213,0.013899486492146597,0.00930553490637937,0.2516470787046961,-0.1872399685751509, ,1.3359971046447754
0.027570045489558756,0.020543161537491167,-0.11139080660462597, ,0.028509052055019284,0.02001121408164547,-0.11186122171373883, ,0.0011772815298985834, ,0.01805198608766809,-0.007279427002584694,-0.010861645437048085,0.10750993612682608,0.10238830782945127,0.015554569554022589, ,0.02228989907548863, ,0.1484646483005242, ,0.0015177339100012175, ,0.2625343040592622,-0.1762636551213002,0.12334588237,1.6173385340961361,0.2540072530639538,-1.3887722165851613, ,0.14667224352159317,0.08488098529380213,0.013899486492146597,0.00930553490637937,0.2516470787046961,-0.1872399685751509, ,1.3413300514221191
0.027570045489558756,0.020543161537491167,-0.11139080660462597, ,0.028617020550638993,0.019980229663557312,-0.11192812402571072, ,0.0013045148846279253, ,0.01805198608766809,-0.007279427002584694,-0.010861645437048085,0.10750993612682608,0.10238830782945127,0.015554569554022589, ,0.02228989907548863, ,0.1484646483005242, ,0.001516041695514128, ,0.2625343040592622,-0.1762636551213002,0.12334588237,1.6173385340961361,0.2540072530639538,-1.3887722165851613, ,0.14667224352159317,0.08488098529380213,0.013899486492146597,0.00930553490637937,0.2516470787046961,-0.1872399685751509, ,1.3467061519622803
0.027570045489558756,0.020543161537491167,-0.11139080660462597, ,0.02872448197166292,0.01994969773198692,-0.11199296704009626, ,0.0014309158150297965, ,0.018661305966641503,-0.006727588605722072,-0.012183717723399507,0.046205979893832134,0.07310122889098059,0.010238618285042002, ,0.02228989907548863, ,0.1484646483005242, ,0.0015153714129906293, ,0.26346103200416915,-0.17573850928585294,0.12343921525000001,1.6173385340961361,0.25551025456137366,-1.389589419825119, ,0.1462202489344696,0.08216185416317816,0.015360473982642238,0.00930553490637937,0.2213565338322653,-0.12327228246974077, ,1.3526930809020996
0.02768632288612161,0.020499231024066016,-0.11146439645206555, ,0.028831444423023368,0.019919636115364226,-0.11205577759812278, ,0.0014131402097390241, ,0.018661305966641503,-0.006727588605722072,-0.012183717723399507,0.046205979893832134,0.07310122889098059,0.010238618285042002, ,0.02327977161382668, ,0.08647995128842675, ,0.001514572731715226, ,0.26346103200416915,-0.17573850928585294,0.12343921525000001,1.6173385340961361,0.25551025456137366,-1.389589419825119, ,0.1462202489344696,0.08216185416317816,0.015360473982642238,0.00930553490637937,0.2213565338322653,-0.12327228246974077, ,1.358093023300171
0.02768632288612161,0.020499231024066016,-0.11146439645206555, ,0.02893791603825065,0.019890062454212386,-0.11211658237860811, ,0.0015371786648708107, ,0.018661305966641503,-0.006727588605722072,-0.012183717723399507,0.046205979893832134,0.07310122889098059,0.010238618285042002, ,0.02327977161382668, ,0.08647995128842675, ,0.0015147479715071296, ,0.2667818071400857,-0.1737692124029257,0.12388902788000002,1.6173385340961361,0.2575598020578552,-1.3892187198770514, ,0.13498853706752598,0.07597833591550904,0.019616762955665026,0.00799027034771044,0.031092476323767316,0.03172998393175209, ,1.3635241985321045
0.028165050144110217,0.02035084111207857,-0.11183804796191277, ,0.0290439049787581,0.019860994201651036,-0.11217540789847345, ,0.0010612009907814775, ,0.020315257765235656,-0.005350788193311505,-0.016325507799480044,-0.1029655753948686,-0.10300733089094137,-0.022223799729162084, ,0.026605691820896768, ,0.14564483778701096, ,0.0015112591485784707, ,0.2667818071400857,-0.1737692124029257,0.12388902788000002,1.6173385340961361,0.2575598020578552,-1.3892187198770514, ,0.13498853706752598,0.07597833591550904,0.019616762955665026,0.00799027034771044,0.031092476323767316,0.03172998393175209, ,1.368812084197998
0.028348303651821748,0.02029819687823164,-0.11198809614481836, ,0.02914941943313138,0.01983244862390489,-0.11223228051326259, ,0.000958297415870599, ,0.020315257765235656,-0.005350788193311505,-0.016325507799480044,-0.1029655753948686,-0.10300733089094137,-0.022223799729162084, ,0.026605691820896768, ,0.14564483778701096, ,0.001507038066649403, ,0.2680792262629554,-0.17306644371137125,0.12406532332000002,1.617548224039621,0.2594727130545714,-1.390451855568239, ,0.13309528970332507,0.07162033325167605,0.017164667586206897,0.00351726424573953,0.23403809717280905,-0.15613875531580895, ,1.3740761280059814
0.028348303651821748,0.02029819687823164,-0.11198809614481836, ,0.029254467616413433,0.01980444280080715,-0.11228722641765565, ,0.001074432473367006, ,0.017551548766926887,-0.005321437809245788,-0.013727802201697182,0.0918267247270958,0.10114145269897991,0.02077526145626474, ,0.022909105564478182, ,0.13660798051589682, ,0.0015037607515487788, ,0.2680792262629554,-0.17306644371137125,0.12406532332000002,1.617548224039621,0.2594727130545714,-1.390451855568239, ,0.13309528970332507,0.07162033325167605,0.017164667586206897,0.00351726424573953,0.23403809717280905,-0.15613875531580895, ,1.379364013671875
0.02851940427160565,0.02024981412639694,-0.11211000841094587, ,0.02935905776939278,0.0197769936263067,-0.11234027164598635, ,0.0009907564680904455, ,0.017913762544922864,-0.005101558038087219,-0.011850155881586544,0.07615685369714638,0.07089492111623341,0.006002076463609477, ,0.022076117805215522, ,0.10404785423758711, ,0.0014999035764851822, ,0.26943842724881895,-0.17237912048556528,0.12422606328000001,1.61796760392659,0.2617955335505839,-1.3920192449705158, ,0.13793160110242844,0.06701761409496525,0.015242881837320576,0.01464837683324378,0.20971742490250908,-0.13694873297635882, ,1.3847520351409912
0.02851940427160565,0.02024981412639694,-0.11211000841094587, ,0.02946319815788907,0.019750117808971936,-0.1123914420727567, ,0.0011043768448470485, ,0.017913762544922864,-0.005101558038087219,-0.011850155881586544,0.07615685369714638,0.07089492111623341,0.006002076463609477, ,0.022076117805215522, ,0.10404785423758711, ,0.001496951884458032, ,0.26943842724881895,-0.17237912048556528,0.12422606328000001,1.61796760392659,0.2617955335505839,-1.3920192449705158, ,0.13793160110242844,0.06701761409496525,0.015242881837320576,0.01464837683324378,0.20971742490250908,-0.13694873297635882, ,1.3900120258331299
0.028687705063272607,0.020202307208592382,-0.11220799198552625, ,0.02956689707204113,0.019723831872498047,-0.11244076341315436, ,0.0010276671509068722, ,0.01907935098819026,-0.005092716135810051,-0.009762894333218055,-0.010320006282839973,-0.0297655390747986,-0.01059012896024937, ,0.02202887871708585, ,0.03150380544311248, ,0.001493475701246542, ,0.27072812363881443,-0.17177674732137577,0.12435569228000001,1.61796760392659,0.2632985350480037,-1.3928364482104736, ,0.14488082680682562,0.06398984595985892,0.01335189565800503,0.01464837683324378,0.11443865417534804,-0.0475055086255157, ,1.395853042602539
0.028687705063272607,0.020202307208592382,-0.11220799198552625, ,0.029670162825593677,0.019698152156212262,-0.11248826122356798, ,0.001139274513617247, ,0.01907935098819026,-0.005092716135810051,-0.009762894333218055,-0.010320006282839973,-0.0297655390747986,-0.01059012896024937, ,0.02202887871708585, ,0.03150380544311248, ,0.0014908712807492678, ,0.27072812363881443,-0.17177674732137577,0.12435569228000001,1.61796760392659,0.2632985350480037,-1.3928364482104736, ,0.14488082680682562,0.06398984595985892,0.01335189565800503,0.01464837683324378,0.11443865417534804,-0.0475055086255157, ,1.401219129562378
0.028687705063272607,0.020202307208592382,-0.11220799198552625, ,0.02977300375518316,0.019673094815578378,-0.11253396090210248, ,0.0012506777131444547, ,0.01907935098819026,-0.005092716135810051,-0.009762894333218055,-0.010320006282839973,-0.0297655390747986,-0.01059012896024937, ,0.02202887871708585, ,0.03150380544311248, ,0.0014891180430295248, ,0.2720178200288099,-0.17122843328730583,0.12446717322000002,1.61796760392659,0.2641183540465964,-1.3929332044516682, ,0.14400142876854444,0.05994753099082172,0.011985561715575624,0.01359921776719381,0.08651844026386953,-0.016637632628368523, ,1.4065442085266113
0.02885742122377358,0.020157812513669042,-0.1122873962786326, ,0.02987542821962577,0.019648675822703552,-0.11257788768909621, ,0.0011747100379431638, ,0.018880074179605223,-0.004874246572945671,-0.008381785447679105,-0.03753226349690473,-0.056532002227568795,-0.013669933904477781, ,0.021224274026976606, ,0.06785674644196552, ,0.0014868397241520875, ,0.2720178200288099,-0.17122843328730583,0.12446717322000002,1.61796760392659,0.2641183540465964,-1.3929332044516682, ,0.14400142876854444,0.05994753099082172,0.011985561715575624,0.01359921776719381,0.08651844026386953,-0.016637632628368523, ,1.41184401512146
0.029093782252286017,0.020091352073934088,-0.11238868404373202, ,0.029977444599204255,0.019624910966843764,-0.11262006666763652, ,0.0010256531423388836, ,0.017536873853308727,-0.004822432202202194,-0.007431271289491471,-0.00010552010688963192,-0.022603338130180096,-0.006821409351330979, ,0.019647432144423358, ,0.022603583929485745, ,0.0014835218350742945, ,0.2738481077200011,-0.17044071453413492,0.12461365399000002,1.61796760392659,0.26548471904425075,-1.3934756323076485, ,0.13673910887387722,0.05765306291523134,0.010850689046321525,0.012101848851308794,0.11387568606285275,-0.0522226131352376, ,1.41715407371521
0.029093782252286017,0.020091352073934088,-0.11238868404373202, ,0.030079061294954003,0.01960181585490881,-0.11266052276407486, ,0.0011332770144743694, ,0.017536873853308727,-0.004822432202202194,-0.007431271289491471,-0.00010552010688963192,-0.022603338130180096,-0.006821409351330979, ,0.019647432144423358, ,0.022603583929485745, ,0.0014810200863557238, ,0.2738481077200011,-0.17044071453413492,0.12461365399000002,1.61796760392659,0.26548471904425075,-1.3934756323076485, ,0.13673910887387722,0.05765306291523134,0.010850689046321525,0.012101848851308794,0.11387568606285275,-0.0522226131352376, ,1.422471046447754
0.02926540603916604,0.020046320828484863,-0.11246993978556712, ,0.030180286727950353,0.019579405911967933,-0.11269928074854382, ,0.0010524321789434018, ,0.01791378747824589,-0.00440424094849299,-0.009248217110789282,0.03372511420187413,0.01727583199420324,0.001716891373811251, ,0.02063566427029761, ,0.03789244821026899, ,0.0014779804558067002, ,0.27518414050724194,-0.16988467776719077,0.12472902380000002,1.61796760392659,0.2668510840419052,-1.3942630963840505, ,0.13853568110725661,0.05685856294695672,0.012866568271405495,0.01119425861654227,0.15636248248996867,-0.08552701314563416, ,1.4277780055999756
0.02926540603916604,0.020046320828484863,-0.11246993978556712, ,0.030281129338596356,0.019557696381757143,-0.11273636523547341, ,0.00115820127408985, ,0.01791378747824589,-0.00440424094849299,-0.009248217110789282,0.03372511420187413,0.01727583199420324,0.001716891373811251, ,0.02063566427029761, ,0.03789244821026899, ,0.0014757284897382718, ,0.27518414050724194,-0.16988467776719077,0.12472902380000002,1.61796760392659,0.2668510840419052,-1.3942630963840505, ,0.13853568110725661,0.05685856294695672,0.012866568271405495,0.01119425861654227,0.15636248248996867,-0.08552701314563416, ,1.4331190586090088
0.029414344428404838,0.020012676456944076,-0.1125511016190951, ,0.030381597585907628,0.019536702327181812,-0.11277180068410479, ,0.0011003808977795896, ,0.017621434914200144,-0.003843679830165055,-0.009576031501853719,0.03333726358116001,0.017791312907353588,0.012776925580536145, ,0.020420313964204965, ,0.03778761539873404, ,0.0014731036814028963, ,0.27631938223975294,-0.16942903652761152,0.12484050474000001,1.6181772938700745,0.26808081253979416,-1.394775785076475, ,0.13498853706752598,0.052227265579785784,0.013218930721991703,0.0004903844919028226,0.15511945191179427,-0.08351198022791997, ,1.438446044921875
0.029414344428404838,0.020012676456944076,-0.1125511016190951, ,0.030481699946801534,0.019516438630825108,-0.11280561139900921, ,0.001204273644482471, ,0.017621434914200144,-0.003843679830165055,-0.009576031501853719,0.03333726358116001,0.017791312907353588,0.012776925580536145, ,0.020420313964204965, ,0.03778761539873404, ,0.0014712368061465045, ,0.27631938223975294,-0.16942903652761152,0.12484050474000001,1.6181772938700745,0.26808081253979416,-1.394775785076475, ,0.13498853706752598,0.052227265579785784,0.013218930721991703,0.0004903844919028226,0.15511945191179427,-0.08351198022791997, ,1.4437501430511475
0.02963283532337132,0.019963671970498656,-0.1126543567725365, ,0.03058144491538195,0.019496919995451546,-0.11283782153060129, ,0.0010730223118447838, ,0.018667545125811504,-0.0043716415514530454,-0.00792226347294611,-0.012051746584549244,0.011316687934492552,-0.0031748156141174653, ,0.02074489694872876, ,0.01653215020311293, ,0.0014684904992892512, ,0.27802610620495655,-0.1687880496990509,0.12498957809000001,1.618386983813559,0.26999372353651035,-1.3956822058071003, ,0.14735549931439562,0.05498084678938052,0.011851794285714288,0.016710099084279638,0.1583056934985699,-0.036345859515410375, ,1.4494681358337402
0.02963283532337132,0.019963671970498656,-0.1126543567725365, ,0.030680841002227986,0.019478160944514242,-0.11286845507565704, ,0.0011746807833055558, ,0.018667545125811504,-0.0043716415514530454,-0.00792226347294611,-0.012051746584549244,0.011316687934492552,-0.0031748156141174653, ,0.02074489694872876, ,0.01653215020311293, ,0.0014664781039742942, ,0.27802610620495655,-0.1687880496990509,0.12498957809000001,1.618386983813559,0.26999372353651035,-1.3956822058071003, ,0.14735549931439562,0.05498084678938052,0.011851794285714288,0.016710099084279638,0.1583056934985699,-0.036345859515410375, ,1.4549310207366943
0.02963283532337132,0.019963671970498656,-0.1126543567725365, ,0.03077989673367989,0.019460175822659954,-0.1128975358778293, ,0.0012760855485266273, ,0.018667545125811504,-0.0043716415514530454,-0.00792226347294611,-0.012051746584549244,0.011316687934492552,-0.0031748156141174653, ,0.02074489694872876, ,0.01653215020311293, ,0.0014651829165222693, ,0.27802610620495655,-0.1687880496990509,0.12498957809000001,1.618386983813559,0.26999372353651035,-1.3956822058071003, ,0.14735549931439562,0.05498084678938052,0.011851794285714288,0.016710099084279638,0.1583056934985699,-0.036345859515410375, ,1.4604780673980713
0.02963283532337132,0.019963671970498656,-0.1126543567725365, ,0.030878620651125042,0.019442978796232708,-0.11292508762816124, ,0.0013770975494716779, ,0.018667545125811504,-0.0043716415514530454,-0.00792226347294611,-0.012051746584549244,0.011316687934492552,-0.0031748156141174653, ,0.02074489694872876, ,0.01653215020311293, ,0.0014645877451232789, ,0.27802610620495655,-0.1687880496990509,0.12498957809000001,1.618386983813559,0.26999372353651035,-1.3956822058071003, ,0.14735549931439562,0.05498084678938052,0.011851794285714288,0.016710099084279638,0.1583056934985699,-0.036345859515410375, ,1.4657881259918213
0.030030717873842785,0.019874905429573878,-0.11278474523113456, ,0.03097702131028747,0.019426583853783746,-0.1129511338656077, ,0.001060267705264951, ,0.017999695376309955,-0.00403331920128754,-0.0042134040947388865,-0.08057895680935984,-0.030418103897995666,-0.0027893773869282633, ,0.018921138218537255, ,0.08612914329021297, ,0.0014618741878087936, ,0.2812233176148855,-0.16770686709665944,0.12520605852000002,1.6188063637005279,0.27299972653135,-1.3959280737046265, ,0.14689929033819007,0.04647254728622467,0.008168621292307693,0.010493092370598806,0.11647442615836272,0.03878417029414194, ,1.4711341857910156
0.030030717873842785,0.019874905429573878,-0.11278474523113456, ,0.031075107280511802,0.019411004806572783,-0.11297569797754548, ,0.001158626761362406, ,0.017999695376309955,-0.00403331920128754,-0.0042134040947388865,-0.08057895680935984,-0.030418103897995666,-0.0027893773869282633, ,0.018921138218537255, ,0.08612914329021297, ,0.001459852538299151, ,0.2812233176148855,-0.16770686709665944,0.12520605852000002,1.6188063637005279,0.27299972653135,-1.3959280737046265, ,0.14689929033819007,0.04647254728622467,0.008168621292307693,0.010493092370598806,0.11647442615836272,0.03878417029414194, ,1.4764480590820312
0.030198841192981357,0.019831745884270325,-0.11280438518442226, ,0.03117288714405214,0.01939625528907637,-0.11299880320029228, ,0.0010845348948718093, ,0.016160028413941062,-0.0043337862054454515,-0.0011367590566642638,-0.040328952993733964,-0.014497545629642034,0.038767819723173357, ,0.016769628569732842, ,0.04285560965442515, ,0.0014573669909916853, ,0.28265202319661703,-0.16725122585708022,0.12526309528000001,1.6190160536440124,0.27422945502923896,-1.395705653735786, ,0.14017273494604252,0.04333193678468985,0.004780555678271309,-0.029420965012791348,0.13258143889593973,-0.009386593899214271, ,1.4817211627960205
0.030370829902263526,0.019791471788762647,-0.11283451671472236, ,0.03127036949535755,0.01938234875949149,-0.11302047261962218, ,0.0010055509590224086, ,0.01798912225082272,-0.0034689132694506863,-0.004430640083598615,0.06481753210393493,0.05282699597253199,0.00847298838423101, ,0.0188486723717191, ,0.08361820357923959, ,0.0014543945170971504, ,0.28412706517559394,-0.1668110300832494,0.12533309494,1.6188063637005279,0.2760057295261897,-1.3963372990824336, ,0.15256743015831317,0.042440492646901064,0.008723335991237677,0.016451347864769303,0.205782069438744,-0.10109691086743673, ,1.4871561527252197
0.030370829902263526,0.019791471788762647,-0.11283451671472236, ,0.031367562940360416,0.019369298500243895,-0.11304072917128188, ,0.001101921327506146, ,0.01798912225082272,-0.0034689132694506863,-0.004430640083598615,0.06481753210393493,0.05282699597253199,0.00847298838423101, ,0.0188486723717191, ,0.08361820357923959, ,0.0014520907707599544, ,0.28412706517559394,-0.1668110300832494,0.12533309494,1.6188063637005279,0.2760057295261897,-1.3963372990824336, ,0.15256743015831317,0.042440492646901064,0.008723335991237677,0.016451347864769303,0.205782069438744,-0.10109691086743673, ,1.4941840171813965
0.030370829902263526,0.019791471788762647,-0.11283451671472236, ,0.03146447609576176,0.019357117618490176,-0.11305959564150542, ,0.001198075984680467, ,0.01798912225082272,-0.0034689132694506863,-0.004430640083598615,0.06481753210393493,0.05282699597253199,0.00847298838423101, ,0.0188486723717191, ,0.08361820357923959, ,0.0014504413240971005, ,0.28412706517559394,-0.1668110300832494,0.12533309494,1.6188063637005279,0.2760057295261897,-1.3963372990824336, ,0.15256743015831317,0.042440492646901064,0.008723335991237677,0.016451347864769303,0.205782069438744,-0.10109691086743673, ,1.4997661113739014
0.03055243244243461,0.019763888725948697,-0.1128878145648046, ,0.03156111758831927,0.01934581904662652,-0.11307709466753149, ,0.001108176401835559, ,0.018933610471064885,-0.0023927631141651895,-0.006118021672346572,0.04303817409122547,0.02425456481167646,0.013627331954371128, ,0.0200408859578071, ,0.049402108606202026, ,0.0014482331633083165, ,0.28563299808606774,-0.1664326161724124,0.12543031669000002,1.6190160536440124,0.2779186405229059,-1.3971620410729186, ,0.15405347655595905,0.035823684997535216,0.010719254051144012,0.0079548585053119,0.1796988733634047,-0.07526834659709528, ,1.5053210258483887
0.03055243244243461,0.019763888725948697,-0.1128878145648046, ,0.03165749605413357,0.01933541554279271,-0.11309324873811905, ,0.0012028956954575774, ,0.018933610471064885,-0.0023927631141651895,-0.006118021672346572,0.04303817409122547,0.02425456481167646,0.013627331954371128, ,0.0200408859578071, ,0.049402108606202026, ,0.0014466604872323502, ,0.28563299808606774,-0.1664326161724124,0.12543031669000002,1.6190160536440124,0.2779186405229059,-1.3971620410729186, ,0.15405347655595905,0.035823684997535216,0.010719254051144012,0.0079548585053119,0.1796988733634047,-0.07526834659709528, ,1.5106701850891113
0.030840044443126116,0.01973604633094091,-0.11299338585690323, ,0.03175362013793543,0.0193259196913781,-0.11310808019406277, ,0.001007957936424863, ,0.020158653528323897,-0.002015513248864651,-0.007287118037308421,-0.04111524290341635,-0.09380826103755806,-0.028769773510652814, ,0.021529879122303967, ,0.10242291256036959, ,0.0014438662034692452, ,0.28788803608534125,-0.16593836126846204,0.12560531584,1.6194354335309815,0.2799681880193875,-1.397853164746678, ,0.15135078398480187,0.03470992741714366,0.01195856720720721,0.029654168965172235,0.05343340741467924,0.016125959733120882, ,1.5160210132598877
0.030840044443126116,0.01973604633094091,-0.11299338585690323, ,0.031849498492372175,0.019317343903526876,-0.11312161122870915, ,0.001100341286254603, ,0.020158653528323897,-0.002015513248864651,-0.007287118037308421,-0.04111524290341635,-0.09380826103755806,-0.028769773510652814, ,0.021529879122303967, ,0.10242291256036959, ,0.0014416919951324436, ,0.2894325826601862,-0.16559083828912194,0.12571679678,1.6196451234744662,0.28051473401844923,-1.3974820489600581, ,0.14897479051565274,0.03138126374288055,0.009584122454873648,0.030862893589659695,0.046801577290725135,0.04575575824708841, ,1.5214622020721436
0.031042895764200096,0.019714249607701673,-0.11305750094158949, ,0.031945139777295246,0.019309700417644605,-0.11313386388847319, ,0.0009917336366175307, ,0.019291389826036124,-0.0020216442126981863,-0.005016831939885932,-0.06715204444834823,-0.09775163534289676,-0.03031416948942059, ,0.020035303078712978, ,0.11859502216630191, ,0.001438862068349331, ,0.2894325826601862,-0.16559083828912194,0.12571679678,1.6196451234744662,0.28051473401844923,-1.3974820489600581, ,0.14897479051565274,0.03138126374288055,0.009584122454873648,0.030862893589659695,0.046801577290725135,0.04575575824708841, ,1.526764154434204
0.031223888900494153,0.01969174976023254,-0.11309034670370777, ,0.032040552659046366,0.019303001299902617,-0.11314486007335353, ,0.0009061107920180897, ,0.017124658076730085,-0.0022653473872045055,-0.0016613841896609416,0.08604611590510457,0.016324209738251775,-0.007224755495713312, ,0.017353556132830142, ,0.08758089909289848, ,0.0014355323728722606, ,0.29092307010491153,-0.16528965170702717,0.12579457418,1.6196451234744662,0.2817444625163382,-1.3979947376524824, ,0.14781455071412894,0.028463389789583318,0.006079699053435116,0.028934572844374458,0.1618283749409879,-0.10518713777788674, ,1.5320651531219482
0.031223888900494153,0.01969174976023254,-0.11309034670370777, ,0.03213574580974488,0.01929725844474489,-0.11315462153744868, ,0.0009956091980269626, ,0.017124658076730085,-0.0022653473872045055,-0.0016613841896609416,0.08604611590510457,0.016324209738251775,-0.007224755495713312, ,0.017353556132830142, ,0.08758089909289848, ,0.001432799930792476, ,0.29092307010491153,-0.16528965170702717,0.12579457418,1.6196451234744662,0.2817444625163382,-1.3979947376524824, ,0.14781455071412894,0.028463389789583318,0.006079699053435116,0.028934572844374458,0.1618283749409879,-0.10518713777788674, ,1.5373611450195312
0.031223888900494153,0.01969174976023254,-0.11309034670370777, ,0.03223072790657432,0.019292483575392264,-0.11316316988947261, ,0.0010855604482968035, ,0.017124658076730085,-0.0022653473872045055,-0.0016613841896609416,0.08604611590510457,0.016324209738251775,-0.007224755495713312, ,0.017353556132830142, ,0.08758089909289848, ,0.001430656477196824, ,0.29092307010491153,-0.16528965170702717,0.12579457418,1.6196451234744662,0.2817444625163382,-1.3979947376524824, ,0.14781455071412894,0.028463389789583318,0.006079699053435116,0.028934572844374458,0.1618283749409879,-0.10518713777788674, ,1.5427510738372803
0.031223888900494153,0.01969174976023254,-0.11309034670370777, ,0.03232550763106957,0.019288688244349254,-0.1131705265932716, ,0.0011757768614117183, ,0.017124658076730085,-0.0022653473872045055,-0.0016613841896609416,0.08604611590510457,0.016324209738251775,-0.007224755495713312, ,0.017353556132830142, ,0.08758089909289848, ,0.0014290927985723754, ,0.29092307010491153,-0.16528965170702717,0.12579457418,1.6196451234744662,0.2817444625163382,-1.3979947376524824, ,0.14781455071412894,0.028463389789583318,0.006079699053435116,0.028934572844374458,0.1618283749409879,-0.10518713777788674, ,1.548112154006958
