NicholasDascanio/dvrk_moveit_final/test/execution/third_experiment_notsharpbends/thirdexp_200vel5.0/thirdexp_200vel5.0_16.csv
Current Position (x),Current Position (y),Current Position (z), ,Planned Position (x),Planned Position (y),Planned Position (z), ,Position Error,,Cartesian linear Velocity(x),Cartesian linear Velocity(y),Cartesian linear Velocity(z),Cartesian Angular Velocity(x),Cartesian Angular Velocity(y),Cartesian Angular Velocity(z), ,Total Linear Velocity, ,Total Angular Velocity, ,MSE, ,Joint 1 Position,Joint 2 Position,Joint 3 Position,Joint 4 Position,Joint 5 Position,Joint 6 Position, ,Joint 1 Velocity,Joint 2 Velocity,Joint 3 Velocity,Joint 4 Velocity,Joint 5 Velocity,Joint 6 Velocity, ,Time Stamp
0.009031159968459396,0.020519907021812216,-0.0783389794695767, ,0.00930268960168781,0.0204681726995616,-0.07861158009432151, ,0.00038822143479095504, ,0.002873180951710268,0.001154464786146676,-0.005289882702715159,0.13643409192546566,-0.17666954487684852,-0.045005776840501624, ,0.006129503791679099, ,0.22321825535196937, ,3.2351786232579587e-05, ,0.1305141855743942,-0.25409335702773483,0.08805957228000001,1.6037086877696423,0.13690977276497132,-1.3035785943750389, ,0.007393514841116568,0.0029367758848024297,0.005502180145077721,-0.0012125629716387407,-0.17506864849502832,-0.13949401807364276, ,0.052459001541137695
0.0091843958568976,0.02059201575104246,-0.07875203818986147, ,0.009482566591104642,0.02048331095352031,-0.07901920961735084, ,0.0004148530961781632, ,0.0031091923000038297,0.0006284072088355583,-0.00675006720564457,-0.14928958029637412,-0.06272702624367886,-0.012248442265742185, ,0.007458242397457855, ,0.16193226544586292, ,3.6503387771323555e-05, ,0.13127101339606823,-0.2536454385210298,0.08848734798,1.6037086877696423,0.1326740412722427,-1.3095176944766145, ,0.02307804998990048,0.014100585669906506,0.00695277674378001,0.0008025576429720897,-0.04096302886268379,0.13542259726477573, ,0.10494399070739746
0.009303360938527521,0.02061342658687855,-0.0790567784099263, ,0.009662738864083606,0.020496655921660112,-0.07942463104610258, ,0.0005273551398956776, ,0.0035548206789846014,0.0003097201373829669,-0.007798390171759127,0.013479521695920734,-0.003898495932302116,0.002875338583956841, ,0.008575987750354267, ,0.014031954491196581, ,4.29170861569289e-05, ,0.13245259152582456,-0.2529195016308527,0.08880105016,1.6041280676566114,0.1344503157691934,-1.307208905178202, ,0.03488858145532014,0.021325155406397928,0.00801248064386318,0.002114853584988463,0.03142366174533349,-0.03434801028619831, ,0.1517620086669922
0.00949850161345397,0.020628576321824743,-0.07946824001515153, ,0.009843176952571659,0.020508253956234637,-0.07982783526205016, ,0.0005124327298769866, ,0.004613477840228471,0.0003944180264891721,-0.009638485906186975,0.01173873192403238,-0.012213375386848458,-0.0058328829268177755, ,0.010692995554364723, ,0.016940020139880364, ,4.607156001854456e-05, ,0.1342828792170158,-0.2517842598983417,0.08922364070000001,1.6043377576000957,0.13527013476778604,-1.3087758787419268, ,0.044448216186637364,0.02613520836091181,0.00993068049875312,0.01025409734230168,0.030610630575026235,-0.03631273918849534, ,0.19896602630615234
0.009735068024382678,0.020638759945251002,-0.07991823268330649, ,0.010023851794816538,0.020518150991860336,-0.08022881335577108, ,0.00044091148750349465, ,0.0043046589153955435,-8.796199028168202e-05,-0.0073545996381724505,-0.014390135742621326,-0.025311611863683168,-0.0003627743484347468, ,0.008522204029911218, ,0.029116209923531384, ,4.660763037235259e-05, ,0.13658425361353468,-0.2504713953097235,0.08968771252,1.6045474475435806,0.136499863265675,-1.3097786398751947, ,0.04247848771641485,0.024432786189101642,0.007574327874465051,0.0013936950324158653,0.01735981129767681,-0.009636544493854295, ,0.2459561824798584
0.009913120401661627,0.02065216832755087,-0.08028138427979388, ,0.010204734733471747,0.02052639254700992,-0.08062755662606355, ,0.0004697805432429032, ,0.004500558436056643,0.0005796678541832766,-0.010011769417524059,-0.004682518148807689,-0.014553445892810362,0.002674410898460541, ,0.010992113897117519, ,0.015288187040294035, ,4.830797248224878e-05, ,0.1382600866472414,-0.2494828855018228,0.09006234033,1.6049668274305493,0.13745631876403308,-1.3106402439412101, ,0.04108092708158908,0.02439510065770457,0.010336671979234265,0.0007005890199854714,0.027191640154250796,-0.0193909986160029, ,0.28803300857543945
0.010084552502580694,0.020677591967569346,-0.08067804785752096, ,0.010385797513702045,0.020533023725508793,-0.08102405657906234, ,0.00048100994659225045, ,0.004277634893150515,0.0004541972582203797,-0.009619164111517356,-0.01810406407570349,-0.026314170900792633,-0.008127575661953568, ,0.010537209005841024, ,0.031940454660178606, ,4.976252889354509e-05, ,0.13981235595496053,-0.24854843482404163,0.09047196797000001,1.605176517374034,0.13868604726192205,-1.3116430050744778, ,0.03658324655299568,0.024439078433806535,0.0098875304283054,0.007172555443938769,0.008774099822640876,-0.005129669906136064, ,0.3300631046295166
0.010247418339107807,0.020689580318180478,-0.08104137991439943, ,0.010567012281288306,0.02053808921802907,-0.08141830492735345, ,0.0005168774581019655, ,0.003947570981559657,0.0002486264656660234,-0.008725463462049068,-0.005756046337421116,-0.011059234639721777,-0.008255616769635196, ,0.009580127577513505, ,0.012467505351079222, ,5.13896141942794e-05, ,0.14127195246818897,-0.24757537048188932,0.09084141062000001,1.6053862073175185,0.1397791392600456,-1.3125343483040492, ,0.035147015392026214,0.023988104539552774,0.00893371369601795,0.01079256776605672,0.022735793910159337,-0.016944312379769746, ,0.37321901321411133
0.010416284646890647,0.020702989161325836,-0.08143819939120239, ,0.010748351580732316,0.02054163330358525,-0.08181029358908887, ,0.0005241738771428681, ,0.0046499362162657175,0.00033897024621065724,-0.010384991850347022,-0.014996960133780317,-0.022563964225613027,-0.009921257445683914, ,0.011383534748703045, ,0.027093194238387453, ,5.3445196416565806e-05, ,0.14277788537866273,-0.24650963334524634,0.09125233455000001,1.6058055872044876,0.14100886775793453,-1.3135371094373172, ,0.039722453561519794,0.027715228258899178,0.010661855100401608,0.01008876372390813,0.015156182387493718,-0.011044933416743664, ,0.4098629951477051
0.01059997595224841,0.0207094314611805,-0.08185749193857407, ,0.010929788353361603,0.020543699851029263,-0.0822000146870997, ,0.0005035524002414472, ,0.0049173994440553205,2.795401781913256e-05,-0.010166411581962843,-0.01915264288560148,-0.029831212734538985,0.007947362995578001, ,0.011293251222450337, ,0.035450315571438115, ,5.4932966822605884e-05, ,0.14439193654937565,-0.24531260974974156,0.09168140654000001,1.6062249670914566,0.1422385962558235,-1.3146215493107254, ,0.04295923112651461,0.030183505584755334,0.010417796939175933,-0.008807479957390747,0.015743012015770916,-0.011944162930134034, ,0.447296142578125
0.010751584951606524,0.020711322476669444,-0.08219050278793648, ,0.011111295935433937,0.02054433232054643,-0.08258746054800951, ,0.0005611177839012724, ,0.004946648764139578,0.00017738088106045624,-0.011227350948535306,0.005069169346188847,0.0007834206321737845,-0.005350828778361674, ,0.012270053271860969, ,0.005129332056972911, ,5.681155210072324e-05, ,0.1457279693366165,-0.24433954540758926,0.09202233081000001,1.6060152771479719,0.1431950517541816,-1.315483153376741, ,0.04407661010611741,0.03165341613024376,0.011517578828633407,0.011745580210580192,0.04330642135242169,-0.034743839250843706, ,0.48389601707458496
0.01090497446682996,0.020710827066929765,-0.0825153956340188, ,0.011292848056241818,0.020543573765150605,-0.08297262370134588, ,0.0006224765809819072, ,0.005063966013934012,-0.00018342337425642869,-0.0110115033502229,0.026697081111003832,0.025810985545856757,0.0015198208081513825, ,0.012121493388047222, ,0.037134094210052815, ,5.9627624784498914e-05, ,0.14710261578822845,-0.24335875833256274,0.09235547734,1.606434657034941,0.14428814375230511,-1.316456175346453, ,0.04879020131540914,0.03504318373651063,0.011281027988668556,0.011731735132033126,0.07397417087875231,-0.059696750021421975, ,0.5154860019683838
0.011132981116070391,0.020716960640937032,-0.082994954381026, ,0.011474418836216737,0.020541466832180045,-0.08335549687865267, ,0.0005266580353945467, ,0.0056109640008216175,0.00030535121362163187,-0.012537859496551682,0.0312755886538463,0.008200270305043326,-0.0036789169141578457, ,0.01373950789284127, ,0.032332747623655386, ,6.122094824381546e-05, ,0.14911824906840107,-0.24200728007957345,0.09284936383,1.6066443469784255,0.14579114524972495,-1.3180084872476758, ,0.05013044984599618,0.033556202814169295,0.01292923012987013,0.01292815697577606,0.05690182930125375,-0.06260262909017333, ,0.5472240447998047
0.011316702199311515,0.020725236100068843,-0.08337914776904518, ,0.011655982785033454,0.02053805376479366,-0.08373607301260075, ,0.0005268246121567384, ,0.005533485670039561,6.0602517125750926e-05,-0.012413294381441073,0.03532965671599024,0.032773663497848084,0.007574300807192169, ,0.013590916588881402, ,0.04819022066770889, ,6.264504576786765e-05, ,0.15070140930761708,-0.24097243387442738,0.09324602857000001,1.6068540369219102,0.14674760074808305,-1.319115127534113, ,0.051998324141627826,0.03566213512155985,0.012783957881219905,0.007956162146805203,0.08537576502182591,-0.06944171187969592, ,0.5787041187286377
0.011429452034191856,0.02072656170730497,-0.08362174804242059, ,0.011837514799714045,0.020533376403466135,-0.08411434523609818, ,0.0006681974090371444, ,0.005821231148462104,-5.5800194971999335e-05,-0.012098636611529835,0.008068516783133832,-0.0019633145733075346,-0.002249517105776716, ,0.01342634922841777, ,0.008303933282807752, ,6.567899602596856e-05, ,0.15173625551276318,-0.24027738791574718,0.09349621254000001,1.6070637268653947,0.14811396574573746,-1.3202293065710773, ,0.051743152431009146,0.0359186001356816,0.012454113776387804,0.008953732788950463,0.049078301741380746,-0.04226503962058279, ,0.6051201820373535
0.01160828317320179,0.020734024092940572,-0.08401353280171295, ,0.012018990162731776,0.020527476187484735,-0.08449030688140055, ,0.0006623109477873199, ,0.005982512372561851,0.000375063075418863,-0.013499429678129643,0.023190345298940557,0.023688094113289062,0.01188861648060402, ,0.014770434260141631, ,0.033149924125033814, ,6.841601215430853e-05, ,0.15329624755335652,-0.23922709624485264,0.09390065502000002,1.6072734168088794,0.1497536037429227,-1.3216480001555748, ,0.05382696628387452,0.03464656500856911,0.01397264168421053,0.0018651089255645196,0.07936656052655978,-0.05716326941011074, ,0.6326701641082764
0.01175460309430171,0.020738794388751487,-0.08432353402460796, ,0.012200384540115343,0.020520394156446083,-0.08486395147922024, ,0.0007338056855546731, ,0.007040263855575494,0.0004870412955525955,-0.01564949193454543,-0.004798641071149772,-0.014145376178475957,-0.011010970591154527, ,0.017167094168469475, ,0.014937124379065138, ,7.206792990778027e-05, ,0.15453960754610666,-0.23838531836156215,0.09422083865000001,1.607692796695848,0.1507100592412808,-1.3222645680011686, ,0.05775833326748069,0.03937632429812066,0.01617138225380711,0.01537815032743562,0.04117275487387878,-0.03180306201584389, ,0.6541900634765625
0.011822687421707369,0.020742099857239793,-0.0844832229772385, ,0.01238167397955208,0.020512170951750643,-0.08523527275783532, ,0.0009648378858265534, ,0.0068667699250703935,0.00043524290458770787,-0.01623086188243724,0.04107680171474688,0.03666955736641633,0.0016670103261204141, ,0.01762903409255877, ,0.05506322684080482, ,7.727228503236052e-05, ,0.15512653524454773,-0.23796829078635404,0.09438546748000001,1.607692796695848,0.15152987823987346,-1.3228513966832067, ,0.06025202638633065,0.04147593599583513,0.016767170021052633,0.01537815032743562,0.09605543283475419,-0.07974106357495205, ,0.6760561466217041
0.012120066140828287,0.02077046710454945,-0.0851969569790332, ,0.012562834908492129,0.02050284681810063,-0.08560426464219775, ,0.0006584560211662348, ,0.008171005902848775,0.000254981878040994,-0.018852000726651687,0.003605280282916923,-0.003099054583050854,-0.004295268713097786, ,0.020548194193655913, ,0.004753925122933798, ,7.987950056248584e-05, ,0.1575128597026831,-0.23631562595127,0.0951087973,1.607692796695848,0.15426260823518226,-1.3249163972768538, ,0.06626881393747959,0.04927151690470964,0.019307650327272732,0.011550726199863063,0.06199221054735317,-0.04290785655260024, ,0.6969959735870361
0.0122698814481241,0.02076926052971292,-0.08551998509324553, ,0.01274384413225172,0.020492461604996196,-0.08597092125304175, ,0.0007103532155776823, ,0.00826865993379317,-0.0002834699511988037,-0.01695984700549981,0.010320518079669109,0.02407893118543359,-0.0001386142192259929, ,0.01887028094024861, ,0.026197454404916727, ,8.331537438650209e-05, ,0.1588411697570497,-0.23535028434199193,0.09545620302,1.608321866526302,0.15590224623236756,-1.3260083759007892, ,0.073506538774958,0.05082857073297846,0.017523445016501653,0.015452952598667025,0.09670453301732332,-0.058114400478422056, ,0.7165431976318359
0.012365518182070386,0.020765725275397086,-0.08571051339198765, ,0.01292467883211685,0.020481054768231987,-0.08633523690599108, ,0.0008854249822310265, ,0.008685886367412016,-0.0004928920266798233,-0.01706984809566491,0.02020681620520738,0.001915502037980643,-0.004985679353907081, ,0.01915899993597352, ,0.02029736731553985, ,8.78545090941558e-05, ,0.1596829476403402,-0.23477880210929933,0.09565323910000001,1.608321866526302,0.15685870173072564,-1.326624943746383, ,0.07525530654914415,0.05263280175178634,0.017351646535947715,0.015049943018633405,0.07611808049327068,-0.07046797722692665, ,0.7322490215301514
0.012562313146221245,0.020758975801041517,-0.08611636668369321, ,0.013105316563446523,0.020468665371393236,-0.08669720611066688, ,0.0008464675401974919, ,0.01013969911774218,0.0004750659160378362,-0.02265439600491124,0.018600479317872908,0.008277256170253126,0.00031634318810638416, ,0.024824601591370215, ,0.02035890059592266, ,9.193076093272241e-05, ,0.16128155334530467,-0.23362039217816563,0.09605508900000001,1.608321866526302,0.15849833972791091,-1.327798601110459, ,0.08223305161045995,0.05797003149570604,0.023152342325581398,0.012161567602629986,0.09048351973956359,-0.07323693965839662, ,0.7480401992797852
0.01266346582677183,0.02076685599298919,-0.08635001143419546, ,0.013285735253776144,0.0204553320873536,-0.08705682356979352, ,0.0009918920196248294, ,0.010759676266294285,0.0009152068710713458,-0.025359388322325246,0.04246951392189992,0.020208801087716947,0.014405208765173327, ,0.02756277948710541, ,0.04703237997525313, ,9.750338505520092e-05, ,0.16216966762584048,-0.23302574174685037,0.09631434700000001,1.6085315564697864,0.15959143172603446,-1.3286899443400304, ,0.08595737460006411,0.05908900470639525,0.02628516752475248,0.0013747469424991337,0.10881941189456966,-0.10057047310090213, ,0.7586371898651123
0.012782852084437309,0.020775517761075276,-0.08663705787735064, ,0.013465913200920767,0.02044109319977132,-0.08741408417830578, ,0.0010872820004170919, ,0.012428249818290948,0.0010479154098082322,-0.03036520567359826,0.053159327127262575,0.03833195904361754,0.003177197304589912, ,0.03282689805406363, ,0.06553798386591969, ,0.00010357328458109677, ,0.16304233644062785,-0.23239247765116394,0.09658916048,1.6087412464132707,0.16068452372415798,-1.3295812875696016, ,0.09653808907270679,0.0705553468836214,0.031171842504892373,0.017379328366858297,0.1307369550001211,-0.11656500697287032, ,0.7691152095794678
0.012905830568669353,0.020791383398193728,-0.08694981287247315, ,0.013645829071078091,0.02042598660458601,-0.08776898302245448, ,0.0011628208524817598, ,0.012990234624050693,0.0020156223771155006,-0.034138462078913495,0.07090146481487955,0.059930499787134134,0.010807372863141469, ,0.03658201091067068, ,0.09283660996332196, ,0.00010998720594565762, ,0.16405401444715126,-0.23166654076098683,0.09693526991000001,1.6089509363567556,0.1621875252215778,-1.330725205770122, ,0.09864546939549977,0.06977716291064028,0.03539735893333334,0.015130451597902727,0.15941389628868205,-0.1373113628856872, ,0.7796690464019775
0.013040984835521977,0.020810736489316518,-0.0872971147133482, ,0.013825461896931752,0.020410049811516146,-0.08812151537891343, ,0.0012064785663364315, ,0.014387189238012164,0.0019895831298701147,-0.03582291535938905,0.04677803833132971,0.04076309035337836,0.009524085954881845, ,0.03865528321002174, ,0.06204639725013024, ,0.00011652034604132065, ,0.16508886065229733,-0.23094832660368397,0.09729563853,1.6089509363567556,0.16382716321876312,-1.3320622206144788, ,0.10945437319316122,0.07419620137487942,0.037216849345794396,0.013511786073772557,0.15116308784440635,-0.11779906675260478, ,0.7903971672058105
0.013040984835521977,0.020810736489316518,-0.0872971147133482, ,0.014004791075754095,0.020393319945555644,-0.08847167671388322, ,0.0015756760240660116, ,0.014387189238012164,0.0019895831298701147,-0.03582291535938905,0.04677803833132971,0.04076309035337836,0.009524085954881845, ,0.03865528321002174, ,0.06204639725013024, ,0.00012612005444937783, ,0.16508886065229733,-0.23094832660368397,0.09729563853,1.6089509363567556,0.16382716321876312,-1.3320622206144788, ,0.10945437319316122,0.07419620137487942,0.037216849345794396,0.013511786073772557,0.15116308784440635,-0.11779906675260478, ,0.7958550453186035
0.01319448922801737,0.020832094767874534,-0.08767641974299477, ,0.014183796367509285,0.020375833748471624,-0.08881946268219776, ,0.0015790661464733092, ,0.01591082529299806,0.002075474637598901,-0.040000084309199796,0.02509723410237727,0.021250028609072567,0.014996787446720719, ,0.04309836077182884, ,0.03288362015345587, ,0.0007154936007854738, ,0.16623182511768256,-0.2301683305833873,0.09768971069000001,1.6091606263002398,0.1651935282164175,-1.333013042171162, ,0.11658100928559063,0.08338922808301474,0.04148128,0.003534270413336417,0.14076523011586506,-0.10675368968990392, ,0.8021590709686279
0.013371312703131001,0.02085283098739033,-0.0881267810111503, ,0.01436245789295601,0.02035762758030092,-0.08916486912642863, ,0.0015182958001615846, ,0.01873901429572057,0.0025201873241124093,-0.04796984537996366,0.06164088699155494,0.06591168846084436,0.009852704226666831, ,0.051561691852590116, ,0.09024242694131407, ,0.0007422536740980108, ,0.16754468970630074,-0.22920298897410923,0.09815637509000001,1.6093703162437245,0.16710643921313365,-1.3344095353426306, ,0.1381323749031598,0.09895405793375472,0.049777536000000004,0.021001872229423946,0.20465496210601322,-0.15576641358328688, ,0.8074619770050049
0.013371312703131001,0.02085283098739033,-0.0881267810111503, ,0.014540756131750182,0.020338737420847516,-0.08950789207599041, ,0.0018813181286866602, ,0.01873901429572057,0.0025201873241124093,-0.04796984537996366,0.06164088699155494,0.06591168846084436,0.009852704226666831, ,0.051561691852590116, ,0.09024242694131407, ,0.0007789976887621608, ,0.16754468970630074,-0.22920298897410923,0.09815637509000001,1.6093703162437245,0.16710643921313365,-1.3344095353426306, ,0.1381323749031598,0.09895405793375472,0.049777536000000004,0.021001872229423946,0.20465496210601322,-0.15576641358328688, ,0.812751054763794
0.013563820937198677,0.02088358112802768,-0.08863731559807066, ,0.014718671920547903,0.020319198871180062,-0.08984852774624416, ,0.0017661378749888581, ,0.020482876367629285,0.0038650014126957537,-0.05506964808794507,0.11500522139046092,0.12197507320901692,0.022727710006100188, ,0.05888253222087038, ,0.16764132232937215, ,0.000809845819581745, ,0.16895794982228382,-0.22819903370046005,0.09868655770000001,1.609580006187209,0.16956589620891158,-1.3364150576091665, ,0.14920902760765847,0.10182075274514032,0.057297883165467633,0.02265420625719225,0.27313963057064133,-0.21161106862620865, ,0.8180050849914551
0.013563820937198677,0.02088358112802768,-0.08863731559807066, ,0.014896186451107922,0.02029904715512929,-0.09018677253760238, ,0.0021254869172944897, ,0.020482876367629285,0.0038650014126957537,-0.05506964808794507,0.11500522139046092,0.12197507320901692,0.022727710006100188, ,0.05888253222087038, ,0.16764132232937215, ,0.0008497137316336463, ,0.16895794982228382,-0.22819903370046005,0.09868655770000001,1.609580006187209,0.16956589620891158,-1.3364150576091665, ,0.14920902760765847,0.10182075274514032,0.057297883165467633,0.02265420625719225,0.27313963057064133,-0.21161106862620865, ,0.8233380317687988
0.013675368281152142,0.02090522837456389,-0.0889373896556358, ,0.015073281268394188,0.020278317120784962,-0.09052262303463324, ,0.0022045732707039424, ,0.022364192232802803,0.004225839196993098,-0.05954916669021006,0.10311531580466386,0.10508506345325351,0.021889283213350336, ,0.06375043579963217, ,0.1472239453782342, ,0.0008895625416063022, ,0.1697688367740774,-0.22765071966639008,0.09899896359000002,1.6097896961306934,0.17106889770633144,-1.337640654549827, ,0.15975916087284645,0.10882676784228298,0.061979811361867705,0.02050367416443263,0.267099794641701,-0.2069207197148457, ,0.8286910057067871
0.013675368281152142,0.02090522837456389,-0.0889373896556358, ,0.01524993826867838,0.020257043241993525,-0.09085607600516335, ,0.0025653015260524424, ,0.022364192232802803,0.004225839196993098,-0.05954916669021006,0.10311531580466386,0.10508506345325351,0.021889283213350336, ,0.06375043579963217, ,0.1472239453782342, ,0.0009374407983047632, ,0.1697688367740774,-0.22765071966639008,0.09899896359000002,1.6097896961306934,0.17106889770633144,-1.337640654549827, ,0.15975916087284645,0.10882676784228298,0.061979811361867705,0.02050367416443263,0.267099794641701,-0.2069207197148457, ,0.8340051174163818
0.014046438923215016,0.020964679041918174,-0.08989026756059655, ,0.015426139697642553,0.02023525961985621,-0.0911871283993825, ,0.0020291562175972955, ,0.026692920621044534,0.0036403591691894738,-0.06637482398931725,-0.018773781990067608,-0.027133803935783747,-0.026198902181440123, ,0.0716336616806298, ,0.032975898873521294, ,0.0009677662266184448, ,0.17224011129382924,-0.2258899365710669,0.09996469964000002,1.6099993860741781,0.17393826420140568,-1.3397353943070303, ,0.17737746085695474,0.12893606190009615,0.06865867034482759,0.038427392332027216,0.14644252441530906,-0.10326193662001616, ,0.8392291069030762
0.014046438923215016,0.020964679041918174,-0.08989026756059655, ,0.015601868148481194,0.020212999984225447,-0.0915157773489463, ,0.0023720589268833095, ,0.026692920621044534,0.0036403591691894738,-0.06637482398931725,-0.018773781990067608,-0.027133803935783747,-0.026198902181440123, ,0.0716336616806298, ,0.032975898873521294, ,0.0010057200833823601, ,0.17224011129382924,-0.2258899365710669,0.09996469964000002,1.6099993860741781,0.17393826420140568,-1.3397353943070303, ,0.17737746085695474,0.12893606190009615,0.06865867034482759,0.038427392332027216,0.14644252441530906,-0.10326193662001616, ,0.8444809913635254
0.014335082477170266,0.020995694022587604,-0.09059945882546125, ,0.015777106560003824,0.020190297695203474,-0.09184202016608019, ,0.002066895107361896, ,0.028836077140893503,0.002563905042950934,-0.07006157693993964,0.04603996705353771,0.013818851175698333,-0.007465301116231034, ,0.07580710730041024, ,0.0480515463723932, ,0.0010336457419081373, ,0.17412445811514002,-0.22448439918795804,0.10067377027,1.6099993860741781,0.17571453869835643,-1.3410204695748025, ,0.19811470053960498,0.1499161793972682,0.07340466138248848,0.029630810848836942,0.20510497301706967,-0.18358594293257624, ,0.8497140407562256
0.014335082477170266,0.020995694022587604,-0.09059945882546125, ,0.015951838214737026,0.020167185744639146,-0.09216585434268151, ,0.00239873299847063, ,0.028836077140893503,0.002563905042950934,-0.07006157693993964,0.04603996705353771,0.013818851175698333,-0.007465301116231034, ,0.07580710730041024, ,0.0480515463723932, ,0.0010686479792558936, ,0.17412445811514002,-0.22448439918795804,0.10067377027,1.6099993860741781,0.17571453869835643,-1.3410204695748025, ,0.19811470053960498,0.1499161793972682,0.07340466138248848,0.029630810848836942,0.20510497301706967,-0.18358594293257624, ,0.8549900054931641
0.014605240873832102,0.02101226769632346,-0.09123452702942375, ,0.01612604673702718,0.020143696757626717,-0.09248727754942394, ,0.002153288140133089, ,0.030688206106709675,0.0015044146568967843,-0.0698923708330072,0.05756509476725772,0.026634517875089997,0.020621503587010242, ,0.07634770958035594, ,0.06341506019244281, ,0.0010957639832778236, ,0.17616325959393528,-0.22297074354461005,0.10138543348000001,1.6102090760176624,0.17803735919436892,-1.342996252677782, ,0.21865654736974832,0.15789840525535903,0.0727342991780822,0.006763085362299434,0.24988678510458884,-0.21185091043123433, ,0.8603811264038086
0.014605240873832102,0.02101226769632346,-0.09123452702942375, ,0.01629971609114185,0.02011986299400166,-0.09280628763485807, ,0.0024775116176515154, ,0.030688206106709675,0.0015044146568967843,-0.0698923708330072,0.05756509476725772,0.026634517875089997,0.020621503587010242, ,0.07634770958035594, ,0.06341506019244281, ,0.001129465145091816, ,0.17616325959393528,-0.22297074354461005,0.10138543348000001,1.6102090760176624,0.17803735919436892,-1.342996252677782, ,0.21865654736974832,0.15789840525535903,0.0727342991780822,0.006763085362299434,0.24988678510458884,-0.21185091043123433, ,0.8657090663909912
0.014924949290504058,0.02101241034551305,-0.09191281949878842, ,0.01647283057937279,0.020095716349840805,-0.09312288262451673, ,0.0021680676037381425, ,0.032210545306948515,-0.0015890927256501839,-0.06319679954580795,-0.010077822355124885,-0.05189815653289155,-0.007970983181145695, ,0.07094984085602117, ,0.052858046883769466, ,0.0011541937750595857, ,0.1785032476548253,-0.2212871877780291,0.10209191153000001,1.6106284559046316,0.18049681619014685,-1.345001774944318, ,0.23783694626183152,0.17253989374267414,0.06582153520661158,0.01863380108021367,0.18635235471769854,-0.1564495873521556, ,0.8710989952087402
0.014924949290504058,0.02101241034551305,-0.09191281949878842, ,0.016645374840137204,0.0200712883589579,-0.09343706072001548, ,0.0024837242129302083, ,0.032210545306948515,-0.0015890927256501839,-0.06319679954580795,-0.010077822355124885,-0.05189815653289155,-0.007970983181145695, ,0.07094984085602117, ,0.052858046883769466, ,0.0011851130875682049, ,0.1785032476548253,-0.2212871877780291,0.10209191153000001,1.6106284559046316,0.18049681619014685,-1.345001774944318, ,0.23783694626183152,0.17253989374267414,0.06582153520661158,0.01863380108021367,0.18635235471769854,-0.1564495873521556, ,0.8764970302581787
0.015262712843097662,0.02098246201451426,-0.09253756220796894, ,0.01681733384608046,0.0200466101944029,-0.09374882029815582, ,0.0021816991665131453, ,0.034082964747751604,-0.003944984371433007,-0.06013556277961285,-0.03301217618548349,-0.07774921399384406,-0.0765169682158482, ,0.0692350871921751, ,0.08446275882842778, ,0.00120776277118059, ,0.1810208585718225,-0.21943373188821522,0.10274264911000001,1.6112575257350852,0.1821364541873321,-1.346338789788675, ,0.2578721238001923,0.18903773218818878,0.06271185637795276,0.08179093384750723,0.16635756089457437,-0.13846152666905154, ,0.8818271160125732
0.015608965167659606,0.020928858626361853,-0.09312714357391205, ,0.01698869290217766,0.020021712669959002,-0.09405815991002751, ,0.0018956143663019175, ,0.034082964747751604,-0.003944984371433007,-0.06013556277961285,-0.03301217618548349,-0.07774921399384406,-0.0765169682158482, ,0.0692350871921751, ,0.08446275882842778, ,0.001223048362183286, ,0.18368520141342995,-0.2174489895395395,0.10335709057,1.6112575257350852,0.1840493651840483,-1.3479803191805653, ,0.26581776346910585,0.19894537014354458,0.05834729494505495,0.056375785029242,0.19417558443916788,-0.15458680574135059, ,0.8870651721954346
0.015608965167659606,0.020928858626361853,-0.09312714357391205, ,0.017159437643835436,0.01999662624164029,-0.09436507828011045, ,0.0021921460843914997, ,0.0341550338717316,-0.006104267986595034,-0.05593035456465044,-0.030881740314538542,-0.06410664354855561,-0.04859952651630255, ,0.06581818128875043, ,0.07115332962181949, ,0.001244115703970421, ,0.18368520141342995,-0.2174489895395395,0.10335709057,1.6112575257350852,0.1840493651840483,-1.3479803191805653, ,0.26581776346910585,0.19894537014354458,0.05834729494505495,0.056375785029242,0.19417558443916788,-0.15458680574135059, ,0.892524003982544
0.015950294140541922,0.020854342650927067,-0.09366149694658557, ,0.017329554034994775,0.019971381009191245,-0.09466957430537724, ,0.0019230702219449264, ,0.03506477264395832,-0.00802337644100649,-0.054722440769151615,-0.016153068829291257,-0.04827764830133022,0.018656280548691853, ,0.06548632203613126, ,0.05090346005341182, ,0.0012585615447783893, ,0.18639588065228277,-0.2153947425949958,0.10391449527,1.6114672156785694,0.18623554918029533,-1.3498446843798486, ,0.2782901511978615,0.21277341156607796,0.057092514408602156,-0.007634580882603131,0.23721239179397177,-0.19422885825471098, ,0.8977231979370117
0.015950294140541922,0.020854342650927067,-0.09366149694658557, ,0.01749902836623156,0.019946006717581982,-0.09497164705439444, ,0.002222643735424091, ,0.03506477264395832,-0.00802337644100649,-0.054722440769151615,-0.016153068829291257,-0.04827764830133022,0.018656280548691853, ,0.06548632203613126, ,0.05090346005341182, ,0.0012786465904168415, ,0.18639588065228277,-0.2153947425949958,0.10391449527,1.6114672156785694,0.18623554918029533,-1.3498446843798486, ,0.2782901511978615,0.21277341156607796,0.057092514408602156,-0.007634580882603131,0.23721239179397177,-0.19422885825471098, ,0.9030270576477051
0.01631333065430852,0.020766525660520483,-0.0942190495979359, ,0.01766784725285927,0.019920532758508278,-0.09527129576642522, ,0.0019124960666900691, ,0.03646248064858117,-0.00870020111221536,-0.05625903901844361,-0.02059033775583295,-0.0540080922152496,4.130222680514691e-05, ,0.06760388646904784, ,0.05779509015371815, ,0.0012915822940142542, ,0.1892764600143685,-0.21317831826009337,0.10449652948000002,1.6112575257350852,0.18869500617607327,-1.3520135641266653, ,0.2858341613206951,0.22120499197778737,0.058777902287822884,0.008627901008007593,0.2353503376952246,-0.19508978389308182, ,0.9083499908447266
0.01631333065430852,0.020766525660520483,-0.0942190495979359, ,0.017835997633030672,0.019894988171888887,-0.09556851985053086, ,0.002213405133458362, ,0.03646248064858117,-0.00870020111221536,-0.05625903901844361,-0.02059033775583295,-0.0540080922152496,4.130222680514691e-05, ,0.06760388646904784, ,0.05779509015371815, ,0.0013100187508031363, ,0.1892764600143685,-0.21317831826009337,0.10449652948000002,1.6112575257350852,0.18869500617607327,-1.3520135641266653, ,0.2858341613206951,0.22120499197778737,0.058777902287822884,0.008627901008007593,0.2353503376952246,-0.19508978389308182, ,0.9138400554656982
0.016524914948191177,0.02071407878641165,-0.09454152722806411, ,0.01800346676583933,0.019869401647363172,-0.0958633188846719, ,0.00215562708513781, ,0.03757595979701777,-0.009067301600021112,-0.05680457070159566,-0.04670869270271715,-0.09002952428475734,-0.0071515883502866195, ,0.06870900934786807, ,0.10142201816741259, ,0.001326599306378326, ,0.1909368475823268,-0.21188862187009788,0.10483356488000001,1.6112575257350852,0.19006137117372765,-1.3530460644234892, ,0.2910949127560453,0.2248742690959023,0.05943586388059702,0.007867464897266354,0.20398113990772088,-0.17265381856407389, ,0.9191670417785645
0.016524914948191177,0.02071407878641165,-0.09454152722806411, ,0.018170242229421343,0.01984380152578935,-0.09615569261481076, ,0.0024637398946494873, ,0.03757595979701777,-0.009067301600021112,-0.05680457070159566,-0.04670869270271715,-0.09002952428475734,-0.0071515883502866195, ,0.06870900934786807, ,0.10142201816741259, ,0.0013484673946143099, ,0.1909368475823268,-0.21188862187009788,0.10483356488000001,1.6112575257350852,0.19006137117372765,-1.3530460644234892, ,0.2910949127560453,0.2248742690959023,0.05943586388059702,0.007867464897266354,0.20398113990772088,-0.17265381856407389, ,0.9244651794433594
0.017081861388984414,0.020577674586238288,-0.09536643237648815, ,0.018336311919057588,0.019818215800743142,-0.09644564095401349, ,0.0018207457079644337, ,0.03885952752566636,-0.009683840991592512,-0.05657389243756644,-0.09982868032844687,-0.13251107439128645,-0.009046216004085852, ,0.06931410362549463, ,0.16590470372056443, ,0.0013573783061869536, ,0.19519207339602448,-0.20859873766567824,0.10569819031000001,1.6114672156785694,0.19252082816950558,-1.355133265430165, ,0.2956291014282579,0.22702617597720282,0.05943586388059702,0.0,0.16679765942261043,-0.12292751157168327, ,0.9298660755157471
0.017081861388984414,0.020577674586238288,-0.09536643237648815, ,0.018501664045274077,0.01979267212001374,-0.09673316398154919, ,0.002121325937959212, ,0.03885952752566636,-0.009683840991592512,-0.05657389243756644,-0.09982868032844687,-0.13251107439128645,-0.009046216004085852, ,0.06931410362549463, ,0.16590470372056443, ,0.0013715254845531068, ,0.19519207339602448,-0.20859873766567824,0.10569819031000001,1.6114672156785694,0.19252082816950558,-1.355133265430165, ,0.2956291014282579,0.22702617597720282,0.05943586388059702,0.0,0.16679765942261043,-0.12292751157168327, ,0.9353210926055908
0.01744598497460181,0.020484713357550307,-0.09590058839026676, ,0.018666287131945066,0.019767197787104424,-0.09701826194199402, ,0.0018036518836182097, ,0.039019387020650824,-0.010236572171784974,-0.05717349233976941,-0.07161058771167907,-0.09838341443163844,-0.0034972538097022767, ,0.06997219590395294, ,0.12168303744870844, ,0.0013793823281724722, ,0.19795681176499685,-0.20645181792664383,0.10625948388,1.6114672156785694,0.19429710266645633,-1.3566633769183591, ,0.2956291014282579,0.23145595502066044,0.06010872271698114,0.0,0.20160774605160092,-0.15540905217458761, ,0.9405770301818848
0.01744598497460181,0.020484713357550307,-0.09590058839026676, ,0.018830170014393507,0.0197418197627285,-0.09730093524433123, ,0.0021044786597394297, ,0.039019387020650824,-0.010236572171784974,-0.05717349233976941,-0.07161058771167907,-0.09838341443163844,-0.0034972538097022767, ,0.06997219590395294, ,0.12168303744870844, ,0.0013923304769504535, ,0.19795681176499685,-0.20645181792664383,0.10625948388,1.6114672156785694,0.19429710266645633,-1.3566633769183591, ,0.2956291014282579,0.23145595502066044,0.06010872271698114,0.0,0.20160774605160092,-0.15540905217458761, ,0.946087121963501
0.017836212032095507,0.020380429612386102,-0.09647594769522506, ,0.01899330183749331,0.01971656466630874,-0.09758118446105232, ,0.001732374611024453, ,0.038158411037823886,-0.010699248779320734,-0.0551993138158572,-0.04783926487481235,-0.0688602168221869,-0.0005478074120554557, ,0.06795220749258113, ,0.0838439756608788, ,0.001398296163513155, ,0.20091461845582484,-0.20411955259862802,0.10686485131000001,1.6116769056220543,0.19661992316246882,-1.358639160021339, ,0.28931994377582554,0.22921966560017099,0.05813434861313869,0.0013693319841456201,0.2249751184668005,-0.1765858063353998, ,0.9517300128936768
0.017836212032095507,0.020380429612386102,-0.09647594769522506, ,0.019155672053770466,0.019691458777474597,-0.09785901032725938, ,0.0020318754401505114, ,0.038158411037823886,-0.010699248779320734,-0.05283030921056178,-0.06587138975169946,-0.0936301871256568,-0.02005482068993341, ,0.06795220749258113, ,0.0838439756608788, ,0.0014092199441448337, ,0.20388014787952705,-0.2018104554692349,0.10745466326000001,1.6118865955655386,0.1986694706589504,-1.3603921073169258, ,0.2841225795163796,0.22120499197778737,0.05589056673684212,0.015187622855272422,0.19147669520683616,-0.14780119673574013, ,0.9577090740203857
0.018230058006107094,0.02027245794929898,-0.09703429464697007, ,0.019317270421504846,0.01966652803756097,-0.09813441373976521, ,0.001661157401472315, ,0.03782188535145924,-0.010606774214469332,-0.05283030921056178,-0.06587138975169946,-0.0936301871256568,-0.02005482068993341, ,0.065833427998694, ,0.11447812186391995, ,0.0014134900705402148, ,0.20388014787952705,-0.2018104554692349,0.10745466326000001,1.6118865955655386,0.1986694706589504,-1.3603921073169258, ,0.2841225795163796,0.22120499197778737,0.05589056673684212,0.015187622855272422,0.19147669520683616,-0.14780119673574013, ,0.9631631374359131
0.01859295332244521,0.02017061427657486,-0.09753843497120555, ,0.019478087002831233,0.01964179805110541,-0.0984073957561947, ,0.0013484068667588495, ,0.03696647688567674,-0.010209389685621894,-0.051805811661465286,-0.06751729013857154,-0.09593824951233995,-0.016612504451595338, ,0.06445614146840754, ,0.11731308123753494, ,0.001412405350477192, ,0.20659082711837987,-0.1997021493945716,0.10798873474000001,1.6120962855090233,0.20044574515590113,-1.3618405400649793, ,0.27347821774775444,0.21277341156607796,0.05492693627586208,0.009951646589249035,0.1793013205952394,-0.13877558560064865, ,0.9683830738067627
0.01859295332244521,0.02017061427657486,-0.09753843497120555, ,0.019638112161841127,0.01961729408734682,-0.0986779575940864, ,0.0016422643025506044, ,0.03696647688567674,-0.010209389685621894,-0.051805811661465286,-0.06751729013857154,-0.09593824951233995,-0.016612504451595338, ,0.06445614146840754, ,0.11731308123753494, ,0.001416173530019379, ,0.20659082711837987,-0.1997021493945716,0.10798873474000001,1.6120962855090233,0.20044574515590113,-1.3618405400649793, ,0.27347821774775444,0.21277341156607796,0.05492693627586208,0.009951646589249035,0.1793013205952394,-0.13877558560064865, ,0.9736690521240234
0.018954415115810225,0.020068418976737865,-0.09804553343247369, ,0.019797336562684335,0.01959304108172385,-0.09894610062999336, ,0.0013219387224515128, ,0.03553586531530025,-0.009949602987929518,-0.0494440175951793,-0.05480941704435087,-0.07481748048399148,-0.013426409308653893, ,0.061696865392635435, ,0.09274390586470564, ,0.0014146536137682843, ,0.20926289269286155,-0.19760928878565676,0.10852669509000001,1.6120962855090233,0.2023586561526173,-1.3633187119765888, ,0.26214624739909054,0.20320544230935927,0.05257033504950496,0.009951646589249035,0.18924481916248723,-0.14200504627142801, ,0.9789731502532959
0.018954415115810225,0.020068418976737865,-0.09804553343247369, ,0.0199557511676697,0.01956906363737205,-0.0992118263985841, ,0.001616251504718648, ,0.03553586531530025,-0.009949602987929518,-0.0494440175951793,-0.05480941704435087,-0.07481748048399148,-0.013426409308653893, ,0.061696865392635435, ,0.09274390586470564, ,0.001417853580291306, ,0.20926289269286155,-0.19760928878565676,0.10852669509000001,1.6120962855090233,0.2023586561526173,-1.3633187119765888, ,0.26214624739909054,0.20320544230935927,0.05257033504950496,0.009951646589249035,0.18924481916248723,-0.14200504627142801, ,0.9844260215759277
0.019324589527954388,0.01996463180049278,-0.09856599284529456, ,0.020113347235367323,0.01954538602662323,-0.09947513659174342, ,0.0012745383837365826, ,0.03375410471257131,-0.009208160962917013,-0.048096611177460356,-0.025538732893295866,-0.04469179115895663,-0.008427611108381508, ,0.05947616177950643, ,0.05147160087094786, ,0.0014156142803451383, ,0.21197357193171434,-0.19549325997811923,0.10908021092000002,1.6120962855090233,0.2044082036490989,-1.3649083017918944, ,0.24584699885614195,0.1909395202383718,0.051218043472668826,0.009561109075631817,0.2033784716690602,-0.15925041738520349, ,0.9898221492767334
0.019324589527954388,0.01996463180049278,-0.09856599284529456, ,0.020270116318708988,0.019522032192502037,-0.09973603305767394, ,0.0015680910125413718, ,0.03375410471257131,-0.009208160962917013,-0.048096611177460356,-0.025538732893295866,-0.04469179115895663,-0.008427611108381508, ,0.05947616177950643, ,0.05147160087094786, ,0.0014179600762250805, ,0.21197357193171434,-0.19549325997811923,0.10908021092000002,1.6120962855090233,0.2044082036490989,-1.3649083017918944, ,0.24584699885614195,0.1909395202383718,0.051218043472668826,0.009561109075631817,0.2033784716690602,-0.15925041738520349, ,0.9951341152191162
0.019615748031999707,0.019886039194148483,-0.09899241261306002, ,0.020426050263090415,0.019499025750225645,-0.09999451779999637, ,0.0013455793983159524, ,0.032681720011807046,-0.008614184399703658,-0.048601078325844704,-0.009324097902990453,-0.020463720777761613,-0.0042648378061938405, ,0.05919766727023235, ,0.022481803916484747, ,0.0014168633992870632, ,0.2140741552735034,-0.1938405951430352,0.10953391242,1.6120962855090233,0.20632111464581507,-1.3664681524436444, ,0.23316201857118127,0.1842659059387782,0.05171692051948052,0.008479870441794208,0.21531024738621854,-0.16908593465882013, ,1.0004100799560547
0.019615748031999707,0.019886039194148483,-0.09899241261306002, ,0.020581141204472093,0.019476389988701406,-0.10025059297685103, ,0.0016379298754247674, ,0.032681720011807046,-0.008614184399703658,-0.048601078325844704,-0.009324097902990453,-0.020463720777761613,-0.0042648378061938405, ,0.05919766727023235, ,0.022481803916484747, ,0.0014201628989309097, ,0.2140741552735034,-0.1938405951430352,0.10953391242,1.6120962855090233,0.20632111464581507,-1.3664681524436444, ,0.23316201857118127,0.1842659059387782,0.05171692051948052,0.008479870441794208,0.21531024738621854,-0.16908593465882013, ,1.0056581497192383
0.01994967049489973,0.019801318611087273,-0.09950429014374224, ,0.020735381567480338,0.01945414787202404,-0.10050426089999767, ,0.0013182605679468477, ,0.031285654047130365,-0.007380071843466441,-0.04742939660408868,-0.02730541797492401,-0.04736899242138972,-0.00952480685308747, ,0.05729577010390374, ,0.054673277558753064, ,0.0014186643352399675, ,0.21642186606726765,-0.19197169378747286,0.11007835422000001,1.6120962855090233,0.20864393514182755,-1.368280578066343, ,0.21567486717834267,0.16795918859906334,0.05056765561904762,0.007470756894323824,0.17016667990424528,-0.13526582626993117, ,1.0109272003173828
0.01994967049489973,0.019801318611087273,-0.09950429014374224, ,0.020888764063509015,0.01943232204097497,-0.10075552403391744, ,0.0016073709737583705, ,0.031285654047130365,-0.007380071843466441,-0.04742939660408868,-0.02730541797492401,-0.04736899242138972,-0.00952480685308747, ,0.05729577010390374, ,0.054673277558753064, ,0.001421399214059075, ,0.21642186606726765,-0.19197169378747286,0.11007835422000001,1.6120962855090233,0.20864393514182755,-1.368280578066343, ,0.21567486717834267,0.16795918859906334,0.05056765561904762,0.007470756894323824,0.17016667990424528,-0.13526582626993117, ,1.0161709785461426
0.0202672863391716,0.019733510030198527,-0.09999109204995946, ,0.021041281688820777,0.01941093481452043,-0.10100438499491354, ,0.0013152513688805066, ,0.030723153916915602,-0.006092369729791589,-0.048110684491439404,-0.04454075195887833,-0.0623100106593537,-0.020805653976027735, ,0.05740790117886035, ,0.07659084970207931, ,0.0014198828162708098, ,0.21856878580630207,-0.19032675168526303,0.11059816651000001,1.6125156653959922,0.2101469366392474,-1.3690977813063008, ,0.20407944421176513,0.15531414330355284,0.05138326296774194,0.015630138584529017,0.14155075084572305,-0.10378958042152615, ,1.022170066833496
0.0202672863391716,0.019733510030198527,-0.09999109204995946, ,0.021192927722648063,0.01939000819130899,-0.10125084655021116, ,0.001600558304164248, ,0.030723153916915602,-0.006092369729791589,-0.048110684491439404,-0.04454075195887833,-0.0623100106593537,-0.020805653976027735, ,0.05740790117886035, ,0.07659084970207931, ,0.0014224275414524076, ,0.21856878580630207,-0.19032675168526303,0.11059816651000001,1.6125156653959922,0.2101469366392474,-1.3690977813063008, ,0.20407944421176513,0.15531414330355284,0.05138326296774194,0.015630138584529017,0.14155075084572305,-0.10378958042152615, ,1.0275561809539795
0.02056278374596349,0.019677485370073994,-0.10046832334313115, ,0.021343695725294456,0.019369563851170207,-0.1014949116170592, ,0.0013260930078366326, ,0.028711760903020477,-0.005150481205236396,-0.04782788498903064,-0.011306547184952545,0.007978287905771313,-0.00794069694700002, ,0.05602141780892064, ,0.013828984736099824, ,0.001421089561818855, ,0.22051491449060664,-0.1888362642405377,0.11110760848000001,1.612725355339477,0.21178657463643272,-1.370189759930236, ,0.18828758245728333,0.14400142876854444,0.05105388307692308,0.015561927319097642,0.19711876448479704,-0.12589003379623687, ,1.0329651832580566
0.020839931383165183,0.019631381318175233,-0.1009365976134413, ,0.021493579536235905,0.01934962315661264,-0.10173658326183029, ,0.0010708037202252535, ,0.0269888558566161,-0.004018044700287912,-0.04623831322687072,0.01271559439112873,0.0324894946477858,-0.002754968672727359, ,0.053689148193363255, ,0.03488613262400852, ,0.0014162911256326413, ,0.22051491449060664,-0.1888362642405377,0.11110760848000001,1.612725355339477,0.21178657463643272,-1.370189759930236, ,0.18828758245728333,0.14400142876854444,0.05105388307692308,0.015561927319097642,0.19711876448479704,-0.12589003379623687, ,1.0383000373840332
0.020839931383165183,0.019631381318175233,-0.1009365976134413, ,0.021642573272221587,0.019330207154321634,-0.10197586469912168, ,0.0013472252797581887, ,0.0269888558566161,-0.004018044700287912,-0.04623831322687072,0.01271559439112873,0.0324894946477858,-0.002754968672727359, ,0.053689148193363255, ,0.03488613262400852, ,0.0014153578033910947, ,0.22232203398317518,-0.1874770632546742,0.11160797642,1.612725355339477,0.21383612213291428,-1.3717793497455417, ,0.17444290727660072,0.1287611147333389,0.04946835875776398,0.015309631075437247,0.20799675787826333,-0.13502901276523144, ,1.0436429977416992
0.02110706890827237,0.01959414503325667,-0.10139930724015846, ,0.02179067132537588,0.019311336576658827,-0.10221275929085638, ,0.0010995440539503967, ,0.026300504056531285,-0.003224582730477807,-0.04637155073875245,0.015273956455458624,0.024920448029382807,-0.0029521866790721118, ,0.053408193803292085, ,0.02922512719116807, ,0.001411146953398552, ,0.22402875794837881,-0.18622598052904982,0.11210315920000001,1.612725355339477,0.2158856696293959,-1.3732872608207072, ,0.1644661032209199,0.12012271083350731,0.04962246579439253,0.013490302609731969,0.19042003186764334,-0.1294943215929632, ,1.0488810539245605
0.02110706890827237,0.01959414503325667,-0.10139930724015846, ,0.02193786836129863,0.01929303184315879,-0.10244727054538338, ,0.0013708114288616092, ,0.026300504056531285,-0.003224582730477807,-0.04637155073875245,0.015273956455458624,0.024920448029382807,-0.0029521866790721118, ,0.053408193803292085, ,0.02922512719116807, ,0.0014106162228125396, ,0.22402875794837881,-0.18622598052904982,0.11210315920000001,1.612725355339477,0.2158856696293959,-1.3732872608207072, ,0.1644661032209199,0.12012271083350731,0.04962246579439253,0.013490302609731969,0.19042003186764334,-0.1294943215929632, ,1.0541160106658936
0.02137592480092828,0.019566560803674072,-0.10187600118093901, ,0.022084159317166705,0.019275313062027778,-0.102679402116578, ,0.00110989839192205, ,0.02605667028040834,-0.0019825830161729723,-0.04666982806065157,0.010316614090760136,0.008204044810723869,-0.003710918964357699, ,0.0534878822980375, ,0.013172603228934543, ,0.0014067107964373384, ,0.22568142278346284,-0.1850521251321677,0.11261389746000001,1.612725355339477,0.21766194412634665,-1.3743272998680578, ,0.15789840525535903,0.10783743358917133,0.05009060226415095,0.012023848175190512,0.16694045495878868,-0.11282321346553653, ,1.0593910217285156
0.02137592480092828,0.019566560803674072,-0.10187600118093901, ,0.022229539399835435,0.019258200031642737,-0.10290915780294345, ,0.0013751933881410328, ,0.02605667028040834,-0.0019825830161729723,-0.04666982806065157,0.010316614090760136,0.008204044810723869,-0.003710918964357699, ,0.0534878822980375, ,0.013172603228934543, ,0.0014063067271002062, ,0.22568142278346284,-0.1850521251321677,0.11261389746000001,1.612725355339477,0.21766194412634665,-1.3743272998680578, ,0.15789840525535903,0.10783743358917133,0.05009060226415095,0.012023848175190512,0.16694045495878868,-0.11282321346553653, ,1.0647311210632324
0.021636765802285053,0.01955136495171706,-0.10234618684432188, ,0.022374004083939154,0.019241712242048285,-0.1031365415467106, ,0.0011243067375629632, ,0.02509262237871546,-0.0011445244576830608,-0.04585040495129717,-0.0009675389412611192,0.025115896697877158,0.0010581626987706788, ,0.05228010394282879, ,0.025130494680362894, ,0.0014027371069794815, ,0.22725686028980466,-0.1840172789270216,0.11311945056000001,1.612725355339477,0.21943821862329735,-1.375449017655549, ,0.1499161793972682,0.0974301248033581,0.04931520594427245,0.010857620771356076,0.17620834602914023,-0.09161525735569505, ,1.070162057876587
0.021636765802285053,0.01955136495171706,-0.10234618684432188, ,0.022517549109992915,0.019225868876456036,-0.10336155743293927, ,0.0013830055539933177, ,0.02509262237871546,-0.0011445244576830608,-0.04585040495129717,-0.0009675389412611192,0.025115896697877158,0.0010581626987706788, ,0.05228010394282879, ,0.025130494680362894, ,0.0014024904625671544, ,0.22725686028980466,-0.1840172789270216,0.11311945056000001,1.612725355339477,0.21943821862329735,-1.375449017655549, ,0.1499161793972682,0.0974301248033581,0.04931520594427245,0.010857620771356076,0.17620834602914023,-0.09161525735569505, ,1.0756621360778809
0.021879582215017093,0.01954236917853111,-0.10279977279749097, ,0.0226601704824929,0.01921068881274157,-0.10358420968861778, ,0.0011552796823851197, ,0.024054787594391867,-0.0006452661288842847,-0.04558309141035684,0.0319713475792269,0.05611606965617881,0.0074333164524803454, ,0.051544809604007084, ,0.064583152156783, ,0.0013994384776266355, ,0.22868556587153618,-0.18308282824924046,0.11360685560000001,1.612725355339477,0.2212144931202481,-1.3764890567028996, ,0.141426142412028,0.09124705919083728,0.049011727753846164,0.009926664801594707,0.19926903587868414,-0.11871297709256254, ,1.0809681415557861
0.021879582215017093,0.01954236917853111,-0.10279977279749097, ,0.022801864468017945,0.01919619062494346,-0.10380450268176464, ,0.001407098534402242, ,0.024054787594391867,-0.0006452661288842847,-0.04558309141035684,0.0319713475792269,0.05611606965617881,0.0074333164524803454, ,0.051544809604007084, ,0.064583152156783, ,0.0013995318929531672, ,0.22868556587153618,-0.18308282824924046,0.11360685560000001,1.612725355339477,0.2212144931202481,-1.3764890567028996, ,0.141426142412028,0.09124705919083728,0.049011727753846164,0.009926664801594707,0.19926903587868414,-0.11871297709256254, ,1.0862741470336914
0.022114971144694462,0.019537755874085024,-0.10324383640365396, ,0.022942627593330687,0.01918239258476172,-0.10402244092052837, ,0.0011905978574082154, ,0.023137741984884448,-0.0005595656776043606,-0.043065919279447494,0.04320836742463799,0.05490863608944703,0.016544415919733664, ,0.048891120065821, ,0.06986968723257742, ,0.001397014615416481, ,0.2300756577888966,-0.1822101594344531,0.11408518661000001,1.6129350452829614,0.2232640406167297,-1.377751931557643, ,0.13673910887387722,0.08503310175490213,0.04643968373177843,0.0007020673918767419,0.1949533720469467,-0.12589688521951306, ,1.0915570259094238
0.022114971144694462,0.019537755874085024,-0.10324383640365396, ,0.023082456643478605,0.019169312663055476,-0.10423802905228857, ,0.001435338849439555, ,0.023137741984884448,-0.0005595656776043606,-0.043065919279447494,0.04320836742463799,0.05490863608944703,0.016544415919733664, ,0.048891120065821, ,0.06986968723257742, ,0.0013974708562977081, ,0.2300756577888966,-0.1822101594344531,0.11408518661000001,1.6129350452829614,0.2232640406167297,-1.377751931557643, ,0.13673910887387722,0.08503310175490213,0.04643968373177843,0.0007020673918767419,0.1949533720469467,-0.12589688521951306, ,1.0968680381774902
0.022340512560822805,0.019532317059251535,-0.10365292201228762, ,0.023221348659894645,0.019156968531341183,-0.10445127186275611, ,0.0012466439887055276, ,0.022354465494537866,-0.0005607384023582773,-0.04010440884120402,-0.0077331946735795,0.03325668661856469,-0.0003376820445414292, ,0.04591731877630494, ,0.034142433441052854, ,0.0013956964225613295, ,0.2314039678432632,-0.1813992724826595,0.11452722150000001,1.613144735226446,0.22490367861391497,-1.3785988739611568, ,0.13235277762687694,0.07941166657612617,0.0434027561852861,0.013623902223783357,0.16604648026643537,-0.06651055820092117, ,1.1022469997406006
0.022340512560822805,0.019532317059251535,-0.10365292201228762, ,0.02335930093849941,0.019145377563292182,-0.10466217427507403, ,0.0014853424056296537, ,0.022354465494537866,-0.0005607384023582773,-0.04010440884120402,-0.0077331946735795,0.03325668661856469,-0.0003376820445414292, ,0.04591731877630494, ,0.034142433441052854, ,0.0013967388177132869, ,0.2314039678432632,-0.1813992724826595,0.11452722150000001,1.613144735226446,0.22490367861391497,-1.3785988739611568, ,0.13235277762687694,0.07941166657612617,0.0434027561852861,0.013623902223783357,0.16604648026643537,-0.06651055820092117, ,1.1075420379638672
0.02256682080882377,0.019526226488857164,-0.10405468479117873, ,0.023496311027800053,0.01913455683623356,-0.10487074134891654, ,0.0012974226332948557, ,0.022135232332672044,-0.0004038698425713852,-0.03946916789461396,0.03508617047316528,0.0437012727549197,0.0031922867239143967, ,0.04525424660254918, ,0.05604234841224392, ,0.001395597252375144, ,0.2327554460962525,-0.1806038309966144,0.11496277494000001,1.613144735226446,0.2266799531108657,-1.3794755555282263, ,0.13143620714469637,0.07628371507915659,0.042819385806451615,0.012423776384898225,0.17594542661586715,-0.1065295266789641, ,1.1128101348876953
0.02256682080882377,0.019526226488857164,-0.10443783294943756, ,0.02363237672699418,0.019124523132644934,-0.10507697827959274, ,0.001530313359280982, ,0.022513598651752162,-0.0002280086590363959,-0.03861345707200322,-0.000251597834587237,0.04243921549946306,0.0053717882594906535, ,0.04525424660254918, ,0.05604234841224392, ,0.0013971281172263468, ,0.23409920161636757,-0.17986244864068884,0.11538018032000001,1.613144735226446,0.22845622760781642,-1.3804339158354364, ,0.1359555036654309,0.07288551578991612,0.04213971301587302,0.011288900960587682,0.17943187028176602,-0.0681198701064399, ,1.1187360286712646
0.022789075400212775,0.01952197444014878,-0.10443783294943756, ,0.023767496084068238,0.01911529294165506,-0.10528089039714329, ,0.0013540467997618787, ,0.022513598651752162,-0.0002280086590363959,-0.03861345707200322,-0.000251597834587237,0.04243921549946306,0.0053717882594906535, ,0.04469802209552686, ,0.04243894995101667, ,0.001396644057479555, ,0.23409920161636757,-0.17986244864068884,0.11538018032000001,1.613144735226446,0.22845622760781642,-1.3804339158354364, ,0.1359555036654309,0.07288551578991612,0.04213971301587302,0.011288900960587682,0.17943187028176602,-0.0681198701064399, ,1.1240200996398926
0.023008202077287366,0.01952022656966444,-0.10481014635775465, ,0.02390166739390025,0.0191068824605416,-0.1054824831654437, ,0.0011921285197117877, ,0.022370982467685784,-0.0002634326030695015,-0.03639577924947751,0.012069912202418317,0.004365987346921628,-0.0002481413151562072, ,0.0427221605315387, ,0.012832800249180067, ,0.0013943716626154685, ,0.23542751167073417,-0.17916740268200862,0.11578721538000002,1.613144735226446,0.23023250210476714,-1.3813105974025062, ,0.13518082843087004,0.06896580055121422,0.03992183338345865,0.0103491617704418,0.14005970082966337,-0.07680905064505589, ,1.1293280124664307
0.023008202077287366,0.01952022656966444,-0.10481014635775465, ,0.02403488919636032,0.019099307596229777,-0.10568176218130373, ,0.0014110185564083692, ,0.022370982467685784,-0.0002634326030695015,-0.03639577924947751,0.012069912202418317,0.004365987346921628,-0.0002481413151562072, ,0.0427221605315387, ,0.012832800249180067, ,0.0013945545955142916, ,0.23542751167073417,-0.17916740268200862,0.11578721538000002,1.613144735226446,0.23023250210476714,-1.3813105974025062, ,0.13518082843087004,0.06896580055121422,0.03992183338345865,0.0103491617704418,0.14005970082966337,-0.07680905064505589, ,1.1345841884613037
0.023245092380890234,0.01951832149088318,-0.10519208835746649, ,0.024167160274410945,0.019092583966788697,-0.1058787331735673, ,0.0012259456526134995, ,0.023572543730402566,-0.00033215360065834724,-0.03743411043665,-0.08136217322499315,-0.06656647883283746,-0.013050062315178423, ,0.04423898470941077, ,0.10512290819603529, ,0.001392721889613196, ,0.2368176035880946,-0.17845691125757998,0.11620591705000001,1.613144735226446,0.23118895760312522,-1.3813554140671158, ,0.13693642360529693,0.07092447052202598,0.04105363793814434,0.009532743381164078,0.06985046813871972,0.01458646768418062, ,1.1398851871490479
0.023245092380890234,0.01951832149088318,-0.10519208835746649, ,0.024298479652209493,0.019086726902932605,-0.10607340200221485, ,0.0014396570328190313, ,0.023572543730402566,-0.00033215360065834724,-0.03743411043665,-0.08136217322499315,-0.06656647883283746,-0.013050062315178423, ,0.04423898470941077, ,0.10512290819603529, ,0.0013932265685723986, ,0.2368176035880946,-0.17845691125757998,0.11620591705000001,1.613144735226446,0.23118895760312522,-1.3813554140671158, ,0.13693642360529693,0.07092447052202598,0.04105363793814434,0.009532743381164078,0.06985046813871972,0.01458646768418062, ,1.145158052444458
0.023483112119067465,0.019518209127472392,-0.10557667112261716, ,0.024428846593207505,0.019081751449515395,-0.10626577465746077, ,0.001248908596318606, ,0.02331469061594773,0.00042543105545164315,-0.038623889444945166,0.03440945207299316,0.020146211454335382,0.008763838490481709, ,0.04511718769998469, ,0.03987222430675884, ,0.0013916912709952306, ,0.23822314097120345,-0.17775414256602554,0.11662850759000001,1.6135641151134148,0.23241868610101418,-1.3819497814996808, ,0.13833373405024896,0.06562720716353443,0.042476830720000004,0.005296496039684274,0.16023402983318952,-0.09697587106587915, ,1.1503920555114746
0.023483112119067465,0.019518209127472392,-0.10557667112261716, ,0.024558260598253282,0.019077672367032665,-0.10645585725885785, ,0.0014570467225700546, ,0.02331469061594773,0.00042543105545164315,-0.038623889444945166,0.03440945207299316,0.020146211454335382,0.008763838490481709, ,0.04511718769998469, ,0.03987222430675884, ,0.0013923792231170708, ,0.23822314097120345,-0.17775414256602554,0.11662850759000001,1.6135641151134148,0.23241868610101418,-1.3819497814996808, ,0.13833373405024896,0.06562720716353443,0.042476830720000004,0.005296496039684274,0.16023402983318952,-0.09697587106587915, ,1.1556570529937744
0.023720183668173505,0.019521803996903727,-0.10596722116616822, ,0.024686721403691398,0.019074504133116708,-0.10664365605439319, ,0.0012616800388101056, ,0.023535637598988666,0.00016055079761103535,-0.038877377400208996,0.05351423429602615,0.05523024282320097,0.0038287970509867522, ,0.04544669941005423, ,0.07690295299863387, ,0.00139101777328054, ,0.23965184655293498,-0.177082264805968,0.11705887587000001,1.6137738050568995,0.23433159709773038,-1.382937880970447, ,0.14163722620667282,0.06832033229551533,0.042819385806451615,0.016585884971394713,0.19723659024384693,-0.11601463940026499, ,1.1609439849853516
0.023720183668173505,0.019521803996903727,-0.10596722116616822, ,0.02481422897946485,0.019072260944037002,-0.10682917741959244, ,0.0014635548101647698, ,0.023535637598988666,0.00016055079761103535,-0.038877377400208996,0.05351423429602615,0.05523024282320097,0.0038287970509867522, ,0.04544669941005423, ,0.07690295299863387, ,0.0013917655777845011, ,0.23965184655293498,-0.177082264805968,0.11705887587000001,1.6137738050568995,0.23433159709773038,-1.382937880970447, ,0.14163722620667282,0.06832033229551533,0.042819385806451615,0.016585884971394713,0.19723659024384693,-0.11601463940026499, ,1.166410207748413
0.023951195212197185,0.019524167002585618,-0.10634046096763981, ,0.024940783527215567,0.019070956716197737,-0.1070124278566187, ,0.0012791497554206347, ,0.02416174665574471,0.00028624311219177973,-0.03814872961324157,0.05232354258652249,0.02525489848394963,-0.0016130920717660384, ,0.045157474549401916, ,0.05809890023294176, ,0.0013906164367399718, ,0.2410419384702954,-0.17643355524453314,0.11747109609000002,1.613983495000384,0.23610787159468108,-1.3842229562382191, ,0.14554745637802266,0.06576364626366651,0.04225148944297083,0.01761146317974223,0.17054520560240563,-0.1120361331528637, ,1.1722002029418945
0.023951195212197185,0.019524167002585618,-0.10634046096763981, ,0.025066385478384884,0.019070605087634994,-0.10719341399337137, ,0.0014754309894393872, ,0.02416174665574471,0.00028624311219177973,-0.03814872961324157,0.05232354258652249,0.02525489848394963,-0.0016130920717660384, ,0.045157474549401916, ,0.05809890023294176, ,0.001391473149393501, ,0.2410419384702954,-0.17643355524453314,0.11747109609000002,1.613983495000384,0.23610787159468108,-1.3842229562382191, ,0.14554745637802266,0.06576364626366651,0.04225148944297083,0.01761146317974223,0.17054520560240563,-0.1120361331528637, ,1.17759108543396
0.02419879087890793,0.019523238643967263,-0.1067100465937268, ,0.025191035492315595,0.01907121941951711,-0.10737214258259037, ,0.0012756339014694863, ,0.02330716050317909,-0.0008098839572918661,-0.0320646892221834,-0.06422875166243562,-0.07268099339361415,0.03198009846661855, ,0.03964875707585843, ,0.09699394540812106, ,0.001390314756914261, ,0.24253242591502072,-0.1757616774844756,0.11788202002,1.6141931849438687,0.23733760009257007,-1.384653966190503, ,0.1427021677570989,0.06407626033657716,0.035875701621621625,-0.034974430289660095,0.07740370128823854,-0.006230184828348161, ,1.1828839778900146
0.02419879087890793,0.019523238643967263,-0.1067100465937268, ,0.02531473445435188,0.019072812797641087,-0.10754862050095285, ,0.0014667718651834125, ,0.02330716050317909,-0.0008098839572918661,-0.0320646892221834,-0.06422875166243562,-0.07268099339361415,0.03198009846661855, ,0.03964875707585843, ,0.09699394540812106, ,0.0013910717579862326, ,0.24253242591502072,-0.1757616774844756,0.11788202002,1.6141931849438687,0.23733760009257007,-1.384653966190503, ,0.1427021677570989,0.06407626033657716,0.035875701621621625,-0.034974430289660095,0.07740370128823854,-0.006230184828348161, ,1.1881320476531982
0.02443345520303738,0.019510648994127584,-0.10701667030267299, ,0.025437483473940772,0.019075398033931792,-0.10772285474817567, ,0.0013023872842570826, ,0.024055582934230452,-0.0015352834772219912,-0.030476704539159495,-0.07976404234779906,-0.08621620964206224,0.022398751020973617, ,0.03885688723030056, ,0.11745429308336344, ,0.001390202302361437, ,0.24399202242824916,-0.17509752245729232,0.11822683316000002,1.6141931849438687,0.23802078259139725,-1.3847209832681417, ,0.15135078398480187,0.06807528088842953,0.03440348060475163,-0.027331662344084705,0.07104500221702961,0.007206992851290728, ,1.1940240859985352
0.024656397812560592,0.019498084068203626,-0.10730970188686469, ,0.025559283882733118,0.019078987667939806,-0.10789485244611505, ,0.0011546628189288374, ,0.022889668363378527,-0.00115400688118682,-0.030155135175497363,0.019510414959273734,0.009283320768499463,0.00815237736038712, ,0.037876124763758456, ,0.021605818696468927, ,0.0013879155112601496, ,0.24541300527710647,-0.1744642583616059,0.11855738711000001,1.613983495000384,0.23925051108928622,-1.3853153507007065, ,0.14712704117592368,0.06477606932318823,0.033963350788912584,0.0049955382614517855,0.1557503453320081,-0.07474694694614606, ,1.199249029159546
0.024656397812560592,0.019498084068203626,-0.10730970188686469, ,0.02568013723268403,0.01908359396833951,-0.10806462083786672, ,0.0013378142867311784, ,0.022889668363378527,-0.00115400688118682,-0.030155135175497363,0.019510414959273734,0.009283320768499463,0.00815237736038712, ,0.037876124763758456, ,0.021605818696468927, ,0.001387433768716602, ,0.24541300527710647,-0.1744642583616059,0.11855738711000001,1.613983495000384,0.23925051108928622,-1.3853153507007065, ,0.14712704117592368,0.06477606932318823,0.033963350788912584,0.0049955382614517855,0.1557503453320081,-0.07474694694614606, ,1.2044920921325684
0.024904224002195066,0.019487331397789406,-0.10763199300703265, ,0.025800045294154698,0.01908922893442851,-0.1082321672868678, ,0.0011494305218837186, ,0.02367305585037453,-0.00086336892628655,-0.030827566817836,0.0457012787455915,0.005497335935118451,0.008558013408648736, ,0.03887798676765519, ,0.04603042189285731, ,0.0013851670711277173, ,0.24695755185195137,-0.17381554880017103,0.11890997799000001,1.613983495000384,0.24089014908647152,-1.3863256505845016, ,0.15183510649355325,0.06251445425459208,0.034931604210526324,0.004991597325483414,0.1595120016040091,-0.1077343520565865, ,1.209820032119751
0.024904224002195066,0.019487331397789406,-0.10763199300703265, ,0.02591901005401224,0.019095904297623464,-0.10839749927599468, ,0.001330039756370904, ,0.02367305585037453,-0.00086336892628655,-0.030827566817836,0.0457012787455915,0.005497335935118451,0.008558013408648736, ,0.03887798676765519, ,0.04603042189285731, ,0.0013846470021205777, ,0.24695755185195137,-0.17381554880017103,0.11890997799000001,1.613983495000384,0.24089014908647152,-1.3863256505845016, ,0.15183510649355325,0.06251445425459208,0.034931604210526324,0.004991597325483414,0.1595120016040091,-0.1077343520565865, ,1.215165138244629
0.025136276478543915,0.019481074699933626,-0.10793305872019941, ,0.026037033713731665,0.019103631522961708,-0.10856062440666635, ,0.0011608900203793852, ,0.024179411778217457,-0.0005867370237803136,-0.03253872956788313,-0.0042090442264532,-0.018353114859965748,0.00643382315500011, ,0.0405432748574595, ,0.0188286059685745, ,0.001382555815375333, ,0.24848665296104783,-0.17319773017023307,0.11926516145000002,1.6141931849438687,0.2422565140841259,-1.3868680784404819, ,0.1499161793972682,0.06255566351909743,0.036787093579676675,0.002086513334014135,0.133330085426297,-0.0559591029484242, ,1.220393180847168
0.025136276478543915,0.019481074699933626,-0.10793305872019941, ,0.026154118687496147,0.01911242181059634,-0.10872155039794199, ,0.0013392635442700531, ,0.024179411778217457,-0.0005867370237803136,-0.03253872956788313,-0.0042090442264532,-0.018353114859965748,0.00643382315500011, ,0.0405432748574595, ,0.0188286059685745, ,0.001382154961013247, ,0.24848665296104783,-0.17319773017023307,0.11926516145000002,1.6141931849438687,0.2422565140841259,-1.3868680784404819, ,0.1499161793972682,0.06255566351909743,0.036787093579676675,0.002086513334014135,0.133330085426297,-0.0559591029484242, ,1.2257511615753174
0.025399997630720157,0.019477786809530762,-0.10828804412818531, ,0.026270267600298013,0.019122286097295816,-0.10888028508562322, ,0.0011110805227415217, ,0.024666154267567044,-5.039178588010646e-05,-0.033609425335858555,-0.05619017982453319,-0.03131752301014351,-0.00542388990431785, ,0.04168950919704082, ,0.0643279151784223, ,0.001379668039561213, ,0.25010842686463497,-0.17254129787592398,0.11966701135000002,1.6144028748873531,0.24362287908178032,-1.3870837913359, ,0.14944400245428469,0.059384819498417264,0.03801625661097852,0.01213991159269895,0.11790291481134842,0.0015875176697289495, ,1.2311182022094727
0.025399997630720157,0.019477786809530762,-0.10828804412818531, ,0.026385483286039953,0.019133235057943142,-0.10903683642135395, ,0.0012847520323673112, ,0.024666154267567044,-5.039178588010646e-05,-0.033609425335858555,-0.05619017982453319,-0.03131752301014351,-0.00542388990431785, ,0.04168950919704082, ,0.0643279151784223, ,0.001378805166768541, ,0.25010842686463497,-0.17254129787592398,0.11966701135000002,1.6144028748873531,0.24362287908178032,-1.3870837913359, ,0.14944400245428469,0.059384819498417264,0.03801625661097852,0.01213991159269895,0.11790291481134842,0.0015875176697289495, ,1.2363841533660889
0.025646782839888103,0.01947972374341047,-0.10862575328155709, ,0.026499768785635782,0.01914527910703251,-0.10919121247172088, ,0.0010766533026864958, ,0.02429117998754026,0.00019879638341271163,-0.03304437927965195,-0.00532987543421521,-0.017802406372478017,-0.015333337409928077, ,0.04101258279073174, ,0.01858208399350727, ,0.001376083077902937, ,0.2515989143093603,-0.17196209291035716,0.12004941690000001,1.614822254774322,0.24485260757966928,-1.3871880863276216, ,0.14712704117592368,0.056185282154215976,0.03747955651764706,0.025046350148807326,0.1270593621727623,-0.042934722649645846, ,1.2417271137237549
0.025646782839888103,0.01947972374341047,-0.10862575328155709, ,0.026613127345111037,0.019158428400167588,-0.10934342141735268, ,0.0012458330359644634, ,0.02429117998754026,0.00019879638341271163,-0.03304437927965195,-0.00532987543421521,-0.017802406372478017,-0.015333337409928077, ,0.04101258279073174, ,0.01858208399350727, ,0.001374920131099915, ,0.2515989143093603,-0.17196209291035716,0.12004941690000001,1.614822254774322,0.24485260757966928,-1.3871880863276216, ,0.14712704117592368,0.056185282154215976,0.03747955651764706,0.025046350148807326,0.1270593621727623,-0.042934722649645846, ,1.2471380233764648
0.025877722462713512,0.019481094324867717,-0.1089369947335843, ,0.02672556241370439,0.019172692835560938,-0.10949347155202187, ,0.001060004957800318, ,0.023647229562233554,-7.245086546080342e-05,-0.030764811091660984,0.0006730880960060663,-0.0115222547116739,0.048735320137643236, ,0.03880296788394498, ,0.01154070369302321, ,0.0013721332711592105, ,0.2530121744253434,-0.17142922434203567,0.12040330407000001,1.6150319447178065,0.24621897257732367,-1.38748547796318, ,0.14712704117592368,0.053493202682339785,0.03516293933774835,-0.038275531818365634,0.14443280913823614,-0.061882508261891775, ,1.252425193786621
0.025877722462713512,0.019481094324867717,-0.1089369947335843, ,0.026837077641968486,0.019188082055533368,-0.10964137128174661, ,0.001225709945927202, ,0.023647229562233554,-7.245086546080342e-05,-0.030764811091660984,0.0006730880960060663,-0.0115222547116739,0.048735320137643236, ,0.03880296788394498, ,0.01154070369302321, ,0.0013708488560255961, ,0.2530121744253434,-0.17142922434203567,0.12040330407000001,1.6150319447178065,0.24621897257732367,-1.38748547796318, ,0.14712704117592368,0.053493202682339785,0.03516293933774835,-0.038275531818365634,0.14443280913823614,-0.061882508261891775, ,1.2576711177825928
0.02610984728606763,0.01948112836625018,-0.10923169794770321, ,0.0269476768798703,0.019204605448006683,-0.10978712912388518, ,0.0010425579811407743, ,0.023695903761191163,0.00014701267831070106,-0.028728512171671366,-0.01217750354280663,-0.020350944979917827,-0.005921447889553902, ,0.03724036626276771, ,0.023715669614076992, ,0.0013679941527657282, ,0.25446404820569757,-0.17091952397233684,0.12074163576000001,1.614822254774322,0.24758533757497808,-1.38794622707902, ,0.1499161793972682,0.04939976135266568,0.03325430379958247,0.016957765332944554,0.1286904730480263,-0.03144838070633338, ,1.262977123260498
0.02610984728606763,0.01948112836625018,-0.10923169794770321, ,0.02705736417489285,0.0192222721480099,-0.10993075370624428, ,0.0012056009911575684, ,0.023695903761191163,0.00014701267831070106,-0.028728512171671366,-0.01217750354280663,-0.020350944979917827,-0.005921447889553902, ,0.03724036626276771, ,0.023715669614076992, ,0.0013665942117173822, ,0.25446404820569757,-0.17091952397233684,0.12074163576000001,1.614822254774322,0.24758533757497808,-1.38794622707902, ,0.1499161793972682,0.04939976135266568,0.03325430379958247,0.016957765332944554,0.1286904730480263,-0.03144838070633338, ,1.2685999870300293
0.026340755141550484,0.019486464098864866,-0.10950953763918345, ,0.027166143770135286,0.01924109103917036,-0.11007225376617265, ,0.001028651430852391, ,0.02293335338967311,0.0007542437089305867,-0.02637455369677448,0.006846839746587033,-0.028856115445621076,-0.003615243469398702, ,0.03495889963903516, ,0.029657070841958958, ,0.0013637058118809292, ,0.25592364471892604,-0.17047932819850606,0.12106441197000001,1.614822254774322,0.24881506607286705,-1.3882138795510226, ,0.14689929033819007,0.040193537297107486,0.03092973110679612,0.01482148371145186,0.11735283047266899,-0.0420723955059152, ,1.2740240097045898
0.026340755141550484,0.019486464098864866,-0.10950953763918345, ,0.027274020102414472,0.01926107075521607,-0.11021163814966498, ,0.0011894245555545216, ,0.021799789419837626,0.0005434707687059193,-0.024301841847695863,-0.03911102568268988,-0.05289881679652116,-0.006902037908954436, ,0.032651274039708224, ,0.06578714671063256, ,0.001362228852081553, ,0.25592364471892604,-0.17047932819850606,0.12106441197000001,1.614822254774322,0.24881506607286705,-1.3882138795510226, ,0.14689929033819007,0.040193537297107486,0.03092973110679612,0.01482148371145186,0.11735283047266899,-0.0420723955059152, ,1.2794971466064453
0.026509383348949513,0.019491180661401986,-0.10969927382468436, ,0.02738099780036539,0.019282219681473554,-0.11034891581046252, ,0.0011069829053492383, ,0.021799789419837626,0.0005434707687059193,-0.024301841847695863,-0.03911102568268988,-0.05289881679652116,-0.006902037908954436, ,0.032651274039708224, ,0.06578714671063256, ,0.0013600839281594326, ,0.2569971045884432,-0.1701858643492855,0.12128737385000002,1.614822254774322,0.24949824857169425,-1.38811753914838, ,0.13873821865273506,0.03835769666874324,0.02859750721723519,0.012586095240689599,0.0850160553474344,0.005128467793018132, ,1.285372018814087
0.02677169545452784,0.019495006388413394,-0.10997393062018462, ,0.027487081682542307,0.019304545956364782,-0.11048409580915147, ,0.0008990668225679844, ,0.019643309120021806,0.0004244040555751165,-0.01993428292666182,-0.05035803889335566,-0.05893652765598037,-0.01678583741820987, ,0.027989557834794773, ,0.07752059871774827, ,0.0013562421189461705, ,0.2586961058207726,-0.16972250037683204,0.12161403893000002,1.615241634661291,0.2504547040700523,-1.3880806770728493, ,0.12789345223513582,0.03231084152484534,0.02388127664167916,0.020991731172403074,0.06641641221854158,0.024401243256121377, ,1.290654182434082
0.02677169545452784,0.019495006388413394,-0.10997393062018462, ,0.02759227675551964,0.019328057472904905,-0.11061718731226278, ,0.0010559378693039572, ,0.019643309120021806,0.0004244040555751165,-0.01993428292666182,-0.05035803889335566,-0.05893652765598037,-0.01678583741820987, ,0.027989557834794773, ,0.07752059871774827, ,0.0013537602656433425, ,0.2586961058207726,-0.16972250037683204,0.12161403893000002,1.615241634661291,0.2504547040700523,-1.3880806770728493, ,0.12789345223513582,0.03231084152484534,0.02388127664167916,0.020991731172403074,0.06641641221854158,0.024401243256121377, ,1.2958810329437256
0.026971442492060124,0.019506671409705377,-0.11019311650001323, ,0.02769658821199262,0.019352761880204072,-0.11074819959137698, ,0.0009260894647525502, ,0.020073192316668462,0.001631368813950724,-0.023579669790310877,0.04689993757216691,-0.007438200455735741,-0.016948017425603642, ,0.03100959918169192, ,0.04748603669444698, ,0.0013502547672753853, ,0.2599780794778939,-0.16942903652761152,0.12187459322000001,1.6156610145482602,0.2514111595684104,-1.3882888512177405, ,0.12652925541129437,0.027578303271860147,0.027798972984293194,0.03181840604560886,0.11555193241711635,-0.06548545735125859, ,1.3011560440063477
0.026971442492060124,0.019506671409705377,-0.11019311650001323, ,0.027800021428878482,0.01937866658496122,-0.11087714202221927, ,0.00108204399389584, ,0.020073192316668462,0.001631368813950724,-0.023579669790310877,0.04689993757216691,-0.007438200455735741,-0.016948017425603642, ,0.03100959918169192, ,0.04748603669444698, ,0.0013480741918820555, ,0.2599780794778939,-0.16942903652761152,0.12187459322000001,1.6156610145482602,0.2514111595684104,-1.3882888512177405, ,0.12652925541129437,0.027578303271860147,0.027798972984293194,0.03181840604560886,0.11555193241711635,-0.06548545735125859, ,1.306429147720337
0.0271661774995447,0.019529119422056318,-0.11043219629166387, ,0.02790258196541703,0.019405778752966108,-0.1110040240837638, ,0.0009404740729154666, ,0.020223056724269266,0.0030080156469746632,-0.02524108834402486,0.051066719421363496,0.016254109547426142,-0.027199994252737718, ,0.03248280656280064, ,0.05359100357307658, ,0.001344787094148454, ,0.2611982712720214,-0.169205077274259,0.12215588815000002,1.6158707044917449,0.25277752456606484,-1.3888312790737207, ,0.12502890850918416,0.018926394407353563,0.029443274528650653,0.049875970263850274,0.13506319612246642,-0.052546149521471394, ,1.3143210411071777
0.02737106271473405,0.01956482725639617,-0.11069499058070457, ,0.0280042755611669,0.019434105311048656,-0.11112885535784645, ,0.0007786432949222604, ,0.020405061586151345,0.0035279870146926735,-0.025978403399714557,-0.028385772561422388,-0.0183298479468398,0.032884013112422006, ,0.03322184031490083, ,0.03378940037276185, ,0.0013402579437546444, ,0.2611982712720214,-0.169205077274259,0.12215588815000002,1.6158707044917449,0.25277752456606484,-1.3888312790737207, ,0.12502890850918416,0.018926394407353563,0.029443274528650653,0.049875970263850274,0.13506319612246642,-0.052546149521471394, ,1.3200290203094482
0.02737106271473405,0.01956482725639617,-0.11069499058070457, ,0.028105108134517304,0.01946365294674375,-0.1112516455261873, ,0.0009267813375164549, ,0.020405061586151345,0.0035279870146926735,-0.025978403399714557,-0.028385772561422388,-0.0183298479468398,0.032884013112422006, ,0.03322184031490083, ,0.03378940037276185, ,0.0013369763833876746, ,0.2624339085318973,-0.16905834534964875,0.12246440517000001,1.616080394435229,0.2540072530639538,-1.3889355740654423, ,0.1221324859182378,0.013733276636537017,0.030514964597701155,-0.018483658882129137,0.10856062232049235,0.010407963695348452, ,1.325775146484375
0.027574891604644377,0.019603257428955502,-0.11095422767797408, ,0.02820508578018624,0.019494428112570326,-0.11137240437263672, ,0.0007641074969863359, ,0.019165504876074636,0.003804159849948875,-0.023870202602830282,-0.05730298435500542,-0.03893261692315496,0.0006111801587017792, ,0.03084760576801657, ,0.06927750664431434, ,0.001332465604754593, ,0.2636309321274021,-0.1689502270894096,0.12276903332000001,1.6158707044917449,0.25482707206254646,-1.3885422578657938, ,0.1131072009040176,0.008398166009333158,0.02819258676106195,0.010229140402872747,0.07354445615497339,0.051803292220419926, ,1.331153154373169
0.027574891604644377,0.019603257428955502,-0.11095422767797408, ,0.028304214767713276,0.019526437025656016,-0.11149114178016042, ,0.0009088951554929125, ,0.019165504876074636,0.003804159849948875,-0.023870202602830282,-0.05730298435500542,-0.03893261692315496,0.0006111801587017792, ,0.03084760576801657, ,0.06927750664431434, ,0.0013291564606197363, ,0.2636309321274021,-0.1689502270894096,0.12276903332000001,1.6158707044917449,0.25482707206254646,-1.3885422578657938, ,0.1131072009040176,0.008398166009333158,0.02819258676106195,0.010229140402872747,0.07354445615497339,0.051803292220419926, ,1.3364241123199463
0.027760971508539203,0.01964705107447693,-0.1111938752461827, ,0.02840250153946524,0.01955968566970887,-0.11160786773047288, ,0.0007684941584547042, ,0.017600041534954647,0.004393412036535297,-0.022442494868774792,0.012111854650084889,0.019156656443486277,0.01773899077862728, ,0.02885704605966946, ,0.02266426296989632, ,0.0013248102412231082, ,0.2647584511270389,-0.16891161342503846,0.12305292083000001,1.616080394435229,0.2561934370602008,-1.3885946132809304, ,0.10674571603877478,0.0008966862703317077,0.026681426331658296,0.0044041776357783904,0.12710618497179488,-0.011873823220206144, ,1.3417041301727295
0.027760971508539203,0.01964705107447693,-0.1111938752461827, ,0.028499952708736846,0.019594179796515527,-0.11172259230313805, ,0.0009101814723418362, ,0.017600041534954647,0.004393412036535297,-0.022442494868774792,0.012111854650084889,0.019156656443486277,0.01773899077862728, ,0.02885704605966946, ,0.02266426296989632, ,0.0013216207891547907, ,0.2647584511270389,-0.16891161342503846,0.12305292083000001,1.616080394435229,0.2561934370602008,-1.3885946132809304, ,0.10674571603877478,0.0008966862703317077,0.026681426331658296,0.0044041776357783904,0.12710618497179488,-0.011873823220206144, ,1.346952199935913
0.027928760028818486,0.019689429503661048,-0.11139500020451898, ,0.028596575057851695,0.019629924927439413,-0.11183532567466933, ,0.0008021248202474925, ,0.01726166228302178,0.004280055272343652,-0.019929554589131735,-0.039553970194454356,-0.04854510690013768,-0.02251653705279978, ,0.026710878009316638, ,0.06261901323120876, ,0.001317655171071529, ,0.26576240640068804,-0.16891933615791271,0.12329403077000001,1.6164997743221983,0.256876619559028,-1.3882532366578664, ,0.10326108983511509,-0.0014414579129238794,0.02402535674208145,0.032943880386814305,0.04989709446172019,0.049473598013896836, ,1.352189064025879
0.027928760028818486,0.019689429503661048,-0.11139500020451898, ,0.028692375536263158,0.01966692635491913,-0.11194607811763015, ,0.0009419670382939328, ,0.01726166228302178,0.004280055272343652,-0.019929554589131735,-0.039553970194454356,-0.04854510690013768,-0.02251653705279978, ,0.026710878009316638, ,0.06261901323120876, ,0.0013148090488535168, ,0.26576240640068804,-0.16891933615791271,0.12329403077000001,1.6164997743221983,0.256876619559028,-1.3882532366578664, ,0.10326108983511509,-0.0014414579129238794,0.02402535674208145,0.032943880386814305,0.04989709446172019,0.049473598013896836, ,1.3574631214141846
0.028101528765308092,0.019737148381302673,-0.11159349964699179, ,0.028787361258655206,0.01970518914396666,-0.11205485999973475, ,0.0008271885981231376, ,0.016891780958085516,0.00502138519938055,-0.019831418419148705,0.033709837522703255,-0.0041322089236783864,-0.051962382743657214, ,0.026529827171918197, ,0.03396211461329739, ,0.001311142729675093, ,0.26682042080445684,-0.16897339528803226,0.12353514071000002,1.6169191542091674,0.2576964385576207,-1.3881049566786394, ,0.10281358782066174,-0.0070218494928964564,0.02406164882175227,0.07272336799524153,0.08780252262856528,-0.008018984364080689, ,1.3627240657806396
0.028101528765308092,0.019737148381302673,-0.11159349964699179, ,0.028881539503043223,0.019744718133665528,-0.1121616817829473, ,0.0009650414456135577, ,0.016891780958085516,0.00502138519938055,-0.019831418419148705,0.033709837522703255,-0.0041322089236783864,-0.051962382743657214, ,0.026529827171918197, ,0.03396211461329739, ,0.0013085598842716487, ,0.26682042080445684,-0.16897339528803226,0.12353514071000002,1.6169191542091674,0.2576964385576207,-1.3881049566786394, ,0.10281358782066174,-0.0070218494928964564,0.02406164882175227,0.07272336799524153,0.08780252262856528,-0.008018984364080689, ,1.3680000305175781
0.028270595320526188,0.019791261069017973,-0.1117981441210139, ,0.028974917708875076,0.019785517938669075,-0.11226655402258343, ,0.0008458787419979671, ,0.01719916952271097,0.00594845009118394,-0.021403276178051052,0.034788282508183804,-0.0030477036564123565,-0.024975568884245757, ,0.028094407306654176, ,0.034921463397807447, ,0.0013051326165511028, ,0.26783982154385444,-0.16908151354827142,0.12378273210000001,1.6169191542091674,0.25865289405597874,-1.3882314520833896, ,0.10171162010554209,-0.012974698052839868,0.025816550275526744,0.0468479323501045,0.0922008379143509,-0.010057144642340539, ,1.3733761310577393
0.028270595320526188,0.019791261069017973,-0.1117981441210139, ,0.02906750347513168,0.019827592950698938,-0.11236948736640967, ,0.0009812317343841795, ,0.01719916952271097,0.00594845009118394,-0.021403276178051052,0.034788282508183804,-0.0030477036564123565,-0.024975568884245757, ,0.028094407306654176, ,0.034921463397807447, ,0.0013027509924175226, ,0.26783982154385444,-0.16908151354827142,0.12378273210000001,1.6169191542091674,0.25865289405597874,-1.3882314520833896, ,0.10171162010554209,-0.012974698052839868,0.025816550275526744,0.0468479323501045,0.0922008379143509,-0.010057144642340539, ,1.378655195236206
0.028454862667487806,0.01985445036320547,-0.11203142202983571, ,0.029159304558428044,0.01987094734004285,-0.1124704925537447, ,0.0008302369859997462, ,0.017141999373419287,0.005990200476766209,-0.021800329056350324,-0.014156223055256593,-0.02272653292283953,-0.016712871193297812, ,0.028372257422265672, ,0.02677478339622617, ,0.0012993019850714074, ,0.2689055586804974,-0.16922052274000746,0.12406273074000002,1.6169191542091674,0.2594727130545714,-1.3879198146238814, ,0.09823699954293041,-0.01303529417011961,0.026155683940886704,0.0340305155164176,0.07083977540969774,0.03561808746985405, ,1.3838801383972168
0.028454862667487806,0.01985445036320547,-0.11203142202983571, ,0.02925032887111427,0.019915585057053438,-0.11256958041455879, ,0.0009623504449791371, ,0.017141999373419287,0.005990200476766209,-0.021800329056350324,-0.014156223055256593,-0.02272653292283953,-0.016712871193297812, ,0.028372257422265672, ,0.02677478339622617, ,0.0012968603072446518, ,0.2689055586804974,-0.16922052274000746,0.12406273074000002,1.6169191542091674,0.2594727130545714,-1.3879198146238814, ,0.09823699954293041,-0.01303529417011961,0.026155683940886704,0.0340305155164176,0.07083977540969774,0.03561808746985405, ,1.389219045639038
0.02859976135381755,0.01990812603051722,-0.11221959713500604, ,0.029340584479376052,0.019961509833645964,-0.1126667618685749, ,0.0008669631092188788, ,0.01609118702142971,0.005828017104300165,-0.020843784570333816,0.004391999317635375,-0.0058000163978429095,0.019066631400266574, ,0.02696952795918255, ,0.0072750198475182454, ,0.001293767521647344, ,0.26973189109803947,-0.16935180919886927,0.12428828520000001,1.617128844152652,0.26015589555339863,-1.3877417954810987, ,0.09267279449069411,-0.013928803986271948,0.025005983547880698,0.0,0.08822135922574535,0.00901350230182716, ,1.3945732116699219
0.02859976135381755,0.01990812603051722,-0.11221959713500604, ,0.02943007960133579,0.020008725184796905,-0.11276204792436831, ,0.0009968959027317258, ,0.015328429876820884,0.00585928603070932,-0.018908495712576214,0.009189127572574778,0.014380253448976758,-0.08625720177321688, ,0.025036437553909174, ,0.017065442794019905, ,0.001291647010083661, ,0.27070495544019174,-0.16950626385635376,0.12454883949000001,1.6181772938700745,0.2611123510517567,-1.3874598971851462, ,0.0902062182114741,-0.014857827079766834,0.02298529800865801,0.110871303138385,0.08717502852306111,0.03440203421415351, ,1.4005961418151855
0.02876809595825159,0.019972394948351496,-0.11243583948032014, ,0.029518822605153556,0.020057234410042105,-0.11285544967846753, ,0.000864211172699076, ,0.015328429876820884,0.00585928603070932,-0.018908495712576214,0.009189127572574778,0.014380253448976758,-0.08625720177321688, ,0.025036437553909174, ,0.017065442794019905, ,0.001288615550244054, ,0.27070495544019174,-0.16950626385635376,0.12454883949000001,1.6181772938700745,0.2611123510517567,-1.3874598971851462, ,0.0902062182114741,-0.014857827079766834,0.02298529800865801,0.110871303138385,0.08717502852306111,0.03440203421415351, ,1.4059510231018066
0.02892550232221591,0.020034511324511103,-0.11262799652876455, ,0.029606822007127505,0.02010704059497496,-0.11294697831445408, ,0.000755781971023213, ,0.01554020529559599,0.006310130581816455,-0.0182649055847509,-0.00021517140857212834,0.009444972069080753,-0.023327898331859227, ,0.02479763102815891, ,0.00944731514007338, ,0.0012848632010946115, ,0.2716394061179729,-0.16969160944533515,0.12478346798,1.6185966737570436,0.2620688065501148,-1.3870963201490534, ,0.09386443279769613,-0.02057609313930416,0.02253014359264498,0.04804192036474535,0.09663591046753427,0.03281672725147006, ,1.411238193511963
0.02892550232221591,0.020034511324511103,-0.11262799652876455, ,0.02969408646979533,0.020158146612744822,-0.11303664510206339, ,0.0008792047161305455, ,0.01554020529559599,0.006310130581816455,-0.0182649055847509,-0.00021517140857212834,0.009444972069080753,-0.023327898331859227, ,0.02479763102815891, ,0.00944731514007338, ,0.0012820264284724853, ,0.2716394061179729,-0.16969160944533515,0.12478346798,1.6185966737570436,0.2620688065501148,-1.3870963201490534, ,0.09386443279769613,-0.02057609313930416,0.02253014359264498,0.04804192036474535,0.09663591046753427,0.03281672725147006, ,1.416511058807373
0.029085940068631345,0.02009829279899474,-0.11280945789697441, ,0.029780624800034575,0.020210555125555064,-0.11312446139628463, ,0.000770984377654434, ,0.015679555646646973,0.005903183009082913,-0.016866780298756174,-0.04168429871002908,-0.01373428437923011,0.04009768059114008, ,0.023773605375742517, ,0.0438886085592558, ,0.0012784775253418042, ,0.2725506885971314,-0.169892400500065,0.12499346696000001,1.6188063637005279,0.26288862554870746,-1.386621325209264, ,0.09723047290826925,-0.02034232402110842,0.021352294262734585,-0.021051216682470692,0.08910283940570954,0.055311090559538596, ,1.4217121601104736
0.029085940068631345,0.02009829279899474,-0.11280945789697441, ,0.02986644594716381,0.020264268586161448,-0.11321043863646157, ,0.0008930413998180691, ,0.015679555646646973,0.005903183009082913,-0.016866780298756174,-0.04168429871002908,-0.01373428437923011,0.04009768059114008, ,0.023773605375742517, ,0.0438886085592558, ,0.0012758193451657786, ,0.2725506885971314,-0.169892400500065,0.12499346696000001,1.6188063637005279,0.26288862554870746,-1.386621325209264, ,0.09723047290826925,-0.02034232402110842,0.021352294262734585,-0.021051216682470692,0.08910283940570954,0.055311090559538596, ,1.4269931316375732
0.029085940068631345,0.02009829279899474,-0.11280945789697441, ,0.02995155900104349,0.02031928923937037,-0.11329458834539222, ,0.0010166056830409236, ,0.015679555646646973,0.005903183009082913,-0.016866780298756174,-0.04168429871002908,-0.01373428437923011,0.04009768059114008, ,0.023773605375742517, ,0.0438886085592558, ,0.0012740439091238275, ,0.2725506885971314,-0.169892400500065,0.12499346696000001,1.6188063637005279,0.26288862554870746,-1.386621325209264, ,0.09723047290826925,-0.02034232402110842,0.021352294262734585,-0.021051216682470692,0.08910283940570954,0.055311090559538596, ,1.4323101043701172
0.029242456211080098,0.020158774369303394,-0.11297777180775538, ,0.030035973190176545,0.020375619123537147,-0.11337692212842984, ,0.0009143368208967484, ,0.01565866083920544,0.006502038061325059,-0.017413792651112606,-0.03926305967810427,-0.0057524456119102405,0.02221651147613239, ,0.02430453317231436, ,0.039682198584831026, ,0.0012715969221290856, ,0.2735546438707806,-0.1701163597534175,0.12521253997,1.6185966737570436,0.2638450810470655,-1.3860127119527494, ,0.09614685061648508,-0.023975983213357956,0.021790439835841315,0.0,0.09134612406780107,0.06249407223378928, ,1.437547206878662
0.029393718545829957,0.020223987004665996,-0.11314345385644542, ,0.030119697879809594,0.020433260072064093,-0.11345745167258288, ,0.0008181905882145186, ,0.01521775829198529,0.006616889264360816,-0.01679427507569903,-0.011686758078980595,0.01436337010654147,0.002996197022183295, ,0.023609554555059826, ,0.018517164448547698, ,0.001268533365818852, ,0.2745199854800586,-0.1703712099382669,0.1254290204,1.6190160536440124,0.2648015365454236,-1.3854857774363754, ,0.09433095582352961,-0.02544153929181522,0.02115380015936255,0.023596017107953053,0.10629164088047612,0.04253196088482197, ,1.4428181648254395
0.029393718545829957,0.020223987004665996,-0.11314345385644542, ,0.03020274257003355,0.020492213714898865,-0.11353618874561523, ,0.0009384594466422871, ,0.01521775829198529,0.006616889264360816,-0.01679427507569903,-0.011686758078980595,0.01436337010654147,0.002996197022183295, ,0.023609554555059826, ,0.018517164448547698, ,0.0012663181046163247, ,0.2745199854800586,-0.1703712099382669,0.1254290204,1.6190160536440124,0.2648015365454236,-1.3854857774363754, ,0.09433095582352961,-0.02544153929181522,0.02115380015936255,0.023596017107953053,0.10629164088047612,0.04253196088482197, ,1.4481201171875
0.02954620081046174,0.02029816341849351,-0.11331629700865258, ,0.030285116893884512,0.02055248148003281,-0.11361314519514688, ,0.0008359386942778243, ,0.015046150391196443,0.007767723995896938,-0.0173146180680352,-0.008137797611794145,0.0212314432964822,-0.07467203124934334, ,0.024218178637396847, ,0.022737554358928665, ,0.0012634489085474015, ,0.2754544361578398,-0.17067239652036167,0.12564679712000001,1.6198548134179507,0.2658946285435471,-1.3849069033434165, ,0.09046419595659749,-0.032599430284600064,0.021790439835841315,0.10543715222004871,0.09514702235516007,0.06787004079184648, ,1.4533400535583496
0.02954620081046174,0.02029816341849351,-0.11331629700865258, ,0.03036683061544461,0.02061406459499918,-0.11368833294775402, ,0.0009547971355879624, ,0.015046150391196443,0.007767723995896938,-0.0173146180680352,-0.008137797611794145,0.0212314432964822,-0.07467203124934334, ,0.024218178637396847, ,0.022737554358928665, ,0.001261404857070849, ,0.2754544361578398,-0.17067239652036167,0.12564679712000001,1.6198548134179507,0.2658946285435471,-1.3849069033434165, ,0.09046419595659749,-0.032599430284600064,0.021790439835841315,0.10543715222004871,0.09514702235516007,0.06787004079184648, ,1.4585990905761719
0.029695373000059894,0.020373289986392328,-0.11348187719360434, ,0.03044789362794301,0.02067696408837123,-0.11376176400806942, ,0.0008583949466962777, ,0.01541332046565936,0.007917494574994601,-0.01660574824700777,-0.016758703366296052,0.018514787417628197,-0.02652082968232032, ,0.024000167561189736, ,0.02497298998843613, ,0.0012587534760815427, ,0.2763657186369983,-0.17100447403395333,0.1258567961,1.620064503361435,0.2668510840419052,-1.3842166113467613, ,0.0956622394742649,-0.03547549217139095,0.021266771054739654,0.05759702449224815,0.10591814334531492,0.06648193375972636, ,1.4638800621032715
0.029695373000059894,0.020373289986392328,-0.11348187719360434, ,0.030528315951856518,0.020741180791260617,-0.11383345045788246, ,0.0009760847122096955, ,0.01541332046565936,0.007917494574994601,-0.01660574824700777,-0.016758703366296052,0.018514787417628197,-0.02652082968232032, ,0.024000167561189736, ,0.02497298998843613, ,0.0012569059678209423, ,0.2763657186369983,-0.17100447403395333,0.1258567961,1.620064503361435,0.2668510840419052,-1.3842166113467613, ,0.0956622394742649,-0.03547549217139095,0.021266771054739654,0.05759702449224815,0.10591814334531492,0.06648193375972636, ,1.46933913230896
0.029860154270328433,0.020460469202738932,-0.11365571491143377, ,0.03060810773301075,0.020806715338815583,-0.11390340445524036, ,0.0008606223789779082, ,0.01581566328213474,0.00874837126758817,-0.01619549377162754,-0.024058473900727594,0.007861281859715357,-0.002215081958322828, ,0.024268564510416635, ,0.025310250980380183, ,0.00125433269776352, ,0.2773928421092702,-0.17142150160916145,0.12608105427000002,1.620064503361435,0.2679441760400287,-1.383392701033381, ,0.099368525192116,-0.043095795439814163,0.021125744721485415,0.03366656536552778,0.10299764927356897,0.07466517076672355, ,1.4761450290679932
0.030012210261679672,0.020545726506761324,-0.11380109416564503, ,0.030687279240680522,0.020873568171719235,-0.11397163823354729, ,0.0007695996119985223, ,0.015318235386289458,0.00848702436287173,-0.013906835591759589,-0.038844479551604076,-0.009790695762924961,0.028079715433365484, ,0.022362423707236657, ,0.04005934092058399, ,0.001251205387532778, ,0.2783581837185482,-0.17186169738299223,0.12627420148000001,1.6202741933049198,0.26876399503862136,-1.3825909911330294, ,0.09947268507177229,-0.04484732587829433,0.018761851024734984,0.0,0.0910038619928176,0.08202296089183246, ,1.4815890789031982
0.030012210261679672,0.020545726506761324,-0.11380109416564503, ,0.03076584086569118,0.020941739537687777,-0.11403816410066542, ,0.0008837350066942456, ,0.015318235386289458,0.00848702436287173,-0.013906835591759589,-0.038844479551604076,-0.009790695762924961,0.028079715433365484, ,0.022362423707236657, ,0.04005934092058399, ,0.0012488498081684287, ,0.2783581837185482,-0.17186169738299223,0.12627420148000001,1.6202741933049198,0.26876399503862136,-1.3825909911330294, ,0.09947268507177229,-0.04484732587829433,0.018761851024734984,0.0,0.0910038619928176,0.08202296089183246, ,1.4868590831756592
0.030157981160566175,0.020633646269769424,-0.11392509627606569, ,0.030843803118519204,0.02101122949296877,-0.1141029944380155, ,0.0008028503001663846, ,0.014462431825550542,0.009281987141003199,-0.011571847036865125,0.003884991618884791,0.011452721420134537,-0.03867167458635657, ,0.0207177427206501, ,0.012093708294325996, ,0.0012460090469709633, ,0.2793389707935747,-0.17234050682119414,0.12644660805000002,1.6211129530788577,0.2698570870367449,-1.3820121170400705, ,0.09813541009148995,-0.05325305362428214,0.01648945291925466,0.07450662790371579,0.09825092755962798,0.06765384682504252, ,1.4920990467071533
0.030157981160566175,0.020633646269769424,-0.11392509627606569, ,0.030921176627392983,0.02108203790383939,-0.114166141699676, ,0.0009174013703567247, ,0.014462431825550542,0.009281987141003199,-0.011571847036865125,0.003884991618884791,0.011452721420134537,-0.03867167458635657, ,0.0207177427206501, ,0.012093708294325996, ,0.0012439292515493542, ,0.2793389707935747,-0.17234050682119414,0.12644660805000002,1.6211129530788577,0.2698570870367449,-1.3820121170400705, ,0.09813541009148995,-0.05325305362428214,0.01648945291925466,0.07450662790371579,0.09825092755962798,0.06765384682504252, ,1.4973320960998535
0.030308105901880017,0.020733781156048514,-0.11403909099247064, ,0.0309979721363939,0.021154164448104633,-0.11422761841148499, ,0.000829566224892571, ,0.014286376361225879,0.009669501066384789,-0.010196173235392205,0.0045036227025089595,0.0032294660869982904,-0.042470009620322366, ,0.020039005690241682, ,0.005541837100862957, ,0.001241323194777928, ,0.2803660942658466,-0.17293515725250944,0.12661253317,1.6217420229093116,0.270813542535103,-1.3812401463032749, ,0.09905735026980249,-0.05818328728293733,0.015199247633587787,0.07854505712036397,0.09006148108752633,0.0729433388271314, ,1.5025391578674316
0.030308105901880017,0.020733781156048514,-0.11403909099247064, ,0.031074200503556963,0.021227608616595544,-0.11428743717013935, ,0.0009446916552354771, ,0.014286376361225879,0.009669501066384789,-0.010196173235392205,0.0045036227025089595,0.0032294660869982904,-0.042470009620322366, ,0.020039005690241682, ,0.005541837100862957, ,0.0012394692476557878, ,0.2803660942658466,-0.17293515725250944,0.12661253317,1.6217420229093116,0.270813542535103,-1.3812401463032749, ,0.09905735026980249,-0.05818328728293733,0.015199247633587787,0.07854505712036397,0.09006148108752633,0.0729433388271314, ,1.5079569816589355
0.030452739660998786,0.020833859545781985,-0.11414517915256177, ,0.031149872698971803,0.02130236971466762,-0.11434561064229534, ,0.0008635212985558324, ,0.01429843504423014,0.01062264378987886,-0.011076752798686966,-0.01507306460431487,-0.012184071336389924,0.05454592305245074, ,0.02097570638533873, ,0.019381658962726634, ,0.0012371341672265954, ,0.28135460407374735,-0.17354525314957317,0.12676938426,1.6221614027962803,0.2716333615336956,-1.3804384364029232, ,0.09693252457453604,-0.06664111064499352,0.016220785661914462,-0.021417599658533994,0.08973628147994046,0.07336672264814537, ,1.513416051864624
0.030452739660998786,0.020833859545781985,-0.11414517915256177, ,0.031224999802883416,0.021378446863698837,-0.11440215156366923, ,0.0009792833571800963, ,0.01429843504423014,0.01062264378987886,-0.011076752798686966,-0.01507306460431487,-0.012184071336389924,0.05454592305245074, ,0.02097570638533873, ,0.019381658962726634, ,0.0012355424955596416, ,0.28135460407374735,-0.17354525314957317,0.12676938426,1.6221614027962803,0.2716333615336956,-1.3804384364029232, ,0.09693252457453604,-0.06664111064499352,0.016220785661914462,-0.021417599658533994,0.08973628147994046,0.07336672264814537, ,1.5187420845031738
0.030599773704971776,0.020944671398729235,-0.11426108117622667, ,0.031299593003792946,0.021455839002588097,-0.11445707273813724, ,0.0008885111493827795, ,0.015102188082522493,0.011577141129233446,-0.011758283797989391,-0.02821711048182857,-0.033682760766689836,0.02348983147438979, ,0.022368806840780152, ,0.0439401123354212, ,0.00123341346889598, ,0.2823276684158996,-0.1742402991082534,0.12693790196000002,1.6219517128527958,0.2723165440325228,-1.3795253085988752, ,0.09978647903098925,-0.0724957536733925,0.017201740302375815,0.008455155685484881,0.06552658614968115,0.10022141602374435, ,1.5241780281066895
