NicholasDascanio/dvrk_moveit_final/test/execution/third_experiment_notsharpbends/thirdexp_200vel5.0/thirdexp_200vel5.0_26.csv
Current Position (x),Current Position (y),Current Position (z), ,Planned Position (x),Planned Position (y),Planned Position (z), ,Position Error,,Cartesian linear Velocity(x),Cartesian linear Velocity(y),Cartesian linear Velocity(z),Cartesian Angular Velocity(x),Cartesian Angular Velocity(y),Cartesian Angular Velocity(z), ,Total Linear Velocity, ,Total Angular Velocity, ,MSE, ,Joint 1 Position,Joint 2 Position,Joint 3 Position,Joint 4 Position,Joint 5 Position,Joint 6 Position, ,Joint 1 Velocity,Joint 2 Velocity,Joint 3 Velocity,Joint 4 Velocity,Joint 5 Velocity,Joint 6 Velocity, ,Time Stamp
0.006058935957471357,0.021572787455449452,-0.07637475338034166, ,0.0066040933672936375,0.021410319524125983,-0.07681101680255678, ,0.0007168808853327798, ,0.0032973625370411475,0.0011792567500540582,-0.008234643085439315,0.37555171169570933,-0.012458401426358123,-0.0758501330457882, ,0.008948329057863484, ,0.375758299822923, ,5.9740073777731646e-05, ,0.09106646605285541,-0.27418790796646697,0.08613458163000001,1.5965792296911685,0.10042782732759872,-1.2851016802274922, ,0.033065136431522923,0.015385366659933654,0.008472772085106385,0.07261926436927837,0.0,-0.38454726392614114, ,0.05323600769042969
0.006379689641128943,0.021623745782041636,-0.07702822830474765, ,0.007067514492598982,0.021315553819385023,-0.07743945563908734, ,0.0008585995764348171, ,0.009070927306941604,-0.0008561061086213978,-0.011999815189343843,-0.15114922186139318,-0.09529841216267214,-0.026706602494725337, ,0.015066857816261657, ,0.17868372724234952, ,7.16127482621635e-05, ,0.09471931870236361,-0.27228811567940775,0.08685402258000001,1.5972082995216221,0.09919809882970976,-1.294227082871654, ,0.10214956034281031,0.053104052355048,0.012012678371040725,0.023627381087506626,0.0006539762295688256,0.10043939815195566, ,0.10785079002380371
0.00698380898368069,0.021479790738362935,-0.07764029313115896, ,0.007525353744137088,0.021222067225732954,-0.07806030086037367, ,0.0007321875641802558, ,0.012230672992769422,-0.002943524580093287,-0.011672921582032432,-0.05008526570600689,-0.10270655760407978,-0.043225847014364355, ,0.01716131688041309, ,0.1142679771370879, ,7.21146258108704e-05, ,0.10178561928227904,-0.2685657584340316,0.08740235325000001,1.598466439182529,0.10370710332196931,-1.2939016154267482, ,0.1444397892822995,0.0774668910681394,0.011509256878612718,0.04529584703648804,0.03080856985797811,-0.0225257608914222, ,0.16026687622070312
0.007598240755849911,0.021341185775897074,-0.07833170444632785, ,0.00797764014665933,0.021129861723052017,-0.07867361444651075, ,0.0005527243447528673, ,0.011413933802010473,-0.0029680576703633938,-0.012479662963561742,-0.010617675774964483,-0.06167289856097793,-0.004686362169719182, ,0.017170592268625297, ,0.06258019777112919, ,6.976566757806635e-05, ,0.10906815638267275,-0.2644804327435668,0.08808809066,1.5993051989564673,0.10725965231587076,-1.2974519108439797, ,0.13518082843087004,0.07888357569282692,0.012338351293570875,0.01551264425029937,0.07194094206457384,-0.0661751858511453, ,0.20928597450256348
0.008014578525163494,0.021228385382011723,-0.07881448268242865, ,0.008424402738579856,0.021038939218415275,-0.07927945803601924, ,0.0006481109582860407, ,0.009644882152523196,-0.0024860629456052176,-0.012569660398773663,0.00861970313971591,-0.02652099202751925,0.03376872084832189, ,0.01603747558832345, ,0.02788659151933082, ,7.017006657973522e-05, ,0.11398753722355376,-0.2614685669226192,0.08856512538000001,1.6003536486738899,0.11040229181047588,-1.3000145226289974, ,0.11378530162886184,0.0718372002713632,0.012463858779342725,-0.017934371145052277,0.09516655746920506,-0.08196406800195194, ,0.2573587894439697
0.008456765538119823,0.02113187872015619,-0.07945447572628533, ,0.008865670573084074,0.020949301545478,-0.07987789293116498, ,0.000616295287764463, ,0.008331449638648713,-0.0016971986344807943,-0.01201572141476854,0.0064664827513713705,-0.018211804408677458,0.03072424689784701, ,0.014719751947758854, ,0.01932575919666377, ,6.991184096188515e-05, ,0.11913087731778729,-0.2581786827181996,0.08920419635000001,1.6014020983913126,0.11532120580203174,-1.3041072459022092, ,0.09518248902554742,0.05953384037545218,0.012049025355521938,-0.016867942859330427,0.08410394097483816,-0.06751229454189893, ,0.30521202087402344
0.008779419641472996,0.021083233265417847,-0.07997308242020079, ,0.009301472719007595,0.020860950464047838,-0.08046898010245768, ,0.0007535672304552493, ,0.008150775934813113,-0.0010514011622150827,-0.013413296066401213,0.003319650697778789,0.04400489719372628,-0.03747050086294902, ,0.015730769342545522, ,0.044129928887297616, ,7.28114305553205e-05, ,0.12280689816591815,-0.25590047652030334,0.08972789751000002,1.6022408581652505,0.11942030079499495,-1.3065513168715557, ,0.09423728059431061,0.056756543994300704,0.01361436882051282,0.06517983033124802,0.12590650523000724,-0.05189763004239859, ,0.34754300117492676
0.009130939809884596,0.02104709118549745,-0.08055157705713181, ,0.009731838261517387,0.02077388765980062,-0.0810527801924872, ,0.0008288086018604853, ,0.009218123579314196,-0.0009826801194949323,-0.014564260789347054,-0.00482867607795239,0.0145966912950663,0.013312264993064345, ,0.017264331868939237, ,0.01537461720258869, ,7.609565932089279e-05, ,0.12781895180128985,-0.2530121744253434,0.09046419023,1.603289307882673,0.12556894328443977,-1.309849868994943, ,0.10759290426130474,0.06102697206332526,0.014586823736263738,0.06263970354227198,0.12917089941315205,-0.07984182000773132, ,0.3895609378814697
0.009626979641814182,0.02095889387527113,-0.08122127926045178, ,0.01015679630262235,0.020688114744113383,-0.08162935351922301, ,0.0007214926421053467, ,0.01028185844713856,-0.0024142771499343738,-0.01266611915808479,0.05444832292437676,0.009728400390674961,0.02244897308588315, ,0.016491692508972276, ,0.055310589559670324, ,7.745382037556994e-05, ,0.1323676414642081,-0.25041733617960393,0.09100085429,1.6037086877696423,0.12980467477716842,-1.3122420003877044, ,0.11876963899683453,0.0686167328694655,0.012897823093117412,0.0014178402685174705,0.13228555263810612,-0.12229305296509504, ,0.4322938919067383
0.009949480068849628,0.020889336710009324,-0.08162520041903218, ,0.010576375961536773,0.020603633253992212,-0.08219876007887714, ,0.0008964349437910136, ,0.011063507117197852,-0.0019961625440841936,-0.015081693183116541,0.04606717920834594,0.0198645972951537,-0.018708480130298657, ,0.018810723641166923, ,0.05016758361364867, ,8.139002261070356e-05, ,0.13596643498359673,-0.24831675283781487,0.09141307451000001,1.6045474475435806,0.133083950771539,-1.3144259576355752, ,0.12340304493949386,0.07113713760005305,0.01546486555339806,0.04454661535124416,0.13656221094584245,-0.11067599937237095, ,0.4689829349517822
0.010429442361556605,0.02081605010201196,-0.08230964849682555, ,0.010990606374916771,0.02052044465207543,-0.08276105954841202, ,0.0007784982783648722, ,0.011755294734603672,-0.0020247808741042073,-0.0164012048843488,0.014830801634230733,-0.00558913132120768,-0.0602372277757409, ,0.020280192640700582, ,0.01584897092041751, ,8.354227127142466e-05, ,0.14102482501621377,-0.24533577794836423,0.09211566369000002,1.6055958972610032,0.13718304576450221,-1.3168700286049217, ,0.12356372598759216,0.07483985927324195,0.01683806714587738,0.07782472827149196,0.10220995345855624,-0.0782826059605674, ,0.5064258575439453
0.010899220865748085,0.02070440399480524,-0.08287867507514295, ,0.011399516696988125,0.02043855032670153,-0.0833163112877577, ,0.0007158907362105922, ,0.011720280331490314,-0.0027835906161026826,-0.01403864961764299,-0.014240286603183766,-0.037438140898053716,0.010764728691330883, ,0.01849856834605644, ,0.04005495738550243, ,8.480279855325754e-05, ,0.1460446013844597,-0.242300743928794,0.09269899419000001,1.6058055872044876,0.14100886775793453,-1.319744693688, ,0.12388634668207675,0.07472200122714234,0.014428271304347828,0.0,0.08909932507407856,-0.059710074606466775, ,0.5432608127593994
0.01125195771049205,0.020632483024521645,-0.08334305503954142, ,0.011803136099579713,0.020357951592025733,-0.08386457434179198, ,0.0008069371144305081, ,0.01186712291731149,-0.002144099736880288,-0.017589429320358792,0.015488362036268051,-0.011552982768662493,0.03914248067661612, ,0.021326363821152616, ,0.019322502056996916, ,8.751298330881175e-05, ,0.1496974540339679,-0.24006115139526887,0.09317732520000001,1.6070637268653947,0.14387823425300877,-1.3220027909254841, ,0.12104201729396784,0.07634508572684696,0.018100922181818184,-0.02282996643107207,0.11846218347681522,-0.0942376620393248, ,0.5746359825134277
0.011621824365123986,0.02058826988926593,-0.08391509496470544, ,0.012201493772075838,0.020278649688179176,-0.08440590744212453, ,0.0008202305640898701, ,0.012628403214638938,-0.0016710794872829813,-0.019099192201358278,-0.0004753791016770264,-0.031241496479983536,0.011049985645386371, ,0.02295753072847221, ,0.031245072350494, ,9.005740282809623e-05, ,0.1533271384848534,-0.23787561799186335,0.09376972973000001,1.6070637268653947,0.1468842372478485,-1.3241272698462432, ,0.12292349942807097,0.07478088381282172,0.019787343503105594,0.00017630767614906908,0.09438600836643073,-0.07341462337642728, ,0.6067979335784912
0.011988652799643108,0.02052086027537689,-0.08441965341099214, ,0.012594618921298959,0.020200645781461933,-0.08494036900871979, ,0.0008607421195832756, ,0.01206072346847671,-0.0026064058277078302,-0.015201867765364741,0.0009559577052696919,-0.022621109001029652,0.020689126127806975, ,0.019579356104770396, ,0.022641281229294083, ,9.268361350526588e-05, ,0.15704949573022964,-0.23562057999258978,0.09429343089000002,1.6081121765828172,0.15043678624174994,-1.3267790991219286, ,0.12292349942807097,0.07373499732592913,0.015802392380952386,-0.007532586474510199,0.10510204456707996,-0.07489143070415594, ,0.6384279727935791
0.012352787592166646,0.02044821663702634,-0.08488864891044882, ,0.012982540771331798,0.02012394096456249,-0.08546801715138742, ,0.0009151018178480387, ,0.012500136238135232,-0.0019525644945300761,-0.0174193202827173,0.008438287454410448,-0.016669104124041313,0.012834171023423544, ,0.021529018398178945, ,0.018683204319386023, ,9.548830207414435e-05, ,0.16070234837973782,-0.23344276932205849,0.09478213222000001,1.6081121765828172,0.15344278923658963,-1.3289035780426877, ,0.12276447808340334,0.0718916223927809,0.018204356022857145,0.0014270217272785769,0.10883163098520654,-0.07919961879427548, ,0.6697759628295898
0.012749517702272813,0.02038885343290476,-0.08544934114557803, ,0.013365288563287543,0.02004853625680192,-0.08598890967116216, ,0.0008866361866213542, ,0.01306072074570427,-0.0018704315430602275,-0.01915889786443477,0.0381113069060212,0.043834005273008375,-0.0011595293274510652, ,0.023262508633730538, ,0.05808518874011758, ,9.856495377527692e-05, ,0.16459460574834697,-0.23117228585703647,0.09536935159000001,1.6087412464132707,0.15726861123002195,-1.3312881706849222, ,0.13071204071414708,0.07549478246497278,0.02011213575757576,0.030306043752406316,0.17237171800182904,-0.10776848087119677, ,0.6978228092193604
0.01315241455886448,0.02032943007067213,-0.0860102706742735, ,0.013742891555034852,0.01997443260439487,-0.0865031040615922, ,0.0008470956449691411, ,0.013222729760611321,-0.002169322056509695,-0.018963771505917285,0.02646761401344554,0.023944531177465127,0.006941307370118915, ,0.023220059651853957, ,0.03569135346678735, ,0.00010113213403681864, ,0.16848686311695613,-0.22892497059063713,0.09595916354,1.6093703162437245,0.16095779672368885,-1.3335613454234605, ,0.12911148511356568,0.0771519850068868,0.019911014400000003,0.016389528603490276,0.15352364394522888,-0.09985218482613892, ,0.7238759994506836
0.013422202357223023,0.020292745548855868,-0.08640811759242036, ,0.014115379020884056,0.019901630880727102,-0.08701065750995177, ,0.0009982579440647966, ,0.01400507995291929,-0.0017506416433235904,-0.021175804737537114,0.02309050225462879,0.019688785069050332,-0.023626222852546282, ,0.025448412856862012, ,0.030344938522354634, ,0.00010457687021780259, ,0.17107397862982135,-0.22741131494728914,0.09637786521000001,1.6097896961306934,0.16396379971852854,-1.3353591093836572, ,0.13143620714469637,0.0782332576739248,0.022278058069930072,0.04546422820476041,0.1447713612575519,-0.09263255772958684, ,0.7501459121704102
0.013701706677457806,0.020248553695829622,-0.0868113717781312, ,0.014482780251239686,0.0198301318866453,-0.08751162689839037, ,0.001129384775668005, ,0.014172662396504276,-0.0026309880784330377,-0.019423924193320626,0.01771921315952072,0.002983324200444428,-0.0016892129305866171, ,0.024188329598010885, ,0.017968527300333548, ,0.00010941413072662432, ,0.17369198507418346,-0.22582043197519888,0.09680175204000001,1.6097896961306934,0.1665598932140719,-1.3368226196327648, ,0.1346055908630791,0.08237581732506143,0.02044776831835687,0.019564739866180084,0.13681645411933202,-0.09559747073311842, ,0.7712419033050537
0.014154920911660375,0.020176569413670756,-0.08746993500453694, ,0.014845124552223471,0.01975993635075688,-0.08800606880502763, ,0.0009681960682569133, ,0.015802309795574603,-0.0017151738148546225,-0.02427849360852672,0.0034575222768159167,0.03475983393119879,-0.03304651192106914, ,0.029018960491198658, ,0.03493124789870624, ,0.00011292763764947476, ,0.17797037908650382,-0.2232333164623337,0.09749656348,1.610838145848116,0.17175208020515864,-1.3400763550915422, ,0.14422027592472764,0.08457837928562457,0.02569163148387097,0.05886454865991602,0.17035661804044283,-0.07649718289490472, ,0.792943000793457
0.0144780331425758,0.020137965465542768,-0.08798143426342844, ,0.01520244124527195,0.019691044929738794,-0.0884940395050049, ,0.0009936142099762862, ,0.01631397653553172,-0.0023410062211075906,-0.02546187534440426,-0.006462606336046745,0.012765947033051051,0.03687324720008132, ,0.030330401193903216, ,0.014308178871747923, ,0.00011642379029062566, ,0.18085095844858956,-0.22145708790126203,0.09803582012,1.6110478357916007,0.1750313561995292,-1.3417702398985694, ,0.14532456593946522,0.09204359026039842,0.026816181010101015,-0.016950844547489928,0.16603557764396462,-0.08703660283673158, ,0.8141958713531494
0.014642195602866108,0.020111853565602376,-0.08822465880331803, ,0.015554759666713049,0.019623458208654587,-0.08897559497149947, ,0.0012787526437884767, ,0.016664310509028325,-0.0027515415450860515,-0.023904685819658145,-0.0018483333248421523,-0.0030704550046362984,0.008939239830205751, ,0.02926951024107188, ,0.0035827676808720915, ,0.00012230658315718642, ,0.18231827769469222,-0.22053808268922934,0.09829248554000002,1.610838145848116,0.17653435769694906,-1.3425874431385272, ,0.1496797185464839,0.09276338373262051,0.02528382780952381,0.007703200910825397,0.14864395396656627,-0.08805404982020294, ,0.8305718898773193
0.0149834150806183,0.020054865288936134,-0.08871779507978159, ,0.015902109167321415,0.019557176701274315,-0.0894507908767055, ,0.0012763132818944616, ,0.018157764083204284,-0.0029145347624078984,-0.025847796266700425,0.010547190152419382,0.01932144571836035,-0.008021317935217539, ,0.03172234986925527, ,0.022012495249340038, ,0.00012795499019086905, ,0.18540737084438202,-0.21862284493642165,0.09881489041000001,1.6114672156785694,0.1800869066908505,-1.3445041637529473, ,0.16333380646896864,0.09916085847280122,0.02746346813793104,0.030859733696364675,0.18042327291603438,-0.10245272685433823, ,0.8467259407043457
0.015202777784044684,0.020023754174040405,-0.089026686481184, ,0.01624451911185922,0.019492200850402708,-0.08991968259279068, ,0.0014714672899156522, ,0.019631951557757744,-0.002961264942045829,-0.028107663688784403,0.011309177460745222,0.002495645926756447,-0.043339897983544956, ,0.034412546695427024, ,0.01158050947183844, ,0.00013458671165027784, ,0.1873534995286866,-0.21747988047103642,0.09914414807000001,1.6118865955655386,0.18199981768756668,-1.3456556207039945, ,0.17191474920012823,0.10532401948775891,0.029885199849906192,0.06255745021535429,0.1649752337850889,-0.1033788856663257, ,0.8624899387359619
0.015400205334034765,0.01999311541836194,-0.0893228499503468, ,0.01658201887860136,0.019428531028209822,-0.0903823251928292, ,0.001684614667263002, ,0.02002321535499596,-0.002641531494786591,-0.03161748826932906,0.004933485212446571,0.008587761765665931,0.032723040405136676, ,0.037517627940098455, ,0.009902390223652087, ,0.00014311346613197934, ,0.18906022349389023,-0.21639097513577077,0.09945785025000001,1.6120962855090233,0.1837760921845174,-1.346695659751345, ,0.16976197058760426,0.10820631876678537,0.03346388974789917,-0.012940260396179357,0.1856593028688157,-0.11354341589830988, ,0.8729808330535889
0.015846650584281856,0.01994273563511601,-0.09005011955041733, ,0.016914637858847607,0.01936616753656447,-0.09083877345171498, ,0.0014474123693452815, ,0.02351742626526477,-0.0020682416696432395,-0.04048446964949747,0.10101715908762587,0.07834364473321463,0.03292629928386988, ,0.0468651175667713, ,0.12783616212544086, ,0.00015002528420984435, ,0.1928289171365118,-0.21402781887625807,0.1002291428,1.6120962855090233,0.18855836967630782,-1.3502685714201577, ,0.1948602496067162,0.12244766652705909,0.04293480194070081,0.004040787164940707,0.27890187859098536,-0.2204795505918369, ,0.8850469589233398
0.01607751581405476,0.01992617768241354,-0.09044651641268069, ,0.01724240545642453,0.019305110607371955,-0.09128908184705985, ,0.0015660806817694984, ,0.025193118293015623,-0.0016635089778466317,-0.042507683910685753,0.04171580722009964,0.04146070978331574,0.016231610368445993, ,0.04944050629692244, ,0.05881377597519197, ,0.00015747252017072558, ,0.1947209866906968,-0.21286940894512438,0.10065043705000001,1.6123059754525078,0.1911544631718512,-1.3520587966298274, ,0.20364150549028065,0.12244766652705909,0.04525230545454546,0.013848624616489709,0.24793108522116541,-0.15926272961477175, ,0.8954708576202393
0.016351139907926072,0.019905557903787865,-0.09089156130650225, ,0.01756535108717722,0.01924536040291285,-0.09173330456007714, ,0.0016182401654015765, ,0.027128706777787327,-0.002385319786068087,-0.04383696868219454,-0.02083760059035674,0.005156473294558138,-0.04398672356055937, ,0.05160752178859858, ,0.021462360813861533, ,0.00016504981740944727, ,0.1969065200941023,-0.211548821623632,0.10112487919000002,1.6129350452829614,0.19334064716809823,-1.3532697319079863, ,0.21567486717834267,0.13328222128998704,0.04671205724340176,0.06588146235326285,0.21191332943553354,-0.09721046613120907, ,0.9059858322143555
0.016616434021645983,0.01988089605386355,-0.09132088001365693, ,0.01788350417845258,0.019186917016184652,-0.0921714954764551, ,0.0016764904868680221, ,0.027932397417127917,-0.0025413413005772214,-0.04450569127897411,0.020383260405149678,0.013880669830210832,-0.03254706777223751, ,0.05260640452733627, ,0.024657162979639727, ,0.0001727876958694997, ,0.19901482616876562,-0.21024367976788805,0.10158246956000001,1.613144735226446,0.1955268311643453,-1.3544806671861451, ,0.2222410809331868,0.1353736684143663,0.047548691104477625,0.056827986194174514,0.2295269048691363,-0.14203380287962, ,0.916618824005127
0.016616434021645983,0.01988089605386355,-0.09132088001365693, ,0.018196894168574628,0.01912978047124372,-0.09260370818721636, ,0.002169718188466389, ,0.027932397417127917,-0.0025413413005772214,-0.04450569127897411,0.020383260405149678,0.013880669830210832,-0.03254706777223751, ,0.05260640452733627, ,0.024657162979639727, ,0.00018419872725576765, ,0.19901482616876562,-0.21024367976788805,0.10158246956000001,1.613144735226446,0.1955268311643453,-1.3544806671861451, ,0.2222410809331868,0.1353736684143663,0.047548691104477625,0.056827986194174514,0.2295269048691363,-0.14203380287962, ,0.9219028949737549
0.016902221627239287,0.019846374969681523,-0.09176884647229544, ,0.01850555050631483,0.019073950723550934,-0.09302999598957405, ,0.002181238367400528, ,0.02926103263575171,-0.004280791796409272,-0.0449303947444865,0.023640167444281327,0.03477812555379801,0.03702504962607105, ,0.053789158584329165, ,0.04204988024265429, ,0.0010429095647624203, ,0.20131620056528451,-0.20879952872040808,0.10206080057000001,1.6133544251699303,0.19812292465988865,-1.3561075349155338, ,0.23783694626183152,0.15232253861712805,0.047978347951807235,-0.00870316229677524,0.2807674429962763,-0.1745122102397077, ,0.9271869659423828
0.016902221627239287,0.019846374969681523,-0.09176884647229544, ,0.01880950265035461,0.019019427660315426,-0.09345041188777634, ,0.0026738034707407153, ,0.02926103263575171,-0.004280791796409272,-0.0449303947444865,0.023640167444281327,0.03477812555379801,0.03702504962607105, ,0.053789158584329165, ,0.04204988024265429, ,0.0010908770325853113, ,0.20131620056528451,-0.20879952872040808,0.10206080057000001,1.6133544251699303,0.19812292465988865,-1.3561075349155338, ,0.23783694626183152,0.15232253861712805,0.047978347951807235,-0.00870316229677524,0.2807674429962763,-0.1745122102397077, ,0.9324698448181152
0.017239289099063124,0.01980553442813142,-0.09231089654230937, ,0.019108780068744394,0.01896621110084213,-0.09386500859394652, ,0.0025719106521214165, ,0.03456123820496858,-0.003038987951058386,-0.058148570186178514,0.15428480535192673,0.14101878895174297,0.04143803407054938, ,0.06771241281127255, ,0.20902017891457952, ,0.0011331922788577714, ,0.20404232526988578,-0.20708508202233022,0.10264024220000001,1.6133544251699303,0.20194874665332097,-1.3589005212584713, ,0.2750635987202052,0.16885576789763485,0.06222192000000001,0.012837403922803957,0.42270627117767673,-0.31707728124492823, ,0.937781810760498
0.017239289099063124,0.01980553442813142,-0.09231089654230937, ,0.019403412238356874,0.018914300796877392,-0.09427383852891721, ,0.003054646884713982, ,0.03456123820496858,-0.003038987951058386,-0.058148570186178514,0.15428480535192673,0.14101878895174297,0.04143803407054938, ,0.06771241281127255, ,0.20902017891457952, ,0.0011865660179093329, ,0.20404232526988578,-0.20708508202233022,0.10264024220000001,1.6133544251699303,0.20194874665332097,-1.3589005212584713, ,0.2750635987202052,0.16885576789763485,0.06222192000000001,0.012837403922803957,0.42270627117767673,-0.31707728124492823, ,0.9431748390197754
0.01756973748336695,0.019784644609275245,-0.09289650517572025, ,0.019693428644338214,0.01886369643295829,-0.09467695382305961, ,0.002920309414507576, ,0.03797630820304224,-0.0016076931699544118,-0.06895081920454842,0.19482854258699414,0.20424754386399774,0.022125815904345217, ,0.07873372930986754, ,0.2822652329205528, ,0.0012334239475471232, ,0.20662171804987675,-0.20549419905023997,0.10326635027000002,1.6137738050568995,0.20632111464581507,-1.362057500476054, ,0.290204714246088,0.177046532758341,0.07374449777777779,0.04530190750930832,0.49586217044233083,-0.35890177470840967, ,0.9497230052947998
0.01801288715929257,0.019775263778595648,-0.09369741122994113, ,0.0199788587795532,0.018814397626759176,-0.09507440631710917, ,0.002585425234560101, ,0.043746866664862244,-0.0006836335926794282,-0.07775743710743598,0.01776364422281271,0.07509309404792423,-0.0329820925728284, ,0.08922149249703872, ,0.07714711445963647, ,0.0012690029287843068, ,0.20990387952142217,-0.2035480703659354,0.10412449425,1.6144028748873531,0.21124002863737093,-1.3650067213872978, ,0.3142282833061946,0.18534558898138823,0.0833969189528796,0.0754577443200296,0.3821965192619468,-0.18343365539589893, ,0.9550387859344482
0.01801288715929257,0.019775263778595648,-0.09369741122994113, ,0.020259732144029294,0.018766403929440956,-0.0954662475629875, ,0.003032308123159305, ,0.043746866664862244,-0.0006836335926794282,-0.07775743710743598,0.01776364422281271,0.07509309404792423,-0.0329820925728284, ,0.08922149249703872, ,0.07714711445963647, ,0.00131421588248623, ,0.20990387952142217,-0.2035480703659354,0.10412449425,1.6144028748873531,0.21124002863737093,-1.3650067213872978, ,0.3142282833061946,0.18534558898138823,0.0833969189528796,0.0754577443200296,0.3821965192619468,-0.18343365539589893, ,0.960270881652832
0.01847251760578939,0.01975918433061679,-0.09451104699390223, ,0.020536078244398293,0.01871971482600118,-0.09585252882462092, ,0.002671769612520918, ,0.047805018265616624,-0.002023523961955148,-0.08507266654070643,-0.05208326867342508,0.019834207432778393,0.043366548109930854, ,0.0976051894775415, ,0.055692069528967096, ,0.0013481547257370972, ,0.21313970459572223,-0.20154788255151126,0.10499560113,1.6146125648308374,0.21479257763127238,-1.3665150483010153, ,0.331807487966681,0.20994898574882914,0.09102178011428572,-0.015194342472721127,0.3622414906402875,-0.15608374987861906, ,0.9655239582061768
0.01847251760578939,0.01975918433061679,-0.09451104699390223, ,0.020807926593332464,0.01867432973562074,-0.09623330107875643, ,0.00309793540348697, ,0.047805018265616624,-0.002023523961955148,-0.08507266654070643,-0.05208326867342508,0.019834207432778393,0.043366548109930854, ,0.0976051894775415, ,0.055692069528967096, ,0.0013908323032431917, ,0.21313970459572223,-0.20154788255151126,0.10499560113,1.6146125648308374,0.21479257763127238,-1.3665150483010153, ,0.331807487966681,0.20994898574882914,0.09102178011428572,-0.015194342472721127,0.3622414906402875,-0.15608374987861906, ,0.970740795135498
0.018935416856997032,0.019735274130546737,-0.09533449681934109, ,0.02107530670898277,0.01863024801201597,-0.09660861501577576, ,0.002724626300936089, ,0.04932124851777368,-0.0031786251596437193,-0.08585792110330251,0.014330589839857839,0.05894913820768814,0.047275895736449594, ,0.09906700676531228, ,0.060627561070723764, ,0.0014225893031882607, ,0.21635236147139963,-0.1994859128740933,0.10587707833000001,1.6146125648308374,0.21861839962470472,-1.3684912472425472, ,0.34382949840025645,0.22017851869714797,0.09207405502890174,-0.01272759209221556,0.4136460480703948,-0.23194303946361977, ,0.9796669483184814
0.01946718266477611,0.01969171806604165,-0.09621163113036728, ,0.021338248114412563,0.018587468943787766,-0.09697852104050765, ,0.002303990489367709, ,0.05007828510320694,-0.00522147201558188,-0.07695172054605037,0.002280971521790412,0.023452320200276124,0.025290426312233848, ,0.09196013105626272, ,0.023505655594259347, ,0.001443087005192434, ,0.2201210551140212,-0.19713820208032906,0.10682207374000001,1.6144028748873531,0.2229907676171988,-1.3709131177988647, ,0.36220206701706403,0.21966884620016383,0.0833969189528796,0.004088965788188901,0.39247061924210663,-0.21585246651007362, ,0.9851779937744141
0.01946718266477611,0.01969171806604165,-0.09621163113036728, ,0.021596780337028647,0.018545991754769637,-0.0973430692730366, ,0.0026698365674122093, ,0.05007828510320694,-0.00522147201558188,-0.07695172054605037,0.002280971521790412,0.023452320200276124,0.025290426312233848, ,0.09196013105626272, ,0.023505655594259347, ,0.001470967677061065, ,0.2201210551140212,-0.19713820208032906,0.10682207374000001,1.6144028748873531,0.2229907676171988,-1.3709131177988647, ,0.36220206701706403,0.21966884620016383,0.0833969189528796,0.004088965788188901,0.39247061924210663,-0.21585246651007362, ,0.9905200004577637
0.019943274375704007,0.01961596372920203,-0.09685568129552846, ,0.021850932908014955,0.018505815604380877,-0.09770230954951291, ,0.0023639732095325095, ,0.0482746453548757,-0.01093359157078181,-0.05638208182622439,-0.1947056173021398,-0.1689634502723959,-0.011400571965377691, ,0.0750261551716117, ,0.2577951806359884, ,0.0014908122444493195, ,0.22364262130466758,-0.1949758368755462,0.10752466292000001,1.6146125648308374,0.22572349761250762,-1.3719979735108254, ,0.36781760293980925,0.23202186200115102,0.061979811361867705,0.0,0.20284193219648705,-0.0315826133395922, ,0.9957787990570068
0.019943274375704007,0.01961596372920203,-0.09685568129552846, ,0.02210073536175985,0.018466939587974077,-0.09805629142295795, ,0.0027232992970960684, ,0.0482746453548757,-0.01093359157078181,-0.05638208182622439,-0.1947056173021398,-0.1689634502723959,-0.011400571965377691, ,0.0750261551716117, ,0.2577951806359884, ,0.0015176054412459879, ,0.22364262130466758,-0.1949758368755462,0.10752466292000001,1.6146125648308374,0.22572349761250762,-1.3719979735108254, ,0.36781760293980925,0.23202186200115102,0.061979811361867705,0.0,0.20284193219648705,-0.0315826133395922, ,1.0010299682617188
0.020443759004453357,0.01947963887737498,-0.09739760992785358, ,0.022346217235286164,0.018429362737187115,-0.09840506416407242, ,0.00239528522910878, ,0.050879019775639994,-0.014535733616081188,-0.055192889726063066,-0.07143943904726319,-0.11302168584026655,-0.014760019099101464, ,0.07646056030007232, ,0.13370483442927966, ,0.0015362794792856218, ,0.2275580468718994,-0.19243505775992634,0.1081235489,1.614822254774322,0.22818295460828555,-1.3730233508956742, ,0.39872664520365875,0.26360261544019664,0.06102992919540231,0.011569827745586037,0.28888322593216315,-0.18287349926906227, ,1.0062949657440186
0.020443759004453357,0.01947963887737498,-0.09739760992785358, ,0.02258740806767783,0.018393084020292577,-0.0987486767620393, ,0.002757029987894425, ,0.050879019775639994,-0.014535733616081188,-0.055192889726063066,-0.07143943904726319,-0.11302168584026655,-0.014760019099101464, ,0.07646056030007232, ,0.13370483442927966, ,0.0015617117815483054, ,0.2275580468718994,-0.19243505775992634,0.1081235489,1.614822254774322,0.22818295460828555,-1.3730233508956742, ,0.39872664520365875,0.26360261544019664,0.06102992919540231,0.011569827745586037,0.28888322593216315,-0.18287349926906227, ,1.0116658210754395
0.020853094086398023,0.0193676312336491,-0.09784832828868717, ,0.022824337399506223,0.018358102342548158,-0.09908717792532806, ,0.0025376558481493435, ,0.05170028142725909,-0.013339952091220304,-0.05643339983461928,0.043845590043449546,-0.033103079219448085,-0.015582064454094106, ,0.07768913719657242, ,0.054933389159187225, ,0.001581629007397306, ,0.23079387194619946,-0.19034991988388572,0.10862391684000001,1.615241634661291,0.23118895760312522,-1.3753928660368548, ,0.4072830109805613,0.25305851082258873,0.06295972932806325,0.03062481633300588,0.37527700248496476,-0.28331297076110057, ,1.0172419548034668
0.020853094086398023,0.0193676312336491,-0.09784832828868717, ,0.02305703477225662,0.01832441654654789,-0.09942061608249908, ,0.002901334233889033, ,0.05170028142725909,-0.013339952091220304,-0.05643339983461928,0.043845590043449546,-0.033103079219448085,-0.015582064454094106, ,0.07768913719657242, ,0.054933389159187225, ,0.0016080231119271406, ,0.23079387194619946,-0.19034991988388572,0.10862391684000001,1.615241634661291,0.23118895760312522,-1.3753928660368548, ,0.4072830109805613,0.25305851082258873,0.06295972932806325,0.03062481633300588,0.37527700248496476,-0.28331297076110057, ,1.0226948261260986
0.021444905050174195,0.019203239876900098,-0.0984466590576277, ,0.0232855297277524,0.018292025412572233,-0.09974903938300525, ,0.002431955080925781, ,0.05055552705823779,-0.014967636124709922,-0.04727080643556364,-0.04327554600155822,-0.14973840343535694,-0.04012030377898543, ,0.07081257366009557, ,0.15586573169324572, ,0.0016241786407310355, ,0.2354661253351053,-0.18745389505605153,0.10929669135000002,1.615241634661291,0.23474150659702667,-1.3781263740526808, ,0.40040903611169104,0.24842131298029,0.05363236202020203,0.03062481633300588,0.24940423486597332,-0.1913296122130479, ,1.0280308723449707
0.021444905050174195,0.019203239876900098,-0.0984466590576277, ,0.02350985180757883,0.01826092765893801,-0.10007249569799355, ,0.0027920068424329924, ,0.05055552705823779,-0.014967636124709922,-0.04727080643556364,-0.04327554600155822,-0.14973840343535694,-0.04012030377898543, ,0.07081257366009557, ,0.15586573169324572, ,0.0016466368753791502, ,0.2354661253351053,-0.18745389505605153,0.10929669135000002,1.615241634661291,0.23474150659702667,-1.3781263740526808, ,0.40040903611169104,0.24842131298029,0.05363236202020203,0.03062481633300588,0.24940423486597332,-0.1913296122130479, ,1.0333499908447266
0.021973294933815824,0.01904600542455707,-0.0989669303012042, ,0.02373003055250743,0.018231121942349736,-0.10039103262110695, ,0.0024037933648936092, ,0.05353857407301379,-0.015197933343302071,-0.05834821490785965,-0.12677529015232553,-0.18798598842190425,0.0006016399483465034, ,0.08063417559951123, ,0.22673779953622772, ,0.001660922846879423, ,0.23952828282694738,-0.18482044314594095,0.10988261443000001,1.6154513246047757,0.23692769059327373,-1.37941898807098, ,0.3954039231602949,0.26731532833372046,0.0650155572244898,-0.024571466613281596,0.21575293100973172,-0.1386795355515018, ,1.038679838180542
0.02251487389206664,0.018904537513739543,-0.09960121388141721, ,0.023946095501917942,0.018202606858249582,-0.10070469746928457, ,0.0019387568105140277, ,0.05485575909681013,-0.012881628418526107,-0.06744131006434785,-0.07723916622907043,-0.11497820085433168,-0.03056183160233725, ,0.08788299585241592, ,0.1385080513626226, ,0.0016660679202800638, ,0.24342054019555653,-0.18217154577008196,0.11058649990000001,1.615241634661291,0.23938714758905166,-1.381179474117094, ,0.38575992503443407,0.25928126108871796,0.07478315267605636,0.019639576751565854,0.27190110269113077,-0.16987945026002582, ,1.044475793838501
0.02251487389206664,0.018904537513739543,-0.09960121388141721, ,0.024158076193222022,0.018175380941168846,-0.10101353728356297, ,0.0022861409628660142, ,0.05485575909681013,-0.012881628418526107,-0.06744131006434785,-0.07723916622907043,-0.11497820085433168,-0.03056183160233725, ,0.08788299585241592, ,0.1385080513626226, ,0.0016773419755998083, ,0.24342054019555653,-0.18217154577008196,0.11058649990000001,1.615241634661291,0.23938714758905166,-1.381179474117094, ,0.38575992503443407,0.25928126108871796,0.07478315267605636,0.019639576751565854,0.27190110269113077,-0.16987945026002582, ,1.050004005432129
0.02251487389206664,0.018904537513739543,-0.09960121388141721, ,0.024366002161284612,0.018149442665077953,-0.10131759882987589, ,0.002634923412714054, ,0.05485575909681013,-0.012881628418526107,-0.06744131006434785,-0.07723916622907043,-0.11497820085433168,-0.03056183160233725, ,0.08788299585241592, ,0.1385080513626226, ,0.0016944416441197056, ,0.24735913396141104,-0.17962304392158787,0.11136168132000002,1.615241634661291,0.2425297870836568,-1.3834153709415493, ,0.37958776623388313,0.24146804467804267,0.07443369869158879,0.015617315257727667,0.30455093580949255,-0.2239514245850363, ,1.0554869174957275
0.02307685191451198,0.01878278653618355,-0.10029771755546432, ,0.024569902937844227,0.018124790443735835,-0.10161692859985193, ,0.002098208282221804, ,0.05434255009055726,-0.01151514343025681,-0.0666407508082381,-0.006594387418523061,-0.07733727877847454,-0.017808232716438555, ,0.0867565614051744, ,0.07760944735957595, ,0.0017015252693495671, ,0.24735913396141104,-0.17962304392158787,0.11136168132000002,1.615241634661291,0.2425297870836568,-1.3834153709415493, ,0.37958776623388313,0.24146804467804267,0.07443369869158879,0.015617315257727667,0.30455093580949255,-0.2239514245850363, ,1.0609419345855713
0.023632014351352277,0.018662200435058635,-0.10097251357723636, ,0.024769808050936874,0.018101422631043307,-0.10191157281161724, ,0.0015782517207234925, ,0.05293477011869693,-0.012147839694765976,-0.06289617595973651,-0.10889548918990856,-0.13185120221406643,-0.028724371915416096, ,0.0830998727262994, ,0.17100287367594777, ,0.0016993998633387727, ,0.250934759282177,-0.1773293922579432,0.11206686308000001,1.615241634661291,0.24512588057920015,-1.385042238670938, ,0.3635898144002712,0.23665072707848075,0.07048146690265487,0.013111966802436162,0.239274520324602,-0.12245450041206503, ,1.0662219524383545
0.023632014351352277,0.018662200435058635,-0.10097251357723636, ,0.024965747024314977,0.01807933752139119,-0.10220157741059227, ,0.0019050380378146433, ,0.05293477011869693,-0.012147839694765976,-0.06289617595973651,-0.10889548918990856,-0.13185120221406643,-0.028724371915416096, ,0.0830998727262994, ,0.17100287367594777, ,0.0017028852561264993, ,0.250934759282177,-0.1773293922579432,0.11206686308000001,1.615241634661291,0.24512588057920015,-1.385042238670938, ,0.3635898144002712,0.23665072707848075,0.07048146690265487,0.013111966802436162,0.239274520324602,-0.12245450041206503, ,1.0715069770812988
0.024148022808502933,0.018541020358474436,-0.10158021408821878, ,0.0251577493768678,0.01805853335001137,-0.10248698807029076, ,0.0014403404148881631, ,0.05116240413697753,-0.012006920010843546,-0.05976630507310213,-0.1486701978740749,-0.15654802577154864,-0.02233894152508038, ,0.07958497940763272, ,0.21589198580496477, ,0.001698509508772527, ,0.25470345292479857,-0.1748426722724429,0.11279797064000001,1.6154513246047757,0.24731206457544722,-1.3859264589885347, ,0.3463392027681415,0.22702617597720282,0.06721017518987342,0.0,0.1929247587140196,-0.07114511635077964, ,1.0767428874969482
0.024148022808502933,0.018541020358474436,-0.10158021408821878, ,0.025345844622043173,0.01803900829332834,-0.10276785019311886, ,0.001759907022602988, ,0.05116240413697753,-0.012006920010843546,-0.05976630507310213,-0.1486701978740749,-0.15654802577154864,-0.02233894152508038, ,0.07958497940763272, ,0.21589198580496477, ,0.0016995160253926987, ,0.25470345292479857,-0.1748426722724429,0.11279797064000001,1.6154513246047757,0.24731206457544722,-1.3859264589885347, ,0.3463392027681415,0.22702617597720282,0.06721017518987342,0.0,0.1929247587140196,-0.07114511635077964, ,1.0819909572601318
0.02462290174588888,0.018435633837397325,-0.10212840236344636, ,0.025530062267266916,0.01802076046930931,-0.10304420891117402, ,0.0013541645970695057, ,0.048338543910956704,-0.010468404789968385,-0.05523708931647554,-0.08268108079606203,-0.1071508199966572,-0.030829000542113835, ,0.07414403794260478, ,0.1353401090648415, ,0.0016939458410649053, ,0.25792383253335016,-0.17280387079364762,0.11341759726000002,1.6158707044917449,0.2492249755721634,-1.3865878434987384, ,0.3295032693002457,0.20277124264630508,0.06271185637795276,0.02008788151751759,0.22250057104661172,-0.10839120012754572, ,1.0872960090637207
0.02462290174588888,0.018435633837397325,-0.10212840236344636, ,0.025710431813361998,0.018003787937813903,-0.10331610908704182, ,0.0016672911533139481, ,0.048338543910956704,-0.010468404789968385,-0.05523708931647554,-0.08268108079606203,-0.1071508199966572,-0.030829000542113835, ,0.07414403794260478, ,0.1353401090648415, ,0.001693522750783144, ,0.25792383253335016,-0.17280387079364762,0.11341759726000002,1.6158707044917449,0.2492249755721634,-1.3865878434987384, ,0.3295032693002457,0.20277124264630508,0.06271185637795276,0.02008788151751759,0.22250057104661172,-0.10839120012754572, ,1.092721939086914
0.024900846162733175,0.018374480646123716,-0.10244414239107852, ,0.02588698275396902,0.017988088700945714,-0.10358359531459493, ,0.00155567254805849, ,0.04560427785714304,-0.010437745803699763,-0.05100102032568576,-0.047599450997592906,-0.08155216881287443,-0.027239480029096524, ,0.06920838656257759, ,0.09442520274582361, ,0.0016913688413655713, ,0.2598236248204094,-0.17163773812963973,0.11377666959000002,1.6158707044917449,0.2505913405698178,-1.3872936288349997, ,0.3131912262655801,0.19366722767034852,0.05813434861313869,0.02008788151751759,0.23193663615385168,-0.13455127941173872, ,1.0980229377746582
0.024900846162733175,0.018374480646123716,-0.10244414239107852, ,0.026059744574966036,0.017973660703403223,-0.10384671191979157, ,0.0018630360810334987, ,0.04560427785714304,-0.010437745803699763,-0.05100102032568576,-0.047599450997592906,-0.08155216881287443,-0.027239480029096524, ,0.06920838656257759, ,0.09442520274582361, ,0.001694009875822001, ,0.2598236248204094,-0.17163773812963973,0.11377666959000002,1.6158707044917449,0.2505913405698178,-1.3872936288349997, ,0.3131912262655801,0.19366722767034852,0.05813434861313869,0.02008788151751759,0.23193663615385168,-0.13455127941173872, ,1.1032888889312744
0.025503302410986164,0.018222554731803398,-0.1030990464048892, ,0.026228746753885826,0.017960501832828112,-0.10410550296147111, ,0.0012680283974711235, ,0.039905519453417554,-0.01022182675672604,-0.04381351485472864,-0.053406637714129554,-0.06597405403035642,0.0016879711129542448, ,0.06013784423320422, ,0.08488040590281662, ,0.001687555610998503, ,0.2639939005724906,-0.16899656348665495,0.11452592521000002,1.616080394435229,0.25387061656418836,-1.3889875136420269, ,0.2726923608002034,0.17541024317647097,0.05009060226415095,-0.010367164943300141,0.21180639701245518,-0.11862604267179966, ,1.1085658073425293
0.025503302410986164,0.018222554731803398,-0.1030990464048892, ,0.02639401875933782,0.017948609920158842,-0.1043600122321549, ,0.0015679464884299221, ,0.039905519453417554,-0.01022182675672604,-0.04381351485472864,-0.053406637714129554,-0.06597405403035642,0.0016879711129542448, ,0.06013784423320422, ,0.08488040590281662, ,0.0016857704002138972, ,0.2639939005724906,-0.16899656348665495,0.11452592521000002,1.616080394435229,0.25387061656418836,-1.3889875136420269, ,0.2726923608002034,0.17541024317647097,0.05009060226415095,-0.010367164943300141,0.21180639701245518,-0.11862604267179966, ,1.1137819290161133
0.025908422973375218,0.018132672573067807,-0.10358777172650721, ,0.026555590050425015,0.017937982739978812,-0.10461028325884121, ,0.0012256668350254993, ,0.03793010110670774,-0.006843734384665458,-0.050440569554028404,0.00249295704117713,-0.005592725744246011,0.011718388674163353, ,0.06348055077917725, ,0.0060964664754849865, ,0.0016790041713140677, ,0.26664279794834966,-0.1672821167885771,0.11507944104000001,1.616080394435229,0.2560568005604354,-1.390198448920186, ,0.23783694626183152,0.15232253861712805,0.05668616199288257,-0.010367164943300141,0.23768251827827463,-0.15216762481415774, ,1.119055986404419
0.026273749755116947,0.018075283071421522,-0.10408313381907842, ,0.026713490076163835,0.01792861801086814,-0.10485635930380421, ,0.000901531940738086, ,0.03567527766605528,-0.005081767212377805,-0.04862478293708645,-0.07927740149053636,-0.08321310874838289,-0.0021382339217684847, ,0.0605220563945882, ,0.11493065748658798, ,0.0016677364578274593, ,0.2688669450161263,-0.16588430213834246,0.11563554945000001,1.616080394435229,0.2579697115571516,-1.391186548390952, ,0.2108820923521573,0.13107312369954527,0.054550724383561656,-0.010367164943300141,0.13136912051492544,-0.04982726791398336, ,1.125128984451294
0.026273749755116947,0.018075283071421522,-0.10408313381907842, ,0.026867748274902056,0.0179205133957531,-0.10509828336539043, ,0.001186303711277544, ,0.03567527766605528,-0.005081767212377805,-0.04862478293708645,-0.07927740149053636,-0.08321310874838289,-0.0021382339217684847, ,0.0605220563945882, ,0.11493065748658798, ,0.0016608588471624605, ,0.2688669450161263,-0.16588430213834246,0.11563554945000001,1.616080394435229,0.2579697115571516,-1.391186548390952, ,0.2108820923521573,0.13107312369954527,0.054550724383561656,-0.010367164943300141,0.13136912051492544,-0.04982726791398336, ,1.1304829120635986
0.026611598466737968,0.01802599339801834,-0.10454584244416072, ,0.02701839407373903,0.017913666502258258,-0.10533609817881712, ,0.0008958817575683622, ,0.03148790033545134,-0.004424769458399738,-0.04425478142825705,-0.06536914972534577,-0.07843038971457364,-0.004099083885283738, ,0.05449359716111709, ,0.10209937325971796, ,0.0016500845219569098, ,0.27083624189905353,-0.1646332194127181,0.11615406545000001,1.616080394435229,0.25906280355527506,-1.3916694979198203, ,0.18007009783391037,0.11601093100057551,0.04946835875776398,-0.009216107889341636,0.10472998192138332,-0.04886607732383996, ,1.1360619068145752
0.026611598466737968,0.01802599339801834,-0.10454584244416072, ,0.027165456887942273,0.017908074883055045,-0.10556984621696851, ,0.0011701485604976203, ,0.03148790033545134,-0.004424769458399738,-0.04425478142825705,-0.06536914972534577,-0.07843038971457364,-0.004099083885283738, ,0.05449359716111709, ,0.10209937325971796, ,0.0016434187447144197, ,0.27083624189905353,-0.1646332194127181,0.11615406545000001,1.616080394435229,0.25906280355527506,-1.3916694979198203, ,0.18007009783391037,0.11601093100057551,0.04946835875776398,-0.009216107889341636,0.10472998192138332,-0.04886607732383996, ,1.1413309574127197
0.026908908306400147,0.01798915764098909,-0.10497519689602368, ,0.027308966120367432,0.017903736036213688,-0.10579956969119361, ,0.0009202899600098748, ,0.028172306098303387,-0.0028997966979669608,-0.042126920872879774,-0.02693051118890671,-0.023636760332266082,0.005134175659550037, ,0.050761847031170135, ,0.03583038087994693, ,0.0016335128709513435, ,0.2725197976656345,-0.16356748227607512,0.11663369275000002,1.616080394435229,0.26029253205316405,-1.3923455440925259, ,0.1568544488569765,0.09723047290826925,0.04698764460176992,-0.008064424520870483,0.13657825726521572,-0.06888152470755815, ,1.1468498706817627
0.026908908306400147,0.01798915764098909,-0.10497519689602368, ,0.027448951160876235,0.017900647405553173,-0.10602531055210351, ,0.0011841532996757472, ,0.028172306098303387,-0.0028997966979669608,-0.042126920872879774,-0.02693051118890671,-0.023636760332266082,0.005134175659550037, ,0.050761847031170135, ,0.03583038087994693, ,0.0016274404443124841, ,0.2725197976656345,-0.16356748227607512,0.11663369275000002,1.616080394435229,0.26029253205316405,-1.3923455440925259, ,0.1568544488569765,0.09723047290826925,0.04698764460176992,-0.008064424520870483,0.13657825726521572,-0.06888152470755815, ,1.1521389484405518
0.027179540224295348,0.01797147232374895,-0.10539624193191922, ,0.027585441385753598,0.01789880638099078,-0.10624711049036711, ,0.0009455228161526721, ,0.025096253230835693,-0.0010813468189146453,-0.04018393106843563,0.032645099126730574,0.016768101593196607,0.013057263592102209, ,0.047389234571596474, ,0.03669832355796044, ,0.0016183482092703534, ,0.27399483964461135,-0.16270253619416197,0.11710294973000002,1.616080394435229,0.2617955335505839,-1.3934894622930458, ,0.1346055908630791,0.07640655520005699,0.04474385258426967,-0.007156752951353197,0.15486745150945216,-0.10814826721690109, ,1.1586878299713135
0.027179540224295348,0.01797147232374895,-0.10539624193191922, ,0.027718466157129182,0.017898210298895302,-0.1064650109375113, ,0.001199197928901129, ,0.025096253230835693,-0.0010813468189146453,-0.04018393106843563,0.032645099126730574,0.016768101593196607,0.013057263592102209, ,0.047389234571596474, ,0.03669832355796044, ,0.0016128330740023374, ,0.27399483964461135,-0.16270253619416197,0.11710294973000002,1.616080394435229,0.2617955335505839,-1.3934894622930458, ,0.1346055908630791,0.07640655520005699,0.04474385258426967,-0.007156752951353197,0.15486745150945216,-0.10814826721690109, ,1.1640288829803467
0.027412021786386517,0.01796822638798528,-0.10578128124782242, ,0.027848054822390944,0.01789885644243352,-0.10667905306671302, ,0.001000465509963851, ,0.022277626109050815,0.0002015990653995103,-0.0372426168465431,0.012990993173033925,-0.003771179656379103,0.009319004143321388, ,0.043397531920793014, ,0.013524646100299641, ,0.0016048802484953442, ,0.2751995859729904,-0.16203838116697866,0.11753072543000001,1.616080394435229,0.2631618985482383,-1.3944402838497292, ,0.11257051193175657,0.059125820285651574,0.04137353641558442,-0.006452440663555695,0.111497562522484,-0.07165061668664345, ,1.169301986694336
0.027626822370600632,0.01797822233493381,-0.10614904177426049, ,0.027974236713607527,0.01790074204192441,-0.10688927779360202, ,0.0008213703706990737, ,0.022277626109050815,0.0002015990653995103,-0.0372426168465431,0.012990993173033925,-0.003771179656379103,0.009319004143321388, ,0.043397531920793014, ,0.013524646100299641, ,0.0015948352500620587, ,0.2751995859729904,-0.16203838116697866,0.11753072543000001,1.616080394435229,0.2631618985482383,-1.3944402838497292, ,0.11257051193175657,0.059125820285651574,0.04137353641558442,-0.006452440663555695,0.111497562522484,-0.07165061668664345, ,1.1748437881469727
0.027626822370600632,0.01797822233493381,-0.10614904177426049, ,0.028097041146943284,0.017903864275186854,-0.10709572577705276, ,0.0010596440061725002, ,0.021644388615274433,0.001737451388008727,-0.038355174132551774,-0.010366099088134163,-0.022420050589338474,0.006694146150448288, ,0.044075136739357756, ,0.024698819217998203, ,0.0015880606773545959, ,0.2762498776438849,-0.16152868079727983,0.11793905678000001,1.616080394435229,0.2641183540465964,-1.394893494215042, ,0.10095419314730934,0.04633639724534706,0.042476830720000004,-0.005866209271942739,0.08065010065734107,-0.03581565890607725, ,1.1805078983306885
0.027852558849669275,0.01800819364561955,-0.10657691379861359, ,0.028216497422079212,0.017908220267892527,-0.10729843741998511, ,0.0008142740920224669, ,0.02109945808423205,0.004049598319229945,-0.04306988862097542,0.02025032638559144,0.009708835333792564,0.012913062534198678, ,0.048131088537644806, ,0.022454153184933767, ,0.0015783883450379444, ,0.2772383874517857,-0.16111165322207172,0.11841090634000001,1.616080394435229,0.2650748095449545,-1.3954283833204952, ,0.0849569754328297,0.031973363058783955,0.04726650302670624,-0.005351091967335791,0.09693521573532766,-0.0524815462945785, ,1.1857819557189941
0.027852558849669275,0.01800819364561955,-0.10657691379861359, ,0.028332634821627088,0.017913807093913166,-0.1074974528701579, ,0.0010424845045533871, ,0.02109945808423205,0.004049598319229945,-0.04306988862097542,0.02025032638559144,0.009708835333792564,0.012913062534198678, ,0.048131088537644806, ,0.022454153184933767, ,0.0015717722482418387, ,0.2772383874517857,-0.16111165322207172,0.11841090634000001,1.616080394435229,0.2650748095449545,-1.3954283833204952, ,0.0849569754328297,0.031973363058783955,0.04726650302670624,-0.005351091967335791,0.09693521573532766,-0.0524815462945785, ,1.1911039352416992
0.027977803407819506,0.018035396503341506,-0.1068382756472736, ,0.028445482610551402,0.01792062177567429,-0.10769281202096881, ,0.0009808819953221553, ,0.019865997782563705,0.004699279501222022,-0.04310131760232537,0.010640904682793037,0.03259854072085603,0.016336409526667893, ,0.04769134800762036, ,0.03428913765392977, ,0.001564566269547696, ,0.27772491962286183,-0.1609417530988388,0.11869738643000001,1.616080394435229,0.2656213555440162,-1.395629018714859, ,0.07472200122714234,0.025738253745177863,0.047126661301775154,-0.0050926083148877185,0.1097040804506004,-0.0368116203304379, ,1.1964759826660156
0.027977803407819506,0.018035396503341506,-0.1068382756472736, ,0.028555070035584634,0.01792866128450344,-0.10788455451224911, ,0.0011997202297894976, ,0.019865997782563705,0.004699279501222022,-0.04310131760232537,0.010640904682793037,0.03259854072085603,0.016336409526667893, ,0.04769134800762036, ,0.03428913765392977, ,0.0015601705341289228, ,0.27772491962286183,-0.1609417530988388,0.11869738643000001,1.616080394435229,0.2656213555440162,-1.395629018714859, ,0.07472200122714234,0.025738253745177863,0.047126661301775154,-0.0050926083148877185,0.1097040804506004,-0.0368116203304379, ,1.2017698287963867
0.02821712241744498,0.01810088067553354,-0.1073881692893704, ,0.028661426324646418,0.01793792254098165,-0.10807271973106175, ,0.00083220828089543, ,0.015921522992444634,0.004984955345173701,-0.038999538603433574,0.014074571786532247,0.048256052986970444,0.012227381624048475, ,0.04241825886894728, ,0.05026579355778133, ,0.001551504316828524, ,0.27855897477327807,-0.16067145744824093,0.11929627241000001,1.6158707044917449,0.26712435704143606,-1.3963645432146763, ,0.04909308926977277,0.015992069693035182,0.04225148944297083,0.0,0.098739803342455,-0.029512758983810013, ,1.2070338726043701
0.02821712241744498,0.01810088067553354,-0.1073881692893704, ,0.028764580686260904,0.01794840241529344,-0.10825734681249709, ,0.0010384747193116599, ,0.015921522992444634,0.004984955345173701,-0.038999538603433574,0.014074571786532247,0.048256052986970444,0.012227381624048475, ,0.04241825886894728, ,0.05026579355778133, ,0.001545468674504796, ,0.27855897477327807,-0.16067145744824093,0.11929627241000001,1.6158707044917449,0.26712435704143606,-1.3963645432146763, ,0.04909308926977277,0.015992069693035182,0.04225148944297083,0.0,0.098739803342455,-0.029512758983810013, ,1.2122719287872314
0.028373370469746546,0.01815365823135195,-0.10777722620292647, ,0.028864562308974023,0.017960097727576747,-0.10843847464047025, ,0.0008461587248852761, ,0.015181657389795164,0.005456857113681669,-0.038651545828406735,0.041575550133654694,0.05213224829635986,0.013365437775618912, ,0.04188319478723759, ,0.0666799176394702, ,0.0015373371634627086, ,0.2790223387457315,-0.16054017098937912,0.11971756666000001,1.6158707044917449,0.26808081253979416,-1.3967360748398485, ,0.04303716170452189,0.011010529941427687,0.04180790425196851,0.0,0.0965362745514559,-0.0522259284469852, ,1.217458963394165
0.028373370469746546,0.01815365823135195,-0.10777722620292647, ,0.028961400360773243,0.01797300524827512,-0.1086161418485185, ,0.001040285592255572, ,0.015181657389795164,0.005456857113681669,-0.038651545828406735,0.041575550133654694,0.05213224829635986,0.013365437775618912, ,0.04188319478723759, ,0.0666799176394702, ,0.001531623927012052, ,0.2790223387457315,-0.16054017098937912,0.11971756666000001,1.6158707044917449,0.26808081253979416,-1.3967360748398485, ,0.04303716170452189,0.011010529941427687,0.04180790425196851,0.0,0.0965362745514559,-0.0522259284469852, ,1.2228209972381592
0.028519466725734455,0.018211663987645323,-0.1081544651030643, ,0.02905512398850211,0.017987121698485254,-0.10879038682059622, ,0.0008612458264663616, ,0.013518308250605975,0.005647902892375685,-0.03409676607347246,0.012296674474867642,0.043406262667031216,0.010157291104943778, ,0.037111088931870616, ,0.045113919760817106, ,0.0015240059940513052, ,0.2794239208551912,-0.1604706663935111,0.12012589801000001,1.616080394435229,0.26903726803815226,-1.3971892852051613, ,0.0385759925034434,0.0024956881455826833,0.037043747720930234,0.003117912940204289,0.08263789546083712,-0.013889302083031504, ,1.2282898426055908
0.028519466725734455,0.018211663987645323,-0.1081544651030643, ,0.02914576231728165,0.018002443750310394,-0.10896124769187351, ,0.001042553318208539, ,0.013518308250605975,0.005647902892375685,-0.03409676607347246,0.012296674474867642,0.043406262667031216,0.010157291104943778, ,0.037111088931870616, ,0.045113919760817106, ,0.0015185964134238586, ,0.2794239208551912,-0.1604706663935111,0.12012589801000001,1.616080394435229,0.26903726803815226,-1.3971892852051613, ,0.0385759925034434,0.0024956881455826833,0.037043747720930234,0.003117912940204289,0.08263789546083712,-0.013889302083031504, ,1.2339158058166504
0.028645376075145997,0.018262056489718997,-0.10846423639753833, ,0.029233344449925078,0.018018968027208437,-0.10912876234953153, ,0.000919996495220812, ,0.011948310498507985,0.004680991398480054,-0.028996614920673198,0.028914185586505093,0.0356657345685782,0.00845563132003045, ,0.031709264909474136, ,0.04591355193476486, ,0.0015119453032216026, ,0.279794612033154,-0.16043977546201418,0.12046293341000001,1.616080394435229,0.26972045053697946,-1.3973379810229405, ,0.03668223485058786,0.0033500389889651785,0.03160478476190477,0.0030673376782213322,0.07288354961414471,-0.0313395767175758, ,1.239300012588501
0.028645376075145997,0.018262056489718997,-0.10846423639753833, ,0.029317899466357426,0.018036691104343805,-0.10929296843356039, ,0.0010908134836813748, ,0.011948310498507985,0.004680991398480054,-0.028996614920673198,0.028914185586505093,0.0356657345685782,0.00845563132003045, ,0.031709264909474136, ,0.04591355193476486, ,0.0015073174810288526, ,0.279794612033154,-0.16043977546201418,0.12046293341000001,1.616080394435229,0.26972045053697946,-1.3973379810229405, ,0.03668223485058786,0.0033500389889651785,0.03160478476190477,0.0030673376782213322,0.07288354961414471,-0.0313395767175758, ,1.244570016860962
0.028759982780343335,0.018309036790808194,-0.10874631180397334, ,0.029399456423032766,0.018055609508937413,-0.10945390333755507, ,0.000986832156593736, ,0.01184247091974181,0.004778631195301727,-0.02834035043837282,-0.011224415313631882,0.019379796642696914,0.004531254913608904, ,0.031084640846492335, ,0.02239521678718817, ,0.0015016600318502101, ,0.2801344122796199,-0.16041660726339152,0.12077015414000002,1.6162900843787136,0.2704036330358066,-1.3975683555808605, ,0.035823684997535216,0.0015352385290676313,0.03092973110679612,0.0043724043521074785,0.05526459184251376,0.010919773096255032, ,1.2498009204864502
0.028882813835309176,0.018359520197908492,-0.10904054255256615, ,0.02947804435235042,0.018075719720615877,-0.1096116042095117, ,0.0008723264843864957, ,0.01184247091974181,0.004778631195301727,-0.02834035043837282,-0.011224415313631882,0.019379796642696914,0.004531254913608904, ,0.031084640846492335, ,0.02239521678718817, ,0.001494893004458127, ,0.28051282619045687,-0.1604088845305173,0.12109163406000001,1.6162900843787136,0.2710868155346338,-1.39779873013878, ,0.03840426611026741,0.0012615728175086154,0.03270803186858317,0.004193634533709343,0.07306645342927695,-0.03415608719926753, ,1.2557408809661865
0.028882813835309176,0.018359520197908492,-0.10904054255256615, ,0.029553692262074695,0.018097018171763533,-0.10976610795262502, ,0.0010224628731607703, ,0.01246816326085503,0.005092431818207032,-0.029941201142017756,0.03405472832391565,0.03430278484131097,0.007991409355355285, ,0.03283083128324941, ,0.048336130443889555, ,0.0014898671519975168, ,0.28051282619045687,-0.1604088845305173,0.12109163406000001,1.6162900843787136,0.2710868155346338,-1.39779873013878, ,0.03840426611026741,0.0012615728175086154,0.03270803186858317,0.004193634533709343,0.07306645342927695,-0.03415608719926753, ,1.2617828845977783
0.028882813835309176,0.018359520197908492,-0.10904054255256615, ,0.029626429134752327,0.018119501247872996,-0.10991745122608555, ,0.0011745389017123386, ,0.012398555421071366,0.005184678106401491,-0.03025984305996388,0.009572875206755293,0.022798308618288327,0.005818439068595927, ,0.03310986507991268, ,0.024726047901471884, ,0.0014865479072576728, ,0.28088351736841966,-0.1604088845305173,0.12142089172000001,1.6162900843787136,0.2716333615336956,-1.397836008052863, ,0.035702385838401345,0.0008188134214289824,0.03297890583850932,0.003946827642606066,0.058687350918480236,-0.009311132151331149, ,1.267190933227539
0.029008359840203717,0.018412113218838767,-0.10934214997888976, ,0.029696283927128427,0.01814316528789369,-0.11006567044587494, ,0.0010339508716942425, ,0.012398555421071366,0.005184678106401491,-0.03025984305996388,0.009572875206755293,0.022798308618288327,0.005818439068595927, ,0.03310986507991268, ,0.024726047901471884, ,0.0014818333548038871, ,0.28088351736841966,-0.1604088845305173,0.12142089172000001,1.6162900843787136,0.2716333615336956,-1.397836008052863, ,0.035702385838401345,0.0008188134214289824,0.03297890583850932,0.003946827642606066,0.058687350918480236,-0.009311132151331149, ,1.2727208137512207
0.02913265401127844,0.018460421433568557,-0.10963424577799735, ,0.029763285569564975,0.018168006584583184,-0.1102108017855626, ,0.0009031165130112599, ,0.012662188594870172,0.004946683959195962,-0.029099170052905646,-0.022270667781642058,-0.02552129136705692,-0.0021950200375659163, ,0.03211794513931655, ,0.03387178903189513, ,0.0014758672017957156, ,0.28125420854638244,-0.1603857163318946,0.12173977906000001,1.6162900843787136,0.2720432710329919,-1.3979252255435306, ,0.036881827267186466,0.0012338965911573635,0.031794034970059885,0.003732504018864969,0.010908258540213586,0.022101862764496123, ,1.278045892715454
0.02913265401127844,0.018460421433568557,-0.10963424577799735, ,0.029827462965459343,0.018194021384858296,-0.11035288117710382, ,0.001034487943676338, ,0.012662188594870172,0.004946683959195962,-0.029099170052905646,-0.022270667781642058,-0.02552129136705692,-0.0021950200375659163, ,0.03211794513931655, ,0.03387178903189513, ,0.0014713633318149057, ,0.28125420854638244,-0.1603857163318946,0.12173977906000001,1.6162900843787136,0.2720432710329919,-1.3979252255435306, ,0.036881827267186466,0.0012338965911573635,0.031794034970059885,0.003732504018864969,0.010908258540213586,0.022101862764496123, ,1.2833309173583984
0.029260544741915195,0.01850783582984299,-0.1099261624339728, ,0.029888844990660867,0.018221205890144677,-0.1104919443116353, ,0.0008927637190189993, ,0.013446160426199527,0.0048758996601745855,-0.03014930891061619,-0.014337793008309825,-0.03210026387164471,-0.0030810916158009235, ,0.03336996337263416, ,0.03515642669879984, ,0.0014655188912816137, ,0.28163262245721943,-0.16035482540039772,0.12205866640000002,1.6162900843787136,0.2721799075327574,-1.3977916072268055, ,0.04050232247480613,0.0035037428405667757,0.03297890583850932,0.0035388541619022604,0.007943235118281947,0.011938093840817293, ,1.288712978363037
0.029260544741915195,0.01850783582984299,-0.1099261624339728, ,0.02994746049288838,0.018249556256727067,-0.11062802664027192, ,0.0010154678482886118, ,0.013446160426199527,0.0048758996601745855,-0.03014930891061619,-0.014337793008309825,-0.03210026387164471,-0.0030810916158009235, ,0.03336996337263416, ,0.03515642669879984, ,0.0014610183808516836, ,0.28163262245721943,-0.16035482540039772,0.12205866640000002,1.6162900843787136,0.2721799075327574,-1.3977916072268055, ,0.04050232247480613,0.0035037428405667757,0.03297890583850932,0.0035388541619022604,0.007943235118281947,0.011938093840817293, ,1.2939989566802979
0.029399079303405868,0.01855786857755543,-0.11023723182260894, ,0.030003338291148367,0.018279068596100147,-0.11076116337490333, ,0.0008469726237704826, ,0.01341896229784985,0.004624444944363868,-0.02943039542099508,-0.0019560089955931855,-0.008642857642088005,0.001338021371502188, ,0.03267418269568034, ,0.008860185119792606, ,0.0014549387198904836, ,0.28207281823105024,-0.1603162117360266,0.12239959067000002,1.6162900843787136,0.27258981703205365,-1.398044182197754, ,0.04387283474732814,0.004747524305978352,0.03230996251521299,0.0033584812688978566,0.035181383706500056,-0.0017059633102187034, ,1.2992689609527588
0.029399079303405868,0.01855786857755543,-0.11023723182260894, ,0.030056507175152018,0.018309738975318495,-0.1108913894889906, ,0.0009600531019380285, ,0.01341896229784985,0.004624444944363868,-0.02943039542099508,-0.0019560089955931855,-0.008642857642088005,0.001338021371502188, ,0.03267418269568034, ,0.008860185119792606, ,0.0014500869001066359, ,0.28207281823105024,-0.1603162117360266,0.12239959067000002,1.6162900843787136,0.27258981703205365,-1.398044182197754, ,0.04387283474732814,0.004747524305978352,0.03230996251521299,0.0033584812688978566,0.035181383706500056,-0.0017059633102187034, ,1.304602861404419
0.029527165250336232,0.018600615984680546,-0.11051320282960084, ,0.030106995904853936,0.01834156341747465,-0.11101873971848224, ,0.0008117138452153437, ,0.011942043598383995,0.0038691507780991155,-0.02534957008344875,0.011504580556545628,0.0026618022294672785,0.005829223739417843, ,0.028287513790806164, ,0.011808052216571935, ,0.0014438891034572058, ,0.28249756853913255,-0.16026215260590704,0.12270292253000001,1.6164997743221983,0.2728630900315846,-1.398185339265006, ,0.041952670892338985,0.005170971145025766,0.02794528336842106,0.0003386965645899854,0.045193197928128995,-0.01640304167504135, ,1.3099408149719238
0.029527165250336232,0.018600615984680546,-0.11051320282960084, ,0.030154833209382916,0.01837453790153588,-0.11114324856213073, ,0.0009176251912253318, ,0.011942043598383995,0.0038691507780991155,-0.02534957008344875,0.011504580556545628,0.0026618022294672785,0.005829223739417843, ,0.028287513790806164, ,0.011808052216571935, ,0.0014388288735318992, ,0.2829068733814665,-0.1602235389415359,0.12295829166000001,1.6167094642656827,0.27299972653135,-1.3979700422081405, ,0.04147593599583513,0.003370287447182733,0.024581499259259263,0.010929861205198505,0.015383059280530294,0.009159611598277684, ,1.3152248859405518
0.029641726816189366,0.018637450096065614,-0.11074379652871334, ,0.030200047787195164,0.018408658363471036,-0.11126495028301464, ,0.0007972886548740197, ,0.011244814858727055,0.003562036943960525,-0.022129280434168473,-0.009390153043553059,-0.02455650360087807,-0.008807029652685141, ,0.02507666287469806, ,0.026290521798465027, ,0.0014327189666875385, ,0.2829068733814665,-0.1602235389415359,0.12295829166000001,1.6167094642656827,0.27299972653135,-1.3979700422081405, ,0.04147593599583513,0.003370287447182733,0.024581499259259263,0.010929861205198505,0.015383059280530294,0.009159611598277684, ,1.3213798999786377
0.02975078828356234,0.018670241851801998,-0.1109537370642687, ,0.030242668304997212,0.018443920696078638,-0.11138387890884721, ,0.000691512275720491, ,0.010635176777915888,0.003118736315737963,-0.02012467422473414,-0.0199660880052221,-0.028270870715361753,-0.009865272290195166, ,0.022974682020787642, ,0.03461045362670539, ,0.0014257264507350192, ,0.28330845549092615,-0.16018492527716477,0.12319162386000002,1.6167094642656827,0.27299972653135,-1.3977250059877189, ,0.04074578856095783,0.004233836878871233,0.0224349458028169,0.010929861205198505,0.01087019007900204,0.01891249081898151, ,1.326631784439087
0.02975078828356234,0.018670241851801998,-0.1109537370642687, ,0.030282723397288006,0.018480320749469245,-0.11150006823289664, ,0.0007858134232373464, ,0.010635176777915888,0.003118736315737963,-0.02012467422473414,-0.0199660880052221,-0.028270870715361753,-0.009865272290195166, ,0.022974682020787642, ,0.03461045362670539, ,0.0014197459551509289, ,0.28330845549092615,-0.16018492527716477,0.12319162386000002,1.6167094642656827,0.27299972653135,-1.3977250059877189, ,0.04074578856095783,0.004233836878871233,0.0224349458028169,0.010929861205198505,0.01087019007900204,0.01891249081898151, ,1.3318958282470703
0.02985327236527197,0.01870326258555921,-0.11114362968372876, ,0.030320241665776876,0.018517854331415496,-0.11161355181478186, ,0.0006879413910880387, ,0.010055178284037562,0.0031578133868869155,-0.01858584320067229,-0.038991991146321764,-0.0292737449815108,-0.009652128054269992, ,0.02136614057779643, ,0.04875782297286983, ,0.0014129699869651613, ,0.2837023148675116,-0.16017720254429055,0.12340421542000002,1.6167094642656827,0.27299972653135,-1.397479969767297, ,0.03931107769613537,0.0016476271620138655,0.020821975843137257,0.010869153751241757,0.008394541465393491,0.04041021208896014, ,1.3372068405151367
0.02985327236527197,0.01870326258555921,-0.11114362968372876, ,0.030355251678800526,0.01855651720770264,-0.11172436298126955, ,0.0007815168584269061, ,0.010055178284037562,0.0031578133868869155,-0.01858584320067229,-0.038991991146321764,-0.0292737449815108,-0.009652128054269992, ,0.02136614057779643, ,0.04875782297286983, ,0.0014071768389969203, ,0.2837023148675116,-0.16017720254429055,0.12340421542000002,1.6167094642656827,0.27299972653135,-1.397479969767297, ,0.03931107769613537,0.0016476271620138655,0.020821975843137257,0.010869153751241757,0.008394541465393491,0.04041021208896014, ,1.3425319194793701
0.029957821853668697,0.018737107823249013,-0.11133791922474243, ,0.030387781970741136,0.018596305102478956,-0.11183253482707106, ,0.0006703250722717407, ,0.010078062710539076,0.0033714800410313958,-0.01873415297944975,-0.022561538598035648,-0.03673807975631996,-0.009715263332258927, ,0.021538400904478894, ,0.04311272689636329, ,0.0014004781865721461, ,0.2841116197098455,-0.16016947981141633,0.12362199214000001,1.6167094642656827,0.2731363630311155,-1.397346351450572, ,0.03835769666874324,0.0,0.020986576442687747,0.010058434965172025,0.0,0.02534558171638794, ,1.3477859497070312
0.029957821853668697,0.018737107823249013,-0.11133791922474243, ,0.030417861041443364,0.018637213698605975,-0.11193810021563842, ,0.0007627792028231192, ,0.010078062710539076,0.0033714800410313958,-0.01873415297944975,-0.022561538598035648,-0.03673807975631996,-0.009715263332258927, ,0.021538400904478894, ,0.04311272689636329, ,0.001394733150682515, ,0.2841116197098455,-0.16016947981141633,0.12362199214000001,1.6167094642656827,0.2731363630311155,-1.397346351450572, ,0.03835769666874324,0.0,0.020986576442687747,0.010058434965172025,0.0,0.02534558171638794, ,1.3530259132385254
0.030061584666998556,0.018775551065308663,-0.11153842322979277, ,0.030445517355632085,0.018679238638008838,-0.11204109177996129, ,0.0006398093969162032, ,0.011181348674939537,0.0041089419581409724,-0.02211318848017815,-0.039591022632193704,-0.03441250594240826,-0.008251344745261978, ,0.025117704253490747, ,0.052456308969660984, ,0.0013879927600238874, ,0.28449775635355673,-0.16019264801003902,0.12384625031000002,1.6167094642656827,0.2732729995308809,-1.397131054393706, ,0.03944178784641346,-0.0013772884423416533,0.024619492302936634,0.009394206039940664,0.0035548193538990206,0.0435147812496373, ,1.358245849609375
0.030061584666998556,0.018775551065308663,-0.11153842322979277, ,0.030470779342330043,0.01872237552202672,-0.1121415419233634, ,0.0007307667748723361, ,0.011181348674939537,0.0041089419581409724,-0.02211318848017815,-0.039591022632193704,-0.03441250594240826,-0.008251344745261978, ,0.025117704253490747, ,0.052456308969660984, ,0.001382176600863254, ,0.28449775635355673,-0.16019264801003902,0.12384625031000002,1.6167094642656827,0.2732729995308809,-1.397131054393706, ,0.03944178784641346,-0.0013772884423416533,0.024619492302936634,0.009394206039940664,0.0035548193538990206,0.0435147812496373, ,1.36348295211792
0.030174322964762513,0.018824112191502578,-0.1117772662486613, ,0.030493675394274906,0.018766619911763156,-0.11223948282029912, ,0.0005647437432692153, ,0.010231464811933289,0.004594803353072998,-0.022941664950428046,-0.014622785068361724,-0.025098422560364684,-0.005163317459239642, ,0.025536544025160073, ,0.029047380312875494, ,0.0013750061372001484, ,0.284853002065771,-0.16023898440728435,0.12411069347000002,1.617128844152652,0.2732729995308809,-1.3968043394331437, ,0.029361677462398136,-0.004746528118777389,0.02524375835182251,0.007232523775988555,0.0031322671093304655,0.021184064426075427, ,1.3687689304351807
0.030174322964762513,0.018824112191502578,-0.1117772662486613, ,0.030514233867337242,0.018811967328436357,-0.11233494641715036, ,0.0006532182558027994, ,0.010231464811933289,0.004594803353072998,-0.022941664950428046,-0.014622785068361724,-0.025098422560364684,-0.005163317459239642, ,0.025536544025160073, ,0.029047380312875494, ,0.0013687297208401716, ,0.284853002065771,-0.16023898440728435,0.12411069347000002,1.617128844152652,0.2732729995308809,-1.3968043394331437, ,0.029361677462398136,-0.004746528118777389,0.02524375835182251,0.007232523775988555,0.0031322671093304655,0.021184064426075427, ,1.3741888999938965
0.030270343097384477,0.018874460915817404,-0.11199990534947568, ,0.030532483079937577,0.01885841325372957,-0.11242796443302229, ,0.0005022046165839049, ,0.008899764972376472,0.005042673066147047,-0.021244941114471942,-0.0300811546331114,-0.016750802471449267,-0.013132127350249444, ,0.023579268249310968, ,0.034430523080462724, ,0.0013612596768379623, ,0.28510785225062046,-0.16033165720177506,0.12435569228000001,1.6173385340961361,0.2732729995308809,-1.3964776244725816, ,0.022307696652202814,-0.010967576882128793,0.02335602862170088,0.01722503036386402,0.0027940959692676188,0.04538952625339766, ,1.3795509338378906
0.030270343097384477,0.018874460915817404,-0.11199990534947568, ,0.03054845131246424,0.01890595313014142,-0.11251856836054108, ,0.0005893617377343981, ,0.008899764972376472,0.005042673066147047,-0.021244941114471942,-0.0300811546331114,-0.016750802471449267,-0.013132127350249444, ,0.023579268249310968, ,0.034430523080462724, ,0.0013546622585550259, ,0.28510785225062046,-0.16033165720177506,0.12435569228000001,1.6173385340961361,0.2732729995308809,-1.3964776244725816, ,0.022307696652202814,-0.010967576882128793,0.02335602862170088,0.01722503036386402,0.0027940959692676188,0.04538952625339766, ,1.384835958480835
0.03034938651251158,0.018922484526779443,-0.11219726591184909, ,0.03056216680669061,0.018954582361336344,-0.11260678946664966, ,0.00046261784067484426, ,0.007168716910764621,0.0045828540276562245,-0.01820771224788751,-0.05628680656469311,-0.012319008089493697,-0.013213877780176247, ,0.020097607780215045, ,0.05761909885118652, ,0.0013471025600984142, ,0.28529319783960183,-0.1604474981948884,0.12457217271000001,1.6173385340961361,0.27340963603064633,-1.3960989699354345, ,0.015082158543940048,-0.011678621393471008,0.019935934317897377,0.016805723156107868,0.0,0.07216482999270347, ,1.3901488780975342
0.03034938651251158,0.018922484526779443,-0.11219726591184909, ,0.030573657765192774,0.019004296312494798,-0.11269265879340473, ,0.0005499135115244328, ,0.007168716910764621,0.0045828540276562245,-0.01820771224788751,-0.05628680656469311,-0.012319008089493697,-0.013213877780176247, ,0.020097607780215045, ,0.05761909885118652, ,0.0013404034924633385, ,0.28529319783960183,-0.1604474981948884,0.12457217271000001,1.6173385340961361,0.27340963603064633,-1.3960989699354345, ,0.015082158543940048,-0.011678621393471008,0.019935934317897377,0.016805723156107868,0.0,0.07216482999270347, ,1.395399808883667
0.03041574903750354,0.018971112540133638,-0.11237242937797666, ,0.03058295235076685,0.019055090310663686,-0.11277620715877293, ,0.00044502326925025557, ,0.006130396823805654,0.00495166028197652,-0.016565206028846476,-0.012463496609384787,-0.008016750458087541,-0.009628869190945894, ,0.018344120462523185, ,0.014819102142209337, ,0.0013329419906032295, ,0.2854167615655894,-0.16060195285237291,0.12476402363000001,1.6173385340961361,0.27340963603064633,-1.3955272187544507, ,0.010452356157998765,-0.017275976981334568,0.01816284095781072,0.015014212805067475,0.0,0.033214686182414674, ,1.4006738662719727
0.030467784510773106,0.019020149143380374,-0.11252418907882088, ,0.030590078685846494,0.01910695964510666,-0.11285746515742791, ,0.00036546528294563056, ,0.004290752243350613,0.004882507063938056,-0.013888481947117776,-0.05156248537610972,0.0004985087748368887,-0.007630994778988188, ,0.01533425449243098, ,0.05156489011350612, ,0.001324946315333332, ,0.2854785434285832,-0.1607950211742285,0.12492994875,1.6173385340961361,0.27340963603064633,-1.3950371463136073, ,0.0017525255856551457,-0.02082900385392247,0.015127076467236471,0.013594448470574075,0.0,0.07533013386560401, ,1.4063518047332764
0.030467784510773106,0.019020149143380374,-0.11252418907882088, ,0.030595064851920335,0.019159899567654577,-0.11293646316154635, ,0.00045354204393253575, ,0.004290752243350613,0.004882507063938056,-0.013888481947117776,-0.05156248537610972,0.0004985087748368887,-0.007630994778988188, ,0.01533425449243098, ,0.05156489011350612, ,0.0013178036573710302, ,0.2854785434285832,-0.1607950211742285,0.12492994875,1.6173385340961361,0.27340963603064633,-1.3950371463136073, ,0.0017525255856551457,-0.02082900385392247,0.015127076467236471,0.013594448470574075,0.0,0.07533013386560401, ,1.411665916442871
0.03050699630171881,0.019068925878126666,-0.11265665804994998, ,0.030597938888949815,0.019213905293055635,-0.11301323132160483, ,0.0003955174875831139, ,0.003564134567023089,0.004914181021634845,-0.01315818120953689,-0.006345454014582011,0.0022763549141459685,0.0028821001275822805, ,0.014491030435005464, ,0.006741378487209892, ,0.001310305395828039, ,0.285470820695709,-0.1610112576947068,0.12507383694000002,1.617548224039621,0.2732729995308809,-1.394517334709208, ,-0.0025108788755252094,-0.02247145194375344,0.014247595277280862,0.003244266482774125,-0.0007990115159669601,0.028810477750514367, ,1.4176898002624512
0.03050699630171881,0.019068925878126666,-0.11265665804994998, ,0.03059872879478599,0.01926897199932595,-0.1130877995671767, ,0.00048406229843663055, ,0.003564134567023089,0.004914181021634845,-0.01315818120953689,-0.006345454014582011,0.0022763549141459685,0.0028821001275822805, ,0.014491030435005464, ,0.006741378487209892, ,0.0013036421450426247, ,0.285470820695709,-0.1610112576947068,0.12507383694000002,1.617548224039621,0.2732729995308809,-1.394517334709208, ,-0.0025108788755252094,-0.02247145194375344,0.014247595277280862,0.003244266482774125,-0.0007990115159669601,0.028810477750514367, ,1.423097848892212
0.03053737853551299,0.019117834132300265,-0.11278572143352392, ,0.03059746252458747,0.019325094828099656,-0.11316019760772777, ,0.0004322030620121848, ,0.00286953794772627,0.0048895809598124155,-0.01228167548759453,-0.035371155685018925,0.008218086967423365,-0.010707320818745944, ,0.01352707665309033, ,0.03631329410089769, ,0.0012966706323783812, ,0.2854090388327152,-0.1612352169480593,0.12521253997,1.6177579139831053,0.2732729995308809,-1.3940272622683647, ,-0.006107749692967927,-0.023310474467813997,0.013229909900332229,0.017549363338637856,-0.0007990115159669601,0.06261787419620304, ,1.4283390045166016
0.03053737853551299,0.019117834132300265,-0.11278572143352392, ,0.03059416799023793,0.019382268884979566,-0.1132304549334143, ,0.0005205176908782905, ,0.00286953794772627,0.0048895809598124155,-0.01228167548759453,-0.035371155685018925,0.008218086967423365,-0.010707320818745944, ,0.01352707665309033, ,0.03631329410089769, ,0.0012905106883982218, ,0.2854090388327152,-0.1612352169480593,0.12521253997,1.6177579139831053,0.2732729995308809,-1.3940272622683647, ,-0.006107749692967927,-0.023310474467813997,0.013229909900332229,0.017549363338637856,-0.0007990115159669601,0.06261787419620304, ,1.4335989952087402
0.03055765959408644,0.019177430760326127,-0.11291466312688789, ,0.030588873059763204,0.019440489239887157,-0.11329860081587811, ,0.00046645706462189137, ,0.001502919124311614,0.006561277846852798,-0.013436278690742414,0.0006100676364260941,0.015373765325473845,-0.0014171415391168725, ,0.015028064344190224, ,0.015385850801418759, ,0.0012840220771873846, ,0.28527002964097914,-0.16152868079727983,0.12533957639,1.61796760392659,0.2731363630311155,-1.393425771923825, ,-0.020139418836687347,-0.0363450561311646,0.014234862841823058,0.010716939411754473,-0.007038485664159959,0.03364590107788396, ,1.4388887882232666
0.03055765959408644,0.019177430760326127,-0.11291466312688789, ,0.03058160555674914,0.01949975092741311,-0.11336466430904346, ,0.000554044008342513, ,0.001502919124311614,0.006561277846852798,-0.013436278690742414,0.0006100676364260941,0.015373765325473845,-0.0014171415391168725, ,0.015028064344190224, ,0.015385850801418759, ,0.0012783191235245341, ,0.28527002964097914,-0.16152868079727983,0.12533957639,1.61796760392659,0.2731363630311155,-1.393425771923825, ,-0.020139418836687347,-0.0363450561311646,0.014234862841823058,0.010716939411754473,-0.007038485664159959,0.03364590107788396, ,1.4441728591918945
0.03056973678173375,0.019237995955281775,-0.113042597264721, ,0.030572393259758697,0.019560048947167678,-0.11342867424991468, ,0.0005027729357815476, ,0.0011766641198761912,0.006511240799158709,-0.013638655230220438,-0.014021166787755751,0.01837604787356346,-0.0007903886828676742, ,0.015158948238068902, ,0.023114319839292474, ,0.0012723071375730381, ,0.28504607038762664,-0.16188392650949418,0.12548476087000002,1.61796760392659,0.2731363630311155,-1.3927723420027003, ,-0.023647381400067474,-0.035675541939274726,0.014337364104410442,0.009755835380130745,-0.007011128322410224,0.05096647090730624, ,1.4494998455047607
0.03056973678173375,0.019237995955281775,-0.113042597264721, ,0.030561263901749805,0.0196213782641309,-0.11349065925937132, ,0.0005897570139334772, ,0.0011766641198761912,0.006511240799158709,-0.013638655230220438,-0.014021166787755751,0.01837604787356346,-0.0007903886828676742, ,0.015158948238068902, ,0.023114319839292474, ,0.00126705675200658, ,0.28504607038762664,-0.16188392650949418,0.12548476087000002,1.61796760392659,0.2731363630311155,-1.3927723420027003, ,-0.023647381400067474,-0.035675541939274726,0.014337364104410442,0.009755835380130745,-0.007011128322410224,0.05096647090730624, ,1.454901933670044
0.030576319462356026,0.01931252833866511,-0.11318626849963868, ,0.030548245169492387,0.019683733809003092,-0.11355064774296604, ,0.0005209164041345343, ,0.0003920997988927102,0.007661565700071462,-0.014164982068857045,-0.02701150867680045,0.02747420536053314,0.005172759944007807, ,0.016109005190881428, ,0.038528599649093304, ,0.0012613610241602286, ,0.28504607038762664,-0.16188392650949418,0.12548476087000002,1.61796760392659,0.2731363630311155,-1.3927723420027003, ,-0.023647381400067474,-0.035675541939274726,0.014337364104410442,0.009755835380130745,-0.007011128322410224,0.05096647090730624, ,1.4605839252471924
0.030576319462356026,0.01931252833866511,-0.11318626849963868, ,0.030533364702986145,0.01974711047855501,-0.11360866789171958, ,0.0006075590457676713, ,-2.6604681043965185e-05,0.007567942400082576,-0.012132359299343731,-0.006673974541385672,0.02380957550516441,-0.009456244287448949, ,0.014299251803797056, ,0.024727263476860748, ,0.001256407978869376, ,0.2847448838055319,-0.16230867681757652,0.12563513051000003,1.6181772938700745,0.27299972653135,-1.3919258154377392, ,-0.031103553444270987,-0.04478383273169929,0.014831295642458102,0.006374015986906905,-0.004831540429781772,0.07176073827707068, ,1.4662139415740967
0.03057964906141349,0.01938668515165473,-0.11331588437832865, ,0.03051665009487791,0.01981150313597836,-0.11366474768291918, ,0.00055330352870659, ,-2.6604681043965185e-05,0.007567942400082576,-0.012132359299343731,-0.006673974541385672,0.02380957550516441,-0.009456244287448949, ,0.014299251803797056, ,0.024727263476860748, ,0.0012511214792440917, ,0.28445141995631135,-0.16274887259140733,0.12577124096,1.618386983813559,0.2728630900315846,-1.391160967612918, ,-0.02999271224983274,-0.046427075126453415,0.01276347076923077,0.021519190109598157,-0.009900030003857477,0.05719392316805264, ,1.4718987941741943
0.030572668803620934,0.019472222751772586,-0.11342893171195997, ,0.03049812888987904,0.019876906611235985,-0.11371891488091358, ,0.0005034038767502871, ,-0.001333809516435153,0.009175920798926393,-0.010596537382536683,-0.0022856856829925076,0.021781221132143876,-0.005884425752764542, ,0.014080595684622164, ,0.02190081778027161, ,0.0012455414971359292, ,0.28410389697697125,-0.1633126320912257,0.12589049964000001,1.618386983813559,0.27258981703205365,-1.3902847018844007, ,-0.03767246588267994,-0.06218672448130458,0.011209578831808589,0.020575558042987066,-0.01961658035123234,0.06766925936777164, ,1.4770958423614502
0.030572668803620934,0.019472222751772586,-0.11342893171195997, ,0.030477828584183,0.019943315701412372,-0.11377119703791036, ,0.00058997354836575, ,-0.001333809516435153,0.009175920798926393,-0.010596537382536683,-0.0022856856829925076,0.021781221132143876,-0.005884425752764542, ,0.014080595684622164, ,0.02190081778027161, ,0.0012406854382561502, ,0.28410389697697125,-0.1633126320912257,0.12589049964000001,1.618386983813559,0.27258981703205365,-1.3902847018844007, ,-0.03767246588267994,-0.06218672448130458,0.011209578831808589,0.020575558042987066,-0.01961658035123234,0.06766925936777164, ,1.4825057983398438
0.030564159108613757,0.019528344438230497,-0.11349161937543925, ,0.030455776624882663,0.020010725171063788,-0.11382162149477247, ,0.0005944235299455439, ,-0.0016546075160702243,0.009017364011410685,-0.009946840058349731,-0.009400822804070529,0.008838321151525982,-0.006765385212054874, ,0.013527387289972574, ,0.01290315049904213, ,0.0012359335124597485, ,0.28410389697697125,-0.1633126320912257,0.12589049964000001,1.618386983813559,0.27258981703205365,-1.3902847018844007, ,-0.03767246588267994,-0.06218672448130458,0.011209578831808589,0.020575558042987066,-0.01961658035123234,0.06766925936777164, ,1.488008975982666
0.030564159108613757,0.019528344438230497,-0.11349161937543925, ,0.030432000409387695,0.020079129752568828,-0.11387021538181459, ,0.0006812967931197501, ,-0.0016546075160702243,0.009017364011410685,-0.009946840058349731,-0.009400822804070529,0.008838321151525982,-0.006765385212054874, ,0.013527387289972574, ,0.01290315049904213, ,0.0012318850692528873, ,0.2838644922578703,-0.16369876873493694,0.12595661043,1.618386983813559,0.2723165440325228,-1.389653472376305, ,-0.03982246813196424,-0.061862413010737145,0.010451976062992127,0.018647361545264824,-0.03462636582691155,0.07393973399421089, ,1.4934709072113037
0.03053831139462614,0.019665935853188075,-0.11362475920139874, ,0.030406527284842555,0.020148524146478573,-0.11391700561959986, ,0.0005793673112662411, ,-0.002221178924194491,0.010227794713288604,-0.008421713902416417,0.013292127231529347,0.006261637970164785,-0.0006124788480832895, ,0.013433788950426982, ,0.014693151943815215, ,0.0012271566797022594, ,0.28328528729230346,-0.164664110344215,0.12609790604,1.6188063637005279,0.2716333615336956,-1.3883612741965579, ,-0.04097449980935698,-0.07402257531861994,0.009055606321773737,0.015177545208209072,-0.037856655459972056,0.061955006119038425, ,1.4987268447875977
0.03053831139462614,0.019665935853188075,-0.11362475920139874, ,0.03037938454754311,0.02021890302186705,-0.11396201891973616, ,0.000666914199859047, ,-0.002221178924194491,0.010227794713288604,-0.008421713902416417,0.013292127231529347,0.006261637970164785,-0.0006124788480832895, ,0.013433788950426982, ,0.014693151943815215, ,0.0012231261582645384, ,0.28328528729230346,-0.164664110344215,0.12609790604,1.6188063637005279,0.2716333615336956,-1.3883612741965579, ,-0.04097449980935698,-0.07402257531861994,0.009055606321773737,0.015177545208209072,-0.037856655459972056,0.061955006119038425, ,1.5039517879486084
0.03051268877412043,0.019778310482912453,-0.11371244245437298, ,0.030350599442354756,0.02029026101668154,-0.11400528178567294, ,0.0006116544567440863, ,-0.002568399120754633,0.011378972440475851,-0.008677219881776915,-0.014949123330158638,0.007778609836937042,-0.004005923693254359, ,0.014538632422662961, ,0.01685179545753569, ,0.001218758503253678, ,0.28283736878559845,-0.16548272002888278,0.12619253521,1.6190160536440124,0.2712234520343993,-1.3876186267847659, ,-0.04459442742409342,-0.0830971467237047,0.009403076458087368,0.02050613571398993,-0.040968306386437496,0.10037728288424691, ,1.5092167854309082
0.03051268877412043,0.019778310482912453,-0.11371244245437298, ,0.030320199162129503,0.020362592738092808,-0.11404682051349789, ,0.0007001761855898843, ,-0.002568399120754633,0.011378972440475851,-0.008677219881776915,-0.014949123330158638,0.007778609836937042,-0.004005923693254359, ,0.014538632422662961, ,0.01685179545753569, ,0.0012150806144759206, ,0.28283736878559845,-0.16548272002888278,0.12619253521,1.6190160536440124,0.2712234520343993,-1.3876186267847659, ,-0.04459442742409342,-0.0830971467237047,0.009403076458087368,0.02050613571398993,-0.040968306386437496,0.10037728288424691, ,1.5145349502563477
0.030492588144480904,0.019877066648581937,-0.11378899742974945, ,0.03028821084712356,0.02043589276284567,-0.11408666119273321, ,0.0006653273040029601, ,-0.002590096252799466,0.01178437767753822,-0.008845178890679217,-0.004960029660120341,-0.018612760599442706,-0.009108651655489648, ,0.014960526242540538, ,0.01926231287305833, ,0.001211209112289491, ,0.2824512321418872,-0.16620093418618567,0.12627549777000002,1.619225743587497,0.27067690603533756,-1.3867645614692772, ,-0.04733014541569615,-0.08619159087962833,0.009566853765765769,0.021376709456961438,-0.07070111415151835,0.0935841342752868, ,1.5199978351593018
0.030492588144480904,0.019877066648581937,-0.11378899742974945, ,0.030254661584414783,0.020510155637609134,-0.11412482970713221, ,0.0007551119351092724, ,-0.002590096252799466,0.01178437767753822,-0.008845178890679217,-0.004960029660120341,-0.018612760599442706,-0.009108651655489648, ,0.014960526242540538, ,0.01926231287305833, ,0.001208019621539979, ,0.2824512321418872,-0.16620093418618567,0.12627549777000002,1.619225743587497,0.27067690603533756,-1.3867645614692772, ,-0.04733014541569615,-0.08619159087962833,0.009566853765765769,0.021376709456961438,-0.07070111415151835,0.0935841342752868, ,1.5253379344940186
0.030492588144480904,0.019877066648581937,-0.11378899742974945, ,0.030219578407320098,0.020585375879326722,-0.11416135173547602, ,0.0008455081383026427, ,-0.002590096252799466,0.01178437767753822,-0.008845178890679217,-0.004960029660120341,-0.018612760599442706,-0.009108651655489648, ,0.014960526242540538, ,0.01926231287305833, ,0.0012055021806841643, ,0.2824512321418872,-0.16620093418618567,0.12627549777000002,1.619225743587497,0.27067690603533756,-1.3867645614692772, ,-0.04733014541569615,-0.08619159087962833,0.009566853765765769,0.021376709456961438,-0.07070111415151835,0.0935841342752868, ,1.5306789875030518
0.030492588144480904,0.019877066648581937,-0.11378899742974945, ,0.030182988294812887,0.02066154797556703,-0.11419625275237004, ,0.000936546804546122, ,-0.002590096252799466,0.01178437767753822,-0.008845178890679217,-0.004960029660120341,-0.018612760599442706,-0.009108651655489648, ,0.014960526242540538, ,0.01926231287305833, ,0.0012036473160211435, ,0.2824512321418872,-0.16620093418618567,0.12627549777000002,1.619225743587497,0.27067690603533756,-1.3867645614692772, ,-0.04733014541569615,-0.08619159087962833,0.009566853765765769,0.021376709456961438,-0.07070111415151835,0.0935841342752868, ,1.5361509323120117
0.030417154698888896,0.020133421240345527,-0.11396169941099933, ,0.030144918170940532,0.0207386663848737,-0.11422955802904038, ,0.0007156693729531606, ,-0.004156756529673088,0.011999984419385379,-0.006507490065387019,0.03723727273386853,0.03533094692391699,0.006719825596866455, ,0.014269746944623175, ,0.051331182331281214, ,0.0012003050013425956, ,0.28137777227237,-0.16810844920611911,0.12646216353,1.6194354335309815,0.26999372353651035,-1.3849822908486866, ,-0.05055777387238721,-0.09133488119198342,0.007120613106839519,0.01591400060316809,-0.018254319111808182,0.054858395466079214, ,1.5425548553466797
0.030370637278903167,0.02025819265347946,-0.11401523909932715, ,0.030105394904241804,0.02081672553711623,-0.11426129263413115, ,0.0006654733964698749, ,-0.005544474222759402,0.013925522089123316,-0.004939195440814461,0.05931010671937271,0.04873306436252034,0.013429434578854166, ,0.015781540212034668, ,0.07676327454118524, ,0.0011966666911053664, ,0.28085262643692277,-0.16908151354827142,0.12652179287,1.6194354335309815,0.26972045053697946,-1.3841877038603099, ,-0.05765306291523134,-0.10970744688840552,0.005628555307420495,0.015388432754210314,-0.011759090237797958,0.05030310410665703, ,1.5478408336639404
0.030370637278903167,0.02025819265347946,-0.11401523909932715, ,0.030064445306806818,0.02089571983363455,-0.11429148143436609, ,0.0007592787741538133, ,-0.005544474222759402,0.013925522089123316,-0.004939195440814461,0.05931010671937271,0.04873306436252034,0.013429434578854166, ,0.015781540212034668, ,0.07676327454118524, ,0.0011937113673421802, ,0.28085262643692277,-0.16908151354827142,0.12652179287,1.6194354335309815,0.26972045053697946,-1.3841877038603099, ,-0.05765306291523134,-0.10970744688840552,0.005628555307420495,0.015388432754210314,-0.011759090237797958,0.05030310410665703, ,1.553076982498169
0.030370637278903167,0.02025819265347946,-0.11401523909932715, ,0.03002209613511407,0.020975643648405366,-0.11432014909587773, ,0.0008539244492520766, ,-0.005050441774729671,0.013544394545518737,-0.004185773336055398,-0.09562888364643692,-0.07057576526304819,-0.004755133449603144, ,0.01504919546505542, ,0.11885210149022912, ,0.0011914309182274815, ,0.28085262643692277,-0.16908151354827142,0.12652179287,1.6194354335309815,0.26972045053697946,-1.3841877038603099, ,-0.05765306291523134,-0.10970744688840552,0.005628555307420495,0.015388432754210314,-0.011759090237797958,0.05030310410665703, ,1.5583767890930176
0.03031882829286493,0.020404541540119142,-0.11406298490422923, ,0.029978374087333757,0.02105649132717676,-0.1143473200842107, ,0.0007885392098579704, ,-0.005050441774729671,0.013544394545518737,-0.004185773336055398,-0.09562888364643692,-0.07057576526304819,-0.004755133449603144, ,0.01504919546505542, ,0.11885210149022912, ,0.0011887449735050182, ,0.28022708507411054,-0.1702399234794051,0.12657623705,1.6196451234744662,0.2684907220390905,-1.3824498340657772, ,-0.06102697206332526,-0.10783743358917133,0.004712666130177515,0.009697261779871326,-0.13566031606982215,0.20189227292261117, ,1.5636579990386963
0.030260985992086143,0.02054176604248377,-0.11410599434284024, ,0.02993330580414502,0.021138257188624075,-0.11437301866564398, ,0.0007310800106429503, ,-0.006436313006710916,0.01432427389738987,-0.00476386430556455,0.023549747945594782,0.020660817005700164,-0.018235257758553027, ,0.016410525614057366, ,0.03132826176458748, ,0.0011857140797112296, ,0.27959382097842417,-0.17132110608179651,0.12662419978,1.6202741933049198,0.26767090304049784,-1.3810462179823335, ,-0.06768683420718315,-0.11297254947436998,0.005244916536055319,0.04109590047176445,-0.05508875082942539,0.09618368818181904, ,1.5689518451690674
0.030260985992086143,0.02054176604248377,-0.11410599434284024, ,0.029886917867805327,0.021220935524499565,-0.11439726890785687, ,0.0008282747244303647, ,-0.006436313006710916,0.01432427389738987,-0.00476386430556455,0.023549747945594782,0.020660817005700164,-0.018235257758553027, ,0.016410525614057366, ,0.03132826176458748, ,0.0011833625050054345, ,0.27959382097842417,-0.17132110608179651,0.12662419978,1.6202741933049198,0.26767090304049784,-1.3810462179823335, ,-0.06768683420718315,-0.11297254947436998,0.005244916536055319,0.04109590047176445,-0.05508875082942539,0.09618368818181904, ,1.5741908550262451
0.030192277021974127,0.020690797239187174,-0.11415979439842071, ,0.029839236801567984,0.021304520599983258,-0.11442009468072496, ,0.0007543540268195917, ,-0.007127339675243688,0.014881308737045998,-0.005304812118131789,0.05828677708503991,0.04841072870217121,-0.0273813379637762, ,0.017331859455415113, ,0.07576903742450067, ,0.0011805585280238277, ,0.27886788408824703,-0.17249496147867865,0.12668253283,1.620483883248404,0.26712435704143606,-1.3799471164464234, ,-0.07305384261622076,-0.11658100928559063,0.005748398238902924,0.05568944243047563,-0.03489220904471823,0.06887498319369992, ,1.5794508457183838
0.030192277021974127,0.020690797239187174,-0.11415979439842071, ,0.029790289069100178,0.02138900665403314,-0.11444151965711787, ,0.0008534985779855251, ,-0.007127339675243688,0.014881308737045998,-0.005304812118131789,0.05828677708503991,0.04841072870217121,-0.0273813379637762, ,0.017331859455415113, ,0.07576903742450067, ,0.0011784347621144882, ,0.27886788408824703,-0.17249496147867865,0.12668253283,1.620483883248404,0.26712435704143606,-1.3799471164464234, ,-0.07305384261622076,-0.11658100928559063,0.005748398238902924,0.05568944243047563,-0.03489220904471823,0.06887498319369992, ,1.584784984588623
0.030125262793957396,0.020839023286400506,-0.11421306180803041, ,0.029740101073899593,0.021474387899735277,-0.11446156731369475, ,0.0007834492509546603, ,-0.00677252653791623,0.015446373902527127,-0.005593935195020028,-0.023658705689072572,-0.007116009596258825,0.04032668402737597, ,0.01776934701697095, ,0.024705706668270842, ,0.0011758864684941021, ,0.2781573926638184,-0.17366109414268655,0.12674086588000003,1.6206935731918888,0.2665778110423743,-1.3789296936506537, ,-0.07396488040410817,-0.12228987314235924,0.006135905824345147,-0.023046388018153837,-0.07863051788503235,0.1349736045798068, ,1.5901978015899658
0.030125262793957396,0.020839023286400506,-0.11421306180803041, ,0.02968869915871289,0.02156065852465474,-0.11448026093170122, ,0.0008847262833207741, ,-0.00677252653791623,0.015446373902527127,-0.005593935195020028,-0.023658705689072572,-0.007116009596258825,0.04032668402737597, ,0.01776934701697095, ,0.024705706668270842, ,0.0011740200570506834, ,0.2781573926638184,-0.17366109414268655,0.12674086588000003,1.6206935731918888,0.2665778110423743,-1.3789296936506537, ,-0.07396488040410817,-0.12228987314235924,0.006135905824345147,-0.023046388018153837,-0.07863051788503235,0.1349736045798068, ,1.5956149101257324
0.03005337524397735,0.020994339868270307,-0.1142707998858569, ,0.029636109604951624,0.021647812691184938,-0.11449762359776587, ,0.0008078281624725209, ,-0.007593965843721191,0.015581253939269122,-0.0055734545508204164,0.0005058828226430008,0.0033501899554636456,0.01625257942465452, ,0.018207338827672056, ,0.003388168353242782, ,0.001171687624601141, ,0.27737739664352173,-0.17488900866968823,0.12680308780000002,1.620483883248404,0.26575799204378164,-1.37752607756721, ,-0.08062611857134305,-0.12308293327946923,0.005956922782348543,0.0024237421268931665,-0.07917868613729474,0.1185148782669734, ,1.600907802581787
0.03005337524397735,0.020994339868270307,-0.1142707998858569, ,0.029582358632111852,0.0217358445368993,-0.11451367820469666, ,0.0009114141210307606, ,-0.007593965843721191,0.015581253939269122,-0.0055734545508204164,0.0005058828226430008,0.0033501899554636456,0.01625257942465452, ,0.018207338827672056, ,0.003388168353242782, ,0.0011700403239456323, ,0.27737739664352173,-0.17488900866968823,0.12680308780000002,1.620483883248404,0.26575799204378164,-1.37752607756721, ,-0.08062611857134305,-0.12308293327946923,0.005956922782348543,0.0024237421268931665,-0.07917868613729474,0.1185148782669734, ,1.6061677932739258
0.029968751091740912,0.02115803769466843,-0.11432158776032483, ,0.02952747239718943,0.021824748174900457,-0.11452844745227846, ,0.0008258454352186163, ,-0.008546851672607114,0.015916685068981654,-0.004545320986994855,0.029038712745119,0.03508978789246994,0.02124334561627423, ,0.018629264074930776, ,0.04554711901198552, ,0.0011678755762177893, ,0.2765201732944828,-0.1761941505254322,0.12685753198000002,1.620483883248404,0.2650748095449545,-1.3762338793874629, ,-0.08383122045801306,-0.12737844504492724,0.004889137974217312,0.003913015959599783,-0.05038869121456956,0.09455561399330262, ,1.6114459037780762
0.029968751091740912,0.02115803769466843,-0.11432158776032483, ,0.02947147699409816,0.021914517694170695,-0.11454195384806776, ,0.0009317213802744239, ,-0.008546851672607114,0.015916685068981654,-0.004545320986994855,0.029038712745119,0.03508978789246994,0.02124334561627423, ,0.018629264074930776, ,0.04554711901198552, ,0.0011663996124931433, ,0.2765201732944828,-0.1761941505254322,0.12685753198000002,1.620483883248404,0.2650748095449545,-1.3762338793874629, ,-0.08383122045801306,-0.12737844504492724,0.004889137974217312,0.003913015959599783,-0.05038869121456956,0.09455561399330262, ,1.6167140007019043
0.02987650541532696,0.02132763995566575,-0.1143610356507397, ,0.02941439845308888,0.022005147159923598,-0.11455421970819117, ,0.0008425431362390926, ,-0.009487350041007423,0.016638125830434836,-0.0031394399135744847,-0.009449264099503236,0.006288552590599763,-0.008278364594726426, ,0.019408583794829827, ,0.011350527978994064, ,0.001164388081584733, ,0.27561661354819855,-0.1775533515112957,0.12690030955,1.6211129530788577,0.2642549905463618,-1.37491194204416, ,-0.09133488119198342,-0.13518082843087004,0.003381913273885351,0.028732794640472677,-0.09192447234562193,0.14719208001872913, ,1.6219189167022705
0.02987650541532696,0.02132763995566575,-0.1143610356507397, ,0.02935626274016272,0.022096630613951698,-0.11456526715814029, ,0.0009506364090482854, ,-0.009487350041007423,0.016638125830434836,-0.0031394399135744847,-0.009449264099503236,0.006288552590599763,-0.008278364594726426, ,0.019408583794829827, ,0.011350527978994064, ,0.0011630686268159895, ,0.27561661354819855,-0.1775533515112957,0.12690030955,1.6211129530788577,0.2642549905463618,-1.37491194204416, ,-0.09133488119198342,-0.13518082843087004,0.003381913273885351,0.028732794640472677,-0.09192447234562193,0.14719208001872913, ,1.627267837524414
0.02987650541532696,0.02132763995566575,-0.1143610356507397, ,0.02929709575649471,0.022188962074980518,-0.11457511813357009, ,0.0010599163435968965, ,-0.009487350041007423,0.016638125830434836,-0.0031394399135744847,-0.009449264099503236,0.006288552590599763,-0.008278364594726426, ,0.019408583794829827, ,0.011350527978994064, ,0.001162435790722621, ,0.27561661354819855,-0.1775533515112957,0.12690030955,1.6211129530788577,0.2642549905463618,-1.37491194204416, ,-0.09133488119198342,-0.13518082843087004,0.003381913273885351,0.028732794640472677,-0.09192447234562193,0.14719208001872913, ,1.6327769756317139
