NicholasDascanio/dvrk_moveit_final/test/execution/third_experiment_notsharpbends/thirdexp_200vel5.0/thirdexp_200vel5.0_20.csv
Current Position (x),Current Position (y),Current Position (z), ,Planned Position (x),Planned Position (y),Planned Position (z), ,Position Error,,Cartesian linear Velocity(x),Cartesian linear Velocity(y),Cartesian linear Velocity(z),Cartesian Angular Velocity(x),Cartesian Angular Velocity(y),Cartesian Angular Velocity(z), ,Total Linear Velocity, ,Total Angular Velocity, ,MSE, ,Joint 1 Position,Joint 2 Position,Joint 3 Position,Joint 4 Position,Joint 5 Position,Joint 6 Position, ,Joint 1 Velocity,Joint 2 Velocity,Joint 3 Velocity,Joint 4 Velocity,Joint 5 Velocity,Joint 6 Velocity, ,Time Stamp
0.008731047554053616,0.02058722679394729,-0.08048860659236211, ,0.009032039422765644,0.02053793934514335,-0.08062006657759185, ,0.0003321251049784775, ,0.002023399912006428,0.00014205990389003803,-0.0008740511651718966,0.25279045826557367,-0.14251017348935804,-0.03900835331530385, ,0.002208685957654283, ,0.2901933240756671, ,2.7677092081539794e-05, ,0.12268333443993056,-0.2486024939541612,0.09010641419000001,1.6009827185043435,0.13062449377576107,-1.3072746747401842, ,0.007877463664481853,0.0011709321165965006,0.000940630564104866,0.001326940082339625,-0.14010074178608695,-0.2537925730662218, ,0.052449941635131836
0.008859559459454491,0.020611743567391837,-0.08059933890162808, ,0.009216575671252157,0.020557472539801273,-0.08082240118247803, ,0.0004244557704403062, ,0.004140748392305786,0.0010382377890863271,-0.004797474865344213,-0.10167445531004177,-0.15770854137721918,-0.039270704326498346, ,0.006421798816428252, ,0.1876424229309097, ,3.4390039791762897e-05, ,0.12361778511771172,-0.24852526662541893,0.09022826545000001,1.601611788334797,0.12638876228303242,-1.3153374220854146, ,0.028361309491473634,0.0030128971680412615,0.005178417269180755,0.0063354541459484945,-0.13497773721154396,0.09940894369639774, ,0.1045827865600586
0.009016903467583345,0.020646663104887893,-0.08078920689210174, ,0.009400783199513872,0.020575407352322137,-0.08102478942877926, ,0.0004560045640650763, ,0.0037204704779554075,0.00035697268047131016,-0.0028129650289878106,-0.04959465999867939,-0.00874579019823912,0.008956332274999985, ,0.004677830942461368, ,0.05035989621117283, ,3.789329498387062e-05, ,0.1254326273431545,-0.24831675283781487,0.09043826443000001,1.6018214782782818,0.1280284002802177,-1.3112019613403538, ,0.045275258377133004,0.005389184117324515,0.0032369054094696205,0.0,0.037774662894422516,0.04425035542143364, ,0.1573939323425293
0.009254616072816692,0.02066793761913928,-0.08098765785059596, ,0.009584649305908358,0.02059177916888827,-0.08122724050100358, ,0.00041487575352858695, ,0.004581801469480474,0.000674051185644714,-0.004938121184695634,0.03144152874695246,-0.028003131632382317,-0.005030071106802313, ,0.006769954988132661, ,0.04210397971961336, ,3.969417543932797e-05, ,0.12809697018476193,-0.24789972526260676,0.09066122631000001,1.6022408581652505,0.1287115827790449,-1.3125758382602415, ,0.0502898471428038,0.008255561248481574,0.005447609958960329,0.009258938670481059,0.020605843946174842,-0.038486243867935345, ,0.20542597770690918
0.009486649525109666,0.02069277648474022,-0.08121041113872696, ,0.009768161480208284,0.020606623091533844,-0.08142976337440959, ,0.000367133206511462, ,0.004398571331725793,0.0004224341707934333,-0.004329762165630395,0.008233925087826397,-0.0236368142484243,-0.007728705755456662, ,0.006186495033527333, ,0.025029912278008125, ,3.9891887990478175e-05, ,0.13068408569762716,-0.24745180675590173,0.0909088177,1.602869927995704,0.12980467477716842,-1.3133038240095318, ,0.04896643011273001,0.009363877400061395,0.004792061227436824,0.01261234917158253,0.022936563765366815,-0.01592698670578185, ,0.2524428367614746
0.009652695910739152,0.020708203656165425,-0.08137435540790611, ,0.009951307402784944,0.020619973939064496,-0.08163236681613859, ,0.0004043800105589179, ,0.00392011202825387,0.00025351573818246475,-0.0036588556533659685,0.006327778780735669,-0.00991193057884773,-0.01011070503874589, ,0.005368311954025677, ,0.011759555750201333, ,4.066058322174283e-05, ,0.13253754158744105,-0.24708883831081319,0.09109029830000001,1.6034989978261578,0.1307611302755265,-1.3138387131149851, ,0.04501752445847759,0.00928728334929486,0.004066584508552465,0.017380262386032096,0.031831856806202645,-0.013303212949504976, ,0.30008888244628906
0.009846029583651016,0.020731170103383566,-0.08158771609384308, ,0.010134074943789694,0.020631866247977932,-0.08183505938634598, ,0.00039244119246330765, ,0.003821206500960594,0.0005573578062086891,-0.005042737364004031,0.0012759571215109672,-0.006966746996225849,-0.010689645783557558, ,0.006351493286578172, ,0.0070826285392147645, ,4.1662919440987086e-05, ,0.13466129312785277,-0.24666408800273085,0.09132492679000001,1.6039183777131267,0.13199085877341546,-1.314269723067269, ,0.04122369311836263,0.009714579557232057,0.0054681810916580855,0.0176711742418321,0.03089098102837283,-0.008600303916490065, ,0.34183287620544434
0.010002071722593526,0.020753401774958685,-0.08179319066406901, ,0.010316452162333345,0.020642334273382544,-0.08203784943933072, ,0.0004135564859966873, ,0.004221192429860437,0.0003558080566405052,-0.0047618302816658685,-0.014234881315404456,-0.025501931807366367,-0.005940338095204092, ,0.00637338940709505, ,0.029205827663719573, ,4.273296118057096e-05, ,0.13635257162730793,-0.2462702286261454,0.09154788867000001,1.6041280676566114,0.13335722377106987,-1.3146487934429683, ,0.0448261415014033,0.011157953217411528,0.005186848427222403,0.00912466245653607,0.01764320314782401,0.004381576106220975, ,0.38373279571533203
0.010170583909729112,0.020767700260608403,-0.08198542570246421, ,0.010498427305663652,0.02065141198991688,-0.08224074512466298, ,0.0004315000133374602, ,0.004621735010655804,0.00017414498752292264,-0.004376823984848307,-0.032743345779821555,-0.040254646347519685,-0.010857522960889175, ,0.006367680046904396, ,0.051889914663782725, ,4.381291689012388e-05, ,0.13820602751712183,-0.24581458738656614,0.09175788765000001,1.6047571374870648,0.13472358876872428,-1.3148645063383861, ,0.04876512926951222,0.012232139927619332,0.004813784079782412,0.011096125757232882,0.0059949112578175255,0.022111353357745632, ,0.4259979724884033
0.010361128292562048,0.020775154583011386,-0.08218171866614032, ,0.010679988808340896,0.020659133092667193,-0.08244375438830909, ,0.0004287140473986658, ,0.005323866764628608,0.00040286420859011936,-0.005899517640026296,-0.027542736964315445,-0.04250289846495281,-0.017305478391616193, ,0.00795676852013815, ,0.05064680375168047, ,4.516873499198831e-05, ,0.14030661085891089,-0.2452662733524962,0.09197307179000001,1.605176517374034,0.1360899537663787,-1.3151618979739448, ,0.05453847216004068,0.014248790023794413,0.006430686927735164,0.01796168878246264,0.007914045495247681,0.01587151677287541, ,0.4633829593658447
0.010514921919785545,0.02079111909757204,-0.08237765618409125, ,0.01086112529141197,0.020665530998085366,-0.08264688497375759, ,0.00045619435161275697, ,0.0052680451938822166,0.00032254200758242437,-0.005674260031707031,-0.029012360845635892,-0.04723464845685065,-0.010167911018094123, ,0.00774942323136817, ,0.05543310464692884, ,4.661217011228562e-05, ,0.1419438302282465,-0.24483380031153962,0.09218566335,1.6053862073175185,0.13731968226426766,-1.31575626540651, ,0.0535838179325075,0.014326229100010687,0.006190754574426739,0.00953156497376567,0.004164456696854572,0.01613829568556164, ,0.5005040168762207
0.010712105211261381,0.020794772850689876,-0.08256632839453688, ,0.011041825561582846,0.02067063884490624,-0.08285014442314062, ,0.00045241164761796116, ,0.005116393022604455,-0.00012008410910079002,-0.004623605845295633,-0.037195520823112775,-0.04793593464116084,0.04024053017946322, ,0.006897073927954233, ,0.06067421690562836, ,4.7824924504900635e-05, ,0.14414480909740046,-0.2442545953459728,0.09239436604000001,1.606434657034941,0.13895932026145294,-1.3163581715896018, ,0.05469564354955088,0.015608049598432696,0.005077721236850495,-0.03994838665536541,0.016921361467619262,0.016190315328517106, ,0.5380158424377441
0.010855954908803126,0.020801668163468217,-0.08273454505945171, ,0.011222078610389744,0.020674489495065007,-0.08305354007835769, ,0.0005019749004154739, ,0.0052757148529844495,0.00041669870938524305,-0.006436415376590368,-0.032041509111912066,-0.019822414802115162,0.006697102274742334, ,0.008332721519672489, ,0.03767739937561335, ,4.977970044477399e-05, ,0.14579747393248452,-0.24380667683926777,0.09257843922,1.6062249670914566,0.14114550425769998,-1.3173240706473388, ,0.05530124799444684,0.01526410512441222,0.007001675393406594,0.0,0.03658177381972853,0.016939187278559618, ,0.5695638656616211
0.011014000360019618,0.020816559635082433,-0.08293836909986546, ,0.01140187361336884,0.020677115534613606,-0.08325707908219449, ,0.0005210243474689421, ,0.005331588946830594,0.0004547598082586868,-0.00697469169932244,0.006871462224986556,0.01058998007283018,-0.0034720744919797984, ,0.008790845891139884, ,0.01262397142530807, ,5.169647755512139e-05, ,0.14748875243193968,-0.24333559013394007,0.09280010481,1.6068540369219102,0.14278514225488526,-1.3177626193501497, ,0.05789929320223964,0.01666027766124838,0.007577931265461467,0.017857648645531486,0.06618541358563192,-0.020785796064040525, ,0.6013088226318359
0.011180683704060102,0.020824989380962985,-0.08313852919099746, ,0.011581199929224632,0.0206785492746368,-0.08346076837944383, ,0.0005345054217979875, ,0.0054575074977267855,0.00011319298868536037,-0.006107608660787197,0.013014450527155328,0.0012899174403154007,-0.0013476515389984653, ,0.008191464111729623, ,0.01307821857241401, ,5.3535219821246466e-05, ,0.14926498099301133,-0.2428104442984928,0.09301788153000001,1.6068540369219102,0.14428814375230511,-1.318498143849967, ,0.05990968532731741,0.018003593541732265,0.006678746968553461,0.013740113187138372,0.05968620937461821,-0.028839447705401713, ,0.6330568790435791
0.011347379613496477,0.02082606884081674,-0.08331599254466801, ,0.011760047098997608,0.020678822752168858,-0.08366461471802375, ,0.0005599225696176257, ,0.0060765143007012875,-3.824962730685222e-05,-0.006295863319713203,0.0012454909421978286,-0.02820912363433577,-0.0037315359188730703, ,0.008750050515347127, ,0.028236605568171827, ,5.58363731323598e-05, ,0.15107210048557987,-0.24225440753154864,0.09321232503000002,1.607692796695848,0.14579114524972495,-1.319070310869503, ,0.06386066053732892,0.020242521663496323,0.006883669628349179,0.00942990929962962,0.03442900670125684,-0.01986632608624831, ,0.6591439247131348
0.011532589879139065,0.02083898576086612,-0.08355959054083081, ,0.011938404845230214,0.020677967731109012,-0.08386862465009474, ,0.0005348968809957417, ,0.006830514329739584,0.0005407343298498836,-0.008978361905215103,-0.0132297676486267,-0.021707576446334545,-0.009915168758516581, ,0.011294215427610443, ,0.025421360484197943, ,5.777360809701088e-05, ,0.1530413973685071,-0.24165203436735913,0.09347676819,1.6079024866393328,0.147977329245972,-1.3202812461476618, ,0.06846821180264846,0.021460185788889818,0.00972454915750916,0.017963486737840532,0.043764520428861364,-0.005311605882970256, ,0.6857337951660156
0.011665588224370062,0.020850099144815067,-0.08374422508267296, ,0.01211626307113239,0.020676015703137228,-0.08407280453317706, ,0.0005842750358043951, ,0.006568226373602647,0.00040675068815640295,-0.008558267088492947,0.027107591866776734,0.02156655913193504,0.007570320155170588, ,0.010795877888119457, ,0.03464012072286523, ,5.992986353729804e-05, ,0.15440832108724484,-0.24121183859352835,0.09367639685000001,1.608321866526302,0.1493436942436264,-1.3207419952635018, ,0.0710306448790949,0.021715547267384616,0.009320545067290815,0.011949333270844964,0.09250673987857463,-0.04674723900859197, ,0.7118268013000488
0.011803777625215846,0.020852617971623917,-0.08390683413279793, ,0.012293611859745871,0.02067299788862962,-0.0842771605312659, ,0.0006397988691258782, ,0.006937609743945879,-0.00012671918488947815,-0.007140090047618583,0.0007908955694992993,-0.014836152725205871,0.0012128350839975778, ,0.009956273027554727, ,0.014857217940450055, ,6.276730619670715e-05, ,0.15662474542214727,-0.2405090699019739,0.09392528453000001,1.6085315564697864,0.15152987823987346,-1.3218712518015199, ,0.07555488977585254,0.024295171929972034,0.00744336986915888,0.0037136151032311757,0.060995070447749086,-0.022943081268592132, ,0.7334859371185303
0.012016398823275098,0.020849208204080018,-0.08412698641539681, ,0.01247044147310749,0.02066894523757322,-0.08448169861594688, ,0.000603713682286333, ,0.007614955980753475,-8.103133565362445e-06,-0.008961657060658866,0.022385993034816906,0.011174774319986149,-0.006413872369294171, ,0.011760056016977284, ,0.02502015602380731, ,6.519933693808304e-05, ,0.15818473746274064,-0.24000709226514932,0.09409639481000001,1.6091606263002398,0.1530328797372933,-1.3225250975611966, ,0.08131700219234857,0.027829015119786152,0.00977227700613497,0.024541294314231202,0.08930876519145985,-0.04607160437793047, ,0.7545249462127686
0.012179011391206817,0.020856341134612287,-0.08434069594765846, ,0.012646742351412246,0.02066388843048173,-0.08468642456751058, ,0.0006126488170613785, ,0.008318380242485665,0.0004154703138199154,-0.010937102188778495,0.012990083122462807,0.004190258000264402,-0.005908176597940501, ,0.013747300452380637, ,0.013649189175125065, ,6.756075619519074e-05, ,0.1598760159621958,-0.23944333276533092,0.09432843072000001,1.6091606263002398,0.15494579073400946,-1.3233498395516814, ,0.08503310175490213,0.028557611061832917,0.011878308366890382,0.023032100327684633,0.08629267307249455,-0.037609587873242686, ,0.7755999565124512
0.012210191913110806,0.020857928614640097,-0.08437992929958073, ,0.01282250511217481,0.02065785787931002,-0.08489134397606535, ,0.000822496640848692, ,0.00829087300211083,0.0003628141161560783,-0.010583423819157216,-0.01079054010426554,-0.0010460612934570426,-0.005546022704561157, ,0.013449128929262172, ,0.010841119277637302, ,7.163848232850074e-05, ,0.16019264801003902,-0.239342937237966,0.09437120829000001,1.6091606263002398,0.15521906373354036,-1.3235726753590744, ,0.08472941210577749,0.02811761231362097,0.011517578828633407,0.021375470215119777,0.08098467343456768,-0.013648418812618593, ,0.7913758754730225
0.012437836817565323,0.020866176880280446,-0.08467987629937684, ,0.012997720549390985,0.020650883728368388,-0.08509646224265148, ,0.0007303182748345243, ,0.009068719436001061,0.0007421329777602193,-0.013096532077926173,0.06278880128931208,0.05121717869865318,0.013310470108966611, ,0.01594714977774185, ,0.08102859110162274, ,7.496366186301056e-05, ,0.16251719060518058,-0.2385243275532982,0.09469657708000001,1.6099993860741781,0.15767852072931826,-1.3248430889643448, ,0.09518248902554742,0.030921127910873505,0.014234862841823058,0.017491217238886612,0.14657256066549115,-0.09048272174494015, ,0.807074785232544
0.01253577689338557,0.0208719429895049,-0.08481340198487078, ,0.013172379632698326,0.020642995855238065,-0.08530178458035215, ,0.0008343844423037962, ,0.010216935395887364,0.0005712334602505554,-0.013701730511155748,0.029710875911582287,0.00809508377161618,-0.03770126920366428, ,0.017101154801655423, ,0.030793928716238764, ,7.882121538652172e-05, ,0.16453282388535317,-0.23782155886174378,0.09499472378000001,1.6106284559046316,0.15986470472556533,-1.3258089880220818, ,0.10063302392202628,0.03671061568993066,0.016122278866396764,-0.01368770505481065,0.08833273841964961,-0.03395024597819829, ,0.823065996170044
0.012743011458732249,0.020880909127186063,-0.0851014258141982, ,0.013346473506535776,0.0206342238716846,-0.08550731601540681, ,0.000767962833643801, ,0.010509054170146226,0.00032577069377682084,-0.01471332620964047,-0.01466098267443336,0.008165903540676799,0.01352072420385363, ,0.018083924193804973, ,0.01678170742456924, ,8.263571790446396e-05, ,0.1655522246247508,-0.23743542221803254,0.09515287116000001,1.6104187659611469,0.1608211602239234,-1.326180519647254, ,0.10416788315968253,0.03975573588540879,0.015881168015952143,0.007376558747444696,0.11388885031879606,-0.02333118976220734, ,0.833765983581543
0.012807899792482534,0.020882492878363856,-0.08519132815297657, ,0.013519993489303437,0.02062459712457327,-0.08571306138832159, ,0.000919670170082109, ,0.010739373077541643,0.00031802538492722285,-0.015351570547991624,0.06355215170038687,0.046539907182218745,0.024083034736843652, ,0.018737822513142988, ,0.07877079467443338, ,8.729250021479224e-05, ,0.1662086569190599,-0.23718829476605738,0.09525009291000001,1.6104187659611469,0.16164097922251605,-1.3266039908490108, ,0.11008925934857398,0.04169461404150737,0.016592512,0.0072867560427344715,0.15952430193105563,-0.10346513003590083, ,0.8447439670562744
0.012969718979019678,0.02089136591086263,-0.0854273845169104, ,0.01369293107252104,0.020614144696782105,-0.08591902535498008, ,0.0009173865310657035, ,0.01280255000529356,0.0007494145428527147,-0.01814278530270677,0.0062490381844253024,0.0018650796445179943,-0.01703746427975876, ,0.02221773092228804, ,0.006521275534676828, ,9.182177784062222e-05, ,0.16783043082264704,-0.23658592160186787,0.09550546204,1.6110478357916007,0.16382716321876312,-1.3276515686468886, ,0.12340304493949386,0.045275258377133004,0.01964095131935882,0.03946286641760916,0.11945663711485234,-0.04441356641110948, ,0.8553299903869629
0.013108472189464267,0.02089839633149556,-0.08562014397654039, ,0.01386527791998652,0.020602895408117158,-0.08612521238775435, ,0.0009566450802021648, ,0.013939181281023911,0.0006997041714096524,-0.01948876782230517,-0.03365762777104264,-0.010338470136001105,-0.028460379969742496, ,0.0239708663161024, ,0.03520961602363459, ,9.647841353050729e-05, ,0.16915101814413944,-0.23609166669791748,0.09571416473000001,1.6116769056220543,0.1649202552168866,-1.3278894819553355, ,0.13253762787495918,0.049736342535886144,0.02109776360264901,0.04916587982740299,0.11395852720087565,-0.00721424972537122, ,0.8657968044281006
0.013251900155178985,0.02090624094537587,-0.08582761729923206, ,0.014037025866933834,0.02059087781622598,-0.08633162677661421, ,0.0009848359456157123, ,0.01430348403170489,0.0006457903036499945,-0.021020243295012283,0.029815918964700452,-0.010093615931855543,0.05305100658710523, ,0.025433390036387876, ,0.03147802411946664, ,0.00010119197971238048, ,0.17041754633551226,-0.23561285725971556,0.09592157113000001,1.6118865955655386,0.16614998371477557,-1.32840217064776, ,0.1347967919864642,0.05228481628565883,0.022886223448275865,-0.03221134674142958,0.1380285948013242,-0.08716466759967598, ,0.8788149356842041
0.013251900155178985,0.02090624094537587,-0.08582761729923206, ,0.01420816691919018,0.020578120217511098,-0.08653827263023704, ,0.001235775196179607, ,0.01430348403170489,0.0006457903036499945,-0.021020243295012283,0.029815918964700452,-0.010093615931855543,0.05305100658710523, ,0.025433390036387876, ,0.03147802411946664, ,0.0001079054898689913, ,0.17041754633551226,-0.23561285725971556,0.09592157113000001,1.6118865955655386,0.16614998371477557,-1.32840217064776, ,0.1347967919864642,0.05228481628565883,0.022886223448275865,-0.03221134674142958,0.1380285948013242,-0.08716466759967598, ,0.8841938972473145
0.013276929964320856,0.020907571533483358,-0.08586485725441949, ,0.014378693252333364,0.020564650648045,-0.08674515387711766, ,0.0014513439359489435, ,0.014522454426824436,0.0005127767199719297,-0.020888378118821747,0.0202131377873152,-0.015939570461485395,0.04943495273547554, ,0.02544580442781499, ,0.025741733993625417, ,0.0006152303663690148, ,0.17075734658197814,-0.23548157080085375,0.09597860789000001,1.6118865955655386,0.1665598932140719,-1.3286547456187086, ,0.1375317993601026,0.05413402256615561,0.02253014359264498,-0.028622532235095616,0.13207956107255958,-0.07817500952635659, ,0.8895108699798584
0.013564506666455145,0.02091592902219957,-0.08626449573572184, ,0.014548597210848032,0.020550496884482666,-0.08695227426667541, ,0.0012549956790684532, ,0.015395375890268882,0.000813667613455508,-0.021048650186106143,-0.04069990418244759,-0.07955066483309121,-0.00029048246216850616, ,0.026090713452202204, ,0.08935763170663626, ,0.0006346171940265735, ,0.1734216894235856,-0.23442355639708498,0.09641027246000002,1.6118865955655386,0.16847280421078806,-1.329316130128912, ,0.1381323749031598,0.051490472902046,0.022820646876790834,0.005535111953027921,0.0589611198850221,-0.009064794191967769, ,0.8948040008544922
0.013564506666455145,0.02091592902219957,-0.08626449573572184, ,0.014717871307282311,0.020535686444976588,-0.08715963737036475, ,0.001508679209876882, ,0.015395375890268882,0.000813667613455508,-0.021048650186106143,-0.04069990418244759,-0.07955066483309121,-0.00029048246216850616, ,0.026090713452202204, ,0.08935763170663626, ,0.000660324900375112, ,0.1734216894235856,-0.23442355639708498,0.09641027246000002,1.6118865955655386,0.16847280421078806,-1.329316130128912, ,0.1381323749031598,0.051490472902046,0.022820646876790834,0.005535111953027921,0.0589611198850221,-0.009064794191967769, ,0.9001328945159912
0.013729741306055828,0.02091533387967448,-0.08649002297477422, ,0.01488650822140358,0.020520246590089573,-0.08736724658278197, ,0.0015045680181636312, ,0.019929954344489683,-0.0002677803814184397,-0.029507927636549733,0.08048638603182649,0.06058067675292468,-0.00969296581135442, ,0.03560888344093326, ,0.10073755189047764, ,0.0006844461323119268, ,0.17498940419705317,-0.23375940136990167,0.09665397498000002,1.6125156653959922,0.16997580570820792,-1.329969975888589, ,0.1905561075471301,0.08778625491070376,0.031667617335984104,0.05444497084465562,0.24553806801955722,-0.15752019448762258, ,0.9054999351501465
0.013729741306055828,0.02091533387967448,-0.08649002297477422, ,0.015054500799353759,0.02050420432370803,-0.08757510512277338, ,0.001761084465543496, ,0.019929954344489683,-0.0002677803814184397,-0.029507927636549733,0.08048638603182649,0.06058067675292468,-0.00969296581135442, ,0.03560888344093326, ,0.10073755189047764, ,0.0007143527526794704, ,0.17498940419705317,-0.23375940136990167,0.09665397498000002,1.6125156653959922,0.16997580570820792,-1.329969975888589, ,0.1905561075471301,0.08778625491070376,0.031667617335984104,0.05444497084465562,0.24553806801955722,-0.15752019448762258, ,0.9108560085296631
0.013924847689023263,0.020932889600410676,-0.08683516843312965, ,0.015221842052805266,0.02048758639395677,-0.0877832160345436, ,0.00166711834610119, ,0.021242984115796934,0.0035101750168747593,-0.03985179444600399,0.24948370319077198,0.21370320504615467,-0.026637013019137536, ,0.04529626058914408, ,0.32849821534949863, ,0.0007401031741233007, ,0.17686602828548972,-0.23296395988385657,0.09702471392,1.6135641151134148,0.1736649912018748,-1.3328149018081112, ,0.19852916644031546,0.07478088381282172,0.04293480194070081,0.11095146553686912,0.3980534161018806,-0.3035054925978826, ,0.9162678718566895
0.013924847689023263,0.020932889600410676,-0.08683516843312965, ,0.015388525158115523,0.020470419294111298,-0.08799158218876195, ,0.0019218541286873383, ,0.021242984115796934,0.0035101750168747593,-0.03985179444600399,0.24948370319077198,0.21370320504615467,-0.026637013019137536, ,0.04529626058914408, ,0.32849821534949863, ,0.0007712018834539333, ,0.17686602828548972,-0.23296395988385657,0.09702471392,1.6135641151134148,0.1736649912018748,-1.3328149018081112, ,0.19852916644031546,0.07478088381282172,0.04293480194070081,0.11095146553686912,0.3980534161018806,-0.3035054925978826, ,0.9216098785400391
0.014190770326455765,0.020968677748994698,-0.08729421416247492, ,0.015554543455482158,0.020452729263512458,-0.08820020628367076, ,0.00171665421992747, ,0.025976724853762758,0.0025814547973329154,-0.04179531222785031,-0.02585207709239101,-0.008795942126031592,0.03672371626564211, ,0.04927780704558861, ,0.027305145126591657, ,0.0007954442510558189, ,0.17924463001075086,-0.2320681228704465,0.09751989670000001,1.613983495000384,0.1769442671962454,-1.3345087866151386, ,0.22757060325772369,0.08819418360452676,0.04512411195467422,0.0,0.22506559103454854,-0.06058844538935164, ,0.9272007942199707
0.014190770326455765,0.020968677748994698,-0.08729421416247492, ,0.015719890448097185,0.020434542288478734,-0.08840909084619131, ,0.001966331369958717, ,0.025976724853762758,0.0025814547973329154,-0.04179531222785031,-0.02585207709239101,-0.008795942126031592,0.03672371626564211, ,0.04927780704558861, ,0.027305145126591657, ,0.0008247164290283912, ,0.17924463001075086,-0.2320681228704465,0.09751989670000001,1.613983495000384,0.1769442671962454,-1.3345087866151386, ,0.22757060325772369,0.08819418360452676,0.04512411195467422,0.0,0.22506559103454854,-0.06058844538935164, ,0.9325439929962158
0.014448919866459178,0.020991772805656186,-0.08772357922446988, ,0.01588455980130149,0.020415884103220452,-0.08861823823303079, ,0.0017869316052122248, ,0.02756490973756372,0.0029039826369132607,-0.048764433741365916,-0.020490768162431405,0.009476256914547117,0.039392456609469224, ,0.05609124140283932, ,0.022569786767689764, ,0.0008481850918621433, ,0.1814610543456533,-0.23113367219266534,0.09798137594,1.613983495000384,0.17913045119249243,-1.3351479707123135, ,0.2308928018454277,0.10193011982649922,0.05222561154098361,-0.00042409578578617044,0.24731025322105352,-0.07955354115815144, ,0.9379458427429199
0.014448919866459178,0.020991772805656186,-0.08772357922446988, ,0.016048545341738826,0.020396780190752212,-0.08882765063178893, ,0.0020326808764322495, ,0.02756490973756372,0.0029039826369132607,-0.048764433741365916,-0.020490768162431405,0.009476256914547117,0.039392456609469224, ,0.05609124140283932, ,0.022569786767689764, ,0.0008763873724471459, ,0.1814610543456533,-0.23113367219266534,0.09798137594,1.613983495000384,0.17913045119249243,-1.3351479707123135, ,0.2308928018454277,0.10193011982649922,0.05222561154098361,-0.00042409578578617044,0.24731025322105352,-0.07955354115815144, ,0.9433078765869141
0.014738407822339204,0.021020009935695323,-0.08823577858024872, ,0.01621184105650999,0.020377255783807835,-0.08903733006206474, ,0.0017962803715815168, ,0.029102086850231763,0.0022548438997489284,-0.04967936173839544,-0.00430335606095161,0.006952496892342699,0.03230839540988738, ,0.057619916372596516, ,0.008158031544520595, ,0.0008977802328921313, ,0.18387054700241134,-0.2300447668573997,0.09852970661,1.613983495000384,0.1817265446880358,-1.3361214085205777, ,0.24395100657704571,0.11073155374383986,0.05327361712374583,0.006880332326862612,0.2563342456668294,-0.10313389885229082, ,0.9486579895019531
0.014738407822339204,0.021020009935695323,-0.08823577858024872, ,0.016374441092326168,0.02035733586575197,-0.08924727837656185, ,0.002034422183673049, ,0.029102086850231763,0.0022548438997489284,-0.04967936173839544,-0.00430335606095161,0.006952496892342699,0.03230839540988738, ,0.057619916372596516, ,0.008158031544520595, ,0.0009236130045007885, ,0.18387054700241134,-0.2300447668573997,0.09852970661,1.613983495000384,0.1817265446880358,-1.3361214085205777, ,0.24395100657704571,0.11073155374383986,0.05327361712374583,0.006880332326862612,0.2563342456668294,-0.10313389885229082, ,0.9540188312530518
0.015039368310206096,0.021030665949382642,-0.0887059433561444, ,0.01653633975466263,0.020337045171494015,-0.08945749726219493, ,0.0018129717490178708, ,0.0301654907921216,0.00011458974891353122,-0.04350271194064486,0.0350896078568502,0.022645964574748132,-0.04445572324825009, ,0.05293822731949809, ,0.04176080083011445, ,0.0009433765321567237, ,0.18648855344677345,-0.22886318872764336,0.09903655600000001,1.614822254774322,0.18459591118311003,-1.337399360876375, ,0.26731532833372046,0.11921726326441054,0.047126661301775154,0.0897611462583562,0.27715241154138864,-0.13569231995420244, ,0.9597389698028564
0.015039368310206096,0.021030665949382642,-0.0887059433561444, ,0.016697531506912226,0.020316408188402007,-0.08966798824119569, ,0.0020457760622524437, ,0.0301654907921216,0.00011458974891353122,-0.04350271194064486,0.0350896078568502,0.022645964574748132,-0.04445572324825009, ,0.05293822731949809, ,0.04176080083011445, ,0.0009673417393327177, ,0.18648855344677345,-0.22886318872764336,0.09903655600000001,1.614822254774322,0.18459591118311003,-1.337399360876375, ,0.26731532833372046,0.11921726326441054,0.047126661301775154,0.0897611462583562,0.27715241154138864,-0.13569231995420244, ,0.9651379585266113
0.0153324582800418,0.021022499266803975,-0.08910307120792746, ,0.016858010969538317,0.02029544915721463,-0.08987875267221869, ,0.0018594608369978975, ,0.03072587908524418,-0.0018250215501485576,-0.03858308301807541,0.031157212177024367,0.006094571980492084,-0.007981892819135108, ,0.049356505593480295, ,0.031746341121819524, ,0.000986322996729849, ,0.18912972808975825,-0.227681610597887,0.09946822057000002,1.615241634661291,0.18732864117841885,-1.338810931548898, ,0.2815932983930884,0.12636077437878931,0.04213971301587302,0.051177671033170904,0.28380481898541793,-0.14553936495940425, ,0.9707598686218262
0.015664003657478005,0.0209842301141453,-0.08948358695461534, ,0.017017772919228208,0.02027419207295565,-0.0900897917514461, ,0.001644484566572991, ,0.03231295350322379,-0.004791961179360169,-0.03428335277924614,-0.045958897312027,-0.05904222841790386,0.05294319233961311, ,0.04735438874943104, ,0.07482083679144455, ,0.0010000346961015812, ,0.19219565304082536,-0.22622201408465856,0.09988432966,1.6154513246047757,0.19006137117372765,-1.339977466000999, ,0.30221955910341014,0.14532456593946522,0.03765676482269504,-0.023705507970888128,0.2552819384396734,-0.10084379731517823, ,0.976111888885498
0.015664003657478005,0.0209842301141453,-0.08948358695461534, ,0.017176812288045712,0.02025266068584629,-0.09030110651369445, ,0.0018687220260431448, ,0.03231295350322379,-0.004791961179360169,-0.03428335277924614,-0.045958897312027,-0.05904222841790386,0.05294319233961311, ,0.04735438874943104, ,0.07482083679144455, ,0.0010177630089575314, ,0.19219565304082536,-0.22622201408465856,0.09988432966,1.6154513246047757,0.19006137117372765,-1.339977466000999, ,0.30221955910341014,0.14532456593946522,0.03765676482269504,-0.023705507970888128,0.2552819384396734,-0.10084379731517823, ,0.9815168380737305
0.0159783397186738,0.02093451379114647,-0.0898017197843913, ,0.017335124162584037,0.020230878502218108,-0.0905126978335182, ,0.0016856620163610504, ,0.033417468310897855,-0.0055660168951739645,-0.03230352292471747,-0.048532608593810485,-0.06203321022264999,0.029593745567070763, ,0.04681052580066765, ,0.07876228850919471, ,0.0010311209891056018, ,0.19515345973165335,-0.2248164767015497,0.10023562425000002,1.615241634661291,0.19252082816950558,-1.3409211646457073, ,0.3163231385282359,0.14874128770920184,0.035875701621621625,0.0006228077021196815,0.2609557521165266,-0.09716356683407344, ,0.986879825592041
0.0159783397186738,0.02093451379114647,-0.0898017197843913, ,0.017492703783118707,0.02020886878542751,-0.0907245664263173, ,0.0019161171985348517, ,0.033417468310897855,-0.0055660168951739645,-0.03230352292471747,-0.048532608593810485,-0.06203321022264999,0.029593745567070763, ,0.04681052580066765, ,0.07876228850919471, ,0.0010484738559571557, ,0.19515345973165335,-0.2248164767015497,0.10023562425000002,1.615241634661291,0.19252082816950558,-1.3409211646457073, ,0.3163231385282359,0.14874128770920184,0.035875701621621625,0.0006228077021196815,0.2609557521165266,-0.09716356683407344, ,0.992257833480835
0.016329723201966476,0.020871471114388848,-0.09014971446644165, ,0.01764954654275997,0.020186654556767505,-0.09093671284943981, ,0.0016823417676968507, ,0.03376414468182864,-0.006723345129913974,-0.03330282123874233,-0.021875867266829517,-0.030968740522349665,-0.006840266680926174, ,0.04789883859021033, ,0.037915372791981865, ,0.0010606636234906112, ,0.19845878940182146,-0.2231792573322141,0.10062062238000001,1.6158707044917449,0.19539019466457985,-1.3421174382613643, ,0.31738107544639055,0.1630531641898123,0.036787093579676675,0.04048214280233778,0.28481582851869924,-0.13002814752924008, ,0.9976229667663574
0.016329723201966476,0.020871471114388848,-0.09014971446644165, ,0.017805647986605114,0.020164258596381622,-0.09114913750328939, ,0.0019176417606317083, ,0.03376414468182864,-0.006723345129913974,-0.03330282123874233,-0.021875867266829517,-0.030968740522349665,-0.006840266680926174, ,0.04789883859021033, ,0.037915372791981865, ,0.0010768330223045943, ,0.19845878940182146,-0.2231792573322141,0.10062062238000001,1.6158707044917449,0.19539019466457985,-1.3421174382613643, ,0.31738107544639055,0.1630531641898123,0.036787093579676675,0.04048214280233778,0.28481582851869924,-0.13002814752924008, ,1.0030088424682617
0.016657497491839517,0.020804948478844662,-0.09047619721402841, ,0.017961003810890986,0.020141703444176436,-0.09136184063242783, ,0.001709791497339185, ,0.034536823732363574,-0.006953785307887195,-0.03451056731107331,-0.035485974320923916,-0.04117454867552276,-0.0546990312347514, ,0.04931659537884444, ,0.05435576217163598, ,0.0010885544755459757, ,0.20151699162001435,-0.22158065162724963,0.100980991,1.6162900843787136,0.19812292465988865,-1.343365651453606, ,0.3184461126123181,0.16825698857884888,0.038107204593301434,0.08409146794986874,0.2655788214358957,-0.11278321225657555, ,1.008375883102417
0.016657497491839517,0.020804948478844662,-0.09047619721402841, ,0.0181156098621464,0.02011901140073546,-0.09157482232668179, ,0.0019502765182710872, ,0.034536823732363574,-0.006953785307887195,-0.03451056731107331,-0.035485974320923916,-0.04117454867552276,-0.0546990312347514, ,0.04931659537884444, ,0.05435576217163598, ,0.0011042221490500685, ,0.20151699162001435,-0.22158065162724963,0.100980991,1.6162900843787136,0.19812292465988865,-1.343365651453606, ,0.3184461126123181,0.16825698857884888,0.038107204593301434,0.08409146794986874,0.2655788214358957,-0.11278321225657555, ,1.013887882232666
0.017007072364824467,0.020738471888028645,-0.09084099013946176, ,0.01826946213634383,0.02009620452823108,-0.09178808252224674, ,0.0017038542420721831, ,0.035879901528774835,-0.006355542150259414,-0.039551110200464985,-0.0695838179702775,-0.08330999757735925,0.06501490886509251, ,0.053777788796376035, ,0.10854661043960596, ,0.001114929864996892, ,0.2046833120984464,-0.2198970958606687,0.1013828409,1.6167094642656827,0.20071901815543203,-1.3444207680020108, ,0.31738107544639055,0.17037152883028864,0.0434027561852861,-0.04604284855418685,0.250445899331404,-0.10620232179422387, ,1.0192768573760986
0.01739047837430625,0.020674279672490282,-0.09127087333946635, ,0.01842255677805199,0.020073304651338757,-0.09200162100279127, ,0.001400124621232436, ,0.03725620250260337,-0.00617792947659626,-0.042612053620695124,-0.08091786091922516,-0.10371366295954083,0.04144935686961522, ,0.0569383750321853, ,0.13154498699972347, ,0.0011199332817729542, ,0.2080195327001114,-0.21809769910097437,0.10185469046000001,1.6167094642656827,0.20317847515120993,-1.3454461453868594, ,0.3195183217456929,0.17476416493272703,0.04671205724340176,-0.02854067707544981,0.22762870242919364,-0.09577250922020455, ,1.0252549648284912
0.01739047837430625,0.020674279672490282,-0.09127087333946635, ,0.018574890079587764,0.020050333358149604,-0.09221543740056289, ,0.0016383959705463045, ,0.03725620250260337,-0.00617792947659626,-0.042612053620695124,-0.08091786091922516,-0.10371366295954083,0.04144935686961522, ,0.0569383750321853, ,0.13154498699972347, ,0.0011288722936483569, ,0.2080195327001114,-0.21809769910097437,0.10185469046000001,1.6167094642656827,0.20317847515120993,-1.3454461453868594, ,0.3195183217456929,0.17476416493272703,0.04671205724340176,-0.02854067707544981,0.22762870242919364,-0.09577250922020455, ,1.0306768417358398
0.01775589638888008,0.020610139220942413,-0.09168580259090646, ,0.018726458480167924,0.020027312001083337,-0.09242953119749181, ,0.0013545518009685266, ,0.03642969688743528,-0.006403465466035278,-0.0418605660037613,-0.05734647280826896,-0.08826823167049891,0.01323032116226762, ,0.05586084649770691, ,0.10526048702898495, ,0.001132697370043614, ,0.2111395167812981,-0.21636008420427386,0.10230968825000002,1.6164997743221983,0.205364659147457,-1.3464120444445966, ,0.3091105588223804,0.1741228285476528,0.04590435596541788,0.0,0.22633989068721114,-0.11297107781331558, ,1.0360097885131836
0.01775589638888008,0.020610139220942413,-0.09168580259090646, ,0.018877258565061023,0.02000426169780114,-0.09264390172629469, ,0.0015945201963125906, ,0.03642969688743528,-0.006403465466035278,-0.0418605660037613,-0.05734647280826896,-0.08826823167049891,0.01323032116226762, ,0.05586084649770691, ,0.10526048702898495, ,0.001140394417148097, ,0.2111395167812981,-0.21636008420427386,0.10230968825000002,1.6164997743221983,0.205364659147457,-1.3464120444445966, ,0.3091105588223804,0.1741228285476528,0.04590435596541788,0.0,0.22633989068721114,-0.11297107781331558, ,1.0413298606872559
0.018112480295193883,0.020540669951657892,-0.09208686037928362, ,0.019027287064739655,0.01998120333211984,-0.09285854817158144, ,0.0013211269328741975, ,0.03503697190255087,-0.007317787004811556,-0.039192023595788675,-0.020008272797469764,-0.050362780601482054,0.016567704419131746, ,0.05307686991789158, ,0.05419084962329893, ,0.0011433572452747545, ,0.21420544173236522,-0.2146070238418249,0.10275042685,1.6167094642656827,0.20796075264300035,-1.3479572334338448, ,0.30030677708376824,0.17573507696013105,0.04305084194594595,0.0020000785211973446,0.25563174621159135,-0.15139110166564484, ,1.0466399192810059
0.018112480295193883,0.020540669951657892,-0.09208686037928362, ,0.019176540854031164,0.019958157554922452,-0.09307346957095591, ,0.0015636314342951216, ,0.03503697190255087,-0.007317787004811556,-0.039192023595788675,-0.020008272797469764,-0.050362780601482054,0.016567704419131746, ,0.05307686991789158, ,0.05419084962329893, ,0.001150135861226696, ,0.21420544173236522,-0.2146070238418249,0.10275042685,1.6167094642656827,0.20796075264300035,-1.3479572334338448, ,0.30030677708376824,0.17573507696013105,0.04305084194594595,0.0020000785211973446,0.25563174621159135,-0.15139110166564484, ,1.0520219802856445
0.018411712117130878,0.020479254585311624,-0.09242509518719552, ,0.01932501695127068,0.01993514478507438,-0.09328866481612458, ,0.0013696472899202975, ,0.035478417470220895,-0.007090912482811995,-0.04088259619237805,-0.08821167126037872,-0.12305333982140139,-0.01910745359057349, ,0.054592909955956906, ,0.15140445561756843, ,0.0011536201696186578, ,0.21669988445073973,-0.21310881366422535,0.10312116579000001,1.617128844152652,0.20960039064018565,-1.3488041758373583, ,0.290204714246088,0.1760611160639532,0.04474385258426967,0.018431426351374427,0.1672333925543907,-0.07989096853262476, ,1.057581901550293
0.018411712117130878,0.020479254585311624,-0.09242509518719552, ,0.019472712517452074,0.01991218521033479,-0.09350413265399778, ,0.001616048074867014, ,0.035478417470220895,-0.007090912482811995,-0.04088259619237805,-0.08821167126037872,-0.12305333982140139,-0.01910745359057349, ,0.054592909955956906, ,0.15140445561756843, ,0.0011608456056381633, ,0.21669988445073973,-0.21310881366422535,0.10312116579000001,1.617128844152652,0.20960039064018565,-1.3488041758373583, ,0.290204714246088,0.1760611160639532,0.04474385258426967,0.018431426351374427,0.1672333925543907,-0.07989096853262476, ,1.0629818439483643
0.0188080619263399,0.020398929378673873,-0.09288182048542189, ,0.019619624855378704,0.019889298788268076,-0.09371987168779417, ,0.0012730622703799777, ,0.03340143603749967,-0.007072304346444639,-0.03809778766859802,-0.04983463096840749,-0.09297196065996823,-0.03898250248289355, ,0.051157744705738355, ,0.10548552342755133, ,0.0011625720158649603, ,0.21992798679216558,-0.2111395167812981,0.10362153373,1.6173385340961361,0.2115133016369018,-1.349873954048265, ,0.2726923608002034,0.16795918859906334,0.04180790425196851,0.042162348467806775,0.17500646811912907,-0.10513234577322922, ,1.0683488845825195
0.0188080619263399,0.020398929378673873,-0.09288182048542189, ,0.019765751408816676,0.019866505247160195,-0.09393588037814628, ,0.0015204232496626988, ,0.03340143603749967,-0.007072304346444639,-0.03809778766859802,-0.04983463096840749,-0.09297196065996823,-0.03898250248289355, ,0.051157744705738355, ,0.10548552342755133, ,0.0011679940042558352, ,0.21992798679216558,-0.2111395167812981,0.10362153373,1.6173385340961361,0.2115133016369018,-1.349873954048265, ,0.2726923608002034,0.16795918859906334,0.04180790425196851,0.042162348467806775,0.17500646811912907,-0.10513234577322922, ,1.0736229419708252
0.019132756982169583,0.02032839552593362,-0.09326317493267329, ,0.01991108976164495,0.019843824086929022,-0.09415215704420371, ,0.0012770671829335832, ,0.0322536205067853,-0.006692921205356484,-0.03856567288457491,-0.005587667763385551,-0.054094835944413486,-0.026123627823681533, ,0.05071885601131859, ,0.054381871942575086, ,0.0011696219621465478, ,0.22256143870227615,-0.20947912921333983,0.10403893911,1.6173385340961361,0.21342621263361797,-1.3512704472197337, ,0.25999162070813914,0.16333380646896864,0.04225148944297083,0.035581068276791014,0.2032182654463486,-0.1461329850251217, ,1.078948974609375
0.019132756982169583,0.02032839552593362,-0.09326317493267329, ,0.020055637637007507,0.019821274580038833,-0.09436869986473789, ,0.0015267828045454738, ,0.0322536205067853,-0.006692921205356484,-0.03856567288457491,-0.005587667763385551,-0.054094835944413486,-0.026123627823681533, ,0.05071885601131859, ,0.054381871942575086, ,0.0011748743274759437, ,0.22256143870227615,-0.20947912921333983,0.10403893911,1.6173385340961361,0.21342621263361797,-1.3512704472197337, ,0.25999162070813914,0.16333380646896864,0.04225148944297083,0.035581068276791014,0.2032182654463486,-0.1461329850251217, ,1.0843348503112793
0.01945256172749169,0.020261409948348963,-0.0936611803517404, ,0.020199392896463948,0.01979887577241124,-0.09458550687924458, ,0.0012751761401103773, ,0.030874776772975877,-0.006325668118061082,-0.0402562978876552,0.005874265624952624,-0.03459933947895245,-0.018720515035479918, ,0.05112568275867402, ,0.03509295607509275, ,0.0011763279769344138, ,0.22509449508502177,-0.20783418711113,0.10447319626000001,1.6173385340961361,0.2154757601300996,-1.352778358294899, ,0.23963874130926963,0.16111535069349878,0.04376047120879121,0.02788568300089339,0.2039459166977976,-0.15697019551230124, ,1.0896918773651123
0.019763955817564353,0.02019743476177181,-0.0940783660955897, ,0.02034235353914204,0.019776646484341586,-0.09480257598905026, ,0.0012454738270644633, ,0.029063411258265223,-0.005850878568434383,-0.040349722979528796,0.001168023751396948,-0.02505456609684746,-0.015583494454930135, ,0.05112568275867402, ,0.03509295607509275, ,0.0011773157747934145, ,0.22747309681028294,-0.2061969677417944,0.10492560147,1.6173385340961361,0.2175253076265812,-1.3543679481102049, ,0.21765353568456597,0.1543039700137736,0.043640579506849325,0.02291503185402649,0.19222435448968786,-0.14659363656373744, ,1.0956449508666992
0.019763955817564353,0.02019743476177181,-0.0940783660955897, ,0.02048451770088803,0.019754605311408616,-0.09501990495841459, ,0.001265623474820814, ,0.029063411258265223,-0.005850878568434383,-0.040349722979528796,0.001168023751396948,-0.02505456609684746,-0.015583494454930135, ,0.05007009884666034, ,0.02507964526000466, ,0.0011785595452163357, ,0.22747309681028294,-0.2061969677417944,0.10492560147,1.6173385340961361,0.2175253076265812,-1.3543679481102049, ,0.21765353568456597,0.1543039700137736,0.043640579506849325,0.02291503185402649,0.19222435448968786,-0.14659363656373744, ,1.1009578704833984
0.020044625684430536,0.020140379612668135,-0.09447458051890521, ,0.020625883653418185,0.019732770625388783,-0.09523749141563395, ,0.0010421319251275212, ,0.02748564440437879,-0.0053947464694176885,-0.039940058195042,-0.021238209237728678,-0.02583379006501578,-0.015410861529370542, ,0.04878290875313397, ,0.03344165973315119, ,0.0011766647171595466, ,0.2295427892205751,-0.20469875756419487,0.10535337717000001,1.6173385340961361,0.21930158212353193,-1.3554896658976958, ,0.19894537014354458,0.14689929033819007,0.04305084194594595,0.019566698508257162,0.17295701031150648,-0.11760565606349793, ,1.1062679290771484
0.020044625684430536,0.020140379612668135,-0.09447458051890521, ,0.020766449803470526,0.019711160575169962,-0.0954553328541473, ,0.0012911755047481028, ,0.02748564440437879,-0.0053947464694176885,-0.039940058195042,-0.021238209237728678,-0.02583379006501578,-0.015410861529370542, ,0.04878290875313397, ,0.03344165973315119, ,0.001178233358085417, ,0.2295427892205751,-0.20469875756419487,0.10535337717000001,1.6173385340961361,0.21930158212353193,-1.3554896658976958, ,0.19894537014354458,0.14689929033819007,0.04305084194594595,0.019566698508257162,0.17295701031150648,-0.11760565606349793, ,1.111609935760498
0.020313372224986092,0.020085922334679547,-0.09487079640875157, ,0.020906214691955197,0.019689793087662697,-0.0956734266336384, ,0.0010735901680278348, ,0.026118597985953097,-0.005305540037553771,-0.039775703809075094,-0.02822866892343171,-0.00685814602082888,0.005304230570378024, ,0.04787939566608157, ,0.029048104155097516, ,0.001176819260922477, ,0.23147347243913122,-0.20323916105096643,0.10577985658000001,1.617548224039621,0.22107785662048265,-1.3566113836851872, ,0.18462439991920385,0.14356572096591644,0.04270458852546917,0.0,0.18174609360877442,-0.11164923769172252, ,1.1169188022613525
0.020313372224986092,0.020085922334679547,-0.09487079640875157, ,0.021045176993106485,0.01966868586871451,-0.09589176998114024, ,0.001323635721296016, ,0.026118597985953097,-0.005305540037553771,-0.039775703809075094,-0.02822866892343171,-0.00685814602082888,0.005304230570378024, ,0.04787939566608157, ,0.029048104155097516, ,0.0011787768137274572, ,0.23147347243913122,-0.20323916105096643,0.10577985658000001,1.617548224039621,0.22107785662048265,-1.3566113836851872, ,0.18462439991920385,0.14356572096591644,0.04270458852546917,0.0,0.18174609360877442,-0.11164923769172252, ,1.1222147941589355
0.020313372224986092,0.020085922334679547,-0.09487079640875157, ,0.02118333551363354,0.01964785640402271,-0.09611035999213918, ,0.0015764693972473009, ,0.025051683049790358,-0.004442729178058071,-0.04034685959998822,0.004780817419066215,0.022602467937703753,0.006070650285236172, ,0.04769899103500915, ,0.023100234946780974, ,0.0011840096108790342, ,0.23147347243913122,-0.20323916105096643,0.10577985658000001,1.617548224039621,0.22107785662048265,-1.3566113836851872, ,0.18462439991920385,0.14356572096591644,0.04270458852546917,0.0,0.18174609360877442,-0.11164923769172252, ,1.1276988983154297
0.02055735378058847,0.020039395780788193,-0.0952549543503792, ,0.021320689191871658,0.019627321960046712,-0.0963291936316787, ,0.001380751902894299, ,0.025051683049790358,-0.004442729178058071,-0.04034685959998822,0.004780817419066215,0.022602467937703753,0.006070650285236172, ,0.04769899103500915, ,0.023100234946780974, ,0.0011865647055805313, ,0.23318019640433485,-0.20190312826372558,0.10619207680000001,1.6177579139831053,0.2229907676171988,-1.3578445193763746, ,0.17253989374267414,0.1347967919864642,0.043284813913043486,0.004570799090462441,0.19854146169004172,-0.13501867678370943, ,1.1332919597625732
0.020824361900296778,0.019996341665858487,-0.0956965263039901, ,0.021457237096933045,0.019607099584920774,-0.09654826773546243, ,0.0011302671711487754, ,0.02436183244364309,-0.0036669750859034045,-0.0404626972449203,-0.011464490344233223,0.006128577624269013,0.0003812903618072969, ,0.04737272901814775, ,0.0129955970010638, ,0.0011858429423185857, ,0.2349641476982807,-0.2004898681477425,0.10666522265000002,1.61796760392659,0.22490367861391497,-1.359159333807703, ,0.16111535069349878,0.12585801267701696,0.0434027561852861,0.005869674811224005,0.16972931326517837,-0.10967486687222368, ,1.1386198997497559
0.020824361900296778,0.019996341665858487,-0.0956965263039901, ,0.021592978427858688,0.01958720610936859,-0.09676757901095961, ,0.0013803322683804613, ,0.02436183244364309,-0.0036669750859034045,-0.0404626972449203,-0.011464490344233223,0.006128577624269013,0.0003812903618072969, ,0.04737272901814775, ,0.0129955970010638, ,0.0011883048325219004, ,0.2349641476982807,-0.2004898681477425,0.10666522265000002,1.61796760392659,0.22490367861391497,-1.359159333807703, ,0.16111535069349878,0.12585801267701696,0.0434027561852861,0.005869674811224005,0.16972931326517837,-0.10967486687222368, ,1.143927812576294
0.021053938460156758,0.019962796082412637,-0.09609153418702888, ,0.021727912512768705,0.019567658147614433,-0.09698712403850739, ,0.001188468002590749, ,0.023659932598095002,-0.003388437046525834,-0.041544825275966854,-0.026370845833456384,0.009476450124647644,-0.0007828459670522964, ,0.0479295986147942, ,0.028019651241365216, ,0.001188306872147761, ,0.23644691241013183,-0.1992928445522377,0.10708781319,1.61796760392659,0.22654331661110025,-1.3600062762112166, ,0.14944400245428469,0.12388634668207675,0.044369948523676886,0.005279921279787448,0.16129684064770558,-0.0929354008514565, ,1.149163007736206
0.021053938460156758,0.019962796082412637,-0.09609153418702888, ,0.021862038808013677,0.019548472098296993,-0.09720689927241513, ,0.0014383079676198016, ,0.023659932598095002,-0.003388437046525834,-0.041544825275966854,-0.026370845833456384,0.009476450124647644,-0.0007828459670522964, ,0.0479295986147942, ,0.028019651241365216, ,0.0011913933054251936, ,0.23644691241013183,-0.1992928445522377,0.10708781319,1.61796760392659,0.22654331661110025,-1.3600062762112166, ,0.14944400245428469,0.12388634668207675,0.044369948523676886,0.005279921279787448,0.16129684064770558,-0.0929354008514565, ,1.1544299125671387
0.02129618643691808,0.019931307870987142,-0.09652356269595347, ,0.02199535689732567,0.019529664145381823,-0.09742690104206816, ,0.00121085803568623, ,0.023145784399001015,-0.0026588888634007397,-0.04277015656481055,-0.04038993658898974,0.030462821223154593,0.003283378603764417, ,0.0487040380051938, ,0.05058841105688405, ,0.0011916306801844747, ,0.2379528453206056,-0.19804948455948754,0.10754929243000001,1.61796760392659,0.22818295460828555,-1.360934897354871, ,0.14121568684296246,0.1178843994515165,0.04564129375358167,0.004767643382123878,0.17437787094943574,-0.07315953054104835, ,1.159740924835205
0.02129618643691808,0.019931307870987142,-0.09652356269595347, ,0.022127866490969227,0.01951125025907472,-0.0976471255530317, ,0.0014596347500103902, ,0.023145784399001015,-0.0026588888634007397,-0.04277015656481055,-0.04038993658898974,0.030462821223154593,0.003283378603764417, ,0.0487040380051938, ,0.05058841105688405, ,0.0011948596448811723, ,0.2379528453206056,-0.19804948455948754,0.10754929243000001,1.61796760392659,0.22818295460828555,-1.360934897354871, ,0.14121568684296246,0.1178843994515165,0.04564129375358167,0.004767643382123878,0.17437787094943574,-0.07315953054104835, ,1.1651959419250488
0.021522445687225382,0.019907104608762112,-0.09695616630023404, ,0.0222595674248925,0.019493246196734725,-0.09786756888815477, ,0.0012430936885914233, ,0.023145784399001015,-0.0026588888634007397,-0.04277015656481055,-0.04038993658898974,0.030462821223154593,0.003283378603764417, ,0.0487040380051938, ,0.05058841105688405, ,0.0011954338596872466, ,0.2393352145050918,-0.19689107462835387,0.10801077167,1.61796760392659,0.23036913860453262,-1.3623908688534514, ,0.13107312369954527,0.11151226975143451,0.04564129375358167,0.004353254889716677,0.18066502049018127,-0.13500184786574304, ,1.1707158088684082
0.02173692923655006,0.019886040228426848,-0.09736117439093019, ,0.02239045965987783,0.019475667503786143,-0.09808822700867241, ,0.0010602420932550416, ,0.021631954617217543,-0.0020983209273908333,-0.04100022391146418,-0.06977594341603033,-0.02963120002391102,-0.010532716527916468, ,0.046404340013256135, ,0.07580616356926034, ,0.0011938433683174562, ,0.2405708517649677,-0.1958330602245851,0.10844243624000001,1.61796760392659,0.23159886710242156,-1.3629035575458759, ,0.12088782364136405,0.10626757173400983,0.043640579506849325,0.004015057681246727,0.09235293342970687,-0.03254078735357375, ,1.1760859489440918
0.02173692923655006,0.019886040228426848,-0.09736117439093019, ,0.02252054328069366,0.01945852951463369,-0.09830909575531259, ,0.0013020642432843405, ,0.021631954617217543,-0.0020983209273908333,-0.04100022391146418,-0.06977594341603033,-0.02963120002391102,-0.010532716527916468, ,0.046404340013256135, ,0.07580616356926034, ,0.001195101750584513, ,0.2405708517649677,-0.1958330602245851,0.10844243624000001,1.61796760392659,0.23159886710242156,-1.3629035575458759, ,0.12088782364136405,0.10626757173400983,0.043640579506849325,0.004015057681246727,0.09235293342970687,-0.03254078735357375, ,1.181401014328003
0.021947554896665,0.019862763998476713,-0.09776856976527629, ,0.022649818495243612,0.019441847353570806,-0.09853017084939489, ,0.0011182044514211416, ,0.020979614980552987,-0.002133711506819403,-0.0413899679216917,0.02022376913980295,0.029377313300334554,0.0012173263120036915, ,0.04645241020749349, ,0.03566378980382041, ,0.001194217873582635, ,0.24175242989472406,-0.1947596003550679,0.10887539710000001,1.61796760392659,0.23282859560031052,-1.363824639939003, ,0.11759224480603565,0.10638670578303898,0.04400224176795581,0.0037197347997826873,0.14927915075944156,-0.12271866778502825, ,1.1867358684539795
0.021947554896665,0.019862763998476713,-0.09776856976527629, ,0.022778285633719916,0.019425635935698904,-0.09875144789393996, ,0.0013591335168264668, ,0.020979614980552987,-0.002133711506819403,-0.0413899679216917,0.02022376913980295,0.029377313300334554,0.0012173263120036915, ,0.04645241020749349, ,0.03566378980382041, ,0.0011960919149831334, ,0.24175242989472406,-0.1947596003550679,0.10887539710000001,1.61796760392659,0.23282859560031052,-1.363824639939003, ,0.11759224480603565,0.10638670578303898,0.04400224176795581,0.0037197347997826873,0.14927915075944156,-0.12271866778502825, ,1.1919848918914795
0.02215795590358574,0.019843633244815733,-0.09818897353695118, ,0.02290594514775246,0.019409909967835707,-0.09897292237476939, ,0.0011671244880902443, ,0.020477233630498682,-0.0016988980721413102,-0.04084835083898072,0.04539284515905054,0.05056842827378554,0.006383800458131584, ,0.04572516941556377, ,0.06795264969332239, ,0.0011957664382764716, ,0.24292628529160618,-0.19370930868417338,0.10932261715000001,1.61796760392659,0.2344682335974958,-1.36516165478336, ,0.11460983280008549,0.10020796363090896,0.04352134295081967,0.003459701911656582,0.16787555290746672,-0.14192435565935238, ,1.1972558498382568
0.02215795590358574,0.019843633244815733,-0.09818897353695118, ,0.023032797609560205,0.019394683949428667,-0.09919458966160936, ,0.0014064733451130188, ,0.020477233630498682,-0.0016988980721413102,-0.04084835083898072,0.04539284515905054,0.05056842827378554,0.006383800458131584, ,0.04572516941556377, ,0.06795264969332239, ,0.001198107626130211, ,0.24292628529160618,-0.19370930868417338,0.10932261715000001,1.61796760392659,0.2344682335974958,-1.36516165478336, ,0.11460983280008549,0.10020796363090896,0.04352134295081967,0.003459701911656582,0.16787555290746672,-0.14192435565935238, ,1.2027928829193115
0.022359753020177155,0.019825337852576647,-0.09858651378287128, ,0.023158843711102568,0.019379972173470403,-0.09941644500919725, ,0.0012351851524691905, ,0.019439135116840072,-0.0018538830493271426,-0.03668870066100474,0.007479399856748725,0.01712756554644791,0.00030065975552030273, ,0.04156173255103975, ,0.01868765496947691, ,0.0011985150714745954, ,0.24406152702411718,-0.19272079887627264,0.10974650398000001,1.61796760392659,0.23610787159468108,-1.3664169908875765, ,0.11021712143840974,0.09276338373262051,0.03923352591133005,0.0032381074745105403,0.1292778302619887,-0.09678772875873518, ,1.208141803741455
0.022359753020177155,0.019825337852576647,-0.09858651378287128, ,0.0232840842632295,0.0193657887274082,-0.0996384835583812, ,0.0014738432935397746, ,0.019439135116840072,-0.0018538830493271426,-0.03668870066100474,0.007479399856748725,0.01712756554644791,0.00030065975552030273, ,0.04156173255103975, ,0.01868765496947691, ,0.0012015077695405212, ,0.24406152702411718,-0.19272079887627264,0.10974650398000001,1.61796760392659,0.23610787159468108,-1.3664169908875765, ,0.11021712143840974,0.09276338373262051,0.03923352591133005,0.0032381074745105403,0.1292778302619887,-0.09678772875873518, ,1.2133839130401611
0.022557167307070445,0.01980266641716967,-0.09895051034202158, ,0.023408520194833107,0.019352147494059953,-0.0998607003372279, ,0.0013252225726101366, ,0.0205194004428521,-0.0028584784306558224,-0.03702549380660725,-0.044464610551969506,-0.03519837739000787,-0.011806987781181524, ,0.04242763115112315, ,0.05670941526099354, ,0.0012028380362401946, ,0.24516587782513127,-0.1917631799998688,0.11013539098000001,1.61796760392659,0.23706432709303918,-1.3671152374733109, ,0.11460983280008549,0.10248049844327299,0.039525586898263035,0.0030407699943421625,0.08040636081862171,-0.05426460402165071, ,1.2186529636383057
0.022557167307070445,0.01980266641716967,-0.09895051034202158, ,0.023532152551998222,0.019339062152525403,-0.10008309026212289, ,0.0015646924354134003, ,0.0205194004428521,-0.0028584784306558224,-0.03702549380660725,-0.044464610551969506,-0.03519837739000787,-0.011806987781181524, ,0.04242763115112315, ,0.05670941526099354, ,0.001206687551125016, ,0.24516587782513127,-0.1917631799998688,0.11013539098000001,1.61796760392659,0.23706432709303918,-1.3671152374733109, ,0.11460983280008549,0.10248049844327299,0.039525586898263035,0.0030407699943421625,0.08040636081862171,-0.05426460402165071, ,1.2239248752593994
0.022770894378455774,0.019780278213560987,-0.09935489530415054, ,0.023654982497152626,0.0193265461790979,-0.10030564813887473, ,0.0013752874293961384, ,0.021808178327432464,-0.0011437713249123804,-0.043606761609567175,0.010017227131353201,0.022299440351128796,0.0010450617390912892, ,0.048769401399631804, ,0.02444283539349258, ,0.0012084622866857645, ,0.24624706042752273,-0.19080556112346497,0.11053464830000001,1.61796760392659,0.2381574190911627,-1.3680065807028825, ,0.11601093100057551,0.09978647903098925,0.04671205724340176,0.0028810628760979028,0.1397770548074819,-0.10421872624212866, ,1.2292349338531494
0.022770894378455774,0.019780278213560987,-0.09935489530415054, ,0.023777011308219687,0.01931461284818203,-0.100528368663822, ,0.0016143590786221389, ,0.021808178327432464,-0.0011437713249123804,-0.043606761609567175,0.010017227131353201,0.022299440351128796,0.0010450617390912892, ,0.048769401399631804, ,0.02444283539349258, ,0.001212690378268435, ,0.24624706042752273,-0.19080556112346497,0.11053464830000001,1.61796760392659,0.2381574190911627,-1.3680065807028825, ,0.11601093100057551,0.09978647903098925,0.04671205724340176,0.0028810628760979028,0.1397770548074819,-0.10421872624212866, ,1.2395298480987549
0.023091380903102737,0.01977202220757071,-0.09999860522092942, ,0.023898240377766902,0.01930327523320014,-0.10075124642493133, ,0.001198838904856838, ,0.022341891839571935,-0.0007313230876938775,-0.04336146792102326,0.01837122977165913,0.019395493882843038,0.005063599690632569, ,0.04878434036343685, ,0.02671205671873673, ,0.0012125475795734702, ,0.24803101172146858,-0.18937685554173342,0.11125668183000001,1.6181772938700745,0.24048023958717518,-1.3699006850657214, ,0.11951755863787251,0.09258238200826417,0.04657547228070176,0.0,0.14163862924704676,-0.10815616452564296, ,1.2451128959655762
0.023091380903102737,0.01977202220757071,-0.09999860522092942, ,0.024018671212158664,0.019292546207510797,-0.10097427590290627, ,0.0014288799220269206, ,0.022341891839571935,-0.0007313230876938775,-0.04336146792102326,0.01837122977165913,0.019395493882843038,0.005063599690632569, ,0.04878434036343685, ,0.02671205671873673, ,0.0012147550524556482, ,0.24803101172146858,-0.18937685554173342,0.11125668183000001,1.6181772938700745,0.24048023958717518,-1.3699006850657214, ,0.11951755863787251,0.09258238200826417,0.04657547228070176,0.0,0.14163862924704676,-0.10815616452564296, ,1.2504088878631592
0.0233186227624288,0.019760471519455258,-0.10042282565390155, ,0.024138305430705786,0.019282438445317684,-0.10119745147228669, ,0.0012249246732562544, ,0.021204271842186328,-0.0016717404135084516,-0.039038055291107945,-0.029547104275150827,-0.03270037825091895,0.0018837804812900933, ,0.04445655881058603, ,0.04407102725768434, ,0.0012148577758980786, ,0.24925120351559604,-0.1884269593982038,0.11171297591000001,1.618386983813559,0.2415733315852987,-1.370792028295293, ,0.1131072009040176,0.09222248936683264,0.04191792505263159,-0.008709207988266009,0.08364666627041947,-0.06194051073432939, ,1.256119966506958
0.023537715904220883,0.01973926062005588,-0.10082675984090612, ,0.024257144764817218,0.019272964422585553,-0.10142076740255568, ,0.0010430028823215564, ,0.021629600517635073,-0.002106674982655218,-0.039479577810494396,-0.03846493477548053,-0.040843475577788876,-0.0007385355362804101, ,0.04506567165958925, ,0.056103875043199025, ,0.0012131392269623133, ,0.25040961344672974,-0.18743844959030306,0.11214593677000001,1.618386983813559,0.24239315058389135,-1.3714605357174716, ,0.1144715820970697,0.09643998125860852,0.04236386042553192,-0.008640562959973194,0.07670395936936356,-0.057073898081936005, ,1.2615878582000732
0.023537715904220883,0.01973926062005588,-0.10082675984090612, ,0.024375191057150213,0.01926413641795075,-0.10164421785924066, ,0.0012630697727914577, ,0.021629600517635073,-0.002106674982655218,-0.039479577810494396,-0.03846493477548053,-0.040843475577788876,-0.0007385355362804101, ,0.04506567165958925, ,0.056103875043199025, ,0.0012136335888022058, ,0.25040961344672974,-0.18743844959030306,0.11214593677000001,1.618386983813559,0.24239315058389135,-1.3714605357174716, ,0.1144715820970697,0.09643998125860852,0.04236386042553192,-0.008640562959973194,0.07670395936936356,-0.057073898081936005, ,1.266855001449585
0.023738347545961054,0.01972001618884345,-0.10118695990024452, ,0.02449244626076148,0.01925596651363537,-0.10186779690501822, ,0.0011169359873303398, ,0.020681340092217202,-0.0019787604475499736,-0.036725749327142475,-0.006297168313765831,-0.010300588133389063,0.006241749342223049, ,0.04219495212177453, ,0.012070196056471997, ,0.0012126855731015012, ,0.25149079604912117,-0.18655805804264147,0.11253352748,1.618386983813559,0.243212969582484,-1.37212904313965, ,0.11392189862961677,0.08960995425729064,0.03962390925373134,-0.008124267186124147,0.10716506503847725,-0.08248416505600946, ,1.2721288204193115
0.023738347545961054,0.01972001618884345,-0.10118695990024452, ,0.024608912438257927,0.019248466596359766,-0.10209149850081718, ,0.0013410564230476422, ,0.020681340092217202,-0.0019787604475499736,-0.036725749327142475,-0.006297168313765831,-0.010300588133389063,0.006241749342223049, ,0.04219495212177453, ,0.012070196056471997, ,0.001213931892033017, ,0.25149079604912117,-0.18655805804264147,0.11253352748,1.618386983813559,0.243212969582484,-1.37212904313965, ,0.11392189862961677,0.08960995425729064,0.03962390925373134,-0.008124267186124147,0.10716506503847725,-0.08248416505600946, ,1.2774178981781006
0.02394800615988249,0.019698064852910997,-0.10155124984686875, ,0.024724591760947472,0.019241648358256504,-0.10231531650692337, ,0.0011811854525776932, ,0.02032010310418573,-0.0025787537750994066,-0.03416830795445316,0.00838627174196349,0.00393201412424788,0.008896807973885234, ,0.03983754296725232, ,0.00925979036535537, ,0.0012136170224228697, ,0.2526723741788775,-0.185646775563483,0.11292759964000001,1.618386983813559,0.24444269808037297,-1.373131804272918, ,0.11730153468290579,0.09012055228724672,0.037043747720930234,-0.0076298832604447826,0.12499651773108837,-0.09752450277910595, ,1.2826929092407227
0.02394800615988249,0.019698064852910997,-0.10155124984686875, ,0.024839486507989783,0.01923552329778156,-0.10253924468408114, ,0.00140883487309244, ,0.02032010310418573,-0.0025787537750994066,-0.03416830795445316,0.00838627174196349,0.00393201412424788,0.008896807973885234, ,0.03983754296725232, ,0.00925979036535537, ,0.0012154762400482942, ,0.2526723741788775,-0.185646775563483,0.11292759964000001,1.618386983813559,0.24444269808037297,-1.373131804272918, ,0.11730153468290579,0.09012055228724672,0.037043747720930234,-0.0076298832604447826,0.12499651773108837,-0.09752450277910595, ,1.287992000579834
0.02416390016871293,0.019673919939304254,-0.10191965786448137, ,0.02495359906554708,0.019230102720628185,-0.10276327669459859, ,0.001237857343066145, ,0.022020657883394485,-0.0018823604026030035,-0.03918170433327827,0.0014232596664927341,-0.004843457365341783,0.0064587945677861925, ,0.04498509318388958, ,0.005039087381796262, ,0.0012156873825295946, ,0.25389256597300497,-0.18471232488570183,0.11332685696000001,1.618386983813559,0.24567242657826194,-1.3741345654061856, ,0.11951755863787251,0.0921329529693891,0.04236386042553192,-0.007200578216479553,0.11820277159172146,-0.09238499046247572, ,1.293245792388916
0.02416390016871293,0.019673919939304254,-0.10191965786448137, ,0.025066931925934895,0.01922539774064033,-0.10298740610345035, ,0.0014685791837919608, ,0.022020657883394485,-0.0018823604026030035,-0.03918170433327827,0.0014232596664927341,-0.004843457365341783,0.0064587945677861925, ,0.04498509318388958, ,0.005039087381796262, ,0.0012180508573077474, ,0.25389256597300497,-0.18471232488570183,0.11332685696000001,1.618386983813559,0.24567242657826194,-1.3741345654061856, ,0.11951755863787251,0.0921329529693891,0.04236386042553192,-0.007200578216479553,0.11820277159172146,-0.09238499046247572, ,1.298508882522583
0.02439355573898757,0.019661311889053908,-0.10234329768192214, ,0.025179487686772885,0.01922141928072409,-0.10321162637938162, ,0.00125107524163997, ,0.022573306722114602,-0.0008655302187772573,-0.04240614901506326,0.002266817524790823,-0.006745516793446667,0.005807999701838414, ,0.04804773452742628, ,0.007106569130538898, ,0.001218356638644157, ,0.255097312301384,-0.1837933196736691,0.11378444733000001,1.618386983813559,0.2469021550761509,-1.3750556477993128, ,0.11530612583046268,0.08762413809646424,0.04577244689655173,-0.006812271166287475,0.1118753998510742,-0.08874975679789326, ,1.3037769794464111
0.02439355573898757,0.019661311889053908,-0.10234329768192214, ,0.025291269050135658,0.019218178073761406,-0.10343593089601018, ,0.0014819258104900198, ,0.022573306722114602,-0.0008655302187772573,-0.04240614901506326,0.002266817524790823,-0.006745516793446667,0.005807999701838414, ,0.04804773452742628, ,0.007106569130538898, ,0.0012207747044409082, ,0.255097312301384,-0.1837933196736691,0.11378444733000001,1.618386983813559,0.2469021550761509,-1.3750556477993128, ,0.11530612583046268,0.08762413809646424,0.04577244689655173,-0.006812271166287475,0.1118753998510742,-0.08874975679789326, ,1.3091318607330322
0.02461434391491462,0.019654496896671064,-0.10276421257258443, ,0.02540227882170335,0.019215684663524496,-0.10366031293293353, ,0.0012713746297268254, ,0.022912334739468614,-0.0006459302209287478,-0.04459671722074366,-0.007595239879268547,-0.01618227993383897,0.0023955145134664283, ,0.05014239220391009, ,0.01787113444167035, ,0.0012212347037616892, ,0.25619394036952386,-0.1829438190575044,0.11423814883000001,1.618386983813559,0.24785861057450898,-1.3757538943850471, ,0.11099057492218804,0.08860592115636862,0.047978347951807235,-0.006484559198991986,0.09778599020842678,-0.07973791818880746, ,1.3145229816436768
0.02461434391491462,0.019654496896671064,-0.10276421257258443, ,0.025512519909912657,0.019213949405585004,-0.10388476567682745, ,0.0015021456218761177, ,0.022912334739468614,-0.0006459302209287478,-0.04459671722074366,-0.007595239879268547,-0.01618227993383897,0.0023955145134664283, ,0.05014239220391009, ,0.01787113444167035, ,0.001223765432753711, ,0.25619394036952386,-0.1829438190575044,0.11423814883000001,1.618386983813559,0.24785861057450898,-1.3757538943850471, ,0.11099057492218804,0.08860592115636862,0.047978347951807235,-0.006484559198991986,0.09778599020842678,-0.07973791818880746, ,1.319875955581665
0.024847587890528527,0.01964740413156661,-0.10322534208443335, ,0.02562199532510742,0.019212982468230905,-0.1041092822225539, ,0.0012529083063365064, ,0.023220752456654788,-0.0006484223008282959,-0.04590492381477521,-0.010531060184589242,-0.016874451596745662,-0.004520527732806204, ,0.051447894287072304, ,0.01988583671971161, ,0.0012240256369821288, ,0.257298291170538,-0.18203253657834592,0.11473333161000002,1.6181772938700745,0.24881506607286705,-1.376533819710922, ,0.10932827368487416,0.0902062182114741,0.04931520594427245,-0.0005253273873888153,0.09425384770635323,-0.07685769281847339, ,1.3251299858093262
0.024847587890528527,0.01964740413156661,-0.10322534208443335, ,0.025730708178689228,0.019212793833377578,-0.1043338555742625, ,0.0014824269667630208, ,0.023220752456654788,-0.0006484223008282959,-0.04590492381477521,-0.010531060184589242,-0.016874451596745662,-0.004520527732806204, ,0.051447894287072304, ,0.01988583671971161, ,0.0012263123744138181, ,0.257298291170538,-0.18203253657834592,0.11473333161000002,1.6181772938700745,0.24881506607286705,-1.376533819710922, ,0.10932827368487416,0.0902062182114741,0.04931520594427245,-0.0005253273873888153,0.09425384770635323,-0.07685769281847339, ,1.3305509090423584
0.025072953569187272,0.019644244965765327,-0.10367006244297695, ,0.02583866168226872,0.019213393297479606,-0.10455847864649381, ,0.0012494900660568091, ,0.023779067637575445,3.2425827441759847e-05,-0.04712670153698187,-0.017136986436853453,-0.03042649618969794,-0.006031042807422544, ,0.05278608819473595, ,0.034917266810049745, ,0.0012265156874984057, ,0.25834858284143253,-0.18119075869505544,0.11521166262000002,1.6181772938700745,0.2496348850714597,-1.3772023271331006, ,0.10932827368487416,0.08541578898152184,0.05072869910828026,-0.0005592480965627403,0.08044938139088403,-0.06560107616657009, ,1.336122989654541
0.025072953569187272,0.019644244965765327,-0.10367006244297695, ,0.025945859146815617,0.019214790472446522,-0.10478314426528433, ,0.001478291734549543, ,0.023779067637575445,3.2425827441759847e-05,-0.04712670153698187,-0.017136986436853453,-0.03042649618969794,-0.006031042807422544, ,0.05278608819473595, ,0.034917266810049745, ,0.0012287050444292854, ,0.25834858284143253,-0.18119075869505544,0.11521166262000002,1.6181772938700745,0.2496348850714597,-1.3772023271331006, ,0.10932827368487416,0.08541578898152184,0.05072869910828026,-0.0005592480965627403,0.08044938139088403,-0.06560107616657009, ,1.3414089679718018
0.025319684801951188,0.01964477482296326,-0.10414936042084098, ,0.026052303981661674,0.01921699478698902,-0.10500784516976946, ,0.0012069476731824732, ,0.022803264221060722,-0.0001536259296873635,-0.044190522786372706,-0.010332110691537343,-0.02451656085111886,-0.0044278057982164625, ,0.04972740455920363, ,0.026601611784650658, ,0.001228517480884054, ,0.259499270039692,-0.1803258126131423,0.11572888233,1.6181772938700745,0.2504547040700523,-1.3778708345552793, ,0.10674571603877478,0.08124738147129348,0.047691052455089825,-0.0005927496881256814,0.08383462365592743,-0.06836151424368087, ,1.3477678298950195
0.025541112461923685,0.01963547247442275,-0.10456456629498732, ,0.02615799969422828,0.019220015485763194,-0.1052325740112606, ,0.00099969429117462, ,0.0210862606030291,-0.0014000581093134826,-0.03914897592108505,-0.018514106702312367,-0.027311605015701894,-0.0064988081705017724, ,0.04448857004442836, ,0.03299399877051523, ,0.0012265617271258538, ,0.26056500717633496,-0.17949175746272605,0.11617739867000001,1.6181772938700745,0.251274523068645,-1.3785393419774576, ,0.10182075274514032,0.0830971467237047,0.04225148944297083,-0.0006147664160051023,0.0759697449625316,-0.06194823303149298, ,1.353118896484375
0.025541112461923685,0.01963547247442275,-0.10456456629498732, ,0.02626294988833681,0.0192238616329783,-0.10545732335742486, ,0.0012196261425114789, ,0.0210862606030291,-0.0014000581093134826,-0.03914897592108505,-0.018514106702312367,-0.027311605015701894,-0.0064988081705017724, ,0.04448857004442836, ,0.03299399877051523, ,0.001226502950985054, ,0.26056500717633496,-0.17949175746272605,0.11617739867000001,1.6181772938700745,0.251274523068645,-1.3785393419774576, ,0.10182075274514032,0.0830971467237047,0.04225148944297083,-0.0006147664160051023,0.0759697449625316,-0.06194823303149298, ,1.3583238124847412
0.02574557710329216,0.019618884877842697,-0.10494168024014569, ,0.026367158263902454,0.019228542111485496,-0.10568208569131388, ,0.0010425597568449472, ,0.019643478685092693,-0.0016431466451148672,-0.036372531761652976,-0.01592600175932505,-0.020998561201735752,-0.005899773131324081, ,0.04137060855851045, ,0.026353622984911736, ,0.0012249572098578263, ,0.26156123971710993,-0.17866542504518404,0.11658443373,1.6181772938700745,0.25209434206723763,-1.379207849399636, ,0.09470752650545987,0.07974532904073174,0.03923352591133005,-0.0006297431399304164,0.0751496657332326,-0.061279513408622616, ,1.3635838031768799
0.02574557710329216,0.019618884877842697,-0.10494168024014569, ,0.02647062861595347,0.019234065624153876,-0.10590685341299168, ,0.0012670220233301631, ,0.019643478685092693,-0.0016431466451148672,-0.036372531761652976,-0.01592600175932505,-0.020998561201735752,-0.005899773131324081, ,0.04137060855851045, ,0.026353622984911736, ,0.0012253077499700955, ,0.26156123971710993,-0.17866542504518404,0.11658443373,1.6181772938700745,0.25209434206723763,-1.379207849399636, ,0.09470752650545987,0.07974532904073174,0.03923352591133005,-0.0006297431399304164,0.0751496657332326,-0.061279513408622616, ,1.3688828945159912
0.02594239302939707,0.019606339347397597,-0.10531294733969031, ,0.02657336483378191,0.01924044069478317,-0.10613161884063844, ,0.0010964626160423307, ,0.019344499991415777,-0.0009955716915665022,-0.037084774363261554,0.007113806586914965,0.00391439457795652,-0.0005235368438348536, ,0.04183875395473621, ,0.008115330372715423, ,0.0012242429141525106, ,0.26249569039489107,-0.17789315175776158,0.11698498734000001,1.6181772938700745,0.25291416106583026,-1.3798763568218146, ,0.0914228724070046,0.07448739525782637,0.040022139497487445,-0.0006388729520338914,0.09715860213186753,-0.07922632528051166, ,1.3743658065795898
0.02594239302939707,0.019606339347397597,-0.10531294733969031, ,0.026675370900094565,0.01924767566901698,-0.10635637421165413, ,0.0013246266758064151, ,0.019344499991415777,-0.0009955716915665022,-0.037084774363261554,0.007113806586914965,0.00391439457795652,-0.0005235368438348536, ,0.04183875395473621, ,0.008115330372715423, ,0.0012250657318709853, ,0.26249569039489107,-0.17789315175776158,0.11698498734000001,1.6181772938700745,0.25291416106583026,-1.3798763568218146, ,0.0914228724070046,0.07448739525782637,0.040022139497487445,-0.0006388729520338914,0.09715860213186753,-0.07922632528051166, ,1.3797450065612793
0.026129591585448628,0.019598603189844327,-0.10568251328237603, ,0.02677665089016358,0.01925577871525543,-0.106581111683762, ,0.001159177920411171, ,0.018636105368547963,-0.0010254866536344312,-0.036362591637212234,-0.005852756208027596,-0.007022510641107944,-0.003558738575334482, ,0.04087290198602323, ,0.009138207577236908, ,0.0012245300586070842, ,0.26335291374393,-0.17717493760045872,0.11738294837000002,1.6181772938700745,0.25387061656418836,-1.3806562821476898, ,0.08533897622164638,0.0731101244672348,0.039525586898263035,-0.0006437579270240123,0.0792035215824717,-0.06458516103122029, ,1.3851428031921387
0.026129591585448628,0.019598603189844327,-0.10568251328237603, ,0.0268772089709771,0.019264757825568184,-0.10680582333611209, ,0.0013900395531126475, ,0.018636105368547963,-0.0010254866536344312,-0.036362591637212234,-0.005852756208027596,-0.007022510641107944,-0.003558738575334482, ,0.04087290198602323, ,0.009138207577236908, ,0.0012258648125950324, ,0.26335291374393,-0.17717493760045872,0.11738294837000002,1.6181772938700745,0.25387061656418836,-1.3806562821476898, ,0.08533897622164638,0.0731101244672348,0.039525586898263035,-0.0006437579270240123,0.0792035215824717,-0.06458516103122029, ,1.3905079364776611
0.026310567294760945,0.019590707242760293,-0.10603707393811612, ,0.026977049400390123,0.01927462081660732,-0.10703050117038448, ,0.0012373385517854207, ,0.018595616041208914,-0.0005150947996054818,-0.03707839161545796,-0.037721058421260736,-0.04399063288484399,-0.010754616484449135, ,0.04148336273006215, ,0.05794811427786402, ,0.0012259566025085555, ,0.2641406324971009,-0.1764876143746527,0.11776405763000002,1.6181772938700745,0.25428052606348467,-1.3809088571186385, ,0.07855707082654866,0.06871610540077536,0.039822028800000006,-0.0006455763503088132,0.03529476449432212,-0.028780513831714073, ,1.3958208560943604
0.026310567294760945,0.019590707242760293,-0.10603707393811612, ,0.02707617652627514,0.01928537533052022,-0.10725513711189308, ,0.001470735519161595, ,0.018595616041208914,-0.0005150947996054818,-0.03707839161545796,-0.037721058421260736,-0.04399063288484399,-0.010754616484449135, ,0.04148336273006215, ,0.05794811427786402, ,0.0012278992923232623, ,0.2641406324971009,-0.1764876143746527,0.11776405763000002,1.6181772938700745,0.25428052606348467,-1.3809088571186385, ,0.07855707082654866,0.06871610540077536,0.039822028800000006,-0.0006455763503088132,0.03529476449432212,-0.028780513831714073, ,1.4010488986968994
0.02651815948551177,0.0195924576948783,-0.10647851910552451, ,0.027174594785672922,0.019297028835862606,-0.10747972301068952, ,0.0012331239896111966, ,0.019558387213686104,0.0009361493239656924,-0.04434973603070798,0.01588820385077291,0.025212072273494018,0.0018628279590467603, ,0.048479954331153395, ,0.029797852849793968, ,0.0012279404316719862, ,0.2649824103803914,-0.17574623201872716,0.11823720348000001,1.6181772938700745,0.25510034506207735,-1.3814140070605359, ,0.0743124052924595,0.06701761409496525,0.04740717714285715,-0.0006448095273541208,0.10139218754828169,-0.08073728623510219, ,1.4062938690185547
0.02651815948551177,0.0195924576948783,-0.10647851910552451, ,0.027272308703943177,0.019309588628511246,-0.1077042506426655, ,0.0014666880218744858, ,0.019558387213686104,0.0009361493239656924,-0.04434973603070798,0.01588820385077291,0.025212072273494018,0.0018628279590467603, ,0.048479954331153395, ,0.029797852849793968, ,0.0012298056472204433, ,0.2649824103803914,-0.17574623201872716,0.11823720348000001,1.6181772938700745,0.25510034506207735,-1.3814140070605359, ,0.0743124052924595,0.06701761409496525,0.04740717714285715,-0.0006448095273541208,0.10139218754828169,-0.08073728623510219, ,1.4115447998046875
0.02671391662691125,0.019605808977403282,-0.10693706431268832, ,0.027369322893915422,0.01932306183257706,-0.10792871171065735, ,0.0012218297281677494, ,0.019932101970871616,0.0018881277369597784,-0.04638278313453262,0.02344509613108884,0.029594330680858746,0.0036380001441932096, ,0.0505194644333586, ,0.03775291067962189, ,0.0012297438183905775, ,0.2657160700034427,-0.17508979972441807,0.11872720110000001,1.6181772938700745,0.2564667100597317,-1.3825281860975, ,0.07227489836898002,0.06130293382330153,0.04962246579439253,-0.000642094411331372,0.10375882128123713,-0.0827629477154565, ,1.4168767929077148
0.02691678710045386,0.019627733824355727,-0.10739864794228954, ,0.02746564205503935,0.01933745540131785,-0.10815309784554945, ,0.0009770864754888849, ,0.019920893054504264,0.002515819318876429,-0.0462850939049071,-0.04008082946742348,-0.045413005416782774,-0.01013823996808817, ,0.05045276250831362, ,0.06056898155593532, ,0.0012278003003682568, ,0.2664111159621229,-0.17451059475885125,0.11922108759000001,1.6181772938700745,0.2567399830592626,-1.3825876644246118, ,0.06513173751439313,0.05485372344420276,0.04946835875776398,-0.0006379085759867502,0.02017151273798542,-0.013002670186172698, ,1.4227747917175293
0.02691678710045386,0.019627733824355727,-0.10739864794228954, ,0.027561270972536033,0.019352776118051387,-0.10837740060737697, ,0.001203710090115522, ,0.019920893054504264,0.002515819318876429,-0.0462850939049071,-0.04008082946742348,-0.045413005416782774,-0.01013823996808817, ,0.05045276250831362, ,0.06056898155593532, ,0.001227616405633503, ,0.2664111159621229,-0.17451059475885125,0.11922108759000001,1.6181772938700745,0.2567399830592626,-1.3825876644246118, ,0.06513173751439313,0.05485372344420276,0.04946835875776398,-0.0006379085759867502,0.02017151273798542,-0.013002670186172698, ,1.428074836730957
0.027113430970367638,0.019652749882371826,-0.10786217936180549, ,0.027656214516548202,0.01936903059706822,-0.10860161148643045, ,0.0009601408635116627, ,0.01972755753963293,0.002481126708179936,-0.045692387570326745,-0.023547012459050352,-0.04345082893065803,-0.009578594802998235, ,0.04983098231119392, ,0.049418995969635574, ,0.0012255900757689436, ,0.26705210279068353,-0.17396228072478132,0.11971627037000002,1.6181772938700745,0.2571498925585589,-1.3826768819152795, ,0.06438055736666945,0.053735527496302816,0.04886138503067485,-0.000632542826851783,0.021417282513886554,-0.02844732795637809, ,1.4333529472351074
0.027113430970367638,0.019652749882371826,-0.10786217936180549, ,0.027750477641291186,0.01938622528454446,-0.10882572190435832, ,0.0011854442430966517, ,0.01972755753963293,0.002481126708179936,-0.045692387570326745,-0.023547012459050352,-0.04345082893065803,-0.009578594802998235, ,0.04983098231119392, ,0.049418995969635574, ,0.0012252882274029866, ,0.26705210279068353,-0.17396228072478132,0.11971627037000002,1.6181772938700745,0.2571498925585589,-1.3826768819152795, ,0.06438055736666945,0.053735527496302816,0.04886138503067485,-0.000632542826851783,0.021417282513886554,-0.02844732795637809, ,1.4387319087982178
0.027296508145876953,0.019680134270314443,-0.10830899553364887, ,0.027844065384203608,0.01940436645945502,-0.10904972321527102, ,0.0009615322735464727, ,0.018371529981949474,0.0028024337871456017,-0.04445124210204024,0.03325431627715558,0.023114917585774483,0.0033959620190053543, ,0.048179660370567146, ,0.040496609958137295, ,0.001223319899389132, ,0.2676313077562504,-0.17346802582083093,0.12019330509000001,1.6181772938700745,0.2578330750573861,-1.3832339714337616, ,0.060061355416753656,0.04839211706194329,0.047548691104477625,-0.0006265314012567043,0.084737935714827,-0.08008107481353609, ,1.4441208839416504
0.027296508145876953,0.019680134270314443,-0.10830899553364887, ,0.02793698286509802,0.019423460234486246,-0.10927360670684429, ,0.0011859865690989437, ,0.018371529981949474,0.0028024337871456017,-0.04445124210204024,0.03325431627715558,0.023114917585774483,0.0033959620190053543, ,0.048179660370567146, ,0.040496609958137295, ,0.0012230433562017973, ,0.2676313077562504,-0.17346802582083093,0.12019330509000001,1.6181772938700745,0.2578330750573861,-1.3832339714337616, ,0.060061355416753656,0.04839211706194329,0.047548691104477625,-0.0006265314012567043,0.084737935714827,-0.08008107481353609, ,1.4493908882141113
0.027296508145876953,0.019680134270314443,-0.10830899553364887, ,0.028029235285311694,0.0194435125569488,-0.1094973636014227, ,0.0014160146752787677, ,0.018371529981949474,0.0028024337871456017,-0.04445124210204024,0.03325431627715558,0.023114917585774483,0.0033959620190053543, ,0.048179660370567146, ,0.040496609958137295, ,0.0012244622629597162, ,0.2676313077562504,-0.17346802582083093,0.12019330509000001,1.6181772938700745,0.2578330750573861,-1.3832339714337616, ,0.060061355416753656,0.04839211706194329,0.047548691104477625,-0.0006265314012567043,0.084737935714827,-0.08008107481353609, ,1.4547548294067383
0.02748494644797505,0.01971145999473597,-0.10876995331687264, ,0.028120827926857186,0.019464529209690856,-0.1097209850571231, ,0.0011703766226100702, ,0.01713549709499674,0.0028530035324083876,-0.04111779379130869,0.005058688126518204,-0.007549110878439603,-0.0018908011293180572, ,0.04463673213972053, ,0.009080851861983033, ,0.0012240674772637334, ,0.2682182354546914,-0.172989216382629,0.12068589529000001,1.6181772938700745,0.2585162575562133,-1.383709382212103, ,0.053857515072911914,0.04208290091284735,0.04400224176795581,-0.0006192675879667853,0.04722250491911647,-0.045794376487124026, ,1.4602179527282715
0.027645506241701027,0.01974004181492803,-0.10915651895277112, ,0.0282117661515733,0.019486515812010764,-0.10994446216893812, ,0.0010028859514358325, ,0.016163836253754223,0.002687121275972852,-0.03903068722510139,-0.017583244914286228,-0.025757152640936896,-0.005771772284984208, ,0.04233065991044385, ,0.03118510596680443, ,0.001222464712583821, ,0.2687047676257676,-0.17261080247179203,0.12109941180000001,1.6181772938700745,0.2587895305557442,-1.3838505392793552, ,0.04817103632409685,0.03973908775480351,0.0416984594764398,-0.0006123066367651499,0.02290887894932461,-0.020887649168302394, ,1.465512990951538
0.027645506241701027,0.01974004181492803,-0.10915651895277112, ,0.028302055400275524,0.019509477820570015,-0.11016778596984016, ,0.0012275494014217555, ,0.016163836253754223,0.002687121275972852,-0.03903068722510139,-0.017583244914286228,-0.025757152640936896,-0.005771772284984208, ,0.04233065991044385, ,0.03118510596680443, ,0.001222501293079058, ,0.2687047676257676,-0.17261080247179203,0.12109941180000001,1.6181772938700745,0.2587895305557442,-1.3838505392793552, ,0.04817103632409685,0.03973908775480351,0.0416984594764398,-0.0006123066367651499,0.02290887894932461,-0.020887649168302394, ,1.4707818031311035
0.027807137983022395,0.019768757198100704,-0.10954545184782863, ,0.028391701191906843,0.019533420530306062,-0.1103909474318836, ,0.0010544952702816772, ,0.01597746787821337,0.003243720797078293,-0.03931108266285953,-0.006099678708426764,-0.020394499882790785,-0.003966712329006295, ,0.042557753988373415, ,0.02128492014067957, ,0.0012213012500590767, ,0.26919129979684375,-0.17223238856095502,0.12151552089,1.6181772938700745,0.25906280355527506,-1.3839916963466075, ,0.04579968221933918,0.03503024789902945,0.04202852643799473,-0.0006047450671798954,0.025954980133941884,-0.027824618771572412, ,1.4760208129882812
0.027807137983022395,0.019768757198100704,-0.10954545184782863, ,0.02848070912268854,0.019558349075345555,-0.11061393746730995, ,0.0012804808383380353, ,0.01597746787821337,0.003243720797078293,-0.03931108266285953,-0.006099678708426764,-0.020394499882790785,-0.003966712329006295, ,0.042557753988373415, ,0.02128492014067957, ,0.001221720963451126, ,0.26919129979684375,-0.17223238856095502,0.12151552089,1.6181772938700745,0.25906280355527506,-1.3839916963466075, ,0.04579968221933918,0.03503024789902945,0.04202852643799473,-0.0006047450671798954,0.025954980133941884,-0.027824618771572412, ,1.4813549518585205
0.027961709496777606,0.019803062318033166,-0.10992740887560251, ,0.028569084865270725,0.019584268429916816,-0.11083674692965008, ,0.001115200116691277, ,0.01551482257036208,0.0037651790870213927,-0.039697760470201994,0.03503972494158369,0.025698565564833385,0.005326744188221792, ,0.0427878309720964, ,0.043452272745102244, ,0.0012209708166429582, ,0.26966238650217145,-0.1719157565131118,0.12192514853000001,1.6181772938700745,0.2597459860541023,-1.3845487858650896, ,0.04411759254229232,0.03087083329813623,0.042476830720000004,-0.0005971154110732284,0.071120898523118,-0.0649436973333446, ,1.48683500289917
0.028125779356973177,0.019843534241716344,-0.11035090243329511, ,0.028656834167883075,0.01961118340926304,-0.11105936661482826, ,0.0009153838637684926, ,0.015750307803304896,0.004112205334002805,-0.04135324437642912,0.016937490016193067,0.005201840098812454,0.0009500045118124748, ,0.044441796195299255, ,0.017714874388362636, ,0.0012188338449445352, ,0.2701025822760022,-0.17159140173239437,0.12237755374,1.6181772938700745,0.26029253205316405,-1.3849127787397348, ,0.0399566069719877,0.030049696503632293,0.044124131634349036,-0.0005886427288580648,0.046038987812319083,-0.04604701278286656, ,1.4944939613342285
0.028125779356973177,0.019843534241716344,-0.11035090243329511, ,0.028743962853485693,0.019639098670555084,-0.1112817872622655, ,0.0011359979326229844, ,0.015750307803304896,0.004112205334002805,-0.04135324437642912,0.016937490016193067,0.005201840098812454,0.0009500045118124748, ,0.044441796195299255, ,0.017714874388362636, ,0.0012182585955534133, ,0.2701025822760022,-0.17159140173239437,0.12237755374,1.6181772938700745,0.26029253205316405,-1.3849127787397348, ,0.0399566069719877,0.030049696503632293,0.044124131634349036,-0.0005886427288580648,0.046038987812319083,-0.04604701278286656, ,1.4997680187225342
0.02827863561146341,0.019885031047639758,-0.11075321521544379, ,0.02883047681891958,0.019668018713804435,-0.1115039995559833, ,0.0009567132262505166, ,0.015281411752854582,0.004200841232471426,-0.03930488664188375,-0.014232792087677677,-0.013705037020570214,-0.0017621075323726305, ,0.04237974429078172, ,0.01975617887871358, ,0.0012164548343858073, ,0.270473273453965,-0.1713133833489223,0.12280662573000001,1.6181772938700745,0.26056580505269494,-1.385053935806987, ,0.03894006629399704,0.025928126108871796,0.04202852643799473,-0.0005805777360040479,0.025752277243546375,-0.010902075008923085, ,1.5049848556518555
0.02827863561146341,0.019885031047639758,-0.11075321521544379, ,0.028916382034057445,0.01969794788277607,-0.11172599412570698, ,0.0011781423591229307, ,0.015281411752854582,0.004200841232471426,-0.03930488664188375,-0.014232792087677677,-0.013705037020570214,-0.0017621075323726305, ,0.04237974429078172, ,0.01975617887871358, ,0.0012161924201716777, ,0.270473273453965,-0.1713133833489223,0.12280662573000001,1.6181772938700745,0.26056580505269494,-1.385053935806987, ,0.03894006629399704,0.025928126108871796,0.04202852643799473,-0.0005805777360040479,0.025752277243546375,-0.010902075008923085, ,1.510241985321045
0.028434289488369808,0.01993337227017932,-0.11116441640278354, ,0.029001684540954475,0.01972889036590143,-0.11194776154796889, ,0.000988625111637426, ,0.015100007708367063,0.004696861560443178,-0.039276349524849784,-0.015423710504390287,-0.018752891017674855,-0.0019325690582836863, ,0.04234031616921255, ,0.02427896828182619, ,0.0012146443432428733, ,0.2708439646319278,-0.17108170136269557,0.12324606804000002,1.6181772938700745,0.2608390780522258,-1.38527677161438, ,0.036625604615388184,0.021421431503040808,0.04202852643799473,-0.0005721738181205913,0.01826332829364216,-0.005365231994397961, ,1.5155279636383057
0.028434289488369808,0.01993337227017932,-0.11116441640278354, ,0.029086390452998916,0.019760850197191225,-0.11216929234721207, ,0.0012102789750423006, ,0.015100007708367063,0.004696861560443178,-0.039276349524849784,-0.015423710504390287,-0.018752891017674855,-0.0019325690582836863, ,0.04234031616921255, ,0.02427896828182619, ,0.0012146148475117883, ,0.2708439646319278,-0.17108170136269557,0.12324606804000002,1.6181772938700745,0.2608390780522258,-1.38527677161438, ,0.036625604615388184,0.021421431503040808,0.04202852643799473,-0.0005721738181205913,0.01826332829364216,-0.005365231994397961, ,1.520838975906372
0.028612517663281545,0.019991651831774395,-0.11163017616254678, ,0.029170505954062734,0.019793831257148387,-0.11239057699689442, ,0.0009636873669768977, ,0.01541724946999969,0.005214929122496886,-0.039298357755472225,-4.9420081575522065e-05,-0.007365610712348466,0.0019309543906328287, ,0.04253525583853888, ,0.007359411317238106, ,0.0012129307704612186, ,0.2712841604057586,-0.17085001937646882,0.12374513969,1.6181772938700745,0.26124898755152215,-1.385447667845188, ,0.04005780563886483,0.017080083073878833,0.04225148944297083,-0.0005626666876053807,0.0333294561776516,-0.016550851673520394, ,1.5263338088989258
0.028612517663281545,0.019991651831774395,-0.11163017616254678, ,0.029254037297652413,0.0198278372736811,-0.11261160592059086, ,0.0011838864053198227, ,0.01541724946999969,0.005214929122496886,-0.039298357755472225,-4.9420081575522065e-05,-0.007365610712348466,0.0019309543906328287, ,0.04253525583853888, ,0.007359411317238106, ,0.0012127371413602759, ,0.2712841604057586,-0.17085001937646882,0.12374513969,1.6181772938700745,0.26124898755152215,-1.385447667845188, ,0.04005780563886483,0.017080083073878833,0.04225148944297083,-0.0005626666876053807,0.0333294561776516,-0.016550851673520394, ,1.532099962234497
0.028728916548772184,0.020032710281060545,-0.11192776128928243, ,0.029336990806059667,0.01986287182301541,-0.11283236949309829, ,0.0011031388881812749, ,0.015585625116697083,0.005696552781368329,-0.04034787418813484,0.012745959757989086,0.0038483863180147557,0.0045999502320252725, ,0.04362697990201352, ,0.013310245545755857, ,0.0012120113251140575, ,0.27158534698785336,-0.17073417838335547,0.12406532332000002,1.6181772938700745,0.261522260551053,-1.3855888249124404, ,0.03963949104363859,0.01451689483837705,0.0434027561852861,-0.0005565818805755342,0.04430679802258593,-0.026874035819620206, ,1.5375897884368896
0.028892338596757817,0.020095030227977324,-0.1123466072022587, ,0.029419372869512003,0.019898938330608507,-0.11305285804153745, ,0.0009027776054229384, ,0.01581123192900776,0.006381114028288932,-0.04160048021051807,0.005880690956017314,-0.007038283515865034,0.0032347394368729475, ,0.04495902162081161, ,0.009164898718575464, ,0.0012099768927476683, ,0.27199465183018723,-0.17061061465736788,0.12451643224000002,1.6181772938700745,0.2617955335505839,-1.3857299819796927, ,0.037287599826511114,0.010475168961986792,0.04474385258426967,-0.0005482637589834802,0.030842737448295098,-0.016114406981800004, ,1.5434849262237549
0.028892338596757817,0.020095030227977324,-0.1123466072022587, ,0.029501189945323462,0.019936040072061317,-0.11327306184645808, ,0.0011199535892558246, ,0.01581123192900776,0.006381114028288932,-0.04160048021051807,0.005880690956017314,-0.007038283515865034,0.0032347394368729475, ,0.04495902162081161, ,0.009164898718575464, ,0.0012093885051431465, ,0.27199465183018723,-0.17061061465736788,0.12451643224000002,1.6181772938700745,0.2617955335505839,-1.3857299819796927, ,0.037287599826511114,0.010475168961986792,0.04474385258426967,-0.0005482637589834802,0.030842737448295098,-0.016114406981800004, ,1.5488288402557373
0.02905472594110113,0.020161917088132062,-0.11277709950946051, ,0.029582448557045483,0.019974180174031613,-0.11349297114294135, ,0.0009089601222923048, ,0.01544431063174456,0.006569304288333737,-0.04209718620786112,-0.014303182408405883,-0.01834438490026792,0.00033868208259635855, ,0.045319483407711865, ,0.02325866019489724, ,0.0012074376714882708, ,0.27236534300815,-0.17051021913000294,0.12497920777000002,1.6181772938700745,0.2620688065501148,-1.3857894603068044, ,0.031506288698031466,0.009332490838139603,0.04512411195467422,-0.0005400757063004589,0.013457807233021828,0.005171909075155847, ,1.5540947914123535
0.02905472594110113,0.020161917088132062,-0.11277709950946051, ,0.02966315529361722,0.020013361615146715,-0.11371257612170362, ,0.0011257759535586512, ,0.01544431063174456,0.006569304288333737,-0.04209718620786112,-0.014303182408405883,-0.01834438490026792,0.00033868208259635855, ,0.045319483407711865, ,0.02325866019489724, ,0.0012069108216951766, ,0.27236534300815,-0.17051021913000294,0.12497920777000002,1.6181772938700745,0.2620688065501148,-1.3857894603068044, ,0.031506288698031466,0.009332490838139603,0.04512411195467422,-0.0005400757063004589,0.013457807233021828,0.005171909075155847, ,1.5594289302825928
0.029142542160764378,0.020200504585272113,-0.11301891366784327, ,0.02974331680851664,0.020053587226916733,-0.1139318669301999, ,0.0011027232412602875, ,0.015572548496244202,0.006803538465600766,-0.0425632326035709,-0.010815022624368752,-0.01821871043495386,0.0006889207901994313, ,0.04583035208228787, ,0.021183635943813204, ,0.0012062429525898247, ,0.2725429658642572,-0.17046388273275762,0.12523846577,1.6181772938700745,0.26220544304988025,-1.3858191994703604, ,0.03135016239130188,0.008038995511952782,0.04564129375358167,-0.0005355864657332548,0.013428552921104377,0.002930745986649241, ,1.5648338794708252
0.029142542160764378,0.020200504585272113,-0.11301891366784327, ,0.02982293981891094,0.020094859694647044,-0.1141508336737274, ,0.0013248942281734219, ,0.015572548496244202,0.006803538465600766,-0.0425632326035709,-0.010815022624368752,-0.01821871043495386,0.0006889207901994313, ,0.04583035208228787, ,0.021183635943813204, ,0.0012069986931986373, ,0.2725429658642572,-0.17046388273275762,0.12523846577,1.6181772938700745,0.26220544304988025,-1.3858191994703604, ,0.03135016239130188,0.008038995511952782,0.04564129375358167,-0.0005355864657332548,0.013428552921104377,0.002930745986649241, ,1.5701029300689697
0.029361610937682185,0.020304092367067934,-0.11362755154030756, ,0.029902031104807353,0.020137181558351536,-0.11436946641652906, ,0.0009329259663342706, ,0.014217103655838188,0.006926299728682384,-0.03988196699673311,0.015291662949863699,0.006842330942219391,0.006029332562117406, ,0.042903041335328455, ,0.01674967314389911, ,0.0012052640556868375, ,0.27297543890521375,-0.17040210086976382,0.12589179593000002,1.6181772938700745,0.26261535254917656,-1.3859900957011684, ,0.02767481526931198,0.002848453772459548,0.042819385806451615,-0.0005241918252283652,0.035173529646699744,-0.018176351988411655, ,1.5753419399261475
0.029361610937682185,0.020304092367067934,-0.11362755154030756, ,0.029980597508203713,0.0201805552136654,-0.11458775518289681, ,0.0011490852179009494, ,0.014217103655838188,0.006926299728682384,-0.03988196699673311,0.015291662949863699,0.006842330942219391,0.006029332562117406, ,0.042903041335328455, ,0.01674967314389911, ,0.0012049107296630268, ,0.27297543890521375,-0.17040210086976382,0.12589179593000002,1.6181772938700745,0.26261535254917656,-1.3859900957011684, ,0.02767481526931198,0.002848453772459548,0.042819385806451615,-0.0005241918252283652,0.035173529646699744,-0.018176351988411655, ,1.5806479454040527
0.029391699946019874,0.02031923421610735,-0.1137159269742801, ,0.030058645932239326,0.020224982912757955,-0.11480568995827528, ,0.0012811259180905625, ,0.01416438514820142,0.006971764245094101,-0.040487284111575414,0.019094847533767095,0.01317394212545697,0.006794974614065873, ,0.04345636291784195, ,0.023196059199747633, ,0.001205387074590699, ,0.27302949803533333,-0.17039437813688957,0.12598642510000002,1.6181772938700745,0.262751989048942,-1.3860198348647241, ,0.02617846663681953,0.003299036609963888,0.0434027561852861,-0.000522532239731719,0.040089055095190076,-0.022413634215003017, ,1.5859618186950684
0.029391699946019874,0.02031923421610735,-0.1137159269742801, ,0.030136183340345495,0.02027046676524566,-0.11502326069036523, ,0.0015052425830752662, ,0.01416438514820142,0.006971764245094101,-0.040487284111575414,0.019094847533767095,0.01317394212545697,0.006794974614065873, ,0.04345636291784195, ,0.023196059199747633, ,0.0012072495311651373, ,0.27302949803533333,-0.17039437813688957,0.12598642510000002,1.6181772938700745,0.262751989048942,-1.3860198348647241, ,0.02617846663681953,0.003299036609963888,0.0434027561852861,-0.000522532239731719,0.040089055095190076,-0.022413634215003017, ,1.5911970138549805
0.029623735930378862,0.02043127719958144,-0.11433930778996462, ,0.030213216755396288,0.020317008739105004,-0.11524045729022708, ,0.0010828736518847255, ,0.013460460342551722,0.00635788244282932,-0.0355694465751271,-0.013701184093084708,-0.013395983217340304,0.002973627879122138, ,0.038558944376772895, ,0.01916032035476042, ,0.0012064817788239003, ,0.2735083074735352,-0.17037893267114113,0.12665790332000001,1.6181772938700745,0.26288862554870746,-1.3857228590677177, ,0.029618271397774898,0.0012636703477963355,0.038382678361445786,-0.000509809104812429,0.016554266777492884,0.012346616612707029, ,1.5966730117797852
0.029623735930378862,0.02043127719958144,-0.11433930778996462, ,0.030289753258859214,0.020364610661585344,-0.11545726963338392, ,0.001303020411377333, ,0.013460460342551722,0.00635788244282932,-0.0355694465751271,-0.013701184093084708,-0.013395983217340304,0.002973627879122138, ,0.038558944376772895, ,0.01916032035476042, ,0.0012070740403733078, ,0.2735083074735352,-0.17037893267114113,0.12665790332000001,1.6181772938700745,0.26288862554870746,-1.3857228590677177, ,0.029618271397774898,0.0012636703477963355,0.038382678361445786,-0.000509809104812429,0.016554266777492884,0.012346616612707029, ,1.6021490097045898
