NicholasDascanio/dvrk_moveit_final/test/execution/third_experiment_notsharpbends/thirdexp_200vel5.0/thirdexp_200vel5.0_5.csv
Current Position (x),Current Position (y),Current Position (z), ,Planned Position (x),Planned Position (y),Planned Position (z), ,Position Error,,Cartesian linear Velocity(x),Cartesian linear Velocity(y),Cartesian linear Velocity(z),Cartesian Angular Velocity(x),Cartesian Angular Velocity(y),Cartesian Angular Velocity(z), ,Total Linear Velocity, ,Total Angular Velocity, ,MSE, ,Joint 1 Position,Joint 2 Position,Joint 3 Position,Joint 4 Position,Joint 5 Position,Joint 6 Position, ,Joint 1 Velocity,Joint 2 Velocity,Joint 3 Velocity,Joint 4 Velocity,Joint 5 Velocity,Joint 6 Velocity, ,Time Stamp
0.009892763737231363,0.02028118352253243,-0.07930006553101107, ,0.010092522206263495,0.020284494851042806,-0.0794850702446737, ,0.0002722887344785994, ,0.0005818390865006947,0.0004075749970019781,-0.0014863050986757245,0.3236830119263733,-0.02881449268527291,-0.009483301096303002, ,0.0016473484595283965, ,0.3249630243557428, ,2.2690727873216616e-05, ,0.14079314302998702,-0.2480078435228459,0.08903567865,1.6053862073175185,0.14715751024737936,-1.311689900931849, ,0.0013294149971022303,-0.00029957990606947754,0.0015653093310834959,-0.0010503629760975062,-0.02904856021537257,-0.32354235736279247, ,0.05223488807678223
0.00998103590136685,0.020331810937357593,-0.0794929317634259, ,0.010169508338978743,0.02034536913708694,-0.07973074106204966, ,0.00030374157935850556, ,0.002737257229282765,0.0017568021120788258,-0.006998557800758081,-0.07024445128561473,-0.14638869533297907,-0.03747284740277932, ,0.007717431055138567, ,0.16236974176526603, ,2.618319608350477e-05, ,0.1409321522217231,-0.24801556625572013,0.08923789989000001,1.6055958972610032,0.14169205025676176,-1.3189949233642329, ,0.005136454914329414,0.0005684429168323529,0.00732696022079117,0.0015967433085261747,-0.14611170566197004,0.06990212296512177, ,0.10840392112731934
0.010031639366479144,0.0203948161614479,-0.07973836972814495, ,0.010248521164523666,0.020403207770383094,-0.07997905560612828, ,0.0003240953953454938, ,0.0012405545232055655,0.0011475860385529546,-0.004608818063733272,0.009333489742235792,-0.006819632264658678,-0.0015963375306422562, ,0.004908883089412657, ,0.011559472864890837, ,2.903631319943867e-05, ,0.1412796752010632,-0.2480078435228459,0.08949715789000001,1.6055958972610032,0.14305841525441615,-1.3147999842920606, ,0.007207140053764905,0.0006050852020445624,0.004865244813683569,0.0015146636315559064,0.0,-0.009725968723283455, ,0.15721702575683594
0.010088498447988157,0.020450212786023117,-0.07995694295488358, ,0.010329524432537124,0.020458072171308454,-0.08022992933085135, ,0.0003642483447167345, ,0.0016289203437936334,0.0013709201090634912,-0.005473631633912785,-0.008953896668693258,-0.01370404863112845,-0.00249324395945884, ,0.005873112181427336, ,0.01636988727892218, ,3.1609351347483336e-05, ,0.14159630724890637,-0.24799239805709747,0.08972789751000002,1.6055958972610032,0.14305841525441615,-1.3161885228744503, ,0.009953048447322803,0.0006612037561781031,0.005794402153510367,0.0014588606360889428,-0.004227206624132295,0.008499784865201074, ,0.20412206649780273
0.010172109976773936,0.020519560981517356,-0.08022936831064531, ,0.010412482238204068,0.02051002324698746,-0.08048327852794239, ,0.00034977162676930846, ,0.001657570133617111,0.0012604666550790514,-0.005029286685048868,-0.0033389472452877112,-0.011478604497607165,-0.00010525253711530563, ,0.005443348188094847, ,0.01195436851957068, ,3.294174858507432e-05, ,0.14212917581722787,-0.24796922985847478,0.09001697018,1.6058055872044876,0.14292177875465073,-1.3157503900101917, ,0.011481783612640142,0.0006477973607192253,0.0053488285829415725,2.8064608787252822e-05,0.0,0.0027015720709350557, ,0.2513899803161621
0.010240001022199739,0.020569217707907764,-0.08043821332479621, ,0.010497359020869304,0.020559121393052573,-0.08073902032374379, ,0.00039600495662138794, ,0.0018606148063276045,0.0012949571420717344,-0.005685837097897396,0.0014877648073067004,-0.007109133020661553,-0.003972299485340793, ,0.006121073840524584, ,0.007263140538691337, ,3.5265800654211044e-05, ,0.14262343072117825,-0.24790744799548098,0.09023863577,1.6060152771479719,0.1431950517541816,-1.3159732258175845, ,0.0133113959262829,0.002325863440564533,0.006019959002267574,0.005098069678606114,0.0051066985509542855,-0.003087561774087872, ,0.2933230400085449
0.010320988424083624,0.020629722404997806,-0.08069246636962166, ,0.010584119562652207,0.020605426495405976,-0.08099707267605345, ,0.00040325338092236045, ,0.0019055120871665405,0.0013862872504394868,-0.005588686803134046,0.0059268335796868205,-0.004943683833212145,-0.00242064104433447, ,0.006065161897146151, ,0.007717989419023204, ,3.712929258788292e-05, ,0.14319491295387085,-0.24783794339961296,0.09050826409000001,1.6060152771479719,0.14346832475371246,-1.3161960616249773, ,0.014321904853376212,0.0009981992780701235,0.005959151335578003,0.004544300298813939,0.008520835169607928,-0.00628733883559991, ,0.33519601821899414
0.010432385809821495,0.020700913683173748,-0.08102195221517723, ,0.010672728987059905,0.02064899793198037,-0.08125735437096315, ,0.0003404030890219503, ,0.002087032942435231,0.0012004654196936342,-0.006404495572859801,0.005036683493337975,-0.004611859995261361,0.00938209266468715, ,0.0068421040089632415, ,0.006829159717913507, ,3.7723385030607404e-05, ,0.14402896810428711,-0.24765259781063156,0.0908569661,1.6066443469784255,0.14401487075277425,-1.3164783757594818, ,0.015473168361074641,0.005376726045625057,0.006726694054054055,-0.007269410319854697,0.013040251912967633,-0.01136542671288527, ,0.3777298927307129
0.010501872966354124,0.02073625222794901,-0.08121006225489663, ,0.010763152757601755,0.02068989457450037,-0.08151978501969402, ,0.0004078533466595678, ,0.0022925165692293773,0.0011246690516256215,-0.006103583512806088,0.0003378118939508313,-0.012384210813109668,0.008001121554291545, ,0.006616210727725804, ,0.01238881696807393, ,3.952075567367385e-05, ,0.14455411393973439,-0.24749042042027286,0.09105529847,1.6066443469784255,0.1441515072525397,-1.3165897936631783, ,0.017787617911615893,0.005414766383258244,0.006438484850444625,-0.007269410319854697,0.007409225898464284,-0.006709963355790734, ,0.4143400192260742
0.010591036680551615,0.020782002534298946,-0.08146944768363852, ,0.010855356676402701,0.020728174790243484,-0.08178428505543348, ,0.0004145902277135496, ,0.0025288434689805174,0.0011793764575459653,-0.006676765401036831,0.0005429177174000396,-0.012619498062257744,0.008264979378444741, ,0.00723637853761822, ,0.012631170876938777, ,4.1106329673648944e-05, ,0.14521826896691767,-0.24723557023542345,0.09132751937000001,1.6066443469784255,0.144561416751836,-1.3169240473742674, ,0.019704514443204067,0.00649038567610067,0.00703569413427562,-0.007269410319854697,0.00914077827894901,-0.007984377522203533, ,0.45344996452331543
0.01068401097846287,0.02082226480944521,-0.08172143256316489, ,0.010949306882816423,0.02076389644379998,-0.08205077573017146, ,0.00042691416541124826, ,0.0023815766846326933,0.0010091707533390027,-0.006637401893375251,0.004864609014127524,-0.004720962662639274,-0.0014100222662611424, ,0.0071235831579593584, ,0.006778782814056586, ,4.258686007466709e-05, ,0.145951928589969,-0.24694210638620293,0.09159196253000002,1.606434657034941,0.14510796275089774,-1.317206361508772, ,0.018309269063953457,0.00840378749552642,0.006943684184829993,0.003526052445631233,0.013117709003529826,-0.012685492268131749, ,0.49047398567199707
0.010777909499895556,0.020868560229549263,-0.08199496252067061, ,0.011044969852039052,0.02079711689883457,-0.08231917911153613, ,0.00042607719838437796, ,0.0028085415220235987,0.0012818160493490115,-0.00836453659689477,-0.004604863764056106,-0.011099930880908482,-0.0076498543490850154, ,0.008916077071565234, ,0.012017204121618986, ,4.429242045403084e-05, ,0.14662380635002653,-0.2466486425369824,0.09187844262000001,1.6068540369219102,0.14538123575042863,-1.3172658398358836, ,0.019542203780574707,0.010366377040628538,0.0087185613136289,0.008095194708760635,0.006668261542683573,-0.004503272053978135, ,0.5222189426422119
0.010866675652144497,0.020914776628744275,-0.08227403099004753, ,0.01114231239372172,0.02082789301984588,-0.08258941807962977, ,0.0004277772680702855, ,0.0028626131660326945,0.0012903095768380189,-0.008623564767202949,0.005779833905362616,0.004092767883396771,-0.001955300326260729, ,0.009177435493457184, ,0.007082173482074123, ,4.582093691956009e-05, ,0.14726479317858718,-0.24634745595488763,0.09217010787,1.6068540369219102,0.14606441824925584,-1.3179046080945063, ,0.021557687768848425,0.01099908548824095,0.008999328542372884,0.0066665343668066805,0.02477408805762056,-0.015713762608069712, ,0.5542778968811035
0.0109524312122499,0.020948418831501982,-0.08251400923616016, ,0.01124130165058417,0.020856281173927564,-0.08286141632386435, ,0.0004611151295217251, ,0.0028655881747567742,0.0009626919035844071,-0.007667144126672987,-0.010211796905122862,-0.011661392200671413,0.000777235423519089, ,0.008241569653149145, ,0.01550060765241479, ,4.748334324102763e-05, ,0.14789033454139935,-0.24601537844129598,0.09242029184000002,1.6070637268653947,0.14633769124878673,-1.3179640864216182, ,0.021587111364529295,0.011796536264969305,0.00798436667669173,0.0,0.010239516977571556,-0.0014559743036361523, ,0.5858108997344971
0.011042723572661114,0.020977011416761344,-0.08276354710580941, ,0.011341905097027635,0.02088233723252877,-0.08313509833979765, ,0.00048633641151014483, ,0.003061242124811043,0.0008173672415630653,-0.00796003015952176,-0.009940032008008502,-0.0170916477596981,-0.010197255690445325, ,0.008567460107569458, ,0.019771915119792267, ,4.961086200431828e-05, ,0.1485931032329538,-0.24559835086608786,0.09267954984000001,1.6072734168088794,0.1470208737476139,-1.3184394971999596, ,0.022492756946781416,0.014376146274575181,0.0082489961263594,0.00923570896996827,0.0032534247917305574,-0.002951074125475038, ,0.6121828556060791
0.01110973770829266,0.02100087827344757,-0.08296493164524729, ,0.011444090537747009,0.02090611657321347,-0.08341038942596746, ,0.0005649816181076349, ,0.003792490823421839,0.0016335653414659937,-0.012015487122914803,0.013567048042186891,0.0073154013671124654,0.01278638966261657, ,0.012705252975502268, ,0.01541361863090894, ,5.2208626824695683e-05, ,0.14908735813690416,-0.24527399608537043,0.09288825253,1.6074831067523636,0.1475674197466757,-1.3188851688147452, ,0.027522314837143496,0.016599080209632813,0.012483394608150471,-0.006394125313906204,0.03752220478403811,-0.030894966390947895, ,0.6385378837585449
0.011188946051192172,0.021033124523719707,-0.08320331577435477, ,0.011547826106344215,0.020927674081421356,-0.08368721568072746, ,0.0006116157365162714, ,0.004014151975389994,0.0015045332927114796,-0.01231271131717206,0.0013158478174279612,-0.005144415218372773,0.008615745474818403, ,0.013037633853212076, ,0.00531000757337988, ,5.54053032470567e-05, ,0.14962794943809987,-0.24494191857177877,0.09313584392,1.6074831067523636,0.14784069274620656,-1.3191080046221382, ,0.028109283636987788,0.018832494851849728,0.012753251817453966,-0.0055605862724298506,0.025067044833775892,-0.020738618605077294, ,0.6598529815673828
0.011314893474579694,0.02107792354864616,-0.08358484131149702, ,0.011653080263940371,0.020947064152227697,-0.08396550399908259, ,0.0005257362150822035, ,0.004219171412845675,0.0013483679445816536,-0.012672785310267885,0.018768673700515125,0.015749518505031937,0.008618832589554414, ,0.013424566698597425, ,0.024501226882705215, ,5.774464941701037e-05, ,0.1505469546501326,-0.24433954540758926,0.09353121237,1.6072734168088794,0.14893378474433008,-1.3199993478517094, ,0.032190278683334725,0.021646200173008844,0.013120932059308074,0.00010091543285598793,0.0493777221454677,-0.040165532603153364, ,0.6815879344940186
0.011409705810202059,0.021108666009033307,-0.08384699834095087, ,0.011759821797788332,0.02096434069210329,-0.08424518206952397, ,0.0005495100395541817, ,0.0050784422560264065,0.0015206258487020455,-0.013232023039637065,-0.019410694285307332,-0.03245290591477165,-0.016414301187513452, ,0.014254448864863963, ,0.03781488793213047, ,6.012174972959351e-05, ,0.15121883241019013,-0.24391479509950692,0.09380343327000001,1.6079024866393328,0.14920705774386098,-1.3202221836591024, ,0.03576967265679261,0.021503952313272328,0.0137554503626943,0.013733827558260784,0.0,0.00015986724325816942, ,0.704063892364502
0.011469572417167237,0.021121887522151876,-0.0840035129184196, ,0.011868019819885018,0.020979557120674112,-0.08452617837086285, ,0.0006724562819210366, ,0.004544892249448988,0.0006236911956705255,-0.011009417957715434,-0.009792230069320337,-0.020340490496590445,0.029223731477745766, ,0.011926957702378485, ,0.022574834697750602, ,6.371365507800413e-05, ,0.1516821963826436,-0.24360588578453793,0.09396546952000001,1.6081121765828172,0.1496169672431573,-1.3205564373701915, ,0.03583721357948292,0.024527511387560295,0.011361491811697575,-0.028509252801048313,0.023067200524047538,-0.018623864951298297, ,0.7199389934539795
0.011573476677361187,0.021142166400655034,-0.08427182338598987, ,0.01197764376558401,0.020992766372481965,-0.08480842216906803, ,0.0006881930380507991, ,0.0059987269343561075,0.001771400649184175,-0.016338457168039652,-0.0076461943114607,-0.02224694089941814,0.024320617764658742, ,0.017494792588789554, ,0.023524232241600627, ,6.726402702669547e-05, ,0.15248536060156295,-0.243057571750468,0.09424287558000001,1.6081121765828172,0.1503001497419845,-1.3211135268886736, ,0.043450980567065374,0.026822199422970826,0.016963590543130992,-0.022679751567467595,0.027483723524083948,-0.022199199534851343, ,0.7358410358428955
0.011635656578254449,0.021161454313571797,-0.08444934156185561, ,0.012088663392207058,0.021004020898742957,-0.08509184351409761, ,0.0008017538351806875, ,0.006339655213944101,0.0018708797109170722,-0.017600716299605624,-0.01140060250713077,-0.024930855265396897,0.020191463220283735, ,0.01880097426687279, ,0.027413857676437177, ,7.145956376865772e-05, ,0.15293327910826796,-0.24276410790124747,0.09442694876,1.6081121765828172,0.1507100592412808,-1.321447780599763, ,0.04341122669646422,0.03326215967699642,0.01968950744128554,-0.01696705585574006,0.048219205900076674,-0.038009077484378734, ,0.7526440620422363
0.011767160396409047,0.021199967346530364,-0.08483433022300543, ,0.01220104877765695,0.02101337266910851,-0.08537637323673639, ,0.0007189487671306108, ,0.007089415175822535,0.00222009129847505,-0.021344616905512342,0.0014381282652585893,-0.0031603328495558598,0.005758608920098207, ,0.02260047087455991, ,0.0034715250594951758, ,7.54321819727494e-05, ,0.15385228432030068,-0.24209995287406416,0.09482490979000001,1.6079024866393328,0.15152987823987346,-1.322197966762082, ,0.04851581879267422,0.03583721357948292,0.022062065817174518,0.0,0.04672790584467245,-0.036854728931796324, ,0.7633118629455566
0.011839790474141344,0.0212238495734023,-0.08505347507991996, ,0.012314770319028725,0.021020873173423982,-0.08566194294542918, ,0.0007981468632743892, ,0.007979458292908885,0.002543448829079268,-0.0235825853005337,0.009811572185495365,0.0025185523602921445,0.008083484280550063, ,0.025025571243257667, ,0.010129302092871446, ,7.98354642811092e-05, ,0.1543542619571253,-0.24174470716184981,0.09505176054000002,1.6079024866393328,0.1520764242389352,-1.3226436383768676, ,0.05588748030534204,0.03849774505414636,0.024430692515337426,0.00045210800209688365,0.06005252348575937,-0.047791728257460836, ,0.7738628387451172
0.01192370718298287,0.021250561458677347,-0.08530382573164254, ,0.012429798731223114,0.02102657342348976,-0.08594848502311674, ,0.0008496380977754098, ,0.008289333359435701,0.0026437687922479043,-0.02481122133982343,0.01554512451302093,0.01078595996403643,-0.001443807536825276, ,0.02629257053512317, ,0.018920317809909784, ,8.446611642347961e-05, ,0.15494118965556633,-0.2413276795866417,0.09531101854000001,1.608321866526302,0.15275960673776243,-1.3232007278953497, ,0.05768811036989105,0.04078080857691052,0.02569163148387097,0.011855780380298974,0.06762710701206744,-0.05404669201932256, ,0.7863819599151611
0.01201359734390193,0.02127982572841951,-0.085568831239819, ,0.012546105045556463,0.021030523954818796,-0.08623593262406962, ,0.0008892356737732408, ,0.009090849653955685,0.002404773293378029,-0.02516129756411159,0.003175098925410268,-0.006735441484381604,-0.006181257606396432, ,0.026861075502167413, ,0.007445625589895808, ,8.923633788656757e-05, ,0.15556673101837853,-0.24090292927855936,0.09558583202000001,1.6085315564697864,0.15344278923658963,-1.3237578174138318, ,0.06468775839023229,0.04436509656777502,0.026070067954173493,0.013360497067571293,0.05642145876708376,-0.04497557900726611, ,0.7972269058227539
0.012103311077536415,0.021300292534241934,-0.08581478297115036, ,0.012663660608373912,0.021032774828397494,-0.0865242196707232, ,0.0011816866966007755, ,0.00895001364174595,0.0017690686359813706,-0.02404098454587907,-0.008816485974709229,-0.017802432275159135,-0.00983601348020205, ,0.025713834524657107, ,0.019865774311836566, ,9.642351129916103e-05, ,0.1561922723811907,-0.24043956530610588,0.09583990486,1.6085315564697864,0.15385269873588595,-1.3240103923847806, ,0.06339141052670058,0.04797620907910555,0.024811232897196264,0.013360497067571293,0.04368390156277271,-0.03654629024629889, ,0.8031859397888184
0.012103311077536415,0.021300292534241934,-0.08581478297115036, ,0.012782437079660935,0.021033375632445186,-0.08681328085051318, ,0.0012367112736279458, ,0.00895001364174595,0.0017690686359813706,-0.02404098454587907,-0.008816485974709229,-0.017802432275159135,-0.00983601348020205, ,0.025713834524657107, ,0.019865774311836566, ,0.0005480374134862214, ,0.1561922723811907,-0.24043956530610588,0.09583990486,1.6085315564697864,0.15385269873588595,-1.3240103923847806, ,0.06339141052670058,0.04797620907910555,0.024811232897196264,0.013360497067571293,0.04368390156277271,-0.03654629024629889, ,0.8084299564361572
0.012203130447934352,0.02131762544701934,-0.08610243843696279, ,0.012902406431654584,0.021032375484172593,-0.08710305161270925, ,0.0012536272054280639, ,0.011147686417524826,0.002532852421906122,-0.034100860941496,0.044402268725180376,0.05215444979702959,0.00812966219242759, ,0.03596602522945607, ,0.06849526982368366, ,0.0005715570732176162, ,0.1569104865384936,-0.23982946940904215,0.09613545898,1.6085315564697864,0.15480915423424405,-1.324871996450796, ,0.07894920262767952,0.06692308995660845,0.03508548792951543,0.013360497067571293,0.13174670481028058,-0.10845317626753932, ,0.8136529922485352
0.012203130447934352,0.02131762544701934,-0.08610243843696279, ,0.013023540947455621,0.021029823031542105,-0.08739346816525052, ,0.0015564900826545512, ,0.011147686417524826,0.002532852421906122,-0.034100860941496,0.044402268725180376,0.05215444979702959,0.00812966219242759, ,0.03596602522945607, ,0.06849526982368366, ,0.000603329105780098, ,0.1569104865384936,-0.23982946940904215,0.09613545898,1.6085315564697864,0.15480915423424405,-1.324871996450796, ,0.07894920262767952,0.06692308995660845,0.03508548792951543,0.013360497067571293,0.13174670481028058,-0.10845317626753932, ,0.8190810680389404
0.012329439617513198,0.021358484258910602,-0.08651564865827012, ,0.01314581321964007,0.021025766455026854,-0.08768446747158058, ,0.001464002873501041, ,0.01377325355434983,0.0053404908269021195,-0.04637502440568837,0.076590583960588,0.07988217277534282,0.015383620798872039, ,0.04867100003464926, ,0.1106664564444169, ,0.0006302251610213774, ,0.1577677098875325,-0.23913442345036195,0.09656193839,1.6087412464132707,0.1564487922314293,-1.3265357262557156, ,0.08986452799097612,0.06916686702512448,0.047978347951807235,0.014924074755789366,0.17113013184757303,-0.14257383657874312, ,0.8244829177856445
0.012329439617513198,0.021358484258910602,-0.08651564865827012, ,0.013269196148870543,0.02102025346936973,-0.0879759872474819, ,0.0017692176803218106, ,0.01377325355434983,0.0053404908269021195,-0.04637502440568837,0.076590583960588,0.07988217277534282,0.015383620798872039, ,0.04867100003464926, ,0.1106664564444169, ,0.0006647400858486633, ,0.1577677098875325,-0.23913442345036195,0.09656193839,1.6087412464132707,0.1564487922314293,-1.3265357262557156, ,0.08986452799097612,0.06916686702512448,0.047978347951807235,0.014924074755789366,0.17113013184757303,-0.14257383657874312, ,0.8298490047454834
0.012477187852052464,0.02141871306802411,-0.08702142372992759, ,0.01339366294250801,0.02101333132534314,-0.08826796595791062, ,0.001599415041466549, ,0.01591599444679767,0.007115556409093378,-0.054837054273571384,0.15161390482316137,0.10031868665894052,0.021985638597914817, ,0.05754174609484924, ,0.18179691734338746, ,0.0006922305257197776, ,0.15873305149681058,-0.23840848656018485,0.09708563955,1.6087412464132707,0.15849833972791091,-1.3286970672520053, ,0.10095419314730934,0.07211013796236382,0.05688861257142858,0.014924074755789366,0.20345309411478735,-0.22049546797677957, ,0.8351459503173828
0.012477187852052464,0.02141871306802411,-0.08702142372992759, ,0.013519187113222605,0.021005046811507208,-0.08856034281383182, ,0.001903983765388892, ,0.01591599444679767,0.007115556409093378,-0.054837054273571384,0.15161390482316137,0.10031868665894052,0.021985638597914817, ,0.05754174609484924, ,0.18179691734338746, ,0.0007268520468531808, ,0.15873305149681058,-0.23840848656018485,0.09708563955,1.6087412464132707,0.15849833972791091,-1.3286970672520053, ,0.10095419314730934,0.07211013796236382,0.05688861257142858,0.014924074755789366,0.20345309411478735,-0.22049546797677957, ,0.8403968811035156
0.012650706344219807,0.021489901904003808,-0.08760609772858995, ,0.01364574247760676,0.020995446255970822,-0.08885305776905425, ,0.0016701774268418664, ,0.019107193848665396,0.007210144847980374,-0.06399128042506678,0.05272279596217754,0.02846217955741896,0.004388683206645284, ,0.06717108764891984, ,0.05990589176913936, ,0.0007530555296306443, ,0.15979106590057934,-0.23759759960839127,0.09769100698000001,1.6087412464132707,0.1601379777250962,-1.330279118316784, ,0.11243713454795115,0.09451886609409439,0.06609465360995852,0.014170014613305006,0.1414749288237766,-0.14384388649268282, ,0.8456649780273438
0.012650706344219807,0.021489901904003808,-0.08760609772858995, ,0.013773303154783985,0.020984575528148426,-0.08914605151706474, ,0.00197155674933842, ,0.019107193848665396,0.007210144847980374,-0.06399128042506678,0.05272279596217754,0.02846217955741896,0.004388683206645284, ,0.06717108764891984, ,0.05990589176913936, ,0.0007859879950281517, ,0.15979106590057934,-0.23759759960839127,0.09769100698000001,1.6087412464132707,0.1601379777250962,-1.330279118316784, ,0.11243713454795115,0.09451886609409439,0.06609465360995852,0.014170014613305006,0.1414749288237766,-0.14384388649268282, ,0.8509149551391602
0.012823746481277295,0.021552486045854562,-0.0881825522906142, ,0.013901843565022514,0.02097248004052093,-0.08943926548786411, ,0.0017544310611549076, ,0.02056965489677718,0.007146146246825938,-0.06768107369572249,0.020252344476767152,0.026637548327416945,0.009077463059549372, ,0.0710978610463026, ,0.03344093720613115, ,0.0008114733388735928, ,0.16080274390710275,-0.2367249307936039,0.09828600409,1.6089509363567556,0.16136770622298516,-1.3313635581901924, ,0.12135158767067875,0.10382597544690457,0.06986320842105265,0.009673769019429833,0.14987551232811605,-0.12121518574948326, ,0.8562989234924316
0.012823746481277295,0.021552486045854562,-0.0881825522906142, ,0.01403133842834585,0.020959204750394287,-0.08973264184480162, ,0.0020525687886569863, ,0.02056965489677718,0.007146146246825938,-0.06768107369572249,0.020252344476767152,0.026637548327416945,0.009077463059549372, ,0.0710978610463026, ,0.03344093720613115, ,0.000843296299124449, ,0.16080274390710275,-0.2367249307936039,0.09828600409,1.6089509363567556,0.16136770622298516,-1.3313635581901924, ,0.12135158767067875,0.10382597544690457,0.06986320842105265,0.009673769019429833,0.14987551232811605,-0.12121518574948326, ,0.8616509437561035
0.013005470773403041,0.021607900422487992,-0.08875642324819105, ,0.014161762763143388,0.020944794161657933,-0.09002612348140937, ,0.0018408855914815471, ,0.021026257385828338,0.00565760020274409,-0.06400672571368071,0.0319336272780347,0.03546907383088358,0.013462996461522235, ,0.06760897038334149, ,0.04771516995062223, ,0.0008682360314333764, ,0.16191481744099107,-0.23579048011582274,0.09887840862000001,1.6091606263002398,0.1627340712206396,-1.3325594159672973, ,0.133469678703897,0.10920246439409755,0.06609465360995852,0.009156898086929299,0.17152363654318578,-0.13823669249061918, ,0.8670730590820312
0.013005470773403041,0.021607900422487992,-0.08875642324819105, ,0.014293091884782673,0.020929292326544592,-0.09031965401823834, ,0.0021359231060066475, ,0.021026257385828338,0.00565760020274409,-0.06400672571368071,0.0319336272780347,0.03546907383088358,0.013462996461522235, ,0.06760897038334149, ,0.04771516995062223, ,0.0008991552283741878, ,0.16191481744099107,-0.23579048011582274,0.09887840862000001,1.6091606263002398,0.1627340712206396,-1.3325594159672973, ,0.133469678703897,0.10920246439409755,0.06609465360995852,0.009156898086929299,0.17152363654318578,-0.13823669249061918, ,0.8728978633880615
0.013260734677154072,0.02164831720109382,-0.0894777946688786, ,0.014425301404220485,0.02091274284738923,-0.09061317779969318, ,0.0017850434575540166, ,0.02022252930240767,0.0012373824767446429,-0.05006052003882908,0.010718296408307225,0.008664120792632115,0.008873569499903682, ,0.054004976375686894, ,0.013770783244628805, ,0.0009202478052594219, ,0.16364470960481736,-0.23431543813684585,0.09962118279000001,1.6093703162437245,0.16505689171665208,-1.334535199070277, ,0.14599529470533967,0.11876963899683453,0.0515495518446602,0.008299085971196817,0.15699103450925736,-0.12654884280807652, ,0.8782758712768555
0.013260734677154072,0.02164831720109382,-0.0894777946688786, ,0.014558367226613137,0.020895188878387122,-0.09090663989086646, ,0.002071871417891603, ,0.02022252930240767,0.0012373824767446429,-0.05006052003882908,0.010718296408307225,0.008664120792632115,0.008873569499903682, ,0.054004976375686894, ,0.013770783244628805, ,0.00094702974973924, ,0.16534371083714675,-0.2328867325551143,0.10009303235000001,1.6093703162437245,0.16628662021454105,-1.3356196389436854, ,0.1738039222682615,0.14850851574095583,0.04073864838874681,0.008299085971196817,0.1016073257752088,-0.07195160212288164, ,0.8839149475097656
0.01348219092999586,0.02162796590210772,-0.08993834852532859, ,0.014692265549928666,0.020876673127353865,-0.09119998607437477, ,0.001902748203091025, ,0.021760049283502315,-0.004090841326937044,-0.039915260952758005,-0.07319529736714941,-0.07301191457013866,-0.009032526500455341, ,0.045644964503320555, ,0.10338370232264144, ,0.0009687506236790534, ,0.16534371083714675,-0.2328867325551143,0.10009303235000001,1.6093703162437245,0.16628662021454105,-1.3356196389436854, ,0.1738039222682615,0.14850851574095583,0.04073864838874681,0.008299085971196817,0.1016073257752088,-0.07195160212288164, ,0.8896310329437256
0.01371331664557697,0.021585902170154683,-0.0903969477508545, ,0.014826972863557959,0.02085723785748391,-0.09149316284719342, ,0.0017242010874167304, ,0.023449282794365464,-0.002931734334507865,-0.050888172500207406,0.04714380446409569,0.05403529375413604,0.014240884185193523, ,0.05610766462961297, ,0.0717078099743608, ,0.000985538411762113, ,0.16721261219270908,-0.2312417904529045,0.10056099304,1.609580006187209,0.1683361677110226,-1.337209228758991, ,0.18390880146990463,0.16277348466290012,0.052054939607843145,0.014101615033803439,0.2410609201891934,-0.2053376356194049, ,0.8949198722839355
0.01371331664557697,0.021585902170154683,-0.0903969477508545, ,0.014962465946925022,0.020836924889109015,-0.09178611741749164, ,0.0020127427325134332, ,0.023449282794365464,-0.002931734334507865,-0.050888172500207406,0.04714380446409569,0.05403529375413604,0.014240884185193523, ,0.05610766462961297, ,0.0717078099743608, ,0.001007868940474098, ,0.16721261219270908,-0.2312417904529045,0.10056099304,1.609580006187209,0.1683361677110226,-1.337209228758991, ,0.18390880146990463,0.16277348466290012,0.052054939607843145,0.014101615033803439,0.2410609201891934,-0.2053376356194049, ,0.9003100395202637
0.01393306109291157,0.02156096411331163,-0.09087879386997674, ,0.015098721868099534,0.02081577560145808,-0.09207879770146761, ,0.0018314147964355518, ,0.023437627208550915,-0.0030825626003822106,-0.051160707274655354,0.10932693236821632,0.0983682268890271,0.01822689603216411, ,0.05635816294198432, ,0.1470657530039945, ,0.001025391192728597, ,0.1689502270894096,-0.22973585754243073,0.10105487953000002,1.6097896961306934,0.17093226120656602,-1.3396528838897852, ,0.18570830050581366,0.16361541648012204,0.05239740631578948,0.01961917972658902,0.2870067195073047,-0.267358437007677, ,0.9058949947357178
0.01393306109291157,0.02156096411331163,-0.09087879386997674, ,0.01523571798240632,0.02079383093441485,-0.09237115232018332, ,0.0021242744713937975, ,0.023437627208550915,-0.0030825626003822106,-0.051160707274655354,0.10932693236821632,0.0983682268890271,0.01822689603216411, ,0.05635816294198432, ,0.1470657530039945, ,0.0010482845943674552, ,0.1689502270894096,-0.22973585754243073,0.10105487953000002,1.6097896961306934,0.17093226120656602,-1.3396528838897852, ,0.18570830050581366,0.16361541648012204,0.05239740631578948,0.01961917972658902,0.2870067195073047,-0.267358437007677, ,0.9112339019775391
0.014201767321361544,0.02151596065473322,-0.09144075754760313, ,0.01537343193103809,0.020771131390277885,-0.09266313059640112, ,0.0018498011950437451, ,0.025521974666875235,-0.004135419508268625,-0.05378755736700529,-0.02331139285996076,-0.001323248750901084,-0.004889836547486568, ,0.05967892603687565, ,0.023339276350709755, ,0.0010646420760139102, ,0.17104308769832444,-0.22783606525537148,0.10162913600000001,1.6097896961306934,0.17352835470210937,-1.3420148602804387, ,0.1913244789485298,0.17905083312919012,0.05492693627586208,0.017816076303469628,0.19081036833235976,-0.15017659203199177, ,0.916658878326416
0.014201767321361544,0.02151596065473322,-0.09144075754760313, ,0.01551184163966473,0.02074771703551802,-0.09295468255141723, ,0.0021444024564236885, ,0.025521974666875235,-0.004135419508268625,-0.05378755736700529,-0.02331139285996076,-0.001323248750901084,-0.004889836547486568, ,0.05967892603687565, ,0.023339276350709755, ,0.0010862372836221057, ,0.17104308769832444,-0.22783606525537148,0.10162913600000001,1.6097896961306934,0.17352835470210937,-1.3420148602804387, ,0.1913244789485298,0.17905083312919012,0.05492693627586208,0.017816076303469628,0.19081036833235976,-0.15017659203199177, ,0.9220099449157715
0.014463812683612649,0.02148145579277528,-0.09201430933410228, ,0.015650925317046867,0.020723627502539022,-0.09324575890189796, ,0.0018708308742282679, ,0.02865167298066138,-0.003346216878159347,-0.06388961162173715,-0.061143874416889024,-0.06557016527844797,-0.018898633510351384, ,0.07009991444476127, ,0.08964906825888853, ,0.001101621471673207, ,0.17291198905388677,-0.2260443912285514,0.10221505908,1.6097896961306934,0.1750313561995292,-1.3430770997408183, ,0.19770196158014744,0.1932727933981075,0.06528201442622952,0.015446219858184094,0.13191876616968215,-0.1266767000079797, ,0.9273478984832764
0.014463812683612649,0.02148145579277528,-0.09201430933410228, ,0.01579066145364385,0.02069890199143426,-0.093536311056715, ,0.002165503949237383, ,0.02865167298066138,-0.003346216878159347,-0.06388961162173715,-0.061143874416889024,-0.06557016527844797,-0.018898633510351384, ,0.07009991444476127, ,0.08964906825888853, ,0.0011220807500879027, ,0.17291198905388677,-0.2260443912285514,0.10221505908,1.6097896961306934,0.1750313561995292,-1.3430770997408183, ,0.19770196158014744,0.1932727933981075,0.06528201442622952,0.015446219858184094,0.13191876616968215,-0.1266767000079797, ,0.9326999187469482
0.014766930645767277,0.021443995610227203,-0.09268233043024075, ,0.01593102882022785,0.02067357927174728,-0.09382629111378032, ,0.0018048024656076842, ,0.030170662751211,-0.004027865128804292,-0.06422753813089935,-0.039374950423028576,-0.043876727050752753,-0.009983580805457942, ,0.07107509579803097, ,0.058944558121947016, ,0.0011349622918901626, ,0.17501257239567583,-0.22401331248263034,0.10289820391000001,1.6097896961306934,0.17653435769694906,-1.344302696681479, ,0.21373185035691616,0.19894537014354458,0.06582153520661158,0.013539581993913077,0.1710009745367267,-0.15428047008171522, ,0.9380779266357422
0.014766930645767277,0.021443995610227203,-0.09268233043024075, ,0.016072006466492157,0.020647697684229034,-0.0941156518568817, ,0.00209564395756, ,0.030170662751211,-0.004027865128804292,-0.06422753813089935,-0.039374950423028576,-0.043876727050752753,-0.009983580805457942, ,0.07107509579803097, ,0.058944558121947016, ,0.0011527526931062707, ,0.17501257239567583,-0.22401331248263034,0.10289820391000001,1.6097896961306934,0.17653435769694906,-1.344302696681479, ,0.21373185035691616,0.19894537014354458,0.06582153520661158,0.013539581993913077,0.1710009745367267,-0.15428047008171522, ,0.943418025970459
0.015063948854566803,0.021396428195961038,-0.09330218192517788, ,0.01621357371966503,0.02062129514259819,-0.09440434675251798, ,0.0017712244034829023, ,0.029448954978344166,-0.005986712929182024,-0.05823208227937163,-0.010379570092272881,-0.002694900365838384,0.012848537521130193, ,0.06552905529308724, ,0.010692444491804854, ,0.0011639976332949368, ,0.17715949213471024,-0.2220131246682062,0.10353338601,1.6099993860741781,0.17858390519343065,-1.3462190014573472, ,0.2191615278486623,0.20233889458096116,0.05965847011235956,0.0,0.2217951531199118,-0.18883928591152258, ,0.9488120079040527
0.015362186075731293,0.02132284626416623,-0.09386209013976357, ,0.016355710183118356,0.02059440913529846,-0.09469232994673417, ,0.0014856005316877601, ,0.030500175769057614,-0.008409566001864799,-0.054469117218486685,-0.05621972723677705,-0.05415583628867788,0.0005187143339518349, ,0.06299100136403907, ,0.07805788157177788, ,0.0011697405421948089, ,0.1794145301339838,-0.21991254132641713,0.10410634619,1.6099993860741781,0.1807700891896777,-1.3480833666566303, ,0.23033238242347276,0.21616615389173302,0.055695145174825184,0.0,0.18040734962190985,-0.156539686817969, ,0.9547228813171387
0.015362186075731293,0.02132284626416623,-0.09386209013976357, ,0.016498395734979947,0.020567076727257994,-0.09497955626195766, ,0.0017637716736981354, ,0.030500175769057614,-0.008409566001864799,-0.054469117218486685,-0.05621972723677705,-0.05415583628867788,0.0005187143339518349, ,0.06299100136403907, ,0.07805788157177788, ,0.0011801621409931128, ,0.1794145301339838,-0.21991254132641713,0.10410634619,1.6099993860741781,0.1807700891896777,-1.3480833666566303, ,0.23033238242347276,0.21616615389173302,0.055695145174825184,0.0,0.18040734962190985,-0.156539686817969, ,0.9600398540496826
0.015666330658412143,0.021238492095442308,-0.09438207353858852, ,0.016641610526744118,0.02053933456164796,-0.09526598119383257, ,0.0014903975381199725, ,0.030667889360892448,-0.00833116260763939,-0.051556391050293256,-0.10293104822459151,-0.11999318284421025,-0.020810178725201193, ,0.0605639262794085, ,0.15809111409818788, ,0.0011855110271504724, ,0.18170045906475427,-0.21781195798462807,0.10463912138,1.6102090760176624,0.1821364541873321,-1.3492792244337353, ,0.22811764797709322,0.20674714936486008,0.052919639601328915,0.007226658218149387,0.10909369741847973,-0.09916755170538544, ,0.9653358459472656
0.015666330658412143,0.021238492095442308,-0.09438207353858852, ,0.01678533498188304,0.0205112188616412,-0.09555156090805539, ,0.001774485204190956, ,0.030667889360892448,-0.00833116260763939,-0.051556391050293256,-0.10293104822459151,-0.11999318284421025,-0.020810178725201193, ,0.0605639262794085, ,0.15809111409818788, ,0.0011954936403206502, ,0.18170045906475427,-0.21781195798462807,0.10463912138,1.6102090760176624,0.1821364541873321,-1.3492792244337353, ,0.22811764797709322,0.20674714936486008,0.052919639601328915,0.007226658218149387,0.10909369741847973,-0.09916755170538544, ,0.9706988334655762
0.015666330658412143,0.021238492095442308,-0.09438207353858852, ,0.01692954979445695,0.02048276543217074,-0.09583625223721069, ,0.0020691740049536304, ,0.030667889360892448,-0.00833116260763939,-0.051556391050293256,-0.10293104822459151,-0.11999318284421025,-0.020810178725201193, ,0.0605639262794085, ,0.15809111409818788, ,0.0012100549797312, ,0.18170045906475427,-0.21781195798462807,0.10463912138,1.6102090760176624,0.1821364541873321,-1.3492792244337353, ,0.22811764797709322,0.20674714936486008,0.052919639601328915,0.007226658218149387,0.10909369741847973,-0.09916755170538544, ,0.9760959148406982
0.015904101984832247,0.021170323403118592,-0.09477224162940068, ,0.0170742359277269,0.02045400966168897,-0.09612001267760656, ,0.0019232279165135545, ,0.03053311882645868,-0.009039051458330468,-0.05006738519322765,-0.09995154994542742,-0.1173625059733996,-0.028172362546754377, ,0.059335645750459506, ,0.1541556211540099, ,0.001221746339350583, ,0.1834766876258259,-0.21619790681391515,0.10503967499000001,1.6104187659611469,0.18295627318592475,-1.350111089336195, ,0.22757060325772369,0.20902410034905458,0.05138326296774194,0.014133948835263824,0.10971289843220444,-0.10306378911792158, ,0.983828067779541
0.016016569879083977,0.021135080140843306,-0.09495679814391571, ,0.017219374612763724,0.020424986523925673,-0.09640280038610935, ,0.0020104463824182467, ,0.02948553467519009,-0.009527430931389682,-0.04768624345517202,-0.08912927964849926,-0.10303349609409392,-0.02640857384917023, ,0.05686955697119658, ,0.13623392831323045, ,0.0012344673077871581, ,0.1843261882419906,-0.21541018806074425,0.10522893333000001,1.6104187659611469,0.1835028191849865,-1.3507201184312616, ,0.22120499197778737,0.20765195089380914,0.04886138503067485,0.014133948835263824,0.11785699379874395,-0.11249919336015951, ,0.9894099235534668
0.016016569879083977,0.021135080140843306,-0.09495679814391571, ,0.017364947347060414,0.020395730579647088,-0.09668457417698001, ,0.002313000127587329, ,0.027595055963926387,-0.010744096584067928,-0.04503217824031983,-0.05043605437341937,-0.08015930952740227,-0.02442583181344099, ,0.05389638023214495, ,0.09470546602939398, ,0.0012515868763554147, ,0.1882338910763482,-0.2114870397606382,0.10604559603000001,1.6104187659611469,0.18541573018170268,-1.3531784352245577, ,0.20364150549028065,0.20994898574882914,0.04590435596541788,0.011821339237628306,0.12375577218294295,-0.153683511124328, ,0.9947829246520996
0.016534894707495185,0.020928607252461755,-0.09575856427458179, ,0.017510935893142832,0.020366275978414224,-0.09696529351870886, ,0.001650778097287419, ,0.027595055963926387,-0.010744096584067928,-0.04503217824031983,-0.05043605437341937,-0.08015930952740227,-0.02442583181344099, ,0.05389638023214495, ,0.09470546602939398, ,0.0012578242391824773, ,0.1882338910763482,-0.2114870397606382,0.10604559603000001,1.6104187659611469,0.18541573018170268,-1.3531784352245577, ,0.20364150549028065,0.20994898574882914,0.04590435596541788,0.011821339237628306,0.12375577218294295,-0.153683511124328, ,1.000432014465332
0.01682106109055039,0.020833210656344726,-0.09626245201192785, ,0.017657322277179817,0.020336656460341718,-0.09724491853085092, ,0.0013824396198879264, ,0.028206488375972394,-0.0081133510906998,-0.05238745139558756,0.037202981464585824,-0.0200144058167591,-0.009750469799558318, ,0.06004895932611883, ,0.04224030881615059, ,0.001259741398885638, ,0.19029586075376614,-0.2094019018845976,0.10656151945000002,1.6104187659611469,0.18705536817888796,-1.3551688799900392, ,0.19852916644031546,0.19770196158014744,0.05381355243243244,0.010692828053832232,0.18023294019269287,-0.22942851121104593, ,1.0056920051574707
0.01682106109055039,0.020833210656344726,-0.09626245201192785, ,0.01780408878759652,0.02030690535785666,-0.09752340998086238, ,0.0016832574728174955, ,0.028206488375972394,-0.0081133510906998,-0.05238745139558756,0.037202981464585824,-0.0200144058167591,-0.009750469799558318, ,0.06004895932611883, ,0.04224030881615059, ,0.001266158309096727, ,0.19029586075376614,-0.2094019018845976,0.10656151945000002,1.6104187659611469,0.18705536817888796,-1.3551688799900392, ,0.19852916644031546,0.19770196158014744,0.05381355243243244,0.010692828053832232,0.18023294019269287,-0.22942851121104593, ,1.0110788345336914
0.017101455463885726,0.02075338643360666,-0.09676853663598821, ,0.017951217973682123,0.02027705559745643,-0.09780072928093465, ,0.0014192987863042034, ,0.028206765041739818,-0.008107663118852124,-0.04914873675051439,-0.018331142305294253,-0.04740171307356296,-0.013308219334161786, ,0.05724468638694839, ,0.050819940889195565, ,0.0012684439878610176, ,0.1922728803695676,-0.2074866641317899,0.10708262803000002,1.6104187659611469,0.18869500617607327,-1.3570776460153802, ,0.20020451805584552,0.18903773218818878,0.05072869910828026,0.009796952866144123,0.15411480531163188,-0.1654608728202729, ,1.0165460109710693
0.017101455463885726,0.02075338643360666,-0.09676853663598821, ,0.018098692644204033,0.020247139701468367,-0.09807683848483079, ,0.0017211686365068398, ,0.028206765041739818,-0.008107663118852124,-0.04914873675051439,-0.018331142305294253,-0.04740171307356296,-0.013308219334161786, ,0.05724468638694839, ,0.050819940889195565, ,0.0012751017032822797, ,0.1922728803695676,-0.2074866641317899,0.10708262803000002,1.6104187659611469,0.18869500617607327,-1.3570776460153802, ,0.20020451805584552,0.18903773218818878,0.05072869910828026,0.009796952866144123,0.15411480531163188,-0.1654608728202729, ,1.021826982498169
0.017337835295147597,0.02068702373254366,-0.09718019643286531, ,0.018246495866016434,0.02021718978980732,-0.0983517002847209, ,0.001555258577121933, ,0.028373415203882764,-0.00796200601780354,-0.05044799130188089,-0.021278815299690564,-0.07090093977284685,-0.01916764745270204, ,0.05842468704712175, ,0.0740229997255915, ,0.0012791619478306805, ,0.19392554520465166,-0.20592667209119656,0.10750781115000001,1.6104187659611469,0.18978809817419678,-1.358295704205514, ,0.1948602496067162,0.18866191164705923,0.052054939607843145,0.009148228630138228,0.12473981332368841,-0.16218389382068849, ,1.0271539688110352
0.017337835295147597,0.02068702373254366,-0.09718019643286531, ,0.018394610962673683,0.020187237581735223,-0.09862527800801718, ,0.0018587150849063803, ,0.028373415203882764,-0.00796200601780354,-0.05044799130188089,-0.021278815299690564,-0.07090093977284685,-0.01916764745270204, ,0.05842468704712175, ,0.0740229997255915, ,0.0012874412783603335, ,0.19392554520465166,-0.20592667209119656,0.10750781115000001,1.6104187659611469,0.18978809817419678,-1.358295704205514, ,0.1948602496067162,0.18866191164705923,0.052054939607843145,0.009148228630138228,0.12473981332368841,-0.16218389382068849, ,1.0324978828430176
0.017660655975696844,0.02059795909221951,-0.0977708620885213, ,0.018543021513037366,0.02015731439761853,-0.09889753561420955, ,0.001497374342592063, ,0.027843575066499426,-0.007129815676623983,-0.05246189784606348,-0.053429736895824434,-0.04728770765637197,-0.006475324283414492, ,0.05981930850216526, ,0.0713475065251614, ,0.0012903980820819071, ,0.19610335587518296,-0.20377202961928792,0.10811706745,1.6106284559046316,0.19129109967161662,-1.3598480161067368, ,0.18462439991920385,0.18214384176289977,0.054179631020408174,0.0,0.1403254868207342,-0.1252709571864422, ,1.0380399227142334
0.017660655975696844,0.02059795909221951,-0.0977708620885213, ,0.018691711349893395,0.02012745116068826,-0.09916843769170139, ,0.0017993527905604259, ,0.027843575066499426,-0.007129815676623983,-0.05246189784606348,-0.053429736895824434,-0.04728770765637197,-0.006475324283414492, ,0.05981930850216526, ,0.0713475065251614, ,0.0012974668974774421, ,0.19610335587518296,-0.20377202961928792,0.10811706745,1.6106284559046316,0.19129109967161662,-1.3598480161067368, ,0.18462439991920385,0.18214384176289977,0.054179631020408174,0.0,0.1403254868207342,-0.1252709571864422, ,1.0433728694915771
0.017941505840885684,0.020534977721161543,-0.09831929423617786, ,0.01884066455855712,0.020097678398797277,-0.09943794945464478, ,0.0015003688195600654, ,0.027818986059703725,-0.005436640100382688,-0.05540119906002734,0.012475141048463053,0.013215020724753184,-0.004981472716096601, ,0.062231389975315944, ,0.01815885477363652, ,0.0013002463758621356, ,0.19794908903212263,-0.20198807832534205,0.10868484247000001,1.610838145848116,0.19306737416856737,-1.3615414850752119, ,0.181447306995164,0.17006620350980425,0.05750473472924188,0.012303653453311183,0.1963392441454382,-0.17688384332549323, ,1.048712968826294
0.017941505840885684,0.020534977721161543,-0.09831929423617786, ,0.018989865475487453,0.0200680262461795,-0.09970603673977574, ,0.0018000434369023384, ,0.027818986059703725,-0.005436640100382688,-0.05540119906002734,0.012475141048463053,0.013215020724753184,-0.004981472716096601, ,0.062231389975315944, ,0.01815885477363652, ,0.0013070003902005166, ,0.19794908903212263,-0.20198807832534205,0.10868484247000001,1.610838145848116,0.19306737416856737,-1.3615414850752119, ,0.181447306995164,0.17006620350980425,0.05750473472924188,0.012303653453311183,0.1963392441454382,-0.17688384332549323, ,1.0540318489074707
0.018217360424869915,0.02048279078917248,-0.09886953635652541, ,0.019139298686897135,0.020038524445208383,-0.09997266600325076, ,0.0015047384360258062, ,0.027229595539985114,-0.004958642247211871,-0.053932772132008214,0.01176156305637068,-0.0117007611622809,-0.010213982320478822, ,0.06061998776022751, ,0.0165766662325538, ,0.0013096368974781871, ,0.1997330403260685,-0.20032769075738377,0.10925650636,1.610838145848116,0.1949802851652835,-1.3632646932072428, ,0.17348618200817328,0.16057012108032281,0.05608736450704226,0.011966316914435384,0.16277635800167556,-0.16684776491229353, ,1.059251070022583
0.018217360424869915,0.02048279078917248,-0.09886953635652541, ,0.019288949027363108,0.020009202348155165,-0.10023780431748078, ,0.0018013176725484802, ,0.027229595539985114,-0.004958642247211871,-0.053932772132008214,0.01176156305637068,-0.0117007611622809,-0.010213982320478822, ,0.06061998776022751, ,0.0165766662325538, ,0.0013161063813606911, ,0.1997330403260685,-0.20032769075738377,0.10925650636,1.610838145848116,0.1949802851652835,-1.3632646932072428, ,0.17348618200817328,0.16057012108032281,0.05608736450704226,0.011966316914435384,0.16277635800167556,-0.16684776491229353, ,1.0644729137420654
0.01850130773918869,0.02043671698760214,-0.09943053657847774, ,0.01943880157844007,0.01998008891894821,-0.1005014193679678, ,0.001494721994399939, ,0.02871850532106947,-0.0038321528071252405,-0.05710507781302781,-0.011028411882869023,-0.03672095464521376,-0.012772798452596242, ,0.06403458327377023, ,0.03833336823400762, ,0.0013184260646469151, ,0.20151699162001435,-0.19872136231954507,0.10984113315,1.610838145848116,0.19648328666270337,-1.3646536476281848, ,0.17770962838664942,0.1545552794111902,0.05965847011235956,0.01094136019898372,0.1417220817800464,-0.1382895772022126, ,1.069814920425415
0.018790516202170236,0.02040252243257109,-0.10000634839669034, ,0.01958884166726786,0.01995121273493078,-0.10076347945014012, ,0.0011892230335414397, ,0.02813743473114116,-0.003095674745017459,-0.05631020622928419,0.02719609521841981,-0.02673097619064646,-0.009365252735174977, ,0.06302489794486528, ,0.03812619215078206, ,0.0013167696155301782, ,0.20330094291396023,-0.1972154294090713,0.11044390800000001,1.610838145848116,0.1979862881601232,-1.3662059595294076, ,0.17191474920012823,0.14422027592472764,0.05899559822222222,0.010078141909146346,0.14614827822518756,-0.16649820242035226, ,1.075476884841919
0.018790516202170236,0.02040252243257109,-0.10000634839669034, ,0.01973905486518421,0.019922601988619736,-0.10102395346618769, ,0.0014715873420295166, ,0.02813743473114116,-0.003095674745017459,-0.05631020622928419,0.02719609521841981,-0.02673097619064646,-0.009365252735174977, ,0.06302489794486528, ,0.03812619215078206, ,0.0013187293335871317, ,0.20330094291396023,-0.1972154294090713,0.11044390800000001,1.610838145848116,0.1979862881601232,-1.3662059595294076, ,0.17191474920012823,0.14422027592472764,0.05899559822222222,0.010078141909146346,0.14614827822518756,-0.16649820242035226, ,1.0807759761810303
0.018790516202170236,0.02040252243257109,-0.10000634839669034, ,0.019889426986337395,0.01989428448946467,-0.10128281092189742, ,0.0017593371753674616, ,0.02813743473114116,-0.003095674745017459,-0.05631020622928419,0.02719609521841981,-0.02673097619064646,-0.009365252735174977, ,0.06302489794486528, ,0.03812619215078206, ,0.0013242369316093859, ,0.20330094291396023,-0.1972154294090713,0.11044390800000001,1.610838145848116,0.1979862881601232,-1.3662059595294076, ,0.17191474920012823,0.14422027592472764,0.05899559822222222,0.010078141909146346,0.14614827822518756,-0.16649820242035226, ,1.086169958114624
0.019084552229958616,0.02036156045348,-0.1005869483227178, ,0.020039944086295038,0.019866287665605713,-0.10154002192348931, ,0.001437504094620352, ,0.026125074330347473,-0.004297601745992117,-0.051460740164044505,0.004312110661018377,0.004287596910149018,0.0024084983894292534, ,0.05787224436432925, ,0.0060511892399512865, ,0.0013256352916465582, ,0.2051235078722772,-0.19564771463560374,0.11105186801000001,1.6110478357916007,0.19976256265707393,-1.3679811072380232, ,0.16221699411704404,0.14422027592472764,0.05381355243243244,0.0021226488426469895,0.16947616184041012,-0.14511361134090517, ,1.0914969444274902
0.01933462047803338,0.020314337287411534,-0.10105713227848732, ,0.02019059246065393,0.019838638565632376,-0.10179555717445156, ,0.0012264781432677334, ,0.023969633085567148,-0.004983880419772276,-0.04418066075761251,0.02843558139579268,0.006672644040545832,0.002665511940639906, ,0.050510525232614116, ,0.029205104656519557, ,0.0013244260581297433, ,0.20671439084436746,-0.19425762271824332,0.11154445821000002,1.6110478357916007,0.20140220065425923,-1.369563158302802, ,0.15405347655595905,0.1353736684143663,0.046304684651162796,0.002078923867585215,0.16354209599790942,-0.1605422290892458, ,1.0967998504638672
0.01933462047803338,0.020314337287411534,-0.10105713227848732, ,0.020341358643655487,0.019811363860342393,-0.10204938797237541, ,0.0015003584120173291, ,0.023969633085567148,-0.004983880419772276,-0.04418066075761251,0.02843558139579268,0.006672644040545832,0.002665511940639906, ,0.050510525232614116, ,0.029205104656519557, ,0.0013265457250440514, ,0.20671439084436746,-0.19425762271824332,0.11154445821000002,1.6110478357916007,0.20140220065425923,-1.369563158302802, ,0.15405347655595905,0.1353736684143663,0.046304684651162796,0.002078923867585215,0.16354209599790942,-0.1605422290892458, ,1.1020598411560059
0.019580382112054002,0.020260373856889842,-0.10149135247962922, ,0.02049222940679245,0.019784489844499716,-0.10230148620579219, ,0.0013092928383051092, ,0.0241529442800116,-0.0050506891433906385,-0.042224141187561494,-0.0025749667627149946,0.007122172564212436,0.004088678993247415, ,0.04890554444276882, ,0.007564494689989705, ,0.0013263403335352546, ,0.20832071928220616,-0.19288297626663137,0.11200075229,1.6110478357916007,0.2030418386514445,-1.3709818518872996, ,0.15869053772319527,0.13143620714469637,0.044493886927374306,0.0019985132144663942,0.16869583021021461,-0.12565494277688635, ,1.1073558330535889
0.019580382112054002,0.020260373856889842,-0.10149135247962922, ,0.02064319175742209,0.019758042438593616,-0.10255182435100768, ,0.001583193540310178, ,0.0241529442800116,-0.0050506891433906385,-0.042224141187561494,-0.0025749667627149946,0.007122172564212436,0.004088678993247415, ,0.04890554444276882, ,0.007564494689989705, ,0.0013293621359679007, ,0.20832071928220616,-0.19288297626663137,0.11200075229,1.6110478357916007,0.2030418386514445,-1.3709818518872996, ,0.15869053772319527,0.13143620714469637,0.044493886927374306,0.0019985132144663942,0.16869583021021461,-0.12565494277688635, ,1.1126348972320557
0.019751542223455515,0.020226916946356897,-0.10179072167047726, ,0.020794232937376183,0.019732047190596673,-0.10280037546893758, ,0.0015334603981870343, ,0.0241529442800116,-0.0050506891433906385,-0.042224141187561494,-0.0025749667627149946,0.007122172564212436,0.004088678993247415, ,0.04890554444276882, ,0.007564494689989705, ,0.0013317353715751, ,0.20832071928220616,-0.19288297626663137,0.11200075229,1.6110478357916007,0.2030418386514445,-1.3709818518872996, ,0.15869053772319527,0.13143620714469637,0.044493886927374306,0.0019985132144663942,0.16869583021021461,-0.12565494277688635, ,1.1184818744659424
0.019751542223455515,0.020226916946356897,-0.10179072167047726, ,0.02094534042157465,0.019706529277723886,-0.10304711320194332, ,0.0018095516416608366, ,0.02439694080339994,-0.004591822863422525,-0.04332839741699469,0.027322078910088483,0.03464818546696039,0.00912191615449054, ,0.049936415374941395, ,0.04412301036477835, ,0.0013372275126105684, ,0.20945596101471714,-0.19197169378747286,0.11231704705000001,1.6112575257350852,0.2044082036490989,-1.3720960309242638, ,0.1602988877676871,0.12858664167814468,0.04577244689655173,0.0030609923422096784,0.19818618075930103,-0.1524883254926307, ,1.1238799095153809
0.019751542223455515,0.020226916946356897,-0.10179072167047726, ,0.021096501916632555,0.019681513508190546,-0.10329201177066745, ,0.002088121991542551, ,0.02439694080339994,-0.004591822863422525,-0.04332839741699469,0.027322078910088483,0.03464818546696039,0.00912191615449054, ,0.049936415374941395, ,0.04412301036477835, ,0.0013457604044166136, ,0.20945596101471714,-0.19197169378747286,0.11231704705000001,1.6112575257350852,0.2044082036490989,-1.3720960309242638, ,0.1602988877676871,0.12858664167814468,0.04577244689655173,0.0030609923422096784,0.19818618075930103,-0.1524883254926307, ,1.1293959617614746
0.020071096118697163,0.02017189975187526,-0.10235727170611011, ,0.021247705359471666,0.019657024322971742,-0.10353504597087013, ,0.0017426009960675225, ,0.02532376981831401,-0.004157372946340858,-0.044467292309869566,0.08042475328468886,0.07510873910910387,0.008066337574052397, ,0.051341183790377325, ,0.110042218125412, ,0.001350219287468871, ,0.21155654435650623,-0.1903421971510115,0.11291722932,1.6114672156785694,0.20714093364440772,-1.3742427102580517, ,0.16885576789763485,0.12585801267701696,0.04726650302670624,0.01373516383715182,0.24604180965969114,-0.20063059798089483, ,1.1347260475158691
0.020313801337446258,0.020136391979342787,-0.10277093728130732, ,0.021398938915936236,0.01963308579755974,-0.10377619117026259, ,0.0015624903385723112, ,0.02486445802795633,-0.00331240552547254,-0.04052155283068374,-0.04351260165302119,-0.07993374579768403,-0.021116805052852697, ,0.04765720876424758, ,0.09100901585893098, ,0.0013525778547033537, ,0.213131981862848,-0.1892069554185005,0.11335796792000001,1.6114672156785694,0.208780571641593,-1.375579725102409, ,0.15659561313279005,0.10958076392433115,0.043284813913043486,0.013031033667696939,0.07562719706823713,-0.060882326495438836, ,1.1400480270385742
0.020313801337446258,0.020136391979342787,-0.10277093728130732, ,0.02155019097939891,0.019609721643723398,-0.10401542330534388, ,0.0018316076144118834, ,0.02486445802795633,-0.00331240552547254,-0.04052155283068374,-0.04351260165302119,-0.07993374579768403,-0.021116805052852697, ,0.04765720876424758, ,0.09100901585893098, ,0.001357841917996854, ,0.213131981862848,-0.1892069554185005,0.11335796792000001,1.6114672156785694,0.208780571641593,-1.375579725102409, ,0.15659561313279005,0.10958076392433115,0.043284813913043486,0.013031033667696939,0.07562719706823713,-0.060882326495438836, ,1.1453208923339844
0.020581478201714694,0.020095956879838933,-0.10320098588673973, ,0.021701450169373925,0.019586955211266237,-0.10425271887823664, ,0.001618506160740614, ,0.028216167918920187,-0.004331171015502066,-0.045383293408301606,-0.09023977855649369,-0.12472969258018554,-0.029332590429426986, ,0.05361487195711856, ,0.153949736353183, ,0.0013606752249831992, ,0.2148000921636805,-0.18800220909012147,0.11381685458000002,1.6114672156785694,0.2093271176406548,-1.375943717977054, ,0.1741228285476528,0.12737844504492724,0.0484158404863222,0.011896696038526004,0.048063025621992515,-0.031724041627419784, ,1.1505789756774902
0.020581478201714694,0.020095956879838933,-0.10320098588673973, ,0.021852705330126704,0.019564809489785326,-0.10448805495352219, ,0.0018853866300150921, ,0.028216167918920187,-0.004331171015502066,-0.045383293408301606,-0.09023977855649369,-0.12472969258018554,-0.029332590429426986, ,0.05361487195711856, ,0.153949736353183, ,0.0013663172831018216, ,0.2148000921636805,-0.18800220909012147,0.11381685458000002,1.6114672156785694,0.2093271176406548,-1.375943717977054, ,0.1741228285476528,0.12737844504492724,0.0484158404863222,0.011896696038526004,0.048063025621992515,-0.031724041627419784, ,1.1558618545532227
0.020865104315814686,0.02006202975639536,-0.10369384155141798, ,0.02200394552928753,0.01954330711042939,-0.10472140915507552, ,0.001619236756323409, ,0.027587203239442328,-0.0021817662881715937,-0.05032707982197235,0.07550064535415797,0.0502648796640541,0.0074963007100003875, ,0.05743369089757053, ,0.09070051113796204, ,0.0013690079157956685, ,0.21657632072475214,-0.1867511263644971,0.11434314832000002,1.6114672156785694,0.21110339213760548,-1.3773104719849667, ,0.17129411833658983,0.11530612583046268,0.05381355243243244,0.010946123264751235,0.22362670606256427,-0.18583687215744998, ,1.1613199710845947
0.02114756758888711,0.02004339968680103,-0.1042061944199528, ,0.02215516005645943,0.019522470347657896,-0.10495275966290177, ,0.0013579284292878032, ,0.02832493418626444,-0.0017720414909272618,-0.04946621901685064,0.07762218128620822,0.054862952986271654,0.01136716558667784, ,0.05702936832479223, ,0.09505183042050151, ,0.0013688912896219014, ,0.2183525492858238,-0.18561588463198608,0.11489277528000001,1.6114672156785694,0.21369948563314886,-1.3794274121551988, ,0.17905083312919012,0.10932827368487416,0.05327361712374583,0.010138003164362364,0.23627769618881683,-0.18225565356554482, ,1.1671979427337646
0.02114756758888711,0.02004339968680103,-0.1042061944199528, ,0.022306338421831638,0.019502321120998888,-0.10518208520997059, ,0.0016086885005168077, ,0.02832493418626444,-0.0017720414909272618,-0.04946621901685064,0.07762218128620822,0.054862952986271654,0.01136716558667784, ,0.05702936832479223, ,0.09505183042050151, ,0.0013713891772353902, ,0.2183525492858238,-0.18561588463198608,0.11489277528000001,1.6114672156785694,0.21369948563314886,-1.3794274121551988, ,0.17905083312919012,0.10932827368487416,0.05327361712374583,0.010138003164362364,0.23627769618881683,-0.18225565356554482, ,1.1724920272827148
0.0214208988976478,0.020023319853784277,-0.10466922764666711, ,0.022457470354788872,0.019482880996808307,-0.10540936507905312, ,0.0013836032533598654, ,0.028666652736618097,-0.0024687079604658805,-0.047314813918019026,0.004354857260347613,-0.017250177469256806,-0.0026980135830095733, ,0.055376557442772555, ,0.01778472026561455, ,0.0013715150955459518, ,0.2200592732510274,-0.18456559296109157,0.11539184693000001,1.6114672156785694,0.2154757601300996,-1.3806308086828307, ,0.17871363758657396,0.11099057492218804,0.05105388307692308,0.009488625013775943,0.16259437900799217,-0.11068947084366293, ,1.1777899265289307
0.0214208988976478,0.020023319853784277,-0.10466922764666711, ,0.022608545802523652,0.01946417119002804,-0.10563457909955609, ,0.0016294342043901124, ,0.028666652736618097,-0.0024687079604658805,-0.047314813918019026,0.004354857260347613,-0.017250177469256806,-0.0026980135830095733, ,0.055376557442772555, ,0.01778472026561455, ,0.0013741469231872186, ,0.2200592732510274,-0.18456559296109157,0.11539184693000001,1.6114672156785694,0.2154757601300996,-1.3806308086828307, ,0.17871363758657396,0.11099057492218804,0.05105388307692308,0.009488625013775943,0.16259437900799217,-0.11068947084366293, ,1.1831190586090088
0.021716702339766063,0.019995597817046816,-0.10516010442621476, ,0.022759554928647212,0.01944621256594412,-0.10585770764435723, ,0.0013696773073348391, ,0.028531689468831164,-0.0032152566358549647,-0.04662897426125361,-0.023319756657692706,-0.03232837972250791,0.00198823168512557, ,0.054759989224221664, ,0.0398586847711621, ,0.001374101775552346, ,0.22187411547647015,-0.18339946029708365,0.11592073325,1.6116769056220543,0.21697876162751942,-1.3816113694030696, ,0.17573507696013105,0.11530612583046268,0.0502486167823344,0.0,0.14597299210154482,-0.08919385886618603, ,1.188452959060669
0.021716702339766063,0.019995597817046816,-0.10516010442621476, ,0.022910488111800242,0.019429025641945694,-0.10607873162664153, ,0.001609349071045176, ,0.028531689468831164,-0.0032152566358549647,-0.04662897426125361,-0.023319756657692706,-0.03232837972250791,0.00198823168512557, ,0.054759989224221664, ,0.0398586847711621, ,0.0013764542485072745, ,0.22187411547647015,-0.18339946029708365,0.11592073325,1.6116769056220543,0.21697876162751942,-1.3816113694030696, ,0.17573507696013105,0.11530612583046268,0.0502486167823344,0.0,0.14597299210154482,-0.08919385886618603, ,1.1937708854675293
0.02195742533169665,0.0199672700611262,-0.10553709135347679, ,0.02306133594426253,0.01941263058928416,-0.10629763249673767, ,0.0014507468472663883, ,0.027531348433729567,-0.0034960897947260133,-0.04110566592462206,-0.016360071128629434,-0.019205940581663562,-0.0048200464698099155, ,0.04959711243145962, ,0.02522702368712718, ,0.0013771898187920184, ,0.2233954938526924,-0.18244184142067982,0.11632906460000002,1.6118865955655386,0.21834512662517383,-1.3824805122196122, ,0.17770962838664942,0.10796011553864708,0.04474385258426967,0.011074632655646618,0.15928204952038552,-0.08652110839595686, ,1.1992180347442627
0.02195742533169665,0.0199672700611262,-0.10553709135347679, ,0.023212089230567282,0.01939704723482983,-0.10651439223894997, ,0.0016895125307334494, ,0.027531348433729567,-0.0034960897947260133,-0.04110566592462206,-0.016360071128629434,-0.019205940581663562,-0.0048200464698099155, ,0.04959711243145962, ,0.02522702368712718, ,0.0013802518061639933, ,0.2233954938526924,-0.18244184142067982,0.11632906460000002,1.6118865955655386,0.21834512662517383,-1.3824805122196122, ,0.17770962838664942,0.10796011553864708,0.04474385258426967,0.011074632655646618,0.15928204952038552,-0.08652110839595686, ,1.2047979831695557
0.02229207304330643,0.019914323501983668,-0.10601018765472511, ,0.02336273898610781,0.01938229506283319,-0.10672899336839865, ,0.0013950130734689868, ,0.02654469904619344,-0.004954269073918323,-0.035836702208416504,0.06329191725534772,0.012562354147291814,-0.0014324439827060336, ,0.044871316614118764, ,0.06452612203136508, ,0.0013803951194387989, ,0.22548835446160723,-0.18115986776355855,0.11681906222,1.6120962855090233,0.22039467412165545,-1.3839067445546367, ,0.18007009783391037,0.11125081073677699,0.039330398814814815,0.013158830728205801,0.19299134808525578,-0.14061418735186082, ,1.2100658416748047
0.02229207304330643,0.019914323501983668,-0.10601018765472511, ,0.023513276435752184,0.01936839321668111,-0.10694141892785165, ,0.0016298985508860432, ,0.02654469904619344,-0.004954269073918323,-0.035836702208416504,0.06329191725534772,0.012562354147291814,-0.0014324439827060336, ,0.044871316614118764, ,0.06452612203136508, ,0.0013827941908950226, ,0.22548835446160723,-0.18115986776355855,0.11681906222,1.6120962855090233,0.22039467412165545,-1.3839067445546367, ,0.18007009783391037,0.11125081073677699,0.039330398814814815,0.013158830728205801,0.19299134808525578,-0.14061418735186082, ,1.2153229713439941
0.02254186617930916,0.019868857432053435,-0.1063488228312445, ,0.023663693012452,0.019355360500657063,-0.10715165248456253, ,0.0014719748619998702, ,0.027774532626403253,-0.004647681089831381,-0.037031134753469024,0.0237148223043395,0.009351038217344385,8.93589363451735e-05, ,0.0465223660539476, ,0.025490489921978752, ,0.0013836435306198306, ,0.22731864215279846,-0.1800477942296702,0.11721831954000002,1.6120962855090233,0.22244422161813707,-1.38516961940938, ,0.18754336276377626,0.11073155374383986,0.04094810159383034,0.012292728960572898,0.20097504304253952,-0.14699533282943394, ,1.2205660343170166
0.02254186617930916,0.019868857432053435,-0.1063488228312445, ,0.023813980355857026,0.019343215381696102,-0.10735967812710145, ,0.001707747777758757, ,0.027774532626403253,-0.004647681089831381,-0.037031134753469024,0.0237148223043395,0.009351038217344385,8.93589363451735e-05, ,0.0465223660539476, ,0.025490489921978752, ,0.0013867011178569904, ,0.22731864215279846,-0.1800477942296702,0.11721831954000002,1.6120962855090233,0.22244422161813707,-1.38516961940938, ,0.18754336276377626,0.11073155374383986,0.04094810159383034,0.012292728960572898,0.20097504304253952,-0.14699533282943394, ,1.2258150577545166
0.02281965304940218,0.019828084564606687,-0.1067221863012871, ,0.02396413031092026,0.019331975991149598,-0.10756548046219777, ,0.0015056882016591545, ,0.028882455014798143,-0.003641269664330242,-0.039257920081619324,0.0012014227734316442,-0.012792087451216157,-0.001708408805269192, ,0.048873708080981744, ,0.012844752652509615, ,0.0013878131466775715, ,0.22917209804261232,-0.1789975025587757,0.11763053976000001,1.6120962855090233,0.22422049611508776,-1.386373015937012, ,0.1905561075471301,0.10439707542186004,0.0434027561852861,0.011234099094412201,0.1787726771554654,-0.10039425292082345, ,1.231165885925293
0.02281965304940218,0.019828084564606687,-0.1067221863012871, ,0.024114134926514815,0.019321660126536824,-0.10776904461156833, ,0.001740132570654403, ,0.028882455014798143,-0.003641269664330242,-0.039257920081619324,0.0012014227734316442,-0.012792087451216157,-0.001708408805269192, ,0.048873708080981744, ,0.012844752652509615, ,0.0013910753635662455, ,0.22917209804261232,-0.1789975025587757,0.11763053976000001,1.6120962855090233,0.22422049611508776,-1.386373015937012, ,0.1905561075471301,0.10439707542186004,0.0434027561852861,0.011234099094412201,0.1787726771554654,-0.10039425292082345, ,1.236649990081787
0.023118360089257,0.019790326345859678,-0.10712743308748099, ,0.024263986454040307,0.019312285253309896,-0.10797035620875903, ,0.001500500730502294, ,0.0292120966196534,-0.003660977193772215,-0.03949941995155567,-0.0027857462901325312,-0.009942383747797257,-0.00040293016023400236, ,0.049264120000651994, ,0.010320621397428837, ,0.0013920792660152002, ,0.23114139492553956,-0.1779240426892585,0.11807905610000001,1.6120962855090233,0.22613340711180394,-1.3871977579274968, ,0.1917109930474157,0.10428235336095688,0.04376047120879121,0.010302292539424666,0.18297976148179143,-0.09645935395073342, ,1.2420079708099365
0.023418727600513917,0.019752510798660233,-0.1075374253919365, ,0.024413677346037225,0.019303868506607473,-0.10816940139597567, ,0.0012611893482013551, ,0.02896232512142934,-0.0036085669536127527,-0.03976267715536763,-0.03652910815820783,-0.014127527310531239,-0.010475401297958636, ,0.049324522566975525, ,0.03916456782148029, ,0.0013908893576714378, ,0.23308752360984414,-0.17684286008686706,0.11853275760000001,1.6125156653959922,0.22790968160875466,-1.3879927607544258, ,0.18643799913255554,0.10348630486201829,0.04400224176795581,0.01849435037425551,0.17189992200939036,-0.05995712219186586, ,1.247558832168579
0.023418727600513917,0.019752510798660233,-0.1075374253919365, ,0.024563200254796577,0.0192964266930154,-0.10836616682092161, ,0.0014848039345108557, ,0.02896232512142934,-0.0036085669536127527,-0.03976267715536763,-0.03652910815820783,-0.014127527310531239,-0.010475401297958636, ,0.049324522566975525, ,0.03916456782148029, ,0.0013917354349402616, ,0.23308752360984414,-0.17684286008686706,0.11853275760000001,1.6125156653959922,0.22790968160875466,-1.3879927607544258, ,0.18643799913255554,0.10348630486201829,0.04400224176795581,0.01849435037425551,0.17189992200939036,-0.05995712219186586, ,1.252835988998413
0.02369652664933142,0.01972133340937042,-0.10792175653002298, ,0.024712548030970706,0.019289976292324727,-0.10856063963363245, ,0.0012753587849902665, ,0.02921247473175814,-0.002637694583720886,-0.040712425871215895,0.03709021714971018,0.017827740373772445,-0.0006243559392899677, ,0.050177960630040035, ,0.041150949993002124, ,0.001390696357708565, ,0.23489464310241268,-0.17587751847758898,0.11895923701000001,1.612725355339477,0.22995922910523628,-1.3890922781288881, ,0.18791473575934806,0.09585549652370785,0.04525230545454546,0.016246452360186115,0.20629895159042877,-0.12657464870783902, ,1.2581439018249512
0.02369652664933142,0.01972133340937042,-0.10792175653002298, ,0.024861713722184476,0.019284533459291764,-0.10875280748331373, ,0.0014963625222846415, ,0.02921247473175814,-0.002637694583720886,-0.040712425871215895,0.03709021714971018,0.017827740373772445,-0.0006243559392899677, ,0.050177960630040035, ,0.041150949993002124, ,0.0013916314565101233, ,0.23489464310241268,-0.17587751847758898,0.11895923701000001,1.612725355339477,0.22995922910523628,-1.3890922781288881, ,0.18791473575934806,0.09585549652370785,0.04525230545454546,0.016246452360186115,0.20629895159042877,-0.12657464870783902, ,1.2634789943695068
0.024001071364736407,0.01969605606677454,-0.10833476541579323, ,0.025010690571647173,0.019280114025393126,-0.10894265851517151, ,0.0012497490728235793, ,0.029770798728158913,-0.0024846703310889614,-0.03875343198451393,-0.04745878875266609,-0.06593917249693694,-0.011605198051235046, ,0.04893161078633207, ,0.08124176076082178, ,0.0013903868741970834, ,0.2368176035880946,-0.17491989960118515,0.11941941996000001,1.6129350452829614,0.23146223060265614,-1.3895827664082838, ,0.18866191164705923,0.090723653497582,0.0434027561852861,0.012843439799456402,0.12248085720095835,-0.03774630512664716, ,1.2688829898834229
0.024001071364736407,0.01969605606677454,-0.10833476541579323, ,0.025159472016762136,0.019276733500587746,-0.10913018136725275, ,0.0014664276391842049, ,0.029770798728158913,-0.0024846703310889614,-0.03875343198451393,-0.04745878875266609,-0.06593917249693694,-0.011605198051235046, ,0.04893161078633207, ,0.08124176076082178, ,0.0013910480982404496, ,0.2368176035880946,-0.17491989960118515,0.11941941996000001,1.6129350452829614,0.23146223060265614,-1.3895827664082838, ,0.18866191164705923,0.090723653497582,0.0434027561852861,0.012843439799456402,0.12248085720095835,-0.03774630512664716, ,1.2742290496826172
0.02429248215029109,0.019670833988360406,-0.10869920301300115, ,0.02530805168773877,0.019274407075073836,-0.1093153651672783, ,0.001252274563876897, ,0.02911173614133481,-0.002806560859877472,-0.03519996009967459,-0.04099841010059689,-0.034168440418247896,0.03749266093234958, ,0.04576469333494521, ,0.05336944736410599, ,0.00138985177466835, ,0.23870195040940537,-0.17404723078639778,0.11983034389000001,1.613144735226446,0.23282859560031052,-1.389961836783983, ,0.1924887252707318,0.08674309100408664,0.03992183338345865,-0.02957728625482104,0.16612982674089524,-0.050135389220666626, ,1.279552936553955
0.02429248215029109,0.019670833988360406,-0.10869920301300115, ,0.025456423406203035,0.019273149621047165,-0.10949819952947863, ,0.0014667336283600927, ,0.02911173614133481,-0.002806560859877472,-0.03519996009967459,-0.04099841010059689,-0.034168440418247896,0.03749266093234958, ,0.04576469333494521, ,0.05336944736410599, ,0.001390508884528963, ,0.23870195040940537,-0.17404723078639778,0.11983034389000001,1.613144735226446,0.23282859560031052,-1.389961836783983, ,0.1924887252707318,0.08674309100408664,0.03992183338345865,-0.02957728625482104,0.16612982674089524,-0.050135389220666626, ,1.2848670482635498
0.024595326183294318,0.019642108438854916,-0.10906386313568998, ,0.02560458118380897,0.019272975694460483,-0.10967867455142993, ,0.001238082273506957, ,0.028220151803263198,-0.002599032758196994,-0.03418180290354065,0.06542749736258523,0.031359368222305194,0.0028861393674841983, ,0.04440188722130964, ,0.07255426054478037, ,0.0013892171335880988, ,0.24072530642245218,-0.17315139377298774,0.12024515669000001,1.6129350452829614,0.2348781430967921,-1.3909796754183048, ,0.18979388311694156,0.08360964013962183,0.03894574943765281,0.017535808226636727,0.22167801810374074,-0.14253672894984853, ,1.290153980255127
0.024595326183294318,0.019642108438854916,-0.10906386313568998, ,0.025752519220849184,0.019273899536781144,-0.10985678081088834, ,0.0014503075402733732, ,0.028220151803263198,-0.002599032758196994,-0.03418180290354065,0.06542749736258523,0.031359368222305194,0.0028861393674841983, ,0.04440188722130964, ,0.07255426054478037, ,0.0013897304983501598, ,0.24072530642245218,-0.17315139377298774,0.12024515669000001,1.6129350452829614,0.2348781430967921,-1.3909796754183048, ,0.18979388311694156,0.08360964013962183,0.03894574943765281,0.017535808226636727,0.22167801810374074,-0.14253672894984853, ,1.2954108715057373
0.024874274114698423,0.019619642385711806,-0.10939826598185254, ,0.025900231904866237,0.019275935076750836,-0.11003250936262728, ,0.0012541884896201947, ,0.027948099789122383,-0.002177080218582934,-0.0328167805247996,0.00817557150306481,0.01469583100566624,0.0026645123791083805, ,0.04315990088164886, ,0.016815747303581548, ,0.0013886009816107435, ,0.24260193051088874,-0.17236367501981684,0.12062756224000001,1.6129350452829614,0.23706432709303918,-1.391945574476042, ,0.18754336276377626,0.0772776397055951,0.03765676482269504,0.015378606965181908,0.2027888085397574,-0.07960624411614108, ,1.3006958961486816
0.024874274114698423,0.019619642385711806,-0.10939826598185254, ,0.02604771380926345,0.01927909593214209,-0.11020585173527044, ,0.0014646253285203463, ,0.027948099789122383,-0.002177080218582934,-0.0328167805247996,0.00817557150306481,0.01469583100566624,0.0026645123791083805, ,0.04315990088164886, ,0.016815747303581548, ,0.001389229281998426, ,0.24260193051088874,-0.17236367501981684,0.12062756224000001,1.6129350452829614,0.23706432709303918,-1.391945574476042, ,0.18754336276377626,0.0772776397055951,0.03765676482269504,0.015378606965181908,0.2027888085397574,-0.07960624411614108, ,1.3060460090637207
0.025123645353748968,0.01960187739734812,-0.10969202571840035, ,0.02619495969191616,0.01928339541151896,-0.11037679992812927, ,0.0013107482232565314, ,0.027698909132718757,-0.0019329572921194444,-0.03217116867344128,-0.06406514744793097,-0.02982767989649652,-0.016377997479837574, ,0.04249647026343221, ,0.07066823291997679, ,0.0013885859946316892, ,0.2442545953459728,-0.17168407452688508,0.12096459764000002,1.6133544251699303,0.23870396509022446,-1.3922207656985717, ,0.181447306995164,0.07379233402680464,0.036957799350348035,0.025977901744729966,0.14951343219602986,-0.0013463044925558637, ,1.3115088939666748
0.025123645353748968,0.01960187739734812,-0.10969202571840035, ,0.026341964493782465,0.01928884651599466,-0.11054534640803808, ,0.0015200151509168227, ,0.027698909132718757,-0.0019329572921194444,-0.03217116867344128,-0.06406514744793097,-0.02982767989649652,-0.016377997479837574, ,0.04249647026343221, ,0.07066823291997679, ,0.0013896545243575846, ,0.2442545953459728,-0.17168407452688508,0.12096459764000002,1.6133544251699303,0.23870396509022446,-1.3922207656985717, ,0.181447306995164,0.07379233402680464,0.036957799350348035,0.025977901744729966,0.14951343219602986,-0.0013463044925558637, ,1.3171770572662354
0.025421706866567438,0.019582886436147955,-0.11002328276292239, ,0.026488723337514404,0.01929546194098899,-0.11071148410618738, ,0.0013018287439449294, ,0.02727162895622978,-0.0013915563324861282,-0.02985760316430049,-0.024014155070762003,-0.028547975203947886,-0.023574889369631327, ,0.04046176765379386, ,0.03730472896652896, ,0.0013889462519349018, ,0.24622389222890004,-0.17092724670521106,0.12134829948000002,1.6137738050568995,0.24020696658764432,-1.3922211815371237, ,0.181447306995164,0.06540106241107566,0.034779064454148474,0.03542711442456293,0.14920356392787126,-0.030868401711864245, ,1.3224639892578125
0.02570621056704556,0.01957313800155678,-0.1103452369188081, ,0.02663523152606916,0.01930325407798967,-0.11087520641496365, ,0.0011030797529464839, ,0.027644558793789086,-0.0003071310974720289,-0.03220702959456897,0.04961507671467363,0.03519484098968917,-0.010472660499475825, ,0.04244536153362034, ,0.06083007492756522, ,0.0013866593199429946, ,0.24811596178308504,-0.17027853714377622,0.12172292729000002,1.6137738050568995,0.2421198775843605,-1.3927192085670463, ,0.18355307844965332,0.05945923656545788,0.03747955651764706,0.03542711442456293,0.21611395406329414,-0.09866403485650649, ,1.3284108638763428
0.02570621056704556,0.01957313800155678,-0.1103452369188081, ,0.026781484541319473,0.01931223501630698,-0.11103650718477936, ,0.00130466051832615, ,0.027644558793789086,-0.0003071310974720289,-0.03220702959456897,0.04961507671467363,0.03519484098968917,-0.010472660499475825, ,0.04244536153362034, ,0.06083007492756522, ,0.0013860085358031783, ,0.24811596178308504,-0.17027853714377622,0.12172292729000002,1.6137738050568995,0.2421198775843605,-1.3927192085670463, ,0.18355307844965332,0.05945923656545788,0.03747955651764706,0.03542711442456293,0.21611395406329414,-0.09866403485650649, ,1.3336968421936035
0.025973395516691606,0.01957234242143742,-0.11065647780891912, ,0.026927478042665463,0.019322416544836036,-0.11119538072091288, ,0.0011239006889930201, ,0.027018326026963725,0.0003604649584672771,-0.031147914263690225,0.022630131187339395,0.02702287676280224,-0.003877723133540398, ,0.0412348449647114, ,0.03524669328297491, ,0.0013839446944897125, ,0.2498921903441567,-0.16973022310970629,0.12208588849000002,1.6137738050568995,0.24430606158060753,-1.3936851076247838, ,0.17837770969637368,0.051546410406556636,0.03645036961098399,0.028007115065842157,0.20379894540192056,-0.06577046399164851, ,1.3389840126037598
0.025973395516691606,0.01957234242143742,-0.11065647780891912, ,0.02707320786564508,0.019333810153812903,-0.11135182178034146, ,0.0013228711517763356, ,0.027018326026963725,0.0003604649584672771,-0.031147914263690225,0.022630131187339395,0.02702287676280224,-0.003877723133540398, ,0.0412348449647114, ,0.03524669328297491, ,0.0013834675574372643, ,0.2498921903441567,-0.16973022310970629,0.12208588849000002,1.6137738050568995,0.24430606158060753,-1.3936851076247838, ,0.17837770969637368,0.051546410406556636,0.03645036961098399,0.028007115065842157,0.20379894540192056,-0.06577046399164851, ,1.3441929817199707
0.026247078418967954,0.01957621774965966,-0.11095907609622799, ,0.027218670020545146,0.01934642703657382,-0.11150582556857769, ,0.0011383009257619476, ,0.026481353327263646,0.0005655154313460599,-0.029235127822194732,-0.04145421328404431,-0.011873480899641261,-0.00484396919813627, ,0.03944964613943365, ,0.04312087651502145, ,0.0013815670409126493, ,0.2516993098367252,-0.1692359682057559,0.12244236824000002,1.6137738050568995,0.24608233607755825,-1.3938266805305881, ,0.17348618200817328,0.04640437240023021,0.034477947012987016,0.022130488283966847,0.16032153396184243,0.0018969526772938533, ,1.3495049476623535
0.026247078418967954,0.01957621774965966,-0.11095907609622799, ,0.0273638606910128,0.01936027809131401,-0.11165738773650427, ,0.0013347178451438477, ,0.026481353327263646,0.0005655154313460599,-0.029235127822194732,-0.04145421328404431,-0.011873480899641261,-0.00484396919813627, ,0.03944964613943365, ,0.04312087651502145, ,0.0013812066624836587, ,0.2516993098367252,-0.1692359682057559,0.12244236824000002,1.6137738050568995,0.24608233607755825,-1.3938266805305881, ,0.17348618200817328,0.04640437240023021,0.034477947012987016,0.022130488283966847,0.16032153396184243,0.0018969526772938533, ,1.3548169136047363
0.026515346101766424,0.01958487169808437,-0.11125525296509363, ,0.02750877623266609,0.019375373922845922,-0.11180650437721004, ,0.0011552795601799271, ,0.02674082614066859,0.001020514601696125,-0.029357836000527104,-0.037249371263425084,-0.00904758401200486,0.0038604104591517204, ,0.0397239948566554, ,0.03833213570564169, ,0.0013794820281149282, ,0.25345237019917416,-0.1687880496990509,0.12279236654000002,1.6141931849438687,0.24772197407474353,-1.3938568355326963, ,0.17476416493272703,0.04245948168164241,0.034779064454148474,0.014902193809193482,0.16572216645679091,-0.0001844035458219359, ,1.360062837600708
0.026515346101766424,0.01958487169808437,-0.11125525296509363, ,0.027653413171705173,0.01939172484435774,-0.11195317202282518, ,0.0013489230422556934, ,0.02674082614066859,0.001020514601696125,-0.029357836000527104,-0.037249371263425084,-0.00904758401200486,0.0038604104591517204, ,0.0397239948566554, ,0.03833213570564169, ,0.0013792505206462976, ,0.25345237019917416,-0.1687880496990509,0.12279236654000002,1.6141931849438687,0.24772197407474353,-1.3938568355326963, ,0.17476416493272703,0.04245948168164241,0.034779064454148474,0.014902193809193482,0.16572216645679091,-0.0001844035458219359, ,1.3653349876403809
0.026780815253863163,0.019603649371059663,-0.11155099956154839, ,0.02779776820352274,0.019409340879170758,-0.11209738764135527, ,0.0011706788738148925, ,0.026758953553905784,0.0023931537702167674,-0.029596348110492634,0.016618638147041107,0.01934477548062692,-0.04329205024494217, ,0.039971397295384244, ,0.025502485440518283, ,0.0013776823127753847, ,0.25518226236300046,-0.16842508125396233,0.12314366113000001,1.614822254774322,0.24949824857169425,-1.3939984084385006, ,0.17476416493272703,0.032124895585128904,0.03531887254988914,0.07054226493725127,0.18509947436974966,-0.030090752627726758, ,1.3705699443817139
0.026780815253863163,0.019603649371059663,-0.11155099956154839, ,0.027941838191317094,0.019428231762502177,-0.11223914863352123, ,0.0013609903540963357, ,0.026758953553905784,0.0023931537702167674,-0.029596348110492634,0.016618638147041107,0.01934477548062692,-0.04329205024494217, ,0.039971397295384244, ,0.025502485440518283, ,0.0013775577459195709, ,0.25518226236300046,-0.16842508125396233,0.12314366113000001,1.614822254774322,0.24949824857169425,-1.3939984084385006, ,0.17476416493272703,0.032124895585128904,0.03531887254988914,0.07054226493725127,0.18509947436974966,-0.030090752627726758, ,1.375870943069458
0.026780815253863163,0.019603649371059663,-0.11155099956154839, ,0.028085620164700172,0.019448406943217273,-0.11237845282958822, ,0.0015528344977931727, ,0.026758953553905784,0.0023931537702167674,-0.029596348110492634,0.016618638147041107,0.01934477548062692,-0.04329205024494217, ,0.039971397295384244, ,0.025502485440518283, ,0.0013788560922297457, ,0.25518226236300046,-0.16842508125396233,0.12314366113000001,1.614822254774322,0.24949824857169425,-1.3939984084385006, ,0.17476416493272703,0.032124895585128904,0.03531887254988914,0.07054226493725127,0.18509947436974966,-0.030090752627726758, ,1.3813838958740234
0.026780815253863163,0.019603649371059663,-0.11155099956154839, ,0.028229111318310397,0.019469875585592253,-0.11251529848620552, ,0.0017450871989864937, ,0.026758953553905784,0.0023931537702167674,-0.029596348110492634,0.016618638147041107,0.01934477548062692,-0.04329205024494217, ,0.039971397295384244, ,0.025502485440518283, ,0.001381548968014722, ,0.25518226236300046,-0.16842508125396233,0.12314366113000001,1.614822254774322,0.24949824857169425,-1.3939984084385006, ,0.17476416493272703,0.032124895585128904,0.03531887254988914,0.07054226493725127,0.18509947436974966,-0.030090752627726758, ,1.3868110179901123
0.026908607525029896,0.01961661840660712,-0.11169336097438035, ,0.02837230901042365,0.01949264657107192,-0.11264968428324068, ,0.0017528106929784026, ,0.026798356245615117,0.002960610273355651,-0.02990348460762271,0.022572893539269407,0.013107359160700181,-0.05253435784071522, ,0.04026332701523715, ,0.026102001365471757, ,0.0013842589076129969, ,0.2560085947805425,-0.1682860720622263,0.12331347512000002,1.6150319447178065,0.2503180675702869,-1.3940951646796953, ,0.17316960138407075,0.02785351968255673,0.03571482403587444,0.07961504648834641,0.17561414580421955,-0.029571468529797383, ,1.3921730518341064
0.026908607525029896,0.01961661840660712,-0.11169336097438035, ,0.028515210761564103,0.019516728500028144,-0.11278160932061597, ,0.001943048227956042, ,0.026798356245615117,0.002960610273355651,-0.02990348460762271,0.022572893539269407,0.013107359160700181,-0.05253435784071522, ,0.04026332701523715, ,0.026102001365471757, ,0.0013883081055864972, ,0.2560085947805425,-0.1682860720622263,0.12331347512000002,1.6150319447178065,0.2503180675702869,-1.3940951646796953, ,0.17316960138407075,0.02785351968255673,0.03571482403587444,0.07961504648834641,0.17561414580421955,-0.029571468529797383, ,1.3975398540496826
0.027525593851623183,0.019689025262968257,-0.11234694443401606, ,0.028657814253114304,0.019542129693516798,-0.11291107311514105, ,0.001273476546601861, ,0.024804858527335563,0.002892991679947356,-0.023033158560160073,-0.019612079131743957,-0.05436495145392661,0.007046271165934006, ,0.033973177665311965, ,0.057794248083913966, ,0.0013874819792628668, ,0.2600089704093908,-0.16776864895965324,0.12410291573000001,1.6150319447178065,0.25387061656418836,-1.3946233467117257, ,0.1644661032209199,0.016438063668538158,0.02859750721723519,0.008150792843669858,0.11039506391853597,0.005775631929210594, ,1.4028708934783936
0.027805145209162583,0.019724697616887346,-0.11259217378907264, ,0.02880011732592837,0.019568858195039937,-0.11303807559735232, ,0.0011014008630694887, ,0.02472328132389683,0.0033618080188820457,-0.022117296823616756,0.0694731527844352,0.024291444456016907,0.007795411766618585, ,0.0333424235975781, ,0.07359747236880465, ,0.0013854385427186284, ,0.26190876269645,-0.16762191703504298,0.12441272904000002,1.6154513246047757,0.2553736180616082,-1.3947871200305593, ,0.17129411833658983,0.011764520641711537,0.027994396344463976,0.024075266953741414,0.1945194800669181,-0.07469798317500315, ,1.408647060394287
0.027805145209162583,0.019724697616887346,-0.11259217378907264, ,0.028942117978940474,0.01959692177229993,-0.11316261710834481, ,0.0012784519256423704, ,0.02472328132389683,0.0033618080188820457,-0.022117296823616756,0.0694731527844352,0.024291444456016907,0.007795411766618585, ,0.0333424235975781, ,0.07359747236880465, ,0.0013846797723847542, ,0.26190876269645,-0.16762191703504298,0.12441272904000002,1.6154513246047757,0.2553736180616082,-1.3947871200305593, ,0.17129411833658983,0.011764520641711537,0.027994396344463976,0.024075266953741414,0.1945194800669181,-0.07469798317500315, ,1.4139289855957031
0.028069395568380104,0.01976572424090369,-0.11283591570344942, ,0.02908381436777699,0.0196263279189604,-0.11328469839660839, ,0.0011179815476206007, ,0.02541723799053482,0.004421273118932465,-0.023730646191929425,0.024967391602665985,-0.005705480468030078,-0.043241333260954876, ,0.035053205441816816, ,0.02561084975349334, ,0.0013828016158723307, ,0.26371588218901854,-0.16752152150767807,0.12471994977000002,1.616080394435229,0.2574231655580898,-1.3953965649641784, ,0.16945882421155498,0.006169242992255829,0.02982923505617978,0.07171489270019614,0.1541176542495249,-0.012447366859223527, ,1.4192469120025635
0.028069395568380104,0.01976572424090369,-0.11283591570344942, ,0.02922520480336865,0.01965708385640554,-0.1134043206148659, ,0.001292587275254979, ,0.02541723799053482,0.004421273118932465,-0.023730646191929425,0.024967391602665985,-0.005705480468030078,-0.043241333260954876, ,0.035053205441816816, ,0.02561084975349334, ,0.001382170746357524, ,0.26371588218901854,-0.16752152150767807,0.12471994977000002,1.616080394435229,0.2574231655580898,-1.3953965649641784, ,0.16945882421155498,0.006169242992255829,0.02982923505617978,0.07171489270019614,0.1541176542495249,-0.012447366859223527, ,1.4246759414672852
0.02831783169495346,0.019814439941452818,-0.11306987658361642, ,0.029366287750559685,0.01968919653549672,-0.11352148531690523, ,0.0011484321744254513, ,0.0263301152961541,0.005171866554556167,-0.0252394503095476,-0.019144550667483308,-0.03303795707378781,-0.013293501412850928, ,0.036838200649529924, ,0.03818389955888288, ,0.001380547561830218, ,0.2653531015583542,-0.1675060760419296,0.1250142076,1.6167094642656827,0.2587895305557442,-1.395285562899034, ,0.17129411833658983,0.001591622718381598,0.03160478476190477,0.03777625347511159,0.1339421012793015,0.02745897835605278, ,1.4301278591156006
0.02831783169495346,0.019814439941452818,-0.11306987658361642, ,0.02950706182671924,0.019722672638331024,-0.11363619445441515, ,0.0013203808068159395, ,0.0263301152961541,0.005171866554556167,-0.0252394503095476,-0.019144550667483308,-0.03303795707378781,-0.013293501412850928, ,0.036838200649529924, ,0.03818389955888288, ,0.0013801326186921883, ,0.2653531015583542,-0.1675060760419296,0.1250142076,1.6167094642656827,0.2587895305557442,-1.395285562899034, ,0.17129411833658983,0.001591622718381598,0.03160478476190477,0.03777625347511159,0.1339421012793015,0.02745897835605278, ,1.435420036315918
0.02859264544614348,0.01987082406013091,-0.11334673420155485, ,0.029647525800353722,0.019757518580001954,-0.1137484503738229, ,0.0011344543078448239, ,0.02596421359005753,0.005625716632774728,-0.027009467007974013,0.0049514721805228,0.0039822312566793324,0.005544666403812932, ,0.03788535842561402, ,0.006353020419905576, ,0.0013784498905356993, ,0.26711388465367736,-0.16749835330905538,0.12535772445,1.6167094642656827,0.26029253205316405,-1.395122621257305, ,0.1659037439833405,0.0,0.033393734842767295,0.024734675606584905,0.16829116621746884,0.0015380355625524839, ,1.4407579898834229
0.02859264544614348,0.01987082406013091,-0.11334673420155485, ,0.02978767858971602,0.01979374051035524,-0.11385825581312764, ,0.0013021906338892607, ,0.02596421359005753,0.005625716632774728,-0.027009467007974013,0.0049514721805228,0.0039822312566793324,0.005544666403812932, ,0.03788535842561402, ,0.006353020419905576, ,0.0013779311200823223, ,0.26711388465367736,-0.16749835330905538,0.12535772445,1.6167094642656827,0.26029253205316405,-1.395122621257305, ,0.1659037439833405,0.0,0.033393734842767295,0.024734675606584905,0.16829116621746884,0.0015380355625524839, ,1.446030855178833
0.028854892606268688,0.019929092919145238,-0.1136142969797044, ,0.029927519261418206,0.019831344315749812,-0.11396561389873663, ,0.0011329193741839256, ,0.02534182600523065,0.005333472547767178,-0.02475021892204654,0.013989426427316239,0.022098609479192673,0.016399280680137008, ,0.035822163689347424, ,0.026154221557068206, ,0.0013762756353127383, ,0.2688128858860067,-0.16752152150767807,0.12569087098,1.6167094642656827,0.26220544304988025,-1.3952122545865249, ,0.16648586238328208,-0.0008953990205751747,0.031110960000000003,0.017291352757386545,0.1885408448645447,-0.008596198498284649, ,1.4512598514556885
0.028854892606268688,0.019929092919145238,-0.1136142969797044, ,0.03006704702904081,0.019870335620813914,-0.11407052814230009, ,0.0012965020780841918, ,0.02534182600523065,0.005333472547767178,-0.02475021892204654,0.013989426427316239,0.022098609479192673,0.016399280680137008, ,0.035822163689347424, ,0.026154221557068206, ,0.0013757402423112044, ,0.2688128858860067,-0.16752152150767807,0.12569087098,1.6167094642656827,0.26220544304988025,-1.3952122545865249, ,0.16648586238328208,-0.0008953990205751747,0.031110960000000003,0.017291352757386545,0.1885408448645447,-0.008596198498284649, ,1.4565849304199219
0.02912975814773209,0.019992342282028716,-0.11386520039864859, ,0.030206261251745515,0.019910719790205818,-0.11417300243754751, ,0.0011226144749076831, ,0.025885205605437535,0.005675830395971034,-0.021617750599237106,-0.02336237222904761,-0.008214644782482836,0.006452344078622068, ,0.034199211407434815, ,0.02476441204369139, ,0.0013740527371951812, ,0.2706431735771979,-0.1675910261035461,0.12601235090000001,1.6173385340961361,0.2641183540465964,-1.3949751729551825, ,0.17541024317647097,-0.007623302321256419,0.028292738046181175,0.025376265565673146,0.16542948457009415,0.037444414973085496, ,1.4620029926300049
0.02912975814773209,0.019992342282028716,-0.11386520039864859, ,0.030345161432884366,0.019952501930369963,-0.11427304105712152, ,0.001282624809475818, ,0.025885205605437535,0.005675830395971034,-0.021617750599237106,-0.02336237222904761,-0.008214644782482836,0.006452344078622068, ,0.034199211407434815, ,0.02476441204369139, ,0.0013734472542301522, ,0.2706431735771979,-0.1675910261035461,0.12601235090000001,1.6173385340961361,0.2641183540465964,-1.3949751729551825, ,0.17541024317647097,-0.007623302321256419,0.028292738046181175,0.025376265565673146,0.16542948457009415,0.037444414973085496, ,1.4676589965820312
0.02939320885312207,0.0200508990201942,-0.1140753029826638, ,0.030483747218612932,0.01999568689129838,-0.11437064864941565, ,0.0011311725636054758, ,0.026446950067760006,0.005772714420192999,-0.020246363110496067,-0.003071064138622443,0.005807684136912335,-0.09088629213146526, ,0.03380355926327509, ,0.00656941610582127, ,0.001371853341791832, ,0.27244257033689223,-0.16766825343228833,0.12629105325,1.6185966737570436,0.26575799204378164,-1.3945969342565876, ,0.18249411838167456,-0.007902977301977886,0.027182272218430035,0.1287454117060615,0.16930757648526543,0.04503778356655527, ,1.4729979038238525
0.02939320885312207,0.0200508990201942,-0.1140753029826638, ,0.030622018396499546,0.020040279268286807,-0.11446583023540724, ,0.0012894173909799235, ,0.026446950067760006,0.005772714420192999,-0.020246363110496067,-0.003071064138622443,0.005807684136912335,-0.09088629213146526, ,0.03380355926327509, ,0.00656941610582127, ,0.001371314544727702, ,0.27244257033689223,-0.16766825343228833,0.12629105325,1.6185966737570436,0.26575799204378164,-1.3945969342565876, ,0.18249411838167456,-0.007902977301977886,0.027182272218430035,0.1287454117060615,0.16930757648526543,0.04503778356655527, ,1.4784338474273682
0.02949491448906479,0.020072568038628724,-0.11415364088620113, ,0.030759974894137277,0.02008628340369437,-0.11455859120549475, ,0.0013283639188178275, ,0.02641869748970723,0.005743897149426664,-0.020037933628015814,-0.0029420378350462732,0.00636029943616051,-0.06492116787913997, ,0.033652023945026276, ,0.007007550576216322, ,0.001371035644559456, ,0.2731453390284467,-0.16769914436378522,0.12639605274000001,1.6188063637005279,0.26644117454260885,-1.3944189151138047, ,0.1828457448140092,-0.008421217415392783,0.02699798562711865,0.1025875582334748,0.17466567161745994,0.038553338280326976, ,1.4838550090789795
0.02949491448906479,0.020072568038628724,-0.11415364088620113, ,0.030897616777754267,0.020133703388701484,-0.11464893731633198, ,0.0014888350464116514, ,0.02641869748970723,0.005743897149426664,-0.020037933628015814,-0.0029420378350462732,0.00636029943616051,-0.06492116787913997, ,0.033652023945026276, ,0.007007550576216322, ,0.0013717956407004379, ,0.2731453390284467,-0.16769914436378522,0.12639605274000001,1.6188063637005279,0.26644117454260885,-1.3944189151138047, ,0.1828457448140092,-0.008421217415392783,0.02699798562711865,0.1025875582334748,0.17466567161745994,0.038553338280326976, ,1.4892749786376953
0.02991132979248771,0.020162083331153425,-0.11444101382501415, ,0.03103494425082517,0.020182543065068635,-0.11473687468766379, ,0.0011620936716739555, ,0.02538237447298193,0.005247534009432153,-0.016414582685776145,-0.006004544261341191,-0.0011516624623108336,0.04884983861450977, ,0.030679636109559934, ,0.006113892913855702, ,0.0013704513973092425, ,0.2761031457192747,-0.16789221268564083,0.12679531006,1.6188063637005279,0.26944717753744857,-1.3940113530902063, ,0.18249411838167456,-0.011732432002621099,0.02328773614035088,-0.01401503333815288,0.18650349561063648,0.01365078995303498, ,1.4954509735107422
0.030169049657752058,0.020213467661536373,-0.11460209685860216, ,0.03117195765268268,0.020232806026895568,-0.11482240979916225, ,0.0010270035104364339, ,0.024352060559710346,0.00473566500448214,-0.014515624098381575,-0.029444317749094135,-0.02092443421906378,0.014651869276202543, ,0.028742872499177827, ,0.036122003691148825, ,0.001368263831150817, ,0.277833037883101,-0.16799260821300577,0.12701179049000003,1.6188063637005279,0.2710868155346338,-1.393714793131752, ,0.1760611160639532,-0.009736855568477419,0.02115380015936255,0.015546600559191126,0.15752542064920522,0.04156165007782617, ,1.5008220672607422
0.030169049657752058,0.020213467661536373,-0.11460209685860216, ,0.031308657457127034,0.02028449562237826,-0.11490554948726052, ,0.001181454360293829, ,0.024352060559710346,0.00473566500448214,-0.014515624098381575,-0.029444317749094135,-0.02092443421906378,0.014651869276202543, ,0.028742872499177827, ,0.036122003691148825, ,0.0013670814927276716, ,0.277833037883101,-0.16799260821300577,0.12701179049000003,1.6188063637005279,0.2710868155346338,-1.393714793131752, ,0.1760611160639532,-0.009736855568477419,0.02115380015936255,0.015546600559191126,0.15752542064920522,0.04156165007782617, ,1.5061230659484863
0.030407929031374747,0.02026274932476737,-0.11473783089563372, ,0.03144504427103883,0.020337614955569044,-0.11498630094198994, ,0.001069088512217339, ,0.024740272773817563,0.0053963971982914204,-0.014304743032450246,-0.03515889771930155,-0.036649222084543305,-0.011982857926598313, ,0.029083120067645078, ,0.050786936994418753, ,0.0013652073230389274, ,0.27967877104004063,-0.16812389467186759,0.12722697463000002,1.619225743587497,0.27258981703205365,-1.3932251365294608, ,0.177046532758341,-0.014867137953700574,0.02109776360264901,0.041659023488196646,0.1354368147194124,0.06083932349332724, ,1.5113940238952637
0.030407929031374747,0.02026274932476737,-0.11473783089563372, ,0.031581118832988815,0.02039216688813413,-0.11506467170381432, ,0.0012247236954559158, ,0.024740272773817563,0.0053963971982914204,-0.014304743032450246,-0.03515889771930155,-0.036649222084543305,-0.011982857926598313, ,0.029083120067645078, ,0.050786936994418753, ,0.0013643293003665336, ,0.27967877104004063,-0.16812389467186759,0.12722697463000002,1.619225743587497,0.27258981703205365,-1.3932251365294608, ,0.177046532758341,-0.014867137953700574,0.02109776360264901,0.041659023488196646,0.1354368147194124,0.06083932349332724, ,1.5166518688201904
0.03065517302756244,0.020319164205679377,-0.11488435846155277, ,0.03171688201184931,0.020448154041112547,-0.11514066966046577, ,0.0010997998798184816, ,0.025265384545926618,0.005728876301436946,-0.014814843718793642,-0.004431415964327265,-0.014096220942423961,-0.056622548406855995, ,0.029843580119399096, ,0.014776338472583738, ,0.0013626862604873531, ,0.281447276868238,-0.16827834932935207,0.12744215877,1.620064503361435,0.2740928185294736,-1.3927354799271696, ,0.18075607915899194,-0.015503502950248452,0.02185022156378601,0.09244407070170042,0.15346500178067218,0.04476875994152714, ,1.5219058990478516
0.03065517302756244,0.020319164205679377,-0.11488435846155277, ,0.031852334805404614,0.020505578796673935,-0.11521430304377954, ,0.001255711013491042, ,0.025265384545926618,0.005728876301436946,-0.014814843718793642,-0.004431415964327265,-0.014096220942423961,-0.056622548406855995, ,0.029843580119399096, ,0.014776338472583738, ,0.0013620259194565118, ,0.281447276868238,-0.16827834932935207,0.12744215877,1.620064503361435,0.2740928185294736,-1.3927354799271696, ,0.18075607915899194,-0.015503502950248452,0.02185022156378601,0.09244407070170042,0.15346500178067218,0.04476875994152714, ,1.5273098945617676
0.030878170967581862,0.020370240064783794,-0.11501651341545098, ,0.03198747833896346,0.0205644432998783,-0.11528558042653043, ,0.001157875121580025, ,0.026378069401023312,0.006105114695529081,-0.015101449199409075,0.000708407668009125,-0.022573897879483353,-0.006502319111034783, ,0.031002076360997187, ,0.022584993280791523, ,0.0013607734605738339, ,0.28303815984032826,-0.16842508125396233,0.12763660227,1.620483883248404,0.27545918352712795,-1.3923794416416038, ,0.18754336276377626,-0.017837770969637363,0.022690614700854702,0.044328321770973296,0.16239207045868082,0.027982818935564743, ,1.532783031463623
