NicholasDascanio/dvrk_moveit_final/test/execution/third_experiment_notsharpbends/thirdexp_200vel3.0/thirdexp_200vel3.0_13.csv
Current Position (x),Current Position (y),Current Position (z), ,Planned Position (x),Planned Position (y),Planned Position (z), ,Position Error,,Cartesian linear Velocity(x),Cartesian linear Velocity(y),Cartesian linear Velocity(z),Cartesian Angular Velocity(x),Cartesian Angular Velocity(y),Cartesian Angular Velocity(z), ,Total Linear Velocity, ,Total Angular Velocity, ,MSE, ,Joint 1 Position,Joint 2 Position,Joint 3 Position,Joint 4 Position,Joint 5 Position,Joint 6 Position, ,Joint 1 Velocity,Joint 2 Velocity,Joint 3 Velocity,Joint 4 Velocity,Joint 5 Velocity,Joint 6 Velocity, ,Time Stamp
0.009087607807648352,0.02052964530244652,-0.080148329231652, ,0.009276463691819049,0.020613371701432494,-0.08031717238449426, ,0.0002668045448165604, ,0.0012200325166861333,0.00014523672172752036,-0.000577988907030698,0.22022752235597914,-0.10543685379559155,-0.026808139827069588, ,0.0013578086108727541, ,0.2441661150556444, ,2.22337120680467e-05, ,0.12818192024637842,-0.24877239407739413,0.08980826749000001,1.602869927995704,0.13595331726661325,-1.386192662732678, ,0.0021768434224092707,5.405872919365869e-05,0.0006084380428624814,-0.0022688848270884317,-0.10660472147014098,-0.22061432557172655, ,0.052198171615600586
0.009193588243725494,0.02056364198906447,-0.08028861098992503, ,0.00936599214360742,0.02062031794551408,-0.0804632415070069, ,0.00025185528827137465, ,0.0022681294259356264,0.0010121072550526092,-0.004122212470595171,0.043480866333977894,-0.12065626064539359,-0.026724148411667027, ,0.004812630033698367, ,0.12825177959347042, ,2.3575446958542504e-05, ,0.1284985522942216,-0.24874150314589724,0.08995604455,1.602869927995704,0.12912149227834124,-1.3953239407731584, ,0.008429889520223374,0.0007029634192098528,0.004348569893529894,-0.0022688848270884317,-0.11531338579799032,-0.04449158581222619, ,0.10463309288024902
0.00924095903207607,0.020594362717817824,-0.08042384515888093, ,0.009455652161562437,0.02062680803624306,-0.08060874123824704, ,0.00028518835653182963, ,0.0011140382395096642,0.00020454114333524486,-0.000984237307761897,-0.01589445917391366,-0.012662949671594812,0.0021585022766023557, ,0.0015005470190557404, ,0.02032201089497857, ,2.512025592561765e-05, ,0.12908547999266268,-0.24867972128290344,0.09009993274000001,1.602869927995704,0.1311710397748228,-1.3919311274398898, ,0.012283127599561676,0.0008738278119921638,0.001276042664160064,-0.0022688848270884317,0.0,0.01859590239360366, ,0.15719008445739746
0.009329664272357593,0.020620189016479874,-0.08056720933586393, ,0.009545440169720105,0.02063284809379773,-0.08075367915217564, ,0.0002854653788403397, ,0.001738681739762311,0.0006671860442175059,-0.0032747896327154336,-0.021946526703396245,-0.017146484017304668,-0.0027948549353902555, ,0.0037672799933535584, ,0.027850528686578592, ,2.59360373442882e-05, ,0.12995042607457583,-0.24853298935829318,0.09025548754000001,1.6026602380522197,0.1311710397748228,-1.393156308541998, ,0.015813521339521876,0.0024490483446704425,0.0035093217713152683,0.0021905087428373453,-0.0019002712199759472,0.019794057954484932, ,0.210129976272583
0.009413532164885304,0.020646779705571744,-0.08071461417592257, ,0.009635352613909671,0.02063844420992891,-0.08089806277401933, ,0.0002879707975414322, ,0.0013675736519554635,0.00011912125347122875,-0.0015149590915403497,0.0022088427993827665,-0.009829381705126563,0.00020011338543772105, ,0.002044394437380449, ,0.010074508981061154, ,2.648623780772186e-05, ,0.13076903575924362,-0.24837853470080867,0.09041363492000001,1.602869927995704,0.13144431277435373,-1.3932157868691097, ,0.014809135698887449,0.003523729791082671,0.0016467729715962404,0.0005730236521707194,0.004986491761117694,-0.005631346421798504, ,0.26351308822631836
0.009482866160756049,0.020658037954187445,-0.0808031087378819, ,0.009725385961706181,0.020643602448011937,-0.08104189958038494, ,0.0003406542296152231, ,0.001719730435647187,0.0005986212941974174,-0.003341220955119299,0.007118912220736183,-0.003967579838817531,-0.0014135988894004373, ,0.003805204028181166, ,0.008149883469567137, ,2.8162927796996063e-05, ,0.1314872499165465,-0.2482240800433242,0.09050956038,1.6030796179391889,0.13158094927411915,-1.393327204772806, ,0.016936809130549846,0.0034848079588113874,0.0035714824035874447,0.0041308856819829015,0.012326137894147363,-0.010051138950401335, ,0.31050801277160645
0.009577696768259805,0.020683992897228717,-0.0809811340164993, ,0.009815536702383321,0.02064832884309876,-0.08118519699937266, ,0.0003154068166670388, ,0.001848896993791502,8.982864897247576e-05,-0.0021934096423234964,0.004969593740091013,-0.007341299216727624,0.0018361059971532974, ,0.0028701106492372663, ,0.008865186748191398, ,2.904779160405427e-05, ,0.1324294233272019,-0.24796922985847478,0.09069881872,1.603289307882673,0.13226413177294635,-1.3938842942912881, ,0.020394786494405927,0.006005072667099642,0.0023584263429079068,0.0006458341691825396,0.013296021088143265,-0.0108420136617041, ,0.3589441776275635
0.009675811590375425,0.020697503111969433,-0.08113374163649195, ,0.009905801346867072,0.020652629401970227,-0.08132796241069074, ,0.00030435283318962995, ,0.0018989072702345455,0.00040255781035639137,-0.0036373065508287982,0.00646959271083452,-0.0026612168837701934,-0.0030639785749519122, ,0.004122851022815478, ,0.0069955489069763845, ,2.9591117031309226e-05, ,0.13343337860085108,-0.24764487507775734,0.09086085497000002,1.6034989978261578,0.1328106777720081,-1.394329965906074, ,0.018772886559539223,0.006663077543841605,0.003834571863264324,0.006100595955504406,0.01507110794262262,-0.01228947796695695, ,0.4095191955566406
0.009768598053141436,0.020702985422572734,-0.0812633602991239, ,0.009996176427685891,0.02065651010318665,-0.08147020314576844, ,0.00031102384969701864, ,0.0016571945278539425,0.0001695113974387712,-0.002553557979142472,0.00608852554915209,-0.002832824162787579,0.0003742076012476929, ,0.003048882774042466, ,0.006715283761046603, ,3.0099114717845996e-05, ,0.13440644294300336,-0.24729735209841724,0.09099826171000001,1.6037086877696423,0.13335722377106987,-1.394693958780719, ,0.017479635579014694,0.006059616917200367,0.002707139959211421,0.0024509493149988586,0.014484222534695891,-0.011777637868450364, ,0.45723414421081543
0.009840075482274438,0.0207137536597778,-0.081384855149925, ,0.010086658498927925,0.020659976897143065,-0.0816119264878714, ,0.0003394945018968289, ,0.002044774836989111,0.0003306933821541108,-0.0033195734879378678,0.0022614414606794133,-0.008409874550960922,-0.0036747107480101055, ,0.003912803392556844, ,0.00870862256845945, ,3.080635667079667e-05, ,0.13511693436743202,-0.24704250191356783,0.09112659442000001,1.6039183777131267,0.1337671332703662,-1.3948648550115275, ,0.020469573243846156,0.0065670239288459,0.0035264138853221163,0.005704934445296384,0.01099803445178708,-0.008024668535802668, ,0.5042309761047363
0.009935886661538648,0.02072325375261981,-0.0815238638576498, ,0.010177244136190047,0.020663035706118178,-0.08175313967221394, ,0.00033830022589206654, ,0.001715650314091761,6.241558765022279e-05,-0.002134781545608948,0.004375809481633246,-0.0033754810213258257,-0.0022252675109013034, ,0.002739460522310444, ,0.005526443766161487, ,3.1382234178861726e-05, ,0.1360899987095843,-0.24671814713285042,0.09127437148,1.6039183777131267,0.13417704276966252,-1.395280787462757, ,0.018769173567735515,0.006115460237670099,0.0022873078001148764,0.0051676629617241196,0.01457238579305014,-0.00975933832702374, ,0.5521011352539062
0.0100155133792744,0.020732851763958275,-0.08164962449913045, ,0.010267929936533065,0.02066569242432859,-0.0818938498860742, ,0.0003575898976560151, ,0.002124892930795679,0.0003659903132765272,-0.00386403414859374,0.011228337119626291,0.00351827586858923,-0.0017974555636084358, ,0.00442491568035553, ,0.011766640076847558, ,3.231672561943297e-05, ,0.13691633112712634,-0.2464324060165041,0.09140788935000001,1.6043377576000957,0.13486022526848973,-1.3958378769812392, ,0.021850550669691635,0.0077692146223764915,0.004086406239096974,0.006981470148502023,0.02440607704686144,-0.018002147896398635, ,0.5943241119384766
0.010122753507537559,0.02074370087719412,-0.08182007728604676, ,0.010358712518433334,0.02066795291797987,-0.08203406426890758, ,0.00032742149743398484, ,0.001971426109103778,2.9177439434250783e-05,-0.0030262188836611514,0.01781150596841821,0.012245549510015087,0.0007863789818877631, ,0.003611837892050991, ,0.021614884395051073, ,3.2881378836470026e-05, ,0.13799751372951777,-0.24603082390704442,0.09158807366,1.6043377576000957,0.1355434077673169,-1.3962316090194404, ,0.022354992122136815,0.009169357664326638,0.0031921465971943893,0.006530763555864174,0.03403562221480535,-0.026031571107933558, ,0.6370880603790283
0.010210852969854585,0.020745459064280193,-0.08195201358955947, ,0.010449588521735768,0.020669823025318564,-0.08217378991246019, ,0.000334514889834787, ,0.002037904071178167,6.377053750572932e-06,-0.0033628033824255397,0.009930637753981958,0.012414974491285629,0.001275019994866181, ,0.003932116511370401, ,0.01589808659524932, ,3.343110082987792e-05, ,0.13890879620867624,-0.24563696453045897,0.09172677669000001,1.6047571374870648,0.13622659026614414,-1.3965436623175007, ,0.022573011788408842,0.010376858623643176,0.0035209574535809023,0.005982011704150443,0.0345831138845481,-0.019404991881330363, ,0.679002046585083
0.01029972148043983,0.020745350066826727,-0.08207917423462152, ,0.01054055460760854,0.02067130855668625,-0.08231303386088397, ,0.0003437630945307461, ,0.002438229007566113,0.00012291954293212738,-0.0034814081635126865,-0.008399086097411801,-0.021869485682878855,-0.007054903426327168, ,0.00425209039277674, ,0.023426887347532174, ,3.3984102916049826e-05, ,0.1398046332220863,-0.24524310515387354,0.09186029456000001,1.6047571374870648,0.13663649976544046,-1.3966328798081682, ,0.023321932061555854,0.00938926157632543,0.003675314148592525,0.005982011704150443,0.0,-8.989274719495809e-05, ,0.7210781574249268
0.010389050463036674,0.02075386882684672,-0.08222525287933691, ,0.010631607458492528,0.020672415294568355,-0.08245180311084878, ,0.0003417507591261162, ,0.002113501789017596,0.00012532353444446836,-0.0034829725543836956,-0.012516261156638295,-0.0019640265450289922,-0.0008931621512953522, ,0.0040759898938854495, ,0.01266941960384076, ,3.446271891466433e-05, ,0.14070047023549634,-0.2448878594416592,0.09201455307,1.605176517374034,0.13731968226426766,-1.3967815756259476, ,0.021416597056752605,0.009262505956832081,0.003660954153068261,0.004411550691505009,0.01896016536538874,0.003946505003677369, ,0.7647910118103027
0.01047304414361306,0.020759917665436584,-0.08235893038272013, ,0.010722743778057254,0.020673148993649217,-0.08259010461165808, ,0.00035116980788553676, ,0.0020007760710415473,-5.48656215607433e-05,-0.002482737093072731,0.01960325716458736,0.0028686977653404216,0.0006318213591541816, ,0.003189059202366888, ,0.019812044776738313, ,3.4952771230042394e-05, ,0.1415654163174095,-0.24454805919519332,0.09215584868000001,1.605176517374034,0.1381395012628603,-1.3971233680875637, ,0.022339204698321746,0.00845112970181948,0.002649062285049061,0.004411550691505009,0.024886117179794085,-0.027368721880982917, ,0.8069791793823242
0.010549227873717395,0.020763037953518516,-0.08247288526428151, ,0.010813960291152195,0.020673515380862637,-0.0827279452653613, ,0.00037835584838432626, ,0.0019367537686718812,0.0002479901954733022,-0.00355522851844159,0.020238034948573652,0.01002261419219013,0.0015832900889362368, ,0.004056126738140218, ,0.022583862673537347, ,3.578312184975687e-05, ,0.1423531350705804,-0.2442314271473501,0.09227640365,1.6053862073175185,0.1388226837616875,-1.3976804576060458, ,0.020242521663496323,0.008006055526290577,0.0037541389394296497,0.00477762160825492,0.030011687940531998,-0.027507018146956913, ,0.8452410697937012
0.01064748333998402,0.02077504220788949,-0.08263978267385547, ,0.010905253743760427,0.020673520155444963,-0.0828653319268689, ,0.00035724609687233814, ,0.002571847016959051,0.00037765974096376227,-0.0043729141928972,-0.00016503567299674878,-0.010742319672794189,0.00013798217730528388, ,0.005087180210787481, ,0.010743587255979228, ,3.641862330168568e-05, ,0.14329530848123578,-0.24386073596938734,0.09245269909,1.6055958972610032,0.13936922976074928,-1.3979627717405503, ,0.02454019693779953,0.008927923870869462,0.0046345101891184185,0.0020102293642429315,0.013725790900553278,-0.008393139068331806, ,0.8822400569915771
0.010734034767400289,0.020776331416523332,-0.08275962119588974, ,0.01099662090295107,0.020673168988986763,-0.08300227140406514, ,0.00037211972343091166, ,0.002334834486168018,-0.0002694914682250602,-0.0023551712617425084,-0.0516772050974132,-0.012106075230095806,-0.0037729933379765422, ,0.0033272976123850675, ,0.05307627138453101, ,3.708827678922346e-05, ,0.14417570002889737,-0.24350549025717302,0.09257973551000001,1.6058055872044876,0.139915775759811,-1.3975099772137898, ,0.024913872816610862,0.010551283856957331,0.0025065006325727776,0.0053606257219357455,0.01187205063022449,0.04198310031326079, ,0.92696213722229
0.010805869554077084,0.0207723523593065,-0.08284324236836313, ,0.01108805855683077,0.020672467525483542,-0.08313877045792262, ,0.00042064767326307725, ,0.0026029503235584176,0.0001224031155263288,-0.0037639396172732846,-0.03371946800586437,-0.023253537519108664,-0.005632583198417881, ,0.004577944336935824, ,0.04096009678938323, ,3.7973055557017486e-05, ,0.14517965530254656,-0.24311163088058757,0.09270158677000001,1.6060152771479719,0.1408722312581691,-1.3974731151382591, ,0.024301393484883683,0.010062353068045643,0.003979218466150387,0.004348947096939292,0.0,0.024373653371577597, ,0.9658451080322266
0.010899154606814019,0.02078190091655615,-0.08299586867634626, ,0.011179563514499514,0.020671421381390987,-0.08327483580261585, ,0.000410679364880682, ,0.0024045096687369955,0.00015842575099432723,-0.0037085670830427145,0.005429978150329511,0.006414474435875679,0.014845250843556018, ,0.004422695476183699, ,0.008404174218806607, ,3.873955278443314e-05, ,0.1459133149255979,-0.2428413352299897,0.09283121577,1.6062249670914566,0.14169205025676176,-1.3974881926393132, ,0.025766207319704255,0.009341447203500554,0.0039515781493425954,-0.00798234553254437,0.03515434256514816,-0.015795101960655297, ,1.0028932094573975
0.011017305829443212,0.020785381323414027,-0.08316043733012904, ,0.011271132606002186,0.020670036145675252,-0.08341047410563525, ,0.0003745009100542367, ,0.0025200943894192105,0.00011190655555974387,-0.003918324833273602,0.011435189231605056,0.003659429827933624,-0.004321057792798877, ,0.004660114623891566, ,0.012006455701186247, ,3.946808403236975e-05, ,0.14709489305535423,-0.24237797125753624,0.09300621492000001,1.606434657034941,0.14237523275558894,-1.3976368884570927, ,0.025871576215504573,0.01069405575566081,0.004151371258795935,0.009941906654094985,0.027983812535135506,-0.02059667130860496, ,1.034649133682251
0.011097963821211376,0.02079170556316342,-0.08329565537721541, ,0.011362762682278952,0.02066831737986371,-0.08354569198790071, ,0.000384527485732402, ,0.00285335997767192,0.0002448600824350243,-0.004724359420553478,0.0030219276522448902,-0.0063842540152800244,-0.006457614791393227, ,0.005524598768844882, ,0.007063338000798136, ,4.020300433852986e-05, ,0.1478671663427767,-0.24204589374394458,0.09314880682000001,1.606434657034941,0.14292177875465073,-1.3980008813317375, ,0.02735570526332395,0.011477617508281421,0.0049933578432601895,0.009812318305762853,0.01919210307435237,-0.012971725348021641, ,1.0663089752197266
0.011187034299948554,0.02079774203459596,-0.08344204776398388, ,0.011454450615122824,0.020666270618100665,-0.08368049602387549, ,0.0003816461602348444, ,0.002927961400941097,2.1208970335832508e-05,-0.004393076836501626,-0.027514373362192285,-0.025386133805458788,-0.007042612228086328, ,0.005279444277310898, ,0.03743656674251186, ,4.0881401122122446e-05, ,0.14867805329457026,-0.24168292529885604,0.09330047275000002,1.6066443469784255,0.14333168825394704,-1.3976817051217025, ,0.02719110073308618,0.013020420129983943,0.004629122789886661,0.005322432451335156,0.0,0.015486996048754014, ,1.0981860160827637
0.011279681317612955,0.020796505054580132,-0.08358803030242484, ,0.01154619329712825,0.020663901367196143,-0.08381489274167972, ,0.00037427121112592227, ,0.0028468947601588118,-0.00019096164775007652,-0.0037963797450900776,-0.06344833737802727,-0.007718937990711983,-0.002815127089477997, ,0.004749081521227165, ,0.06391614443121428, ,4.1486954194390936e-05, ,0.14972062223259056,-0.24121956132640257,0.09345732384000001,1.6068540369219102,0.14510796275089774,-1.3979866355077881, ,0.02882653145761567,0.013687716941940108,0.004001208620949511,0.005896066464467289,0.020294630525233014,0.050768502897100595, ,1.132153034210205
0.01136483769035365,0.020795711431259634,-0.08371545165981899, ,0.01163798764164634,0.020661215106679724,-0.08394888862320542, ,0.00038365736418291264, ,0.002580455386657052,3.1156771515858806e-05,-0.00441490195018361,0.024322864113003138,0.03380492560898865,0.008077572575819522, ,0.005113812665387122, ,0.04164582466960636, ,4.210218542277708e-05, ,0.1506087365131264,-0.24082570194981712,0.093592138,1.6070637268653947,0.14620105474902126,-1.3980611913359537, ,0.029118423307293886,0.012897110839694317,0.0046684676201641274,0.005513240396350327,0.06348440990543601,-0.03626516685404191, ,1.164053201675415
0.011452635688721742,0.020797572501727646,-0.08383622659422468, ,0.011729830582736422,0.020658217288852063,-0.084082490104228, ,0.00039610932958283207, ,0.003050720085165329,5.052476516862771e-06,-0.004009104039756138,-0.033125430924134364,-0.0248314681829739,-0.005569285656408252, ,0.00503784018872563, ,0.041399226864712535, ,4.2739946387426724e-05, ,0.1514350689306684,-0.24048590170335124,0.09372047071,1.6070637268653947,0.14633769124878673,-1.3976008580586663, ,0.028809029009857556,0.012013791816492059,0.00426360051391863,0.004638422178161406,0.0029573694389632456,0.02192857096773527, ,1.1959621906280518
0.011513334542809827,0.020797797948822992,-0.0839261916224755, ,0.011821719075120307,0.02065491333883795,-0.08421570357452295, ,0.00044646859006794014, ,0.002923486592226935,7.485333362924635e-05,-0.004195559805573799,0.03306727393919709,0.009347903236151544,0.007984175937007305, ,0.005114205603867772, ,0.03436317650308738, ,4.375198490103893e-05, ,0.15209922395785172,-0.24021560605275338,0.09381639617000001,1.6072734168088794,0.14743078324691022,-1.3982471650678159, ,0.031022210381978024,0.011734504953440186,0.004490784189455879,0.00025004234271448447,0.04153406132528358,-0.04462852126716066, ,1.2233409881591797
0.011607162983053214,0.020795231228934143,-0.08404424480786443, ,0.011913650094133664,0.020651308654637286,-0.08434853537797668, ,0.00045523708955873894, ,0.003455581399007274,6.555693814517708e-05,-0.004759443584156974,-0.027922756224728736,-0.022129662277338584,-0.008746805538375759, ,0.005881976177108933, ,0.035628671954656, ,4.475827070977742e-05, ,0.15299506097126175,-0.23983719214191637,0.09394084001000001,1.6074831067523636,0.14770405624644115,-1.398061607174506, ,0.032410157636089745,0.013599447056244019,0.005059978246505719,0.00908945876831839,0.008568198203906514,0.01606394123499938, ,1.2495172023773193
0.011703233719310785,0.020802009646630308,-0.08420941489123135, ,0.012005620635679969,0.02064740860717807,-0.0844809918127025, ,0.00043484865512810356, ,0.0035590319972579813,0.00031403216084280555,-0.006100986494709201,-0.04057769568321643,-0.008439619020977321,-0.00495459892534191, ,0.007070174054729756, ,0.04144606794047137, ,4.563767613302416e-05, ,0.15397584804628828,-0.23942016456670825,0.09411713545000001,1.6074831067523636,0.14907042124409553,-1.3986040350304862, ,0.03279092659242252,0.014428605984258899,0.006448911546558706,0.008583599321994059,0.022985983270640505,0.027596389381236007, ,1.275590181350708
0.011805735563161833,0.020802489054921873,-0.08436336735919273, ,0.012097627716181239,0.020643218540367124,-0.08461307913115301, ,0.00041584142994221423, ,0.003035269054959079,-1.1556077062820232e-06,-0.004702738831672973,0.03436927007898049,0.04463953437117367,0.008801845029880587, ,0.005597196806468952, ,0.05633768501045245, ,4.640360694640005e-05, ,0.15500297151856013,-0.238964523327129,0.09428046799,1.6079024866393328,0.15016351324221905,-1.3987602695987926, ,0.03513400279839718,0.014129979386311909,0.005031210208464941,0.008552156916330711,0.08008946991044762,-0.04703623966269209, ,1.3036890029907227
0.01187682014858149,0.020801397429397347,-0.08445822785098178, ,0.012189668372535548,0.02063874377114578,-0.08474480354023514, ,0.00045437412937453204, ,0.0034905758922798495,-7.12543892288902e-05,-0.004750681126960785,-0.03122209476189854,-0.015093198305165697,-0.006486514825031706, ,0.005895605856721687, ,0.0346788672534186, ,4.7293031324970174e-05, ,0.15569801747724035,-0.23867105947790848,0.09438157861,1.6079024866393328,0.15057342274151536,-1.398686129609179, ,0.033579951011490014,0.014960892567944313,0.005047151939163498,0.008552156916330711,0.016953721591523772,0.0177310157804463, ,1.331644058227539
0.011979770587945696,0.020792155836489985,-0.08459394701351729, ,0.012281739662062831,0.02063398958953665,-0.08487617120142235, ,0.00044255211629494647, ,0.003243648455438693,-0.00023682493570027026,-0.004753174897270091,0.018040960994742204,0.02495906729740261,0.0073195082846915505, ,0.005759341364833118, ,0.030796612014049936, ,4.810121548053918e-05, ,0.15677147734675756,-0.23816135910820965,0.09452546680000001,1.6081121765828172,0.15180315123940433,-1.399280497041744, ,0.03521222321279064,0.016751445994434382,0.005034390493046777,0.004787293884051545,0.06080486331945907,-0.033858164007179246, ,1.3583970069885254
0.012058775030669194,0.020792213910248165,-0.08470379529646681, ,0.012373838662464406,0.020628961258700607,-0.08500718823086964, ,0.0004668659261103331, ,0.004012388410358233,7.639667537674369e-05,-0.005917556005945158,-0.03770007410724838,-0.02168915262903476,-0.005472313865710872, ,0.007150004635738588, ,0.043493849245627145, ,4.9160910709064954e-05, ,0.15749741423693464,-0.23783700432749222,0.09464213290000001,1.608321866526302,0.15193978773916977,-1.3988201637644564, ,0.036953637678532235,0.016500946193439538,0.006278601308632244,0.006491481767568716,0.014134082141382204,0.02239466259186846, ,1.379216194152832
0.012143077415380107,0.020793178727966995,-0.0848487436319078, ,0.012465962471771955,0.020623664014986637,-0.08513786069952664, ,0.0004653801417620874, ,0.003297758510828644,-4.0125537843928695e-06,-0.006347084572524637,0.041999097801940125,0.059689415803536226,0.014097019284401116, ,0.007152671519586992, ,0.07298459128366454, ,5.0182722492052894e-05, ,0.15834691485309935,-0.23742769948515832,0.09479509512,1.608321866526302,0.15330615273682416,-1.399525949100718, ,0.03654098635289595,0.018487617681369722,0.006681548456375841,0.006491481767568716,0.09751308340185162,-0.0592620815485075, ,1.4032700061798096
0.01224989355790136,0.020797625617076453,-0.08502292695257477, ,0.012558108208301446,0.020618103067984332,-0.08526819463325139, ,0.0004328750992356433, ,0.003934444255125372,5.89211806742764e-05,-0.00624188883194793,-0.06557263179899316,-0.019905611040943027,-0.006172045456742751, ,0.0073786516039597225, ,0.06852739147585162, ,5.1052176459346645e-05, ,0.1593122564623774,-0.23697205824557907,0.09497916830000001,1.6085315564697864,0.15385269873588595,-1.3989097970936761, ,0.0351600376281848,0.01741547835538095,0.006582153520661158,0.006971209594331872,0.014005962686173818,0.04945319024347117, ,1.4242541790008545
0.012319952815098928,0.02079347741580906,-0.0851307836201903, ,0.012650273010605959,0.020612283600576133,-0.08539819601292456, ,0.00046200867743617874, ,0.003499040000055717,-0.0002917451358362657,-0.004957236639500649,0.05729326958709529,0.045831493155220684,0.01554700899491225, ,0.006074750303204381, ,0.0733692340277789, ,5.2003467867460266e-05, ,0.16004591608542873,-0.23660908980049053,0.09509324182000001,1.6087412464132707,0.1550824272337749,-1.3994224857861006, ,0.04015951822195124,0.01787809750536375,0.005299005828343314,0.0026012051733214185,0.08790925523967955,-0.07452929977989599, ,1.4505410194396973
0.012402859783696447,0.02078579241238966,-0.08522922564034303, ,0.012742454037429244,0.02060621076899026,-0.08552787077456285, ,0.00048658271651132157, ,0.004116323338123945,-0.0004234030869882048,-0.004702155496125628,-0.025981229015166942,-0.023546601596722158,-0.01096207289121765, ,0.006263677378968321, ,0.03506375201821101, ,5.3016445485792924e-05, ,0.16084908030434808,-0.23623839862252774,0.09519694502,1.6089509363567556,0.15549233673307122,-1.3994300245366278, ,0.03992298761399696,0.018769173567735515,0.005026447308299148,0.011776681973002707,0.014198943711884567,0.009504232357132618, ,1.4713411331176758
0.01248509580920685,0.020776713214540617,-0.08532884258197586, ,0.012834648467654341,0.020599889702849636,-0.08565722480943176, ,0.0005111638706162037, ,0.0038774355477355156,-0.00031007090783371615,-0.005601955776966188,0.034093338973003276,0.044846370576394755,0.008090495901883196, ,0.006820011651149336, ,0.05633429426811423, ,5.428304452952971e-05, ,0.16169858092051279,-0.23583681651306806,0.09530453709000002,1.6089509363567556,0.15631215573166388,-1.399771816998244, ,0.043095795439814163,0.019948905099531383,0.005974798019504878,0.009993620021263366,0.08812251216333969,-0.0522126560800107, ,1.4874939918518066
0.01252833023763344,0.020776953935571413,-0.08539951182008268, ,0.012926853500264207,0.02059332550522966,-0.0857862639641614, ,0.0005849080374188227, ,0.004401928914360161,0.00023758132291293635,-0.0077100053892607484,0.010374314616742862,0.01945308265727548,0.0024343957785227643, ,0.008881306556723896, ,0.02204651449535272, ,5.578503351113196e-05, ,0.16214649942721782,-0.23563602545833823,0.09537972191,1.6089509363567556,0.15713197473025653,-1.4002769669401414, ,0.04228918964281229,0.019506051707804888,0.008172812478193948,0.009299693377388627,0.06131169189921542,-0.028165762921248807, ,1.5032410621643066
0.012647919757668479,0.020788354603144633,-0.08560208099544055, ,0.013019066354286783,0.020586523252705095,-0.0859149940408584, ,0.000525737828384329, ,0.005692441082457703,0.00046456425459690947,-0.00940534362258096,-0.0632615498305927,-0.0261418959930043,-0.009626524020989641, ,0.011003644581806783, ,0.06845014491933803, ,5.704694452469158e-05, ,0.1631890683652381,-0.235180384218759,0.09559490605000001,1.6093703162437245,0.15767852072931826,-1.3996608149331, ,0.04945124625246002,0.021730465206885912,0.009992980878293603,0.011526962767363256,0.021202784111818494,0.04364574175301689, ,1.5193510055541992
0.012703090219371493,0.020792444569621534,-0.08569827694926167, ,0.013111284268752231,0.020579487995404995,-0.08604342079722001, ,0.0005754104276387201, ,0.004753737401215523,0.00022086822785132829,-0.008057386899092587,0.027845778307991016,0.038972351074653876,0.0029394422746242934, ,0.009357792779040277, ,0.04789813653894681, ,5.845554938205968e-05, ,0.1637219369335596,-0.23494870223253225,0.09569731296,1.609580006187209,0.15849833972791091,-1.4000842861348566, ,0.04787938524645347,0.02077883546277004,0.008591591974110033,0.01455034347271699,0.0859103395568397,-0.04601112985676264, ,1.5350110530853271
0.012754513736391544,0.020791907385018925,-0.08578013613194363, ,0.013203504502644323,0.020572224757064075,-0.08617154994664859, ,0.000634868442708644, ,0.005348617121312062,-3.748364825976319e-06,-0.008464122602118124,-0.023946187615375623,0.0034487684944360985,-0.005089867420741032, ,0.010012446783095442, ,0.02419326067310879, ,6.004003832882681e-05, ,0.1642239145703842,-0.2347092975134313,0.09578416439000001,1.609580006187209,0.15918152222673815,-1.400069624472355, ,0.050263210571223925,0.02433878983289838,0.008973978321126761,0.013909930895550301,0.05193830612870835,0.002160110218051167, ,1.5511040687561035
0.01289504563058457,0.020791837606425015,-0.08598523616095749, ,0.013295724334853525,0.0205647385350753,-0.08629938715836447, ,0.0005575018039740768, ,0.005621082933953638,-0.00013338732026796092,-0.008265063583692353,-0.006952733788391855,0.004188016164392231,-0.0012295959914516055, ,0.009996281387099435, ,0.008116646349146434, ,6.132803044141246e-05, ,0.16555994735762503,-0.23412236981499024,0.09600323740000001,1.609580006187209,0.16041125072462709,-1.3999288832436547, ,0.0540107806251968,0.025211727300337616,0.008805313167495854,0.01098720410697193,0.057256705503066434,-0.016150678554116213, ,1.5668790340423584
0.012948603969995021,0.020789738615269147,-0.0860697504397155, ,0.01338794106412985,0.020557034300541527,-0.0864269380575195, ,0.0006121694003200259, ,0.005807636880187869,-5.7702405696850325e-05,-0.008973479448349784,-0.025523324740143565,0.009770315866791494,0.00106378759593353, ,0.010689027510007514, ,0.02732945516733908, ,6.298739769374196e-05, ,0.16607737046019808,-0.2338597968972666,0.09609268141,1.609580006187209,0.1610944332234543,-1.4001592578015745, ,0.055430456517798356,0.026243623218603643,0.009543925416417017,0.010189037390143745,0.0646465900325309,0.0012767238107283946, ,1.5773520469665527
0.012948603969995021,0.020789738615269147,-0.0860697504397155, ,0.013480152009034931,0.02054911699832785,-0.08655420822531182, ,0.0007583807924595042, ,0.005807636880187869,-5.7702405696850325e-05,-0.008973479448349784,-0.025523324740143565,0.009770315866791494,0.00106378759593353, ,0.010689027510007514, ,0.02732945516733908, ,6.511671081519657e-05, ,0.16607737046019808,-0.2338597968972666,0.09609268141,1.609580006187209,0.1610944332234543,-1.4001592578015745, ,0.055430456517798356,0.026243623218603643,0.009543925416417017,0.010189037390143745,0.0646465900325309,0.0012767238107283946, ,1.588001012802124
0.01307902695537232,0.020791021555067745,-0.08627041263757043, ,0.01357235450789583,0.020540991547113845,-0.0866812031990983, ,0.0006889382877998938, ,0.006922232395909155,0.00020307804366054402,-0.01118898130258812,-0.035959639556734604,-0.009128100926056789,-0.00594499268814634, ,0.013158717438430606, ,0.03710010415346007, ,6.698528896292066e-05, ,0.16729756225432554,-0.23329603739744822,0.09630656926000002,1.6102090760176624,0.16232416172134326,-1.400100195313015, ,0.06214599971085185,0.029398061201508913,0.011887172776119406,0.013621054411268308,0.051292883223351314,0.009198507309139847, ,1.5996990203857422
0.013155990827678604,0.020793629808408497,-0.08639075373041748, ,0.013664545918756632,0.020532662839445198,-0.08680792847250897, ,0.0007076487864685248, ,0.007652793230849993,0.00015544887033225882,-0.011857254982703593,-0.029606686574624532,-0.006678448761707092,-0.04023107903044967, ,0.01411325278985253, ,0.030350573856365, ,6.889119663249768e-05, ,0.16799260821300577,-0.232979405349605,0.09643490197000001,1.6106284559046316,0.16287070772040502,-1.3999741157468168, ,0.06901595749706967,0.032410157636089745,0.012631888596352102,0.04908909251798041,0.05245701958725701,0.005675110691188902, ,1.6102399826049805
0.013227634238208788,0.02079548541624406,-0.08651281797958596, ,0.01375672361933373,0.020524135741787797,-0.08693438949556072, ,0.0007288955769710432, ,0.007199458139214406,0.00020772670505963165,-0.012761588772596841,0.0028086570344685487,0.04157211230148749,0.05613568545871357, ,0.014653787765733652, ,0.04166687817766039, ,7.084206522558695e-05, ,0.1686644859730633,-0.23265505056888758,0.09656453097,1.610838145848116,0.16382716321876312,-1.4001822898917078, ,0.06916686702512448,0.03275696981652426,0.013544907755102044,-0.034484311417915504,0.12210874357247935,-0.04063732666792557, ,1.6207242012023926
0.013293020478273632,0.020798170629931664,-0.08662866467913921, ,0.013848885006964209,0.020515415094576488,-0.08706059167477015, ,0.0007586151834660033, ,0.007520915318946978,0.00012080152431149594,-0.012996337475235575,0.013594609195567518,0.03334646814933075,0.04453964536945471, ,0.015016109616450592, ,0.03601110893105448, ,7.286478998956999e-05, ,0.16929002733587548,-0.23236158671966706,0.09668767852000001,1.610838145848116,0.1649202552168866,-1.4005018819402952, ,0.07124395011897205,0.03445785822747668,0.013791178805194806,-0.024873533862084855,0.11348894733182407,-0.05155967117324475, ,1.6313421726226807
0.013382993660112613,0.02079738779249284,-0.08677539498842995, ,0.013941027498563366,0.020506505712270702,-0.08718654037326833, ,0.0007517011885878131, ,0.008335335985145954,-0.00015397589391436017,-0.012903221211832095,-0.029046775113020267,-0.010977368632687806,0.027890111598160558, ,0.01536211743877287, ,0.031051850329530103, ,7.483863887754613e-05, ,0.1701163597534175,-0.2319445591444589,0.09684323332000001,1.610838145848116,0.1658767107152447,-1.4004650198647646, ,0.07597833591550904,0.03734629734689916,0.013708099414802067,-0.0183697509478652,0.07119073255848314,-0.010746797980058969, ,1.6418981552124023
0.01346658719246689,0.020797145972308837,-0.08690192460855445, ,0.014033148530574337,0.020497412383404395,-0.08731224091091394, ,0.0007610462812060804, ,0.00868994088440375,-0.00026489410427405706,-0.01238216336130283,-0.07118032094747212,-0.03556830113157814,0.0190995430155286, ,0.015129547612764273, ,0.07957224292749124, ,7.681717934178881e-05, ,0.1708654648422173,-0.2315893134322446,0.09697804748000001,1.610838145848116,0.16642325671430647,-1.4005022977788473, ,0.07829780656639503,0.037243697628913185,0.013207969751243784,-0.014987375705432859,0.04746079087458085,0.032019986324032676, ,1.6524159908294678
0.013556877019169146,0.02079068815108549,-0.08702844868554603, ,0.014125245558922937,0.020488139870639608,-0.08743769856440667, ,0.0007629310075819855, ,0.008564416813465247,-0.0008378526665674047,-0.011231323305489507,-0.011214048195857093,-0.006189058456531832,0.023908429031257887, ,0.014148987795530536, ,0.012808557405304906, ,7.877633255368079e-05, ,0.17171496545838197,-0.23116456312416225,0.09711286164,1.610838145848116,0.1672430757128991,-1.4004356965397609, ,0.08230437255721663,0.04053692505701443,0.012003625862848533,-0.01247927983415637,0.08120675062922826,-0.030776096911031916, ,1.6650440692901611
0.013614422974178359,0.020785352048215352,-0.08710218239136806, ,0.014217316058967776,0.020478692910817057,-0.08756291856740143, ,0.0008184117069926477, ,0.008653017866101904,-0.0007562002440500085,-0.01102394326207137,-0.014960202531161365,-0.0032601918276832856,0.012447170685757732, ,0.014034738403174773, ,0.01531131436929065, ,8.114695875380567e-05, ,0.17227100222532613,-0.23090199020643862,0.09719193533,1.6106284559046316,0.16778962171196088,-1.4005546531939843, ,0.08368336998101479,0.03932736906691702,0.011842982542750931,0.0,0.08268144603437719,-0.02378242819921223, ,1.670492172241211
0.013614422974178359,0.020785352048215352,-0.08710218239136806, ,0.014309357525455724,0.020469076215009742,-0.08768790611062131, ,0.0009623080112546276, ,0.008653017866101904,-0.0007562002440500085,-0.01102394326207137,-0.014960202531161365,-0.0032601918276832856,0.012447170685757732, ,0.014034738403174773, ,0.01531131436929065, ,8.396216978415975e-05, ,0.17227100222532613,-0.23090199020643862,0.09719193533,1.6106284559046316,0.16778962171196088,-1.4005546531939843, ,0.08368336998101479,0.03932736906691702,0.011842982542750931,0.0,0.08268144603437719,-0.02378242819921223, ,1.6758091449737549
0.013775879544144269,0.020762864690710644,-0.08729492744353892, ,0.014401367472473675,0.020459294468574665,-0.08781266634197224, ,0.0008668584631901823, ,0.009754128864155208,-0.0012334993732168648,-0.011859072404590599,-0.036823180309624254,-0.026523592771942033,-0.005084823417854328, ,0.01540461453265204, ,0.04538113426399899, ,0.0004680520276833135, ,0.1738078260672968,-0.2301065487203935,0.09739804544000001,1.6110478357916007,0.1688827137100844,-1.4003841728017283, ,0.09204359026039842,0.046932216398848065,0.012692280095617531,0.012392943253993143,0.06444495903140844,-0.007300888849808205, ,1.6810901165008545
0.013775879544144269,0.020762864690710644,-0.08729492744353892, ,0.014493343433401201,0.020449352331204908,-0.08793720436665584, ,0.0010127013764773239, ,0.009754128864155208,-0.0012334993732168648,-0.011859072404590599,-0.036823180309624254,-0.026523592771942033,-0.005084823417854328, ,0.01540461453265204, ,0.04538113426399899, ,0.0004772833725781272, ,0.1738078260672968,-0.2301065487203935,0.09739804544000001,1.6110478357916007,0.1688827137100844,-1.4003841728017283, ,0.09204359026039842,0.046932216398848065,0.012692280095617531,0.012392943253993143,0.06444495903140844,-0.007300888849808205, ,1.6863491535186768
0.013885295742151972,0.02075680711959918,-0.08745270123777625, ,0.014585282960862842,0.020439254436981455,-0.08806152524728285, ,0.0009805551933205914, ,0.011505752923276229,-0.00018779688765991373,-0.018443089395032183,0.00461077547272139,0.02156727813919798,-0.019504327988556565, ,0.02173856399203137, ,0.02205458235654025, ,0.00048567123625716825, ,0.17482722680669446,-0.22959684835069466,0.09756656314,1.6114672156785694,0.16997580570820792,-1.4007037648503158, ,0.10382597544690457,0.05322318651624834,0.019616762955665026,0.03951839778551638,0.11966228918343273,-0.050271034821540245, ,1.6916379928588867
0.013885295742151972,0.02075680711959918,-0.08745270123777625, ,0.014677183626681375,0.020429005394425777,-0.08818563400398764, ,0.0011277104382231256, ,0.011505752923276229,-0.00018779688765991373,-0.018443089395032183,0.00461077547272139,0.02156727813919798,-0.019504327988556565, ,0.02173856399203137, ,0.02205458235654025, ,0.0004961964690762823, ,0.17482722680669446,-0.22959684835069466,0.09756656314,1.6114672156785694,0.16997580570820792,-1.4007037648503158, ,0.10382597544690457,0.05322318651624834,0.019616762955665026,0.03951839778551638,0.11966228918343273,-0.050271034821540245, ,1.6969599723815918
0.014012135094970523,0.02076168331543861,-0.08767738067861697, ,0.014769043021830816,0.020418609786551998,-0.0883095356145411, ,0.0010441402774435502, ,0.013059543067213207,0.0009752058453685277,-0.02386339414463863,-0.03431806930499151,0.013064980363058311,0.043851156896390645, ,0.027220658913178625, ,0.03672078231918465, ,0.0005050342724370446, ,0.17593157760770856,-0.22903308885087628,0.09780508050000002,1.6118865955655386,0.17134217070586233,-1.4009194777457339, ,0.11125081073677699,0.053493202682339785,0.02536434955414013,-0.02346574877994382,0.13324848156304514,-0.02225075678827753, ,1.7073609828948975
0.014090795325031519,0.020768258373904065,-0.08782129345174294, ,0.014860858756390255,0.02040807217091979,-0.08843323501446501, ,0.0010474751860177628, ,0.014093228655602629,0.0012268194424939855,-0.026525916541175015,-0.04246982473692485,0.003506600531565695,0.040882409507338416, ,0.03006240888939146, ,0.04261418927815534, ,0.0005136444456684846, ,0.17593157760770856,-0.22903308885087628,0.09780508050000002,1.6118865955655386,0.17134217070586233,-1.4009194777457339, ,0.11125081073677699,0.053493202682339785,0.02536434955414013,-0.02346574877994382,0.13324848156304514,-0.02225075678827753, ,1.7133150100708008
0.014090795325031519,0.020768258373904065,-0.08782129345174294, ,0.014952628459492974,0.020397397079684354,-0.08855673709714468, ,0.001192129106585259, ,0.014093228655602629,0.0012268194424939855,-0.026525916541175015,-0.04246982473692485,0.003506600531565695,0.040882409507338416, ,0.03006240888939146, ,0.04261418927815534, ,0.0005242457684953093, ,0.17658800990201765,-0.22871645680303307,0.09795804272000001,1.6118865955655386,0.17202535320468954,-1.4009864948233726, ,0.11658100928559063,0.05758309560586819,0.02814277653710248,-0.0223104826381571,0.12861213281672368,-0.017952458632000165, ,1.718966007232666
0.014288342541891968,0.020785203394153982,-0.08818339834187548, ,0.01504434977928355,0.02038658901965115,-0.08868004671394351, ,0.0009884836710975869, ,0.013537571222489933,0.000480783479343323,-0.023423095196751977,-0.11284155075786556,-0.0392540005016238,0.02142001420546314, ,0.02705805565731031, ,0.11947420258071226, ,0.0005313878900738058, ,0.178217506538479,-0.2279287380498622,0.09834304085000001,1.6118865955655386,0.1736649912018748,-1.4005265773846376, ,0.11034528088194276,0.05723579104853485,0.024849939968798754,-0.014624815449807541,0.07641522999531045,0.05401753447199145, ,1.7242791652679443
0.01442733570833243,0.020777147268982648,-0.08840258550265837, ,0.015136020382867484,0.02037565247232635,-0.08880316867431606, ,0.0009076887776535956, ,0.014146912879500498,-0.0010283328526584975,-0.022029646025454187,-0.05768316153369875,0.002077215208422714,0.017225647775709004, ,0.02620110525307746, ,0.05772050553395543, ,0.0005370894186734997, ,0.1794068074011096,-0.22725686028980466,0.09857507676,1.6116769056220543,0.1746214467002329,-1.400244679088685, ,0.12453666871190391,0.07024199967318341,0.02335602862170088,0.0,0.13006487361235833,-0.011426127781345725, ,1.7300519943237305
0.01442733570833243,0.020777147268982648,-0.08840258550265837, ,0.015227637956265087,0.020364591893969466,-0.0889261077459219, ,0.0010415186818727793, ,0.014146912879500498,-0.0010283328526584975,-0.022029646025454187,-0.05768316153369875,0.002077215208422714,0.017225647775709004, ,0.02620110525307746, ,0.05772050553395543, ,0.0005446182136466233, ,0.1794068074011096,-0.22725686028980466,0.09857507676,1.6116769056220543,0.1746214467002329,-1.400244679088685, ,0.12453666871190391,0.07024199967318341,0.02335602862170088,0.0,0.13006487361235833,-0.011426127781345725, ,1.73537015914917
0.014555767404709076,0.02076994265149094,-0.08860116109292746, ,0.015319200204365457,0.020353411715646322,-0.0890488686547392, ,0.0009781460632288963, ,0.014146822440435528,-0.0010934985490192986,-0.021037860484729845,-0.02432714164595272,0.023986884304297608,0.004209119448272804, ,0.025375576801579803, ,0.0341639622737219, ,0.0005509936231993036, ,0.1805420491336206,-0.22663904165986667,0.09878637203000001,1.6120962855090233,0.17585117519812185,-1.4003489740804067, ,0.12806604798714005,0.06866638318268507,0.0224349458028169,0.018900991050635228,0.15182666671089395,-0.0398701488848673, ,1.741051197052002
0.014555767404709076,0.02076994265149094,-0.08860116109292746, ,0.015410704850876847,0.020342116343279912,-0.0891714560851782, ,0.001113189006882308, ,0.014146822440435528,-0.0010934985490192986,-0.021037860484729845,-0.02432714164595272,0.023986884304297608,0.004209119448272804, ,0.025375576801579803, ,0.0341639622737219, ,0.0005591413823831153, ,0.1805420491336206,-0.22663904165986667,0.09878637203000001,1.6120962855090233,0.17585117519812185,-1.4003489740804067, ,0.12806604798714005,0.06866638318268507,0.0224349458028169,0.018900991050635228,0.15182666671089395,-0.0398701488848673, ,1.7464351654052734
0.014717139997454592,0.020756163164361647,-0.08881278615966351, ,0.015502149638280496,0.020330710157703158,-0.08929387468019502, ,0.0010142467952384971, ,0.015371290032034452,-0.0016313498584535218,-0.018153218574356693,-0.06052150677165554,-0.0071595684785505185,-0.05769425214817004, ,0.023842759995813548, ,0.060943500320710296, ,0.0005656428882810493, ,0.18203253657834592,-0.22590538203681534,0.09901451907000001,1.612725355339477,0.1773541766955417,-1.4005127473992398, ,0.14356572096591644,0.06851764733463594,0.01971387564356436,0.07635630452382451,0.12251624756924097,0.0066946876222357815, ,1.751904010772705
0.014717139997454592,0.020756163164361647,-0.08881278615966351, ,0.015593532327784489,0.020319197514711625,-0.08941612904140551, ,0.0011502282941155122, ,0.015371290032034452,-0.0016313498584535218,-0.018153218574356693,-0.06052150677165554,-0.0071595684785505185,-0.05769425214817004, ,0.023842759995813548, ,0.060943500320710296, ,0.0005738764855463235, ,0.18203253657834592,-0.22590538203681534,0.09901451907000001,1.612725355339477,0.1773541766955417,-1.4005127473992398, ,0.14356572096591644,0.06851764733463594,0.01971387564356436,0.07635630452382451,0.12251624756924097,0.0066946876222357815, ,1.7572531700134277
0.01488245409462821,0.020734808423429583,-0.089009508289833, ,0.01568485069927421,0.02030758274511454,-0.08953822372919795, ,0.00105161880317064, ,0.015910443844287147,-0.002125324580360405,-0.01984455571662564,-0.07326112038471608,-0.006013898741177332,-0.036430628276571904, ,0.02552382454657527, ,0.07350752111539577, ,0.0005805117955133279, ,0.18356163768744238,-0.22514083148226713,0.09922711063,1.612725355339477,0.17858390519343065,-1.4003720061705398, ,0.1462202489344696,0.07734062066705036,0.021352294262734585,0.054417660500736015,0.1314849864348735,0.006967815504576869, ,1.7626001834869385
0.01488245409462821,0.020734808423429583,-0.089009508289833, ,0.015776102551266886,0.020295870154787923,-0.08966016326284745, ,0.0011893806210121548, ,0.015910443844287147,-0.002125324580360405,-0.01984455571662564,-0.07326112038471608,-0.006013898741177332,-0.036430628276571904, ,0.02552382454657527, ,0.07350752111539577, ,0.0005888524643557775, ,0.18356163768744238,-0.22514083148226713,0.09922711063,1.612725355339477,0.17858390519343065,-1.4003720061705398, ,0.1462202489344696,0.07734062066705036,0.021352294262734585,0.054417660500736015,0.1314849864348735,0.006967815504576869, ,1.7678611278533936
0.01504386337227967,0.02071292653715735,-0.0892186770866064, ,0.015867285700864698,0.020284064024726732,-0.08978195212062984, ,0.0010859217972463751, ,0.016532184299167783,-0.0022225246590880827,-0.02134376091638008,-0.0888936930170395,-0.018683456202454908,-0.02348394637585463, ,0.027088906652308765, ,0.09083587267361055, ,0.0005955696175029478, ,0.18502895693354504,-0.224345389996222,0.09945136880000001,1.612725355339477,0.17995027019108506,-1.4003426828455363, ,0.14850851574095583,0.08152658209490615,0.022886223448275865,0.03824454978997347,0.12453838791059288,0.01565685082238718, ,1.7731130123138428
0.01504386337227967,0.02071292653715735,-0.0892186770866064, ,0.01595839798370509,0.020272168611096198,-0.0899035947399342, ,0.0012246441510581072, ,0.016532184299167783,-0.0022225246590880827,-0.02134376091638008,-0.0888936930170395,-0.018683456202454908,-0.02348394637585463, ,0.027088906652308765, ,0.09083587267361055, ,0.0006039572779503499, ,0.18502895693354504,-0.224345389996222,0.09945136880000001,1.612725355339477,0.17995027019108506,-1.4003426828455363, ,0.14850851574095583,0.08152658209490615,0.022886223448275865,0.03824454978997347,0.12453838791059288,0.01565685082238718, ,1.77842116355896
0.01504386337227967,0.02071292653715735,-0.0892186770866064, ,0.016049437253918,0.020260188145285924,-0.09002509551737753, ,0.0013661850417841929, ,0.016532184299167783,-0.0022225246590880827,-0.02134376091638008,-0.0888936930170395,-0.018683456202454908,-0.02348394637585463, ,0.027088906652308765, ,0.09083587267361055, ,0.0006139865906323741, ,0.18502895693354504,-0.224345389996222,0.09945136880000001,1.612725355339477,0.17995027019108506,-1.4003426828455363, ,0.14850851574095583,0.08152658209490615,0.022886223448275865,0.03824454978997347,0.12453838791059288,0.01565685082238718, ,1.783846139907837
0.015284650484810076,0.02068103597881109,-0.08953172116071881, ,0.016140401384071055,0.020248126833958324,-0.09014645880891753, ,0.0011391322598346615, ,0.01719923851205849,-0.001830162609616392,-0.02265903452343327,-0.07451239332710348,-0.01863136330611531,-0.011110414576322607, ,0.028506054551734352, ,0.07680637007942853, ,0.0006208066642583779, ,0.18717587667257943,-0.2231715345993399,0.09978710791,1.612725355339477,0.1817265446880358,-1.4001575407907785, ,0.15256743015831317,0.08008180722233821,0.024393279509954065,0.02689649391763491,0.13135318785617914,0.0007148850446252394, ,1.7892951965332031
0.015458847509777811,0.020660927839494962,-0.08976215007008731, ,0.016231288265130095,0.020235988859104843,-0.09026768892996648, ,0.0012789990552222591, ,0.01853239903843196,-0.0024364523964637386,-0.024642934067166385,-0.07894557042736669,-0.032259437259410134,0.012906070374358227, ,0.028506054551734352, ,0.07680634980330776, ,0.0006292450282450944, ,0.1887049777816759,-0.22234520218179785,0.10003469930000002,1.6129350452829614,0.18295627318592475,-1.4001801570423593, ,0.16221699411704404,0.090723653497582,0.02641593950248757,0.0,0.13335891130129435,-0.010161178842913107, ,1.7951149940490723
0.015458847509777811,0.020660927839494962,-0.08976215007008731, ,0.016322095806408365,0.020223778378096267,-0.0903887901555056, ,0.0011528118102664328, ,0.01853239903843196,-0.0024364523964637386,-0.024642934067166385,-0.07894557042736669,-0.032259437259410134,0.012906070374358227, ,0.030929925862158435, ,0.08528226834768628, ,0.0006358724558656176, ,0.1887049777816759,-0.22234520218179785,0.10003469930000002,1.6129350452829614,0.18295627318592475,-1.4001801570423593, ,0.16221699411704404,0.090723653497582,0.02641593950248757,0.0,0.13335891130129435,-0.010161178842913107, ,1.8003911972045898
0.01565731391959075,0.02063602816705283,-0.09002651858341294, ,0.016412821935519666,0.020211499523734987,-0.09050976672019714, ,0.0009922427590239892, ,0.019051067612476272,-0.0022216060398281305,-0.02479605263653452,-0.07250491771767628,-0.035729274658999825,0.0009395662006810765, ,0.031348412031953606, ,0.0808302838493631, ,0.0006403270846550973, ,0.1904425926783764,-0.2213798605725198,0.10031858681000001,1.6133544251699303,0.1844592746833446,-1.4003439303611929, ,0.1661942934474094,0.08877169462906527,0.026726193825503362,0.012083501238715736,0.13113452309565238,-0.012397729250032297, ,1.8057501316070557
0.01565731391959075,0.02063602816705283,-0.09002651858341294, ,0.016503464598330735,0.02019915640430725,-0.09063062281849912, ,0.0011277277309109798, ,0.019051067612476272,-0.0022216060398281305,-0.02479605263653452,-0.07250491771767628,-0.035729274658999825,0.0009395662006810765, ,0.031348412031953606, ,0.0808302838493631, ,0.0006463443765841822, ,0.1904425926783764,-0.2213798605725198,0.10031858681000001,1.6133544251699303,0.1844592746833446,-1.4003439303611929, ,0.1661942934474094,0.08877169462906527,0.026726193825503362,0.012083501238715736,0.13113452309565238,-0.012397729250032297, ,1.8110840320587158
0.015846827329056887,0.02061468225853587,-0.09026744294876995, ,0.01659402175891355,0.02018675310363493,-0.09075136260477892, ,0.000987725220440835, ,0.019580555410468343,-0.0023148391952169927,-0.02393759059304704,-0.06964436486385102,-0.04203538340373208,-0.04224063731834228, ,0.03101233422498971, ,0.08134680790022827, ,0.0006505075576068244, ,0.19209525751346046,-0.22051491449060664,0.1005791411,1.6137738050568995,0.18568900318123358,-1.4004482253529145, ,0.1716038726192962,0.08827622470555421,0.025985010636215337,0.05457335577259892,0.1206677118951657,-0.006786780658831808, ,1.8165020942687988
0.015846827329056887,0.02061468225853587,-0.09026744294876995, ,0.016684491399499866,0.02017429368112871,-0.09087199019342564, ,0.0011229873396626428, ,0.019580555410468343,-0.0023148391952169927,-0.02393759059304704,-0.06964436486385102,-0.04203538340373208,-0.04224063731834228, ,0.03101233422498971, ,0.08134680790022827, ,0.0006562000851014728, ,0.19209525751346046,-0.22051491449060664,0.1005791411,1.6137738050568995,0.18568900318123358,-1.4004482253529145, ,0.1716038726192962,0.08827622470555421,0.025985010636215337,0.05457335577259892,0.1206677118951657,-0.006786780658831808, ,1.8220651149749756
0.015914463541480316,0.020605632729224572,-0.09034868393992757, ,0.016774871520433773,0.020161782171839907,-0.0909925096589658, ,0.001162676551768611, ,0.019381946033844955,-0.0027185437123312425,-0.023198404293798137,-0.07355977369399998,-0.04106497312771237,-0.042750902917644676, ,0.03035154483305991, ,0.08424586402376087, ,0.0006622295668475101, ,0.19268990794477575,-0.22020600517563768,0.10066728882,1.6137738050568995,0.1860989126805299,-1.400537442843582, ,0.17067795244329276,0.09055051675426601,0.025163999241706165,0.05457335577259892,0.12072025535105314,-0.005070747026312335, ,1.8276121616363525
0.015914463541480316,0.020605632729224572,-0.09034868393992757, ,0.016865160140120447,0.02014922258651119,-0.0911129250361745, ,0.0013023819310134363, ,0.019381946033844955,-0.0027185437123312425,-0.023198404293798137,-0.07355977369399998,-0.04106497312771237,-0.042750902917644676, ,0.03035154483305991, ,0.08424586402376087, ,0.0006697607711318151, ,0.19268990794477575,-0.22020600517563768,0.10066728882,1.6137738050568995,0.1860989126805299,-1.400537442843582, ,0.17067795244329276,0.09055051675426601,0.025163999241706165,0.05457335577259892,0.12072025535105314,-0.005070747026312335, ,1.8328909873962402
0.016233185002465452,0.02054419033230488,-0.09070520256024969, ,0.016955355294985083,0.020136618911631283,-0.09123324032019085, ,0.0009830911810567021, ,0.018432002937196337,-0.003950278917548257,-0.019495198442992707,-0.09735044267811162,-0.052924234754490554,-0.025470453706418657, ,0.027118373810663978, ,0.11080650025127624, ,0.0006734041479914068, ,0.19551642817674192,-0.21862284493642165,0.10105358324000001,1.6137738050568995,0.1878751871774806,-1.400188943308543, ,0.16561420865352666,0.09340250153392793,0.02121013517976032,0.03259413551000262,0.10828763814643848,0.011914367062485762, ,1.8381869792938232
0.016233185002465452,0.02054419033230488,-0.09070520256024969, ,0.017045455039422168,0.02012397510948574,-0.09135345946663125, ,0.0011209819191664, ,0.018432002937196337,-0.003950278917548257,-0.019495198442992707,-0.09735044267811162,-0.052924234754490554,-0.025470453706418657, ,0.027118373810663978, ,0.11080650025127624, ,0.0006785487200738781, ,0.19551642817674192,-0.21862284493642165,0.10105358324000001,1.6137738050568995,0.1878751871774806,-1.400188943308543, ,0.16561420865352666,0.09340250153392793,0.02121013517976032,0.03259413551000262,0.10828763814643848,0.011914367062485762, ,1.8435180187225342
0.016406878123657216,0.020508878581776645,-0.09089718771749984, ,0.017135457445746186,0.02011129511820814,-0.09147358639170182, ,0.0010105126771597429, ,0.018491345110887812,-0.0034121025500425334,-0.02128268611612182,-0.05189187330699934,-0.011903636676612919,-0.009939132816636876, ,0.02839938408028114, ,0.05323963481233873, ,0.0006823210377680356, ,0.19707642021733526,-0.21775017612163428,0.10126228593000001,1.6137738050568995,0.18910491567536958,-1.4003749170404052, ,0.1659037439833405,0.09159936443867836,0.023152342325581398,0.0266901481635551,0.15197948755330315,-0.032851574229354294, ,1.8488590717315674
0.016406878123657216,0.020508878581776645,-0.09089718771749984, ,0.017225360604148844,0.020098582851834277,-0.0915936249723133, ,0.0011503395180435957, ,0.018491345110887812,-0.0034121025500425334,-0.02128268611612182,-0.05189187330699934,-0.011903636676612919,-0.009939132816636876, ,0.02839938408028114, ,0.05323963481233873, ,0.0006875796723778733, ,0.19707642021733526,-0.21775017612163428,0.10126228593000001,1.6137738050568995,0.18910491567536958,-1.4003749170404052, ,0.1659037439833405,0.09159936443867836,0.023152342325581398,0.0266901481635551,0.15197948755330315,-0.032851574229354294, ,1.8541710376739502
0.016601316180833575,0.0204761615539768,-0.09113107456897765, ,0.01731516262265037,0.020085842200353688,-0.09171357904619407, ,0.0010006185118637552, ,0.01882498018199477,-0.0029248088333357035,-0.0231999208098196,-0.09259380104678533,-0.03129259430577742,0.01174306922985987, ,0.0300195055113497, ,0.09773858874415489, ,0.0006910578817054942, ,0.19879858964828734,-0.21680027997810467,0.10151635877000001,1.613983495000384,0.19074455367255488,-1.4005684295227945, ,0.16277348466290012,0.09003504891695518,0.025163999241706165,0.0,0.13475557344876918,0.004315935038232223, ,1.8595151901245117
0.016601316180833575,0.0204761615539768,-0.09113107456897765, ,0.01740486162704995,0.020073077029760883,-0.09183345241200365, ,0.0011408317370108988, ,0.01882498018199477,-0.0029248088333357035,-0.0231999208098196,-0.09259380104678533,-0.03129259430577742,0.01174306922985987, ,0.0300195055113497, ,0.09773858874415489, ,0.0006960004515440153, ,0.19879858964828734,-0.21680027997810467,0.10151635877000001,1.613983495000384,0.19074455367255488,-1.4005684295227945, ,0.16277348466290012,0.09003504891695518,0.025163999241706165,0.0,0.13475557344876918,0.004315935038232223, ,1.8648769855499268
0.016788921114150895,0.020448025278167116,-0.09135876151452778, ,0.01749445576087985,0.02006029118210815,-0.09195324882944647, ,0.0010007657241237102, ,0.019314748579083864,-0.002718742000875489,-0.023800654032590397,-0.1003446635029954,-0.03347945189160775,0.003222619362845403, ,0.03077210105143307, ,0.10578240664264942, ,0.0006993131175503163, ,0.20041264081900026,-0.21591988843044307,0.10176395016,1.6141931849438687,0.19197428217044385,-1.4004276882940945, ,0.16561420865352666,0.08918885484818684,0.025900506536585367,0.008494322831500914,0.13352780895610897,0.014579911850569907, ,1.8701841831207275
0.016975081727595865,0.020420144490123485,-0.09159803949633802, ,0.017583943185359795,0.020047488475558352,-0.09207297201938555, ,0.0008574063688766731, ,0.01816758051779576,-0.002827753150673329,-0.02424662796414752,-0.07860005969559467,-0.005217798799523225,0.000605348613503556, ,0.03042952739336442, ,0.0787730057076522, ,0.0007010130449839329, ,0.2020035237910905,-0.2150163286841588,0.10202320816,1.6146125648308374,0.19347728366786368,-1.4005097828727873, ,0.15305958315882384,0.09055051675426601,0.026155683940886704,0.014152071417549077,0.14838544240795015,-0.007313916430793682, ,1.8754401206970215
0.016975081727595865,0.020420144490123485,-0.09159803949633802, ,0.017673322079346354,0.02003467270443567,-0.09219262566395539, ,0.0009948169666305021, ,0.01816758051779576,-0.002827753150673329,-0.02424662796414752,-0.07860005969559467,-0.005217798799523225,0.000605348613503556, ,0.03042952739336442, ,0.0787730057076522, ,0.000704138618618471, ,0.2020035237910905,-0.2150163286841588,0.10202320816,1.6146125648308374,0.19347728366786368,-1.4005097828727873, ,0.15305958315882384,0.09055051675426601,0.026155683940886704,0.014152071417549077,0.14838544240795015,-0.007313916430793682, ,1.8809239864349365
0.016975081727595865,0.020420144490123485,-0.09159803949633802, ,0.017762590639291545,0.020021847639280436,-0.09231221340667693, ,0.0011352775174380838, ,0.01816758051779576,-0.002827753150673329,-0.02424662796414752,-0.07860005969559467,-0.005217798799523225,0.000605348613503556, ,0.03042952739336442, ,0.0787730057076522, ,0.0007086769228165722, ,0.2020035237910905,-0.2150163286841588,0.10202320816,1.6146125648308374,0.19347728366786368,-1.4005097828727873, ,0.15305958315882384,0.09055051675426601,0.026155683940886704,0.014152071417549077,0.14838544240795015,-0.007313916430793682, ,1.886240005493164
0.017150539659014568,0.02039294689409721,-0.09183233358321885, ,0.017851747079185583,0.020009017026896895,-0.09243173885256911, ,0.0009991900049320962, ,0.01779944951686971,-0.0028199700165465846,-0.02367889829850754,-0.07572825918026219,0.002628893110491376,-0.03305400365689465, ,0.029756727955688917, ,0.075773827100395, ,0.0007117031007552755, ,0.20347084303719315,-0.21414365986937142,0.10227598471,1.614822254774322,0.19484364866551807,-1.4004804595477833, ,0.14920902760765847,0.08927275781605906,0.02556791576243981,0.04854294126017298,0.14497278181293807,-0.002088410546682462, ,1.8915910720825195
0.017150539659014568,0.02039294689409721,-0.09183233358321885, ,0.017940789630521252,0.019996184590410488,-0.09255120556826485, ,0.001139601805007822, ,0.01779944951686971,-0.0028199700165465846,-0.02367889829850754,-0.07572825918026219,0.002628893110491376,-0.03305400365689465, ,0.029756727955688917, ,0.075773827100395, ,0.0007161144276032399, ,0.20347084303719315,-0.21414365986937142,0.10227598471,1.614822254774322,0.19484364866551807,-1.4004804595477833, ,0.14920902760765847,0.08927275781605906,0.02556791576243981,0.04854294126017298,0.14497278181293807,-0.002088410546682462, ,1.8969330787658691
0.017344074356911827,0.020357652233696594,-0.09207642991392917, ,0.018029716542237704,0.01998335402931607,-0.09267061708212217, ,0.0009814594963349949, ,0.01668698918949991,-0.0034262028170897927,-0.019729417673769508,-0.08758988832369917,-0.011606202808658197,0.03060467730667423, ,0.02606615421768945, ,0.08835547233126641, ,0.0007188220303454007, ,0.2051235078722772,-0.21316287279434493,0.10254042787,1.6150319447178065,0.19648328666270337,-1.4005106145498916, ,0.14488082680682562,0.08472941210577749,0.021467400970350405,-0.01832776103644166,0.1404644362897069,0.0010224006868241112, ,1.9023871421813965
0.017344074356911827,0.020357652233696594,-0.09207642991392917, ,0.01811852608067651,0.01997052901953172,-0.09278997688433932, ,0.0011219577239668767, ,0.01668698918949991,-0.0034262028170897927,-0.019729417673769508,-0.08758988832369917,-0.011606202808658197,0.03060467730667423, ,0.02606615421768945, ,0.08835547233126641, ,0.000722894108058749, ,0.2051235078722772,-0.21316287279434493,0.10254042787,1.6150319447178065,0.19648328666270337,-1.4005106145498916, ,0.14488082680682562,0.08472941210577749,0.021467400970350405,-0.01832776103644166,0.1404644362897069,0.0010224006868241112, ,1.907703161239624
0.017401072305863782,0.020346498514596786,-0.09214438586623293, ,0.01820721652953631,0.019957713213451477,-0.09290928842706836, ,0.001177326822645195, ,0.016838321288380496,-0.0031708831788521776,-0.02022366719728353,-0.07768317890463729,-0.011947456055689198,0.029359892030378577, ,0.026506230943895766, ,0.0785965305083601, ,0.0007274384352046134, ,0.20561004004335334,-0.2128771316779986,0.10261431640000002,1.6150319447178065,0.19689319616199968,-1.400436474560278, ,0.145102357123044,0.08316997507315581,0.022031551203319507,-0.016845402166728824,0.1400159702515038,-0.007069161011181532, ,1.912992000579834
0.017401072305863782,0.020346498514596786,-0.09214438586623293, ,0.018295786189821455,0.019944910239996044,-0.09302855512452793, ,0.0013204322601926071, ,0.016838321288380496,-0.0031708831788521776,-0.02022366719728353,-0.07768317890463729,-0.011947456055689198,0.029359892030378577, ,0.026506230943895766, ,0.0785965305083601, ,0.0007333096611945937, ,0.20561004004335334,-0.2128771316779986,0.10261431640000002,1.6150319447178065,0.19689319616199968,-1.400436474560278, ,0.145102357123044,0.08316997507315581,0.022031551203319507,-0.016845402166728824,0.1400159702515038,-0.007069161011181532, ,1.9183001518249512
0.017742179554659798,0.020285127116730726,-0.09255202775905487, ,0.0183842333797982,0.019932123704666297,-0.0931477803531172, ,0.0009443334562727196, ,0.017337841066616417,-0.0027722429924702456,-0.02189421453997313,-0.07012112983574342,-0.015343242893558946,0.0021738676073632095, ,0.0280649727308423, ,0.07178010114940261, ,0.0007353785219306537, ,0.2084906194054391,-0.2112321895757888,0.10305894387000002,1.614822254774322,0.19921601665801217,-1.4002069316794625, ,0.14422027592472764,0.08266284107880731,0.023845526227544912,0.008974433658366917,0.13001464251803826,-0.008974078857144512, ,1.923598051071167
0.017742179554659798,0.020285127116730726,-0.09255202775905487, ,0.01847255643494596,0.019919357189594804,-0.09326696745152958, ,0.0010855306493735687, ,0.017337841066616417,-0.0027722429924702456,-0.02189421453997313,-0.07012112983574342,-0.015343242893558946,0.0021738676073632095, ,0.0280649727308423, ,0.07178010114940261, ,0.000738778057148546, ,0.2084906194054391,-0.2112321895757888,0.10305894387000002,1.614822254774322,0.19921601665801217,-1.4002069316794625, ,0.14422027592472764,0.08266284107880731,0.023845526227544912,0.008974433658366917,0.13001464251803826,-0.008974078857144512, ,1.9288811683654785
0.017907859321829738,0.02026156665117704,-0.09277001742269331, ,0.01856075370790963,0.019906614253597982,-0.09338611972086613, ,0.0009653208408273383, ,0.016866520055094945,-0.0023111377551196296,-0.022906794314082518,-0.041980672707601537,0.011164289628657958,0.014800482400978174, ,0.028540183640609996, ,0.04343975065436578, ,0.0007409563531454576, ,0.20985754312417682,-0.2104521935554921,0.10329616494,1.6150319447178065,0.20058238165566658,-1.4005043233150212, ,0.13853568110725661,0.07954479594171901,0.024888768000000002,0.0014808971644136848,0.15293828210680363,-0.0355522229234202, ,1.9341881275177002
0.017907859321829738,0.02026156665117704,-0.09277001742269331, ,0.01864882356845243,0.01989389843222827,-0.09350524042474874, ,0.0011066891147695887, ,0.016866520055094945,-0.0023111377551196296,-0.022906794314082518,-0.041980672707601537,0.011164289628657958,0.014800482400978174, ,0.028540183640609996, ,0.04343975065436578, ,0.0007444395223037826, ,0.20985754312417682,-0.2104521935554921,0.10329616494,1.6150319447178065,0.20058238165566658,-1.4005043233150212, ,0.13853568110725661,0.07954479594171901,0.024888768000000002,0.0014808971644136848,0.15293828210680363,-0.0355522229234202, ,1.9396941661834717
0.017907859321829738,0.02026156665117704,-0.09277001742269331, ,0.018736764403409364,0.019881213237826576,-0.09362433278943444, ,0.0012496427886263782, ,0.016866520055094945,-0.0023111377551196296,-0.022906794314082518,-0.041980672707601537,0.011164289628657958,0.014800482400978174, ,0.028540183640609996, ,0.04343975065436578, ,0.0007492055908539959, ,0.20985754312417682,-0.2104521935554921,0.10329616494,1.6150319447178065,0.20058238165566658,-1.4005043233150212, ,0.13853568110725661,0.07954479594171901,0.024888768000000002,0.0014808971644136848,0.15293828210680363,-0.0355522229234202, ,1.9451210498809814
0.018235953389385346,0.020221634789487665,-0.09323677692938453, ,0.01882457461663945,0.01986856215957432,-0.09374340000392886, ,0.000853113222748776, ,0.015434047756976146,-0.0019392282969708866,-0.02168058938091082,-0.06240191130736674,-0.007568739564989435,-0.016822747325565244, ,0.026683672769243293, ,0.06285920428382409, ,0.0007501766902174986, ,0.2124678268356647,-0.2089076469806472,0.10380171804,1.6156610145482602,0.20331511165097538,-1.4005273554051545, ,0.12104201729396784,0.07221989464114975,0.02349382230088496,0.026187378847250153,0.1105578426977721,-0.002775125189522727, ,1.9506611824035645
0.018235953389385346,0.020221634789487665,-0.09323677692938453, ,0.018912252628979075,0.019855948663545776,-0.09386244522009853, ,0.0009912455872216578, ,0.015434047756976146,-0.0019392282969708866,-0.02168058938091082,-0.06240191130736674,-0.007568739564989435,-0.016822747325565244, ,0.026683672769243293, ,0.06285920428382409, ,0.0007524088096342037, ,0.2124678268356647,-0.2089076469806472,0.10380171804,1.6156610145482602,0.20331511165097538,-1.4005273554051545, ,0.12104201729396784,0.07221989464114975,0.02349382230088496,0.026187378847250153,0.1105578426977721,-0.002775125189522727, ,1.9559340476989746
0.01839584916625145,0.02020056146608313,-0.09346595915227936, ,0.018999796878193663,0.019843376192759967,-0.09398147155278667, ,0.0008706820276748536, ,0.01591714752392497,-0.0022232597552958,-0.022908359232357442,-0.06989407499625705,-0.015244990606808078,0.03649747334001931, ,0.027983770152655362, ,0.0715372990058163, ,0.0007534938850290722, ,0.21370346409554064,-0.208143096426099,0.10404930943000001,1.6158707044917449,0.2044082036490989,-1.4006019112333203, ,0.12324278124476726,0.07646812373768798,0.02473417937888199,-0.029292599236749785,0.11669918337362048,-0.010883613177775482, ,1.9612650871276855
0.01839584916625145,0.02020056146608313,-0.09346595915227936, ,0.019087205818930413,0.019830848167232767,-0.09410048207992451, ,0.0010086036338709348, ,0.01591714752392497,-0.0022232597552958,-0.022908359232357442,-0.06989407499625705,-0.015244990606808078,0.03649747334001931, ,0.027983770152655362, ,0.0715372990058163, ,0.0007558130645639982, ,0.21370346409554064,-0.208143096426099,0.10404930943000001,1.6158707044917449,0.2044082036490989,-1.4006019112333203, ,0.12324278124476726,0.07646812373768798,0.02473417937888199,-0.029292599236749785,0.11669918337362048,-0.010883613177775482, ,1.9665319919586182
0.01855237676862011,0.0201790893883265,-0.09369520890100844, ,0.019174477922671868,0.019818367984029462,-0.09421947984264635, ,0.0008899380864062738, ,0.015543421897413664,-0.0019119381787468487,-0.022287783683485406,-0.03726465171320063,0.008086967004642075,-0.005693968972133943, ,0.027239654428832, ,0.03813197874485817, ,0.0007570213980941089, ,0.2149236558896681,-0.207386268604425,0.10429690082000001,1.6156610145482602,0.2057745686467533,-1.400817624128738, ,0.12119660480009038,0.0724957536733925,0.024171185918057666,0.018203854947141142,0.12844056137121823,-0.029770969318833437, ,1.971837043762207
0.01855237676862011,0.0201790893883265,-0.09369520890100844, ,0.019261611677688837,0.01980593901731695,-0.09433846784540241, ,0.0010276368157910347, ,0.015543421897413664,-0.0019119381787468487,-0.022287783683485406,-0.03726465171320063,0.008086967004642075,-0.005693968972133943, ,0.027239654428832, ,0.03813197874485817, ,0.0007594376071806885, ,0.2149236558896681,-0.207386268604425,0.10429690082000001,1.6156610145482602,0.2057745686467533,-1.400817624128738, ,0.12119660480009038,0.0724957536733925,0.024171185918057666,0.018203854947141142,0.12844056137121823,-0.029770969318833437, ,1.9782400131225586
0.018652295809136597,0.02016780969703068,-0.09383952548649598, ,0.019348605588992807,0.019793564618415836,-0.09445744905607276, ,0.0010033624600458934, ,0.015426967002057175,-0.0017454402862854285,-0.022424858020294588,-0.015953386415865734,0.044305201180633226,0.003981115228632358, ,0.027274752609435703, ,0.0470898685381021, ,0.0007615962341971947, ,0.21571137464283902,-0.20693062736484574,0.10445375191000002,1.6156610145482602,0.20673102414511138,-1.4010257982736292, ,0.12292349942807097,0.07097751799436858,0.024393279509954065,0.01698039187090467,0.16751796437474664,-0.04984325008392658, ,1.9836161136627197
0.018652295809136597,0.02016780969703068,-0.09383952548649598, ,0.019435458178285573,0.019781248115851493,-0.09457642640608017, ,0.0011427143640380256, ,0.015426967002057175,-0.0017454402862854285,-0.022424858020294588,-0.015953386415865734,0.044305201180633226,0.003981115228632358, ,0.027274752609435703, ,0.0470898685381021, ,0.0007649393756870266, ,0.21571137464283902,-0.20693062736484574,0.10445375191000002,1.6156610145482602,0.20673102414511138,-1.4010257982736292, ,0.12292349942807097,0.07097751799436858,0.024393279509954065,0.01698039187090467,0.16751796437474664,-0.04984325008392658, ,1.9889299869537354
0.01890466253480583,0.020138578493068104,-0.09418953034377464, ,0.01952216798391764,0.01976899281540833,-0.09469540279050459, ,0.0008796666898175438, ,0.015813853088059705,-0.0018497943023032056,-0.021443176672836576,-0.13270734157980368,-0.07136228042499812,-0.017735763073490004, ,0.02670785491712226, ,0.15067783195616236, ,0.0007659370045055528, ,0.21764978059426934,-0.20581083109808318,0.10483486117000002,1.6156610145482602,0.2083706621422967,-1.4008925957954559, ,0.11658100928559063,0.0691164905742686,0.023321832386530017,0.012162246096960662,0.043651503919500914,0.06778027854641613, ,1.9942800998687744
0.01890466253480583,0.020138578493068104,-0.09418953034377464, ,0.01960873356083688,0.019756802000180554,-0.09481438106819662, ,0.0010158285918542567, ,0.015813853088059705,-0.0018497943023032056,-0.021443176672836576,-0.13270734157980368,-0.07136228042499812,-0.017735763073490004, ,0.02670785491712226, ,0.15067783195616236, ,0.0007680912423275244, ,0.21764978059426934,-0.20581083109808318,0.10483486117000002,1.6156610145482602,0.2083706621422967,-1.4008925957954559, ,0.11658100928559063,0.0691164905742686,0.023321832386530017,0.012162246096960662,0.043651503919500914,0.06778027854641613, ,1.999582052230835
0.019060825905981085,0.020117164636484733,-0.09440813002447619, ,0.019695153480542054,0.01974467893062443,-0.09493336406188979, ,0.0009038738114230547, ,0.015250603964602207,-0.002128516046536939,-0.021857737835229398,-0.048583270215397024,0.0035000729684866146,-0.00038659065515257805, ,0.026737094178671032, ,0.04870913329615643, ,0.0007692517771061187, ,0.2188313587240257,-0.20508489420790607,0.10507208224000002,1.6156610145482602,0.2093271176406548,-1.4006923762396444, ,0.11643796510241813,0.07244041340341281,0.023703588571428576,0.010316706754886194,0.1204935320675311,-0.0199836660418918, ,2.00488018989563
0.019060825905981085,0.020117164636484733,-0.09440813002447619, ,0.019781426331037702,0.01973262684461141,-0.09505235455831589, ,0.0010402689728967007, ,0.015250603964602207,-0.002128516046536939,-0.021857737835229398,-0.048583270215397024,0.0035000729684866146,-0.00038659065515257805, ,0.026737094178671032, ,0.04870913329615643, ,0.000771548533002649, ,0.2188313587240257,-0.20508489420790607,0.10507208224000002,1.6156610145482602,0.2093271176406548,-1.4006923762396444, ,0.11643796510241813,0.07244041340341281,0.023703588571428576,0.010316706754886194,0.1204935320675311,-0.0199836660418918, ,2.0101470947265625
0.019060825905981085,0.020117164636484733,-0.09440813002447619, ,0.01986755071678201,0.019720648957478708,-0.09517135530831716, ,0.001179212634749784, ,0.015250603964602207,-0.002128516046536939,-0.021857737835229398,-0.048583270215397024,0.0035000729684866146,-0.00038659065515257805, ,0.026737094178671032, ,0.04870913329615643, ,0.0007749742817568266, ,0.2188313587240257,-0.20508489420790607,0.10507208224000002,1.6156610145482602,0.2093271176406548,-1.4006923762396444, ,0.11643796510241813,0.07244041340341281,0.023703588571428576,0.010316706754886194,0.1204935320675311,-0.0199836660418918, ,2.015505075454712
0.01920907515743029,0.020100440633260774,-0.09462911367036031, ,0.019953525258644494,0.019708748462083012,-0.09529036902696059, ,0.00106999409194273, ,0.014921834182327613,-0.001655658345899225,-0.02212862084285209,-0.029097403261374204,0.014397937034725852,0.001687903296134968, ,0.026740946137523525, ,0.03246466019160031, ,0.0007774327801750425, ,0.2199588777236625,-0.2043975709821001,0.10531189589,1.616080394435229,0.21069348263830917,-1.4010714466153436, ,0.11257051193175657,0.06788050183009356,0.02402535674208145,0.010647626796913924,0.12762331053149553,-0.03488144906168957, ,2.020838975906372
0.01936791011181799,0.02008188524047585,-0.09486190963441656, ,0.020039348593856702,0.019696928528852055,-0.0954093983936513, ,0.0009480323024428289, ,0.01541635991707879,-0.0016991366208789797,-0.022260013973406035,-0.0753292355006878,-0.013342269761394786,-0.010358681444102022, ,0.027130415412329342, ,0.07650166284492343, ,0.0007788426935822142, ,0.22114817858629307,-0.203671634091923,0.10556467244,1.6162900843787136,0.21192321113619814,-1.401175741607065, ,0.11405882398854661,0.06846821180264846,0.0242079202431611,0.016633729075141445,0.09949743251375764,0.012106662028529072, ,2.0263590812683105
0.01936791011181799,0.02008188524047585,-0.09486190963441656, ,0.020125019375961818,0.019685192305835843,-0.0955284460522457, ,0.0010839052165840936, ,0.01541635991707879,-0.0016991366208789797,-0.022260013973406035,-0.0753292355006878,-0.013342269761394786,-0.010358681444102022, ,0.027130415412329342, ,0.07650166284492343, ,0.0007813432060658363, ,0.22114817858629307,-0.203671634091923,0.10556467244,1.6162900843787136,0.21192321113619814,-1.401175741607065, ,0.11405882398854661,0.06846821180264846,0.0242079202431611,0.016633729075141445,0.09949743251375764,0.012106662028529072, ,2.031620979309082
0.01951725456508009,0.020066403014834526,-0.09507764664775512, ,0.020210536274778774,0.01967354291876232,-0.0956475146111656, ,0.000979657123594882, ,0.015643805051797435,-0.0015311349887630994,-0.022825141029275395,-0.07765371727928444,-0.011404955410088218,-0.009361881415231383, ,0.027713896764236686, ,0.07848672894079432, ,0.00078295551433843, ,0.22223708392155872,-0.20302292453048815,0.10579930093,1.6162900843787136,0.21274303013479076,-1.4009457828876974, ,0.11474841784579294,0.06773514743645309,0.024849939968798754,0.016200756729418654,0.10226635462957905,0.015078308817370947, ,2.0368270874023438
0.01951725456508009,0.020066403014834526,-0.09507764664775512, ,0.02029589797633624,0.019661983471083774,-0.09576660664351144, ,0.001115574562731124, ,0.015643805051797435,-0.0015311349887630994,-0.022825141029275395,-0.07765371727928444,-0.011404955410088218,-0.009361881415231383, ,0.027713896764236686, ,0.07848672894079432, ,0.0007856379260190163, ,0.22223708392155872,-0.20302292453048815,0.10579930093,1.6162900843787136,0.21274303013479076,-1.4009457828876974, ,0.11474841784579294,0.06773514743645309,0.024849939968798754,0.016200756729418654,0.10226635462957905,0.015078308817370947, ,2.042041063308716
0.019675271924578738,0.02004923764177652,-0.09530699926862035, ,0.02038110318284036,0.019650517044033783,-0.09588572468717596, ,0.0009960416609187952, ,0.015587691938148197,-0.0018511000438663275,-0.022863893750888566,-0.04486347503957043,0.019536804862282372,-0.0009481865755275551, ,0.027733740259527444, ,0.04893272819606501, ,0.0007873211558982145, ,0.2234263847841893,-0.20232787857180792,0.1060494849,1.6162900843787136,0.2141093951324452,-1.4011614957831156, ,0.11658100928559063,0.070713071206014,0.024888768000000002,0.014046292423097434,0.13622982756150018,-0.021061388560361674, ,2.0473780632019043
0.019675271924578738,0.02004923764177652,-0.09530699926862035, ,0.02046615061262497,0.0196391466966785,-0.09600487124495723, ,0.001131675296988254, ,0.015587691938148197,-0.0018511000438663275,-0.022863893750888566,-0.04486347503957043,0.019536804862282372,-0.0009481865755275551, ,0.027733740259527444, ,0.04893272819606501, ,0.0007900541252719449, ,0.22463885384544255,-0.20157877348300815,0.10630485403,1.6162900843787136,0.2154757601300996,-1.4012138511982521, ,0.1131072009040176,0.0687658996800513,0.023774345552238813,0.012326995771301596,0.12798070861727584,-0.007664674498215583, ,2.0531020164489746
0.01983745359916987,0.0200274866209084,-0.09554166438035713, ,0.02055103900009956,0.019627875465967354,-0.09612404878467351, ,0.001004024299488933, ,0.015137302183318517,-0.0019243926490870008,-0.021806834822798556,-0.05671118106266252,0.014614893821731706,-0.0008064976441249716, ,0.026615394970689037, ,0.058564052520490406, ,0.0007917389297933386, ,0.22463885384544255,-0.20157877348300815,0.10630485403,1.6162900843787136,0.2154757601300996,-1.4012138511982521, ,0.1131072009040176,0.0687658996800513,0.023774345552238813,0.012326995771301596,0.12798070861727584,-0.007664674498215583, ,2.0585620403289795
0.019992614369966785,0.020008288922038108,-0.0957610957580947, ,0.020635767095704017,0.019616706366785946,-0.09624325973927504, ,0.0008941277486739338, ,0.015661902262234,-0.0017141179042218868,-0.022538163159463033,-0.06704993895911526,0.0010741959409494505,-0.0019882846950374637, ,0.027499130554690655, ,0.06705849980253471, ,0.0007925388424408433, ,0.22579726377657622,-0.20089145025720218,0.10654466768000001,1.6162900843787136,0.21670548862798855,-1.4012364674498334, ,0.11502659582844943,0.06797775183271546,0.024619492302936634,0.011041348044537833,0.11635359317388484,0.003184516364984978, ,2.063894033432007
0.019992614369966785,0.020008288922038108,-0.0957610957580947, ,0.02072033366586337,0.0196056423920089,-0.09636250650695925, ,0.0010263500818992511, ,0.015661902262234,-0.0017141179042218868,-0.022538163159463033,-0.06704993895911526,0.0010741959409494505,-0.0019882846950374637, ,0.027499130554690655, ,0.06705849980253471, ,0.0007943513326692031, ,0.22579726377657622,-0.20089145025720218,0.10654466768000001,1.6162900843787136,0.21670548862798855,-1.4012364674498334, ,0.11502659582844943,0.06797775183271546,0.024619492302936634,0.011041348044537833,0.11635359317388484,0.003184516364984978, ,2.069181203842163
0.020147515726069896,0.01999128817481344,-0.09598154896060937, ,0.020804737492940276,0.019594686512551758,-0.09648179145128287, ,0.0009162291628365578, ,0.015844071365887447,-0.0016751898020948642,-0.0225363077513223,-0.07268090016958831,-0.011024470458180754,-0.003488464604465391, ,0.027599384510939493, ,0.07351221929151819, ,0.0007952888544397211, ,0.22693250550908722,-0.20022729523001886,0.10678577762000001,1.6162900843787136,0.21779858062611207,-1.4012293445378585, ,0.11516619121173638,0.06730279543153955,0.024657602972136226,0.010022087972249825,0.10433367661132789,0.009272789022903898, ,2.0744450092315674
0.020147515726069896,0.01999128817481344,-0.09598154896060937, ,0.02088897737518309,0.019583841677421936,-0.09660111690127651, ,0.0010486383830686273, ,0.015844071365887447,-0.0016751898020948642,-0.0225363077513223,-0.07268090016958831,-0.011024470458180754,-0.003488464604465391, ,0.027599384510939493, ,0.07351221929151819, ,0.0007972228203071173, ,0.22693250550908722,-0.20022729523001886,0.10678577762000001,1.6162900843787136,0.21779858062611207,-1.4012293445378585, ,0.11516619121173638,0.06730279543153955,0.024657602972136226,0.010022087972249825,0.10433367661132789,0.009272789022903898, ,2.079716205596924
0.020308322624911584,0.019974149306382624,-0.09621142342991067, ,0.02097305212668351,0.0195731108137725,-0.09672048515155778, ,0.0009283539300973912, ,0.016231948852554173,-0.0018185907418637355,-0.02273674867481269,-0.06639432468726912,-0.01064381048505465,0.006832680276161371, ,0.027995413483996333, ,0.06724203280674906, ,0.0007982162378055284, ,0.22809863817309511,-0.1995399720042129,0.10703725788000001,1.6164997743221983,0.21889167262423562,-1.401140542885743, ,0.11847308559109959,0.0687658996800513,0.02492771755868545,0.0,0.1101276539669517,-0.0006204133623803898, ,2.085097074508667
0.020308322624911584,0.019974149306382624,-0.09621142342991067, ,0.021056960577327803,0.01956249682695365,-0.09683989846244465, ,0.0010606118112375313, ,0.016231948852554173,-0.0018185907418637355,-0.02273674867481269,-0.06639432468726912,-0.01064381048505465,0.006832680276161371, ,0.027995413483996333, ,0.06724203280674906, ,0.0008001891368538893, ,0.22809863817309511,-0.1995399720042129,0.10703725788000001,1.6164997743221983,0.21889167262423562,-1.401140542885743, ,0.11847308559109959,0.0687658996800513,0.02492771755868545,0.0,0.1101276539669517,-0.0006204133623803898, ,2.0905921459198
0.02047020726344234,0.019956146848528294,-0.09643456213572238, ,0.02114070157274987,0.019552002600565024,-0.09695935906006925, ,0.0009425003998829453, ,0.01554082663211424,-0.0019394311235150239,-0.02109205229285078,-0.06032886530191191,-0.01277748114465755,-0.009151503626131447, ,0.026270769981419306, ,0.061667104996237745, ,0.0008012511612048524, ,0.22927249356997725,-0.19886037151128114,0.10728225669000001,1.6167094642656827,0.2198481281225937,-1.4011036808102124, ,0.11392189862961677,0.06645444086727646,0.02318604296943232,0.015048298894423119,0.10025177028252386,-0.001049508539473186, ,2.0958850383758545
0.02047020726344234,0.019956146848528294,-0.09643456213572238, ,0.021224273974282917,0.019541630996507894,-0.09707886913649205, ,0.0010749751193469233, ,0.01554082663211424,-0.0019394311235150239,-0.02109205229285078,-0.06032886530191191,-0.01277748114465755,-0.009151503626131447, ,0.026270769981419306, ,0.061667104996237745, ,0.000803278746079979, ,0.22927249356997725,-0.19886037151128114,0.10728225669000001,1.6167094642656827,0.2198481281225937,-1.4011036808102124, ,0.11392189862961677,0.06645444086727646,0.02318604296943232,0.015048298894423119,0.10025177028252386,-0.001049508539473186, ,2.1011781692504883
0.020626062014763188,0.019936535717666425,-0.0966480592593334, ,0.021307676658913286,0.019531384855037325,-0.09719843084981335, ,0.0009652225816962633, ,0.01635715897301115,-0.001977883418300725,-0.022468143422043636,-0.049556022969431165,-0.011476602983715542,-0.00259274760540584, ,0.027861912018349904, ,0.05086753486061361, ,0.0008044695095771575, ,0.23041545803536248,-0.1981884937512236,0.10751688518000001,1.6169191542091674,0.22094122012071718,-1.4012599153785188, ,0.11891847313091576,0.06941985483428732,0.024695831813953493,0.009024521792162878,0.10790512046658708,-0.01601211930668448, ,2.1065449714660645
0.020626062014763188,0.019936535717666425,-0.0966480592593334, ,0.021390908519229142,0.019521266994813425,-0.09731804632428956, ,0.001098326433617221, ,0.01635715897301115,-0.001977883418300725,-0.022468143422043636,-0.049556022969431165,-0.011476602983715542,-0.00259274760540584, ,0.027861912018349904, ,0.05086753486061361, ,0.0008066144506285448, ,0.23041545803536248,-0.1981884937512236,0.10751688518000001,1.6169191542091674,0.22094122012071718,-1.4012599153785188, ,0.11891847313091576,0.06941985483428732,0.024695831813953493,0.009024521792162878,0.10790512046658708,-0.01601211930668448, ,2.1118509769439697
0.02078699023443672,0.019916095170206417,-0.09687398123334948, ,0.021473968463383526,0.019511280212956218,-0.09743771765044458, ,0.0009765310976203457, ,0.015830809987325403,-0.002062895754093016,-0.022488467933272662,-0.05988133683860985,-0.0038494331090250435,0.015774824740993752, ,0.02757900059343865, ,0.06000489050984576, ,0.00080784573067921, ,0.23157386796649615,-0.19748572505966916,0.10776447657000002,1.617128844152652,0.22203431211884073,-1.4013344712066846, ,0.11364903180655184,0.06941985483428732,0.024619492302936634,-0.00913066487171012,0.11393630873035643,-0.009729503600055325, ,2.1171650886535645
0.02078699023443672,0.019916095170206417,-0.09687398123334948, ,0.021556855415033705,0.019501427285094512,-0.09755744688518442, ,0.0011098500567540517, ,0.015830809987325403,-0.002062895754093016,-0.022488467933272662,-0.05988133683860985,-0.0038494331090250435,0.015774824740993752, ,0.02757900059343865, ,0.06000489050984576, ,0.0008100184236725542, ,0.23157386796649615,-0.19748572505966916,0.10776447657000002,1.617128844152652,0.22203431211884073,-1.4013344712066846, ,0.11364903180655184,0.06941985483428732,0.024619492302936634,-0.00913066487171012,0.11393630873035643,-0.009729503600055325, ,2.1229710578918457
0.02078699023443672,0.019916095170206417,-0.09687398123334948, ,0.021639568313303242,0.019491710965420135,-0.0976772360519102, ,0.0012458770554821356, ,0.015830809987325403,-0.002062895754093016,-0.022488467933272662,-0.05988133683860985,-0.0038494331090250435,0.015774824740993752, ,0.02757900059343865, ,0.06000489050984576, ,0.0008131316996140513, ,0.23157386796649615,-0.19748572505966916,0.10776447657000002,1.617128844152652,0.22203431211884073,-1.4013344712066846, ,0.11364903180655184,0.06941985483428732,0.024619492302936634,-0.00913066487171012,0.11393630873035643,-0.009729503600055325, ,2.128279209136963
0.021099920907435243,0.01987216847150752,-0.0972888702996036, ,0.021722106112731166,0.01948213398673966,-0.09779708714063232, ,0.0008930429365391461, ,0.014991391133024466,-0.002542285828503883,-0.01860809316840655,-0.08840433378035814,-0.032249922415175505,0.009703547844105547, ,0.024030525518623905, ,0.09410303659225627, ,0.0008136984459752222, ,0.2338597968972666,-0.1961419695395541,0.10822206694000001,1.617128844152652,0.22408385961532232,-1.401290486219179, ,0.11047373871766097,0.06571810357234818,0.020606483208279434,-0.00913066487171012,0.08163244615947092,0.02239526415353915, ,2.1336770057678223
0.021099920907435243,0.01987216847150752,-0.0972888702996036, ,0.02180446778322461,0.019472699060526153,-0.09791700210808316, ,0.001024944720127945, ,0.014991391133024466,-0.002542285828503883,-0.01860809316840655,-0.08840433378035814,-0.032249922415175505,0.009703547844105547, ,0.024030525518623905, ,0.09410303659225627, ,0.0008151860957931991, ,0.2338597968972666,-0.1961419695395541,0.10822206694000001,1.617128844152652,0.22408385961532232,-1.401290486219179, ,0.11047373871766097,0.06571810357234818,0.020606483208279434,-0.00913066487171012,0.08163244615947092,0.02239526415353915, ,2.1389641761779785
0.021256577469360834,0.019844504464712465,-0.0974895943268361, ,0.021886652310013403,0.019463408876972177,-0.09803698287783129, ,0.0009175305867267262, ,0.015534652108770473,-0.0026565679331021523,-0.020860058924767288,-0.05439124992688308,0.006104369598454784,0.01699813449588993, ,0.026144307748886313, ,0.05473269084359014, ,0.0008159017915339929, ,0.23501820682840027,-0.19543147811512543,0.10844373253000002,1.617128844152652,0.22517695161344586,-1.4012016845670638, ,0.11378530162886184,0.07113713760005305,0.02295217798270894,-0.00913066487171012,0.12417304460270366,-0.01689232047966415, ,2.1442360877990723
0.021256577469360834,0.019844504464712465,-0.0974895943268361, ,0.02196865869360144,0.019454266105041442,-0.09815703134039507, ,0.0010511031416294224, ,0.015534652108770473,-0.0026565679331021523,-0.020860058924767288,-0.05439124992688308,0.006104369598454784,0.01699813449588993, ,0.026144307748886313, ,0.05473269084359014, ,0.000817535134242989, ,0.23501820682840027,-0.19543147811512543,0.10844373253000002,1.617128844152652,0.22517695161344586,-1.4012016845670638, ,0.11378530162886184,0.07113713760005305,0.02295217798270894,-0.00913066487171012,0.12417304460270366,-0.01689232047966415, ,2.1494271755218506
0.021413629143480616,0.0198238770346635,-0.09771134387950678, ,0.0220504859497183,0.019445273392520713,-0.09827714935335513, ,0.0009322355623616832, ,0.015860601308362008,-0.0016358390223780183,-0.023577900344183843,-0.029829223735450078,0.018108761496194142,0.019929147241483657, ,0.02846316967258239, ,0.034895594922191554, ,0.0008183261716782904, ,0.23613800309516284,-0.19475187762219368,0.10868743505000002,1.617128844152652,0.22640668011133483,-1.4014693370390665, ,0.11086091303559671,0.06622256912663697,0.02585846025974026,-0.00913066487171012,0.13343046338461872,-0.03667807515195655, ,2.154694080352783
0.021413629143480616,0.0198238770346635,-0.09771134387950678, ,0.02213213310927297,0.0194364333660724,-0.09839733874146944, ,0.0010662783388167673, ,0.015860601308362008,-0.0016358390223780183,-0.023577900344183843,-0.029829223735450078,0.018108761496194142,0.019929147241483657, ,0.02846316967258239, ,0.034895594922191554, ,0.0008200244741929376, ,0.23613800309516284,-0.19475187762219368,0.10868743505000002,1.617128844152652,0.22640668011133483,-1.4014693370390665, ,0.11086091303559671,0.06622256912663697,0.02585846025974026,-0.00913066487171012,0.13343046338461872,-0.03667807515195655, ,2.160067081451416
0.021490172196631095,0.01981676057177669,-0.09782721741287745, ,0.02221359921830934,0.019427748631287284,-0.09851760129678568, ,0.001072989679679072, ,0.016319571339842527,-0.001409849780022515,-0.02413643548805521,-0.05888392487135427,-0.0030129835238334704,0.015901774178550314, ,0.029169909207734775, ,0.05896088946435701, ,0.0008217453259309385, ,0.23667087166348433,-0.1944352455743505,0.10881447147000001,1.617128844152652,0.22708986261016204,-1.4016180328568457, ,0.11190677070574384,0.06504245480361259,0.026503846123128123,-0.00913066487171012,0.1129095273386886,-0.006471953994851239, ,2.1724941730499268
0.021744298119557703,0.019798869379545635,-0.0982104085301855, ,0.022294883337950933,0.01941922177273482,-0.0986379387787553, ,0.0007937622449527648, ,0.015579964622853479,-0.0012332384662782294,-0.023880462601655845,-0.08377655515720941,-0.014614813270456854,-0.00734885799595419, ,0.028540018725171812, ,0.08504173207695119, ,0.0008215562510594643, ,0.23835442743006527,-0.19345445849932397,0.10923446943000001,1.6169191542091674,0.22845622760781642,-1.4011803158311391, ,0.10214956034281031,0.06239115158347849,0.026112805770491805,0.010192340175018992,0.08728100427293733,0.025464109449543915, ,2.1778111457824707
0.02189087598897186,0.019783123961292646,-0.09842919308723332, ,0.02237598454436543,0.01941085535401813,-0.09875835291434668, ,0.0006944497233518359, ,0.014190339824027566,-0.0017711252659918986,-0.02084606635401378,-0.047947639339308346,0.0067479835342308956,0.0021558632172122513, ,0.025279658056729385, ,0.048420114243948945, ,0.0008207031871151179, ,0.23935065997084023,-0.192836639869386,0.10947428308000001,1.617128844152652,0.22954931960593997,-1.401254871659305, ,0.09693252457453604,0.061105564429150536,0.0228533881205165,0.0042776077676684576,0.10492298522268899,-0.010461691689498044, ,2.1836891174316406
0.02189087598897186,0.019783123961292646,-0.09842919308723332, ,0.022456901928706304,0.019402651917823626,-0.09887884539815962, ,0.0008169036302007239, ,0.014190339824027566,-0.0017711252659918986,-0.02084606635401378,-0.047947639339308346,0.0067479835342308956,0.0021558632172122513, ,0.025279658056729385, ,0.048420114243948945, ,0.0008206778567356885, ,0.23935065997084023,-0.192836639869386,0.10947428308000001,1.617128844152652,0.22954931960593997,-1.401254871659305, ,0.09693252457453604,0.061105564429150536,0.0228533881205165,0.0042776077676684576,0.10492298522268899,-0.010461691689498044, ,2.188988208770752
0.02203116992854184,0.019761422211406757,-0.09861633346421758, ,0.02253763459707054,0.019394613985974245,-0.09899941789253722, ,0.0007333542213240586, ,0.013910388018268728,-0.002665378707432246,-0.01723904570065882,-0.11365478907138453,-0.06782525445414637,-0.019476146940652483, ,0.022311159430702627, ,0.13235435277352894, ,0.0008200995545144194, ,0.24030827884724407,-0.19222654397232228,0.10968039319000002,1.6173385340961361,0.2300958656050017,-1.400883755872685, ,0.0954697601191859,0.062432198393730785,0.019030838136200722,0.009858230652993023,0.027572145917499364,0.054143084555960515, ,2.1943211555480957
0.02203116992854184,0.019761422211406757,-0.09861633346421758, ,0.022618181670452882,0.019386744059482205,-0.09912007202768092, ,0.0008594876630825702, ,0.013910388018268728,-0.002665378707432246,-0.01723904570065882,-0.11365478907138453,-0.06782525445414637,-0.019476146940652483, ,0.022311159430702627, ,0.13235435277352894, ,0.0008203586868076309, ,0.24030827884724407,-0.19222654397232228,0.10968039319000002,1.6173385340961361,0.2300958656050017,-1.400883755872685, ,0.0954697601191859,0.062432198393730785,0.019030838136200722,0.009858230652993023,0.027572145917499364,0.054143084555960515, ,2.2006189823150635
0.022169010483267103,0.01973426974582863,-0.09878711392204167, ,0.022698542284695155,0.019379044618600096,-0.0992408094017635, ,0.0007825780523744453, ,0.01345340301443682,-0.002407886439889239,-0.016471989055171037,-0.022706654517084014,-0.012182678972388533,-0.005706988300725138, ,0.021403700455994393, ,0.025768364590465134, ,0.0008201117545564337, ,0.2412890659222706,-0.19160100260951007,0.10986965153000001,1.6173385340961361,0.23077904810382893,-1.4009507729503237, ,0.09763059831118392,0.058542221812751864,0.018372331626297582,0.009057407279915601,0.08540578606369406,-0.03203926953917843, ,2.206068992614746
0.022169010483267103,0.01973426974582863,-0.09878711392204167, ,0.022778715590438908,0.019371518122873393,-0.09936163158104225, ,0.0009129072232004407, ,0.01345340301443682,-0.002407886439889239,-0.016471989055171037,-0.022706654517084014,-0.012182678972388533,-0.005706988300725138, ,0.021403700455994393, ,0.025768364590465134, ,0.0008207143225346416, ,0.2412890659222706,-0.19160100260951007,0.10986965153000001,1.6173385340961361,0.23077904810382893,-1.4009507729503237, ,0.09763059831118392,0.058542221812751864,0.018372331626297582,0.009057407279915601,0.08540578606369406,-0.03203926953917843, ,2.2114319801330566
0.02229981148129302,0.01971146782908371,-0.09894439421930029, ,0.022858700753082137,0.019364167011193277,-0.09948254009997323, ,0.0008500447430068558, ,0.013299611872027916,-0.002430230724451079,-0.01568623702269637,-0.0010912217667513177,-0.009562738238255777,-0.003941692454692857, ,0.02070854242221944, ,0.009624748196258939, ,0.0008209035510538172, ,0.24225440753154864,-0.19104496584256592,0.11004594697000002,1.6173385340961361,0.231735503602187,-1.4014039833156366, ,0.09793286022546002,0.05709803944552995,0.017600896707182324,0.0082392404226268,0.08855537534888679,-0.05242971238250907, ,2.2167441844940186
0.02229981148129302,0.01971146782908371,-0.09894439421930029, ,0.022938496952727313,0.019356993701848003,-0.09960353646132421, ,0.0009838900007221737, ,0.013299611872027916,-0.002430230724451079,-0.01568623702269637,-0.0010912217667513177,-0.009562738238255777,-0.003941692454692857, ,0.02070854242221944, ,0.009624748196258939, ,0.0008219483359875887, ,0.24225440753154864,-0.19104496584256592,0.11004594697000002,1.6173385340961361,0.231735503602187,-1.4014039833156366, ,0.09793286022546002,0.05709803944552995,0.017600896707182324,0.0082392404226268,0.08855537534888679,-0.05242971238250907, ,2.2220001220703125
0.02243121146982709,0.019691998699123123,-0.0991121234616786, ,0.02301810338413668,0.019350000592575425,-0.09972462213628851, ,0.0009146362393668226, ,0.013881563009221866,-0.0013555244819115604,-0.019093134950925454,-0.04760608168920065,-0.03133492588542668,-0.008037786013038286, ,0.02364493688835539, ,0.05699310534318995, ,0.0008225387047989215, ,0.24317341274358137,-0.1905043745413702,0.11023261273000001,1.6173385340961361,0.23241868610101418,-1.4015526791334159, ,0.09267279449069411,0.05292634777382642,0.02115380015936255,0.007558805211024617,0.0610781931826634,-0.0019997265443038523, ,2.2272751331329346
0.02243121146982709,0.019691998699123123,-0.0991121234616786, ,0.023097519256683626,0.019343190060615134,-0.09984579856459795, ,0.0010506724940566306, ,0.013881563009221866,-0.0013555244819115604,-0.019093134950925454,-0.04760608168920065,-0.03133492588542668,-0.008037786013038286, ,0.02364493688835539, ,0.05699310534318995, ,0.0008239825895410589, ,0.24317341274358137,-0.1905043745413702,0.11023261273000001,1.6173385340961361,0.23241868610101418,-1.4015526791334159, ,0.09267279449069411,0.05292634777382642,0.02115380015936255,0.007558805211024617,0.0610781931826634,-0.0019997265443038523, ,2.232577085494995
0.022575049000477257,0.019679945539703987,-0.09932822967197068, ,0.023176743794308938,0.01933656446276107,-0.0999670671546378, ,0.0009423696292788127, ,0.01398825554041253,-0.000801325755322346,-0.02332991027435876,-0.044009299781313994,0.00168738063815595,0.003818324886430084, ,0.027213932634583618, ,0.04404155775254215, ,0.000824727162118026, ,0.24409241795561407,-0.18994061504155182,0.11046983380000001,1.617548224039621,0.23310186859984142,-1.4014563387307735, ,0.08564705916829492,0.05498084678938052,0.02540480306220096,0.00025720995325006064,0.08899158235027979,-0.009301392050047097, ,2.2382590770721436
0.022712839045380486,0.01967498758404424,-0.09956908523177181, ,0.02325577623546649,0.019330126135412653,-0.1000884292835585, ,0.0008266973177995555, ,0.013396506655156884,-0.00013460764014052579,-0.023880523938712876,-0.04672127648762313,0.010595150915301848,0.005413813937395313, ,0.027381817568705797, ,0.04790748514752036, ,0.0008247394755910355, ,0.24492647310603033,-0.18940774647323033,0.11073168438000001,1.617548224039621,0.23419496059796494,-1.4016125732990798, ,0.07842722442848825,0.04916939977122838,0.025942689771986976,0.00025720995325006064,0.09069422045343507,-0.0009435182552862895, ,2.2441179752349854
0.022712839045380486,0.01967498758404424,-0.09956908523177181, ,0.02333461583308408,0.019323877394628316,-0.10020988629739047, ,0.0009594325117154919, ,0.013396506655156884,-0.00013460764014052579,-0.023880523938712876,-0.04672127648762313,0.010595150915301848,0.005413813937395313, ,0.027381817568705797, ,0.04790748514752036, ,0.000825576078299883, ,0.24492647310603033,-0.18940774647323033,0.11073168438000001,1.617548224039621,0.23419496059796494,-1.4016125732990798, ,0.07842722442848825,0.04916939977122838,0.025942689771986976,0.00025720995325006064,0.09069422045343507,-0.0009435182552862895, ,2.249399185180664
0.02284903901364423,0.019673944478896456,-0.09981133392045158, ,0.02341326185450889,0.01931782053617629,-0.1003314395111573, ,0.0008459796109926618, ,0.014740393905007464,-0.0001187417800326652,-0.026010324140215188,-0.06273482844800737,0.005307544686533774,0.0047306979003908, ,0.02989699439683139, ,0.06295885025964423, ,0.0008257020260325546, ,0.24571419185920124,-0.18891349156927995,0.11099483125000001,1.617548224039621,0.2350147795965576,-1.4015459720599932, ,0.08587958512078804,0.05307435210205301,0.028292738046181175,0.00025720995325006064,0.09288072534457618,0.011288414928599479, ,2.2546870708465576
