NicholasDascanio/dvrk_moveit_final/test/execution/third_experiment_notsharpbends/thirdexp_200vel3.0/thirdexp_200vel3.0_24.csv
Current Position (x),Current Position (y),Current Position (z), ,Planned Position (x),Planned Position (y),Planned Position (z), ,Position Error,,Cartesian linear Velocity(x),Cartesian linear Velocity(y),Cartesian linear Velocity(z),Cartesian Angular Velocity(x),Cartesian Angular Velocity(y),Cartesian Angular Velocity(z), ,Total Linear Velocity, ,Total Angular Velocity, ,MSE, ,Joint 1 Position,Joint 2 Position,Joint 3 Position,Joint 4 Position,Joint 5 Position,Joint 6 Position, ,Joint 1 Velocity,Joint 2 Velocity,Joint 3 Velocity,Joint 4 Velocity,Joint 5 Velocity,Joint 6 Velocity, ,Time Stamp
0.008361201336514721,0.020015858719233802,-0.07663084196831003, ,0.008624735883727482,0.019971067683834214,-0.07692833159498008, ,0.00039994596185370586, ,0.001992735737357789,0.0008984033549246463,-0.0045660872604641155,0.29557023877910643,-0.12228503056286852,-0.144661569785116, ,0.005062339101369587, ,0.31986777697935576, ,3.3328830154475486e-05, ,0.16457916028259853,-0.24722784750254923,0.08712753977000001,1.7028920310378222,0.49776676864549957,-1.2877807804637136, ,0.0028995219783185568,0.0021580103568823524,0.004345011325695581,-0.0009850151083665491,-0.12554719826476068,-0.32901192804558277, ,0.05388188362121582
0.008512610114482757,0.020097296179270415,-0.07704814579234458, ,0.008785536239967365,0.020010703737147525,-0.07732641081804968, ,0.0003992722699305686, ,0.003371993053882183,0.001683312085522755,-0.009642188277573259,-0.0672125513063689,-0.07340913698922157,0.0029032487744640526, ,0.010352568353450647, ,0.099531042209297, ,3.632810144473975e-05, ,0.1651351970495427,-0.24694982911907715,0.08754753773000001,1.7028920310378222,0.4929844911537091,-1.29564289241458, ,0.016463730318957457,0.009313670058233806,0.00984475372064277,-0.0009850151083665491,-0.05880803116539071,0.0558390238368589, ,0.10588502883911133
0.008635787535658968,0.02014182331578926,-0.07739160881316375, ,0.008945652844345134,0.020049548552949013,-0.07772142107677854, ,0.0004618520007698484, ,0.002621908990309199,0.00044826717165523004,-0.006031406534238458,0.01000412786960667,-0.009984838152504368,-0.006252738948335026, ,0.006591905262661346, ,0.01413433972216218, ,3.940844476731634e-05, ,0.16613915232319187,-0.24638606961925877,0.08790920264,1.7028920310378222,0.49462412915089443,-1.292487576551206, ,0.021695688513596427,0.013795165221466898,0.0062539503415783276,-0.0009850151083665491,0.012347551343816,-0.024070597706915192, ,0.1591198444366455
0.008802316966668352,0.02017797490497295,-0.07778023333865187, ,0.009105085986278374,0.020087609506904528,-0.07811337704210822, ,0.00045915107705012017, ,0.003498433714442099,0.0010167088038256634,-0.00882642195991434,-0.00330157215860863,-0.018966787521940087,-0.0037416053014181186, ,0.00954874127100425, ,0.01925199610561726, ,4.0957650228672454e-05, ,0.16745973964468427,-0.24559062813321364,0.08831234883000001,1.7028920310378222,0.49503403865019074,-1.293230223962998, ,0.026092092812337306,0.01546308319349369,0.009170300241796202,-0.0009850151083665491,0.007620506003352971,-0.012129396531019665, ,0.2113950252532959
0.00897531087897358,0.020217463296257406,-0.0781699386673333, ,0.009263835975751302,0.020124893947846466,-0.07850229334465436, ,0.0004497504277630104, ,0.003474143321095972,0.0008639461837799909,-0.007534740634045124,-0.0015525274286216537,-0.013403511028670682,-0.0006971756200769675, ,0.008341965670410931, ,0.01349312510232998, ,4.2548465438573594e-05, ,0.16887299976066736,-0.24483380031153962,0.08871938389,1.7028920310378222,0.49571722114901795,-1.2939506709617614, ,0.029154206315966442,0.013395954483126875,0.007924781850746269,-0.0009850151083665491,0.01659278804644987,-0.010967016306588449, ,0.258573055267334
0.009126103639121235,0.020259143023050062,-0.07852159810201059, ,0.009421903143246875,0.02016140919780267,-0.07888818457479202, ,0.0004810768018360381, ,0.00350629299036079,0.0010800325557802537,-0.008759595817507002,-0.0001736857567869281,-0.015887822761317196,-0.0033384219274484195, ,0.009496898427480657, ,0.015888770476798503, ,4.418414232005486e-05, ,0.17006230062329794,-0.2442314271473501,0.08908753025,1.7028920310378222,0.49626376714807974,-1.294232985096266, ,0.026092092812337306,0.014274509861382487,0.009143979058553388,-0.0009850151083665491,0.010816675204790521,-0.013896420037258946, ,0.3069489002227783
0.009265322165891687,0.0202987547265405,-0.07885423176945609, ,0.009579287839677353,0.020197162552024573,-0.07927106528273872, ,0.0005316442344595699, ,0.003453083936129648,0.001123170421690961,-0.008581816965193601,-0.009454825953157208,-0.024717292681193843,-0.002514521715444671, ,0.009318416329516663, ,0.026463904563476776, ,4.612598222699799e-05, ,0.17149100620502947,-0.2434977675242988,0.08956845384,1.7028920310378222,0.4973568591462032,-1.2951243283258371, ,0.02275706032577237,0.013382730441188942,0.009618847536231887,-0.0009850151083665491,0.01403655760530949,-0.014833962651985607, ,0.3555598258972168
0.009435289348526346,0.020345684874015346,-0.07928286141991027, ,0.009735990436314903,0.020232161279016697,-0.0796509499786354, ,0.0004886695589894846, ,0.003165571122365185,0.0005285669842907285,-0.00681511606751448,-0.012010561316404624,-0.02468808668260986,-0.002473964407563118, ,0.007532996123809477, ,0.027454602391612168, ,4.7068747854517257e-05, ,0.1724177341499364,-0.2429031170929835,0.08988345231000001,1.7028920310378222,0.49776676864549957,-1.2954585820369267, ,0.02445797462847185,0.014619772232086088,0.0070606434042553195,-0.0009850151083665491,0.0,-0.002712804016999247, ,0.40641093254089355
0.009597152802891076,0.02038272985363251,-0.07968516971654176, ,0.009892011324721037,0.02026641262056641,-0.08002785313262324, ,0.0004668009964226513, ,0.0032565454432748548,0.000914501699853474,-0.008186016982622892,-0.0038173734597300823,-0.013973379920315323,-0.005373423963852812, ,0.008857328921460437, ,0.014485428877653705, ,4.7565095736494215e-05, ,0.17363020321118966,-0.24213084380556105,0.09030215398000001,1.7024726511508534,0.4985865876440922,-1.2961270894591048, ,0.023259054303546762,0.014210383581681757,0.00852720102783726,0.0021499147321925277,0.009085676661584463,-0.009566520178752974, ,0.45365285873413086
0.009735877807054115,0.020419698401824764,-0.08002877449017845, ,0.010047350916676743,0.02029992379177544,-0.08040178917492061, ,0.0005005011591033009, ,0.0038364475730846776,0.0010818419877269693,-0.009454796427010678,-0.013525369227114623,-0.026025469566447367,-0.005286353293444817, ,0.01026069625043302, ,0.02933019951056005, ,4.882804724398208e-05, ,0.1746573266834615,-0.2415207479084973,0.09066122631000001,1.7024726511508534,0.4992697701429194,-1.296684178977587, ,0.026507525574991836,0.015861096700396253,0.009826533942011105,0.0019952137019890897,0.0,-0.001864659585264158, ,0.49607205390930176
0.009914814906800316,0.02046721736636338,-0.08047109530163599, ,0.010202009644110707,0.020332701981090273,-0.08077277249589727, ,0.00043770347902583496, ,0.0037298717868692573,0.0009856568283937875,-0.008687996019368555,-0.00649760969840559,-0.018337924781621988,-0.0044533958249658185, ,0.009506036911479275, ,0.019455034504982333, ,4.9285125895185756e-05, ,0.1759779140049539,-0.24074075188820063,0.09112400184000001,1.7024726511508534,0.5002262256412775,-1.297464104303462, ,0.027434790852405543,0.014692203368705801,0.009091787397260276,0.0018285608637981063,0.008977289309363774,-0.007284441795577024, ,0.538564920425415
0.010057789822822277,0.02049916645021407,-0.08080187173899579, ,0.010355987959028048,0.020364754350334115,-0.0811408174461456, ,0.0004710338983831376, ,0.003659276867892656,0.0007007083733784962,-0.00804511140725662,-0.004864997495975484,-0.015064027476424895,-0.004486235329070349, ,0.008865952682909356, ,0.015830132366596684, ,4.99765933836691e-05, ,0.17708998753884223,-0.24011521052538845,0.09147140756000001,1.7024726511508534,0.5011826811396356,-1.2981623508891964, ,0.028134284482203013,0.016078776949927275,0.00841458611727417,0.0017153029600527915,0.013124845951939721,-0.010094366040730333, ,0.5831239223480225
0.010204199039389347,0.02052852045557773,-0.08112597865028395, ,0.010509286333438575,0.020396088034739298,-0.08150593833655155, ,0.0005049613512616377, ,0.003579286746593193,0.000731149835643285,-0.008352240679263167,0.006946941184243005,-0.0024392822699877094,-0.005304321023051612, ,0.009116238152924557, ,0.007362747392398506, ,5.086019509957066e-05, ,0.1782483974699759,-0.23948194642970205,0.09181233183000001,1.7024726511508534,0.5021391366379937,-1.2989422762150713, ,0.027466553273074033,0.016575884988379176,0.008761722508250826,0.0016146631850201803,0.02553584889342784,-0.02200250694137728, ,0.6264469623565674
0.010369736361048085,0.020574828757355775,-0.0815333279941361, ,0.010661905259283927,0.020426710142979105,-0.08186814943836383, ,0.00046840921055841574, ,0.0032800109890311576,0.0007377781611148987,-0.008064555788164807,0.025571254207478664,0.018789232675991113,-0.005436300069908268, ,0.008737267808852246, ,0.03173207008980685, ,5.134466478273484e-05, ,0.1794454210654807,-0.23881006866964452,0.09224010753,1.7024726511508534,0.5030955921363518,-1.2997222015409462, ,0.026229115964198666,0.01568026132823377,0.008536340578778135,0.0015201843240876447,0.0462722350029646,-0.038911639380589176, ,0.6690800189971924
0.010509894800155245,0.02060141010960507,-0.0818537516594123, ,0.010813845248365199,0.020456627757201445,-0.0822274649832616, ,0.0005030004502553105, ,0.0037158269753982147,0.001058233252502043,-0.009737761830261286,0.03575851519389855,0.028918128423368307,-0.005824816635451739, ,0.010476222276693623, ,0.045988362362936054, ,5.241621550494503e-05, ,0.18050343546924946,-0.23816908184108387,0.09257584664000001,1.7024726511508534,0.5039154111349443,-1.3003907089631248, ,0.02883529065890938,0.016810795670233972,0.010336671979234265,0.001441815472193163,0.05948413427978801,-0.049685057345766406, ,0.7056679725646973
0.010671921165334643,0.020648678255652402,-0.0822811125089654, ,0.010965106832269887,0.020485847933061508,-0.0825838991634206, ,0.0005463661889560304, ,0.003647968319222415,0.0010090444155955798,-0.009983322676964905,0.036145638269785105,0.03172137656260119,-0.006113188695385524, ,0.010946312126428782, ,0.048091088548582336, ,5.368892955048698e-05, ,0.1815923408045151,-0.23746631314952946,0.09302306669,1.7024726511508534,0.5048718666333024,-1.3010072768087189, ,0.02733206842121854,0.017867998787134395,0.010562872360742707,0.0013699540054763896,0.060843549635369136,-0.05108757621166263, ,0.7428538799285889
0.010796377055091165,0.02067287781899947,-0.08256788886996866, ,0.011115690562298632,0.020514377699756035,-0.08293746613157829, ,0.000513488808041803, ,0.003969242492360051,0.0007334118813851403,-0.008620674467024381,-0.01820139430207042,-0.027811869872330367,-0.003535625937066219, ,0.009518865857722738, ,0.03323839365438705, ,5.4619107261219383e-05, ,0.18248045508505095,-0.23691027638258527,0.09332250968000001,1.7024726511508534,0.5052817761325988,-1.3011781730395269, ,0.02811761231362097,0.016604889161587186,0.008984101252115061,0.0013210098994391492,0.0,0.0022316852850291723, ,0.7795720100402832
0.010961480185807858,0.020705716475144614,-0.0829600860903433, ,0.011265597009391098,0.02054222406005642,-0.0832881800010987, ,0.00047630077309668013, ,0.004445390363334547,0.0009149706580618217,-0.010557172362499421,-0.01572597268335392,-0.01829798628405207,-0.0026797729396560474, ,0.011491412231708657, ,0.0241272125979791, ,5.522534611456224e-05, ,0.18370064687917842,-0.23614572582803706,0.09373472990000001,1.7024726511508534,0.5066481411302531,-1.3022106733363505, ,0.030367021298710647,0.019932144834797473,0.011008162764340015,0.0012609937138293578,0.012210422676329593,-0.0027434877329214962, ,0.8162200450897217
0.01107468134350307,0.02072250609533582,-0.08321365751544399, ,0.011414826764051974,0.02056939399034288,-0.08363605484603483, ,0.000563526156186229, ,0.0037311855224529808,0.0007696678242035626,-0.009446358348184117,0.07068324715821593,0.060980417699624256,-0.009028043754193603, ,0.010185667381418104, ,0.09335273266719103, ,5.666742114250544e-05, ,0.18460420662546267,-0.23559741179396712,0.09400306193,1.7024726511508534,0.5080145061279076,-1.303079816152893, ,0.03209230353685181,0.019128591324021525,0.010152206195028681,0.0012218817602179086,0.09607864865712007,-0.08582674320462687, ,0.8478288650512695
0.01122297974646564,0.02075960926166145,-0.08356301848481532, ,0.011563380436277108,0.020595894440639417,-0.08398110470119152, ,0.0005634458772323851, ,0.004694886423751504,0.001308870016360413,-0.011840174291423424,-0.01801994935258334,-0.02296791656875647,-0.0016374603378006146, ,0.012804094130509104, ,0.029193210400402892, ,5.8005393300453665e-05, ,0.1856236073648603,-0.23501048409552605,0.09436991200000001,1.7026823410943377,0.5085610521269693,-1.3027903791064137, ,0.02948025522164361,0.018629160101780676,0.012357495360744767,0.0,0.006755625983404908,0.0003139357996902268, ,0.8794670104980469
0.01136004867298787,0.020798295516811744,-0.08391415962524436, ,0.011711258655478948,0.020621732334647935,-0.0843233435621866, ,0.0005674103482919082, ,0.004929681729753721,0.0012839163695138908,-0.01185140727622557,-0.020304566207063203,-0.006984160594310439,0.005593807484597806, ,0.012899847193961088, ,0.02147216044699233, ,5.9273474158772656e-05, ,0.18660439443988683,-0.2344544473285819,0.09474194723000001,1.7024726511508534,0.5102006901241547,-1.303882357730349, ,0.03390387336851403,0.01906709695769957,0.012483394608150471,-0.0007592418562418146,0.028110087163165567,0.004089624405014624, ,0.91103196144104
0.011505107753052291,0.020831310854988492,-0.08425354017036961, ,0.011858462070411264,0.020646914569783018,-0.08466278538551202, ,0.0005712643081015638, ,0.004172006179730392,0.0010493965035452515,-0.010780849021702586,0.04744894802625857,0.040722561195323165,-0.0034405035898492854, ,0.011607479235997245, ,0.06252782991173404, ,6.047807451155997e-05, ,0.18763151791215868,-0.23387524236301505,0.09509972327,1.7022629612073688,0.5111571456225127,-1.3042538893555211, ,0.03159019359469733,0.01886619116470592,0.011492649004329005,-0.002433256795612993,0.07542671867517013,-0.06355484573113801, ,0.9423558712005615
0.011691714983480237,0.020863497631282205,-0.0846646935569145, ,0.012004991349094277,0.02067144801720685,-0.08499944408859338, ,0.0004970744954009665, ,0.0046314231867949154,0.0007734810086048521,-0.010207646933605567,0.007405323835057785,-0.009436888332097569,-0.007642534318686078, ,0.01123585375158475, ,0.01199556466665861, ,6.120351261064973e-05, ,0.18898299616514797,-0.23308752360984414,0.09553268413,1.7020532712638843,0.5122502376206363,-1.305063553844952, ,0.03304211057049818,0.02004159272618179,0.010733700485175203,0.0012214489130463549,0.024118847436670254,-0.026294837488248478, ,0.9746930599212646
0.011832500096533985,0.020886233126856113,-0.08497801574882999, ,0.012150847178740097,0.02069533952186476,-0.08533333354984954, ,0.0005138443080322174, ,0.004919035340803993,0.0010452554358784754,-0.011723820583079109,-0.014715936381175077,-0.017774324222738665,-0.003059034688662011, ,0.012756858417123769, ,0.0230756400488494, ,6.229733758422325e-05, ,0.19001011963741984,-0.23246198224703196,0.09586323808000001,1.7020532712638843,0.5133433296187598,-1.3057915395942423, ,0.03183392873481073,0.02082900385392247,0.012262364526558892,0.0012214489130463549,0.014271577456431825,-0.004553288495670205, ,1.0054378509521484
0.011931335671308788,0.02091076909806906,-0.08522378648124694, ,0.012296030265675979,0.020718595902519718,-0.08566446760875161, ,0.0006034339569390211, ,0.004612335817507285,0.0013281149018889657,-0.01299862248357351,0.035866497652569766,0.0470941800329324,-0.0026526675469523914, ,0.013856468430178842, ,0.05919685021806241, ,6.379450306636635e-05, ,0.19065882919885468,-0.2320604001375723,0.09611731092,1.7020532712638843,0.5141631486173524,-1.3062150107959989, ,0.03125722712729604,0.02143110694635745,0.013803129566724439,0.0012214489130463549,0.08096792371091524,-0.052815932656751115, ,1.0315639972686768
0.012033388718799734,0.02093629655833215,-0.08548512361936574, ,0.012440541335270172,0.0207412239517888,-0.08599286006588086, ,0.0006794283435669631, ,0.005504989534073802,0.0012756958903855323,-0.013226345715856822,-0.0246062503958687,-0.018046719149409172,0.0005324191050340422, ,0.014382924972701928, ,0.030514770617525472, ,6.559678220754201e-05, ,0.19156238894513897,-0.23147347243913122,0.0964828647,1.7020532712638843,0.5152562406154759,-1.3066979603248676, ,0.032521227401806296,0.02296078915036796,0.012992505318107668,0.0012214489130463549,0.013779836565183492,0.00697603739739912, ,1.057804822921753
0.012241252805440375,0.020975888200390574,-0.08597910402177408, ,0.012584381131854632,0.020763230436177813,-0.08631852468298677, ,0.000527415166947138, ,0.005458361644283621,0.0008020080157543964,-0.011889674756566576,-0.0344025565622624,-0.01821393319704674,0.0037082801274311234, ,0.013107299283760074, ,0.038926636419349986, ,6.656961760222215e-05, ,0.192767135273518,-0.23069347641883456,0.09691841814,1.7020532712638843,0.5167592421128957,-1.307433484824685, ,0.03725832020356135,0.02369461711821992,0.012473619044635868,0.0012214489130463549,0.019474418955046733,0.013816490829469324, ,1.0845680236816406
0.012345736011245475,0.02099083767701477,-0.08621342408315763, ,0.012727550418650152,0.020784622096117363,-0.08664147518304374, ,0.0006095365875977828, ,0.005113264257469052,0.000843887887120116,-0.011702711401877317,0.006225046373358725,0.035317360785056345,0.005422628594026576, ,0.012798869961382058, ,0.03586177569046656, ,6.78871818859682e-05, ,0.19351624036231777,-0.23021466698063264,0.09716600953000001,1.7020532712638843,0.5177156976112539,-1.307805016449857, ,0.038686074830195996,0.023117403546521507,0.012493185505882354,0.0012214489130463549,0.07632584940051049,-0.0235403747389823, ,1.110826015472412
0.012453865802867416,0.021009630505492826,-0.08646368772048, ,0.012870049977689509,0.02080540564599893,-0.08696172525030867, ,0.0006804104950142089, ,0.00567340152669656,0.000793247928926242,-0.012597305478161472,0.0006516926047591668,-0.011508506759197646,-0.002634105386324539, ,0.013838671629530981, ,0.011526929939811827, ,6.979775089283892e-05, ,0.19426534545111754,-0.22972813480955648,0.09743045269000002,1.7022629612073688,0.5186721531096119,-1.3080948693348886, ,0.038544655385244014,0.02525198019118435,0.013229909900332229,-0.0036440439649548617,0.028814199956327804,-0.025094144477025324, ,1.1319549083709717
0.012573765081512766,0.021032355914245432,-0.086744837463226, ,0.013011880609741646,0.02082558777421041,-0.08727928853037678, ,0.0007213433461171014, ,0.006283952046645716,0.001505473039897345,-0.015529663294259966,0.05911921398539431,0.03710897932564791,-0.007736344515427583, ,0.016820372898110374, ,0.0698008374275522, ,7.182597264763593e-05, ,0.1950762324029111,-0.2292261571727319,0.09772730310000001,1.7020532712638843,0.5196286086079701,-1.3087114371804824, ,0.04361072681915018,0.02551678987858854,0.016540821931464174,-0.004059776634862039,0.08437484110298617,-0.08247386308815825, ,1.152724027633667
0.012712556485089514,0.02106293112255362,-0.08708445933153158, ,0.013153043134234328,0.020845175143171996,-0.08759417863023826, ,0.0007079971173001365, ,0.0069111608851740464,0.001541627841751844,-0.016338433278780762,-0.020669574425462873,-0.03487255149757779,0.000878399771174432, ,0.017806885274758044, ,0.04053794507144412, ,7.372098718236383e-05, ,0.19596434668344692,-0.22867012040578774,0.09808507914,1.7016338913769151,0.5205850641063281,-1.3092463262859357, ,0.04173128476625804,0.026279961661166095,0.017109357164339423,-0.006133021153822946,0.008527162075269752,-0.005888229081112929, ,1.1737680435180664
0.012889416265703895,0.02109488569601025,-0.08749428698106294, ,0.013293538389178818,0.02086417438937294,-0.08790640911833297, ,0.0006216003971364506, ,0.006228101943071703,0.0008778634385281981,-0.01408891309494031,0.023014472607828115,0.022965985189638875,0.0016217271954973012, ,0.015429107888234454, ,0.032513103051330636, ,7.51666351841647e-05, ,0.19714592481320328,-0.22792101531698797,0.09851804000000002,1.7016338913769151,0.5219514291039825,-1.3103605053229, ,0.04422038283246542,0.02800145811698754,0.01495663053521127,-0.006133021153822946,0.07087478914335582,-0.048451414742863325, ,1.1952979564666748
0.012976608622583426,0.02110570458535688,-0.08767691429116804, ,0.013433367231092102,0.020882592123407068,-0.08821599352460689, ,0.0007409548009488202, ,0.007025099629888458,0.0007482832145767602,-0.014158038314288924,-0.03347915830504529,-0.03891456068468984,0.004256920131437231, ,0.015822831652013158, ,0.05133416508743049, ,7.741752992388665e-05, ,0.19775602071026702,-0.22755032413902518,0.09871118721000001,1.7016338913769151,0.5224979751030443,-1.3106428194574045, ,0.04733014541569615,0.029109491275604533,0.014858965970149254,-0.006133021153822946,0.010157531802112235,0.004895372032069557, ,1.2112300395965576
0.013120651371339387,0.021130609471534584,-0.08801152008200516, ,0.013572530534919818,0.020900434930008892,-0.08852294534056682, ,0.0007202297502461052, ,0.007071920270502694,0.0015237574513512772,-0.01824124111492579,0.05269641636918466,0.0579885080410815,-0.00020136769090867019, ,0.01962337306621251, ,0.07835545509633998, ,7.952087975351788e-05, ,0.1986981941209224,-0.22694022824196144,0.09905859293000001,1.7016338913769151,0.5235910671011678,-1.3114524839468351, ,0.04695543867316713,0.03159019359469733,0.019307650327272732,-0.006133021153822946,0.10781694351995187,-0.07835074536921681, ,1.226923942565918
0.013196253180914826,0.02114730516414796,-0.08819987302309229, ,0.013711029193960915,0.02091770936809125,-0.08882727801933495, ,0.0008434130675326222, ,0.00783894785359999,0.0019310710786798805,-0.019534744007151963,0.019236578997642,0.016760466732799805,0.0011934492351676834, ,0.021137274242137592, ,0.025513846670381413, ,8.209471136318626e-05, ,0.199200171757747,-0.226615873461244,0.09926470304000001,1.7016338913769151,0.5245475225995259,-1.3120690517924292, ,0.04899170963266432,0.030183505584755334,0.02068676820779221,-0.006133021153822946,0.06936472920427726,-0.046875237583108936, ,1.2427878379821777
0.013368448552807907,0.02118825674763688,-0.08861868475323433, ,0.013848864119787955,0.020934421970779663,-0.08912900497570372, ,0.0007454246711775305, ,0.00906606945371592,0.002047920082969629,-0.022085723653726567,0.0015844536137080713,-0.026719736839580642,-0.00641020810723945, ,0.02396177750740976, ,0.026766575709389992, ,8.419194051061471e-05, ,0.20021957249714464,-0.22596716389980914,0.09970544164,1.7016338913769151,0.5252307050983531,-1.3122177476102084, ,0.0526912501712775,0.034850143796720814,0.02318604296943232,-0.006133021153822946,0.028212365764245545,-0.03665977968560384, ,1.2585108280181885
0.0134538544169258,0.021207992498743833,-0.08882967653708809, ,0.013986036242172144,0.02095057924545037,-0.0894281395861899, ,0.0008412116851505891, ,0.008424818703237793,0.0017476437911841344,-0.020299446417836785,0.054143815830925014,0.03493486620193632,-0.006512614841811461, ,0.02204766096151509, ,0.0644359699425835, ,8.663441297376304e-05, ,0.20076788653121458,-0.22562736365334327,0.09992969981000001,1.7016338913769151,0.5261871605967111,-1.3128343154558022, ,0.05514058196308587,0.03401324070196086,0.021583755447154476,-0.006133021153822946,0.0944214295525964,-0.08567440771295233, ,1.2745568752288818
0.013542594634392875,0.02122225656431357,-0.0890318392458963, ,0.014122546509005398,0.020966187673766668,-0.08972469518908908, ,0.000939129816154326, ,0.008566608015031691,0.0013685675259366625,-0.019303992782082734,0.012732829504421998,0.0014554156515698769,-0.0013765600940312572, ,0.021163739917296184, ,0.01281563503243429, ,8.97861042914865e-05, ,0.20192629646234825,-0.22489370403029194,0.10034710519000001,1.7014242014334306,0.5272802525948347,-1.3137256586853736, ,0.05934768077452831,0.037375715462178334,0.021042023143989435,-0.006540757882364254,0.03653457625181787,-0.027641435696055518, ,1.285322904586792
0.013722191377522364,0.02124732829511622,-0.08942213809404632, ,0.01425839588622226,0.020981253711714543,-0.0900186850845291, ,0.000845091279647661, ,0.009252431520963361,0.0012934641942516777,-0.019960297595058893,-0.00879212144081366,-0.025426600880675967,-0.0015939479979703568, ,0.022038466796835965, ,0.026903722110728077, ,9.25025086631791e-05, ,0.20251322416078932,-0.22452301285232917,0.10055580788000001,1.7014242014334306,0.5278267985938964,-1.3140896515600187, ,0.06170152246974693,0.039839186212624174,0.02349382230088496,-0.0061565784036469815,0.05701009742436934,-0.04529468908125162, ,1.296252965927124
0.013831809072595614,0.021267738991616634,-0.08967806924041015, ,0.014393585357722834,0.020995783789640107,-0.09031012253452397, ,0.000888281257830857, ,0.01064319870754305,0.0021322714183507688,-0.025584581584251143,0.03150956550622636,0.01893284395124987,-0.005290816648407148, ,0.02779199659921835, ,0.03675995560971486, ,9.534978089194225e-05, ,0.2032005473865953,-0.22408281707849836,0.10082673249000002,1.7014242014334306,0.5286466175924891,-1.314758158982197, ,0.06571810357234818,0.04259288220757216,0.027089815510204087,-0.005772972029201537,0.08871739610522264,-0.07105225926378916, ,1.3071858882904053
0.013944272473090106,0.021294003742237035,-0.0899605032604882, ,0.014528115925295447,0.021009784312286027,-0.09059902076302741, ,0.000910691200184583, ,0.011308571687608874,0.0030513051079639805,-0.028823803263458726,0.043048285050035134,0.030045331739747654,-0.008659311512399145, ,0.031112793044762953, ,0.052496256147736994, ,9.824131357628241e-05, ,0.20388014787952705,-0.2236503440375418,0.10112617548000001,1.701214511489946,0.5297397095906126,-1.3156495022117687, ,0.06617638881343847,0.04088623074470952,0.030573534587332057,-0.002232154237920763,0.099818379216762,-0.07983564057273915, ,1.3175809383392334
0.014056955795347801,0.021321904870160186,-0.09024423135635716, ,0.014661988608539019,0.021023261658828358,-0.09088539295598641, ,0.0009307742312461196, ,0.012614118461723806,0.003072951425081665,-0.03122691093967735,-0.00022261136192710246,-0.017498770443486113,-0.006506583238436365, ,0.033818323167505715, ,0.017499338000751433, ,0.00010116677813442406, ,0.2045211347080877,-0.22324876192808213,0.10142561847,1.7007951316029768,0.5304228920894398,-1.31612491299011, ,0.07066041813735724,0.045977200367476156,0.03291076760330579,-0.004068108064328381,0.0557767395699402,-0.04350111840612896, ,1.3280329704284668
0.014188163718620452,0.02135054003298851,-0.09055830607780788, ,0.014795204444784306,0.021036222182912675,-0.09116925226139364, ,0.0009168148086368576, ,0.012935966376935282,0.002658023138070816,-0.030845880324230825,-0.035550879268999,-0.048777722496665316,-0.004055490168634249, ,0.03355402578058988, ,0.06035812542013123, ,0.0001039908147050486, ,0.20526251706401324,-0.222762229757006,0.10175617242000001,1.7007951316029768,0.5308328015887361,-1.3162141304807777, ,0.07178286048295822,0.04889074784053105,0.032375633170731714,-0.004068108064328381,0.024683874113708416,-0.011764242806135203, ,1.3386340141296387
0.014316724227153299,0.021375139565485906,-0.09085555783551849, ,0.014927764489017786,0.021048672212691837,-0.09145061178934187, ,0.000913258091680892, ,0.012281181096478095,0.002074079340211231,-0.027629717080771592,0.011660487660592682,-0.0011478040282367503,-0.005585062345261363, ,0.030307267778496027, ,0.01171615655760466, ,0.00010675660475316937, ,0.20601934488568724,-0.22227569758592983,0.10206987460000001,1.7007951316029768,0.5313793475877979,-1.3166598020955633, ,0.07597833591550904,0.04747220688267672,0.029280903529411772,-0.004068108064328381,0.07814263615149138,-0.05569921198932593, ,1.3491499423980713
0.014316724227153299,0.021375139565485906,-0.09085555783551849, ,0.01505966981380191,0.021060618050861672,-0.09172948461207514, ,0.0011893863706402843, ,0.012281181096478095,0.002074079340211231,-0.027629717080771592,0.011660487660592682,-0.0011478040282367503,-0.005585062345261363, ,0.030307267778496027, ,0.01171615655760466, ,0.0001109856272761659, ,0.20601934488568724,-0.22227569758592983,0.10206987460000001,1.7007951316029768,0.5313793475877979,-1.3166598020955633, ,0.07597833591550904,0.04747220688267672,0.029280903529411772,-0.004068108064328381,0.07814263615149138,-0.05569921198932593, ,1.3544180393218994
0.014442933338567053,0.021390741395083405,-0.0911236460095172, ,0.015190921509198728,0.02107206597469875,-0.09200588376404337, ,0.001199743215223007, ,0.013037001188545137,0.0013162676598940828,-0.027100938494376545,-0.009083196571101494,-0.025785155054998683,-0.006702684957350511, ,0.030102438901500835, ,0.027337960092614678, ,0.00011522203812420808, ,0.2068225091046066,-0.22176599721623103,0.10235376211000001,1.7007951316029768,0.5320625300866252,-1.3172168916140454, ,0.08316997507315581,0.05388809855676932,0.028648941582733817,-0.004068108064328381,0.06013807030691348,-0.04192683483193232, ,1.359670877456665
0.014442933338567053,0.021390741395083405,-0.0911236460095172, ,0.015321520682691096,0.021083022236096715,-0.09227982224195337, ,0.001484368647780169, ,0.013037001188545137,0.0013162676598940828,-0.027100938494376545,-0.009083196571101494,-0.025785155054998683,-0.006702684957350511, ,0.030102438901500835, ,0.027337960092614678, ,0.0006478423426187843, ,0.2068225091046066,-0.22176599721623103,0.10235376211000001,1.7007951316029768,0.5320625300866252,-1.3172168916140454, ,0.08316997507315581,0.05388809855676932,0.028648941582733817,-0.004068108064328381,0.06013807030691348,-0.04192683483193232, ,1.36496901512146
0.014585143685267882,0.02140729915094757,-0.0914307138252633, ,0.01545146845910359,0.021093493061602922,-0.09255131300482271, ,0.0014507706216699081, ,0.015410702661114307,0.0024085945165688203,-0.035275628206294096,0.032411926715346075,0.01908603368972719,-0.010628313003626171, ,0.038570209092033875, ,0.0376132297553458, ,0.0006642286340279909, ,0.20772606885089087,-0.22117134678491573,0.10267913090000001,1.7007951316029768,0.5330189855849832,-1.3179968169399203, ,0.09433095582352961,0.062432198393730785,0.03739157633802818,-0.004068108064328381,0.1179246498558263,-0.08977448118288299, ,1.3703298568725586
0.014585143685267882,0.02140729915094757,-0.0914307138252633, ,0.015580765980528585,0.02110348465245688,-0.09282036897403188, ,0.0017362915759780607, ,0.015410702661114307,0.0024085945165688203,-0.035275628206294096,0.032411926715346075,0.01908603368972719,-0.010628313003626171, ,0.038570209092033875, ,0.0376132297553458, ,0.0006856698928669923, ,0.20772606885089087,-0.22117134678491573,0.10267913090000001,1.7007951316029768,0.5330189855849832,-1.3179968169399203, ,0.09433095582352961,0.062432198393730785,0.03739157633802818,-0.004068108064328381,0.1179246498558263,-0.08977448118288299, ,1.37562894821167
0.014755407931142278,0.021444003212793453,-0.09183428703192867, ,0.01570941440624103,0.021113003184624515,-0.09308700303337587, ,0.0016090328627657213, ,0.017382907733454987,0.004501670731874078,-0.04267369841144714,0.052677454491590794,0.030688229599514665,-0.011058800542180652, ,0.04629767874050671, ,0.0609634327528463, ,0.0007037750491395165, ,0.20873774685741428,-0.22055352815497778,0.10310820289000001,1.7007951316029768,0.5343853505826376,-1.3190293172367442, ,0.09916085847280122,0.05818328728293733,0.045381229401709404,-0.004068108064328381,0.13484543492321796,-0.10540583273772333, ,1.3809280395507812
0.014755407931142278,0.021444003212793453,-0.09183428703192867, ,0.01583741491262721,0.021122054808837786,-0.09335122802911719, ,0.0018908992230531592, ,0.020008680067381636,0.004972844856697635,-0.04939558741532679,0.008526151287006857,-0.017255896813033314,8.481764157504935e-06, ,0.05352569962282426, ,0.01923972887874911, ,0.0007266043601763173, ,0.2097494248639377,-0.21992798679216558,0.10359301535000001,1.700375751716008,0.5354784425807612,-1.3199206604663154, ,0.10759290426130474,0.06792909202467486,0.05222561154098361,-0.016709485277846773,0.09689503207703594,-0.07475190270336762, ,1.38661789894104
0.014940072702484843,0.021489747195761185,-0.09229233348124119, ,0.01596476869310155,0.021130645650629786,-0.09361305677003816, ,0.001709756064025623, ,0.020008680067381636,0.004972844856697635,-0.04939558741532679,0.008526151287006857,-0.017255896813033314,8.481764157504935e-06, ,0.05352569962282426, ,0.01923972887874911, ,0.0007451543923244175, ,0.2097494248639377,-0.21992798679216558,0.10359301535000001,1.700375751716008,0.5354784425807612,-1.3199206604663154, ,0.10759290426130474,0.06792909202467486,0.05222561154098361,-0.016709485277846773,0.09689503207703594,-0.07475190270336762, ,1.3923509120941162
0.015153131151269213,0.021545991426453488,-0.09284689642049723, ,0.016091476958031332,0.021138781810372837,-0.09387250202749245, ,0.001448509366761786, ,0.021684709023218673,0.006224334288621841,-0.0582235730527401,0.04648080805617962,0.030607980848596467,-0.008470857220463583, ,0.06244159992974185, ,0.05564750582186462, ,0.000758179484443628, ,0.21085377566495178,-0.21918660443624002,0.10417893843,1.699956371829039,0.5368448075784156,-1.320953160763139, ,0.10808307694586651,0.0754347707142057,0.061501202779922784,-0.012484630001544724,0.14570323069387078,-0.11775390371283444, ,1.3975958824157715
0.015153131151269213,0.021545991426453488,-0.09284689642049723, ,0.016217540934656896,0.021146469363315056,-0.0941295765354577, ,0.0017140170195248348, ,0.021684709023218673,0.006224334288621841,-0.0582235730527401,0.04648080805617962,0.030607980848596467,-0.008470857220463583, ,0.06244159992974185, ,0.05564750582186462, ,0.0007755583487178318, ,0.21085377566495178,-0.21918660443624002,0.10417893843,1.699956371829039,0.5368448075784156,-1.320953160763139, ,0.10808307694586651,0.0754347707142057,0.061501202779922784,-0.012484630001544724,0.14570323069387078,-0.11775390371283444, ,1.402878999710083
0.015374076967103852,0.02160721103030825,-0.09342630749144312, ,0.016342961867013436,0.021153714359617416,-0.09438429299058701, ,0.0014360130208916767, ,0.02344405370952415,0.0063071808867138455,-0.059996759887400594,0.02555342861318323,-0.00311629721194935,0.021644093673051236, ,0.06472260333190548, ,0.025727643345998016, ,0.0007873521821495077, ,0.2119581264659659,-0.21843749934744025,0.10479078731000001,1.6997466818855542,0.5380745360763045,-1.321955921896407, ,0.11981937065463481,0.07659155896567456,0.06346140047808765,-0.04392365211422019,0.1300231255786561,-0.1049901952583595, ,1.4083809852600098
0.015374076967103852,0.02160721103030825,-0.09342630749144312, ,0.016467741015852105,0.02116052282439055,-0.09463666405226127, ,0.001691329184146581, ,0.02344405370952415,0.0063071808867138455,-0.059996759887400594,0.02555342861318323,-0.00311629721194935,0.021644093673051236, ,0.06472260333190548, ,0.025727643345998016, ,0.0008032114277985791, ,0.2119581264659659,-0.21843749934744025,0.10479078731000001,1.6997466818855542,0.5380745360763045,-1.321955921896407, ,0.11981937065463481,0.07659155896567456,0.06346140047808765,-0.04392365211422019,0.1300231255786561,-0.1049901952583595, ,1.4138789176940918
0.015621788438986978,0.021666682442972846,-0.09402567233140662, ,0.016591879658563288,0.021166900757732525,-0.09488670234264043, ,0.0013900472608677791, ,0.023583567934530553,0.004640144521475842,-0.054041827974877936,0.011727499396764846,-0.02449328168954463,-0.03906909247071117, ,0.059145877189953816, ,0.027147636064956845, ,0.0008133292869894272, ,0.21327871378745827,-0.21762661239564668,0.10542596941000001,1.69953699194207,0.5393042645741934,-1.3229586830296747, ,0.1303529417011961,0.08209077989487092,0.057297883165467633,0.0192134754440116,0.10474846574604026,-0.08441533743871937, ,1.419152021408081
0.015621788438986978,0.021666682442972846,-0.09402567233140662, ,0.01671537908909547,0.021172854134764947,-0.09513442044671619, ,0.001633747009544232, ,0.023583567934530553,0.004640144521475842,-0.054041827974877936,0.011727499396764846,-0.02449328168954463,-0.03906909247071117, ,0.059145877189953816, ,0.027147636064956845, ,0.0008272346721174748, ,0.21327871378745827,-0.21762661239564668,0.10542596941000001,1.69953699194207,0.5393042645741934,-1.3229586830296747, ,0.1303529417011961,0.08209077989487092,0.057297883165467633,0.0192134754440116,0.10474846574604026,-0.08441533743871937, ,1.4244449138641357
0.015857925703138792,0.021701981183861064,-0.09454398754230274, ,0.016838240617878537,0.021178388905670698,-0.09537983091236256, ,0.0013906115004251646, ,0.023979640218450272,0.002414057492721524,-0.050567727089218514,0.004823003218639315,-0.027303342715763693,-0.0037023255793596564, ,0.05601737089112775, ,0.027720087202905093, ,0.000836624285922603, ,0.2146301920404476,-0.2167462208479851,0.10597559637000001,1.6997466818855542,0.5403973565723169,-1.323686668778965, ,0.1422742752001061,0.09423728059431061,0.05363236202020203,-0.020557443981241118,0.1229808604668822,-0.0968342381155705, ,1.429792881011963
0.015857925703138792,0.021701981183861064,-0.09454398754230274, ,0.016960465571745704,0.02118351099573112,-0.0956229462503887, ,0.0016274389056433912, ,0.023979640218450272,0.002414057492721524,-0.050567727089218514,0.004823003218639315,-0.027303342715763693,-0.0037023255793596564, ,0.05601737089112775, ,0.027720087202905093, ,0.0008495884600163864, ,0.2146301920404476,-0.2167462208479851,0.10597559637000001,1.6997466818855542,0.5403973565723169,-1.323686668778965, ,0.1422742752001061,0.09423728059431061,0.05363236202020203,-0.020557443981241118,0.1229808604668822,-0.0968342381155705, ,1.4351210594177246
0.01610538360037973,0.021723579560332672,-0.0950444743797348, ,0.017082055293852226,0.021188226305362372,-0.09586377893458994, ,0.0013826607168948247, ,0.02385103172702184,0.0015379303447135054,-0.04642866053307653,0.00308570061876222,-0.03265232556755907,-0.006309730465051376, ,0.05221932078344423, ,0.0327945143771011, ,0.0008581863996434579, ,0.21614384768379558,-0.21578087923870704,0.10650837156000001,1.6997466818855542,0.5417637215699714,-1.3246374903356481, ,0.14850851574095583,0.09321899956627777,0.04946835875776398,-0.016508839263006777,0.12298149589737237,-0.09305179608294462, ,1.4404020309448242
0.01610538360037973,0.021723579560332672,-0.0950444743797348, ,0.017203011143598984,0.02119254071015314,-0.09610234140179913, ,0.0016142710802107502, ,0.02385103172702184,0.0015379303447135054,-0.04642866053307653,0.00308570061876222,-0.03265232556755907,-0.006309730465051376, ,0.05221932078344423, ,0.0327945143771011, ,0.0008701877437794467, ,0.21614384768379558,-0.21578087923870704,0.10650837156000001,1.6997466818855542,0.5417637215699714,-1.3246374903356481, ,0.14850851574095583,0.09321899956627777,0.04946835875776398,-0.016508839263006777,0.12298149589737237,-0.09305179608294462, ,1.4458229541778564
0.016334001476477806,0.021729457383998816,-0.0954637545202497, ,0.017323334496554366,0.021196460060901923,-0.09633864605193869, ,0.0014241843852757844, ,0.023398465365431848,-0.0002824483727605091,-0.04046883831379398,0.0007128045420038084,-0.03774868725698736,-0.022388016190357907, ,0.0467471371637728, ,0.03775397908133611, ,0.000878843941302827, ,0.21761116692989824,-0.2148618740266743,0.10695559161000001,1.69953699194207,0.5428568135680949,-1.3254471548250788, ,0.15556875665323078,0.09823699954293041,0.043284813913043486,-0.0011203480522287517,0.12158429853504768,-0.09243305726064338, ,1.451158046722412
0.016334001476477806,0.021729457383998816,-0.0954637545202497, ,0.01744302674437276,0.02119999018365337,-0.09657270524807234, ,0.0016553079102721256, ,0.023398465365431848,-0.0002824483727605091,-0.04046883831379398,0.0007128045420038084,-0.03774868725698736,-0.022388016190357907, ,0.0467471371637728, ,0.03775397908133611, ,0.0008907895408254315, ,0.21761116692989824,-0.2148618740266743,0.10695559161000001,1.69953699194207,0.5428568135680949,-1.3254471548250788, ,0.15556875665323078,0.09823699954293041,0.043284813913043486,-0.0011203480522287517,0.12158429853504768,-0.09243305726064338, ,1.456516981124878
0.01663180933927186,0.021707385581199723,-0.0959613627498232, ,0.017562089294719304,0.02120313687973641,-0.09680453131645544, ,0.0013530043533527194, ,0.023535564327808896,-0.002488273721050931,-0.038771759482887476,-0.0432335058856791,-0.06506717655107157,0.007230642833700398, ,0.04542426254479183, ,0.07812032949674529, ,0.0008977927955606934, ,0.2196190774771966,-0.2135026730408108,0.10748577422000001,1.6989079221116163,0.5443598150655148,-1.326427715545318, ,0.15763611554563253,0.11364903180655184,0.041159719689922485,-0.03306776364765003,0.10251843839936771,-0.07063628778939032, ,1.4617938995361328
0.01663180933927186,0.021707385581199723,-0.0959613627498232, ,0.017680523571186886,0.021205905925800173,-0.09703413654658802, ,0.0015818113048103994, ,0.023535564327808896,-0.002488273721050931,-0.038771759482887476,-0.0432335058856791,-0.06506717655107157,0.007230642833700398, ,0.04542426254479183, ,0.07812032949674529, ,0.0009080020270420323, ,0.2196190774771966,-0.2135026730408108,0.10748577422000001,1.6989079221116163,0.5443598150655148,-1.326427715545318, ,0.15763611554563253,0.11364903180655184,0.041159719689922485,-0.03306776364765003,0.10251843839936771,-0.07063628778939032, ,1.4670689105987549
0.016873091977582307,0.021687479929004248,-0.09636931817103883, ,0.017798331013222493,0.021208303073852523,-0.09726153319126435, ,0.0013717599549124841, ,0.023795971697227566,-0.0016498840194756129,-0.04112520875164739,-0.014049008280283173,-0.02871337946940314,0.036362076872108, ,0.047542120074304126, ,0.03196427940880912, ,0.000914821996569539, ,0.2212176831821611,-0.2123674313082998,0.10792003137000002,1.6986982321681319,0.5455895435634037,-1.3272671191983045, ,0.1571141416530973,0.10857773633692308,0.043881023471074386,-0.06220482376602433,0.1456706095785524,-0.0993923734363126, ,1.4723498821258545
0.016873091977582307,0.021687479929004248,-0.09636931817103883, ,0.01791551307604353,0.021210334051295993,-0.0974867334666265, ,0.0016009143880746238, ,0.023795971697227566,-0.0016498840194756129,-0.04112520875164739,-0.014049008280283173,-0.02871337946940314,0.036362076872108, ,0.047542120074304126, ,0.03196427940880912, ,0.0009247653645623663, ,0.2212176831821611,-0.2123674313082998,0.10792003137000002,1.6986982321681319,0.5455895435634037,-1.3272671191983045, ,0.1571141416530973,0.10857773633692308,0.043881023471074386,-0.06220482376602433,0.1456706095785524,-0.0993923734363126, ,1.4776380062103271
0.0171055011732269,0.021675067529947405,-0.09677144514372683, ,0.018032071230562954,0.021212004560965805,-0.09770974955221326, ,0.0013976317638701745, ,0.024670095463948685,-0.0017080740795624935,-0.042154095287671355,0.00354076406495521,-0.01370595329378076,0.01574717056640665, ,0.0488722710418054, ,0.014151221130255924, ,0.0009315205988381921, ,0.22274678429125752,-0.21131713963740525,0.10835039965000001,1.6986982321681319,0.5470925450608235,-1.3284110373988245, ,0.16333380646896864,0.11177496061068408,0.04512411195467422,-0.04297757091554408,0.16327815901174098,-0.11555209732571967, ,1.4831068515777588
0.0171055011732269,0.021675067529947405,-0.09677144514372683, ,0.018148006963308077,0.021213320281166653,-0.09793059359101337, ,0.0016259317227227494, ,0.024670095463948685,-0.0017080740795624935,-0.042154095287671355,0.00354076406495521,-0.01370595329378076,0.01574717056640665, ,0.0488722710418054, ,0.014151221130255924, ,0.0009413010372027634, ,0.22274678429125752,-0.21131713963740525,0.10835039965000001,1.6986982321681319,0.5470925450608235,-1.3284110373988245, ,0.16333380646896864,0.11177496061068408,0.04512411195467422,-0.04297757091554408,0.16327815901174098,-0.11555209732571967, ,1.4885280132293701
0.0171055011732269,0.021675067529947405,-0.09677144514372683, ,0.0182633217763418,0.021214286865709735,-0.09814927768951616, ,0.0018577647573815555, ,0.024670095463948685,-0.0017080740795624935,-0.042154095287671355,0.00354076406495521,-0.01370595329378076,0.01574717056640665, ,0.0488722710418054, ,0.014151221130255924, ,0.0009540296999830245, ,0.22274678429125752,-0.21131713963740525,0.10835039965000001,1.6986982321681319,0.5470925450608235,-1.3284110373988245, ,0.16333380646896864,0.11177496061068408,0.04512411195467422,-0.04297757091554408,0.16327815901174098,-0.11555209732571967, ,1.4938640594482422
0.017331957647649183,0.021659988823242212,-0.09715587735614085, ,0.01837801718718473,0.02121490994395007,-0.09836581391776258, ,0.001660205484930791, ,0.025378615728153295,-0.0018717634088195275,-0.043097741982969014,-0.04541812882417032,-0.06700533563906184,0.007716058153389583, ,0.05004990508049376, ,0.08094672780992654, ,0.0009637033408727198, ,0.2242218262702344,-0.2102900161651334,0.10876132358000001,1.6986982321681319,0.5483222735587124,-1.3292504410518111, ,0.16221699411704404,0.11460983280008549,0.04590435596541788,-0.03346213001357093,0.105191462702458,-0.06926352144304186, ,1.4992480278015137
0.017500447539709644,0.021648191872134348,-0.09743962317070981, ,0.01849209472873657,0.021215195120824044,-0.09858021430939626, ,0.0015721954330808658, ,0.02550492644934358,-0.0021658455420310754,-0.042548677629756004,-0.07065891752563597,-0.09028895738567112,0.00522180417061995, ,0.0496546284664306, ,0.11465007194891597, ,0.0009719262069836406, ,0.2252875634068774,-0.2095331883434594,0.10906335915000001,1.6986982321681319,0.5488688195577742,-1.329451076446175, ,0.161664295670308,0.11572797751033022,0.04525230545454546,-0.028913911352706666,0.07967571879352182,-0.0447418572896045, ,1.5050339698791504
0.017867227270494595,0.021612005910591738,-0.09800987523488232, ,0.018605555949195073,0.021215147976885926,-0.09879249086171593, ,0.0011467836224419185, ,0.02483940468167881,-0.0027434773294422255,-0.038186056840226336,-0.08153948086972236,-0.09734481881704586,0.0031309288098732143, ,0.045636582144178664, ,0.12698275275407236, ,0.000974257639189751, ,0.22767388786501278,-0.2078959689741238,0.10967261545000001,1.6986982321681319,0.5498252750561323,-1.3299042868114879, ,0.16221699411704404,0.11125081073677699,0.040843106461538464,-0.022063523940132376,0.07149732734561894,-0.027673950317536944, ,1.5105669498443604
0.017867227270494595,0.021612005910591738,-0.09800987523488232, ,0.01871840241197925,0.021214774068345436,-0.09900265553572538, ,0.0013667132046328693, ,0.02483940468167881,-0.0027434773294422255,-0.038186056840226336,-0.08153948086972236,-0.09734481881704586,0.0031309288098732143, ,0.045636582144178664, ,0.12698275275407236, ,0.0009794215282087394, ,0.22767388786501278,-0.2078959689741238,0.10967261545000001,1.6986982321681319,0.5498252750561323,-1.3299042868114879, ,0.16221699411704404,0.11125081073677699,0.040843106461538464,-0.022063523940132376,0.07149732734561894,-0.027673950317536944, ,1.515777826309204
0.01810544674082227,0.02158531154605211,-0.09839624575262575, ,0.018830635695649543,0.021214078927104876,-0.09921072025618499, ,0.0011519901885528258, ,0.023795840921313968,-0.002201963695356551,-0.040374166325375986,0.039014500072245,0.019808748070771036,-0.021807358695926125, ,0.04691656419365418, ,0.04375397623356273, ,0.0009816626796417796, ,0.22924160263848034,-0.2067916181731097,0.11008742825000001,1.698278852281163,0.5513282765535522,-1.3309665262718675, ,0.15405347655595905,0.11073155374383986,0.0434027561852861,-0.009711597662445663,0.18092498131932094,-0.14293378050816624, ,1.5209710597991943
0.01810544674082227,0.02158531154605211,-0.09839624575262575, ,0.01894225739383061,0.02121306806079664,-0.09941669691166277, ,0.0013711811876201462, ,0.023795840921313968,-0.002201963695356551,-0.040374166325375986,0.039014500072245,0.019808748070771036,-0.021807358695926125, ,0.04691656419365418, ,0.04375397623356273, ,0.0009866565066671432, ,0.22924160263848034,-0.2067916181731097,0.11008742825000001,1.698278852281163,0.5513282765535522,-1.3309665262718675, ,0.15405347655595905,0.11073155374383986,0.0434027561852861,-0.009711597662445663,0.18092498131932094,-0.14293378050816624, ,1.5261850357055664
0.01810544674082227,0.02158531154605211,-0.09839624575262575, ,0.0190532691151279,0.021211746952819605,-0.09962059735458648, ,0.0015927820327261161, ,0.023795840921313968,-0.002201963695356551,-0.040374166325375986,0.039014500072245,0.019808748070771036,-0.021807358695926125, ,0.04691656419365418, ,0.04375397623356273, ,0.0009943289816805479, ,0.22924160263848034,-0.2067916181731097,0.11008742825000001,1.698278852281163,0.5513282765535522,-1.3309665262718675, ,0.15405347655595905,0.11073155374383986,0.0434027561852861,-0.009711597662445663,0.18092498131932094,-0.14293378050816624, ,1.5314619541168213
0.01810544674082227,0.02158531154605211,-0.09839624575262575, ,0.019163672483054277,0.021210121062377157,-0.09982243340129301, ,0.001815109040739371, ,0.023795840921313968,-0.002201963695356551,-0.040374166325375986,0.039014500072245,0.019808748070771036,-0.021807358695926125, ,0.04691656419365418, ,0.04375397623356273, ,0.001004588732418783, ,0.22924160263848034,-0.2067916181731097,0.11008742825000001,1.698278852281163,0.5513282765535522,-1.3309665262718675, ,0.15405347655595905,0.11073155374383986,0.0434027561852861,-0.009711597662445663,0.18092498131932094,-0.14293378050816624, ,1.537065029144287
0.01838050701333124,0.021563146931517948,-0.09886478819804072, ,0.0192734691359468,0.02120819582451387,-0.10002221683208125, ,0.0015043313078196693, ,0.024457587832603184,-0.0013273429335239838,-0.04203506464285736,0.030101534089066247,0.010108374358838188,0.051318628196666216, ,0.048650612548886495, ,0.03175138341863856, ,0.0010107583938434854, ,0.23101010846667777,-0.20557914911185646,0.11059168506000001,1.6974400925072246,0.5533778240500338,-1.332556116087173, ,0.15608049598432694,0.10160272115467964,0.045381229401709404,-0.08227123338792215,0.1881248718023077,-0.14087868948389948, ,1.5431230068206787
0.01861604310721215,0.02155543007545575,-0.09926881742682964, ,0.019382660726889142,0.02120597665015289,-0.10021995939126199, ,0.0012706263446660303, ,0.023870436731240473,-0.0007902486551393632,-0.04159336041330296,-0.06633726903467867,-0.08047063254062424,0.03583478303637581, ,0.04796279676111498, ,0.1042882135171612, ,0.0010139275151949797, ,0.23246970497990618,-0.2046215302354526,0.11102723850000001,1.6974400925072246,0.5547441890476882,-1.3333435801635751, ,0.14121568684296246,0.09489694155847078,0.044493886927374306,-0.0550383327653049,0.07398646821792249,-0.034694084010036964, ,1.5513219833374023
0.018901510722538154,0.02154287224256224,-0.09977016898306677, ,0.01949124892363451,0.021203468926133406,-0.10041567278720959, ,0.0009379024033438118, ,0.023865863271966593,-0.0014661810431553849,-0.04203897702110016,-0.14765511418015342,-0.13250121988401772,-0.008813122056001158, ,0.04836325780536398, ,0.19838970415705842, ,0.0010130115499919537, ,0.23409147888349333,-0.20343995210569626,0.11156001369000001,1.6972304025637401,0.5550174620472191,-1.3330763435301247, ,0.1327229951866724,0.10314884952007694,0.044493886927374306,0.0014742159428711688,0.0,0.05043621182823597, ,1.5566020011901855
0.018901510722538154,0.02154287224256224,-0.09977016898306677, ,0.01959923540852194,0.02120067801524715,-0.10060936869241267, ,0.0011437538104002924, ,0.023865863271966593,-0.0014661810431553849,-0.04203897702110016,-0.14765511418015342,-0.13250121988401772,-0.008813122056001158, ,0.04836325780536398, ,0.19838970415705842, ,0.0010145680054730053, ,0.23409147888349333,-0.20343995210569626,0.11156001369000001,1.6972304025637401,0.5550174620472191,-1.3330763435301247, ,0.1327229951866724,0.10314884952007694,0.044493886927374306,0.0014742159428711688,0.0,0.05043621182823597, ,1.5619289875030518
0.0191432198606682,0.021529796048418693,-0.10019962088593524, ,0.019706621878403274,0.02119760925627647,-0.1008010587435257, ,0.0008885366593476532, ,0.018562102355452994,-0.0015562789117165795,-0.03177205400315911,0.0526068757078553,0.045320627438693195,-0.020376738069947806, ,0.03682983930843341, ,0.06943637567539708, ,0.0010130852837538834, ,0.23542751167073417,-0.2024437195649213,0.11199686342000001,1.6974400925072246,0.5562471905451081,-1.3339974259232519, ,0.11672440536097266,0.08223305161045995,0.03462785113043479,-0.003665747906545932,0.1676848536966935,-0.1282522875375667, ,1.5671370029449463
0.0191432198606682,0.021529796048418693,-0.10019962088593524, ,0.0198134100445587,0.021194267964030875,-0.10099075454141952, ,0.001089782748457718, ,0.018562102355452994,-0.0015562789117165795,-0.03177205400315911,0.0526068757078553,0.045320627438693195,-0.020376738069947806, ,0.03682983930843341, ,0.06943637567539708, ,0.0010139771147388119, ,0.23542751167073417,-0.2024437195649213,0.11199686342000001,1.6974400925072246,0.5562471905451081,-1.3339974259232519, ,0.11672440536097266,0.08223305161045995,0.03462785113043479,-0.003665747906545932,0.1676848536966935,-0.1282522875375667, ,1.5723559856414795
0.019308227492694327,0.021506907476193,-0.10047593560601949, ,0.01991960163262065,0.02119065942938455,-0.10117846765123259, ,0.0009835356834564343, ,0.01796254878194415,-0.002759409873043312,-0.02907774247807963,0.05914907148151679,0.059129434798831614,-0.022481379694524482, ,0.03428968663042415, ,0.08363541073731252, ,0.001013627213229819, ,0.23658592160186787,-0.20158649621588237,0.11231963963000001,1.6972304025637401,0.5580234650420588,-1.3352825011910243, ,0.1178843994515165,0.08860592115636862,0.031542201029702975,-0.003682237706893236,0.18270933307708834,-0.13998092414083463, ,1.5776169300079346
0.019501662964182223,0.02148232478742072,-0.10078724487816161, ,0.020025198382494207,0.021186788919313543,-0.1013642096024221, ,0.0008332581092350335, ,0.018361794489556157,-0.0016302201540640468,-0.029831570030609388,-0.020386849673075438,-0.000616449767232656,-0.0033906739202554923, ,0.03506758738662476, ,0.020395588357113387, ,0.0010115775643207874, ,0.23782155886174378,-0.20069838193534656,0.11265667503000001,1.6970207126202554,0.5595264665394786,-1.3362630619112632, ,0.11433366452827805,0.07842722442848825,0.03230996251521299,-0.005918421318915928,0.11812453977158995,-0.05107814751427544, ,1.5854549407958984
0.019501662964182223,0.02148232478742072,-0.10078724487816161, ,0.020130202048278624,0.021182661676932925,-0.10154799188881491, ,0.0010313076040842036, ,0.018361794489556157,-0.0016302201540640468,-0.029831570030609388,-0.020386849673075438,-0.000616449767232656,-0.0033906739202554923, ,0.03506758738662476, ,0.020395588357113387, ,0.0010117992501608257, ,0.23782155886174378,-0.20069838193534656,0.11265667503000001,1.6970207126202554,0.5595264665394786,-1.3362630619112632, ,0.11433366452827805,0.07842722442848825,0.03230996251521299,-0.005918421318915928,0.11812453977158995,-0.05107814751427544, ,1.59073805809021
0.019680602883877636,0.02146718266626757,-0.10107199774722209, ,0.020234614398185736,0.021178282921534057,-0.10172982596865865, ,0.0009072650050627072, ,0.017553765322767034,-0.0013130455819807792,-0.0274493739394705,-0.05031061798861324,-0.05011686789408458,0.0215912205328243, ,0.032608693555185864, ,0.07101297871874773, ,0.0010106377585486245, ,0.23893363239563212,-0.19997244504516945,0.11296519205000001,1.6966013327332867,0.5604829220378368,-1.3366345935364352, ,0.10771503014582383,0.06871610540077536,0.02971793194029851,-0.031360070860825186,0.06561490359832345,-0.019887841295218138, ,1.5960209369659424
0.019680602883877636,0.02146718266626757,-0.10107199774722209, ,0.020338437214464076,0.021173657848621734,-0.1019097232646722, ,0.001104846988346885, ,0.017553765322767034,-0.0013130455819807792,-0.0274493739394705,-0.05031061798861324,-0.05011686789408458,0.0215912205328243, ,0.032608693555185864, ,0.07101297871874773, ,0.0010116730248101438, ,0.23893363239563212,-0.19997244504516945,0.11296519205000001,1.6966013327332867,0.5604829220378368,-1.3366345935364352, ,0.10771503014582383,0.06871610540077536,0.02971793194029851,-0.031360070860825186,0.06561490359832345,-0.019887841295218138, ,1.6013548374176025
0.01986030318483433,0.021456672031011086,-0.1013681745567044, ,0.020441672293317507,0.021168791629951552,-0.10208769516409773, ,0.0009688008412859625, ,0.01751064432649648,-0.0007804714129160102,-0.031541300449651685,-0.0323241603224231,-0.016025750196252457,0.020312673181125222, ,0.03608442093772103, ,0.036078314711370914, ,0.0010112070228153157, ,0.24000709226514932,-0.19925423088786656,0.11328537568000001,1.6966013327332867,0.5613027410364293,-1.3369763859980517, ,0.09916085847280122,0.07113713760005305,0.03389108834042554,-0.031360070860825186,0.09182182622012658,-0.039347483323175045, ,1.6066579818725586
0.01986030318483433,0.021456672031011086,-0.1013681745567044, ,0.020544321444828574,0.021163689413567048,-0.10226375301875043, ,0.0011643799104290023, ,0.01751064432649648,-0.0007804714129160102,-0.031541300449651685,-0.0323241603224231,-0.016025750196252457,0.020312673181125222, ,0.03608442093772103, ,0.036078314711370914, ,0.001012854043112237, ,0.24000709226514932,-0.19925423088786656,0.11328537568000001,1.6966013327332867,0.5613027410364293,-1.3369763859980517, ,0.09916085847280122,0.07113713760005305,0.03389108834042554,-0.031360070860825186,0.09182182622012658,-0.039347483323175045, ,1.6119120121002197
0.02000861303681827,0.021453823793056104,-0.10165190216719865, ,0.020646386492875302,0.021158356323836704,-0.10243790814507062, ,0.001054448388432702, ,0.01726582800552189,-5.3416090827572925e-05,-0.0341497391830188,0.017439271736488276,0.031071080358413567,0.010233655300327335, ,0.03826638676780488, ,0.03562995633667262, ,0.0010132965361475611, ,0.2408179792169429,-0.19864413499080283,0.11359000383000001,1.6966013327332867,0.5622591965347875,-1.337674632583786, ,0.09331066033281296,0.06926784055362831,0.03670233069124424,-0.026802179737936943,0.1332260177738055,-0.08569331362251961, ,1.6172058582305908
0.02000861303681827,0.021453823793056104,-0.10165190216719865, ,0.020747869275057312,0.021152797461491683,-0.1026101718241738, ,0.0012471557134334714, ,0.01726582800552189,-5.3416090827572925e-05,-0.0341497391830188,0.017439271736488276,0.031071080358413567,0.010233655300327335, ,0.03826638676780488, ,0.03562995633667262, ,0.0010157582116979392, ,0.2408179792169429,-0.19864413499080283,0.11359000383000001,1.6966013327332867,0.5622591965347875,-1.337674632583786, ,0.09331066033281296,0.06926784055362831,0.03670233069124424,-0.026802179737936943,0.1332260177738055,-0.08569331362251961, ,1.622525930404663
0.02019333727170985,0.02146462464638964,-0.10202728781974368, ,0.02084877164261094,0.021147017903662486,-0.10278055530190255, ,0.0010477977654405558, ,0.017647634648892255,0.001592037885986963,-0.03657628103837729,0.029161916129249378,0.028738783996916793,0.006067071817665255, ,0.04064231696064532, ,0.04094227148896134, ,0.0010160919570494247, ,0.24178332082622095,-0.19797997996361952,0.11399444631000001,1.6966013327332867,0.5636255615324419,-1.338625454140469, ,0.09003504891695518,0.05832633162782469,0.03942775128712872,-0.021584891585212443,0.1263734913046476,-0.08613435525793331, ,1.6279098987579346
0.02019333727170985,0.02146462464638964,-0.10202728781974368, ,0.020949095460336572,0.021141022703916695,-0.10294906978887622, ,0.001235139933556704, ,0.017647634648892255,0.001592037885986963,-0.03657628103837729,0.029161916129249378,0.028738783996916793,0.006067071817665255, ,0.04064231696064532, ,0.04094227148896134, ,0.0010183501836113554, ,0.24178332082622095,-0.19797997996361952,0.11399444631000001,1.6966013327332867,0.5636255615324419,-1.338625454140469, ,0.09003504891695518,0.05832633162782469,0.03942775128712872,-0.021584891585212443,0.1263734913046476,-0.08613435525793331, ,1.6332318782806396
0.020346523972899763,0.021478866102601246,-0.10234661716481698, ,0.021048842606512876,0.021134816892295655,-0.1031157264605432, ,0.0010968821408905254, ,0.017843889756513777,0.0017578502479177343,-0.03692467145031334,0.011771086827166044,0.007282223353746445,-0.009901399958705034, ,0.0410478477005836, ,0.013839097554764144, ,0.001019151530114204, ,0.24254787138076916,-0.19747800232679494,0.11433796316000001,1.696391642789802,0.5645820170307999,-1.3394053794663439, ,0.08835841858330612,0.05772320046135693,0.03972272199501248,-0.003748000912388104,0.0989859598595512,-0.06487078637134588, ,1.6385419368743896
0.020346523972899763,0.021478866102601246,-0.10234661716481698, ,0.02114801497282316,0.021128405475352205,-0.10328053645723095, ,0.0012796154574531418, ,0.017843889756513777,0.0017578502479177343,-0.03692467145031334,0.011771086827166044,0.007282223353746445,-0.009901399958705034, ,0.0410478477005836, ,0.013839097554764144, ,0.0010217824788752035, ,0.24254787138076916,-0.19747800232679494,0.11433796316000001,1.696391642789802,0.5645820170307999,-1.3394053794663439, ,0.08835841858330612,0.05772320046135693,0.03972272199501248,-0.003748000912388104,0.0989859598595512,-0.06487078637134588, ,1.6438488960266113
0.020569728830004744,0.021492187419576425,-0.1027847837899297, ,0.021246614464272607,0.02112179343618767,-0.10344351088419754, ,0.001014537948788191, ,0.016487023330740248,0.000403869101447615,-0.029859133511065096,-0.03947126599005547,-0.058152402682277955,0.006261963075165232, ,0.03411089126057963, ,0.07028270798536569, ,0.0010217100335743335, ,0.24367539038040595,-0.19675206543661783,0.11480851643000001,1.6957625729593484,0.5654018360293926,-1.339992208148382, ,0.08650587197672815,0.05523686935883049,0.03211453935483872,-0.01892683328535395,0.032914197970917124,-0.017116556847413693, ,1.6491448879241943
0.020569728830004744,0.021492187419576425,-0.1027847837899297, ,0.021344642999110455,0.021114985734488948,-0.10360466081168213, ,0.00118952570863822, ,0.016487023330740248,0.000403869101447615,-0.029859133511065096,-0.03947126599005547,-0.058152402682277955,0.006261963075165232, ,0.03411089126057963, ,0.07028270798536569, ,0.0010233715749115996, ,0.24367539038040595,-0.19675206543661783,0.11480851643000001,1.6957625729593484,0.5654018360293926,-1.339992208148382, ,0.08650587197672815,0.05523686935883049,0.03211453935483872,-0.01892683328535395,0.032914197970917124,-0.017116556847413693, ,1.654486894607544
0.0207400708361159,0.021493843371671522,-0.10309287161319856, ,0.02144210250875258,0.02110798730656619,-0.10376399727495586, ,0.0010450564703559278, ,0.016403733812958107,7.553138609867795e-05,-0.030184065875895512,0.016517565034135373,0.006360576081748377,0.034644190564928366, ,0.03435354451577116, ,0.017699204165098466, ,0.0010235841719257596, ,0.2446021183253129,-0.19615741500530254,0.11514166296000002,1.695552883015864,0.5662216550279852,-1.3406607155705605, ,0.0902062182114741,0.057513297914224715,0.03270803186858317,-0.053948596934461954,0.10990025456752676,-0.08150914126671417, ,1.6598379611968994
0.0207400708361159,0.021493843371671522,-0.10309287161319856, ,0.02153899493769814,0.02110080306538945,-0.10392153127437324, ,0.0012163211896984401, ,0.016403733812958107,7.553138609867795e-05,-0.030184065875895512,0.016517565034135373,0.006360576081748377,0.034644190564928366, ,0.03435354451577116, ,0.017699204165098466, ,0.0010254554051080187, ,0.2446021183253129,-0.19615741500530254,0.11514166296000002,1.695552883015864,0.5662216550279852,-1.3406607155705605, ,0.0902062182114741,0.057513297914224715,0.03270803186858317,-0.053948596934461954,0.10990025456752676,-0.08150914126671417, ,1.6651849746704102
0.020945453144518775,0.02149786831071684,-0.10347769152948186, ,0.021635322243454262,0.021093437900626393,-0.10407727377542299, ,0.000999490970404335, ,0.015322331755732641,0.0001336773512567459,-0.027781735315692887,0.061600278678747955,0.05138603261085756,-0.040558837488038416, ,0.031727220761015126, ,0.0802190883195976, ,0.0010252057470820216, ,0.2457373600578239,-0.19543147811512543,0.11556036463000001,1.6953431930723792,0.567997929524936,-1.3420274695784735, ,0.08658480069203538,0.055625405368388496,0.030340593371428574,0.02317021417298313,0.13693463981956708,-0.10580089537684315, ,1.6704728603363037
0.020945453144518775,0.02149786831071684,-0.10347769152948186, ,0.021731086396455927,0.021085896678679248,-0.10423123570877799, ,0.00116394547222116, ,0.015322331755732641,0.0001336773512567459,-0.027781735315692887,0.061600278678747955,0.05138603261085756,-0.040558837488038416, ,0.031727220761015126, ,0.0802190883195976, ,0.0010265270777976327, ,0.2457373600578239,-0.19543147811512543,0.11556036463000001,1.6953431930723792,0.567997929524936,-1.3420274695784735, ,0.08658480069203538,0.055625405368388496,0.030340593371428574,0.02317021417298313,0.13693463981956708,-0.10580089537684315, ,1.6757988929748535
0.02110376541495926,0.021500135377479964,-0.10376493766714079, ,0.021826289379985202,0.021078184242722214,-0.10438342797034797, ,0.001040487335493071, ,0.01467984149654369,0.00018295977035622077,-0.026304580955968236,0.023891937592773662,0.004282847454233343,-0.008358368159958999, ,0.030124113263468883, ,0.024272512652154105, ,0.0010266587783419293, ,0.2466254743383597,-0.19486771861530705,0.11587406681000001,1.695552883015864,0.5693642945225903,-1.3430599698752972, ,0.08028506054016141,0.050210021988608876,0.02859750721723519,-0.008863186132336118,0.0885212518184599,-0.0721831452586028, ,1.6810710430145264
0.02110376541495926,0.021500135377479964,-0.10376493766714079, ,0.021920933190093993,0.021070305412738494,-0.10453386142132867, ,0.0012015659412045138, ,0.01467984149654369,0.00018295977035622077,-0.026304580955968236,0.023891937592773662,0.004282847454233343,-0.008358368159958999, ,0.030124113263468883, ,0.024272512652154105, ,0.0010282934247238225, ,0.2466254743383597,-0.19486771861530705,0.11587406681000001,1.695552883015864,0.5693642945225903,-1.3430599698752972, ,0.08028506054016141,0.050210021988608876,0.02859750721723519,-0.008863186132336118,0.0885212518184599,-0.0721831452586028, ,1.6864309310913086
0.0212463368208551,0.021502634365631847,-0.10401524985357447, ,0.022015019835522565,0.021062264985557695,-0.10468254688825379, ,0.0011090915653979955, ,0.016606077842669396,-0.0002038177387280306,-0.02789817802738384,-0.052161695109853065,-0.07435975222278156,-0.004045607239025678, ,0.03246708641432148, ,0.09083060215400154, ,0.001029041555655991, ,0.2473823021600337,-0.19439663190997936,0.11614499142000001,1.695552883015864,0.5697742040218867,-1.3431491873659647, ,0.08860592115636862,0.05641910913107657,0.030111174896030254,-0.0077671025859584715,0.01616970250845806,-0.0034025167970414176, ,1.692209005355835
0.0212463368208551,0.021502634365631847,-0.10401524985357447, ,0.022108551337624197,0.021054067734893083,-0.10482949516304572, ,0.001267920076004651, ,0.016606077842669396,-0.0002038177387280306,-0.02789817802738384,-0.052161695109853065,-0.07435975222278156,-0.004045607239025678, ,0.03246708641432148, ,0.09083060215400154, ,0.0010312331017142354, ,0.2473823021600337,-0.19439663190997936,0.11614499142000001,1.695552883015864,0.5697742040218867,-1.3431491873659647, ,0.08860592115636862,0.05641910913107657,0.030111174896030254,-0.0077671025859584715,0.01616970250845806,-0.0034025167970414176, ,1.6975429058074951
0.021418228875399698,0.02149768517767271,-0.1043149726277376, ,0.02220152973028281,0.02104571841137856,-0.10497471700306568, ,0.0011194180755517752, ,0.016049909061423166,-0.00016505261856355176,-0.028756103772004354,0.019905959500908347,0.010846208744528787,-0.016511035416318952, ,0.032932359881932716, ,0.022668652469040842, ,0.0010320347832945766, ,0.24830903010494065,-0.19377109054716718,0.11646906392000002,1.6953431930723792,0.5704573865207139,-1.3436245981443062, ,0.08698161462737927,0.05807646362207514,0.031232963764705888,0.0,0.10036793820247093,-0.07285725309343902, ,1.7029290199279785
0.021418228875399698,0.02149768517767271,-0.1043149726277376, ,0.022293957059833995,0.021037221742606232,-0.1051182231311659, ,0.0012744166505910114, ,0.016049909061423166,-0.00016505261856355176,-0.028756103772004354,0.019905959500908347,0.010846208744528787,-0.016511035416318952, ,0.032932359881932716, ,0.022668652469040842, ,0.0010342184037206708, ,0.24830903010494065,-0.19377109054716718,0.11646906392000002,1.6953431930723792,0.5704573865207139,-1.3436245981443062, ,0.08698161462737927,0.05807646362207514,0.031232963764705888,0.0,0.10036793820247093,-0.07285725309343902, ,1.7082810401916504
0.021607661480400962,0.02149043169355646,-0.1046438988828676, ,0.022385835384986917,0.021028582433163356,-0.10526002423573919, ,0.001094746461768818, ,0.016204494005157142,-0.0007363799237130573,-0.026397672454866475,0.03398657553295865,0.020047244536800755,0.015518199030401468, ,0.030983301831625978, ,0.039458414967434755, ,0.0010347588328103862, ,0.24938248997445786,-0.1930837673213612,0.11682813625,1.6947141232419258,0.5719603880181336,-1.3448501950849667, ,0.09518248902554742,0.05744366922425592,0.029014228633879785,-0.03549572095545488,0.12513176866219347,-0.09437064104475941, ,1.7135848999023438
0.021607661480400962,0.02149043169355646,-0.1046438988828676, ,0.02247716677674451,0.02101980516466986,-0.10540013097077128, ,0.0012447553015900302, ,0.016204494005157142,-0.0007363799237130573,-0.026397672454866475,0.03398657553295865,0.020047244536800755,0.015518199030401468, ,0.030983301831625978, ,0.039458414967434755, ,0.0010366172086402946, ,0.24938248997445786,-0.1930837673213612,0.11682813625,1.6947141232419258,0.5719603880181336,-1.3448501950849667, ,0.09518248902554742,0.05744366922425592,0.029014228633879785,-0.03549572095545488,0.12513176866219347,-0.09437064104475941, ,1.7189679145812988
0.021781276141891855,0.021483458846394413,-0.10492928141949312, ,0.022567953318324546,0.021010894595815236,-0.10553855395588993, ,0.001101540273640947, ,0.017649356380127258,-0.0008121669150139082,-0.02997712847339806,0.02544946480520528,0.018600239828221975,0.03172918698760901, ,0.03479637376568419, ,0.031521738102891925, ,0.0010371867092104758, ,0.2503941679809813,-0.19246594869142322,0.11714183843,1.6945044332984414,0.5733267530157882,-1.3457193379015093, ,0.09999677719543813,0.06373199567392263,0.03277533234567902,-0.053320643302526734,0.1320320826401987,-0.09590952798590044, ,1.724735975265503
0.021781276141891855,0.021483458846394413,-0.10492928141949312, ,0.02265819710508074,0.021001855362396023,-0.10567530377641768, ,0.0012479910450443083, ,0.017649356380127258,-0.0008121669150139082,-0.02997712847339806,0.02544946480520528,0.018600239828221975,0.03172918698760901, ,0.03479637376568419, ,0.031521738102891925, ,0.0010390197903916395, ,0.2503941679809813,-0.19246594869142322,0.11714183843,1.6945044332984414,0.5733267530157882,-1.3457193379015093, ,0.09999677719543813,0.06373199567392263,0.03277533234567902,-0.053320643302526734,0.1320320826401987,-0.09590952798590044, ,1.730069875717163
0.021916226710216022,0.021479833550780453,-0.10516177202138059, ,0.02274790024442267,0.02099269207735302,-0.10581039098342075, ,0.0011617634184940076, ,0.01768290719971472,-0.0005039410670540241,-0.030602826835035467,0.015543894595971294,0.01027405873579593,0.021697576919259543, ,0.03534787368326352, ,0.0186317497986373, ,0.0010400779251166599, ,0.25114327306978107,-0.19197941652034708,0.11739591127000001,1.6945044332984414,0.5742832085141462,-1.3463359057471032, ,0.09733019647022642,0.06222750266129232,0.033393734842767295,-0.04069733636305716,0.11826979747710824,-0.0817149835402468, ,1.7354388236999512
0.021916226710216022,0.021479833550780453,-0.10516177202138059, ,0.022837064855737887,0.020983409330808382,-0.10594382609376204, ,0.0013061349350474633, ,0.01768290719971472,-0.0005039410670540241,-0.030602826835035467,0.015543894595971294,0.01027405873579593,0.021697576919259543, ,0.03534787368326352, ,0.0186317497986373, ,0.00104235191665453, ,0.25114327306978107,-0.19197941652034708,0.11739591127000001,1.6945044332984414,0.5742832085141462,-1.3463359057471032, ,0.09733019647022642,0.06222750266129232,0.033393734842767295,-0.04069733636305716,0.11826979747710824,-0.0817149835402468, ,1.7407019138336182
0.021916226710216022,0.021479833550780453,-0.10516177202138059, ,0.022925693070309502,0.020974011690103052,-0.10607561959015023, ,0.001452582343912284, ,0.01768290719971472,-0.0005039410670540241,-0.030602826835035467,0.015543894595971294,0.01027405873579593,0.021697576919259543, ,0.03534787368326352, ,0.0186317497986373, ,0.0010458284456990872, ,0.25114327306978107,-0.19197941652034708,0.11739591127000001,1.6945044332984414,0.5742832085141462,-1.3463359057471032, ,0.09733019647022642,0.06222750266129232,0.033393734842767295,-0.04069733636305716,0.11826979747710824,-0.0817149835402468, ,1.746121883392334
0.022113725611184586,0.02147350133062414,-0.10548279393808135, ,0.023013787031242055,0.020964503699833707,-0.10620578192119165, ,0.0012617055011959154, ,0.017548839642103485,-0.0008732306522258359,-0.027070124373225733,-0.0321347448044883,-0.02663058839948163,-0.010689345727879596, ,0.032272526057595174, ,0.04173506350707932, ,0.0010476425386024219, ,0.25224762387079513,-0.19130753876028955,0.11774720586000001,1.6942947433549567,0.5752396640125043,-1.3467074373722754, ,0.10031389171085707,0.06079240330459371,0.02971793194029851,0.00466389620453876,0.07467506979216647,-0.021386418908758656, ,1.751600980758667
0.022304240345046567,0.021454587922451474,-0.1057718517299967, ,0.023101348893377945,0.020954889881890326,-0.10633432350144072, ,0.0010961088738054151, ,0.016072939966554733,-0.0019546496455914385,-0.02438343849717539,-0.0401693715970629,-0.014232327686445086,0.00130329328571958, ,0.02926964515246159, ,0.04261606441851184, ,0.0010480464247291134, ,0.25334425193893506,-0.190566156404364,0.11806350062000001,1.6945044332984414,0.576059483011097,-1.3468858723536106, ,0.09331066033281296,0.06459968792271667,0.026681426331658296,-0.006535074668209552,0.08239611631844103,-0.019072317793446453, ,1.756922960281372
0.022304240345046567,0.021454587922451474,-0.1057718517299967, ,0.023188380823221142,0.020945174735493143,-0.10646125471145089, ,0.0012314555010359619, ,0.0172856382160799,-0.0025123239337674725,-0.023150775295116336,-0.002502147661368918,-0.002680533794537775,-0.011327473190424422, ,0.02900109406298927, ,0.0036659724835666064, ,0.0010495622022192526, ,0.25334425193893506,-0.190566156404364,0.11806350062000001,1.6945044332984414,0.576059483011097,-1.3468858723536106, ,0.09331066033281296,0.06459968792271667,0.026681426331658296,-0.006535074668209552,0.08239611631844103,-0.019072317793446453, ,1.7624878883361816
0.02247180303174918,0.02143105433079029,-0.10601462463123035, ,0.023274884998854554,0.02093536273723018,-0.10658658589782591, ,0.001103535451311644, ,0.0172856382160799,-0.0025123239337674725,-0.023150775295116336,-0.002502147661368918,-0.002680533794537775,-0.011327473190424422, ,0.02900109406298927, ,0.0036659724835666064, ,0.0010500046059003377, ,0.25438682087695536,-0.18988655591143225,0.11833312894000002,1.6942947433549567,0.5775624845085168,-1.34794811181399, ,0.10832984196172464,0.06802648140392172,0.0257747759223301,-0.0023233462150017274,0.10875487870628173,-0.05936526720641633, ,1.7678608894348145
0.02264274846955467,0.02140500508624176,-0.10624070129298128, ,0.02336086360986544,0.02092545834109409,-0.10671032737326987, ,0.0009829563015783035, ,0.017858459592548,-0.002593085620155701,-0.022548812133217907,-0.04157020839793847,-0.05983073830782445,0.01701912549030453, ,0.028880747924374867, ,0.07285460619193158, ,0.0010494594977351179, ,0.2554371125478499,-0.18923012361712316,0.11858331291000002,1.693875363467988,0.578245667007344,-1.348341843852191, ,0.11099057492218804,0.06594645000588659,0.025084742551181104,-0.03188107773280524,0.05858758480105122,-0.02747314491770739, ,1.773129940032959
0.02264274846955467,0.02140500508624176,-0.10624070129298128, ,0.02344631885726193,0.020915465978519725,-0.1068324894166388, ,0.001111569651120144, ,0.017858459592548,-0.002593085620155701,-0.022548812133217907,-0.04157020839793847,-0.05983073830782445,0.01701912549030453, ,0.028880747924374867, ,0.07285460619193158, ,0.001049960386068868, ,0.2554371125478499,-0.18923012361712316,0.11858331291000002,1.693875363467988,0.578245667007344,-1.348341843852191, ,0.11099057492218804,0.06594645000588659,0.025084742551181104,-0.03188107773280524,0.05858758480105122,-0.02747314491770739, ,1.7783658504486084
0.022822591249481612,0.021377361231184312,-0.1064656887967155, ,0.023531252953395646,0.0209053900584213,-0.10695308227299115, ,0.0009810762453702035, ,0.017457750050033628,-0.0032608112541591488,-0.022040892247915205,-0.013303564700971387,-0.0236090158616909,0.01788297780691036, ,0.028305597643026526, ,0.02709917456314579, ,0.0010494093129432786, ,0.2565723542803609,-0.1885505231241914,0.11883479317000001,1.6936656735245033,0.5790654860059367,-1.3488469937940883, ,0.11073155374383986,0.07066041813735724,0.024581499259259263,-0.037255057684614915,0.09641831122275381,-0.06081074431158576, ,1.783634901046753
0.022822591249481612,0.021377361231184312,-0.1064656887967155, ,0.02361566812188391,0.020895234967229333,-0.10707211615363854, ,0.001108679755005591, ,0.017457750050033628,-0.0032608112541591488,-0.022040892247915205,-0.013303564700971387,-0.0236090158616909,0.01788297780691036, ,0.028305597643026526, ,0.02709917456314579, ,0.0010498797132771065, ,0.2565723542803609,-0.1885505231241914,0.11883479317000001,1.6936656735245033,0.5790654860059367,-1.3488469937940883, ,0.11073155374383986,0.07066041813735724,0.024581499259259263,-0.037255057684614915,0.09641831122275381,-0.06081074431158576, ,1.789099931716919
0.022849791808209237,0.02137288377621841,-0.10650058530002798, ,0.023699566597525687,0.020885005068928538,-0.10718960123619772, ,0.0011978671820700817, ,0.017583782022656973,-0.0030517856625877403,-0.022397879412287318,-0.009549915857538371,-0.02141994589287965,0.0179132347046068, ,0.028638571684322083, ,0.023452277887563325, ,0.0010510449689368937, ,0.25674225440359383,-0.18844240486395225,0.11887368187000001,1.6936656735245033,0.579202122505702,-1.3489584116977849, ,0.1111205404665934,0.06941985483428732,0.025005983547880698,-0.037255057684614915,0.0990539938277922,-0.06331826204581967, ,1.7946150302886963
0.022849791808209237,0.02137288377621841,-0.10650058530002798, ,0.023782950626230658,0.02087470470509415,-0.1073055476646391, ,0.0013292600103056134, ,0.017583782022656973,-0.0030517856625877403,-0.022397879412287318,-0.009549915857538371,-0.02141994589287965,0.0179132347046068, ,0.028638571684322083, ,0.023452277887563325, ,0.0010532185239475868, ,0.25674225440359383,-0.18844240486395225,0.11887368187000001,1.6936656735245033,0.579202122505702,-1.3489584116977849, ,0.1111205404665934,0.06941985483428732,0.025005983547880698,-0.037255057684614915,0.0990539938277922,-0.06331826204581967, ,1.7999238967895508
0.023166212859244823,0.02132356020402057,-0.10692836544564821, ,0.02386582246493034,0.02086433819492996,-0.10741996554934, ,0.0009705715408718893, ,0.016189989790194457,-0.0029030202250218506,-0.021597268845264198,-0.017137148079710757,-0.02637625849538519,0.008345125196331897, ,0.027147473499537784, ,0.031454477545228454, ,0.0010525778496601782, ,0.2586806603550242,-0.18717587667257943,0.11934942030000001,1.6936656735245033,0.5811150335024182,-1.350273226129113, ,0.09823699954293041,0.06608422114099637,0.02391713441441442,-0.02665877066607735,0.0787033264163006,-0.05063713175553723, ,1.8051910400390625
0.023166212859244823,0.02132356020402057,-0.10692836544564821, ,0.023948184381504336,0.02085390983530543,-0.10753286496713507, ,0.0010942899990116753, ,0.016189989790194457,-0.0029030202250218506,-0.021597268845264198,-0.017137148079710757,-0.02637625849538519,0.008345125196331897, ,0.027147473499537784, ,0.031454477545228454, ,0.0010528987123474974, ,0.2586806603550242,-0.18717587667257943,0.11934942030000001,1.6936656735245033,0.5811150335024182,-1.350273226129113, ,0.09823699954293041,0.06608422114099637,0.02391713441441442,-0.02665877066607735,0.0787033264163006,-0.05063713175553723, ,1.8104338645935059
0.02333044356191994,0.021292648244775485,-0.10714327628859366, ,0.024030038654703538,0.020843423900792076,-0.10764425596136454, ,0.0009706783388969963, ,0.01639703995976837,-0.0032281678457650536,-0.02187927931636986,-0.022355005624885318,-0.014827979937823326,0.006849012246966213, ,0.02753156098891601, ,0.026825552217010832, ,0.0010522710759089439, ,0.25968461562867334,-0.18648855344677345,0.11958793766000002,1.6936656735245033,0.5819348525010108,-1.3507783760710104, ,0.09978647903098925,0.0695215689073046,0.024244766392694066,-0.02191244683688372,0.09121851694472893,-0.0464296362919451, ,1.8156659603118896
0.02333044356191994,0.021292648244775485,-0.10714327628859366, ,0.02411138757406307,0.02083288464370212,-0.10775414854192976, ,0.001092895708139657, ,0.01639703995976837,-0.0032281678457650536,-0.02187927931636986,-0.022355005624885318,-0.014827979937823326,0.006849012246966213, ,0.02753156098891601, ,0.026825552217010832, ,0.0010525788382743282, ,0.25968461562867334,-0.18648855344677345,0.11958793766000002,1.6936656735245033,0.5819348525010108,-1.3507783760710104, ,0.09978647903098925,0.0695215689073046,0.024244766392694066,-0.02191244683688372,0.09121851694472893,-0.0464296362919451, ,1.820970058441162
0.023486929139860033,0.021265967526353187,-0.10735144472494865, ,0.02419223343983039,0.020822296294124507,-0.10786255268533938, ,0.0009775119769285542, ,0.017041559791350035,-0.0023290432404943855,-0.02299676234607767,-0.00977093147599633,-0.003849514923378186,-0.00864991137903931, ,0.0287174212097853, ,0.010501592033582028, ,0.0010520144257830067, ,0.2606422345050772,-0.18586301208396128,0.11981997357000002,1.6934559835810188,0.582891307999369,-1.3513132651764637, ,0.10303685294079346,0.06433690953116662,0.02569163148387097,-0.002617445063381709,0.10211944426233945,-0.048481940703352294, ,1.8264319896697998
0.023486929139860033,0.021265967526353187,-0.10735144472494865, ,0.024272578562882577,0.02081166305996273,-0.10796947833476311, ,0.0010979995933233643, ,0.017041559791350035,-0.0023290432404943855,-0.02299676234607767,-0.00977093147599633,-0.003849514923378186,-0.00864991137903931, ,0.0287174212097853, ,0.010501592033582028, ,0.0010523575986750987, ,0.2606422345050772,-0.18586301208396128,0.11981997357000002,1.6934559835810188,0.582891307999369,-1.3513132651764637, ,0.10303685294079346,0.06433690953116662,0.02569163148387097,-0.002617445063381709,0.10211944426233945,-0.048481940703352294, ,1.8317420482635498
0.023666469887532092,0.02124006006784604,-0.10758528501190787, ,0.024352425264647475,0.02080098912697198,-0.1080749354000816, ,0.0009503028849541759, ,0.017704360279452543,-0.0023461619027644954,-0.022671116116218158,-0.03371758381695602,-0.021414275542711882,0.007223147528117751, ,0.028860498168494723, ,0.039942967670568395, ,0.0010516016378327216, ,0.2617388625732171,-0.1852065797896522,0.12008182415000002,1.6930366036940496,0.583847763497727,-1.351848154281917, ,0.10845364749539518,0.06334909316319812,0.025486098432000007,-0.013689437346740342,0.09176349558582786,-0.025913663750706764, ,1.8370578289031982
0.023843940683407405,0.021211284464552664,-0.10780982028398796, ,0.024431775877024994,0.020790278658796187,-0.10817893375793715, ,0.0010679023397028025, ,0.01661371037102465,-0.0030429987657713577,-0.020734397916405762,-0.019262784754977978,-0.015599967261551535,0.036220965032673684, ,0.026743045277915333, ,0.02478729559267954, ,0.0010517214959347074, ,0.26284321337423117,-0.18454242476246888,0.12033460070000002,1.6926172238070805,0.5849408554958505,-1.3523311038107855, ,0.10371250443548719,0.06407626033657716,0.023321832386530017,-0.05165242681835265,0.09992656243379755,-0.051649338748739726, ,1.8430969715118408
0.023843940683407405,0.021211284464552664,-0.10780982028398796, ,0.024510632742307397,0.020779535797005626,-0.10828148325178533, ,0.0009237700842311219, ,0.01661371037102465,-0.0030429987657713577,-0.020734397916405762,-0.019262784754977978,-0.015599967261551535,0.036220965032673684, ,0.026743045277915333, ,0.02478729559267954, ,0.0010507875440244623, ,0.26284321337423117,-0.18454242476246888,0.12033460070000002,1.6926172238070805,0.5849408554958505,-1.3523311038107855, ,0.10371250443548719,0.06407626033657716,0.023321832386530017,-0.05165242681835265,0.09992656243379755,-0.051649338748739726, ,1.8483879566192627
0.024001980879450407,0.02118062688813146,-0.10800438514907802, ,0.024588998213100406,0.020768764661133813,-0.1083825936919446, ,0.0008107166865991303, ,0.015121482044791267,-0.0033594037708813787,-0.018317342503344138,-0.03522254123716318,-0.012330733331115323,0.0302527020531218, ,0.023988952651409656, ,0.037318525340296546, ,0.0010490479001300757, ,0.26383172318213194,-0.18390143793390826,0.12055367371000002,1.6926172238070805,0.5858973109942087,-1.3527843141760982, ,0.09537381061152843,0.06272104531293508,0.020606483208279434,-0.03952087253485123,0.09245473095001178,-0.030677580990489613, ,1.8538010120391846
0.024001980879450407,0.02118062688813146,-0.10800438514907802, ,0.024666874652244073,0.020757969348714694,-0.10848227485564799, ,0.0009214671434029296, ,0.015121482044791267,-0.0033594037708813787,-0.018317342503344138,-0.03522254123716318,-0.012330733331115323,0.0302527020531218, ,0.023988952651409656, ,0.037318525340296546, ,0.0010481300529593769, ,0.26383172318213194,-0.18390143793390826,0.12055367371000002,1.6926172238070805,0.5858973109942087,-1.3527843141760982, ,0.09537381061152843,0.06272104531293508,0.020606483208279434,-0.03952087253485123,0.09245473095001178,-0.030677580990489613, ,1.8590519428253174
0.024148583583097405,0.021149772449548736,-0.10817840615179616, ,0.024744264432732962,0.02074715393532026,-0.10858053648709397, ,0.0008237998234940389, ,0.014426384581229539,-0.0029369800226526884,-0.016513243405381937,-0.0022514903611079214,0.0013451040381082572,-0.023842790097867345, ,0.022123146962048333, ,0.0026224579734612776, ,0.0010465276941774816, ,0.2647661738599131,-0.18330678750259297,0.12075070979000001,1.6924075338635962,0.5868537664925667,-1.3532375245414108, ,0.09303621721418705,0.058112027898634885,0.01882838241134752,0.013601780893334987,0.09408663500887429,-0.04632065587551993, ,1.8643169403076172
0.024148583583097405,0.021149772449548736,-0.10817840615179616, ,0.02482116993763628,0.02073632247459768,-0.10867738829749728, ,0.0009339681299848576, ,0.014426384581229539,-0.0029369800226526884,-0.016513243405381937,-0.0022514903611079214,0.0013451040381082572,-0.023842790097867345, ,0.022123146962048333, ,0.0026224579734612776, ,0.0010457293993959738, ,0.2647661738599131,-0.18330678750259297,0.12075070979000001,1.6924075338635962,0.5868537664925667,-1.3532375245414108, ,0.09303621721418705,0.058112027898634885,0.01882838241134752,0.013601780893334987,0.09408663500887429,-0.04632065587551993, ,1.8696320056915283
0.02428990727520592,0.02112471034380694,-0.10834624458463028, ,0.02489759356002177,0.02072547899830595,-0.10877283996513881, ,0.0008430017239929219, ,0.014595519705094033,-0.0025180510276282056,-0.017825493172463243,-0.017618409608169138,-0.006230030346548783,0.00123622028137784, ,0.023175805989890864, ,0.018687424528501143, ,0.0010443017397100368, ,0.2656542881404489,-0.18275847346852303,0.12094126442000001,1.6926172238070805,0.5876735854911594,-1.3534976382628865, ,0.09081047039088112,0.05536577687191993,0.020188607756653994,-0.009114321696489174,0.08830665157902282,-0.033845890276781906, ,1.874950885772705
0.02428990727520592,0.02112471034380694,-0.10834624458463028, ,0.024973537702871574,0.020714627516354184,-0.10886690113541835, ,0.0009521563584204502, ,0.014595519705094033,-0.0025180510276282056,-0.017825493172463243,-0.017618409608169138,-0.006230030346548783,0.00123622028137784, ,0.023175805989890864, ,0.018687424528501143, ,0.0010436573664143053, ,0.2656542881404489,-0.18275847346852303,0.12094126442000001,1.6926172238070805,0.5876735854911594,-1.3534976382628865, ,0.09081047039088112,0.05536577687191993,0.020188607756653994,-0.009114321696489174,0.08830665157902282,-0.033845890276781906, ,1.8802108764648438
0.024442764862095102,0.021098578412745057,-0.10853655895986228, ,0.025049004779007303,0.02070377201683784,-0.10895958142090317, ,0.0008380614116233093, ,0.014422909366886161,-0.002509497341187811,-0.018282825050211116,0.007984647379804859,-0.0028531754381673625,-0.009224978612216493, ,0.02342177583633377, ,0.008478983494775756, ,0.0010422296167282568, ,0.2665964615511043,-0.18217154577008196,0.12115644856000002,1.6926172238070805,0.5886300409895174,-1.3538691698880587, ,0.08786753848006552,0.05582173032851222,0.020606483208279434,-0.0076387717157219105,0.08843347901124864,-0.060987359453876046, ,1.885469913482666
0.024442764862095102,0.021098578412745057,-0.10853655895986228, ,0.025123997211009393,0.020692916466076423,-0.10905089040138062, ,0.0009450798695965347, ,0.014422909366886161,-0.002509497341187811,-0.018282825050211116,0.007984647379804859,-0.0028531754381673625,-0.009224978612216493, ,0.02342177583633377, ,0.008478983494775756, ,0.0010415596184721759, ,0.2665964615511043,-0.18217154577008196,0.12115644856000002,1.6926172238070805,0.5886300409895174,-1.3538691698880587, ,0.08786753848006552,0.05582173032851222,0.020606483208279434,-0.0076387717157219105,0.08843347901124864,-0.060987359453876046, ,1.8907148838043213
0.024585838944275514,0.0210759313929963,-0.1087160953075856, ,0.02519851743113778,0.020682064808650553,-0.10914083762390757, ,0.0008431558870117534, ,0.014048706370814248,-0.002003928349645795,-0.01790726432540778,0.021729038792367053,0.025037045335578927,-0.011810133667563828, ,0.022848457172069476, ,0.033151213018291784, ,0.0010402006888046388, ,0.2674768530987659,-0.1816463999346347,0.12135996609000001,1.6924075338635962,0.5895864964878755,-1.354404058993512, ,0.08690196113413075,0.051074780171405154,0.020395405275288096,0.0,0.11457138909864323,-0.06667705133452524, ,1.8959670066833496
0.024585838944275514,0.0210759313929963,-0.1087160953075856, ,0.02527256788124908,0.020671220967440028,-0.10922943260286368, ,0.0009481046040148738, ,0.014048706370814248,-0.002003928349645795,-0.01790726432540778,0.021729038792367053,0.025037045335578927,-0.011810133667563828, ,0.022848457172069476, ,0.033151213018291784, ,0.0010395741848264772, ,0.2674768530987659,-0.1816463999346347,0.12135996609000001,1.6924075338635962,0.5895864964878755,-1.354404058993512, ,0.08690196113413075,0.051074780171405154,0.020395405275288096,0.0,0.11457138909864323,-0.06667705133452524, ,1.9012658596038818
0.02471865457714917,0.021051648443832623,-0.10888463414264218, ,0.02534615101272593,0.02066038884365924,-0.10931668481999834, ,0.0008564482700042605, ,0.013603012165086465,-0.0025408922353384964,-0.01674329618321324,0.02023936244739993,0.00992071554242284,0.00489055468059334, ,0.02172178722835432, ,0.022539988316449877, ,0.0010383368475641648, ,0.26831090824918213,-0.1811366995649359,0.12155181701000001,1.691988153976627,0.5908162249857646,-1.3551617839063583, ,0.08472941210577749,0.05245823192839733,0.019030838136200722,-0.02355339018991504,0.10116042262851495,-0.07404212916383238, ,1.906592845916748
0.02471865457714917,0.021051648443832623,-0.10888463414264218, ,0.02541926928638904,0.02064957231689629,-0.1094026037244853, ,0.0009595929711967103, ,0.013603012165086465,-0.0025408922353384964,-0.01674329618321324,0.02023936244739993,0.00992071554242284,0.00489055468059334, ,0.02172178722835432, ,0.022539988316449877, ,0.0010378083651724369, ,0.26831090824918213,-0.1811366995649359,0.12155181701000001,1.691988153976627,0.5908162249857646,-1.3551617839063583, ,0.08472941210577749,0.05245823192839733,0.019030838136200722,-0.02355339018991504,0.10116042262851495,-0.07404212916383238, ,1.9119069576263428
0.02486346229171619,0.021028919819156857,-0.10906015113038951, ,0.025491925172421433,0.020638775245149416,-0.10948719873297162, ,0.0008541358416100503, ,0.01343872970995792,-0.002055814551389712,-0.016509856709896593,-0.04304481885752711,-0.03144155124837827,0.01914162815188612, ,0.021386939899581917, ,0.05330503117664805, ,0.001036583881682021, ,0.26916813159822106,-0.18062699919523706,0.12174496422000002,1.691988153976627,0.5914994074845917,-1.3555555159445591, ,0.08062611857134305,0.04744847077923539,0.018565048391608396,-0.02355339018991504,0.05469806902171028,-0.005454166008613599, ,1.9171428680419922
0.02486346229171619,0.021028919819156857,-0.10906015113038951, ,0.025564121150292163,0.020628001464863533,-0.10957047922962761, ,0.0009550356704240006, ,0.01343872970995792,-0.002055814551389712,-0.016509856709896593,-0.04304481885752711,-0.03144155124837827,0.01914162815188612, ,0.021386939899581917, ,0.05330503117664805, ,0.0010360438273028286, ,0.26916813159822106,-0.18062699919523706,0.12174496422000002,1.691988153976627,0.5914994074845917,-1.3555555159445591, ,0.08062611857134305,0.04744847077923539,0.018565048391608396,-0.02355339018991504,0.05469806902171028,-0.005454166008613599, ,1.92238187789917
0.024994333205085158,0.021010746887473206,-0.10922162819908329, ,0.025635859708669287,0.020617254790969434,-0.1096524545662014, ,0.0008671814362727097, ,0.013689885807996962,-0.0018362181098978048,-0.0168659230831253,-0.023082935915786994,-0.023037054135743456,0.0121098390604646, ,0.02180009247294635, ,0.03261175292748677, ,0.0010349328905197358, ,0.26997901855001466,-0.18015591248990936,0.12193422256000001,1.691988153976627,0.5921825899834189,-1.3558675692426194, ,0.08209077989487092,0.04615609997980096,0.019145206153846156,-0.020095810793477213,0.06412387685408721,-0.02353808655845908, ,1.9276199340820312
0.02513117578550345,0.0209962218228537,-0.10939174225848304, ,0.025707143345349813,0.02060653901691858,-0.10973313406206449, ,0.0009659816491769188, ,0.013689885807996962,-0.0018362181098978048,-0.0168659230831253,-0.023082935915786994,-0.023037054135743456,0.0121098390604646, ,0.02180009247294635, ,0.03261175292748677, ,0.0010344822288116126, ,0.27080535096755665,-0.17971571671607856,0.12212866606000002,1.691988153976627,0.5930024089820115,-1.3562910404443764, ,0.08124738147129348,0.04187861498608596,0.01968950744128554,-0.017232468267583425,0.09262737744504053,-0.04226422184291629, ,1.933161973953247
0.02513117578550345,0.0209962218228537,-0.10939174225848304, ,0.02577797456717458,0.020595857914721863,-0.10981252700426634, ,0.0008693099132011424, ,0.013502684035529518,-0.0012628404829287865,-0.017214059100755075,0.0014479504517315117,0.006192411221389455,0.010151904876070017, ,0.02191440332231193, ,0.006359324312895433, ,0.0010334096813076486, ,0.27080535096755665,-0.17971571671607856,0.12212866606000002,1.691988153976627,0.5930024089820115,-1.3562910404443764, ,0.08124738147129348,0.04187861498608596,0.01968950744128554,-0.017232468267583425,0.09262737744504053,-0.04226422184291629, ,1.9392290115356445
0.02522965211490772,0.020987888820929734,-0.10951600272809883, ,0.02584835588994795,0.020585215234987318,-0.10989064264758545, ,0.0008278257348848822, ,0.013255394625229225,-0.001222539614514924,-0.016742121404041816,0.00822495192119998,0.006576867806199004,0.0068013064265125215, ,0.02138921968860223, ,0.010531082986219107, ,0.0010320833332662113, ,0.27140000139887194,-0.1794145301339838,0.12227125796000002,1.691988153976627,0.5936855914808388,-1.356766451222718, ,0.07994687578641177,0.04069337116572503,0.019191339180722893,-0.01561986429267071,0.09137855606067359,-0.04787676100894096, ,1.9445469379425049
0.02522965211490772,0.020987888820929734,-0.10951600272809883, ,0.025918289838365315,0.02057461470695523,-0.10996749021457698, ,0.0009213350953353664, ,0.013255394625229225,-0.001222539614514924,-0.016742121404041816,0.00822495192119998,0.006576867806199004,0.0068013064265125215, ,0.02138921968860223, ,0.010531082986219107, ,0.0010313734086640906, ,0.27140000139887194,-0.1794145301339838,0.12227125796000002,1.691988153976627,0.5936855914808388,-1.356766451222718, ,0.07994687578641177,0.04069337116572503,0.019191339180722893,-0.01561986429267071,0.09137855606067359,-0.04787676100894096, ,1.9499869346618652
0.025405250706355156,0.02096990666276762,-0.1097296710531043, ,0.025987778945926108,0.020564060038537755,-0.11004307889562662, ,0.0007760638556529369, ,0.012918964784868618,-0.0015776926865510737,-0.015332903953879025,-0.03228334407337467,-0.029531628740122398,0.009478491894457474, ,0.020111854936448584, ,0.04375306335719504, ,0.0010297472331672042, ,0.27240395667252115,-0.17888938429853654,0.12250329387000002,1.691988153976627,0.5945054104794314,-1.3571899224244748, ,0.07721476123553359,0.04122369311836263,0.01762036672566372,-0.013457682378170244,0.05275576363745838,-0.008557211986882564, ,1.9554338455200195
0.025405250706355156,0.02096990666276762,-0.1097296710531043, ,0.026056825754859694,0.020553554916354504,-0.11011741784899982, ,0.0008650123688723691, ,0.012918964784868618,-0.0015776926865510737,-0.015332903953879025,-0.03228334407337467,-0.029531628740122398,0.009478491894457474, ,0.020111854936448584, ,0.04375306335719504, ,0.0010287046074438193, ,0.27240395667252115,-0.17888938429853654,0.12250329387000002,1.691988153976627,0.5945054104794314,-1.3571899224244748, ,0.07721476123553359,0.04122369311836263,0.01762036672566372,-0.013457682378170244,0.05275576363745838,-0.008557211986882564, ,1.960702896118164
0.025526124923115737,0.02095312359508917,-0.10987452366423378, ,0.026125432816044375,0.02054310300577046,-0.11019051620089343, ,0.0007919205246844054, ,0.011916382184029293,-0.001747060841314059,-0.014154986533136646,0.0032655126825933117,0.011691346669703116,-0.006212420644280633, ,0.01858537138968128, ,0.012138805203605246, ,0.00102721539937615, ,0.273191675425692,-0.1784646339904542,0.12268218189,1.6917784640331426,0.595325229478024,-1.3577767511065129, ,0.07373499732592913,0.04120579312135075,0.01632050360655738,0.0,0.08739576051311924,-0.03908728771817588, ,1.9659559726715088
0.025526124923115737,0.02095312359508917,-0.10987452366423378, ,0.02619360268892739,0.02053270795093317,-0.11026238304548615, ,0.0008790396926928214, ,0.011916382184029293,-0.001747060841314059,-0.014154986533136646,0.0032655126825933117,0.011691346669703116,-0.006212420644280633, ,0.01858537138968128, ,0.012138805203605246, ,0.0010262893012093792, ,0.273191675425692,-0.1784646339904542,0.12268218189,1.6917784640331426,0.595325229478024,-1.3577767511065129, ,0.07373499732592913,0.04120579312135075,0.01632050360655738,0.0,0.08739576051311924,-0.03908728771817588, ,1.9713120460510254
0.025642832682767625,0.020934732314341696,-0.11000095012374189, ,0.02626133794144678,0.02052237337481002,-0.11033302744498956, ,0.0008141646008716451, ,0.011531584919391583,-0.0015951211822449608,-0.01181239899308798,0.03736118727039702,0.01119508708012775,-0.002139777002890057, ,0.016584771096131892, ,0.03900241093836471, ,0.0010249717564867844, ,0.27394078051449183,-0.17807849734674297,0.12282995895000001,1.691568774089658,0.5961450484766166,-1.358118543568129, ,0.07622244301885203,0.03558190534625826,0.014046571005291006,-0.013485309345229908,0.09181922664633388,-0.07292780504381133, ,1.9766929149627686
0.025642832682767625,0.020934732314341696,-0.11000095012374189, ,0.02632864114995179,0.020512102879225204,-0.1104024584296986, ,0.0009000876695303686, ,0.011531584919391583,-0.0015951211822449608,-0.01181239899308798,0.03736118727039702,0.01119508708012775,-0.002139777002890057, ,0.016584771096131892, ,0.03900241093836471, ,0.0010242008670611276, ,0.27394078051449183,-0.17807849734674297,0.12282995895000001,1.691568774089658,0.5961450484766166,-1.358118543568129, ,0.07622244301885203,0.03558190534625826,0.014046571005291006,-0.013485309345229908,0.09181922664633388,-0.07292780504381133, ,1.9820008277893066
