NicholasDascanio/dvrk_moveit_final/test/execution/third_experiment_notsharpbends/thirdexp_200vel3.0/thirdexp_200vel3.0_6.csv
Current Position (x),Current Position (y),Current Position (z), ,Planned Position (x),Planned Position (y),Planned Position (z), ,Position Error,,Cartesian linear Velocity(x),Cartesian linear Velocity(y),Cartesian linear Velocity(z),Cartesian Angular Velocity(x),Cartesian Angular Velocity(y),Cartesian Angular Velocity(z), ,Total Linear Velocity, ,Total Angular Velocity, ,MSE, ,Joint 1 Position,Joint 2 Position,Joint 3 Position,Joint 4 Position,Joint 5 Position,Joint 6 Position, ,Joint 1 Velocity,Joint 2 Velocity,Joint 3 Velocity,Joint 4 Velocity,Joint 5 Velocity,Joint 6 Velocity, ,Time Stamp
0.009728002871551001,0.020100431839726724,-0.07927823484763115, ,0.009918475292071738,0.020147379356260174,-0.07941247746775021, ,0.00023770757948394751, ,-0.003614426355252542,0.00043547091073040524,-0.0017354491470624146,-0.12381033995522264,0.41714495866526985,0.10942446970575392, ,0.004033050524562791, ,0.4351309191722208, ,1.9808964956995626e-05, ,0.14218323494734744,-0.24593042837967952,0.0889903085,1.6041280676566114,0.1773541766955417,-1.1861877332704047, ,0.0005382981272526977,2.5996063551388283e-05,0.0019681136875968164,0.001387532925784176,0.4319499123019636,0.12342701636197706, ,0.052256107330322266
0.009767540733984448,0.02013719926448379,-0.07942860213618734, ,0.009980766160655713,0.020183642035087417,-0.07962810720533889, ,0.00029567598167191093, ,0.004206204236881637,0.0010016636033318529,-0.003956598213054081,0.03554342319752745,-0.3660992016815622,-0.09299268774319397, ,0.005860900398073963, ,0.367820554623455, ,2.4244707325266294e-05, ,0.14228363047471237,-0.24590726018105682,0.08914715959000001,1.6043377576000957,0.17626108469741816,-1.1918306892520782, ,0.003086101153386779,0.00015420694875836242,0.004018368193743693,-0.0003868075266820625,-0.3747743993566367,-0.035285699045109725, ,0.10818600654602051
0.009823673502075986,0.020186852658020338,-0.0796372716247419, ,0.010043250805688977,0.020219004594595726,-0.07984209772359996, ,0.00030199614246030995, ,0.0005760327876911743,0.0009791314386120736,-0.004138006614416897,-0.04506587399843894,0.04462441914991562,0.014694158400703265, ,0.00429110835187505, ,0.06342138269146508, ,2.6105615738005262e-05, ,0.14256164885818445,-0.2458609237838115,0.08936623260000001,1.6043377576000957,0.17585117519812185,-1.191088041840286, ,0.005629810304188444,0.0009687469810062714,0.004365253910660455,-0.0003868075266820625,0.052417886455963875,0.0440130922749462, ,0.16133499145507812
0.009879120439308001,0.020236787487917136,-0.07985725606144431, ,0.010105927862584404,0.020253476576900006,-0.08005446474518525, ,0.0003010172717423283, ,0.0009770742109112445,0.0008758320661747686,-0.003806450454978938,0.007546390326925682,-0.00048169952666087283,0.0012578550574482996, ,0.0040262663707183064, ,0.007561748514808147, ,2.7057070841868967e-05, ,0.14287055817315342,-0.24578369645506926,0.08959697222000002,1.6043377576000957,0.1759878116978873,-1.1910361022637015, ,0.005907665527328335,0.0012038610146770502,0.004002213949748744,-0.0003868075266820625,0.005598269905790973,-0.008805606782856962, ,0.21453404426574707
0.009933133637705609,0.02027565946860702,-0.0800357717506704, ,0.010168795972082858,0.020287067481684254,-0.08026522390958167, ,0.0003291127038501321, ,0.0011450805475022713,0.0008338097318357442,-0.004207692919465185,0.0045829012347824195,-0.0066213749557467285,-0.0003100995062761099, ,0.004439721594164385, ,0.0080526758728658, ,2.8182878446319784e-05, ,0.14323352661824199,-0.24569874639345277,0.08978493427,1.6043377576000957,0.17612444819765274,-1.1915559138681007, ,0.006606825502207125,0.0028962045346900326,0.004390521367144433,-0.0003868075266820625,0.0,-0.007508210462402263, ,0.2673299312591553
0.009997043771124191,0.020325471736580433,-0.08025908532793927, ,0.010231853780247279,0.020319786766282943,-0.08047439077328832, ,0.0003186290854090693, ,0.0010198900510871858,0.0008962513776808215,-0.0042107544005477475,0.035774548547053905,0.031246437945687818,0.007139364993884956, ,0.0044242394679801875, ,0.04749903374507218, ,2.924817646914259e-05, ,0.1437123360564439,-0.24560607359896208,0.09002085905000001,1.6043377576000957,0.1769442671962454,-1.1922244212902793, ,0.00960426275903397,0.002282698855483733,0.004453120357841768,0.0013713800495005416,0.04137257399555628,-0.03793683112960129, ,0.3145139217376709
0.010053381088361573,0.020362398881805365,-0.08042989659043742, ,0.010295099938449357,0.020351643845754247,-0.08068198080999672, ,0.000349413976593729, ,0.0014890073466972316,0.000835429752723032,-0.003996562882283689,0.0009523112782959904,-0.010766182375845413,-0.0016434736577492397, ,0.004345986725969248, ,0.010808218109435342, ,3.047932487444896e-05, ,0.14409847270015513,-0.24552112353734562,0.09020104336000001,1.6043377576000957,0.1769442671962454,-1.1922244212902793, ,0.011100518031257254,0.0024008823597156483,0.004229636622411047,0.0012356488924401914,0.0,-0.0031583748968699627, ,0.3617839813232422
0.010126356713311387,0.02040685205780289,-0.0806566943407783, ,0.010358533103361054,0.020382648092958026,-0.0808880094107687, ,0.0003286310539425166, ,0.0013372477281785604,0.0008498378246191808,-0.004568620202829951,0.0060913271076870334,-0.0001777358861813348,0.0012692725325687024, ,0.004835570945853051, ,0.0060939194274086585, ,3.1166883482961315e-05, ,0.14463134126847663,-0.24535122341411267,0.09043956072,1.6045474475435806,0.1773541766955417,-1.1925586750013686, ,0.009189456583250025,0.003817333387555343,0.004779121368136814,7.930286805855298e-05,0.009167024549042923,-0.00987915847133649, ,0.4098849296569824
0.010191663239563551,0.020437383942173853,-0.08083832359947392, ,0.01042215193694649,0.02041280883863514,-0.08109249188421541, ,0.0003439919945342553, ,0.0012579065701866666,0.0006547105168065981,-0.003999844268495949,0.005845592221847852,0.0006640697688247012,0.0013872864385812609, ,0.004243787102619056, ,0.005883190975839074, ,3.188836124645681e-05, ,0.1451333189053012,-0.24515815509225705,0.09063011535000001,1.6045474475435806,0.17762744969507258,-1.1927815108087614, ,0.00929101207287667,0.004396309349203802,0.004176405747246986,0.00010150401602857836,0.01013011339726625,-0.010205535576564275, ,0.4635779857635498
0.010259776298241213,0.020481661189057435,-0.0810762963743667, ,0.010485955106449686,0.020442135371481124,-0.08129544345667616, ,0.0003174028784091813, ,0.0014488465833674999,0.0008063805446171394,-0.004712223254292736,-0.014118759041530881,-0.018240611396747403,-0.001367011026433967, ,0.004995443323987365, ,0.02306640974830138, ,3.2201841939148254e-05, ,0.14559668287775468,-0.24495736403752721,0.09087900303,1.6047571374870648,0.17817399569413436,-1.1934722186439686, ,0.008082186796330519,0.004639276268372944,0.004893644092165899,-0.001483064224931026,-0.010004341247982487,0.009341924149458464, ,0.5106799602508545
0.010312327520533597,0.02051429486634888,-0.08124725313692478, ,0.01054994128438708,0.02047063693822632,-0.08149687927239699, ,0.00034738958385559227, ,0.0011728790967571157,0.0006647406856882248,-0.003842387085717484,-0.003135495389059143,-0.005813644318427232,0.0013942381381049128, ,0.0040720343897501085, ,0.006605285062618597, ,3.274498350899031e-05, ,0.14592876039134633,-0.2448260775786654,0.09105789105,1.6047571374870648,0.17817399569413436,-1.1934722186439686, ,0.0075886596865886394,0.003710247312003092,0.00400624032193159,-0.001483064224931026,0.002193239971650561,-0.000748629093461692, ,0.5578770637512207
0.010370858721173305,0.02054959007889336,-0.08145210271387784, ,0.010614109148536765,0.02049832274371113,-0.08169681439370936, ,0.0003488307846437246, ,0.0013954778543021785,0.0005709939576696577,-0.003677772459545246,-0.01507083357521648,-0.020113687048686227,-0.006383872608224223, ,0.0039748462618990135, ,0.02513345242244887, ,3.3507009092953485e-05, ,0.14634578796655445,-0.24462528652393556,0.0912717789,1.6047571374870648,0.17885717819296154,-1.1941926656427317, ,0.008950682364735613,0.004426543753526084,0.003831804551359154,0.003281357447876179,-0.012208726630078435,0.011184344572782058, ,0.6022241115570068
0.010431841088605493,0.020578927176692127,-0.08163511312731758, ,0.010678457381929381,0.02052520195096406,-0.0818952638012095, ,0.0003624698182452754, ,0.0014653340228715642,0.0007476510804963544,-0.0048367974949665785,-0.010407517124967618,-0.007507368547242372,-0.0068731857185577614, ,0.005108893808259014, ,0.012832653371902529, ,3.428089225280305e-05, ,0.1467396473431399,-0.2444167727363315,0.09146233353000001,1.6049668274305493,0.1787205416931961,-1.1942446052193165, ,0.009017700756654114,0.005792061642716398,0.005016948510236221,0.006481862408676856,0.0,0.005601005957227959, ,0.6482160091400146
0.01050451236645047,0.020611460404500813,-0.08185517471665063, ,0.010742984672838482,0.020551283681278842,-0.08209224239393635, ,0.0003416011746838678, ,0.0014233692234943206,0.0007850042203907479,-0.0048001271922917385,0.007720842728350727,0.007603645612737175,-0.002782165212514913, ,0.005067882460614164, ,0.010836366387846356, ,3.4799000227121846e-05, ,0.14728023864433562,-0.24413875435285942,0.09169177686,1.6049668274305493,0.17926708769225788,-1.1947719555742429, ,0.010356045352714512,0.005259218286745443,0.005010635898081159,0.005951601336609744,0.016904994178386024,-0.012111685014959982, ,0.690680980682373
0.010567464480666228,0.020643671061667677,-0.08205674717623544, ,0.01080768971476973,0.02057657701429005,-0.08228776498955087, ,0.0003399691226606264, ,0.0016070032725718961,0.0008936114204547147,-0.0049654983089377725,0.0015049202856599704,-0.002723426431006018,-0.003973724010386949, ,0.005295014102425767, ,0.003111564489550734, ,3.5245211247728015e-05, ,0.14770498895241796,-0.24391479509950692,0.09190177584,1.6049668274305493,0.17954036069178875,-1.1949947913816357, ,0.011176141049541727,0.004484404306993919,0.005205493960784314,0.005137742789626156,0.007379661049560275,-0.005222949084360584, ,0.7327940464019775
0.010625464188315456,0.020673020039243876,-0.08223655442659175, ,0.010872571206453666,0.020601090988053027,-0.08248184632451443, ,0.0003555330955127544, ,0.0013176124454035646,0.0006617203955711521,-0.004416375592576791,0.00873123326557485,0.008227621954740104,-0.0014491380824948911, ,0.004656001483344395, ,0.011997007780606049, ,3.5749124984241245e-05, ,0.1481220165276261,-0.2437217267776513,0.09208973789000001,1.6049668274305493,0.17995027019108506,-1.195329045092725, ,0.00971248674208616,0.005473902564386923,0.004599714559630379,0.00454849699160016,0.017218011375944392,-0.013533718174436434, ,0.7747299671173096
0.010677199068344925,0.02069888215920776,-0.08239896691480926, ,0.010937627851833255,0.020624834599118035,-0.08267450105426827, ,0.0003862968475562139, ,0.0016326778465548851,0.0008525534759078903,-0.005211586306944921,0.0008202832235413388,-0.0014468972057948345,0.0007675878217996, ,0.005527487332834832, ,0.0016632414876900645, ,3.663836009970873e-05, ,0.1485081531713373,-0.2435363811886699,0.09225955188000001,1.605176517374034,0.18049681619014685,-1.195856395447651, ,0.011215073656009766,0.005529321170586497,0.005440167868852459,0.0006199266053441038,0.009849870139203009,-0.006220240716417315, ,0.8125400543212891
0.010739869336091118,0.020730600501170857,-0.08259141947083223, ,0.01100285836005662,0.020647816802609593,-0.08286574375341128, ,0.0003889346725175329, ,0.0016717400247700076,0.000957749524887031,-0.0054789125905499395,0.005471780416594764,0.004414395181609125,0.0023047545774258116, ,0.0058077949376442355, ,0.007030452390120038, ,3.746627354858105e-05, ,0.14892518074654545,-0.24333559013394007,0.09246047683000001,1.605176517374034,0.18063345268991227,-1.1960494920914881, ,0.011865083965800298,0.005094375355275311,0.005738044495677235,0.0006199266053441038,0.016516737734177472,-0.010456016544471654, ,0.8498549461364746
0.010806516025356712,0.02075886863176879,-0.0827939300714227, ,0.01106826144546658,0.020670046512302788,-0.08305558891587941, ,0.0003806118557498506, ,0.001269919899941164,0.0004962610754725596,-0.004311328940171793,0.03479453705464235,0.038524583110248777,0.009658476449899997, ,0.0045217838114685, ,0.051911494981129104, ,3.817494385343005e-05, ,0.14944260384911848,-0.24306529448334221,0.09267177210000001,1.605176517374034,0.18145327168850492,-1.1966363207735262, ,0.012976472249209734,0.006997815362848703,0.004506028718528997,0.0006199266053441038,0.05248145040838759,-0.04174825170927809, ,0.8869240283966064
0.010868638490109737,0.020778672079671916,-0.08296203925014431, ,0.01113383582759028,0.02069153260069983,-0.08324405095512455, ,0.0003968041309615576, ,0.0018778709015096799,0.0005710315004015277,-0.004918410521371792,-0.01439856981174914,-0.019275488842248285,-0.005470471924952466, ,0.005295586667587298, ,0.024059577715604914, ,3.891965376140446e-05, ,0.1499214132873204,-0.24279499883274436,0.09284677125000002,1.6053862073175185,0.18186318118780123,-1.1969705744846153, ,0.012610889243650602,0.007885720352410187,0.0050972196864,0.0028318973345362037,-0.007496090350089425,0.00702923884189109, ,0.9240679740905762
0.010928647094372348,0.020799978671406823,-0.08313292680336853, ,0.011199580231130392,0.020712283899107793,-0.08343114420429269, ,0.0004123454327333959, ,0.0017956313756815727,0.000706283986128957,-0.005177724759819517,0.002935851415886712,-0.00017779283343182162,-0.0007613305263175217, ,0.005525573526326691, ,0.002941229352920767, ,3.969262534374459e-05, ,0.15035388632827698,-0.24254014864789494,0.09302436298000001,1.6053862073175185,0.1821364541873321,-1.1972750890321486, ,0.013287166278139287,0.0070789359179983195,0.0053995971254237295,0.0025690756126095157,0.012773067526592807,-0.009590158565460395, ,0.9621870517730713
0.011005740045112653,0.0208294033519809,-0.0833547273457295, ,0.01126549338595603,0.020732309197716337,-0.08361688291640294, ,0.000381607935067869, ,0.001675498324999784,0.0006254922917875152,-0.004916488836463331,0.00835993849747693,0.0032961928607352425,-2.0145075345604e-05, ,0.0052316725550469265, ,0.00898629268297878, ,4.024453788449809e-05, ,0.1508944776294727,-0.24223123933292598,0.09325510260000001,1.6053862073175185,0.182409727186863,-1.1974162460994011, ,0.01257412767437005,0.00719090232631873,0.0051185126992287925,0.0022938846078162244,0.015626117344223884,-0.015173061468493995, ,1.0042109489440918
0.01106682753893117,0.020850067885326246,-0.08353302892487632, ,0.011331574027091501,0.020751617245673322,-0.08380128126452661, ,0.00038954146014147617, ,0.0015428832694176717,0.0006424151732707218,-0.005013705780813541,0.01769730166022131,0.014843128988894986,0.004512601261389084, ,0.005284924946908947, ,0.02309789949466792, ,4.100780712591297e-05, ,0.1513655643348004,-0.24194549821657965,0.09344047207,1.6055958972610032,0.1830929096856902,-1.1979733356178832, ,0.01203817601908801,0.0071854400128674445,0.005217429256469047,0.00017830913719090564,0.027394084682515172,-0.024837660784483497, ,1.0366909503936768
0.011128859526390901,0.020876503833039316,-0.08371483538328357, ,0.011397820894707655,0.02077021675116258,-0.0839843533419655, ,0.0003953189743394093, ,0.0019335390245917169,0.0010068934604941754,-0.006551109105661956,0.007029463311035245,0.0017890764389023573,0.0016972233318891235, ,0.006904305766309312, ,0.007253560289893848, ,4.1754167783832625e-05, ,0.15176714644426006,-0.24172153896322715,0.09362973041000001,1.6055958972610032,0.1830929096856902,-1.1979733356178832, ,0.012437344896260914,0.00738606947204773,0.006815922772785623,0.00019823177532750158,0.014459228635098529,-0.014336410745132042, ,1.0685720443725586
0.01118223051376183,0.020901788884093997,-0.08389502190589915, ,0.011464232734113275,0.020788116381482383,-0.08416611316243139, ,0.00040735385048058873, ,0.0017363421599564481,0.0007102643973157365,-0.005601776400281413,0.02413420712250154,0.02770026580511801,0.007935576985692073, ,0.005907559432564881, ,0.03673914361535848, ,4.2515472850714146e-05, ,0.15218417401946818,-0.24148985697700043,0.09381769246,1.6055958972610032,0.18418600168381372,-1.1990280363277357, ,0.014834600837653708,0.00809345284546064,0.00584972879911862,0.00021066349207566712,0.04342928321498592,-0.03220460389597064, ,1.100611925125122
0.011231946765162867,0.020914253892566088,-0.08401188007946979, ,0.011530808295743227,0.020805324763120126,-0.08434657466022362, ,0.0004617404380045925, ,0.0018935932803856702,0.000312074403158801,-0.004669302894335007,0.0037021290030316784,-0.0010957244555030955,0.0016085481875550173, ,0.005048314120939183, ,0.0038608767162329706, ,4.3490225685149556e-05, ,0.15255486519743097,-0.2412890659222706,0.09393954372,1.6058055872044876,0.18418600168381372,-1.1988646788474546, ,0.015237145401167433,0.009930944440996441,0.004834237183611533,-0.0001028590940068082,0.014452887711023028,-0.013566268142346615, ,1.1322760581970215
0.011307793794204254,0.020938387450130228,-0.0842166590366363, ,0.01159754633515066,0.02082185048183131,-0.08452575169040893, ,0.0004394037648694055, ,0.00193225829246492,0.0008004758406246233,-0.006067145971510916,0.03431660732623881,0.032250966713834026,0.00942778436543951, ,0.0064175263084653026, ,0.04709303965703577, ,4.430886059688583e-05, ,0.15315723836162048,-0.24097243387442738,0.09415343157000002,1.6058055872044876,0.18500582068240637,-1.1995331862696332, ,0.01686157454841343,0.008374886448518614,0.006356269561053473,-0.0001028590940068082,0.05016838052362894,-0.04272693931761921, ,1.1637511253356934
0.01137886427540796,0.020957667295064007,-0.084391991408811, ,0.011664445612996618,0.020837702082715813,-0.08470365802899979, ,0.00043941373976308357, ,0.002710546038167208,0.000884717984093214,-0.006667031270138726,-0.007212774521100241,-0.019479226648688546,-0.00136544186794295, ,0.007251144164434294, ,0.020771720534199498, ,4.5285853586924644e-05, ,0.15368238419706776,-0.24068669275808108,0.09433620846000002,1.6058055872044876,0.18514245718217182,-1.1996446041733295, ,0.019474028639128005,0.009149798030317817,0.0069801978615249794,-0.0001028590940068082,0.0,-0.001845665162173733, ,1.1901299953460693
0.011451858154316076,0.020985174620230636,-0.08459602685268369, ,0.011731504895040917,0.020852888070295637,-0.08488030737313274, ,0.00042013979244831106, ,0.002184545734577243,0.000869094031807686,-0.006849684972074475,0.03039023775527215,0.02868694910013859,0.00587503165340309, ,0.007241943711411064, ,0.04179123812975143, ,4.613546115058117e-05, ,0.15426158916263458,-0.240408674374609,0.09455009631000001,1.6060152771479719,0.1860989126805299,-1.2004245294992044, ,0.017867998787134395,0.009777906523010582,0.007155800323450135,0.0026235489102640823,0.04689168937218453,-0.03976973177667554, ,1.2180900573730469
0.011507329716883917,0.021005352617296347,-0.08474646726211006, ,0.011798722952131784,0.02086741690859118,-0.08505571334124828, ,0.00044673192716278894, ,0.0025078312330130336,0.0008374795510843828,-0.006713131377846374,0.0068460575182558905,-0.0016689896829121804,-0.000572936827165759, ,0.007215034468939544, ,0.0070465606128705515, ,4.706273420384247e-05, ,0.15463228034059737,-0.24020788331987916,0.0947069474,1.6060152771479719,0.1860989126805299,-1.2002611720189234, ,0.018625503740622332,0.009752586417409717,0.007014007714663145,0.0026235489102640823,0.01665262322738419,-0.01613068338261874, ,1.2448029518127441
0.011576487974911526,0.021021843436790817,-0.08492831667872253, ,0.011866098560196735,0.020881297021198793,-0.08522988947326862, ,0.0004411051308422387, ,0.002062744992851218,0.000550072677142939,-0.006025970874170087,0.04756634103040794,0.047798674820137506,0.010230674657370115, ,0.00639295094866355, ,0.06743344945675374, ,4.7927404203098886e-05, ,0.15518831710754152,-0.2398758058062875,0.09489620574,1.6060152771479719,0.1869187316791225,-1.200929679441102, ,0.02006702084129219,0.01103714643251543,0.006305942802850357,0.0026235489102640823,0.06863490855215133,-0.05824644958176695, ,1.2715060710906982
0.011654684156705602,0.021041192739679717,-0.08513059799134423, ,0.011933630500232951,0.020894536791368268,-0.08540284923077655, ,0.0004164610031141501, ,0.0023773499880793514,0.0005289533895955943,-0.006089528063614312,0.0029079242342958463,-0.0009478865583114843,-0.0006684867948779423, ,0.006558501100993415, ,0.003058513349017389, ,4.86550749113238e-05, ,0.1557520766073599,-0.23952056009407316,0.09510620472,1.6060152771479719,0.18719200467865343,-1.2012341939886353, ,0.018096289389487184,0.011343029542019451,0.006325977569499604,0.002586152273033934,0.016881883515050596,-0.013766482114385734, ,1.3047850131988525
0.011721124832783857,0.021048149408076137,-0.08528229426945627, ,0.01200131755829804,0.02090714456207952,-0.08557460599719473, ,0.0004287615610091904, ,0.002211055329735833,0.00013307324992630398,-0.004648751894969426,-0.010090244679660207,-0.015317384978132753,-0.0032655294155599503, ,0.005149501756673262, ,0.018342173210735634, ,4.9403003082503526e-05, ,0.15626949970993295,-0.23916531438185884,0.09526305581000001,1.6062249670914566,0.1874652776781843,-1.2014570297960283, ,0.017113966015955055,0.011700687500247104,0.004800726799276674,0.0018106348753140636,0.0013958534285665215,-0.001197434572307992, ,1.331470012664795
0.01176531693215604,0.021054312273157655,-0.0853860410584571, ,0.012069158525499188,0.020919128636119392,-0.08574517307796375, ,0.0004894590248459278, ,0.0023156765157523206,0.0006042515996820905,-0.005632807221276342,-0.006237914190240005,-0.011500365814998657,-0.002043836585361349, ,0.0061201303019942374, ,0.013083194627194348, ,5.0561126148042864e-05, ,0.15661702268927305,-0.23894135512850634,0.09537064788,1.6062249670914566,0.18773855067771517,-1.201843223083702, ,0.01687056738817258,0.009166263439028892,0.0058799599557032125,0.0018106348753140636,0.005062120497598544,-0.0025530264838617847, ,1.353532075881958
0.011817260328093328,0.02107039430221692,-0.08553899839218433, ,0.012137152197985255,0.02093049727615981,-0.08591456370072158, ,0.0005127877604811313, ,0.0027789641047067195,0.0013188460044728902,-0.009144959296158026,0.002158531205189353,-0.0003785599614590442,8.779671091933459e-05, ,0.009648433904377933, ,0.0021914608479580264, ,5.177418574135912e-05, ,0.1569491002028647,-0.23869422767653115,0.09552879526000001,1.6062249670914566,0.1878751871774806,-1.2018729622472581, ,0.016939832480983717,0.010784195872901869,0.009509738220895524,0.0018106348753140636,0.016480367623962416,-0.012575188885388121, ,1.374824047088623
0.011871999604589907,0.021094336511627357,-0.08572219799896255, ,0.012205297376935657,0.020941258704833838,-0.08608279101548183, ,0.0005143418547482069, ,0.0024679128016849845,0.001213017629166332,-0.008614196393216478,0.02687361928043556,0.028675301883880608,0.005554036196574812, ,0.009042476699792636, ,0.03929967307662014, ,5.295589770975438e-05, ,0.15732751411370172,-0.23844710022455595,0.09571934989000001,1.606434657034941,0.18869500617607327,-1.2025414696694365, ,0.01735496370857183,0.010493682016047416,0.008979036933483654,0.002705912274777577,0.04635096120885062,-0.03693265504640142, ,1.395967960357666
0.011930945095653876,0.021113869401036066,-0.08589215503329857, ,0.012273592868551756,0.020951421104813288,-0.08624986809481262, ,0.0005213018123844556, ,0.0029152517128085936,0.001073635417634259,-0.00819780360485409,0.0017836300655237306,-0.0036654887227087207,-0.0009075147749272852, ,0.008766719426489641, ,0.004076408561784011, ,5.41281637004568e-05, ,0.1577059280245387,-0.23819225003970657,0.09589564533000002,1.606434657034941,0.1888316426758387,-1.2026528875731328, ,0.020007788648212267,0.010944777700213426,0.008559275400322409,0.002705912274777577,0.01604105957882255,-0.012216962631418778, ,1.417362928390503
0.011994960129084213,0.021134084862359556,-0.08607020758273047, ,0.012342037484047602,0.020960992618886568,-0.08641580793401572, ,0.0005194836069476927, ,0.00343728870026752,0.00103595604919098,-0.008941664059785418,-0.0038553010440954424,-0.011591622018637048,-0.002129618351131076, ,0.009635430177366261, ,0.01221593181069774, ,5.5258652327866744e-05, ,0.15815384653124373,-0.23792195438910868,0.0960810148,1.606434657034941,0.18924155217513502,-1.2029871412842223, ,0.024103871363594303,0.013428179080015675,0.00933146544815466,0.002705912274777577,0.012130573005067232,-0.009020012454390039, ,1.438621997833252
0.012060340284329646,0.021148747642146085,-0.08623863152733245, ,0.012410630039637239,0.020969981350033102,-0.08658062345130414, ,0.0005211705823731193, ,0.0031079466925588795,0.0005600243687760773,-0.008176281882978708,0.006004776208120202,0.004745920567168665,0.0002962558203344093, ,0.008764961230224385, ,0.007653826676805384, ,5.6570071609746896e-05, ,0.15863265596944565,-0.23761304507413972,0.09625601395000001,1.6066443469784255,0.18965146167443137,-1.2033213949953114, ,0.023270461392464633,0.016480885994871616,0.008463768076514347,0.0031106060488636394,0.027862218667927464,-0.021864279275413605, ,1.4545459747314453
0.012136741139051655,0.02116163569177245,-0.08641937987176113, ,0.012479369356529983,0.020978395361504285,-0.08674432748798269, ,0.0005065195626402209, ,0.003907518700595414,0.0006156499290271488,-0.008450905591131536,-0.003961512519748823,-0.014814459431405191,0.005404085747805265, ,0.009330891304737842, ,0.015334984401198728, ,5.779930280613733e-05, ,0.1592118609350125,-0.23725007662905115,0.09644397600000001,1.6068540369219102,0.19006137117372765,-1.2037373274465413, ,0.030631679005316582,0.016636911212915634,0.008834615374376041,-0.004574069264522768,0.01725456777360185,-0.013206497195117668, ,1.470945119857788
0.012174942549924789,0.02116765054434274,-0.0865101859213932, ,0.012548254260917659,0.02098624267689811,-0.08690693280862498, ,0.0005741764018690927, ,0.003839719199545084,0.0006165786825877617,-0.010185433979986261,0.018409171758126334,0.018871408163207475,0.011799163073730901, ,0.010902599605774558, ,0.02636337499753356, ,5.924615657310729e-05, ,0.15952077024998146,-0.23706473104006978,0.09653860517000001,1.6068540369219102,0.19047128067302396,-1.2041532598977711, ,0.030106897702560524,0.0211634570826206,0.010548881801324505,-0.004574069264522768,0.05111098618424267,-0.04012180032981968, ,1.486755132675171
0.012218989401788944,0.021176934807346344,-0.08661730424891922, ,0.012617283583965395,0.020993531280236878,-0.08706845210125336, ,0.0006291339237217314, ,0.004328879338895877,0.0009545290207279246,-0.010351613283524535,0.003310159654720447,-0.005925263281068082,0.007596471621893152, ,0.01126082677043622, ,0.006787177839757056, ,6.085828319454447e-05, ,0.15983740229782467,-0.23687166271821417,0.09665008611,1.6068540369219102,0.1906079171727894,-1.2042646778014676, ,0.03296177198974323,0.018003593541732265,0.010821203478260872,-0.004574069264522768,0.02871009634266319,-0.021855376706792076, ,1.5025789737701416
0.012305297767606837,0.021192794028671507,-0.08682680827838452, ,0.012686456161801963,0.021000269116043812,-0.08722889797751693, ,0.000586535326809991, ,0.004479730578499742,0.0007874290483698234,-0.010999031516715033,-0.009406849541868075,-0.01638202501088667,0.004625117860370556, ,0.011902383159176688, ,0.018890722611391693, ,6.228570537555634e-05, ,0.1604706663935111,-0.2364700806087545,0.09686786283000001,1.6068540369219102,0.19101782667208575,-1.2045989315125567, ,0.03214666041953617,0.021402106801639776,0.011410323438395417,-0.004574069264522768,0.017200217762535896,-0.012469842494487215, ,1.5184879302978516
0.012399165623225768,0.021204685133085304,-0.08703705315716642, ,0.012755770835510851,0.02100646408942116,-0.08738828297287067, ,0.0005383504834397681, ,0.004636814932291122,0.00046391879640705533,-0.009591002511757282,-0.0017384658031933259,-0.01239960645967653,0.006562409385058595, ,0.010663142245441171, ,0.01252087946383314, ,6.351470316336437e-05, ,0.16121204874943665,-0.23602216210204946,0.09708693584000001,1.6068540369219102,0.19170100917091293,-1.2051560210310388, ,0.037243697628913185,0.02125827543872553,0.010018120452830188,-0.004574069264522768,0.026460946989081514,-0.02002134622074756, ,1.5342819690704346
0.01244675438152606,0.021207032495214554,-0.0871306935643817, ,0.012825226451121241,0.02101212406612742,-0.08754661954675419, ,0.0005951678973242696, ,0.004818931719645737,0.00017214778403916897,-0.00992563182156173,-0.013621504297708312,-0.022338772757221934,0.0038694589791312965, ,0.011034940182681384, ,0.02616421317935625, ,6.514018403488362e-05, ,0.1615750171945252,-0.23579048011582274,0.09718415759000001,1.6068540369219102,0.19170100917091293,-1.2051560210310388, ,0.037597837384497144,0.025238548286827336,0.010283286972240156,-0.004574069264522768,0.01667803670240724,-0.012044038853663671, ,1.545496940612793
0.012498824102840417,0.02121015431713963,-0.08724032605462678, ,0.012894821859596582,0.021017256872653132,-0.08770392008277038, ,0.0006394865677836726, ,0.005036313423269479,0.0005175204039251735,-0.010817810531053032,-0.009889940300402416,-0.01975284552013317,-0.004031846703406625, ,0.011943923348366109, ,0.022090397849278475, ,6.689606748217294e-05, ,0.16199976750260753,-0.2355279071980991,0.09729823111000001,1.6066443469784255,0.19211091867020927,-1.205490274742128, ,0.03843537527682089,0.024000238128090736,0.01125711061484099,0.004159015427660934,0.018086155599256266,-0.01319226539570451, ,1.5567779541015625
0.012547853670186335,0.02121737716879831,-0.08735835692865646, ,0.01296455591682474,0.02102187029629827,-0.08786019688886383, ,0.000680960384463871, ,0.005144836934900328,0.0009639628884087425,-0.012689231303270584,0.03905652647801521,0.035855264226407134,0.006024511101193444, ,0.013726440274333547, ,0.05301897683177238, ,6.876993135032201e-05, ,0.1624013496120672,-0.2352807797461239,0.09742137866000002,1.6068540369219102,0.19279410116903647,-1.2060473642606102, ,0.04217641847043145,0.024189890787272697,0.013274009600000001,0.006655425407245508,0.07804287827635042,-0.06208295247168567, ,1.567392110824585
0.012602993837076555,0.021228333691970396,-0.08749792129793167, ,0.013034427483611978,0.02102597208525129,-0.08801546219750048, ,0.0007035153118186403, ,0.005886392610340233,0.0013157047996600905,-0.015483815868409516,0.0044909656847949226,-0.0006510078058843815,-0.005993969541906121, ,0.016617137266380363, ,0.004537807173664499, ,7.069501791194783e-05, ,0.16280293172152688,-0.23501820682840027,0.09756656314,1.6070637268653947,0.19320401066833282,-1.2063816179716995, ,0.04125953980803077,0.027658683054057352,0.01608970860606061,0.010101402686675216,0.03904873418558069,-0.030285842632893856, ,1.577920913696289
0.012665648127773863,0.02124421861047142,-0.08766234121734587, ,0.01310443542566958,0.02102956994866399,-0.088169728165845, ,0.000704308069183933, ,0.006317741565565229,0.0018015936069394702,-0.01692691216971088,-0.011554122056735432,-0.021661154427950642,-0.010258255088326274, ,0.018157091000899402, ,0.024549988962461695, ,7.259676802465067e-05, ,0.16322768202960924,-0.23474791117780242,0.09773767342,1.6070637268653947,0.19347728366786368,-1.2066044537790923, ,0.04108092708158908,0.026113632789892892,0.01762036672566372,0.010101402686675216,0.01743138646999711,-0.012658345074908659, ,1.5892350673675537
0.012730204233738013,0.021262408929576204,-0.08783645168658201, ,0.013174578613605752,0.021032671556729516,-0.08832300687594104, ,0.0006978422474008975, ,0.006500567830741041,0.0017388698151462488,-0.01720439844488551,-0.004179905255749078,-0.013576800989509082,-0.008266896727608325, ,0.018473558839770723, ,0.014205619513542673, ,7.445129390166945e-05, ,0.16366787780344003,-0.23447761552720456,0.09791915402000001,1.6070637268653947,0.19388719316716,-1.2069387074901816, ,0.04351074807816175,0.02748246207890842,0.017917673250843646,0.010101402686675216,0.028158113971271985,-0.02140527209489581, ,1.5998399257659912
0.012790873703883075,0.021276120742118515,-0.087998717871166, ,0.01324485592291598,0.021035284540759584,-0.08847531033488878, ,0.0007008868008176425, ,0.006239779621477266,0.0011009425429109928,-0.015432762035758558,0.007704894427043929,0.0013876105079220422,-0.004483230459021006, ,0.016682837536215023, ,0.007828792092646952, ,7.629124127838379e-05, ,0.16408490537864814,-0.23419187441085826,0.09808767172,1.6070637268653947,0.19429710266645633,-1.2072729612012707, ,0.0454487268000339,0.029664564413401307,0.01605726967741936,0.009526839327162485,0.04553488322362344,-0.03557486225884939, ,1.610361099243164
0.01290679111802729,0.02128933077445281,-0.08825872010283572, ,0.013315266233973217,0.021037416493261393,-0.08862665047502438, ,0.0006047193433272249, ,0.006213229724713711,0.0005769803659811492,-0.012986286940529508,0.0001288863125266888,-0.012075590069024152,1.4696026542042892e-05, ,0.014407663879219317, ,0.012076262578208452, ,7.778838320146478e-05, ,0.16497301965918398,-0.2336358376439141,0.09835859633,1.6070637268653947,0.19511692166504896,-1.2079414686234493, ,0.04856547674435557,0.02862652837359601,0.013935968083989503,0.008496383281497736,0.04196624814186287,-0.032664879636710845, ,1.6250801086425781
0.01290679111802729,0.02128933077445281,-0.08825872010283572, ,0.013385808432018444,0.021039074968014878,-0.08877703915409804, ,0.0007488258773978554, ,0.006213229724713711,0.0005769803659811492,-0.012986286940529508,0.0001288863125266888,-0.012075590069024152,1.4696026542042892e-05, ,0.014407663879219317, ,0.012076262578208452, ,8.00030283968324e-05, ,0.16497301965918398,-0.2336358376439141,0.09835859633,1.6070637268653947,0.19511692166504896,-1.2079414686234493, ,0.04856547674435557,0.02862652837359601,0.013935968083989503,0.008496383281497736,0.04196624814186287,-0.032664879636710845, ,1.6304099559783936
0.012976538240656123,0.021292026861799224,-0.08839418077074598, ,0.013456481407151158,0.021040267480149852,-0.0889264881554536, ,0.0007596574103686636, ,0.005986498636541115,-0.00016318013467812062,-0.010740970159338906,-0.011923916607587834,-0.02444443841736042,-0.0028918657876439366, ,0.012297692208112505, ,0.027197614120430563, ,8.223873360068711e-05, ,0.16552133369325392,-0.23329603739744822,0.09849989194000001,1.6072734168088794,0.19539019466457985,-1.2081643044308423, ,0.04869006750049809,0.030810695311191814,0.011185963146067417,0.0029642701568957236,0.02404536870875193,-0.018051604104468596, ,1.6357309818267822
0.012976538240656123,0.021292026861799224,-0.08839418077074598, ,0.01352728405431948,0.02104100150622295,-0.08907500918820682, ,0.0009109676253479803, ,0.005986498636541115,-0.00016318013467812062,-0.010740970159338906,-0.011923916607587834,-0.02444443841736042,-0.0028918657876439366, ,0.012297692208112505, ,0.027197614120430563, ,0.00046270611857065824, ,0.16552133369325392,-0.23329603739744822,0.09849989194000001,1.6072734168088794,0.19539019466457985,-1.2081643044308423, ,0.04869006750049809,0.030810695311191814,0.011185963146067417,0.0029642701568957236,0.02404536870875193,-0.018051604104468596, ,1.641021966934204
0.013040793136994949,0.021289476555852456,-0.08851910021626651, ,0.013598215273311265,0.021041284484295247,-0.08922261388742372, ,0.0009312627061921936, ,0.007061925496689621,0.00012470831716242248,-0.015303693697543263,-0.0036127298858464234,-0.009460812406844953,-6.305392535832749e-05, ,0.016854951339988787, ,0.010127089868353695, ,0.0004709264095815624, ,0.1660542022615754,-0.23293306895235966,0.09862952094,1.6072734168088794,0.1959367406636416,-1.208609976045628, ,0.054041538472933255,0.03947460131383976,0.015833808667992052,0.0029642701568957236,0.044780555464967425,-0.03495975855146702, ,1.6462831497192383
0.013040793136994949,0.021289476555852456,-0.08851910021626651, ,0.013669273968743786,0.02104112381400897,-0.08936931381430008, ,0.0010860618778587505, ,0.007061925496689621,0.00012470831716242248,-0.015303693697543263,-0.0036127298858464234,-0.009460812406844953,-6.305392535832749e-05, ,0.016854951339988787, ,0.010127089868353695, ,0.00048153219351737596, ,0.1660542022615754,-0.23293306895235966,0.09862952094,1.6072734168088794,0.1959367406636416,-1.208609976045628, ,0.054041538472933255,0.03947460131383976,0.015833808667992052,0.0029642701568957236,0.044780555464967425,-0.03495975855146702, ,1.6521210670471191
0.013104700253643572,0.021297046679155572,-0.08868400929202587, ,0.013740459050053099,0.02104052685666383,-0.08951512045633948, ,0.0010773752521707632, ,0.007635606330642163,0.0016503655511622885,-0.02162181876728073,0.07117677522331115,0.07528333863901847,0.01834860304090412, ,0.022989763750289802, ,0.10360361809406883, ,0.0004916312284098062, ,0.16654845716552577,-0.23257782324014534,0.09880063122,1.6072734168088794,0.19689319616199968,-1.2093082226313623, ,0.05740891806320072,0.039359992351087,0.022498321355932206,0.0029642701568957236,0.13458967899548005,-0.10987996346695363, ,1.6574771404266357
0.01315817100038978,0.02131083752439125,-0.08883704553843791, ,0.013811769431487552,0.02103950093529629,-0.08966004522753283, ,0.0010854229323012748, ,0.008839938498629782,0.0026462708327251515,-0.0257405151503338,0.06776049072727773,0.0661639953340556,0.01738959017039656, ,0.027344494549803856, ,0.09470558104972139, ,0.0005015277568079973, ,0.166934593809237,-0.23232297305529592,0.09896007489000001,1.6072734168088794,0.19771301516059234,-1.209976730053541, ,0.06239115158347849,0.03932736906691702,0.02686140222596965,0.0029642701568957236,0.13034936912112308,-0.10642433353825104, ,1.662804126739502
0.01315817100038978,0.02131083752439125,-0.08883704553843791, ,0.013883204032094733,0.021038053334754305,-0.08980409946853597, ,0.0012390631198196762, ,0.008839938498629782,0.0026462708327251515,-0.0257405151503338,0.06776049072727773,0.0661639953340556,0.01738959017039656, ,0.027344494549803856, ,0.09470558104972139, ,0.0005136185004639266, ,0.166934593809237,-0.23232297305529592,0.09896007489000001,1.6072734168088794,0.19771301516059234,-1.209976730053541, ,0.06239115158347849,0.03932736906691702,0.02686140222596965,0.0029642701568957236,0.13034936912112308,-0.10642433353825104, ,1.6681389808654785
0.013295624125307102,0.021353348547811263,-0.08921664991832053, ,0.013954761775714471,0.021036191301776287,-0.08994729444684975, ,0.0010338726168956829, ,0.009938660207426711,0.002990353311693708,-0.027390638484465733,-0.006661018494661535,-0.02085072149618063,-0.00899793119840546, ,0.029291061029504205, ,0.021888497822151118, ,0.0005220096958902452, ,0.1678458762883955,-0.231774659021226,0.09935673963000001,1.607692796695848,0.19880610715871586,-1.210868073283112, ,0.06178186299379608,0.039722453561519794,0.028546257204301078,0.010863892004384389,0.03919606194580377,-0.030833843635518738, ,1.6734390258789062
0.013295624125307102,0.021353348547811263,-0.08921664991832053, ,0.014026441590968133,0.0210339220450675,-0.0900896413569976, ,0.0011824726258031451, ,0.009938660207426711,0.002990353311693708,-0.027390638484465733,-0.006661018494661535,-0.02085072149618063,-0.00899793119840546, ,0.029291061029504205, ,0.021888497822151118, ,0.0005324932344602912, ,0.1678458762883955,-0.231774659021226,0.09935673963000001,1.607692796695848,0.19880610715871586,-1.210868073283112, ,0.06178186299379608,0.039722453561519794,0.028546257204301078,0.010863892004384389,0.03919606194580377,-0.030833843635518738, ,1.6786930561065674
0.013416852114627025,0.021379223794975796,-0.08953660806014005, ,0.014098242411248322,0.021031252735376562,-0.09023115132070492, ,0.0010333280870296474, ,0.012713209381309149,0.0025474036883518965,-0.03304384447197743,-0.04210967501374106,-0.06090096393734248,-0.016226777820537778, ,0.03549662823160348, ,0.07404129079233579, ,0.0005403187790316874, ,0.1686027041100695,-0.23121862225428183,0.09968858987000001,1.607692796695848,0.19907938015824675,-1.2110092303503646, ,0.07875264859624131,0.058759716135276016,0.034255508645161296,0.009969529371673922,0.015855397857113606,-0.014229840430639669, ,1.6839311122894287
0.013416852114627025,0.021379223794975796,-0.08953660806014005, ,0.014170163174710778,0.02102819050557381,-0.09037183538707738, ,0.001178264236568253, ,0.012713209381309149,0.0025474036883518965,-0.03304384447197743,-0.04210967501374106,-0.06090096393734248,-0.016226777820537778, ,0.03549662823160348, ,0.07404129079233579, ,0.00055013332453225, ,0.1686027041100695,-0.23121862225428183,0.09968858987000001,1.607692796695848,0.19907938015824675,-1.2110092303503646, ,0.07875264859624131,0.058759716135276016,0.034255508645161296,0.009969529371673922,0.015855397857113606,-0.014229840430639669, ,1.6892540454864502
0.013479811365389522,0.021395617022963248,-0.08971734274655137, ,0.01424220282426432,0.021024742450727912,-0.0905117045327801, ,0.0011618086470312067, ,0.0120249881827161,0.003357219398802007,-0.0344189122333394,0.06777747341661178,0.06045595335793585,0.010623055253071558, ,0.03661328696269259, ,0.09082213328735612, ,0.0005594011324489009, ,0.16901973168527762,-0.23092515840506128,0.09987655192000001,1.607692796695848,0.19976256265707393,-1.2115663198688467, ,0.08076335451784747,0.05355357875760201,0.035875701621621625,0.009538785691874432,0.14167025362894045,-0.11937981919501421, ,1.6945409774780273
0.013479811365389522,0.021395617022963248,-0.08971734274655137, ,0.014314360307559847,0.021020915628182247,-0.09065076966221616, ,0.0013069655232698103, ,0.0120249881827161,0.003357219398802007,-0.0344189122333394,0.06777747341661178,0.06045595335793585,0.010623055253071558, ,0.03661328696269259, ,0.09082213328735612, ,0.0005705588099238398, ,0.16901973168527762,-0.23092515840506128,0.09987655192000001,1.607692796695848,0.19976256265707393,-1.2115663198688467, ,0.08076335451784747,0.05355357875760201,0.035875701621621625,0.009538785691874432,0.14167025362894045,-0.11937981919501421, ,1.6998820304870605
0.013655640395403715,0.02144241107385539,-0.09019460503581962, ,0.014386634576983207,0.021016717057633517,-0.09078904160770528, ,0.0010338871925627794, ,0.012688495631296282,0.0022160859886951934,-0.031095588429106556,0.05442439453417606,0.036814663643744715,0.014925453877633905, ,0.033657756583692584, ,0.06570620295179634, ,0.0005773724626097066, ,0.1702399234794051,-0.23018377604913573,0.10037562357000002,1.6079024866393328,0.20181211015355555,-1.213237588424293, ,0.0921329529693891,0.056926779579166635,0.0325077786122449,0.0019167126788110754,0.13090701722839732,-0.11055494622904663, ,1.7052431106567383
0.013655640395403715,0.02144241107385539,-0.09019460503581962, ,0.014459024589643254,0.021012153721207395,-0.09092653112966231, ,0.0011688726876394164, ,0.012688495631296282,0.0022160859886951934,-0.031095588429106556,0.05442439453417606,0.036814663643744715,0.014925453877633905, ,0.033657756583692584, ,0.06570620295179634, ,0.0005859449296391227, ,0.1702399234794051,-0.23018377604913573,0.10037562357000002,1.6079024866393328,0.20181211015355555,-1.213237588424293, ,0.0921329529693891,0.056926779579166635,0.0325077786122449,0.0019167126788110754,0.13090701722839732,-0.11055494622904663, ,1.7105789184570312
0.013784726521458996,0.021455111828282487,-0.09048273743833996, ,0.014531529307363917,0.021007232563536718,-0.09106324891677652, ,0.001046567634422717, ,0.01347505969901237,0.0008122391693251014,-0.028363450372144022,-0.023273067427561616,-0.046163090514698794,-0.002323752219107594, ,0.031412135925040344, ,0.051697661810054245, ,0.000592525253993174, ,0.1711898196229347,-0.229573680152072,0.10067636285,1.6079024866393328,0.20276856565191362,-1.214180871230449, ,0.09733019647022642,0.06459968792271667,0.02955252601113173,0.0019167126788110754,0.05170228182348132,-0.040203657187042496, ,1.715852975845337
0.013784726521458996,0.021455111828282487,-0.09048273743833996, ,0.014604147696673706,0.02100196049183813,-0.09119920558618998, ,0.0011790351152511124, ,0.01347505969901237,0.0008122391693251014,-0.028363450372144022,-0.023273067427561616,-0.046163090514698794,-0.002323752219107594, ,0.031412135925040344, ,0.051697661810054245, ,0.0006007859562644125, ,0.1711898196229347,-0.229573680152072,0.10067636285,1.6079024866393328,0.20276856565191362,-1.214180871230449, ,0.09733019647022642,0.06459968792271667,0.02955252601113173,0.0019167126788110754,0.05170228182348132,-0.040203657187042496, ,1.7211859226226807
0.013925111284126532,0.021456637587355692,-0.09076967273303492, ,0.01467687872879693,0.020996344375989726,-0.09133441168367613, ,0.001046878318462654, ,0.01334472572837878,-0.00055328152047721,-0.02593989466102037,-0.027978977200912768,-0.04472389932704324,-0.011728457998979255, ,0.02917646243517862, ,0.052754512523088375, ,0.0006069816835171659, ,0.17221694309520658,-0.2288477432618949,0.10097450955000001,1.6081121765828172,0.20331511165097538,-1.2146265428452345, ,0.09999677719543813,0.07266228296973261,0.02690677621621622,0.010648630473560865,0.05386923132401409,-0.04197065920465738, ,1.7265949249267578
0.01405567583517954,0.02144827116451261,-0.09100977047028137, ,0.01474972137964229,0.020990391048606852,-0.09146887768381909, ,0.0009498067444763861, ,0.012973461938444354,-0.0010173298957781066,-0.02230493841921166,0.022954599668683635,0.0043274880083108425,-0.004474540575651064, ,0.025823554222258648, ,0.023358837247856253, ,0.0006116779172289361, ,0.17325951203322687,-0.22813725183746625,0.10122469352,1.608321866526302,0.20427156714933348,-1.2154064681711096, ,0.10771503014582383,0.0686167328694655,0.02335602862170088,0.015596482975450023,0.11056559731868747,-0.0882027440222263, ,1.7321290969848633
0.01405567583517954,0.02144827116451261,-0.09100977047028137, ,0.01482267462979551,0.020984107305120885,-0.09160261399019136, ,0.00107480169259591, ,0.012973461938444354,-0.0010173298957781066,-0.02230493841921166,0.022954599668683635,0.0043274880083108425,-0.004474540575651064, ,0.025823554222258648, ,0.023358837247856253, ,0.000617936346625787, ,0.17325951203322687,-0.22813725183746625,0.10122469352,1.608321866526302,0.20427156714933348,-1.2154064681711096, ,0.10771503014582383,0.0686167328694655,0.02335602862170088,0.015596482975450023,0.11056559731868747,-0.0882027440222263, ,1.7377440929412842
0.01419094837455966,0.021428360511042896,-0.09123126138524888, ,0.014895737464508849,0.020977499903855615,-0.09173563093553376, ,0.0009769296759128878, ,0.013041033034925617,-0.002833292882163096,-0.020566176129592138,0.007710997458998659,-0.00040951888050051147,-0.006921691281049672, ,0.024516600330542218, ,0.007721626007813166, ,0.0006227229243496151, ,0.17435614010136677,-0.22738814674866648,0.10144765540000002,1.608321866526302,0.205364659147457,-1.2162978114006808, ,0.11047373871766097,0.08251907961606154,0.02149637182186235,0.015180914273414458,0.1091717502269221,-0.08706615518026645, ,1.7430460453033447
0.01419094837455966,0.021428360511042896,-0.09123126138524888, ,0.014968908873691086,0.020970575566104266,-0.09186793878193325, ,0.0011046029610090981, ,0.013041033034925617,-0.002833292882163096,-0.020566176129592138,0.007710997458998659,-0.00040951888050051147,-0.006921691281049672, ,0.024516600330542218, ,0.007721626007813166, ,0.0006290634511477662, ,0.17435614010136677,-0.22738814674866648,0.10144765540000002,1.608321866526302,0.205364659147457,-1.2162978114006808, ,0.11047373871766097,0.08251907961606154,0.02149637182186235,0.015180914273414458,0.1091717502269221,-0.08706615518026645, ,1.7483599185943604
0.014318088634595471,0.02140106980371292,-0.0914310982915804, ,0.015042187851898056,0.020963340976206658,-0.09199954772100197, ,0.0010193433949057247, ,0.013955057601555245,-0.0027252948781002046,-0.02208199427499428,0.0265175118209755,0.015001709347745735,0.020904576045472217, ,0.026263764695797217, ,0.030466776431729993, ,0.0006341320218459215, ,0.17549138183387775,-0.2265540915982502,0.10166283954000001,1.6085315564697864,0.20659438764534596,-1.2173005725339487, ,0.12027495761529881,0.0849569754328297,0.02298529800865801,-0.008114273418116113,0.13963475791069851,-0.11190669531588857, ,1.754302978515625
0.014318088634595471,0.02140106980371292,-0.0914310982915804, ,0.015115573398324087,0.02095580278162682,-0.09213046787405597, ,0.0011503749311545203, ,0.013955057601555245,-0.0027252948781002046,-0.02208199427499428,0.0265175118209755,0.015001709347745735,0.020904576045472217, ,0.026263764695797217, ,0.030466776431729993, ,0.0006407505206832111, ,0.17549138183387775,-0.2265540915982502,0.10166283954000001,1.6085315564697864,0.20659438764534596,-1.2173005725339487, ,0.12027495761529881,0.0849569754328297,0.02298529800865801,-0.008114273418116113,0.13963475791069851,-0.11190669531588857, ,1.7597410678863525
0.01434796159903191,0.02139566579555421,-0.09147836563546136, ,0.015189064516790736,0.020947967593029457,-0.09226070929229374, ,0.0012328622778689327, ,0.014235083036110575,-0.0026100071161531966,-0.022296250768675734,0.022262561187633655,0.007208199656834759,0.019768653606751688, ,0.026581431950348473, ,0.02340030475932884, ,0.0006482456062172076, ,0.17574623201872716,-0.22637646874214304,0.10171209856,1.6085315564697864,0.20686766064487683,-1.2175234083413415, ,0.1221324859182378,0.08427792323132396,0.023253739445255477,-0.008114273418116113,0.1335802834337991,-0.1069696773495498, ,1.7664151191711426
0.01434796159903191,0.02139566579555421,-0.09147836563546136, ,0.015262660215738497,0.020939841984357603,-0.09239028195697531, ,0.0013696861989894926, ,0.014235083036110575,-0.0026100071161531966,-0.022296250768675734,0.022262561187633655,0.007208199656834759,0.019768653606751688, ,0.026581431950348473, ,0.02340030475932884, ,0.0006572636136268612, ,0.17574623201872716,-0.22637646874214304,0.10171209856,1.6085315564697864,0.20686766064487683,-1.2175234083413415, ,0.1221324859182378,0.08427792323132396,0.023253739445255477,-0.008114273418116113,0.1335802834337991,-0.1069696773495498, ,1.7717859745025635
0.014636036622535601,0.021348246751228546,-0.09190807360154181, ,0.01533635950821614,0.020931432492909137,-0.09251919577960036, ,0.0010186543018420417, ,0.015913353845730244,-0.003030491594549947,-0.02323741130622657,-0.07713948353418006,-0.10641630907713052,-0.0036676478342575446, ,0.028326595173772687, ,0.13143410509475972, ,0.0006617252270616164, ,0.17807849734674297,-0.2247855857700528,0.10216061490000002,1.6085315564697864,0.20782411614323493,-1.218221654927076, ,0.12619274143413667,0.09029204715363537,0.024171185918057666,-0.008114273418116113,0.02202254487783699,-0.013184865907359438, ,1.7773690223693848
0.014790951390987793,0.021316829071837403,-0.0921414058009557, ,0.01541016141187286,0.02092274561941505,-0.09264746060208778, ,0.0008915235718624829, ,0.01543513188706611,-0.003321104292638232,-0.022875731903873087,-0.05355779173818718,-0.08084258440778536,-0.017254875132582143, ,0.02779518196075683, ,0.0969739874670816, ,0.0006645276459006515, ,0.1793218573394931,-0.2238743032908943,0.10240302113000001,1.608321866526302,0.2083706621422967,-1.2186673265418617, ,0.12292349942807097,0.09222248936683264,0.023738914336810735,0.009194333867828745,0.04072183299718856,-0.03571522513477862, ,1.7830889225006104
0.014790951390987793,0.021316829071837403,-0.0921414058009557, ,0.015484064948946294,0.020913787828115128,-0.09277508619695368, ,0.0010219586550537403, ,0.01543513188706611,-0.003321104292638232,-0.022875731903873087,-0.05355779173818718,-0.08084258440778536,-0.017254875132582143, ,0.02779518196075683, ,0.0969739874670816, ,0.0006688340436012911, ,0.1793218573394931,-0.2238743032908943,0.10240302113000001,1.608321866526302,0.2083706621422967,-1.2186673265418617, ,0.12292349942807097,0.09222248936683264,0.023738914336810735,0.009194333867828745,0.04072183299718856,-0.03571522513477862, ,1.7883529663085938
0.014939124269462785,0.021285819655680743,-0.09237624666335592, ,0.015558069146254669,0.020904565546836146,-0.09290208226749008, ,0.0008971903580583928, ,0.014914001270809824,-0.0026994701225569583,-0.023784653774471257,0.043507045391437765,0.02829458498012481,0.005928694426693218, ,0.028203268037937813, ,0.05189835186348599, ,0.0006715525711543519, ,0.18058838553086592,-0.22296302081173583,0.10264801994000002,1.608321866526302,0.21001030013948196,-1.2200043413862187, ,0.12585801267701696,0.08770512158823549,0.024888768000000002,0.009194333867828745,0.1547289009987347,-0.12868034459490452, ,1.793632984161377
0.014939124269462785,0.021285819655680743,-0.09237624666335592, ,0.015632173035187213,0.02089508516706892,-0.09302845844794407, ,0.0010287712302638277, ,0.014914001270809824,-0.0026994701225569583,-0.023784653774471257,0.043507045391437765,0.02829458498012481,0.005928694426693218, ,0.028203268037937813, ,0.05189835186348599, ,0.0006757551436144633, ,0.18058838553086592,-0.22296302081173583,0.10264801994000002,1.608321866526302,0.21001030013948196,-1.2200043413862187, ,0.12585801267701696,0.08770512158823549,0.024888768000000002,0.009194333867828745,0.1547289009987347,-0.12868034459490452, ,1.799834966659546
0.015000357619006033,0.021275242920963906,-0.09247280587729037, ,0.01570637565169306,0.020885353044044697,-0.09315422430369658, ,0.0010558440464619966, ,0.015383303534400077,-0.002658409376721059,-0.024090229128555733,0.022484711841034226,0.009611798873503462,-0.0021834510578057327, ,0.02870631128361914, ,0.024452828685574163, ,0.0006801747820196672, ,0.18109808590056475,-0.22260777509952148,0.10274913056000001,1.6085315564697864,0.21055684613854375,-1.220531691741145, ,0.12823911021414972,0.0880305580319766,0.02524375835182251,0.014111916373051933,0.13712693571815485,-0.10701896286541278, ,1.805124044418335
0.015000357619006033,0.021275242920963906,-0.09247280587729037, ,0.015780676036273318,0.020875375496813064,-0.09327938933144025, ,0.00119137217431494, ,0.015383303534400077,-0.002658409376721059,-0.024090229128555733,0.022484711841034226,0.009611798873503462,-0.0021834510578057327, ,0.02870631128361914, ,0.024452828685574163, ,0.0006860506141150151, ,0.18109808590056475,-0.22260777509952148,0.10274913056000001,1.6085315564697864,0.21055684613854375,-1.220531691741145, ,0.12823911021414972,0.0880305580319766,0.02524375835182251,0.014111916373051933,0.13712693571815485,-0.10701896286541278, ,1.810405969619751
0.015261620569383214,0.02123258076410946,-0.09287616066420037, ,0.015855073233970927,0.020865158808318993,-0.093403962959359, ,0.0008750772660044729, ,0.016200027629697262,-0.002678491596656363,-0.02372099882159295,-0.050477752388077696,-0.07950346036835554,-0.025417577389378155, ,0.028849627337806768, ,0.094174286226463, ,0.0006881986442501225, ,0.1831986692423538,-0.2211559013191673,0.10317172110000002,1.6089509363567556,0.21205984763596358,-1.2217572886818058, ,0.12754965263235318,0.08682245339292843,0.024888768000000002,0.01930286572752602,0.04462126506076739,-0.031586791210174194, ,1.815709114074707
0.015261620569383214,0.02123258076410946,-0.09287616066420037, ,0.01592956629436027,0.020854709225479533,-0.09352795454730692, ,0.0010068632763572134, ,0.016200027629697262,-0.002678491596656363,-0.02372099882159295,-0.050477752388077696,-0.07950346036835554,-0.025417577389378155, ,0.028849627337806768, ,0.094174286226463, ,0.0006917791457344719, ,0.1831986692423538,-0.2211559013191673,0.10317172110000002,1.6089509363567556,0.21205984763596358,-1.2217572886818058, ,0.12754965263235318,0.08682245339292843,0.024888768000000002,0.01930286572752602,0.04462126506076739,-0.031586791210174194, ,1.8209710121154785
0.015420988418099088,0.021204829997565493,-0.09310699534611452, ,0.0160041542715385,0.02084403295926119,-0.09365137338698534, ,0.000875559459345409, ,0.0156960912197862,-0.002818562187823267,-0.023141550986365843,-0.03163937589635494,-0.054551296285400036,-0.021020935357550213, ,0.02810414479113439, ,0.06306256731749497, ,0.0006938211492190378, ,0.18446519743372664,-0.22029867797012836,0.10341412733000001,1.6089509363567556,0.21260639363502531,-1.2222029602965914, ,0.12486439678746157,0.08642708702957265,0.024281724878048784,0.01930286572752602,0.06728198970383914,-0.050065092691163195, ,1.8262290954589844
0.015420988418099088,0.021204829997565493,-0.09310699534611452, ,0.016078836224116093,0.020833136184757343,-0.09377422870212399, ,0.0010080279647573746, ,0.0156960912197862,-0.002818562187823267,-0.023141550986365843,-0.03163937589635494,-0.054551296285400036,-0.021020935357550213, ,0.02810414479113439, ,0.06306256731749497, ,0.0006972739713678107, ,0.18446519743372664,-0.22029867797012836,0.10341412733000001,1.6089509363567556,0.21260639363502531,-1.2222029602965914, ,0.12486439678746157,0.08642708702957265,0.024281724878048784,0.01930286572752602,0.06728198970383914,-0.050065092691163195, ,1.8316271305084229
0.01557892893230039,0.021176164758265444,-0.09335565374742358, ,0.01615361121520608,0.0208220250412648,-0.09389652964865756, ,0.0008649979225285274, ,0.014527896376260958,-0.002554413210590973,-0.023774602266921147,0.019131802610632152,0.01300026392557112,-0.00908202617144941, ,0.02797885832052677, ,0.023130610402515836, ,0.0006990970577934707, ,0.18573944835797368,-0.21939511822384408,0.10367468162000001,1.6089509363567556,0.21383612213291428,-1.223205721429859, ,0.11643796510241813,0.08450306461128297,0.024888768000000002,0.01930286572752602,0.12741046579423226,-0.09909583315913935, ,1.8370440006256104
0.01557892893230039,0.021176164758265444,-0.09335565374742358, ,0.01622847831241587,0.020810705632361624,-0.09401828531490566, ,0.0009972739664397907, ,0.014527896376260958,-0.002554413210590973,-0.023774602266921147,0.019131802610632152,0.01300026392557112,-0.00908202617144941, ,0.02797885832052677, ,0.023130610402515836, ,0.0007023032611122485, ,0.18573944835797368,-0.21939511822384408,0.10367468162000001,1.6089509363567556,0.21383612213291428,-1.223205721429859, ,0.11643796510241813,0.08450306461128297,0.024888768000000002,0.01930286572752602,0.12741046579423226,-0.09909583315913935, ,1.8426110744476318
0.01571169142338911,0.021151060384929737,-0.09356735854746048, ,0.016303436587836673,0.020799184025983648,-0.09413950472175081, ,0.0008951706856165979, ,0.013902873458554517,-0.0029111232476712965,-0.021328927511349856,0.006231129574750257,-0.001586724353826594,-0.010839743612173519, ,0.025625918086034084, ,0.006429638856315328, ,0.0007043550422239968, ,0.18680518549461667,-0.21862284493642165,0.10389634721,1.6089509363567556,0.21492921413103783,-1.2240970646594305, ,0.11243713454795115,0.08201982848614588,0.022340549116409536,0.017661222925157014,0.10885918020709039,-0.08396850367879374, ,1.8487939834594727
0.01585504274510354,0.021121216383766007,-0.09377842411419154, ,0.016378485118033886,0.02078746625450184,-0.0942601968228181, ,0.0007858027801809831, ,0.013783690342910023,-0.0027376450839694125,-0.02013198398923946,-0.009151072754033214,-0.024237222973859798,-0.012535856848244415, ,0.02455161093325664, ,0.02590717667064873, ,0.0007052123868340703, ,0.18796359542575033,-0.21780423525175385,0.1041180128,1.6089509363567556,0.2158856696293959,-1.224795311245165, ,0.11073155374383986,0.0771519850068868,0.02118193021276596,0.01530862756406484,0.0846100424126766,-0.06412623454189438, ,1.854079008102417
0.01585504274510354,0.021121216383766007,-0.09377842411419154, ,0.016453622984038727,0.020775558314799856,-0.09438037050465271, ,0.000916579107373904, ,0.013783690342910023,-0.0027376450839694125,-0.02013198398923946,-0.009151072754033214,-0.024237222973859798,-0.012535856848244415, ,0.02455161093325664, ,0.02590717667064873, ,0.0007074141235063602, ,0.18796359542575033,-0.21780423525175385,0.1041180128,1.6089509363567556,0.2158856696293959,-1.224795311245165, ,0.11073155374383986,0.0771519850068868,0.02118193021276596,0.01530862756406484,0.0846100424126766,-0.06412623454189438, ,1.8593230247497559
0.015992492751791577,0.021093880724905832,-0.09398056262446104, ,0.016528849271336774,0.020763466168350366,-0.09450003458689915, ,0.0008165189618139203, ,0.013910474595881385,-0.0026513850519336375,-0.0210489761987519,-0.00376703754832504,-0.024010462367590593,-0.004150226568268351, ,0.025369086408302183, ,0.02430408901908514, ,0.0007085389156538609, ,0.18906022349389023,-0.2170319619643314,0.10433060436000001,1.6091606263002398,0.21670548862798855,-1.2253004611870624, ,0.10983442310008192,0.0778481883170392,0.022123349333333337,0.006331037606151117,0.08583811890748283,-0.07180700436139421, ,1.864522933959961
0.015992492751791577,0.021093880724905832,-0.09398056262446104, ,0.01660416306986039,0.020751195741293065,-0.09461919782248034, ,0.0009483820391325572, ,0.013910474595881385,-0.0026513850519336375,-0.0210489761987519,-0.00376703754832504,-0.024010462367590593,-0.004150226568268351, ,0.025369086408302183, ,0.02430408901908514, ,0.0007109862944648679, ,0.18906022349389023,-0.2170319619643314,0.10433060436000001,1.6091606263002398,0.21670548862798855,-1.2253004611870624, ,0.10983442310008192,0.0778481883170392,0.022123349333333337,0.006331037606151117,0.08583811890748283,-0.07180700436139421, ,1.8697841167449951
0.01613106190462995,0.021069696329971133,-0.09420022637132107, ,0.016679563473975315,0.02073875292451025,-0.09473786889777558, ,0.0008363234992780989, ,0.013834337854281453,-0.0020352603854594236,-0.022382526903797287,0.00813028746235484,-0.010522456583859262,-0.0015371915689607171, ,0.02639145125418901, ,0.01329729480937597, ,0.0007122523268367188, ,0.19014140609628166,-0.21625968867690895,0.10456134398000001,1.6091606263002398,0.21766194412634665,-1.2260803865129373, ,0.10686592517845808,0.07425425787047792,0.023563330650887577,0.006331037606151117,0.09651993744305973,-0.08019522747508896, ,1.8754229545593262
0.01613106190462995,0.021069696329971133,-0.09420022637132107, ,0.016755049582477376,0.02072614357370656,-0.09485605643279992, ,0.0009682469664201152, ,0.013834337854281453,-0.0020352603854594236,-0.022382526903797287,0.00813028746235484,-0.010522456583859262,-0.0015371915689607171, ,0.02639145125418901, ,0.01329729480937597, ,0.0007148122732325528, ,0.19014140609628166,-0.21625968867690895,0.10456134398000001,1.6091606263002398,0.21766194412634665,-1.2260803865129373, ,0.10686592517845808,0.07425425787047792,0.023563330650887577,0.006331037606151117,0.09651993744305973,-0.08019522747508896, ,1.8809869289398193
0.016272682210931484,0.02105022336308606,-0.094435390075164, ,0.016830620498578443,0.02071337350948436,-0.09497376898138261, ,0.0008453489240278628, ,0.013695502031649633,-0.0017887338286239143,-0.023058677016756707,0.01866824078139454,0.003243369807864338,0.0012357929291571198, ,0.02687878215938525, ,0.01894772130675702, ,0.0007161047153196351, ,0.1912303114315473,-0.21550286085523496,0.10480893537000001,1.6091606263002398,0.21875503612447017,-1.2269717297425087, ,0.10462727845476381,0.07288551578991612,0.024281724878048784,0.005927746545787469,0.10830640142096366,-0.08949117896250405, ,1.886343002319336
0.016272682210931484,0.02105022336308606,-0.094435390075164, ,0.016906275329895658,0.020700448517420148,-0.09509101503134561, ,0.0009765381540050063, ,0.013695502031649633,-0.0017887338286239143,-0.023058677016756707,0.01866824078139454,0.003243369807864338,0.0012357929291571198, ,0.02687878215938525, ,0.01894772130675702, ,0.0007186579843263544, ,0.1912303114315473,-0.21550286085523496,0.10480893537000001,1.6091606263002398,0.21875503612447017,-1.2269717297425087, ,0.10462727845476381,0.07288551578991612,0.024281724878048784,0.005927746545787469,0.10830640142096366,-0.08949117896250405, ,1.8916079998016357
0.01640047951821956,0.021032494292768218,-0.09464840761072138, ,0.016982013188445493,0.02068737434814349,-0.09520780300468233, ,0.0008776174522928234, ,0.013612828021081678,-0.001872568266924374,-0.02218167755119695,0.0029551284626298246,-0.011873551779899861,-0.0020165206041813546, ,0.02609295724196691, ,0.012235548460515593, ,0.0007202012801318541, ,0.1922033757736996,-0.21481553762942895,0.10503319354000001,1.6093703162437245,0.21971149162282821,-1.2278333338085243, ,0.10348630486201829,0.07145854033017378,0.02339032528634362,0.006273690905844897,0.09175133268551215,-0.07222432881552751, ,1.8969061374664307
0.01640047951821956,0.021032494292768218,-0.09464840761072138, ,0.01705783319063256,0.02067415671741338,-0.09532414125773664, ,0.0010085314225419964, ,0.013612828021081678,-0.001872568266924374,-0.02218167755119695,0.0029551284626298246,-0.011873551779899861,-0.0020165206041813546, ,0.02609295724196691, ,0.012235548460515593, ,0.0007229736853473362, ,0.1922033757736996,-0.21481553762942895,0.10503319354000001,1.6093703162437245,0.21971149162282821,-1.2278333338085243, ,0.10348630486201829,0.07145854033017378,0.02339032528634362,0.006273690905844897,0.09175133268551215,-0.07222432881552751, ,1.9022021293640137
0.01640047951821956,0.021032494292768218,-0.09464840761072138, ,0.017133734457240007,0.020660801306195298,-0.09544003808138149, ,0.001141270031124503, ,0.013612828021081678,-0.001872568266924374,-0.02218167755119695,0.0029551284626298246,-0.011873551779899861,-0.0020165206041813546, ,0.02609295724196691, ,0.012235548460515593, ,0.0007269574600690235, ,0.19325366744459413,-0.21408187800637762,0.10528208122,1.6093703162437245,0.22080458362095176,-1.2287246770380955, ,0.09916085847280122,0.0695215689073046,0.02402535674208145,0.0056942242919309615,0.11025590120122426,-0.08739975995626487, ,1.9076390266418457
0.016539604608701255,0.021014810412665934,-0.09488462721688082, ,0.01720971611341853,0.020647313760737935,-0.09555550170119707, ,0.0010169443404824785, ,0.013195479480897346,-0.0015889942934795306,-0.02280036933644634,0.01987327504368655,0.010560711098915394,0.0022989988574965746, ,0.02639133235503384, ,0.022504877650212942, ,0.000729693185355943, ,0.19325366744459413,-0.21408187800637762,0.10528208122,1.6093703162437245,0.22080458362095176,-1.2287246770380955, ,0.09916085847280122,0.0695215689073046,0.02402535674208145,0.0056942242919309615,0.11025590120122426,-0.08739975995626487, ,1.913733959197998
0.016558012129589534,0.021012756400329343,-0.09491527763197269, ,0.01728577728868047,0.020633699692651743,-0.09567054027765043, ,0.0011152344051266428, ,0.013098345388340768,-0.0015799598382498458,-0.02273197551233978,0.02286922774540237,0.01443458513825252,0.003039478516785302, ,0.026283181612893936, ,0.02704353445508897, ,0.0007332963743257626, ,0.19339267663633017,-0.21398920521188694,0.10531448847000001,1.6093703162437245,0.22094122012071718,-1.228836094941792, ,0.09854303380941928,0.06921731696460305,0.02395310003007519,0.005623200170273201,0.11357617289608708,-0.09012038177303054, ,1.919067144393921
0.016558012129589534,0.021012756400329343,-0.09491527763197269, ,0.017361917116885586,0.020619964678984186,-0.09578516190627355, ,0.0012478971174069969, ,0.013098345388340768,-0.0015799598382498458,-0.02273197551233978,0.02286922774540237,0.01443458513825252,0.003039478516785302, ,0.026283181612893936, ,0.02704353445508897, ,0.0007380611960209593, ,0.19339267663633017,-0.21398920521188694,0.10531448847000001,1.6093703162437245,0.22094122012071718,-1.228836094941792, ,0.09854303380941928,0.06921731696460305,0.02395310003007519,0.005623200170273201,0.11357617289608708,-0.09012038177303054, ,1.9244129657745361
0.016837811888342196,0.020985588516010827,-0.09541421166094131, ,0.01743813473623422,0.02060611426229815,-0.09589937461784165, ,0.000860099602185851, ,0.013134068795669284,-0.0013657974872381272,-0.022917435501010056,0.022542282352409116,0.012386541722317958,0.007327108496321275, ,0.026449537157547307, ,0.02572109227559512, ,0.0007391808144261416, ,0.19546236904662234,-0.2125527768972812,0.10584078221000001,1.609580006187209,0.22340067711649514,-1.230759938468187, ,0.09723047290826925,0.0667348393519485,0.0242079202431611,0.0008346016796277892,0.11116185812327471,-0.08821762297607173, ,1.9296929836273193
0.016837811888342196,0.020985588516010827,-0.09541421166094131, ,0.01751442928925889,0.020592153950749294,-0.09601318637855341, ,0.0009855823540954273, ,0.013134068795669284,-0.0013657974872381272,-0.022917435501010056,0.022542282352409116,0.012386541722317958,0.007327108496321275, ,0.026449537157547307, ,0.02572109227559512, ,0.0007414208284231352, ,0.19546236904662234,-0.2125527768972812,0.10584078221000001,1.609580006187209,0.22340067711649514,-1.230759938468187, ,0.09723047290826925,0.0667348393519485,0.0242079202431611,0.0008346016796277892,0.11116185812327471,-0.08821762297607173, ,1.9349679946899414
0.016967900833505436,0.020970657786673168,-0.09562990307599287, ,0.017590799922811765,0.020578089218162322,-0.09612660509020787, ,0.0008881589088482717, ,0.013201955921738444,-0.0017921961694577783,-0.020658177060968255,-0.020179393056427783,-0.03487567291469675,-0.0014741869669918674, ,0.024581779568445792, ,0.040292886506453414, ,0.00074274279311165, ,0.19641998792302617,-0.21190406733584632,0.10606892925000001,1.609580006187209,0.22422049611508776,-1.2312650884100842, ,0.09763059831118392,0.06580925212099221,0.021880235604395604,0.000888415774004186,0.06360202054016852,-0.04440824547531644, ,1.9404089450836182
0.016967900833505436,0.020970657786673168,-0.09562990307599287, ,0.017667245788056386,0.020563925504108335,-0.09623963859038423, ,0.0010130606658272589, ,0.013201955921738444,-0.0017921961694577783,-0.020658177060968255,-0.020179393056427783,-0.03487567291469675,-0.0014741869669918674, ,0.024581779568445792, ,0.040292886506453414, ,0.0007451563455466108, ,0.19686018369685698,-0.2116106034866258,0.10616355842000001,1.609580006187209,0.22449376911461866,-1.2313245667371961, ,0.09793286022546002,0.06590065386004916,0.021042023143989435,0.0009034048298482451,0.06904709675602101,-0.046574177127916006, ,1.946099042892456
0.017026808549817488,0.02096201227178141,-0.09571911108584437, ,0.017743766040457305,0.020549668213981954,-0.09635229465262023, ,0.0010416223378087, ,0.013040135039412004,-0.001990320426040037,-0.019842851739455183,-0.01811396902844325,-0.029830636816456715,-0.00044964947667716984, ,0.023827405700126324, ,0.03489956576516632, ,0.0007477799383984878, ,0.19686018369685698,-0.2116106034866258,0.10616355842000001,1.609580006187209,0.22449376911461866,-1.2313245667371961, ,0.09793286022546002,0.06590065386004916,0.021042023143989435,0.0009034048298482451,0.06904709675602101,-0.046574177127916006, ,1.9513750076293945
0.017219368765121135,0.0209231497613527,-0.09601028656657076, ,0.017820359839771826,0.020535322719078826,-0.09646458098659068, ,0.0008473390741550433, ,0.011375510911496108,-0.002588516365363684,-0.016134382586819145,0.033260782145458107,0.03843535918524178,0.012126273635455938, ,0.019910323124680208, ,0.05082868649955226, ,0.0007486532641507382, ,0.19837383934020497,-0.21054486634998282,0.10647207544000001,1.6097896961306934,0.22627004361156938,-1.2325279632648278, ,0.09395736787967403,0.06330683226048751,0.017201740302375815,0.001012361671300306,0.13431670721939748,-0.09557594573551004, ,1.9567840099334717
0.017219368765121135,0.0209231497613527,-0.09601028656657076, ,0.017897026350040885,0.020520894356673074,-0.09657650523828691, ,0.0009703776569940374, ,0.011375510911496108,-0.002588516365363684,-0.016134382586819145,0.033260782145458107,0.03843535918524178,0.012126273635455938, ,0.019910323124680208, ,0.05082868649955226, ,0.0007505813023493756, ,0.19837383934020497,-0.21054486634998282,0.10647207544000001,1.6097896961306934,0.22627004361156938,-1.2325279632648278, ,0.09395736787967403,0.06330683226048751,0.017201740302375815,0.001012361671300306,0.13431670721939748,-0.09557594573551004, ,1.9620559215545654
0.017335384627158657,0.020897205883168346,-0.09617179568407704, ,0.01797376473957761,0.020506388430093534,-0.09668807499019422, ,0.0009092919066420623, ,0.012629412016689866,-0.002669606335043359,-0.017738220514378872,-0.0006056988526404124,0.009819702802735038,0.007413260974227232, ,0.0219379423120799, ,0.009838276176753155, ,0.0007519494972139677, ,0.19932373548373458,-0.2099116022542964,0.10664448201000001,1.6097896961306934,0.22749977210945835,-1.2333673669178147, ,0.10095419314730934,0.06759041421543502,0.01891782840855107,0.001012361671300306,0.11246687312242343,-0.06582504152745258, ,1.967339038848877
0.017335384627158657,0.020897205883168346,-0.09617179568407704, ,0.0180505741809555,0.0204918102088002,-0.0967992977614716, ,0.0010342149717496008, ,0.012629412016689866,-0.002669606335043359,-0.017738220514378872,-0.0006056988526404124,0.009819702802735038,0.007413260974227232, ,0.0219379423120799, ,0.009838276176753155, ,0.0007543620226373492, ,0.19932373548373458,-0.2099116022542964,0.10664448201000001,1.6097896961306934,0.22749977210945835,-1.2333673669178147, ,0.10095419314730934,0.06759041421543502,0.01891782840855107,0.001012361671300306,0.11246687312242343,-0.06582504152745258, ,1.97257399559021
0.017467444886182196,0.020873031067327838,-0.0963665116330575, ,0.01812745385100681,0.020477164928464322,-0.09691018100813005, ,0.0009422835151584398, ,0.013297226449787447,-0.001924373516243678,-0.020611927281512617,0.005653909799692673,0.009687328372313515,0.00744660738765389, ,0.024604288060118933, ,0.011216385629390684, ,0.0007559545776587145, ,0.20035085895600646,-0.20922427902849042,0.10685188841000001,1.6097896961306934,0.22859286410758187,-1.2340953526671048, ,0.10138562132315254,0.06617638881343847,0.02197077451034483,0.001012361671300306,0.11270265934519257,-0.07069703517040685, ,1.977980136871338
0.017467444886182196,0.020873031067327838,-0.0963665116330575, ,0.018204402930803863,0.020462457791042284,-0.0970207321232112, ,0.0010675589091330747, ,0.013297226449787447,-0.001924373516243678,-0.020611927281512617,0.005653909799692673,0.009687328372313515,0.00744660738765389, ,0.024604288060118933, ,0.011216385629390684, ,0.0007585731014526166, ,0.20035085895600646,-0.20922427902849042,0.10685188841000001,1.6097896961306934,0.22859286410758187,-1.2340953526671048, ,0.10138562132315254,0.06617638881343847,0.02197077451034483,0.001012361671300306,0.11270265934519257,-0.07069703517040685, ,1.9833400249481201
0.017497747530784147,0.020869555377200186,-0.09641375634589387, ,0.01828142060565615,0.020447693964855,-0.0971309584369665, ,0.0011430176634436386, ,0.0132398328415327,-0.001686156534322743,-0.021474975059499996,0.025192956928548355,0.033707910653464006,0.0039731672552172715, ,0.02528459711634959, ,0.04208210726764551, ,0.0007617768061358752, ,0.20058254094223318,-0.20907754710388016,0.10690244372,1.6099993860741781,0.22886613710711273,-1.234236509734357, ,0.10095419314730934,0.06576364626366651,0.022886223448275865,0.009014484188971286,0.13497077455562895,-0.08832228727514777, ,1.9887959957122803
0.017497747530784147,0.020869555377200186,-0.09641375634589387, ,0.01835850606509647,0.02043287858466365,-0.09724086721703498, ,0.001271103563322557, ,0.0132398328415327,-0.001686156534322743,-0.021474975059499996,0.025192956928548355,0.033707910653464006,0.0039731672552172715, ,0.02528459711634959, ,0.04208210726764551, ,0.0007659861181787403, ,0.20058254094223318,-0.20907754710388016,0.10690244372,1.6099993860741781,0.22886613710711273,-1.234236509734357, ,0.10095419314730934,0.06576364626366651,0.022886223448275865,0.009014484188971286,0.13497077455562895,-0.08832228727514777, ,1.9941110610961914
0.017742277631007934,0.02084157099461174,-0.09680672034676864, ,0.018435658502872928,0.020418016751747318,-0.09735046566862272, ,0.0009776677376056315, ,0.014502242418599943,-0.0015706194676629417,-0.02278487520130409,-0.0460298024212613,-0.05742330197606623,-0.013591388635031332, ,0.027054249548251075, ,0.0735946477663779, ,0.0007677212134199443, ,0.2023819377019275,-0.20791141443987224,0.10732114539000001,1.6099993860741781,0.23064241160406349,-1.2353582275218484, ,0.10171162010554209,0.06697031867217415,0.024244766392694066,0.009014484188971286,0.04321390255816553,-0.017942885141667232, ,1.9993910789489746
0.017742277631007934,0.02084157099461174,-0.09680672034676864, ,0.018512877116940482,0.020403113533980683,-0.09745976093468157, ,0.0011011496365000595, ,0.014502242418599943,-0.0015706194676629417,-0.02278487520130409,-0.0460298024212613,-0.05742330197606623,-0.013591388635031332, ,0.027054249548251075, ,0.0735946477663779, ,0.0007704320136075875, ,0.2023819377019275,-0.20791141443987224,0.10732114539000001,1.6099993860741781,0.23064241160406349,-1.2353582275218484, ,0.10171162010554209,0.06697031867217415,0.024244766392694066,0.009014484188971286,0.04321390255816553,-0.017942885141667232, ,2.004678964614868
0.01788721552227139,0.020822023011952927,-0.09704125677636899, ,0.01859016110944855,0.02038817396590999,-0.09756876009608723, ,0.0009801108333234386, ,0.014297430363698583,-0.0020769194119546297,-0.023302422595021143,0.008865766076809218,0.0013290402214520673,-0.0037528607350020534, ,0.027417749872035744, ,0.008964445619756994, ,0.0007721229718311024, ,0.20341678390707357,-0.20719320028256938,0.10757003307000002,1.6099993860741781,0.23146223060265614,-1.2357000199834647, ,0.10359928117736984,0.07271796288005423,0.02473417937888199,0.008881857605236233,0.1046420892757298,-0.07869907042237563, ,2.009916067123413
0.01788721552227139,0.020822023011952927,-0.09704125677636899, ,0.018667509686734696,0.02037320304883148,-0.0976774701718184, ,0.0011023002435548521, ,0.014297430363698583,-0.0020769194119546297,-0.023302422595021143,0.008865766076809218,0.0013290402214520673,-0.0037528607350020534, ,0.027417749872035744, ,0.008964445619756994, ,0.0007747643900048925, ,0.20341678390707357,-0.20719320028256938,0.10757003307000002,1.6099993860741781,0.23146223060265614,-1.2357000199834647, ,0.10359928117736984,0.07271796288005423,0.02473417937888199,0.008881857605236233,0.1046420892757298,-0.07869907042237563, ,2.0151939392089844
0.01788721552227139,0.020822023011952927,-0.09704125677636899, ,0.01874492205931245,0.020358205750867598,-0.09778589811913556, ,0.0012268975852616484, ,0.014297430363698583,-0.0020769194119546297,-0.023302422595021143,0.008865766076809218,0.0013290402214520673,-0.0037528607350020534, ,0.027417749872035744, ,0.008964445619756994, ,0.0007783527486974064, ,0.2047142030299433,-0.20632825420065623,0.10786040203000001,1.6099993860741781,0.23296523210007597,-1.2370072956642657, ,0.10662577703198964,0.06807528088842953,0.022246943463687153,0.008069935877012368,0.12592994326566598,-0.09562300857615175, ,2.020792007446289
0.018060864386028004,0.020796038809946783,-0.09731342345685844, ,0.018822397441861108,0.020343187007043833,-0.09789405083375918, ,0.0010593089734943243, ,0.013945189666477708,-0.002173342711123227,-0.02074140392792351,0.030115306611641208,0.01914512254482807,0.0016837802691341067, ,0.025087797238404767, ,0.03568562134545988, ,0.0007805650024359648, ,0.2047142030299433,-0.20632825420065623,0.10786040203000001,1.6099993860741781,0.23296523210007597,-1.2370072956642657, ,0.10662577703198964,0.06807528088842953,0.022246943463687153,0.008069935877012368,0.12592994326566598,-0.09562300857615175, ,2.026179075241089
0.01822859035294566,0.020766960306712365,-0.09753943617030239, ,0.018899935053220854,0.020328151719367585,-0.09800193515004901, ,0.0009258304321968339, ,0.013991829129698903,-0.0028167591060310635,-0.01765593656566774,-0.020344074485403475,-0.04280550276760959,-0.009046929198739086, ,0.022703248892327787, ,0.04739399453629437, ,0.0007816998886059716, ,0.2060038994199388,-0.2055328127146111,0.10810410455000001,1.6099993860741781,0.2340583240981995,-1.2378986388938371, ,0.10734948140098505,0.06768683420718315,0.019053602296650717,0.00740920603476198,0.06397940973408306,-0.04466604633590972, ,2.031499147415161
0.01822859035294566,0.020766960306712365,-0.09753943617030239, ,0.018977534116378217,0.020313104756903764,-0.09810955784118233, ,0.001044959492269209, ,0.013991829129698903,-0.0028167591060310635,-0.01765593656566774,-0.020344074485403475,-0.04280550276760959,-0.009046929198739086, ,0.022703248892327787, ,0.04739399453629437, ,0.0007837406607273921, ,0.2060038994199388,-0.2055328127146111,0.10810410455000001,1.6099993860741781,0.2340583240981995,-1.2378986388938371, ,0.10734948140098505,0.06768683420718315,0.019053602296650717,0.00740920603476198,0.06397940973408306,-0.04466604633590972, ,2.036729097366333
0.018368564301510692,0.02073387018928316,-0.09771767766715303, ,0.019055193858458296,0.020298050955852145,-0.09821692561933276, ,0.0009542782982223351, ,0.014492654631716723,-0.0033437115009348956,-0.018849416842030127,0.010070088549597296,-0.003121682041355614,-0.0018030531250852362, ,0.024010788411885052, ,0.010542732219058352, ,0.0007850524887081224, ,0.20710052748807867,-0.204806875824434,0.10829595547000001,1.6099993860741781,0.2350147795965576,-1.238678564219712, ,0.11351308798860141,0.07519567476899429,0.020291479643312103,0.0069538272644985985,0.11054057520600924,-0.08268195898644973, ,2.0419890880584717
0.018368564301510692,0.02073387018928316,-0.09771767766715303, ,0.01913291351071498,0.020282995119624916,-0.09832404513584919, ,0.0010748020976642798, ,0.014492654631716723,-0.0033437115009348956,-0.018849416842030127,0.010070088549597296,-0.003121682041355614,-0.0018030531250852362, ,0.024010788411885052, ,0.010542732219058352, ,0.0007872643177841236, ,0.20710052748807867,-0.204806875824434,0.10829595547000001,1.6099993860741781,0.2350147795965576,-1.238678564219712, ,0.11351308798860141,0.07519567476899429,0.020291479643312103,0.0069538272644985985,0.11054057520600924,-0.08268195898644973, ,2.047302007675171
0.018368564301510692,0.02073387018928316,-0.09771767766715303, ,0.019210692308519812,0.020267942018922906,-0.09843092298143381, ,0.0011979096453689235, ,0.014492654631716723,-0.0033437115009348956,-0.018849416842030127,0.010070088549597296,-0.003121682041355614,-0.0018030531250852362, ,0.024010788411885052, ,0.010542732219058352, ,0.0007903752672355236, ,0.20710052748807867,-0.204806875824434,0.10829595547000001,1.6099993860741781,0.2350147795965576,-1.238678564219712, ,0.11351308798860141,0.07519567476899429,0.020291479643312103,0.0069538272644985985,0.11054057520600924,-0.08268195898644973, ,2.0526959896087646
0.018482372761444932,0.020710797513046816,-0.09787027897212813, ,0.019288529491358022,0.02025289639181486,-0.09853756568632195, ,0.0011422931624365225, ,0.014368674356408538,-0.002747234342344901,-0.019615335735474155,0.03133934889850941,0.017811924469091724,0.007285461420152116, ,0.024469726097928454, ,0.03604742069544927, ,0.0007930212664475613, ,0.2079886417686145,-0.2042353935917414,0.10846058430000001,1.6102090760176624,0.23597123509491563,-1.2394584895455871, ,0.1121713257192326,0.07066041813735724,0.02118193021276596,0.002221635558865258,0.13136764572061732,-0.10051379531128295, ,2.058082103729248
0.018482372761444932,0.020710797513046816,-0.09787027897212813, ,0.019366424302811287,0.020237862943812024,-0.09864397972045923, ,0.001266422947730189, ,0.014368674356408538,-0.002747234342344901,-0.019615335735474155,0.03133934889850941,0.017811924469091724,0.007285461420152116, ,0.024469726097928454, ,0.03604742069544927, ,0.000796554114815342, ,0.2079886417686145,-0.2042353935917414,0.10846058430000001,1.6102090760176624,0.23597123509491563,-1.2394584895455871, ,0.1121713257192326,0.07066041813735724,0.02118193021276596,0.002221635558865258,0.13136764572061732,-0.10051379531128295, ,2.063413143157959
0.01872799404073228,0.020666282222462577,-0.09820695153384663, ,0.019444375990552477,0.020222846347946584,-0.09875017149368212, ,0.0010024601725752591, ,0.015429184805115563,-0.0027723546652941066,-0.02150556901198439,-0.010077665566718614,-0.03185865375103213,-0.011758586507491947, ,0.02661268856522787, ,0.033414496287331015, ,0.0007980793448728229, ,0.20984209765842837,-0.2030460927291108,0.10882354550000001,1.6106284559046316,0.23761087309210094,-1.2405504681695225, ,0.11324217369745916,0.07454590852982779,0.02311873950653121,0.011308845724221516,0.0802325006186494,-0.060800020359714414, ,2.0687220096588135
0.01872799404073228,0.020666282222462577,-0.09820695153384663, ,0.01952238380633697,0.020207851244849213,-0.09885614735589437, ,0.001123685577151038, ,0.015429184805115563,-0.0027723546652941066,-0.02150556901198439,-0.010077665566718614,-0.03185865375103213,-0.011758586507491947, ,0.02661268856522787, ,0.033414496287331015, ,0.0008004735083454568, ,0.20984209765842837,-0.2030460927291108,0.10882354550000001,1.6106284559046316,0.23761087309210094,-1.2405504681695225, ,0.11324217369745916,0.07454590852982779,0.02311873950653121,0.011308845724221516,0.0802325006186494,-0.060800020359714414, ,2.0739541053771973
0.018871071500844123,0.020641796798741393,-0.09841210433393041, ,0.019600447005989712,0.02019288224282521,-0.09896191359724808, ,0.001017744138794092, ,0.015246251062779097,-0.002539463029447834,-0.022324620150413366,-0.006093171933585726,-0.02046213813554597,-0.010068981931460982, ,0.02715300552070558, ,0.021349948385179885, ,0.0008020594253560307, ,0.2108846665964487,-0.20235876950330484,0.10904391480000002,1.6106284559046316,0.23843069209069356,-1.2411372968515604, ,0.10996169357876104,0.07356352058796184,0.02395310003007519,0.011308845724221516,0.0884907953574669,-0.06382863495513397, ,2.0792019367218018
0.018871071500844123,0.020641796798741393,-0.09841210433393041, ,0.019678564849397305,0.02017794391793201,-0.09906747644832088, ,0.0011387350926854905, ,0.015246251062779097,-0.002539463029447834,-0.022324620150413366,-0.006093171933585726,-0.02046213813554597,-0.010068981931460982, ,0.02715300552070558, ,0.021349948385179885, ,0.000804499104104795, ,0.2108846665964487,-0.20235876950330484,0.10904391480000002,1.6106284559046316,0.23843069209069356,-1.2411372968515604, ,0.10996169357876104,0.07356352058796184,0.02395310003007519,0.011308845724221516,0.0884907953574669,-0.06382863495513397, ,2.0844929218292236
0.019025523962232848,0.02061311810405388,-0.09863138719440377, ,0.01975673660049917,0.020163040814056576,-0.09917284208029445, ,0.001015093534008862, ,0.015321536833888264,-0.002978254696549939,-0.020475309938933657,0.03156254865106471,0.006218046071340551,-0.004523022092226142, ,0.02574602511233748, ,0.0321691618718917, ,0.0008060141719458314, ,0.21202763106183392,-0.20160194168163081,0.10927983958000001,1.6106284559046316,0.23952378408881708,-1.2417836038607102, ,0.1170122583951551,0.07402257531861994,0.022184974261838443,0.011308845724221516,0.12256347206280933,-0.10203736349615712, ,2.0899100303649902
0.019025523962232848,0.02061311810405388,-0.09863138719440377, ,0.019834961527276745,0.020148177442992347,-0.09927801660513458, ,0.001135556508868932, ,0.015321536833888264,-0.002978254696549939,-0.020475309938933657,0.03156254865106471,0.006218046071340551,-0.004523022092226142, ,0.02574602511233748, ,0.0321691618718917, ,0.0008083680457809964, ,0.21202763106183392,-0.20160194168163081,0.10927983958000001,1.6106284559046316,0.23952378408881708,-1.2417836038607102, ,0.1170122583951551,0.07402257531861994,0.022184974261838443,0.011308845724221516,0.12256347206280933,-0.10203736349615712, ,2.095412015914917
0.019252585350831776,0.0205694390442786,-0.09893240333226652, ,0.019913238901744314,0.020133358284516387,-0.09938300607576858, ,0.0009108635330386866, ,0.015198270757484058,-0.002951099670103196,-0.02017560355915209,-0.004717085521609628,-0.004946598602393025,-0.0052127726711701915, ,0.02543130752157169, ,0.006834938959481961, ,0.0008090949641303416, ,0.21375752322566022,-0.20052075907923939,0.10960650466,1.6106284559046316,0.24130005858576783,-1.243150357868623, ,0.1144715820970697,0.07266228296973261,0.021880235604395604,0.010408870671363691,0.10909643954878637,-0.06452128333061127, ,2.1007800102233887
0.019252585350831776,0.0205694390442786,-0.09893240333226652, ,0.019991567999938353,0.02011858778646629,-0.09948781648626422, ,0.0010285163994731346, ,0.015198270757484058,-0.002951099670103196,-0.02017560355915209,-0.004717085521609628,-0.004946598602393025,-0.0052127726711701915, ,0.02543130752157169, ,0.006834938959481961, ,0.0008106401855059951, ,0.21375752322566022,-0.20052075907923939,0.10960650466,1.6106284559046316,0.24130005858576783,-1.243150357868623, ,0.1144715820970697,0.07266228296973261,0.021880235604395604,0.010408870671363691,0.10909643954878637,-0.06452128333061127, ,2.1060400009155273
0.019413427444528213,0.02053575230565971,-0.09914155765485402, ,0.020069948101911372,0.020103870364818078,-0.09959245377200925, ,0.0009060070048634317, ,0.01573466798453436,-0.003158030280770828,-0.02026480160015647,-0.007759114428853402,-0.015694909430727613,-0.006412984669180434, ,0.025849857170427464, ,0.017508015913665034, ,0.0008113070863406624, ,0.21496999228691346,-0.19974076305894273,0.10983335541000001,1.6106284559046316,0.24239315058389135,-1.2437966648777725, ,0.11832536353924038,0.07466321129698723,0.022031551203319507,0.00962861718243389,0.10221293944948305,-0.0635510949307842, ,2.1113200187683105
0.019413427444528213,0.02053575230565971,-0.09914155765485402, ,0.02014837849171842,0.020089210403762717,-0.09969692380988897, ,0.0010237110325057872, ,0.01573466798453436,-0.003158030280770828,-0.02026480160015647,-0.007759114428853402,-0.015694909430727613,-0.006412984669180434, ,0.025849857170427464, ,0.017508015913665034, ,0.0008127821137445868, ,0.21496999228691346,-0.19974076305894273,0.10983335541000001,1.6106284559046316,0.24239315058389135,-1.2437966648777725, ,0.11832536353924038,0.07466321129698723,0.022031551203319507,0.00962861718243389,0.10221293944948305,-0.0635510949307842, ,2.11660099029541
0.019567291063810013,0.020505386536877515,-0.09934175223272976, ,0.020226858457407557,0.020074612255782692,-0.09980123241846571, ,0.0009119855640489949, ,0.015189123490076704,-0.0031617798581332736,-0.018962376893801647,-0.014805782083105838,-0.0040348790962632,-0.0030358935171427535, ,0.02450057268168807, ,0.015345650221915875, ,0.0008134662754708242, ,0.21612840221804713,-0.19901482616876562,0.11005113213,1.6106284559046316,0.24348624258201487,-1.2444429718869223, ,0.11615292724415029,0.07178286048295822,0.02071366907672302,0.008982009412005849,0.11211595797129784,-0.05383520310172348, ,2.121954917907715
0.019567291063810013,0.020505386536877515,-0.09934175223272976, ,0.02030538729101441,0.020060080241730838,-0.09990538535815682, ,0.001029934967456348, ,0.015189123490076704,-0.0031617798581332736,-0.018962376893801647,-0.014805782083105838,-0.0040348790962632,-0.0030358935171427535, ,0.02450057268168807, ,0.015345650221915875, ,0.0008149489377446977, ,0.21612840221804713,-0.19901482616876562,0.11005113213,1.6106284559046316,0.24348624258201487,-1.2444429718869223, ,0.11615292724415029,0.07178286048295822,0.02071366907672302,0.008982009412005849,0.11211595797129784,-0.05383520310172348, ,2.1273229122161865
0.019721353620913505,0.020472896446318032,-0.09953675932247782, ,0.02038396428854799,0.020045618650905844,-0.10000938833141405, ,0.000919237396651897, ,0.015244304048158387,-0.003245836876069051,-0.019172330881707424,0.0019024490776469814,-0.00213351132987597,-0.0030667884040598337, ,0.024708349487094845, ,0.0028580749887895072, ,0.000815658383043386, ,0.21729453488205502,-0.1982811665457143,0.11026372369000001,1.6106284559046316,0.24457933458013842,-1.2451709576362127, ,0.11586928151217434,0.07271796288005423,0.020931421182654404,0.008411882443393522,0.11369198777036667,-0.07157215781140873, ,2.1326401233673096
0.019721353620913505,0.020472896446318032,-0.09953675932247782, ,0.020462588749983246,0.020031231741130157,-0.100113246982902, ,0.0010377067268728026, ,0.015244304048158387,-0.003245836876069051,-0.019172330881707424,0.0019024490776469814,-0.00213351132987597,-0.0030667884040598337, ,0.024708349487094845, ,0.0028580749887895072, ,0.000817158709690882, ,0.21729453488205502,-0.1982811665457143,0.11026372369000001,1.6106284559046316,0.24457933458013842,-1.2451709576362127, ,0.11586928151217434,0.07271796288005423,0.020931421182654404,0.008411882443393522,0.11369198777036667,-0.07157215781140873, ,2.138021945953369
0.01988203507342326,0.020438222160369564,-0.09973743735660999, ,0.020541259979251204,0.020016923738827096,-0.10021696689967664, ,0.0009176156162205121, ,0.014792366365793577,-0.003252509559344081,-0.01852818533564246,-0.030310778663260055,-0.012022026350230563,-0.004243697167517877, ,0.02393087071055715, ,0.032607824784586466, ,0.0008178329171172554, ,0.21842977661456603,-0.1975629523884114,0.11046853751,1.6106284559046316,0.24567242657826194,-1.2456539071650812, ,0.11073155374383986,0.07108385135465976,0.02016305255696203,0.007907894767663074,0.09918636571903056,-0.04827570799756842, ,2.143338918685913
0.01988203507342326,0.020438222160369564,-0.09973743735660999, ,0.020619977284229665,0.020002698839097968,-0.10032055361136422, ,0.0010364669972651726, ,0.014792366365793577,-0.003252509559344081,-0.01852818533564246,-0.030310778663260055,-0.012022026350230563,-0.004243697167517877, ,0.02393087071055715, ,0.032607824784586466, ,0.0008192904776515748, ,0.21842977661456603,-0.1975629523884114,0.11046853751,1.6106284559046316,0.24567242657826194,-1.2456539071650812, ,0.11073155374383986,0.07108385135465976,0.02016305255696203,0.007907894767663074,0.09918636571903056,-0.04827570799756842, ,2.1486661434173584
0.020017862252050444,0.020408394970963983,-0.09991088970605623, ,0.020698739976731315,0.019988561205798547,-0.1004240125903395, ,0.0009503420230184365, ,0.014871540590543174,-0.0030756703555701983,-0.019683371485184786,0.004694465414453445,0.011171498218924639,-0.0004972190206855564, ,0.024860763879979476, ,0.01211764925187345, ,0.0008201583686804945, ,0.21953412741558015,-0.19686018369685698,0.11067205504000001,1.6106284559046316,0.24676551857638546,-1.2463818929143713, ,0.11099057492218804,0.07140477167680269,0.021438508102288024,0.0074733080712595604,0.12243440506667047,-0.07327883588815978, ,2.1539509296417236
0.020017862252050444,0.020408394970963983,-0.09991088970605623, ,0.02077754737249885,0.01997451497161778,-0.10052734925190529, ,0.0010702316140592189, ,0.014871540590543174,-0.0030756703555701983,-0.019683371485184786,0.004694465414453445,0.011171498218924639,-0.0004972190206855564, ,0.024860763879979476, ,0.01211764925187345, ,0.0008218035874000914, ,0.21953412741558015,-0.19686018369685698,0.11067205504000001,1.6106284559046316,0.24676551857638546,-1.2463818929143713, ,0.11099057492218804,0.07140477167680269,0.021438508102288024,0.0074733080712595604,0.12243440506667047,-0.07327883588815978, ,2.1592531204223633
0.020170599068963402,0.020378520204416325,-0.10011285439094218, ,0.020856398791192124,0.019960564238153677,-0.1006305689544703, ,0.0009555296008144607, ,0.014909685948322008,-0.0028925840468124707,-0.019898170378006317,-0.011137587982142191,-0.004683041001495484,0.0032661002830756333, ,0.025032038709174944, ,0.012081954300526661, ,0.000822677613631558, ,0.22066936914809113,-0.1961419695395541,0.11089242434000002,1.610838145848116,0.24799524707427442,-1.2469762603469365, ,0.10895171246667139,0.069623581480903,0.02167185240816327,0.0008055632732869573,0.10566337166347878,-0.057030176591287327, ,2.164607048034668
0.020170599068963402,0.020378520204416325,-0.10011285439094218, ,0.02093529355637492,0.01994671307598972,-0.10073367699972849, ,0.0010754700213477962, ,0.014909685948322008,-0.0028925840468124707,-0.019898170378006317,-0.011137587982142191,-0.004683041001495484,0.0032661002830756333, ,0.025032038709174944, ,0.012081954300526661, ,0.0008243191227725725, ,0.22066936914809113,-0.1961419695395541,0.11089242434000002,1.610838145848116,0.24799524707427442,-1.2469762603469365, ,0.10895171246667139,0.069623581480903,0.02167185240816327,0.0008055632732869573,0.10566337166347878,-0.057030176591287327, ,2.170095920562744
0.0202982224589862,0.020354286918533235,-0.10028169714065475, ,0.021014230995514763,0.01993296552477452,-0.100836678632837, ,0.0009990917865168323, ,0.015734701085741307,-0.002722063949795502,-0.02117982744758853,8.501728061557559e-05,-0.006492364925027037,0.0032183356306779887, ,0.026524998418737546, ,0.00649259333941733, ,0.0008254466883451161, ,0.22159609709299807,-0.19555504184111303,0.11107649752000001,1.610838145848116,0.24881506607286705,-1.2475630890289744, ,0.11392189862961677,0.07045058764548684,0.02311873950653121,0.0008055632732869573,0.10875518926705811,-0.06906784005132234, ,2.176182985305786
0.020486187863711647,0.020322744131845875,-0.10053445906188449, ,0.021093210439963504,0.019919325593296212,-0.10093957904259551, ,0.000833873566013629, ,0.01440055936018636,-0.0025970626944465123,-0.017995460666730904,-0.026836935444038125,-0.03314240092734586,-0.009065506075183243, ,0.02319390974227924, ,0.04264549162654605, ,0.0008255007067917092, ,0.22294757534598736,-0.1947209866906968,0.11135260729000002,1.6110478357916007,0.250044794570756,-1.2481574564615392, ,0.10416788315968253,0.06272104531293508,0.019762793449131517,0.008490952061274076,0.07045471057688384,-0.03275298982230414, ,2.1816179752349854
0.020486187863711647,0.020322744131845875,-0.10053445906188449, ,0.021172231224956713,0.01990579725956209,-0.10104238336162472, ,0.0009499933063355011, ,0.01440055936018636,-0.0025970626944465123,-0.017995460666730904,-0.026836935444038125,-0.03314240092734586,-0.009065506075183243, ,0.02319390974227924, ,0.04264549162654605, ,0.0008262936532856187, ,0.22294757534598736,-0.1947209866906968,0.11135260729000002,1.6110478357916007,0.250044794570756,-1.2481574564615392, ,0.10416788315968253,0.06272104531293508,0.019762793449131517,0.008490952061274076,0.07045471057688384,-0.03275298982230414, ,2.1868720054626465
0.020630405720974913,0.02029215094598749,-0.1007041599726903, ,0.02125129268959575,0.0198923844708736,-0.10114509666654503, ,0.0008600808278386954, ,0.01496376442107208,-0.0033866017406802124,-0.017088353020031536,-0.04993951772047951,-0.05570579370032286,-0.013073980370881788, ,0.02296508493205592, ,0.07481369810935584, ,0.0008265074961625369, ,0.2239978670168819,-0.19407227712926192,0.11153927305000001,1.6110478357916007,0.2505913405698178,-1.2485214493361845, ,0.10958076392433115,0.06841884755477344,0.01882838241134752,0.00825200527271938,0.05317892353631533,-0.015168547522358938, ,2.1921370029449463
0.020630405720974913,0.02029215094598749,-0.1007041599726903, ,0.021330394176841492,0.019879091143904185,-0.10124772397815522, ,0.0009777852864922042, ,0.01496376442107208,-0.0033866017406802124,-0.017088353020031536,-0.04993951772047951,-0.05570579370032286,-0.013073980370881788, ,0.02296508493205592, ,0.07481369810935584, ,0.0008274589288061197, ,0.2239978670168819,-0.19407227712926192,0.11153927305000001,1.6110478357916007,0.2505913405698178,-1.2485214493361845, ,0.10958076392433115,0.06841884755477344,0.01882838241134752,0.00825200527271938,0.05317892353631533,-0.015168547522358938, ,2.197374105453491
0.020765288277827892,0.020262855405697763,-0.10087418074330225, ,0.021409535033508197,0.019865921164777513,-0.10135027026161088, ,0.0008940200798991471, ,0.013741898055186158,-0.002952551301602271,-0.017609924388335918,0.04668344829762119,0.03032991843514149,0.0011400694156274574, ,0.02253146152185052, ,0.05567087751895251, ,0.0008278749360004511, ,0.2250018222905311,-0.19343901303357552,0.11172593881000001,1.6110478357916007,0.2516844325679413,-1.2492494350854746, ,0.10337357468243004,0.06486462170777224,0.019354570498177404,0.00775037979215342,0.13376786303272298,-0.10875436873571513, ,2.202636957168579
0.020765288277827892,0.020262855405697763,-0.10087418074330225, ,0.02148871461024923,0.01985287838914333,-0.1014527404266034, ,0.0010129946296427224, ,0.013741898055186158,-0.002952551301602271,-0.017609924388335918,0.04668344829762119,0.03032991843514149,0.0011400694156274574, ,0.02253146152185052, ,0.05567087751895251, ,0.0008290247477622043, ,0.2250018222905311,-0.19343901303357552,0.11172593881000001,1.6110478357916007,0.2516844325679413,-1.2492494350854746, ,0.10337357468243004,0.06486462170777224,0.019354570498177404,0.00775037979215342,0.13376786303272298,-0.10875436873571513, ,2.2079739570617676
0.020916169131604954,0.020235573738591695,-0.10106941616047792, ,0.021567932261548618,0.019839966642254844,-0.10155513932753926, ,0.000904006165491219, ,0.014629926456687646,-0.0019974514253332395,-0.019647709349141815,0.01969733971205033,0.018676933551978893,0.0018607551054968322, ,0.024577571950723888, ,0.027144246364821566, ,0.0008294875960197908, ,0.22612161855729365,-0.1927748580063922,0.11194112295000001,1.6110478357916007,0.25305079756559573,-1.2502819353822985, ,0.10614870420410602,0.05964609777402312,0.02167185240816327,0.007260151180569932,0.12510527408405656,-0.07672852385459934, ,2.2133049964904785
