NicholasDascanio/dvrk_moveit_final/test/execution/third_experiment_notsharpbends/thirdexp_200vel3.0/thirdexp_200vel3.0_7.csv
Current Position (x),Current Position (y),Current Position (z), ,Planned Position (x),Planned Position (y),Planned Position (z), ,Position Error,,Cartesian linear Velocity(x),Cartesian linear Velocity(y),Cartesian linear Velocity(z),Cartesian Angular Velocity(x),Cartesian Angular Velocity(y),Cartesian Angular Velocity(z), ,Total Linear Velocity, ,Total Angular Velocity, ,MSE, ,Joint 1 Position,Joint 2 Position,Joint 3 Position,Joint 4 Position,Joint 5 Position,Joint 6 Position, ,Joint 1 Velocity,Joint 2 Velocity,Joint 3 Velocity,Joint 4 Velocity,Joint 5 Velocity,Joint 6 Velocity, ,Time Stamp
0.009429262212317335,0.02069647730642194,-0.07963133060715008, ,0.009571002402344039,0.02069856797122787,-0.07974928419463563, ,0.00018441177063530486, ,-0.0029276458357088177,0.00016666205609606026,6.857588499916849e-05,0.01495123419611755,0.3345245655300919,0.09456828674659737, ,0.002933187520819078, ,0.33485851392354343, ,1.536764755294207e-05, ,0.17248723874580443,-0.24621616949602582,0.09033974639,1.6972304025637401,0.5063748681307223,-1.1521890281111666, ,-0.0017560684658389724,0.000586989462874669,0.0010221670255306243,0.0,0.34604066552302815,0.013932786681610132, ,0.05914902687072754
0.009480565464200823,0.020716403071185052,-0.0797228020306365, ,0.009625824412441038,0.02071857625125007,-0.07992056974784471, ,0.0002453914316458404, ,0.0019719987638798,0.0007262880956662872,-0.0034112578916420462,0.14379871160886237,-0.15048051191905948,-0.09718312082521027, ,0.004006613772993369, ,0.20814046681827406, ,1.953650919459751e-05, ,0.17255674334167245,-0.24619300129740315,0.09042400524000001,1.6974400925072246,0.5026856826370554,-1.1633111667556806, ,0.0014714392354195636,0.0004571560582409122,0.003071502414192056,0.0,-0.15663159366252535,-0.16705493795566217, ,0.11135101318359375
0.009516795511425907,0.02075138219561976,-0.07990740686019643, ,0.009681426949223962,0.020737661905167532,-0.08009109364701877, ,0.00024704775314636273, ,0.0004621555290624967,0.0005283724211873966,-0.002430010710565425,0.002196387405595295,0.01072316428797578,-0.003159617788075923, ,0.0025293709103208152, ,0.010945792337590094, ,2.1151592357109627e-05, ,0.17268030706766005,-0.24607716030428978,0.09059122665000001,1.6972304025637401,0.5036421381354135,-1.1607422637357923, ,0.0008376289398181563,0.0018794056199427903,0.002865925066570709,-0.008257073434126643,0.017960456566197915,0.04790300753603735, ,0.1642320156097412
0.009551817456640205,0.02077830194493457,-0.0800322161191473, ,0.009737800259911849,0.020755836848256555,-0.08026086318733175, ,0.00029559053684255943, ,0.000819828809779832,0.0006834068118908021,-0.002764530811991652,0.010950356356284172,0.00040952917597957504,-0.006611656153419256, ,0.0029634093133306763, ,0.01095801160403273, ,2.3153368863573034e-05, ,0.17286565265664142,-0.24599993297554754,0.09074937403000001,1.6970207126202554,0.5036421381354135,-1.1610689786963546, ,0.004490055576725436,0.0006136083946030782,0.0029426956438204327,0.003914319278994404,0.003977759970932703,-0.011236189451120846, ,0.22350716590881348
0.009609474614840841,0.02081664648437656,-0.0802336905291457, ,0.009794934643079779,0.02077311293691585,-0.08042988562082254, ,0.0002734649992722765, ,0.0008364244689706734,0.0003981020047423694,-0.0022682863558153295,-0.006429317638203029,-0.004687106321653414,-0.0015687521647275327, ,0.002450145728411017, ,0.007956449641853158, ,2.395974022196815e-05, ,0.1731668392387362,-0.2458377555851888,0.0909606693,1.6970207126202554,0.5039154111349443,-1.1616185294643095, ,0.005347139673637235,0.0023976144929787864,0.0023799210398924254,0.0029226288382479967,0.0,0.004841355586624006, ,0.27663397789001465
0.009654490451612709,0.020833529676693843,-0.08036953105851374, ,0.009852820448551944,0.02078950196878184,-0.0805981681564954, ,0.0003058564194575194, ,0.0009194347725775392,0.000659201173143741,-0.0038691752962910246,-0.0025785339727438924,-0.0019270748375970312,-0.003208935949310569, ,0.004031181459712219, ,0.0032190765773973773, ,2.54387362458994e-05, ,0.17341396669071135,-0.24566013272908166,0.09106826137000001,1.6970207126202554,0.5040520476347098,-1.161729947368006, ,0.006303105758801786,0.005038098253284362,0.0036601129411764715,0.0024920068868409784,0.0002100389208170315,-0.0006061221068927537, ,0.32727718353271484
0.009703479456826383,0.020852898672249185,-0.08053115980357108, ,0.009911448077294403,0.0208050156828444,-0.08076571796041826, ,0.000317113949105457, ,0.000870717368257412,0.0001853059037074976,-0.002680716689261822,0.0035042441577724263,0.004307828458801957,-0.0034923983200548757, ,0.002824664401556551, ,0.005553117413607284, ,2.6698240858647433e-05, ,0.17373059873855456,-0.2453589461469869,0.09126918632000001,1.6970207126202554,0.5044619571340061,-1.1620642010790951, ,0.005818565473122063,0.006110528239862228,0.0027678212893136405,0.0020920459280275925,0.009897825022758414,-0.008880296736914687, ,0.37557315826416016
0.009761834328209812,0.020874000540193595,-0.08071025387374389, ,0.009970807981311869,0.020819665759560377,-0.0809325421558235, ,0.0003098940729139281, ,0.0015171941744356967,0.0005469340352751804,-0.004455814570996553,-0.0009302948535342223,-0.0026704121966872026,-0.001350066211883382, ,0.004738702195009642, ,0.0028278168360555147, ,2.7579378898977824e-05, ,0.17410901264939158,-0.24505003683201793,0.09145585208000001,1.6972304025637401,0.5050085031330679,-1.1626732301741622, ,0.009591941750699334,0.007096655498647388,0.004631814922942717,0.0,0.007129766816536643,-0.005813846767931805, ,0.42258310317993164
0.00982466393646046,0.02088918046993222,-0.08088314715502701, ,0.010030890663537892,0.02083346382097055,-0.08109864782320736, ,0.00030343754863029965, ,0.001131137768442041,0.0002469362241735765,-0.0031350853511972216,-0.0007464191216136751,-0.0014151336427751574,0.001196165001574884, ,0.0033420368503798027, ,0.0015999201321194698, ,2.8206914564199408e-05, ,0.17450287202597703,-0.24471795931842627,0.09163344381,1.6970207126202554,0.5050085031330679,-1.1627549089143028, ,0.008254338037584364,0.0071413042668997725,0.003598105154732325,-0.0025581124020759892,0.006884777118266698,-0.005634530243838882, ,0.469663143157959
0.009876791476901485,0.020905431584990093,-0.0810270706479668, ,0.01009168667773338,0.0208464214308121,-0.08126404200042878, ,0.0003252961228240364, ,0.0012233328252404677,0.00035206864698683745,-0.0035044046853708205,-0.003382860040218018,-0.00488203123792524,0.0010749171625142008, ,0.00372845111706603, ,0.005939526120091546, ,2.8943346437872005e-05, ,0.17486584047106557,-0.24447083186645108,0.09178381345000002,1.6970207126202554,0.5054184126323642,-1.1632525201056731, ,0.007651240536133655,0.006297368001091902,0.0036193618541240633,-0.0024437832274034474,0.0034579300959378875,-0.0031310553928776885, ,0.5210440158843994
0.00993718716252639,0.020925660843617272,-0.08120259026321085, ,0.010153186628376422,0.02085855009463597,-0.08142873168281038, ,0.0003198430295235827, ,0.0013689631441289442,0.0004320970624558861,-0.003469676220820796,0.0006074559927520956,-0.004595264735192511,0.0005201035478406589, ,0.003754919578192813, ,0.004635241122830294, ,2.9503279566011012e-05, ,0.17525969984765102,-0.24417736801723056,0.09196659034000002,1.6970207126202554,0.5058283221316605,-1.163668452556903, ,0.009664143509228064,0.005343605670981013,0.0036325681915621443,-0.00213362056794734,0.005736230725727279,-0.00611917220960712, ,0.5715570449829102
0.009990725275934722,0.020945606669216098,-0.08135590105106152, ,0.010215381170559088,0.020869861259919947,-0.0815927238232369, ,0.0003351009749907428, ,0.0012428363168847875,0.000534069856079073,-0.003972276546491861,-0.0077374365304216245,-0.006342063191774975,0.0009455172682213134, ,0.004196290467013618, ,0.010004483425033375, ,3.037235621919219e-05, ,0.17559177736124268,-0.24396113149675225,0.09212603401000001,1.696811022676771,0.505964958631426,-1.1641065854211614, ,0.006526591273560914,0.005537792904404957,0.00410642215003867,-0.001066737480243802,0.000483912912272058,0.00227744427561769, ,0.6135971546173096
0.010053411709945842,0.020961287512216854,-0.08151128704609506, ,0.010278261009880019,0.020880366316184867,-0.08175602533225536, ,0.00034205595501440536, ,0.0016078271101232396,0.0003194858991460651,-0.003426755596819556,-0.0004621784191793703,-0.01095122783871224,-0.002016432868052361, ,0.0037986620244679008, ,0.010960976215375437, ,3.118446363936324e-05, ,0.1760396958679477,-0.24367539038040595,0.09228807026000001,1.696811022676771,0.5062382316309569,-1.1643294212285544, ,0.01212531820721677,0.006570359197346241,0.003575490801346802,-0.0009906438404125274,0.0013987461191882057,-0.006438577942283753, ,0.6563420295715332
0.010104271511303253,0.0209694062548751,-0.08164716477070195, ,0.010341816902338817,0.02089007659510889,-0.08191864307817474, ,0.00036935278413618544, ,0.0018504912148119986,0.0004322962529335743,-0.004575344950655813,0.007891350720772168,-0.0026700498240508474,-0.004168059781834295, ,0.004954288970567667, ,0.008330821103356081, ,3.2106594985680774e-05, ,0.1763872188472878,-0.2433742037983112,0.09242806958000001,1.6966013327332867,0.5065115046304878,-1.1647156145162283, ,0.013466289422232268,0.008733716802738371,0.004777687918416317,-0.00011502711772252575,0.011062036603244788,-0.01657945478779674, ,0.6983640193939209
0.010183914295297053,0.020983718275998195,-0.08184671330360618, ,0.010406039654231043,0.020899003370641968,-0.08208058388716515, ,0.00033348424269413095, ,0.001536973211471126,9.529430635840707e-05,-0.00357117313448976,0.00021051400997395718,-0.005218664963003984,-0.003227048732095788, ,0.0038890416832563796, ,0.005222909109265003, ,3.26618955857437e-05, ,0.17696642381285463,-0.24294173075735462,0.09263547598,1.6966013327332867,0.5070580506295495,-1.1652429648711546, ,0.01133907156469654,0.009554884661694128,0.0036719252005532506,-0.00011502711772252575,0.006280337284886999,-0.0096924602699761, ,0.7411069869995117
0.010245226012300615,0.020992196201471275,-0.08198574153096765, ,0.01047092012203943,0.020907157859122543,-0.08224185454335835, ,0.0003517999800398749, ,0.0016448207841473286,4.7462900334430396e-05,-0.0031690760012911493,-0.0035207982355321037,-0.0045091889416454195,-0.0006651626856104206, ,0.00357081655099092, ,0.005720909438816675, ,3.328179158131853e-05, ,0.17741434231955966,-0.24262509870951143,0.09277936417,1.6966013327332867,0.5071946871293149,-1.1655994189952728, ,0.013761157418571748,0.009017215581923869,0.0032999402361715354,-0.00011502711772252575,0.009583911393713835,-0.004879778691065007, ,0.7834930419921875
0.010311077828769137,0.021007375259375436,-0.08216573585204445, ,0.010536449212331206,0.02091455121939044,-0.08240246178894638, ,0.0003397760028752935, ,0.0013452703478874473,0.00048821335661846613,-0.004770716925951808,0.0005894713924042118,0.0007963850427038958,0.00011180844724741462, ,0.004980747391511534, ,0.0009908093597895504, ,3.397985342318823e-05, ,0.17785453809339047,-0.2422775757301713,0.09296602993000001,1.696391642789802,0.5076045966286112,-1.165933672706362, ,0.0066076023112473115,0.008199591814976934,0.004910237829839705,-0.0025842121605451148,0.008234772715231374,-0.008959340852729475, ,0.8227450847625732
0.010372199242849421,0.021016455320864123,-0.08232035841183652, ,0.010602617881649267,0.02092119455290313,-0.08256241232428245, ,0.0003475017403543098, ,0.001819767679626798,0.00023019754866085543,-0.004424392740852619,0.007475467377695098,0.0003991030810924915,-0.001722113213257846, ,0.004789550756024318, ,0.007486113416782842, ,3.466512071313818e-05, ,0.17829473386722125,-0.2419300527508312,0.09312417731000001,1.696391642789802,0.508151142627673,-1.166542701801429, ,0.01356639621993864,0.010515540671726926,0.004594407706951255,-0.0024536302391916457,0.014931901352715625,-0.018944988256563117, ,0.8609299659729004
0.010414959144777679,0.021025202811490704,-0.08243117809174597, ,0.010669417136408742,0.02092709890384979,-0.08272171280797883, ,0.0003984766838045107, ,0.0016868643168760494,0.00032680795754392726,-0.004077846990792912,0.005314119663126919,-0.0022147490052399008,-0.0010555776516829472, ,0.004425059405813954, ,0.00575716769103041, ,3.5598179628183354e-05, ,0.17857275225069333,-0.2416983707646045,0.09324084341000001,1.696391642789802,0.508151142627673,-1.1666243805415693, ,0.012332588310585152,0.008209547500537765,0.00425676416889364,-0.0023230090217017368,0.010935489213579617,-0.01370822339361359, ,0.8976600170135498
0.010505522866895631,0.021041300971899497,-0.08264560000497495, ,0.010736838032787981,0.02093227525926719,-0.08288036985700842, ,0.00034714578408876504, ,0.0017264147615941277,0.00030851046515393556,-0.004548368958286708,0.011386291312093677,0.007988225351822593,-0.0028452581784766703, ,0.004874766334591405, ,0.013908967329343809, ,3.616115966664015e-05, ,0.17925235274362508,-0.24125817499077368,0.09346510158000002,1.6961819528463176,0.5088343251265002,-1.167263148800192, ,0.012698640647460293,0.009896300230527084,0.004753450170098478,-0.0004435884230549862,0.021360385918270986,-0.020683693875820655, ,0.934333086013794
0.010572270104671596,0.02105436106641139,-0.08281665951664585, ,0.010804871676624878,0.020936734549153714,-0.08303839004680301, ,0.000342204495647095, ,0.0015419289746596817,0.00020544346865609308,-0.004212447823300565,0.03420156156254541,0.03654068496521975,-0.002498451486164354, ,0.004490486459810137, ,0.050049660035984524, ,3.665329435161591e-05, ,0.17973888491470125,-0.24090292927855936,0.0936439896,1.6961819528463176,0.5095175076253274,-1.1679019170588147, ,0.014102681164879,0.01035243581514,0.0045073037691001705,-0.0004435884230549862,0.052212608434053925,-0.042749743997421076, ,0.9718589782714844
0.010618705435569043,0.02105867671484309,-0.08292557758138887, ,0.010873509223310433,0.020940487646584446,-0.08319577991135367, ,0.00038974725813225827, ,0.0015845795759317092,0.00010467699422592587,-0.0038407423099177706,0.003645786927014748,0.0033957704918906556,-0.0017513456554119357, ,0.0041560980735267285, ,0.004982270437766097, ,3.736166774348265e-05, ,0.18007868516116712,-0.2406326336279615,0.09375676683,1.6961819528463176,0.5097907806248584,-1.1681247528662075, ,0.01193522092296199,0.010078924575558992,0.003984194977488744,-0.0004435884230549862,0.015880328810439378,-0.013124907326152247, ,1.0093750953674316
0.010676009874367447,0.021060879992775804,-0.08305111148396169, ,0.01094274187768164,0.020943545367826787,-0.08335254594331065, ,0.0004192566148398041, ,0.00182993927396044,4.927633390098944e-05,-0.003955551935346173,-0.006866619600345637,-0.00937949438697043,-5.215226693226446e-05, ,0.004358611822207438, ,0.011624344227641565, ,3.8367268817600735e-05, ,0.18051115820212368,-0.24030055611436985,0.09388639583000001,1.6959722629028329,0.5100640536243892,-1.1683475886736003, ,0.013498853706752599,0.010872759009783772,0.004067622962206334,-0.0021484438049972705,0.004761606535426031,-0.004058113084291287, ,1.040675163269043
0.010750955669257784,0.02107266240676515,-0.08322382641292919, ,0.011012560893916572,0.020945918472454205,-0.08350869459408175, ,0.0004070027015715727, ,0.0021632373090000106,0.0005486448264921584,-0.005831636270969921,0.006989665616039967,0.0032043787125696278,-0.0008746837851727313, ,0.006244084272139365, ,0.007689178214418219, ,3.9251264260930576e-05, ,0.18105947223619362,-0.23992986493640706,0.09406658014000001,1.6959722629028329,0.5104739631236854,-1.1688451998649707, ,0.01464911107725699,0.010608911312553936,0.006095986039035591,-0.0021484438049972705,0.01886997761553396,-0.017293646914453047, ,1.073409080505371
0.010801342897267925,0.021081908869757564,-0.08335860006843913, ,0.01108295757542783,0.020947617663462207,-0.08366423227393345, ,0.00043675164576528926, ,0.0019222961953146791,-1.655963567141549e-05,-0.004449330106938514,-0.002238287321786778,-0.0039000847007054384,-0.0011070906374023434, ,0.004846858290126126, ,0.004496730930780998, ,4.022817717452138e-05, ,0.1813992724826595,-0.23964412382006076,0.09420657946000001,1.6959722629028329,0.5108838726229818,-1.16917945357606, ,0.013998663749590025,0.0129853505142954,0.004565437523645744,-0.0021484438049972705,0.010893287391950019,-0.01065760318537666, ,1.1048500537872314
0.01088837178155915,0.0210807927944076,-0.08353830226928156, ,0.01115392327475628,0.02094865358738261,-0.08381916535209018, ,0.00040848798863268523, ,0.0022764860957797837,-8.657047757303072e-06,-0.004880365545386959,-0.0062285121902241605,-0.0095416391622297,-0.0012626722430760804, ,0.00538520489353513, ,0.011394614483928651, ,4.101647399332118e-05, ,0.18207115024271703,-0.23911897798461348,0.09439194893000001,1.6957625729593484,0.5112937821222782,-1.1696770647674304, ,0.01687056738817258,0.01411736708694894,0.005016948510236221,-0.0019789350877082407,0.008005687997483565,-0.007818371949271517, ,1.1370329856872559
0.010955977694772745,0.021084543755662703,-0.08369541750996735, ,0.011225449393465535,0.02094903683439877,-0.0839735001568336, ,0.0004102524595842681, ,0.002148832294946408,0.00035072533794960805,-0.00567585877953628,0.03194889803387224,0.031812863156088375,-0.0018987224118528446, ,0.006079133275371052, ,0.045086476263689015, ,4.176947223013008e-05, ,0.18261174154391277,-0.23870195040940537,0.09455657776000001,1.6957625729593484,0.5122502376206363,-1.1704569900933055, ,0.017645396347800442,0.012599169086360966,0.006031356122680804,-0.0019789350877082407,0.05132526077630757,-0.043099771238562616, ,1.1686069965362549
0.01103398321238679,0.021091975489276542,-0.08386383398972956, ,0.011297527382035941,0.02094877793846007,-0.08412724297560253, ,0.0003991808634623227, ,0.0023037171710172874,-2.9887639609832255e-06,-0.004851398776442155,-0.004278033179437393,-0.007824581218655974,-0.0012446548256162602, ,0.00537058579903667, ,0.008917714754593534, ,4.243270450727983e-05, ,0.18318322377660537,-0.2383003682999457,0.09473157691,1.6957625729593484,0.5125235106201671,-1.1706798259006983, ,0.017320120744382328,0.013912467608630812,0.005005911854179762,-0.0019789350877082407,0.010232633414933658,-0.009487368672138435, ,1.201106071472168
0.01109617723149452,0.02109366651304636,-0.08401035707742424, ,0.011370148739757469,0.020947887377397438,-0.08428040005509313, ,0.00041138200436905515, ,0.001847491311534752,2.9048642240510987e-05,-0.004690332566507806,0.03855254457267395,0.041234355240365346,-0.0018685236063715619, ,0.005041159346247262, ,0.05644971871361891, ,4.3302654209605833e-05, ,0.1837315378106753,-0.23789878619048602,0.09488713171,1.695552883015864,0.514026512117587,-1.171905422841359, ,0.01696405819779599,0.013407310194754277,0.005005911854179762,-0.0023835822226465795,0.06038533522927931,-0.05029550900115133, ,1.2273411750793457
0.011144531237858427,0.02109458099254458,-0.08410811603208485, ,0.011443305014625666,0.02094637557303746,-0.08443297760135783, ,0.00046558098677410367, ,0.002564869172536783,9.957518147146814e-05,-0.005315530866290139,-0.014232345224116405,-0.01885424598653898,-0.00021926460405455794, ,0.005902824534024181, ,0.023622917644858396, ,4.436704615715316e-05, ,0.18409450625576387,-0.23762849053988816,0.09498824233000001,1.695552883015864,0.5141631486173524,-1.1720985194851958, ,0.01829162327649784,0.013906351342097124,0.00547193800068705,-0.0023835822226465795,0.0,0.0001454159667422894, ,1.2536611557006836
0.01123647635369164,0.021109293222465363,-0.084310976830227, ,0.011516987803233134,0.02094425289131807,-0.08458498177990556, ,0.0004254452922261934, ,0.002920248229023955,0.0005700874021921182,-0.007198502363298503,-0.009505953232248076,-0.015230381534476027,0.00019495308276605366, ,0.007789177468749177, ,0.01795348571198181, ,4.521897110041855e-05, ,0.1847354930843245,-0.23722690843042848,0.09519953760000001,1.6953431930723792,0.5142997851171178,-1.1722099373888923, ,0.01864746346206932,0.0137671466064806,0.007464297806935334,-0.003315110895871586,0.004301415203325875,-0.004542694051208487, ,1.2800700664520264
0.011273975891261591,0.02111371443430454,-0.08440405810374277, ,0.011591188750665081,0.02094152964240312,-0.08473641871580148, ,0.0004906477118881891, ,0.0025108833116383586,0.00019645337887163738,-0.005696970171595995,0.01730462833873644,0.014476625097329828,-0.0005838805105014423, ,0.0062288520668569896, ,0.022561534303976182, ,4.6303204118394354e-05, ,0.18500578873492235,-0.2370106719099502,0.09529675935000001,1.6953431930723792,0.5147096946164142,-1.1725441910999816, ,0.02007551122455485,0.014065057293385322,0.006006339185520362,-0.003315110895871586,0.03629752908017926,-0.030633379488194966, ,1.3074891567230225
0.011362672185661305,0.02110451232476288,-0.0845534478365983, ,0.011665899550394302,0.020938216080796542,-0.08488729449376624, ,0.0004806816680324307, ,0.0026782076968830206,-0.00022355804364615378,-0.00467855436773354,-0.007355424588733272,-0.012572512649522801,-5.419704723278211e-06, ,0.005395520886657834, ,0.014566068205296562, ,4.730386936915925e-05, ,0.18573172562509946,-0.2364778033416287,0.09545101786000001,1.6953431930723792,0.514982967615945,-1.1729303843876555, ,0.021715547267384616,0.01575837621362849,0.004841584048632219,-0.003315110895871586,0.010193696165298607,-0.008409528218378001, ,1.333739995956421
0.011412907255359367,0.021105231877434016,-0.08467105296017662, ,0.011741111944171856,0.020934322405458585,-0.08503761515827639, ,0.0005208610279577084, ,0.002736984400196137,0.00013699148650444214,-0.006803966828784576,0.020070519390736043,0.01600161347027946,-0.003064272347595828, ,0.007335108375579229, ,0.02566860665646554, ,4.86147213473453e-05, ,0.1861564759331818,-0.23614572582803706,0.0955754617,1.6953431930723792,0.5160760596140685,-1.1739034063573675, ,0.02028579340711218,0.01764867799116064,0.007098400855614974,-0.003315110895871586,0.038017691428510414,-0.03717440816957704, ,1.355295181274414
0.011515998509481588,0.02111397238828098,-0.08490059552392674, ,0.011816817721923664,0.020929858759920053,-0.08518738671366376, ,0.00045457586081232504, ,0.0036763282488648484,0.000395988803912977,-0.008014384498991133,-0.021161876397844507,-0.02623627016959192,0.0032044469914459706, ,0.00882624242947674, ,0.03370707421337265, ,4.962684965638399e-05, ,0.18685924462473624,-0.23562057999258978,0.09581268277,1.6949238131854105,0.516212696113834,-1.174178181741345, ,0.024855144462669142,0.017714568146065108,0.008296256,-0.005786381913110896,0.0,0.0028778573066837146, ,1.3769409656524658
0.011580494232263285,0.021121184861731347,-0.08505627791772905, ,0.011893008721644541,0.02092483523239641,-0.08533661512421509, ,0.00046347322722417524, ,0.0034948949559840056,0.0002636319774313708,-0.0077892208793618935,0.03102458721527829,0.018165355877704712,-0.0026735606673195015, ,0.008541414079669366, ,0.03595142747331837, ,5.0642044401972646e-05, ,0.18736122226156082,-0.23525761154750124,0.0959773116,1.6949238131854105,0.5173057881119575,-1.1750695249709162, ,0.02758632022048569,0.01893772531599896,0.008223444254001034,-0.005786381913110896,0.048261685052926835,-0.04979435085592708, ,1.3977890014648438
0.011650978758638037,0.021123786117439647,-0.08519882240258234, ,0.01196967682929059,0.020919261855903995,-0.08548530631427186, ,0.00047483856777992615, ,0.0034768873028712816,-7.63995942562436e-05,-0.006647857019049584,-0.002281271370867328,-0.016894659218903884,-0.001320320056686375, ,0.007502571903060768, ,0.017047982174041524, ,5.16694798365841e-05, ,0.18787092263125965,-0.23488692036953845,0.09612508866000001,1.6949238131854105,0.517442424611723,-1.1751809428746127, ,0.026360261544019662,0.01925668456949488,0.006889624359861593,-0.005786381913110896,0.011009838421716257,-0.017863869090551005, ,1.4190540313720703
0.011690564341688248,0.021121297105381368,-0.08527416776589983, ,0.012046813978674136,0.020913148608374028,-0.08563346616833055, ,0.0005471151091390741, ,0.003829640548664861,-0.00024260345829117019,-0.006723516961388508,-0.01436899979004188,-0.030433935851746644,-0.0011501845571249068, ,0.007741491038555292, ,0.033655498698646355, ,5.2935045597895394e-05, ,0.1881721092133544,-0.2346475156504375,0.09620286606,1.6949238131854105,0.5175790611114884,-1.1752923607783092, ,0.02917213082031072,0.021263038664232754,0.006925570226086957,-0.005786381913110896,0.0,-0.008039253716209132, ,1.4400341510772705
0.011794643674049692,0.021113968845791264,-0.0854782020334965, ,0.012124412151357138,0.020906505412768166,-0.08578110053114164, ,0.0004934934898690013, ,0.0036420844509380567,-0.0004804338953838683,-0.005781004491378599,0.0017736346310261851,-0.004157327757427815,-0.0012267439024843708, ,0.006849496974591493, ,0.004519861439277434, ,5.396710899524858e-05, ,0.18909111442538712,-0.23399108335612842,0.09641934649000002,1.6947141232419258,0.5194919721082046,-1.17701556891034, ,0.03155867693996368,0.021670916090082388,0.006058886085964246,-0.0034472784157409207,0.02896164095655051,-0.02275629665110425, ,1.461130142211914
0.011835233428862646,0.021111485198393502,-0.0855485513002266, ,0.012202463376546352,0.020899342137192318,-0.08592821520780979, ,0.0005692162994968829, ,0.0040187163256972455,-0.00017854646586436328,-0.00754494871399431,-0.009827744774820825,-0.015387019388780199,-0.0011540736076204453, ,0.008550333960945771, ,0.018257735581927174, ,5.544288788115849e-05, ,0.1894000237403561,-0.23376712410277592,0.09649193873,1.6947141232419258,0.5194919721082046,-1.17701556891034, ,0.030830715256163342,0.02291089849311221,0.007831274100294987,-0.0034472784157409207,0.016685167139474263,-0.012745655425438106, ,1.476931095123291
0.011921909451746471,0.021113587111053937,-0.08571781968468754, ,0.012280959730986326,0.020891668595012205,-0.08607481596389348, ,0.0005528211954613024, ,0.004681006065439088,0.0002011755625697055,-0.009170773469039361,-0.019573124088790292,-0.029340858657677715,-0.0009006067189827518, ,0.010298319057598138, ,0.035270286481642106, ,5.6828165772978656e-05, ,0.19004101056891673,-0.2333192055960709,0.09666823417,1.6947141232419258,0.5197652451077354,-1.1772384047177331, ,0.03363946882611513,0.022994170476973778,0.009532502405745064,-0.0034472784157409207,0.005240854477766339,-0.0034315618959863577, ,1.4928021430969238
0.012003777611057295,0.02111548501398504,-0.08590745601604147, ,0.012359893338852852,0.020883494544968767,-0.08622090852550521, ,0.0005281008094927194, ,0.004110435189636435,0.00010982683788331095,-0.009425845299280608,0.019916661351787483,0.025428629420125488,-0.000939965682769247, ,0.010283690922450524, ,0.032299977077127416, ,5.809630872394952e-05, ,0.19070516559610004,-0.23281722795924628,0.09686915912,1.6945044332984414,0.5214048831049207,-1.1785754195620903, ,0.031339808969111885,0.02486165615888676,0.009905977313432835,-0.0037101687519739113,0.0591977440349494,-0.042922340432997565, ,1.5091731548309326
0.012049569706953166,0.021114200401053832,-0.08600109421144207, ,0.012439256371647861,0.020874829691292066,-0.08636649857941067, ,0.0005853839641323115, ,0.004812870465374791,-0.00017623490564133725,-0.008925404199974559,-0.021408870584180804,-0.025544720073650405,0.004023980299499519, ,0.010141874629049941, ,0.03332975257467785, ,5.9538747453635354e-05, ,0.19104496584256592,-0.23255465504152267,0.09696638087000001,1.6942947433549567,0.5216781561044516,-1.178798255369483, ,0.03615121583179839,0.026229115964198666,0.009260936930232559,-0.007901788878076382,0.012811625564891932,-0.005108978514572923, ,1.524975061416626
0.012145074053838729,0.021107079732046466,-0.08617390347849088, ,0.012519041048093985,0.02086568368381605,-0.08651159177312875, ,0.0005587098971997966, ,0.00489808895405128,-0.00030104994040738744,-0.009120383390098874,-0.022331510180376206,-0.025441947213729527,0.002820348691583465, ,0.01035679968189063, ,0.033852458726910784, ,6.0858517088492615e-05, ,0.19177090273274303,-0.2319986182745785,0.09714526889000001,1.6942947433549567,0.5219514291039825,-1.179021091176876, ,0.0365550622336174,0.028051120768096596,0.009436499715639812,-0.007206012545478441,0.013157164273201145,-0.005865523257935948, ,1.5406451225280762
0.012189848140456433,0.021105164528103286,-0.0862654297759782, ,0.012599239634026694,0.020856066118094534,-0.08665619371503192, ,0.0006183428409396773, ,0.0048081578863301885,-0.00024397063594913096,-0.009497010241378081,0.05135305734520741,0.05124027378446955,-0.0012649848762905811, ,0.010647586931127858, ,0.07254448344947496, ,6.257101987043293e-05, ,0.19214931664358004,-0.2317205998911064,0.09724249064000001,1.6942947433549567,0.5227712481025752,-1.1796079198589138, ,0.04221394197440871,0.02914525232139766,0.010152206195028681,-0.006862528108003027,0.09751550597661937,-0.0782692644699939, ,1.5519201755523682
0.012239635648808582,0.021101616064448374,-0.08636469223759263, ,0.012679844442289477,0.02084598653551533,-0.08680030997444489, ,0.0006699948138461362, ,0.005169495984715658,-0.00032761897145863435,-0.010336348770306715,0.02268925969535609,0.02191902975187596,-0.0013558114193266521, ,0.011561623105250926, ,0.03154752371897824, ,6.44369540283277e-05, ,0.19256634421878815,-0.2314039678432632,0.09734749013,1.6942947433549567,0.5235910671011678,-1.1802764272810924, ,0.04156677247414401,0.03196259399072778,0.010865492169167804,-0.006538832407339746,0.06668037335822505,-0.05324307845972217, ,1.562690019607544
0.01229726238358441,0.021101604820179847,-0.0864798583431355, ,0.01276084783262892,0.02083545442341434,-0.0869439460817449, ,0.0007079017808932392, ,0.006099289297071776,0.00031220771492052653,-0.013035397774804624,-0.008774971974543468,-0.010728577845178782,0.0009538133660272816, ,0.014395151917712143, ,0.013860091607146813, ,6.640643658899635e-05, ,0.19299881725974471,-0.23108733579542,0.09746804510000001,1.6942947433549567,0.5240009766004642,-1.1806923597323222, ,0.04311537553769685,0.031812585168780015,0.01361436882051282,-0.006254775488048763,0.03476157408272489,-0.022230781449994484, ,1.5731639862060547
0.012365760953391019,0.021105982893170436,-0.0866260046059021, ,0.012842242211585558,0.020824479215192357,-0.08708710752846296, ,0.0007203434009692941, ,0.007119600235073039,0.0005964827618558718,-0.015037776405780093,-0.009783580922662013,-0.015885417914046948,-0.005593887603740719, ,0.01664870020219836, ,0.01865647847233669, ,6.839133702072372e-05, ,0.19348534943082085,-0.23074753554895414,0.09762100732000001,1.6940850534114722,0.5244108860997605,-1.1810266134434113, ,0.049998388597719066,0.03437049676148887,0.015755501008902082,1.6938978733323702e-05,0.03505154382942659,-0.022563689990691086, ,1.5836880207061768
0.012411662627284974,0.02110897562569909,-0.08672994694257982, ,0.012924020032390283,0.02081307029042849,-0.08722979976738116, ,0.0007745469156027432, ,0.0068949607847037,0.0006770977204470492,-0.0160149789378461,0.010554804450441279,0.011056517649021741,0.0027818596005513736, ,0.017449312190607705, ,0.015285595376585342, ,7.053148548233881e-05, ,0.1938097042115383,-0.23050813082985316,0.09772989568000001,1.693875363467988,0.5248207955990567,-1.1813608671545008, ,0.04773488005959295,0.035568568800026526,0.016802543797468355,-0.009862996162124035,0.06266540214428318,-0.045138673754975996, ,1.5955660343170166
0.012552965953999054,0.02112104253149347,-0.08705207396520143, ,0.013006173794858246,0.020801236974994988,-0.0873720282126343, ,0.0006403465166875612, ,0.007499622674417009,0.00039574298134048666,-0.01567340289923625,0.026811848840034732,0.022732425908551936,0.005394621970461583, ,0.017379773048221813, ,0.035151635524840984, ,7.219576396808174e-05, ,0.19482910495093594,-0.22977447120680183,0.09806952366,1.6936656735245033,0.5264604335962421,-1.1826978819988576, ,0.05685856294695672,0.03771738535710285,0.016592512,-0.013978874672924978,0.08491238710808731,-0.06370012547937173, ,1.606053113937378
0.012624497494668895,0.021120275713033786,-0.08718542960332397, ,0.013088696045282587,0.02078898854117239,-0.08751379823980886, ,0.0006580710038124456, ,0.007221955253857385,-0.0008420637256039829,-0.012180620637528398,-0.02595457617093745,-0.034787263522897016,0.004656973400123248, ,0.014185669815771093, ,0.043402689542163614, ,7.389668938489063e-05, ,0.19536969625213166,-0.22940378002883907,0.09820952298,1.6936656735245033,0.5268703430955384,-1.1829504569698064, ,0.05592041341100223,0.04160321857013186,0.012651955138999207,-0.012768108907347264,0.024681736315891916,-0.016344532990050446, ,1.6164660453796387
0.012704594050938815,0.021107538783335773,-0.08731022010289101, ,0.013171579376327576,0.02077633420776479,-0.08765511518604323, ,0.0006683744335252351, ,0.007675375689488344,-0.0014911393793579693,-0.011837139564411629,-0.04190950186192394,-0.05109247930325538,0.0026819799957018883, ,0.014186358295588754, ,0.06608212735126956, ,7.560912706500727e-05, ,0.19601068308069228,-0.22892497059063713,0.09833915198000001,1.6936656735245033,0.5271436160950693,-1.1831732927771994, ,0.060443911820682025,0.047710880622660025,0.012187307972456008,-0.011681569132871389,0.012343024172665184,-0.006544571086966491, ,1.6269440650939941
0.01277419562830637,0.02109212082021816,-0.08742130086119977, ,0.013254816426923267,0.020763283140214292,-0.08779598435012766, ,0.0006924725905973762, ,0.007078222877087247,-0.001337599692281932,-0.01036470363114747,0.03933542589171107,0.030651487675847165,-0.008511019525178212, ,0.012622103366556446, ,0.049867718087057436, ,7.737793208614243e-05, ,0.1966130562448818,-0.22846160661818368,0.09845581808000001,1.6934559835810188,0.5279634350936618,-1.1837601214592373, ,0.06442426446603583,0.04335173209614928,0.011084767933194156,-0.002961777169224146,0.09812672349177391,-0.07961846483422347, ,1.6376311779022217
0.01277419562830637,0.02109212082021816,-0.08742130086119977, ,0.01333839988215972,0.020749844450715843,-0.08793641099260394, ,0.00083714873269994, ,0.007078222877087247,-0.001337599692281932,-0.01036470363114747,0.03933542589171107,0.030651487675847165,-0.008511019525178212, ,0.012622103366556446, ,0.049867718087057436, ,7.98527555409105e-05, ,0.1966130562448818,-0.22846160661818368,0.09845581808000001,1.6934559835810188,0.5279634350936618,-1.1837601214592373, ,0.06442426446603583,0.04335173209614928,0.011084767933194156,-0.002961777169224146,0.09812672349177391,-0.07961846483422347, ,1.6430189609527588
0.012846305521794747,0.02107782544970725,-0.08752420838210255, ,0.01342232247318118,0.02073602719833175,-0.08807640033586445, ,0.0008680653931169293, ,0.007569091752972769,-0.00184198402424491,-0.010968328874304366,0.008069002372358658,0.0005555550317043758,-0.009037834423011905, ,0.013453188967876454, ,0.008088095074401273, ,8.241188748109237e-05, ,0.19724632034056822,-0.22802141084435287,0.09856470644000001,1.6934559835810188,0.5286466175924891,-1.1843172109777194, ,0.06576364626366651,0.05005112951396138,0.011500946945848377,-0.002961777169224146,0.06864926860728165,-0.05576760302523432, ,1.6483161449432373
0.012846305521794747,0.02107782544970725,-0.08752420838210255, ,0.01350657697707886,0.020721840389107515,-0.08821595756425397, ,0.0010203924191409697, ,0.007569091752972769,-0.00184198402424491,-0.010968328874304366,0.008069002372358658,0.0005555550317043758,-0.009037834423011905, ,0.013453188967876454, ,0.008088095074401273, ,0.0004632149783038144, ,0.19724632034056822,-0.22802141084435287,0.09856470644000001,1.6934559835810188,0.5286466175924891,-1.1843172109777194, ,0.06576364626366651,0.05005112951396138,0.011500946945848377,-0.002961777169224146,0.06864926860728165,-0.05576760302523432, ,1.6535131931304932
0.01293374723960328,0.021060868937566684,-0.08766653903974282, ,0.013591156216786152,0.020707292976185763,-0.0883550878241674, ,0.0010155303797915822, ,0.009209791141947922,-0.0012020088744112817,-0.01706496430244986,0.01816583533632082,0.015668807389643973,-0.011590973056165865, ,0.019428795249740883, ,0.02398974054227194, ,0.0004727376576398104, ,0.1979722572307453,-0.22744992861166025,0.09871377979000001,1.6934559835810188,0.5294664365910817,-1.184985718399898, ,0.07211013796236382,0.05883257381182317,0.01785741201793722,-0.002961777169224146,0.09063108802932322,-0.0738679871701036, ,1.6587440967559814
0.01293374723960328,0.021060868937566684,-0.08766653903974282, ,0.01367605306097319,0.020692393859920912,-0.08849379622415049, ,0.0011709595485924422, ,0.009209791141947922,-0.0012020088744112817,-0.01706496430244986,0.01816583533632082,0.015668807389643973,-0.011590973056165865, ,0.019428795249740883, ,0.02398974054227194, ,0.00048457192697799056, ,0.1979722572307453,-0.22744992861166025,0.09871377979000001,1.6934559835810188,0.5294664365910817,-1.184985718399898, ,0.07211013796236382,0.05883257381182317,0.01785741201793722,-0.002961777169224146,0.09063108802932322,-0.0738679871701036, ,1.6642141342163086
0.013035195626623995,0.02105386194023581,-0.08787382119339883, ,0.013761260423937905,0.020677151887995567,-0.08863208783500054, ,0.0011153693796779928, ,0.010919093613935043,0.00018361285718606268,-0.024188295913972965,0.051665708370679776,0.05104944807615975,-0.005240589478445534, ,0.02653929121610301, ,0.07263183386367428, ,0.0004950852178563239, ,0.19874453051816776,-0.2268398327145965,0.09893155651,1.6930366036940496,0.5306961650889708,-1.1859884795331657, ,0.07881805777281627,0.06178186299379608,0.025486098432000007,-0.011923360266167757,0.1357554485920302,-0.11079435595935011, ,1.6695530414581299
0.01314835338684505,0.021058355251143662,-0.08813254341854199, ,0.013846771265503452,0.020661575855533715,-0.0887699676898653, ,0.0010254419162889468, ,0.012233275647489416,0.0009954001478859691,-0.02786753773858762,0.07527233526672426,0.06993045551416427,0.0079682462288262, ,0.0304506734594405, ,0.10274325407449723, ,0.0005037795899617768, ,0.19956314020283555,-0.22622201408465856,0.09920507370000001,1.6926172238070805,0.532335803086156,-1.1873254943775227, ,0.08746261894789933,0.06174166659627246,0.02955252601113173,-0.02706097259931156,0.16732283537839665,-0.1365308300120222, ,1.6754591464996338
0.01314835338684505,0.021058355251143662,-0.08813254341854199, ,0.013932578590911456,0.02064567450521555,-0.08890744078434204, ,0.0011771917839828144, ,0.012233275647489416,0.0009954001478859691,-0.02786753773858762,0.07527233526672426,0.06993045551416427,0.0079682462288262, ,0.0304506734594405, ,0.10274325407449723, ,0.0005146410769621161, ,0.19956314020283555,-0.22622201408465856,0.09920507370000001,1.6926172238070805,0.532335803086156,-1.1873254943775227, ,0.08746261894789933,0.06174166659627246,0.02955252601113173,-0.02706097259931156,0.16732283537839665,-0.1365308300120222, ,1.6807310581207275
0.013279818167860917,0.02106801951359011,-0.08842811317048152, ,0.014018675450713036,0.020629456527394487,-0.08904451207658005, ,0.0010574474874545338, ,0.013398696819007546,0.0006684565039431082,-0.03127046085171146,0.04354025625684272,0.03980041791789106,0.028145184722642325, ,0.034026660612287034, ,0.05898980658838558, ,0.000523257051731837, ,0.20048214541486828,-0.22555785905747525,0.09951747959000001,1.6924075338635962,0.5338388045835759,-1.1884694125780428, ,0.0902062182114741,0.07205538463057766,0.03284291035051547,-0.05056438124936437,0.14457298959419798,-0.12029214513585156, ,1.6859941482543945
0.013279818167860917,0.02106801951359011,-0.08842811317048152, ,0.014105054940668075,0.0206129305602087,-0.0891811864873773, ,0.0012063337462341719, ,0.013398696819007546,0.0006684565039431082,-0.03127046085171146,0.04354025625684272,0.03980041791789106,0.028145184722642325, ,0.034026660612287034, ,0.05898980658838558, ,0.0005339301250834359, ,0.20048214541486828,-0.22555785905747525,0.09951747959000001,1.6924075338635962,0.5338388045835759,-1.1884694125780428, ,0.0902062182114741,0.07205538463057766,0.03284291035051547,-0.05056438124936437,0.14457298959419798,-0.12029214513585156, ,1.6912879943847656
0.013419363100563532,0.021075883427415138,-0.08873874162359698, ,0.014191710201634618,0.020596105189698642,-0.08931746890028293, ,0.00107779054676667, ,0.014993651723599278,0.0005582905804443206,-0.03190281628095493,0.009797305702972652,-0.0018794866777383829,0.01751554650823025, ,0.03525494244835988, ,0.009974298031161238, ,0.0005422972084939471, ,0.20142431882552367,-0.22483192216729814,0.09984414467000001,1.6924075338635962,0.5350685330814648,-1.1894721737113105, ,0.10259128817131975,0.07519567476899429,0.033534340042105266,-0.03701413484409544,0.11152763503178141,-0.08756430347758273, ,1.6967251300811768
0.013419363100563532,0.021075883427415138,-0.08873874162359698, ,0.01427863441946515,0.020578988949920836,-0.08945336416169582, ,0.0012230849084221803, ,0.014993651723599278,0.0005582905804443206,-0.03190281628095493,0.009797305702972652,-0.0018794866777383829,0.01751554650823025, ,0.03525494244835988, ,0.009974298031161238, ,0.0005526121736443749, ,0.20142431882552367,-0.22483192216729814,0.09984414467000001,1.6924075338635962,0.5350685330814648,-1.1894721737113105, ,0.10259128817131975,0.07519567476899429,0.033534340042105266,-0.03701413484409544,0.11152763503178141,-0.08756430347758273, ,1.7021660804748535
0.013419363100563532,0.021075883427415138,-0.08873874162359698, ,0.014365820824900812,0.020561590323062272,-0.089588877080964, ,0.0013722280849098104, ,0.014993651723599278,0.0005582905804443206,-0.03190281628095493,0.009797305702972652,-0.0018794866777383829,0.01751554650823025, ,0.03525494244835988, ,0.009974298031161238, ,0.0005648452469468441, ,0.20142431882552367,-0.22483192216729814,0.09984414467000001,1.6924075338635962,0.5350685330814648,-1.1894721737113105, ,0.10259128817131975,0.07519567476899429,0.033534340042105266,-0.03701413484409544,0.11152763503178141,-0.08756430347758273, ,1.7077791690826416
0.013538835325731052,0.021080588210254634,-0.08898966327897245, ,0.014453262693462773,0.020543917739557122,-0.08972401243048736, ,0.0012897524108549346, ,0.015338157423503793,0.00011107987276505298,-0.031247056568305794,0.01655879880462957,0.004672447107962052,0.010336270980235342, ,0.03480876263341201, ,0.017204528227744268, ,0.0005755056464160806, ,0.20225065124306568,-0.22422954900310865,0.10010858783000001,1.6924075338635962,0.5360249885798228,-1.190170420297045, ,0.10808307694586651,0.07849209392760198,0.03291076760330579,-0.030597551918196256,0.12236319880438777,-0.09602275916795219, ,1.7131199836730957
0.013737697100234592,0.02107017641148488,-0.08935842362839251, ,0.014540953345350473,0.020525979578198825,-0.08985877494581299, ,0.0010916603086677833, ,0.015421035302235798,-0.0017171030977308948,-0.025232128127547486,-0.041225629719723426,-0.050248036144452134,-0.013590725015651834, ,0.029621226556069767, ,0.06499544179912799, ,0.0005829861487675546, ,0.20369480229054568,-0.2231715345993399,0.10049617854000001,1.6921978439201113,0.5372547170777118,-1.1909281452098912, ,0.11658100928559063,0.08390534178467797,0.026503846123128123,0.0,0.06805879225561137,-0.038157542933654635, ,1.7184290885925293
0.013737697100234592,0.02107017641148488,-0.08935842362839251, ,0.014628886145332929,0.020507784166256694,-0.08999316932573911, ,0.0012302052885173726, ,0.015421035302235798,-0.0017171030977308948,-0.025232128127547486,-0.041225629719723426,-0.050248036144452134,-0.013590725015651834, ,0.029621226556069767, ,0.06499544179912799, ,0.0005922321364782662, ,0.20369480229054568,-0.2231715345993399,0.10049617854000001,1.6921978439201113,0.5372547170777118,-1.1909281452098912, ,0.11658100928559063,0.08390534178467797,0.026503846123128123,0.0,0.06805879225561137,-0.038157542933654635, ,1.7237260341644287
0.013893509393041363,0.021041059599043455,-0.08960267785758676, ,0.014717054502641963,0.02048933977959121,-0.09012720023241341, ,0.001121492322050078, ,0.015402647149794196,-0.003611835030308301,-0.022855920499292328,-0.022668109780235243,-0.012208455754389395,-0.00018516172341411343, ,0.0277971220340739, ,0.025746521234129377, ,0.0005996865052891368, ,0.2049304395504216,-0.22224480665443294,0.10075284396,1.6917784640331426,0.5383478090758353,-1.1917378096993219, ,0.1255250549715222,0.0974301248033581,0.02402535674208145,-0.015887584449555864,0.1197668286935219,-0.07127249050759388, ,1.7290120124816895
0.013893509393041363,0.021041059599043455,-0.08960267785758676, ,0.014805451870869832,0.020470654642766706,-0.09026087229143172, ,0.001261039575016381, ,0.015402647149794196,-0.003611835030308301,-0.022855920499292328,-0.022668109780235243,-0.012208455754389395,-0.00018516172341411343, ,0.0277971220340739, ,0.025746521234129377, ,0.0006088719645909041, ,0.2049304395504216,-0.22224480665443294,0.10075284396,1.6917784640331426,0.5383478090758353,-1.1917378096993219, ,0.1255250549715222,0.0974301248033581,0.02402535674208145,-0.015887584449555864,0.1197668286935219,-0.07127249050759388, ,1.7342829704284668
0.01398165779458472,0.021018247031009844,-0.08973385806673367, ,0.01489407174785888,0.020451736929168917,-0.09039419009194076, ,0.001260742361123513, ,0.015143852330539494,-0.003994162539302181,-0.02212389616593534,0.019689567470167722,-0.005058526626383971,0.033799822056482506, ,0.027106390009749355, ,0.020328857774092837, ,0.0006178016960502549, ,0.20564865370772448,-0.22168104715461456,0.1008902507,1.6913590841461734,0.5390309915746625,-1.1922132204776634, ,0.12585801267701696,0.09703163758534844,0.02328773614035088,-0.06601520726251163,0.13815094672782002,-0.12511214611818552, ,1.7400071620941162
0.01398165779458472,0.021018247031009844,-0.08973385806673367, ,0.014982907675598976,0.02043259476111767,-0.09052715818673573, ,0.0014052811056355237, ,0.015143852330539494,-0.003994162539302181,-0.02212389616593534,0.019689567470167722,-0.005058526626383971,0.033799822056482506, ,0.027106390009749355, ,0.020328857774092837, ,0.0006284433096932991, ,0.20564865370772448,-0.22168104715461456,0.1008902507,1.6913590841461734,0.5390309915746625,-1.1922132204776634, ,0.12585801267701696,0.09703163758534844,0.02328773614035088,-0.06601520726251163,0.13815094672782002,-0.12511214611818552, ,1.745387077331543
0.014211201512298492,0.020957234807825593,-0.09004372978932483, ,0.015071953240120709,0.020413236209982175,-0.09065978109236025, ,0.0011901038691543601, ,0.01593400659211605,-0.004498964062621454,-0.020533306234882667,-0.03900137659090428,-0.05595897042240523,0.02008389842806029, ,0.026377071646599224, ,0.06820931092386195, ,0.0006359321171527799, ,0.20756389146053214,-0.2202446188400088,0.10121691578000001,1.6909397042592043,0.5406706295718479,-1.1935502353220204, ,0.13253762787495918,0.09895405793375472,0.021583755447154476,-0.043176889632653905,0.08797801053934998,-0.06389228926766843, ,1.7506811618804932
0.014211201512298492,0.020957234807825593,-0.09004372978932483, ,0.01516120207138794,0.020393669296297007,-0.09079206328920789, ,0.001334207695638862, ,0.01691512064647736,-0.005029963266841265,-0.02213753322255208,-0.025293030514126458,-0.04434474341670514,-0.03564667353437196, ,0.02831063782627043, ,0.05105084078184503, ,0.0006451199537118073, ,0.208969428843641,-0.21916343623761736,0.10144506282000001,1.69073001431572,0.541627085070206,-1.1942484819077548, ,0.13894134928033788,0.11073155374383986,0.023219841865889216,0.008719818057536993,0.09467944221882857,-0.07906929062188253, ,1.7567470073699951
0.014380370397757311,0.020907339821140104,-0.09026092232560762, ,0.015250647843193266,0.020373901989875886,-0.09092400922162122, ,0.0012172193654076326, ,0.01691512064647736,-0.005029963266841265,-0.02213753322255208,-0.025293030514126458,-0.04434474341670514,-0.03564667353437196, ,0.02831063782627043, ,0.05105084078184503, ,0.0006525498162013634, ,0.208969428843641,-0.21916343623761736,0.10144506282000001,1.69073001431572,0.541627085070206,-1.1942484819077548, ,0.13894134928033788,0.11073155374383986,0.023219841865889216,0.008719818057536993,0.09467944221882857,-0.07906929062188253, ,1.7620811462402344
0.014552500446500777,0.02085868161690243,-0.09048583728105584, ,0.01534028427305197,0.020353942209926677,-0.09105562329799106, ,0.0010954548513858425, ,0.017718739219371213,-0.004716559922160395,-0.02351218381155564,-0.0029158043471506634,-0.026381504715112972,-0.02870187805953535, ,0.029816479413434988, ,0.026542014249008098, ,0.0006582280858832158, ,0.2103904116924983,-0.21805908543660327,0.10168228389000002,1.6909397042592043,0.5427201770683294,-1.1951398251373262, ,0.14599529470533967,0.11021712143840974,0.024888768000000002,0.0,0.12219130082276071,-0.10201445975156274, ,1.7673091888427734
0.014552500446500777,0.02085868161690243,-0.09048583728105584, ,0.015430105122096385,0.02033379782516596,-0.09118690989085695, ,0.0012398369915711754, ,0.017718739219371213,-0.004716559922160395,-0.02351218381155564,-0.0029158043471506634,-0.026381504715112972,-0.02870187805953535, ,0.029816479413434988, ,0.026542014249008098, ,0.0006655902239298987, ,0.2103904116924983,-0.21805908543660327,0.10168228389000002,1.6909397042592043,0.5427201770683294,-1.1951398251373262, ,0.14599529470533967,0.11021712143840974,0.024888768000000002,0.0,0.12219130082276071,-0.10201445975156274, ,1.7726361751556396
0.014735956641535842,0.02080904856825756,-0.09073240566750918, ,0.015520104194968817,0.020313476653934563,-0.09131787333700742, ,0.0010969281197272596, ,0.0186385464759303,-0.004902680567344804,-0.024997625088695543,-0.008305289225567388,-0.03258016822012581,-0.02474639725243142, ,0.031564425411463065, ,0.033621948625632024, ,0.0006709819476273658, ,0.21188862187009788,-0.21691612097121804,0.10194283818000001,1.69073001431572,0.5439499055662184,-1.1961425862705939, ,0.15159255840011304,0.11502659582844943,0.026459819800664457,-0.005473505764369783,0.12276056751643233,-0.10242739389846878, ,1.7779431343078613
0.014735956641535842,0.02080904856825756,-0.09073240566750918, ,0.015610275339716238,0.020292986464312254,-0.09144851793758015, ,0.0012424049518826442, ,0.0186385464759303,-0.004902680567344804,-0.024997625088695543,-0.008305289225567388,-0.03258016822012581,-0.02474639725243142, ,0.031564425411463065, ,0.033621948625632024, ,0.0006780365526181716, ,0.21188862187009788,-0.21691612097121804,0.10194283818000001,1.69073001431572,0.5439499055662184,-1.1961425862705939, ,0.15159255840011304,0.11502659582844943,0.026459819800664457,-0.005473505764369783,0.12276056751643233,-0.10242739389846878, ,1.7831780910491943
0.014918775200243302,0.020761018036823425,-0.09098165288169238, ,0.01570061244768551,0.020272334974231317,-0.0915788479581594, ,0.0010985092518995291, ,0.019382222230523778,-0.004651589169093733,-0.026706854004873503,-0.03416767846260485,-0.06195420944934874,0.02638600826775426, ,0.03332512372413744, ,0.07075125958827784, ,0.0006831642684630662, ,0.21335594111620054,-0.21581177017020392,0.10220598505,1.6901009444852664,0.5450429975643419,-1.197115608240306, ,0.15355492161564852,0.11324217369745916,0.028242573617021278,-0.05710546224690655,0.10602983768322112,-0.08576446700001084, ,1.7884330749511719
0.014918775200243302,0.020761018036823425,-0.09098165288169238, ,0.015791109453414047,0.020251529851594178,-0.09170886762888053, ,0.0012447435674351071, ,0.019382222230523778,-0.004651589169093733,-0.026706854004873503,-0.03416767846260485,-0.06195420944934874,0.02638600826775426, ,0.03332512372413744, ,0.07075125958827784, ,0.0006899302841133318, ,0.21335594111620054,-0.21581177017020392,0.10220598505,1.6901009444852664,0.5450429975643419,-1.197115608240306, ,0.15355492161564852,0.11324217369745916,0.028242573617021278,-0.05710546224690655,0.10602983768322112,-0.08576446700001084, ,1.793680191040039
0.015122728102644459,0.02071333820249313,-0.09126804249959117, ,0.01588176033452849,0.02023057871438484,-0.09183858114452492, ,0.0010652234496856888, ,0.019706446262705415,-0.004960456857117698,-0.027267306403024764,-0.03516364902681245,-0.05095368873095253,0.020698977326262368, ,0.03400670750032495, ,0.061909171653098144, ,0.0006943980598939551, ,0.21496226955403921,-0.21461474657469912,0.10250931691000001,1.6896815645982974,0.546272726062231,-1.1982000481137143, ,0.15556875665323078,0.11759224480603565,0.028856542608695655,-0.04992618417214263,0.11775234788165774,-0.08685055079004811, ,1.798949956893921
0.015122728102644459,0.02071333820249313,-0.09126804249959117, ,0.015972559111635747,0.020209489130785848,-0.0919679926646232, ,0.0012107877041132409, ,0.019706446262705415,-0.004960456857117698,-0.027267306403024764,-0.03516364902681245,-0.05095368873095253,0.020698977326262368, ,0.03400670750032495, ,0.061909171653098144, ,0.0007004732321788878, ,0.21496226955403921,-0.21461474657469912,0.10250931691000001,1.6896815645982974,0.546272726062231,-1.1982000481137143, ,0.15556875665323078,0.11759224480603565,0.028856542608695655,-0.04992618417214263,0.11775234788165774,-0.08685055079004811, ,1.804408073425293
0.015241015073944437,0.020683693219551453,-0.09142953996799941, ,0.016063499848216783,0.02018826861929317,-0.09209710631355464, ,0.0011694321545813922, ,0.01961019638848786,-0.004483103303673743,-0.026893353560445244,-0.006941782813885076,-0.022430563038239,-0.06354722633670694, ,0.033584378561372634, ,0.023479873063800883, ,0.0007059262429044983, ,0.21589672023182038,-0.2139119778831447,0.10268042719,1.6894718746548125,0.5469559085610581,-1.1987571376321964, ,0.15506036202364507,0.11586928151217434,0.028648941582733817,0.038048515594337015,0.12722820610104627,-0.09481322537924573, ,1.8099830150604248
0.015241015073944437,0.020683693219551453,-0.09142953996799941, ,0.016154576650522702,0.020166924648830117,-0.09222592618064598, ,0.001317526284208059, ,0.01961019638848786,-0.004483103303673743,-0.026893353560445244,-0.006941782813885076,-0.022430563038239,-0.06354722633670694, ,0.033584378561372634, ,0.023479873063800883, ,0.0007129561284367231, ,0.21589672023182038,-0.2139119778831447,0.10268042719,1.6894718746548125,0.5469559085610581,-1.1987571376321964, ,0.15506036202364507,0.11586928151217434,0.028648941582733817,0.038048515594337015,0.12722820610104627,-0.09481322537924573, ,1.815446138381958
0.015498851461615035,0.020625320344579836,-0.09178400533237471, ,0.016245783667468188,0.020145464638861948,-0.0923544563202717, ,0.0010552646815104336, ,0.019645982972419866,-0.0045304537958480075,-0.027153486680423528,-0.028553261012943424,-0.04710366386037183,-0.026765110567352816, ,0.03382013449785294, ,0.055082021587158664, ,0.0007168459983580153, ,0.21791235351199298,-0.21241376770554513,0.10305764758000001,1.6896815645982974,0.5484589100584779,-1.199982734572857, ,0.1520784319847288,0.11405882398854661,0.028856542608695655,0.0,0.10724812214912267,-0.07986962428600101, ,1.8210201263427734
0.015498851461615035,0.020625320344579836,-0.09178400533237471, ,0.016337115090523595,0.020123895959512562,-0.09248270075195554, ,0.0012009527945903075, ,0.019645982972419866,-0.0045304537958480075,-0.027153486680423528,-0.028553261012943424,-0.04710366386037183,-0.026765110567352816, ,0.03382013449785294, ,0.055082021587158664, ,0.0007222854005628725, ,0.21791235351199298,-0.21241376770554513,0.10305764758000001,1.6896815645982974,0.5484589100584779,-1.199982734572857, ,0.1520784319847288,0.11405882398854661,0.028856542608695655,0.0,0.10724812214912267,-0.07986962428600101, ,1.8263161182403564
0.015708877833238388,0.020573003777298565,-0.09206176164706607, ,0.01642856515361201,0.020102225931677174,-0.09261066346046772, ,0.001020232728248852, ,0.019231760584736975,-0.005127091518131643,-0.024552272099972895,-0.03429604051589914,-0.05524905545155873,-0.02684440482890237, ,0.03160635613124435, ,0.06502820619881182, ,0.0007255959264260499, ,0.2195572956142028,-0.21118585317854344,0.10335320170000001,1.6896815645982974,0.5495520020566015,-1.2008740778024285, ,0.1520784319847288,0.11364903180655184,0.026155683940886704,0.0,0.09892707017924283,-0.0739261285710863, ,1.8316030502319336
0.015708877833238388,0.020573003777298565,-0.09206176164706607, ,0.01652012813300154,0.02008046182713823,-0.0927383483959272, ,0.001165544615305663, ,0.019231760584736975,-0.005127091518131643,-0.024552272099972895,-0.03429604051589914,-0.05524905545155873,-0.02684440482890237, ,0.03160635613124435, ,0.06502820619881182, ,0.000730430527402749, ,0.2210709512575508,-0.2100428887131582,0.10360597825000001,1.6890524947678438,0.5506450940547251,-1.201765421032, ,0.14577103157983223,0.11073155374383986,0.024355980917431196,-0.027246840425904112,0.1112800425336601,-0.08463750960385177, ,1.8368730545043945
0.015897976724029584,0.020516078375927352,-0.09229932735884298, ,0.01661179834719969,0.020058610868680264,-0.09286575947390062, ,0.00101963874527243, ,0.01821265784262731,-0.0054162685502751415,-0.022831116127864905,-0.02635613523194449,-0.04246689097591959,-0.0012064391706551022, ,0.029703480172285645, ,0.04998076119909029, ,0.0007335740949882889, ,0.2210709512575508,-0.2100428887131582,0.10360597825000001,1.6890524947678438,0.5506450940547251,-1.201765421032, ,0.14577103157983223,0.11073155374383986,0.024355980917431196,-0.027246840425904112,0.1112800425336601,-0.08463750960385177, ,1.8422729969024658
0.01607960899759941,0.02045755283846684,-0.0925240957020374, ,0.016703570156847446,0.020036680230204464,-0.0929929005755021, ,0.0008867013533428115, ,0.017661411342728348,-0.005963878939011813,-0.021513368705576387,-0.020493908347812,-0.033782014303280844,0.04215031129846334, ,0.028466090979941655, ,0.03951227861616156, ,0.000735220624648015, ,0.22253827050365346,-0.2089076469806472,0.10384579190000001,1.6886331148808746,0.551874822552614,-1.202686503425127, ,0.14400142876854444,0.11060249598889368,0.02298529800865801,-0.07438391956179706,0.12822053258823135,-0.10032971846532321, ,1.8478431701660156
0.01607960899759941,0.02045755283846684,-0.0925240957020374, ,0.016795437964614048,0.020014677036843318,-0.09311977554749344, ,0.0010312053936842322, ,0.017661411342728348,-0.005963878939011813,-0.021513368705576387,-0.020493908347812,-0.033782014303280844,0.04215031129846334, ,0.028466090979941655, ,0.03951227861616156, ,0.0007383693987866982, ,0.22253827050365346,-0.2089076469806472,0.10384579190000001,1.6886331148808746,0.551874822552614,-1.202686503425127, ,0.14400142876854444,0.11060249598889368,0.02298529800865801,-0.07438391956179706,0.12822053258823135,-0.10032971846532321, ,1.8531620502471924
0.01625005906700316,0.02040272456573102,-0.09273092128182807, ,0.016887396215089678,0.0199926083650762,-0.09324638820238441, ,0.0009165697379678441, ,0.01651778838519587,-0.0056462724714792896,-0.019981654367108293,0.028802015897667302,0.021455628614897186,0.014955813648660533, ,0.026532701279871115, ,0.03591513516164851, ,0.0007402451918307103, ,0.22394380788676232,-0.20783418711113,0.10406875378000001,1.6886331148808746,0.5533778240500338,-1.2039121003657876, ,0.13853568110725661,0.10497449287441457,0.02161304141112619,-0.04716895060865019,0.1731732540394603,-0.13732475067080235, ,1.858518123626709
0.01625005906700316,0.02040272456573102,-0.09273092128182807, ,0.016979439394681488,0.01997048124284297,-0.09337274231853127, ,0.0010633739679624544, ,0.01651778838519587,-0.0056462724714792896,-0.019981654367108293,0.028802015897667302,0.021455628614897186,0.014955813648660533, ,0.026532701279871115, ,0.03591513516164851, ,0.0007436111165820826, ,0.22394380788676232,-0.20783418711113,0.10406875378000001,1.6886331148808746,0.5533778240500338,-1.2039121003657876, ,0.13853568110725661,0.10497449287441457,0.02161304141112619,-0.04716895060865019,0.1731732540394603,-0.13732475067080235, ,1.8637971878051758
0.01642050653641984,0.020348941569867923,-0.09294123185408826, ,0.01707156203150496,0.019948302649660615,-0.09349884164023961, ,0.0009462100589600417, ,0.017177055065148928,-0.005502218505889543,-0.021031672003731704,-0.0376545320073479,-0.0534811019655093,0.006235450166704883, ,0.02770662116661401, ,0.06540709390536731, ,0.0007456997654725771, ,0.22533389980412274,-0.206768449974487,0.10429560453000002,1.6886331148808746,0.5548808255474537,-1.2051376973064483, ,0.1353736684143663,0.10544104617607865,0.0224349458028169,-0.034481237109475725,0.09079175617278404,-0.07044173932112818, ,1.8691051006317139
0.01642050653641984,0.020348941569867923,-0.09294123185408826, ,0.017163758695281632,0.019926079516735615,-0.09362468987786018, ,0.0010946921749470085, ,0.017177055065148928,-0.005502218505889543,-0.021031672003731704,-0.0376545320073479,-0.0534811019655093,0.006235450166704883, ,0.02770662116661401, ,0.06540709390536731, ,0.0007492609125080305, ,0.22533389980412274,-0.206768449974487,0.10429560453000002,1.6886331148808746,0.5548808255474537,-1.2051376973064483, ,0.1353736684143663,0.10544104617607865,0.0224349458028169,-0.034481237109475725,0.09079175617278404,-0.07044173932112818, ,1.8744840621948242
0.016525641767812814,0.02031832724127472,-0.09307133873145437, ,0.017256023997228448,0.019903818727082197,-0.09375029070789338, ,0.0010799311532198165, ,0.017768404416717024,-0.004941400603168287,-0.022789983315421994,-0.05762165165781204,-0.07882778360764314,0.0034073781835610474, ,0.029317519931846447, ,0.09764255250895135, ,0.0007526010159495637, ,0.22614478675591632,-0.20614290861167484,0.10443430756000001,1.6886331148808746,0.55529073504675,-1.2054719510175376, ,0.1346055908630791,0.10337357468243004,0.024244766392694066,-0.02981772705372411,0.06316059507727803,-0.04806235241860928, ,1.8801450729370117
0.016525641767812814,0.02031832724127472,-0.09307133873145437, ,0.017348352589957827,0.019881527115632718,-0.09387564777308458, ,0.0012306748072027334, ,0.017768404416717024,-0.004941400603168287,-0.022789983315421994,-0.05762165165781204,-0.07882778360764314,0.0034073781835610474, ,0.029317519931846447, ,0.09764255250895135, ,0.0007573817538620954, ,0.22614478675591632,-0.20614290861167484,0.10443430756000001,1.6886331148808746,0.55529073504675,-1.2054719510175376, ,0.1346055908630791,0.10337357468243004,0.024244766392694066,-0.02981772705372411,0.06316059507727803,-0.04806235241860928, ,1.8857741355895996
0.01677257269173182,0.02025355584553648,-0.09340432168025217, ,0.017440739167366114,0.019859211469356635,-0.09400076468252815, ,0.0009786205501368756, ,0.016978718078905004,-0.0041106195279631275,-0.023697693877084414,-0.001366732924829298,-0.014256785138638433,-0.011157371719015815, ,0.029440698965863762, ,0.014321885621914996, ,0.0007595722369935289, ,0.22802141084435287,-0.20472192576281753,0.10479078731000001,1.6880040450504212,0.5567937365441699,-1.2066975479581983, ,0.12772132107465783,0.09703163758534844,0.025445385814696485,-0.016267235026383962,0.1190969979254927,-0.09399600874882734, ,1.8911981582641602
0.01677257269173182,0.02025355584553648,-0.09340432168025217, ,0.017533178464530993,0.019836878527373,-0.09412564501176439, ,0.0011280285801659542, ,0.016978718078905004,-0.0041106195279631275,-0.023697693877084414,-0.001366732924829298,-0.014256785138638433,-0.011157371719015815, ,0.029440698965863762, ,0.014321885621914996, ,0.0007631845540834548, ,0.22802141084435287,-0.20472192576281753,0.10479078731000001,1.6880040450504212,0.5567937365441699,-1.2066975479581983, ,0.12772132107465783,0.09703163758534844,0.025445385814696485,-0.016267235026383962,0.1190969979254927,-0.09399600874882734, ,1.8965461254119873
0.01694410590582075,0.02020977915417121,-0.09364963394565454, ,0.01762566525760442,0.019814534981065984,-0.09425029230288187, ,0.000990722750563674, ,0.016942489421990847,-0.00415484120797588,-0.025143542628730566,0.0211207075628692,0.016650849655512365,0.04592678560940756, ,0.030602424564085726, ,0.026894702693783967, ,0.0007653936627871462, ,0.22931110723434836,-0.203741138687791,0.10505393418000002,1.687165285276483,0.5581601015418242,-1.207893405735303, ,0.12703740503142005,0.09723047290826925,0.02704382261460102,-0.07876554399930023,0.1626771546214782,-0.12979293320695762, ,1.9018571376800537
0.017109345431870343,0.020175580285258548,-0.09389786675229898, ,0.01771819436370649,0.01979218747420026,-0.09437471006461558, ,0.0008631724125980015, ,0.016942489421990847,-0.00415484120797588,-0.025143542628730566,0.0211207075628692,0.016650849655512365,0.04592678560940756, ,0.030602424564085726, ,0.026894702693783967, ,0.0007663338430737891, ,0.23053902176135008,-0.20281441074288406,0.10532226621000002,1.687165285276483,0.5597997395390095,-1.2093120993198005, ,0.1255250549715222,0.09249214576849003,0.028292738046181175,-0.04673178240923377,0.15348003375968403,-0.12114710230532506, ,1.9076800346374512
0.017109345431870343,0.020175580285258548,-0.09389786675229898, ,0.017810760640820926,0.019769842603034216,-0.09449890177244731, ,0.0010088852549069507, ,0.017213582593427264,-0.003352114768742362,-0.0262330701699186,0.024038254337688535,0.01566261241542716,0.017010325790866188, ,0.03155500070770774, ,0.02869046314949222, ,0.0007686438565198192, ,0.23053902176135008,-0.20281441074288406,0.10532226621000002,1.687165285276483,0.5597997395390095,-1.2093120993198005, ,0.1255250549715222,0.09249214576849003,0.028292738046181175,-0.04673178240923377,0.15348003375968403,-0.12114710230532506, ,1.9130539894104004
0.017285161845705492,0.02014401330280716,-0.09415868743080147, ,0.017903358987687742,0.019747506916436366,-0.0946228708687061, ,0.0008688217796607165, ,0.016818585171669703,-0.00316709680700544,-0.023682905605044918,-0.0006090936649388087,-0.01978264505806966,-0.027222090174442836, ,0.029219434068084207, ,0.019791831402534522, ,0.0007695889312664314, ,0.23180554995272287,-0.20190312826372558,0.10560356114000001,1.6869555953329984,0.5610294680368985,-1.210233181712928, ,0.12260586764660306,0.08690196113413075,0.025609021736334413,0.003423977968962456,0.10408451986096325,-0.08084621447074787, ,1.9186601638793945
0.017285161845705492,0.02014401330280716,-0.09415868743080147, ,0.017995984343697657,0.019725186915999823,-0.09474662076266806, ,0.0010130892204824105, ,0.016818585171669703,-0.00316709680700544,-0.023682905605044918,-0.0006090936649388087,-0.01978264505806966,-0.027222090174442836, ,0.029219434068084207, ,0.019791831402534522, ,0.0007718646349039639, ,0.23180554995272287,-0.20190312826372558,0.10560356114000001,1.6869555953329984,0.5610294680368985,-1.210233181712928, ,0.12260586764660306,0.08690196113413075,0.025609021736334413,0.003423977968962456,0.10408451986096325,-0.08084621447074787, ,1.9240820407867432
0.01744928160629598,0.020112648847396785,-0.09438899721938161, ,0.01808863168878749,0.0197028890561559,-0.09487015483065489, ,0.0008989906903777599, ,0.016367313274763297,-0.0035718495377932875,-0.022420400216917085,-0.011184692251567555,-0.02840976971978749,-0.018076108766432977, ,0.02798787949884043, ,0.03053206005289058, ,0.0007730417280102027, ,0.23299485081535345,-0.20104590491468666,0.10585244882000001,1.687165285276483,0.5619859235352566,-1.2110131070388028, ,0.11966827434863908,0.08730169416602647,0.0242079202431611,-0.0059405239011886945,0.0942275037119934,-0.07294080529345233, ,1.9294071197509766
0.01744928160629598,0.020112648847396785,-0.09438899721938161, ,0.01818129604333106,0.01968061974429167,-0.0949934764161371, ,0.0010430193580503488, ,0.016367313274763297,-0.0035718495377932875,-0.022420400216917085,-0.011184692251567555,-0.02840976971978749,-0.018076108766432977, ,0.02798787949884043, ,0.03053206005289058, ,0.0007755185870013967, ,0.23299485081535345,-0.20104590491468666,0.10585244882000001,1.687165285276483,0.5619859235352566,-1.2110131070388028, ,0.11966827434863908,0.08730169416602647,0.0242079202431611,-0.0059405239011886945,0.0942275037119934,-0.07294080529345233, ,1.9347050189971924
0.017611674188590443,0.020074848591250572,-0.09461482153455926, ,0.018273972468036793,0.01965838534086201,-0.09511658882983055, ,0.0009294358872378838, ,0.015762738918618957,-0.0035438326971630775,-0.021960732262169658,0.03796898753364199,0.022263228749198418,-0.014653288644662246, ,0.02726346364445879, ,0.04401465961320861, ,0.0007769178351853648, ,0.2342073198766067,-0.20016551336702507,0.10609744763000001,1.6867459053895137,0.563352288532911,-1.2120456073356265, ,0.1181780094127905,0.08549274014276646,0.02391713441441442,-0.014422522174899035,0.14592747038428763,-0.12162745209634965, ,1.9399750232696533
0.017611674188590443,0.020074848591250572,-0.09461482153455926, ,0.018366656063840588,0.01963619215950545,-0.09523949534979781, ,0.0010736081559453027, ,0.015762738918618957,-0.0035438326971630775,-0.021960732262169658,0.03796898753364199,0.022263228749198418,-0.014653288644662246, ,0.02726346364445879, ,0.04401465961320861, ,0.0007795907209579768, ,0.2342073198766067,-0.20016551336702507,0.10609744763000001,1.6867459053895137,0.563352288532911,-1.2120456073356265, ,0.1181780094127905,0.08549274014276646,0.02391713441441442,-0.014422522174899035,0.14592747038428763,-0.12162745209634965, ,1.946282148361206
0.017749456610768776,0.020040845569535448,-0.09480922841410622, ,0.018459341971798677,0.01961404646715989,-0.09536219922154882, ,0.0009959274137590823, ,0.015298677555656707,-0.003717810277724618,-0.02146212485046745,0.03855934080264348,0.024562233812752663,0.04267759318628561, ,0.026617559078739007, ,0.04571784705468368, ,0.0007815222985722724, ,0.2352421660817528,-0.19940868554535107,0.10630874290000002,1.6861168355590603,0.5647186535305654,-1.21307810763245, ,0.11544640092271385,0.08280710432676333,0.02339032528634362,-0.07563316518251381,0.15770817508139837,-0.1335967466554381, ,1.951686143875122
0.017749456610768776,0.020040845569535448,-0.09480922841410622, ,0.018552025372984345,0.019591954484175424,-0.09548470365813881, ,0.0011410024670879654, ,0.015298677555656707,-0.003717810277724618,-0.02146212485046745,0.03855934080264348,0.024562233812752663,0.04267759318628561, ,0.026617559078739007, ,0.04571784705468368, ,0.0007847035390016148, ,0.2352421660817528,-0.19940868554535107,0.10630874290000002,1.6861168355590603,0.5647186535305654,-1.21307810763245, ,0.11544640092271385,0.08280710432676333,0.02339032528634362,-0.07563316518251381,0.15770817508139837,-0.1335967466554381, ,1.9571280479431152
0.017919117576387825,0.020003504675756616,-0.0950419080574372, ,0.01864470148837912,0.019569922384431542,-0.09560701184027062, ,0.0010167634444962783, ,0.015533069820120647,-0.003552844392629865,-0.021336007250473278,0.005484119048356817,-0.0032670242751993194,0.029680178488784528, ,0.02662938539860116, ,0.006383148744214977, ,0.0007867391522077083, ,0.2365086942731256,-0.198512848531941,0.10656281574000001,1.6859071456155759,0.5662216550279852,-1.2143853833132512, ,0.11474841784579294,0.08131700219234857,0.023219841865889216,-0.055770011226884804,0.12472059224526313,-0.09456413448654294, ,1.962644100189209
0.017919117576387825,0.020003504675756616,-0.0950419080574372, ,0.018737365578768615,0.019547956295450267,-0.09572912691639267, ,0.0011616040118318913, ,0.015975677139596266,-0.003127208023643362,-0.02189270787002697,-0.0026705714470916272,-0.01860975882497654,-0.035669673959176515, ,0.0272817218660058, ,0.01880026718414255, ,0.0007899988466392229, ,0.2377057178686304,-0.19767879338152478,0.10680522197000002,1.6856974556720912,0.5673147470261087,-1.2152767265428226, ,0.1144715820970697,0.08117787986182273,0.02380988269058296,0.01415560596324445,0.0947805844565152,-0.07080140199997452, ,1.968209981918335
0.018083315512963955,0.019969437772260176,-0.09526448582843858, ,0.018830012944636362,0.019526062298511827,-0.09585105200280103, ,0.0010479497803301187, ,0.015975677139596266,-0.003127208023643362,-0.02189270787002697,-0.0026705714470916272,-0.01860975882497654,-0.035669673959176515, ,0.0272817218660058, ,0.01880026718414255, ,0.0007922225615848341, ,0.2377057178686304,-0.19767879338152478,0.10680522197000002,1.6856974556720912,0.5673147470261087,-1.2152767265428226, ,0.1144715820970697,0.08117787986182273,0.02380988269058296,0.01415560596324445,0.0947805844565152,-0.07080140199997452, ,1.9738531112670898
0.018246227916449056,0.019938717833586264,-0.0954877221563534, ,0.01892263892605802,0.019504246428768753,-0.09597279018373646, ,0.0009389293086881533, ,0.01596452964334264,-0.002951947620595261,-0.021984032868430866,0.009962767594758259,-0.005945165904794873,-0.022496876705395293, ,0.02732906699190722, ,0.011601577514525998, ,0.0007934764654062299, ,0.23887957326551254,-0.19686018369685698,0.10704892449000002,1.6859071456155759,0.5684078390242323,-1.2160863910322535, ,0.11488733844851184,0.078687347892596,0.02402535674208145,-0.00014432903964118715,0.11096399925885068,-0.08397090370420532, ,1.9791109561920166
0.018246227916449056,0.019938717833586264,-0.0954877221563534, ,0.019015238902594836,0.019482514675361724,-0.09609434451148732, ,0.0010805044655785453, ,0.01596452964334264,-0.002951947620595261,-0.021984032868430866,0.009962767594758259,-0.005945165904794873,-0.022496876705395293, ,0.02732906699190722, ,0.011601577514525998, ,0.0007959089060856563, ,0.23887957326551254,-0.19686018369685698,0.10704892449000002,1.6859071456155759,0.5684078390242323,-1.2160863910322535, ,0.11488733844851184,0.078687347892596,0.02402535674208145,-0.00014432903964118715,0.11096399925885068,-0.08397090370420532, ,1.9843311309814453
0.018312093825020533,0.019927174763453386,-0.09557786926087174, ,0.019107808293188516,0.019460872981533362,-0.09621571800648754, ,0.0011213607309680936, ,0.015908735175631374,-0.0029835120510864894,-0.021808054732094104,0.022875231925696987,0.008065447818010205,-0.022213843346392967, ,0.027158432396685958, ,0.02425536541592732, ,0.0007986437953703827, ,0.23935065997084023,-0.19654355164901377,0.10714744253000001,1.6859071456155759,0.5688177485235285,-1.2164206447433428, ,0.11572797751033022,0.07855707082654866,0.02391713441441442,-0.0014712281719843929,0.12633841732155496,-0.09678186166452722, ,1.9896790981292725
0.018312093825020533,0.019927174763453386,-0.09557786926087174, ,0.019200342556054083,0.019439327244744536,-0.09633691365741796, ,0.001266147465985428, ,0.015908735175631374,-0.0029835120510864894,-0.021808054732094104,0.022875231925696987,0.008065447818010205,-0.022213843346392967, ,0.027158432396685958, ,0.02425536541592732, ,0.0008025396592921747, ,0.23935065997084023,-0.19654355164901377,0.10714744253000001,1.6859071456155759,0.5688177485235285,-1.2164206447433428, ,0.11572797751033022,0.07855707082654866,0.02391713441441442,-0.0014712281719843929,0.12633841732155496,-0.09678186166452722, ,1.9952270984649658
0.01857027852751641,0.019873557462664247,-0.0959279700813435, ,0.01929283718857728,0.019417883316786188,-0.09645793442130385, ,0.0010052821233491507, ,0.015929905665661933,-0.0033933496305160295,-0.021535537891288096,-0.005683567093301994,-0.024924229295662452,0.024274106559479775, ,0.027001039026284094, ,0.02556394939713836, ,0.0008042152168463646, ,0.241235006792151,-0.19526930072476673,0.10753114437000001,1.6850683858416375,0.5708672960200102,-1.2180102345586485, ,0.11392189862961677,0.07888357569282692,0.02349382230088496,-0.05094595550674424,0.10056891590666764,-0.08098192937935672, ,2.0005640983581543
0.01857027852751641,0.019873557462664247,-0.0959279700813435, ,0.0193852877272036,0.019396547003898423,-0.0965787832236184, ,0.0011468813014015285, ,0.015929905665661933,-0.0033933496305160295,-0.021535537891288096,-0.005683567093301994,-0.024924229295662452,0.024274106559479775, ,0.027001039026284094, ,0.02556394939713836, ,0.0008070239552443577, ,0.241235006792151,-0.19526930072476673,0.10753114437000001,1.6850683858416375,0.5708672960200102,-1.2180102345586485, ,0.11392189862961677,0.07888357569282692,0.02349382230088496,-0.05094595550674424,0.10056891590666764,-0.08098192937935672, ,2.0057921409606934
0.018738851761286122,0.01983963771620131,-0.09615816943291806, ,0.01947768974733741,0.01937532406688118,-0.09669946295837906, ,0.0010268726382971212, ,0.016836296537040912,-0.0032939834005552967,-0.023337150587916484,0.007682976202966376,-0.00582980412583234,0.034632083043692946, ,0.028964354045781866, ,0.009644056063742804, ,0.0008088113429114533, ,0.24243203038765582,-0.1944352455743505,0.10778262463,1.6848586958981533,0.5719603880181336,-1.2187382203079387, ,0.12012271083350731,0.0809700866539853,0.02556791576243981,-0.062298606411013875,0.12852079065025834,-0.0982964045854724, ,2.01106595993042
0.018738851761286122,0.01983963771620131,-0.09615816943291806, ,0.01957003886323071,0.019354220221213567,-0.09681997648825205, ,0.001168114173088001, ,0.016836296537040912,-0.0032939834005552967,-0.023337150587916484,0.007682976202966376,-0.00582980412583234,0.034632083043692946, ,0.028964354045781866, ,0.009644056063742804, ,0.000811708946380619, ,0.24243203038765582,-0.1944352455743505,0.10778262463,1.6848586958981533,0.5719603880181336,-1.2187382203079387, ,0.12012271083350731,0.0809700866539853,0.02556791576243981,-0.062298606411013875,0.12852079065025834,-0.0982964045854724, ,2.016335964202881
0.018898941794795936,0.0198145985356702,-0.09638602988290546, ,0.01966233072788392,0.019333241137163292,-0.09694032664464625, ,0.0010591092995224202, ,0.016791037232004296,-0.002813698893702865,-0.023887011681755964,0.035907338740833114,0.025025872741832156,0.015246911089172997, ,0.029333345528175354, ,0.04376783642119908, ,0.0008136881492057535, ,0.24357499485304104,-0.1936861404855507,0.10803410489000001,1.6848586958981533,0.5734633895155536,-1.2198821385084588, ,0.11966827434863908,0.07810447864894715,0.02632861408264463,-0.042483598646050766,0.1555135229926092,-0.11853916207251232, ,2.0216569900512695
0.018898941794795936,0.0198145985356702,-0.09638602988290546, ,0.019754561032934062,0.019312392439905977,-0.09706051622781814, ,0.0011996779037593717, ,0.016791037232004296,-0.002813698893702865,-0.023887011681755964,0.035907338740833114,0.025025872741832156,0.015246911089172997, ,0.029333345528175354, ,0.04376783642119908, ,0.000816751559956179, ,0.24357499485304104,-0.1936861404855507,0.10803410489000001,1.6848586958981533,0.5734633895155536,-1.2198821385084588, ,0.11966827434863908,0.07810447864894715,0.02632861408264463,-0.042483598646050766,0.1555135229926092,-0.11853916207251232, ,2.027064085006714
0.019036318420357856,0.01979186043760435,-0.09658398784441372, ,0.019846725508551512,0.019291679709638195,-0.09718054800697003, ,0.001123754615907088, ,0.01688987192793125,-0.0029509846421979687,-0.024128058416331456,0.02281614775655061,0.013735417505552643,0.0073583158371272345, ,0.02959965011689009, ,0.026631374639021644, ,0.0008191689068534303, ,0.2445403364623191,-0.19302970819124163,0.10825188161000002,1.6848586958981533,0.5746931180134426,-1.2207215421614455, ,0.11832536353924038,0.07994687578641177,0.026503846123128123,-0.03350212321535866,0.14089515147326148,-0.10532318545833147, ,2.0327069759368896
0.019036318420357856,0.01979186043760435,-0.09658398784441372, ,0.019938819923334364,0.01927110848169223,-0.09730042472034908, ,0.0012645051837225428, ,0.01688987192793125,-0.0029509846421979687,-0.024128058416331456,0.02281614775655061,0.013735417505552643,0.0073583158371272345, ,0.02959965011689009, ,0.026631374639021644, ,0.0008226480965164702, ,0.2445403364623191,-0.19302970819124163,0.10825188161000002,1.6848586958981533,0.5746931180134426,-1.2207215421614455, ,0.11832536353924038,0.07994687578641177,0.026503846123128123,-0.03350212321535866,0.14089515147326148,-0.10532318545833147, ,2.038094997406006
0.019235902924422423,0.019753493624351925,-0.09685141471400036, ,0.020030840084200956,0.0192506842466516,-0.09742014907534949, ,0.0010991820286373661, ,0.01687608410952842,-0.0036694073940106726,-0.021829552106853594,-0.022695976721693656,-0.01392179806395073,-0.015563401410852022, ,0.02783515961299547, ,0.026625530297548196, ,0.0008247917704088802, ,0.24595359657830218,-0.19207981204771202,0.10854613944000001,1.6846490059546686,0.576059483011097,-1.221590684977988, ,0.1204275908102421,0.08360964013962183,0.02402535674208145,0.0,0.10862252822817887,-0.05456988494588367, ,2.0442659854888916
0.01940623353539307,0.01971177621018189,-0.09707996939393874, ,0.020122781836286612,0.019230412450464317,-0.09753972374860932, ,0.000978021780596639, ,0.016721377390975373,-0.003676439463467343,-0.022314208232272384,0.006303391850125867,-0.00410989818037366,0.038027680021144275, ,0.02812551435997527, ,0.007524525204144561, ,0.0008259704627949399, ,0.24718151110530387,-0.19121486596579887,0.10879761970000001,1.6838102461807307,0.5775624845085168,-1.2224895669580864, ,0.11906768075090436,0.08103923275702031,0.024581499259259263,-0.06650680078848732,0.12969186584723677,-0.09829940203776794, ,2.0495519638061523
0.01940623353539307,0.01971177621018189,-0.09707996939393874, ,0.020214641062834666,0.019210298494560157,-0.09765915138611357, ,0.001113756889877243, ,0.016721377390975373,-0.003676439463467343,-0.022314208232272384,0.006303391850125867,-0.00410989818037366,0.038027680021144275, ,0.02812551435997527, ,0.007524525204144561, ,0.0008281673057497666, ,0.24718151110530387,-0.19121486596579887,0.10879761970000001,1.6838102461807307,0.5775624845085168,-1.2224895669580864, ,0.11906768075090436,0.08103923275702031,0.024581499259259263,-0.06650680078848732,0.12969186584723677,-0.09829940203776794, ,2.054821014404297
0.019575235932275163,0.019675124277934216,-0.09729531187268439, ,0.02030641368509227,0.019190347735963797,-0.0977784346032927, ,0.0010015172363418933, ,0.017238019652419025,-0.0038869300530185343,-0.0213310709342312,-0.056617457466528825,-0.041675910718592994,0.05276379806002349, ,0.027699677506704774, ,0.07030230158288002, ,0.0008294805627997071, ,0.24837853470080867,-0.19041170174687952,0.10903484077000002,1.6833908662937616,0.5785189400068749,-1.2229427773233992, ,0.12340304493949386,0.080832147835154,0.023563330650887577,-0.06688505966681446,0.09635146008141607,-0.03377235158008771, ,2.0601110458374023
0.019575235932275163,0.019675124277934216,-0.09729531187268439, ,0.02039809566220511,0.01917056548740955,-0.09789757598512179, ,0.0011377169109080287, ,0.017238019652419025,-0.0038869300530185343,-0.0213310709342312,-0.056617457466528825,-0.041675910718592994,0.05276379806002349, ,0.027699677506704774, ,0.07030230158288002, ,0.0008317981293268372, ,0.24837853470080867,-0.19041170174687952,0.10903484077000002,1.6833908662937616,0.5785189400068749,-1.2229427773233992, ,0.12340304493949386,0.080832147835154,0.023563330650887577,-0.06688505966681446,0.09635146008141607,-0.03377235158008771, ,2.0655641555786133
0.019744013534619152,0.019638392046250355,-0.09750174798214532, ,0.020489682991109127,0.019150957017457854,-0.09801657808622259, ,0.0010289149049849614, ,0.015988749703710295,-0.003708437380024782,-0.0193345409344009,0.020270905259506762,0.005474056145238415,-0.027314687074037024, ,0.025361725060284942, ,0.020996956656163027, ,0.0008332691500407039, ,0.24959872649493614,-0.1896162602608344,0.10926428410000001,1.683181176350277,0.5796120320049984,-1.2235890843325488, ,0.11730153468290579,0.07829780656639503,0.021583755447154476,0.003149717002708602,0.12414623002656691,-0.09294031845295636, ,2.0711281299591064
0.019744013534619152,0.019638392046250355,-0.09750174798214532, ,0.020581171706427807,0.019131527550607753,-0.09813544343096102, ,0.0011658967979280013, ,0.015988749703710295,-0.003708437380024782,-0.0193345409344009,0.020270905259506762,0.005474056145238415,-0.027314687074037024, ,0.025361725060284942, ,0.020996956656163027, ,0.0008357330585435728, ,0.24959872649493614,-0.1896162602608344,0.10926428410000001,1.683181176350277,0.5796120320049984,-1.2235890843325488, ,0.11730153468290579,0.07829780656639503,0.021583755447154476,0.003149717002708602,0.12414623002656691,-0.09294031845295636, ,2.076414108276367
0.01990643004333273,0.019601326536495083,-0.0977032680879821, ,0.020672557880363734,0.019112282267413717,-0.09825417451354897, ,0.0010628330299374367, ,0.017170104423964876,-0.003960385944432205,-0.021854955743347747,0.0048037911357294545,0.007237146669105359,-0.027636370965078205, ,0.028073764145593354, ,0.008686064426188883, ,0.0008374029112744101, ,0.2507725818918183,-0.18882081877478926,0.10948854227000002,1.683181176350277,0.5808417605028874,-1.2243468092453949, ,0.12244766652705909,0.08564705916829492,0.024244766392694066,0.006376114901531784,0.13071824670642862,-0.08279788268461655, ,2.0816891193389893
0.01990643004333273,0.019601326536495083,-0.0977032680879821, ,0.020763837622593595,0.01909322630459965,-0.09837277379814383, ,0.0012006462837011256, ,0.017170104423964876,-0.003960385944432205,-0.021854955743347747,0.0048037911357294545,0.007237146669105359,-0.027636370965078205, ,0.028073764145593354, ,0.008686064426188883, ,0.0008400543227519774, ,0.2507725818918183,-0.18882081877478926,0.10948854227000002,1.683181176350277,0.5808417605028874,-1.2243468092453949, ,0.12244766652705909,0.08564705916829492,0.024244766392694066,0.006376114901531784,0.13071824670642862,-0.08279788268461655, ,2.086935043334961
0.020080325472035438,0.019563778379175324,-0.09793331464117837, ,0.020855007080162836,0.019074364755173514,-0.09849124371894766, ,0.0010728197169841385, ,0.01699512042442768,-0.003416818352466419,-0.022700551103951482,0.05485004918352817,0.02864053292933534,-0.03293668425845428, ,0.02856262919126429, ,0.06187731404796277, ,0.0008417410285072829, ,0.25200049641882,-0.1879558726928761,0.1097439114,1.6833908662937616,0.5823447620003072,-1.2255724061860556, ,0.11951755863787251,0.08131700219234857,0.02524375835182251,0.0,0.1503473304896535,-0.1317398394215325, ,2.092198133468628
0.020080325472035438,0.019563778379175324,-0.09793331464117837, ,0.020946062437379537,0.01905570266854224,-0.09860958668030725, ,0.0012103657677768585, ,0.01699512042442768,-0.003416818352466419,-0.022700551103951482,0.05485004918352817,0.02864053292933534,-0.03293668425845428, ,0.02856262919126429, ,0.06187731404796277, ,0.0008443930050487906, ,0.25200049641882,-0.1879558726928761,0.1097439114,1.6833908662937616,0.5823447620003072,-1.2255724061860556, ,0.11951755863787251,0.08131700219234857,0.02524375835182251,0.0,0.1503473304896535,-0.1317398394215325, ,2.0976600646972656
0.02020988171292958,0.01953619469837537,-0.09810490139412552, ,0.021036999915707302,0.01903724505062746,-0.09872780505681582, ,0.0011493842896729569, ,0.01748470358978025,-0.003447081967396387,-0.02295945390078668,0.028563224906290395,-0.001056145685656515,-0.013715757254770521, ,0.029064303830210216, ,0.028582632505531957, ,0.0008465715142246776, ,0.25291177889797845,-0.18734577679581238,0.10993446603000001,1.6829714864067924,0.5834378539984307,-1.2264637494156267, ,0.12135158767067875,0.08090105844711916,0.025486098432000007,-0.01802768140275754,0.12543446280073184,-0.10982643625545561, ,2.1031370162963867
0.02020988171292958,0.01953619469837537,-0.09810490139412552, ,0.021127815773661008,0.019018996863979218,-0.09884590119341045, ,0.001288090541186945, ,0.01748470358978025,-0.003447081967396387,-0.02295945390078668,0.028563224906290395,-0.001056145685656515,-0.013715757254770521, ,0.029064303830210216, ,0.028582632505531957, ,0.0008497028548414313, ,0.25291177889797845,-0.18734577679581238,0.10993446603000001,1.6829714864067924,0.5834378539984307,-1.2264637494156267, ,0.12135158767067875,0.08090105844711916,0.025486098432000007,-0.01802768140275754,0.12543446280073184,-0.10982643625545561, ,2.108654022216797
0.020438625855851378,0.019489898174267512,-0.09840364595164974, ,0.02121850630669942,0.019000963027891976,-0.09896387740547458, ,0.0010775575979180417, ,0.01792016175114661,-0.0037266552999147625,-0.023461291151799474,-0.014366057603491557,-0.04096144554980528,0.0484392229033033, ,0.029756551201729427, ,0.043407562986166694, ,0.0008513074657081679, ,0.25447949367144607,-0.18630320785779206,0.11026501998000002,1.6823424165763388,0.584804218996085,-1.2274145709723099, ,0.12166274558778303,0.08090105844711916,0.025900506536585367,-0.08024312569914865,0.09692240139295993,-0.08254863829473598, ,2.114866018295288
0.020613052206968765,0.019454051993159735,-0.09863040796723879, ,0.02130906784712184,0.018983148418517226,-0.0990817359789347, ,0.0009538788822959491, ,0.017848751095061607,-0.0033600538088362597,-0.02303730446772267,-0.007939465323453982,-0.029604644904035197,-0.04616604156377899, ,0.029335733745558385, ,0.030650670805174134, ,0.0008520247483416489, ,0.25565334906832815,-0.18550776637174696,0.11051520395000002,1.6819230366893698,0.5856240379946778,-1.2280830783944885, ,0.12012271083350731,0.08124738147129348,0.02552694153846154,0.02379146535953177,0.08746018948097138,-0.06301672645108612, ,2.1201930046081543
0.020613052206968765,0.019454051993159735,-0.09863040796723879, ,0.02139949676395861,0.0189655578689815,-0.09919947917036398, ,0.001086721484466909, ,0.017848751095061607,-0.0033600538088362597,-0.02303730446772267,-0.007939465323453982,-0.029604644904035197,-0.04616604156377899, ,0.029335733745558385, ,0.030650670805174134, ,0.0008536545867869632, ,0.25565334906832815,-0.18550776637174696,0.11051520395000002,1.6819230366893698,0.5856240379946778,-1.2280830783944885, ,0.12012271083350731,0.08124738147129348,0.02552694153846154,0.02379146535953177,0.08746018948097138,-0.06301672645108612, ,2.1254560947418213
0.020802115897991795,0.019416936803743966,-0.09887164378244963, ,0.021489789462868236,0.018948196169498725,-0.09931710920707956, ,0.0009439555914147824, ,0.01765354122765066,-0.0034506706849576517,-0.022532041608568195,0.011648246294498062,-0.007091900006992492,-0.041360846030021235, ,0.02883136391332599, ,0.013637114055616108, ,0.0008542773523361206, ,0.2568658181295814,-0.18469687941995339,0.11076798050000002,1.6819230366893698,0.5867171299928012,-1.22897442162406, ,0.12119660480009038,0.08076335451784747,0.02492771755868545,0.01731485454087071,0.11220646781531157,-0.0831956571250533, ,2.130753993988037
0.020802115897991795,0.019416936803743966,-0.09887164378244963, ,0.021579942386029838,0.01893106806748614,-0.0994346282872437, ,0.001076119894344769, ,0.01765354122765066,-0.0034506706849576517,-0.022532041608568195,0.011648246294498062,-0.007091900006992492,-0.041360846030021235, ,0.02883136391332599, ,0.013637114055616108, ,0.0008557968218019333, ,0.2568658181295814,-0.18469687941995339,0.11076798050000002,1.6819230366893698,0.5867171299928012,-1.22897442162406, ,0.12119660480009038,0.08076335451784747,0.02492771755868545,0.01731485454087071,0.11220646781531157,-0.0831956571250533, ,2.1360721588134766
0.020911154155107504,0.019393441326165068,-0.09900893682567419, ,0.021669952012039178,0.018914178267678015,-0.09955203857996231, ,0.001049012288977255, ,0.017059625356586408,-0.0036901522947649745,-0.021418419947271696,0.023295443196287284,-0.0012213845758992097,-0.042257244779797205, ,0.027629635435584946, ,0.023327343322355386, ,0.0008571112127350988, ,0.25769215054712347,-0.1841408426530092,0.11093649820000001,1.6819230366893698,0.5874003124916285,-1.2292864749221204, ,0.11773814089140294,0.08042113691395829,0.02391713441441442,0.014174563462166502,0.1155463828682314,-0.09593702624469723, ,2.142475128173828
0.020911154155107504,0.019393441326165068,-0.09900893682567419, ,0.02175981485580011,0.018897531432242272,-0.09966934222538718, ,0.001184181953823252, ,0.017059625356586408,-0.0036901522947649745,-0.021418419947271696,0.023295443196287284,-0.0012213845758992097,-0.042257244779797205, ,0.027629635435584946, ,0.023327343322355386, ,0.0008593211501748836, ,0.25769215054712347,-0.1841408426530092,0.11093649820000001,1.6819230366893698,0.5874003124916285,-1.2292864749221204, ,0.11773814089140294,0.08042113691395829,0.02391713441441442,0.014174563462166502,0.1155463828682314,-0.09593702624469723, ,2.1480181217193604
0.021167795463326224,0.01933375176529956,-0.09932604846477541, ,0.021849527468419262,0.01888113218089521,-0.09978654133481528, ,0.0009389764098805108, ,0.016704423478190112,-0.003621885629656789,-0.020775142480817587,0.00868966093538866,0.0010382415823232177,-0.019949651321781843, ,0.026902831902074827, ,0.008751244635723814, ,0.0008598557492333106, ,0.25948382457394353,-0.1829129281260075,0.11129168166000002,1.6819230366893698,0.5893132234883447,-1.2308463255738702, ,0.11544640092271385,0.07721476123553359,0.02328773614035088,-0.002940221058251427,0.11887281495026189,-0.08147204762005009, ,2.1533851623535156
0.021167795463326224,0.01933375176529956,-0.09932604846477541, ,0.021939086437102965,0.018864985091013683,-0.09990363799078653, ,0.0010715603677386803, ,0.016704423478190112,-0.003621885629656789,-0.020775142480817587,0.00868966093538866,0.0010382415823232177,-0.019949651321781843, ,0.026902831902074827, ,0.008751244635723814, ,0.0008612671133566796, ,0.25948382457394353,-0.1829129281260075,0.11129168166000002,1.6819230366893698,0.5893132234883447,-1.2308463255738702, ,0.11544640092271385,0.07721476123553359,0.02328773614035088,-0.002940221058251427,0.11887281495026189,-0.08147204762005009, ,2.1587090492248535
0.021335347570662685,0.019298889677820265,-0.09953627220341872, ,0.022028488385048256,0.018849094697752877,-0.10002063424718607, ,0.0009577924107568415, ,0.016891872457514077,-0.003672625769526386,-0.021123769303686014,-0.01215082425365474,-0.02501551264036133,0.0028139642985610825, ,0.027295368925135625, ,0.027810325363456793, ,0.000861906353736813, ,0.26061906630645454,-0.18217154577008196,0.11152631015000002,1.6815036568024009,0.5902696789867028,-1.2315445721596046, ,0.1141960788910599,0.07671539333748648,0.023563330650887577,-0.02677208774412817,0.09547986400914968,-0.06679281178865366, ,2.1640450954437256
0.021335347570662685,0.019298889677820265,-0.09953627220341872, ,0.02211772997133775,0.018833465494160064,-0.1001375321293439, ,0.0010909882630649101, ,0.016891872457514077,-0.003672625769526386,-0.021123769303686014,-0.01215082425365474,-0.02501551264036133,0.0028139642985610825, ,0.027295368925135625, ,0.027810325363456793, ,0.00086341347156134, ,0.26061906630645454,-0.18217154577008196,0.11152631015000002,1.6815036568024009,0.5902696789867028,-1.2315445721596046, ,0.1141960788910599,0.07671539333748648,0.023563330650887577,-0.02677208774412817,0.09547986400914968,-0.06679281178865366, ,2.1693739891052246
0.021500740531864605,0.01925880310228154,-0.09974236453512852, ,0.022206807890834707,0.018818101931289168,-0.10025433363413386, ,0.0009771698909879455, ,0.016563080841460978,-0.0041440808375412435,-0.020423868909774726,-0.02540858974890383,-0.03180644353480067,0.04722709726938806, ,0.026620358265667856, ,0.04070924624190909, ,0.0008641569775706643, ,0.2617388625732171,-0.18139154974978527,0.11175575348000001,1.6810842769154317,0.5912261344850608,-1.232242818745339, ,0.11257051193175657,0.0772776397055951,0.02275544502857143,-0.07354287420318405,0.09546417858237179,-0.06598022538598639, ,2.1747031211853027
0.021500740531864605,0.01925880310228154,-0.09974236453512852, ,0.022295718874076022,0.018803008418316343,-0.10037104073007459, ,0.001111293443068937, ,0.016563080841460978,-0.0041440808375412435,-0.020423868909774726,-0.02540858974890383,-0.03180644353480067,0.04722709726938806, ,0.026620358265667856, ,0.04070924624190909, ,0.0008657617598141596, ,0.2617388625732171,-0.18139154974978527,0.11175575348000001,1.6810842769154317,0.5912261344850608,-1.232242818745339, ,0.11257051193175657,0.0772776397055951,0.02275544502857143,-0.07354287420318405,0.09546417858237179,-0.06598022538598639, ,2.180061101913452
0.02166468394815532,0.019224146151669376,-0.0999461619325296, ,0.022384459687167214,0.01878818932265373,-0.10048765535742848, ,0.0010006750723607642, ,0.016817490085464126,-0.003608749480934232,-0.02129831421617587,-0.01435874289633728,-0.025384922064687142,0.022010425995153654, ,0.02737643574393472, ,0.029164419816802838, ,0.0008666321682822021, ,0.26284321337423117,-0.18065016739385972,0.11198390052000001,1.6810842769154317,0.5921825899834189,-1.2330227440712138, ,0.1121713257192326,0.07478088381282172,0.023774345552238813,-0.04688548489827611,0.09665135914199348,-0.06790032230553918, ,2.1854171752929688
0.02166468394815532,0.019224146151669376,-0.0999461619325296, ,0.02247302713167621,0.0187736489700652,-0.10060417942830244, ,0.0011354970003135865, ,0.016817490085464126,-0.003608749480934232,-0.02129831421617587,-0.01435874289633728,-0.025384922064687142,0.022010425995153654, ,0.02737643574393472, ,0.029164419816802838, ,0.0008683556607952239, ,0.26284321337423117,-0.18065016739385972,0.11198390052000001,1.6810842769154317,0.5921825899834189,-1.2330227440712138, ,0.1121713257192326,0.07478088381282172,0.023774345552238813,-0.04688548489827611,0.09665135914199348,-0.06790032230553918, ,2.19071102142334
0.021847754366264106,0.019189414342496235,-0.10017930385603813, ,0.02256141804452688,0.018759391644781156,-0.10072061482674778, ,0.0009936060251590328, ,0.01670176704570533,-0.0031629865220836268,-0.0215056028786721,-0.009193680545404865,-0.026099501676222388,0.00953262710285698, ,0.027412487325360335, ,0.027671341668143765, ,0.0008691534338166494, ,0.2640479597026102,-0.1798547259078146,0.11224445481,1.6810842769154317,0.593139045481777,-1.2337209906569484, ,0.10945437319316122,0.07113713760005305,0.02402535674208145,-0.03364768019068832,0.09070152892662578,-0.0664524080743769, ,2.1960251331329346
0.021847754366264106,0.019189414342496235,-0.10017930385603813, ,0.022649629297893503,0.018745421589613474,-0.10083696340886032, ,0.0011281174841329034, ,0.01670176704570533,-0.0031629865220836268,-0.0215056028786721,-0.009193680545404865,-0.026099501676222388,0.00953262710285698, ,0.027412487325360335, ,0.027671341668143765, ,0.0008707924467933345, ,0.2651214195721274,-0.1791596799491344,0.11248815733,1.6810842769154317,0.594095500980135,-1.2344192372426828, ,0.10796011553864708,0.07050292834953252,0.0257747759223301,-0.026860998816224113,0.10054189290005569,-0.07257414210738175, ,2.2014200687408447
0.022013391059995054,0.019161573685960432,-0.10039718317772761, ,0.022737657799096176,0.018731743006069043,-0.10095322700287855, ,0.0010092083324232688, ,0.016967182041316222,-0.002787392225825175,-0.02312732128923003,-0.00048358212156123686,-0.01368925316668564,0.0030666637930856877, ,0.028818879434478833, ,0.013697550418049797, ,0.0008716629869545291, ,0.2651214195721274,-0.1791596799491344,0.11248815733,1.6810842769154317,0.594095500980135,-1.2344192372426828, ,0.10796011553864708,0.07050292834953252,0.0257747759223301,-0.026860998816224113,0.10054189290005569,-0.07257414210738175, ,2.2067689895629883
0.02217125000435434,0.019134343238212302,-0.10061040160610918, ,0.022825500490492503,0.018718360054466598,-0.10106940740928684, ,0.0009009839261174449, ,0.01613704749859001,-0.002761844233370259,-0.021561878271075446,0.01806687796477347,0.0043340983256501125,-0.014289835917802305, ,0.027072988016061807, ,0.01857933871766512, ,0.0008718462428242974, ,0.26614082031152503,-0.1785032476548253,0.11272667469000001,1.6806648970284628,0.5951885929782587,-1.2352289017321136, ,0.10439707542186004,0.06797775183271546,0.024171185918057666,-0.009701196616881902,0.11203912694847858,-0.08427811359804702, ,2.2120401859283447
0.02217125000435434,0.019134343238212302,-0.10061040160610918, ,0.022913154349374458,0.018705276854049307,-0.10118550640091144, ,0.0010321170205858372, ,0.01613704749859001,-0.002761844233370259,-0.021561878271075446,0.01806687796477347,0.0043340983256501125,-0.014289835917802305, ,0.027072988016061807, ,0.01857933871766512, ,0.0008728417134936237, ,0.26614082031152503,-0.1785032476548253,0.11272667469000001,1.6806648970284628,0.5951885929782587,-1.2352289017321136, ,0.10439707542186004,0.06797775183271546,0.024171185918057666,-0.009701196616881902,0.11203912694847858,-0.08427811359804702, ,2.2174291610717773
0.022346460530707324,0.01910680735684093,-0.10084932808879928, ,0.02300061638785966,0.018692497483102238,-0.10130152572302462, ,0.0008966912831755815, ,0.016551543788854997,-0.0021767329010610953,-0.023304271919123307,0.0033447508025113725,-0.009671383000610564,0.034681613293065204, ,0.02866672038440019, ,0.010233090128559538, ,0.0008729889330595617, ,0.2672528938454134,-0.1778082016961451,0.11299371043,1.6800358271980091,0.5962816849763821,-1.2358752087412632, ,0.10303685294079346,0.0627625274857611,0.026027469803921573,-0.05901143693311055,0.10526440157162183,-0.07741197568027693, ,2.2228009700775146
