NicholasDascanio/dvrk_moveit_final/test/execution/third_experiment_notsharpbends/thirdexp_200vel3.0/thirdexp_200vel3.0_16.csv
Current Position (x),Current Position (y),Current Position (z), ,Planned Position (x),Planned Position (y),Planned Position (z), ,Position Error,,Cartesian linear Velocity(x),Cartesian linear Velocity(y),Cartesian linear Velocity(z),Cartesian Angular Velocity(x),Cartesian Angular Velocity(y),Cartesian Angular Velocity(z), ,Total Linear Velocity, ,Total Angular Velocity, ,MSE, ,Joint 1 Position,Joint 2 Position,Joint 3 Position,Joint 4 Position,Joint 5 Position,Joint 6 Position, ,Joint 1 Velocity,Joint 2 Velocity,Joint 3 Velocity,Joint 4 Velocity,Joint 5 Velocity,Joint 6 Velocity, ,Time Stamp
0.009850468962651113,0.020051708170318233,-0.07977727704698154, ,0.010035894606207754,0.020110976050797005,-0.07977565646534585, ,0.00019467402813338648, ,0.001793476580665431,0.00011822479001853196,0.00033082012667996774,0.17416091635082562,-0.19462068716414122,-0.04826197773149002, ,0.001827560478503199, ,0.2611689810379514, ,1.6222835677782207e-05, ,0.13916364639352566,-0.2439456860310038,0.08943104710000001,1.605176517374034,0.14469805325160143,-1.3932417298291084, ,0.000247048578939454,-0.0023949340809605,-0.0003109172932363804,-0.0019494666667128008,-0.20026035972595682,-0.17217083169872183, ,0.05171704292297363
0.009903045599085038,0.020071078636999737,-0.07980628752363846, ,0.01007374854300731,0.02017168555415457,-0.07989998895391058, ,0.00021918303966815482, ,0.0010890683601628597,0.0005706225851438486,-0.0012556461231905832,-0.053527074208500024,-0.07476955324766711,-0.0153570915688835, ,0.0017573637114916224, ,0.09195452009648507, ,1.881168490007006e-05, ,0.13925631918801637,-0.24408469522273984,0.08946475064000001,1.605176517374034,0.1401890487593419,-1.3988763153831507, ,0.0030196656087482883,-0.0029298604021012315,0.00139423032501754,-0.0019494666667128008,-0.07345670512260723,0.05612896535627218, ,0.1039280891418457
0.00992255000359441,0.02011601176193976,-0.07989104796983068, ,0.010112470486664598,0.02023069132861763,-0.0800250789599192, ,0.0002592016574158934, ,0.0005458235965484997,0.0011269848505483196,-0.002604050862354812,0.03705483723300376,0.01704171744104711,0.008041847907652565, ,0.0028894807744031447, ,0.040785795267288205, ,2.1033085163044836e-05, ,0.1394571102427462,-0.2443549908733377,0.08956067610000001,1.605176517374034,0.14114550425769998,-1.3954906249618568, ,0.0047876737882399595,-0.005400904654455009,0.002872126130544537,-0.0019438004886555198,0.02296260752076428,-0.03195925846210734, ,0.15639591217041016
0.009953776176399812,0.02016414076235424,-0.07998813082108214, ,0.010152050827729946,0.020288013447842156,-0.08015091522717604, ,0.0002848789961324296, ,0.0006577687218684149,0.0009807671267269844,-0.0019942231550305165,0.0011108033449484147,-0.005072042330612629,0.0024896605518731824, ,0.0023176474797510904, ,0.0051922535996554, ,2.280804098452058e-05, ,0.1396733467632245,-0.24462528652393556,0.08966956446,1.605176517374034,0.14114550425769998,-1.3958990186625597, ,0.004637990531001974,-0.005474363853423901,0.002236878460890325,-0.0017744630090137687,0.0,0.004070619630127223, ,0.2089979648590088
0.009989552122751742,0.020219932795420663,-0.08012175048872294, ,0.010192480012846505,0.020343671881687387,-0.08027748655508661, ,0.00028415631686602564, ,0.0007259292721994615,0.0008948987263818304,-0.002392548496648981,0.0011621341742656137,-0.004528526563857819,-0.000550401633999812, ,0.0026555800397527396, ,0.00467526561814023, ,2.4354785063056668e-05, ,0.13988186055082855,-0.24488013670878497,0.08981604523,1.6049668274305493,0.14114550425769998,-1.3958990186625597, ,0.004770119505984733,-0.0032370546165635806,0.0026078604322200397,0.0010520008207451207,-1.0971035921149932e-05,0.002185636898054966, ,0.2588059902191162
0.010028106096942577,0.02027100116917546,-0.080252166621373, ,0.010233748544615036,0.020397686496442937,-0.08040478179855319, ,0.0002857085590865815, ,0.0007465606019283485,0.001171436517765934,-0.002930509118091291,0.0034951471873474436,-0.004189966917209943,0.00027083100178680364, ,0.0032430695241889886, ,0.005456361096225797, ,2.546337662170786e-05, ,0.14012898800280374,-0.2450809277635148,0.08995863713,1.605176517374034,0.14114550425769998,-1.3955723037019974, ,0.004053698691288719,-0.004892670860936715,0.003195348349047142,0.0003774074273881013,-0.00023338355678863845,0.0014006824230603176, ,0.30675387382507324
0.010070595292417467,0.020317466691060788,-0.08036993849361601, ,0.010275846981458036,0.020450077055049188,-0.0805327898678714, ,0.00029365683133209956, ,0.0009670006097969234,0.0009663838214128137,-0.002359952941646502,-0.01018763486025334,-0.007667735410522424,0.00027258526941898863, ,0.002727336751562233, ,0.012750767439586828, ,2.6397962733834363e-05, ,0.14043017458489848,-0.2452662733524962,0.09008826613000001,1.605176517374034,0.14100886775793453,-1.3949708133574577, ,0.007743525781788268,-0.004061394008766354,0.0026233220553359684,0.0003774074273881013,0.0,0.014260456019439767, ,0.35881495475769043
0.010108780187492651,0.020357314375294568,-0.0804655076954715, ,0.010318765937483711,0.020500863217318862,-0.08066149972862496, ,0.0003211123826722507, ,0.0009446016419664784,0.0010070459254712962,-0.0025398000578083385,0.009498992686479349,-0.006514556290843541,-0.0019141288621161046, ,0.0028908472964958467, ,0.011518259661019808, ,2.7468869375728487e-05, ,0.14073136116699325,-0.24543617347572913,0.09019456191000001,1.6053862073175185,0.14100886775793453,-1.3947257771370358, ,0.007139036272377574,-0.003978279901063049,0.0028038745854603066,0.0025499994917330365,0.0,-0.005213127638691459, ,0.4066948890686035
0.010160083285520973,0.02041489538164418,-0.08062615080408679, ,0.010362496082350459,0.020550064540161127,-0.08079090040158214, ,0.0002939116731424494, ,0.0010446343825641906,0.0009920406747647922,-0.002710371857534722,0.001617214397878447,-0.007475235121430025,-0.0017566853283772256, ,0.0030694496737590066, ,0.0076481711789878224, ,2.800555729252036e-05, ,0.1410943296120818,-0.24562151906471053,0.09036956106,1.6053862073175185,0.14114550425769998,-1.394755516300592, ,0.008036433356213558,-0.003265350409670305,0.002976791538030275,0.002315816966819062,0.0,0.0019316025261634146, ,0.45452308654785156
0.010194338668584466,0.020449791395121354,-0.08071536493012778, ,0.010407028141130786,0.020597700477802027,-0.08092098096259127, ,0.0003307444047561491, ,0.0008308061758778018,0.0007779857290606741,-0.0021792777378418973,0.004827358670821587,-0.006314133324863688,0.0002498208366169347, ,0.00245860776765064, ,0.007948060853551391, ,2.9128714623214953e-05, ,0.14135690252980543,-0.24575280552357234,0.09046807910000002,1.6055958972610032,0.14114550425769998,-1.3941837651196078, ,0.006336795148466058,-0.0024212384060924626,0.0023877696777094893,8.506541210715512e-05,0.0,-0.0024186667362149526, ,0.4975290298461914
0.010244261376170195,0.020510637066844604,-0.0809046423892293, ,0.010452352894174958,0.0206437903820031,-0.08105173054247482, ,0.0002875183646802431, ,0.0009066810749886602,0.001047693772772547,-0.003170874128107674,-0.011709015829333008,-0.0014171712735962024,0.001518625200517647, ,0.0034603721692256697, ,0.011794465896755469, ,2.965773062024916e-05, ,0.14168125731052286,-0.24589181471530838,0.09067159663,1.6055958972610032,0.1415554137569963,-1.394027946389854, ,0.0060426856481175335,-0.0026303536014454427,0.0034226066867211005,8.506541210715512e-05,0.004764293408932623,0.014325216991740056, ,0.5450339317321777
0.01029037906974566,0.020552225632246793,-0.08101353961921856, ,0.01049846117697601,0.020688353502292204,-0.08118313832692757, ,0.00030098618242219963, ,0.0007712332438801995,0.0008476527959379358,-0.0022468798433798796,0.0002479375578537498,-0.0004467787320484021,-0.0020042623950047305, ,0.002522257918911975, ,0.000510964001411982, ,3.0231823750521292e-05, ,0.14205194848848562,-0.24603854663991864,0.09079215160000001,1.6058055872044876,0.1415554137569963,-1.3937829101694321, ,0.005977406582107957,-0.0029610209497571566,0.002468435072059508,0.0037569079501318567,0.004764293408932623,0.003200048568597648, ,0.5925090312957764
0.010343574343109337,0.020603063736880454,-0.08116212660331378, ,0.010545343880032854,0.02073140898617655,-0.08131519355640976, ,0.0002839241820932057, ,0.0009349805993954496,0.0008243127307021586,-0.0025764418629986973,0.003937364642239636,-0.0031668956187103966,-0.0021485181103668887, ,0.0028621203455927078, ,0.005052926683837625, ,3.0585349734462764e-05, ,0.1424535305979453,-0.24617755583165468,0.09095418785,1.6058055872044876,0.14169205025676176,-1.3937309705928476, ,0.007206170760757136,-0.0016892464852639858,0.0027984559943780747,0.0033341470448398467,0.0033275814754395996,-0.0018059156850234593, ,0.6450510025024414
0.010382871358999235,0.020638715660757676,-0.08126647294131142, ,0.010592991948714513,0.020772975879367817,-0.08144788552604341, ,0.00030836179144420715, ,0.0009748744449707284,0.0009056090996229063,-0.0028394975827832365,0.0039013914680001206,-0.0038131030191350746,-0.0003387824758328575, ,0.0031358020580720077, ,0.005455328572737983, ,3.108675913263997e-05, ,0.1427624399129143,-0.2462702286261454,0.09106826137000001,1.6060152771479719,0.14182868675652718,-1.3936790310162628, ,0.00719037272507006,-0.0018785492111877708,0.003076247879490151,0.001426185327279815,0.0031245252044845412,-0.00184458063562642, ,0.6868410110473633
0.010429061588287427,0.02068260132921841,-0.08141348963831815, ,0.010641396383124288,0.02081307312600552,-0.08158120358550795, ,0.0003003946120309933, ,0.0012512881563537979,0.0011398505580967073,-0.003917362013395207,-0.010312969988626273,-0.00617258811520056,-0.00227945542734206, ,0.0042674004369189925, ,0.012019076216736327, ,3.170457479012141e-05, ,0.14309451742650595,-0.2463320104891392,0.09122640875000002,1.6062249670914566,0.14210195975605808,-1.3933301156426716, ,0.008457927320935973,-0.001354980560029453,0.004202852643799473,0.003028860589246419,0.001602479524005972,0.012073565878638401, ,0.7242999076843262
0.01046912076058371,0.020716121024190102,-0.0815260194535659, ,0.010690548237963046,0.02085171956887364,-0.08171513713893398, ,0.00032122047253849097, ,0.001287203226648445,0.0010250690605786818,-0.003492090099426699,0.018594040104870497,0.0038345994756146732,0.0007905404790026381, ,0.0038603564586918394, ,0.018985322753132382, ,3.240874818733872e-05, ,0.1434265949400976,-0.24637834688638452,0.09134826001000002,1.6062249670914566,0.1425118692553544,-1.3932559756530583, ,0.011020276379933603,-0.0011938996204210867,0.0037853639543726234,0.003028860589246419,0.014553694845186746,-0.016989474545639975, ,0.7611398696899414
0.010511589977368854,0.020750279782396994,-0.08164664629196827, ,0.01074043862239456,0.020888933949634373,-0.08184967564480267, ,0.0003358833108904713, ,0.0012231255180554384,0.0010696441658199821,-0.003862909297634983,0.0048216008527762625,0.0017873000760459366,-0.00023455745327557017, ,0.004190732980773877, ,0.005142205313402008, ,3.314538381962994e-05, ,0.14372778152219234,-0.24640923781788143,0.09147788901000001,1.6062249670914566,0.1425118692553544,-1.393255975653058, ,0.009131199029014455,-0.0006792943142637257,0.0041405800675851315,0.003028860589246419,0.010500873511229084,-0.003727134553735084, ,0.7980210781097412
0.01057305986347302,0.020794200526467032,-0.08180006703402859, ,0.010791058699907017,0.020924734909030532,-0.08198480861583489, ,0.00031415309924637784, ,0.0015357311638345176,0.001169728507589299,-0.004088619449992767,0.00420679846676205,-0.004602633227927365,-0.0007723095079427273, ,0.004521453748065855, ,0.006235493952222306, ,3.3675289706784575e-05, ,0.14419886822752004,-0.24644785148225257,0.09164381413000001,1.606434657034941,0.1425118692553544,-1.3931742969129175, ,0.012067261134088349,-0.0010747905325761353,0.0044173076871880206,0.0027569449889896535,0.007006835315438966,-0.0027573874300700564, ,0.8355889320373535
0.010615613391563455,0.020824832915665777,-0.08191044542737291, ,0.010842399688179478,0.02095914098712878,-0.08212052561889274, ,0.00033705247256462855, ,0.001425727596097892,0.0010014175930667204,-0.003634754206519623,0.005923549510639571,-0.004689316861654158,-0.001485462445969384, ,0.004030753591549688, ,0.007555007001954047, ,3.451380358457291e-05, ,0.14454639120686014,-0.246463296948001,0.09176307281000001,1.6066443469784255,0.14278514225488526,-1.3933154539801698, ,0.011410470901401138,-0.0004813740246395798,0.0039252862296697884,0.0031812726923448865,0.00613256411049805,-0.005000694826408482, ,0.867311954498291
0.010663404763797492,0.020855832930636583,-0.08202559585060994, ,0.010894452858943846,0.020992170623525784,-0.08225681627487064, ,0.0003541667310299018, ,0.001756219954594035,0.001117203318720468,-0.004214773155184432,0.0013544904373059758,-0.011962131122953266,-0.0027872386401396505, ,0.0047007195761859305, ,0.012038572341329396, ,3.5394545557761314e-05, ,0.14508698250805585,-0.24647874241374945,0.09194325712000001,1.6066443469784255,0.14305841525441615,-1.393456611047422, ,0.01268167066129504,0.00025278279143034943,0.005034390493046777,0.0031812726923448865,0.001392888329717524,-0.0011358070357975413, ,0.8991620540618896
0.0107378502207084,0.02091113599810855,-0.0822333613456588, ,0.010947209537849023,0.021023842157573792,-0.0823936702585915, ,0.00028676288047907504, ,0.0018285102023054783,0.0012229712634279134,-0.0046972665831932344,0.006126031609807262,-0.005579141106658047,-0.001480575922725282, ,0.005186850838870299, ,0.008285835895404315, ,3.582457796893188e-05, ,0.14548856461751553,-0.24647874241374945,0.09211047853000001,1.6068540369219102,0.1431950517541816,-1.3934046714708375, ,0.014503582692720582,0.00018106992752829317,0.005055160748968582,0.003632974629445629,0.008292623452741751,-0.005791778019688345, ,0.9310469627380371
0.010778031221046857,0.02093484837071087,-0.08232554993455059, ,0.011000661104325599,0.02105417382860788,-0.08253107729870343, ,0.0003256441727509533, ,0.0016091358295623791,0.0009283607702802413,-0.0034823337032668395,0.004215544114647757,-0.006109457977008881,-0.0017516263749556814, ,0.00394687469508279, ,0.007422687413820021, ,3.644299531495066e-05, ,0.14583608759685565,-0.24647101968087523,0.09221029286000001,1.6068540369219102,0.14346832475371246,-1.3935458285380897, ,0.013845483157057307,0.0,0.0037862637318754467,0.003632974629445629,0.007066599984514203,-0.003701903175650502, ,0.9625270366668701
0.010834918381073574,0.020971800843533294,-0.08246491230223847, ,0.011054798991448195,0.02108318377615926,-0.08266902717757257, ,0.0003200258158832385, ,0.0016503317557995418,0.001162576247802656,-0.004414163604845812,0.006627761568202215,-0.003099885635829558,-0.0009103936004654247, ,0.004853866372954727, ,0.007316864949162568, ,3.6990929606807605e-05, ,0.14628400610356065,-0.24647101968087523,0.09236066250000001,1.6070637268653947,0.1436049612534779,-1.3934938889615047, ,0.012897110839694317,0.0,0.004747782867362146,0.0033198617138031844,0.009272662749991532,-0.0061554075265316515, ,0.9941458702087402
0.010870761510555167,0.02099551105428451,-0.0825578152280522, ,0.01110961468580075,0.02111089004018547,-0.08280750973118049, ,0.0003642945162981713, ,0.0017924674509484913,0.001256433999722245,-0.004801433048822206,0.0010529768417671306,-0.00881639719736976,-0.0022659809078741755, ,0.005276866994788662, ,0.008879054973320172, ,3.793482365030304e-05, ,0.14669331094589455,-0.246463296948001,0.09250843956,1.6070637268653947,0.14401487075277425,-1.3937464639324537, ,0.014479240396470975,6.553998002071757e-05,0.005128400360592403,0.0033198617138031844,0.012981981772460464,-0.008157170829575405, ,1.0204029083251953
0.010923208027795952,0.021032185781548852,-0.08270017028649432, ,0.01116509972733911,0.021137310561285275,-0.08294651484901819, ,0.00036089951109358166, ,0.0018844903373612682,0.0011707620754114428,-0.004486677406548211,0.000562424056331071,-0.00860182832122094,-0.0017651930480622469, ,0.005005223453479362, ,0.008620195442608683, ,3.881290258795467e-05, ,0.14697905206224088,-0.2464555742151268,0.09261343905000001,1.6070637268653947,0.1441515072525397,-1.3937762030960095, ,0.015103762781867067,0.00018845022342518767,0.0048460028962579865,0.0033198617138031844,0.005873131378907768,-0.0002763800053962352, ,1.046933889389038
0.010983750402509282,0.021074753809480432,-0.0828657247719127, ,0.011221245709254778,0.021162463180920597,-0.08308603247398022, ,0.0003356075656996375, ,0.0020632191174481786,0.0014792323403330799,-0.005741069782763965,0.0016958588629570133,-0.006667546704574381,-0.0032674690411255793, ,0.006277330937098697, ,0.006879833581120792, ,3.9520617851753986e-05, ,0.1474346933018201,-0.24644012874937832,0.09279103078,1.6074831067523636,0.14442478025207056,-1.393917360163262, ,0.015120608916263666,0.00033961590372870215,0.006152495758980302,0.005253958941259106,0.007399845367625203,-0.0012798293916538184, ,1.0731549263000488
0.01102453746216428,0.02110282153692892,-0.08297706136628265, ,0.01127804427783935,0.021186365641643192,-0.083226052602262, ,0.00036502323024808727, ,0.002145794879616962,0.0013064631912218048,-0.005271064416901854,-0.0031323284553256593,-0.014944505258621666,0.007453734030273209, ,0.00583912680308766, ,0.01526924080981031, ,4.0337301466336015e-05, ,0.14773587988391487,-0.24642468328362988,0.09291028946,1.607692796695848,0.144561416751836,-1.3938654205866772, ,0.016449461181915544,0.0007937604481377502,0.005664584466571835,-0.007036125979492028,0.0033236123598603144,0.0013447696040050526, ,1.099289894104004
0.011089051228029164,0.021141671769894507,-0.08313204563493207, ,0.011335487132348216,0.021209035587315725,-0.08336656528325447, ,0.00034679677663491823, ,0.0023517806769166203,0.001401990087638818,-0.005622472636999053,0.006421871850970013,-0.007229707941760395,0.010142575639698, ,0.006253690679267642, ,0.00967001082598787, ,4.102830274873239e-05, ,0.14826874845223637,-0.2464015150850072,0.09307751087,1.607692796695848,0.1449713262511323,-1.3941179955576257, ,0.019370675966211632,0.0008184605534413441,0.006065807890327494,-0.007036125979492028,0.014299908204395084,-0.008232633573164658, ,1.1257400512695312
0.011134232797806782,0.021167535255557056,-0.08324046805680467, ,0.011393566024862477,0.021230490563322213,-0.08350756061943629, ,0.00037756526646932415, ,0.002144108040434543,0.001196740891957941,-0.005187950756990941,0.005110908805358905,-0.005786714442176383,0.00991110857915833, ,0.005739705663925915, ,0.007720586058959103, ,4.202574226029498e-05, ,0.14863943963019913,-0.2463706241535103,0.09319288068,1.607692796695848,0.14510796275089774,-1.3941477347211817, ,0.017602845772300275,0.001823370030741384,0.005544313094326489,-0.007036125979492028,0.007482818006832919,-0.002634500580607965, ,1.147252082824707
0.011181760462411454,0.021196267299467556,-0.0833640181503231, ,0.011452272760155468,0.02125074801680859,-0.08364902876627367, ,0.0003967065703984032, ,0.00256901833205435,0.0016260315533271142,-0.007011569761493039,0.006252007802284108,-0.004223868872103953,-0.0006390966179933409, ,0.007642378185037053, ,0.007545107876113846, ,4.307438263349326e-05, ,0.14901013080816192,-0.2463320104891392,0.09332639855000001,1.6074831067523636,0.14551787225019408,-1.3944003096921302, ,0.01939442909431244,0.0024308003708894354,0.007485343759398498,0.004041948495398219,0.014634947085259864,-0.008072541758732356, ,1.1691200733184814
0.011269376591709719,0.021248454301834814,-0.08358678913636786, ,0.011511599195553775,0.02126982529688621,-0.08379095993211104, ,0.0003175125557783285, ,0.002467406556325901,0.0012743062577320935,-0.005520524760692189,-0.006635050094569554,-0.01666600501779601,-0.010144764425309588, ,0.006179655749806032, ,0.01793821640752488, ,4.372850436882819e-05, ,0.14967428583534523,-0.24625478316039695,0.09356491591,1.6079024866393328,0.14579114524972495,-1.3943781092791014, ,0.019163356534424632,0.0022067696376389034,0.005936940559075662,0.010239957119950401,0.0,0.005933868039377991, ,1.1970350742340088
0.011314708230240335,0.02126818275039157,-0.08368422808225255, ,0.011571537240802605,0.021287739654866064,-0.08393334437806899, ,0.00035833300436928826, ,0.0020617763545691405,0.0008885929840455507,-0.003996861745181725,0.02569345233734876,0.019577388067713867,0.00038850601903174585, ,0.004584258177464757, ,0.032302130201358054, ,4.4540092806412156e-05, ,0.15009131341055335,-0.24618527856452893,0.09366991540000001,1.6079024866393328,0.14633769124878673,-1.394823780893887, ,0.02130122144971286,0.0022440471283851062,0.004373644019769358,0.00944745732775596,0.039804478690780826,-0.026531698186217534, ,1.218048095703125
0.011338648859290328,0.021276609620257025,-0.08372858305747108, ,0.011632078857928505,0.0213045082444729,-0.08407617241793804, ,0.00045573880769994503, ,0.0023117631680500948,0.0009876795202589488,-0.005111077318129825,0.010007054012817342,0.0038275414922061173,-0.003405011378230883, ,0.005695864388465821, ,0.010714065540312758, ,4.5946723938642327e-05, ,0.15030754993103163,-0.2461466649001578,0.09371787813000002,1.6079024866393328,0.14647432774855218,-1.3949351987975835, ,0.02042111933687772,0.004252114126732083,0.005481352897453545,0.00873907068868674,0.022822759628145655,-0.012937113044223373, ,1.233747959136963
0.011398027002030601,0.021307640109444404,-0.08387568301157658, ,0.011693216061103576,0.021320148122072058,-0.08421943441807411, ,0.00045327481779304084, ,0.0032355718997503784,0.0017608789543508423,-0.008300772369537614,-0.007269600801841613,-0.02120396330722276,-0.008018640995328306, ,0.009081433925389156, ,0.022415510619734895, ,4.7306356033371266e-05, ,0.15075546843773666,-0.24606171483854133,0.09387472922000001,1.6079024866393328,0.1466109642483176,-1.394883259220999, ,0.023061225166092537,0.004723434793908945,0.008829718137472286,0.00762439616510718,0.0,0.003710348600954798, ,1.2505600452423096
0.011459511302429216,0.021345449356008166,-0.08405902313302102, ,0.011754940916508163,0.021334676246884062,-0.08436312079729243, ,0.0004241109597385567, ,0.0033731128666272367,0.0019371864064858801,-0.009897183949006644,0.016413252519770025,0.007192698041662303,0.006226262766741919, ,0.01063413521189921, ,0.017920091194869578, ,4.850717259353485e-05, ,0.15123427787593857,-0.24594587384542796,0.09406917272000001,1.6081121765828172,0.14743078324691022,-1.3955517666431774, ,0.025258701506114128,0.007216417281580411,0.010465710591327202,0.0008909287774980814,0.03325841948958463,-0.023409662422066005, ,1.2662179470062256
0.011481260517866425,0.0213579084428149,-0.08411898923503892, ,0.011817245542195973,0.021348109481216522,-0.08450722202676568, ,0.0005135237645855191, ,0.00345069736424381,0.001994266855716764,-0.009790227772331591,0.011739366009182456,0.0013179844280247223,-0.005940035926160117, ,0.010570381848615612, ,0.011813115901732535, ,5.005340052128659e-05, ,0.15138100980054883,-0.24590726018105682,0.09413269093000001,1.608321866526302,0.14743078324691022,-1.3955517666431774, ,0.02540068028866991,0.006442426952569016,0.01037707590879479,0.011505653976114366,0.02468091706535138,-0.01641528434080925, ,1.2840619087219238
0.011570741024212601,0.021399881394200133,-0.08434260758665696, ,0.011880122107955495,0.021360464590671688,-0.08465172862991302, ,0.00043911975446573004, ,0.003707447385459422,0.0015146227407890301,-0.008826734090032972,-0.003091874757119816,-0.015177257712866305,-0.008703981968738518, ,0.009692805726878846, ,0.015488989238061402, ,5.125240281548522e-05, ,0.15205288756060636,-0.24572191459207546,0.09436991200000001,1.608321866526302,0.14770405624644115,-1.395611244970289, ,0.028514705997136652,0.009096640945933336,0.009353383159130946,0.010494415748612707,0.011127271154192516,-0.004355028734818543, ,1.3002910614013672
0.011570741024212601,0.021399881394200133,-0.08434260758665696, ,0.01194356283517626,0.02137175824438467,-0.08479663118230302, ,0.0005881534150960443, ,0.003707447385459422,0.0015146227407890301,-0.008826734090032972,-0.003091874757119816,-0.015177257712866305,-0.008703981968738518, ,0.009692805726878846, ,0.015488989238061402, ,5.325095676390116e-05, ,0.15205288756060636,-0.24572191459207546,0.09436991200000001,1.608321866526302,0.14770405624644115,-1.395611244970289, ,0.028514705997136652,0.009096640945933336,0.009353383159130946,0.010494415748612707,0.011127271154192516,-0.004355028734818543, ,1.3110249042510986
0.011631472276775865,0.021423492777051113,-0.08449569663909029, ,0.012007559996709521,0.02138200701522731,-0.08494192031154091, ,0.0005850458164745004, ,0.003608517470498518,0.0012370220046124913,-0.008543682517487845,0.01665203435550598,0.008866591034528554,-0.001177855370344452, ,0.0093566090403744, ,0.01886548804637972, ,5.520419718409176e-05, ,0.15258575612892786,-0.24553656900309406,0.09453194825000001,1.608321866526302,0.14866051174479922,-1.3963094915560235, ,0.030641569763794244,0.01138945529986447,0.009035060419739083,0.009257510276782194,0.03843661942402363,-0.026538126669283763, ,1.3216750621795654
0.011680621993924216,0.021438750994707302,-0.08459837040246548, ,0.012072105916734764,0.021391227380047492,-0.08508758669717015, ,0.0006283714974233237, ,0.004097230406612327,0.0013292157574159,-0.009113733198680501,0.0004371912078893458,-0.012438900120313953,-0.005324293541842418, ,0.010080389097220527, ,0.012446578223748386, ,5.7301213795651036e-05, ,0.1529718927726391,-0.24540528254423224,0.09464083661000001,1.608321866526302,0.14866051174479922,-1.3961461340757424, ,0.0331807487966681,0.01201531293472661,0.009647977904300425,0.008572732974609297,0.0192490444050992,-0.011043411192970011, ,1.3322200775146484
0.011727799672528029,0.021452527761109053,-0.08470807747449631, ,0.01213719297062059,0.021399435719874463,-0.08523362107056187, ,0.000668294627190046, ,0.005267563478359189,0.0017766420262119655,-0.012958357137160124,-0.010098359272678473,-0.02476177293964804,0.0004106489459978213, ,0.014100450403516719, ,0.02674176310063735, ,5.9524877247854824e-05, ,0.1533503066834761,-0.2452353824209993,0.09475620642,1.6085315564697864,0.14893378474433008,-1.3963689698831352, ,0.03929479981717217,0.01785455156321181,0.013602742544833478,0.0005307420858904516,0.014860311630508868,-0.007464693892189794, ,1.3427629470825195
0.011774400785449697,0.021474824517078227,-0.08484620245835266, ,0.012202813584789814,0.021406648320150136,-0.08538001421481327, ,0.0006878521002378169, ,0.0049105420071129426,0.0026200789095055686,-0.015334181521843699,0.05614049031851008,0.05158427932152905,0.015279983879904577, ,0.01631304261137417, ,0.07624101047668201, ,6.179102205160824e-05, ,0.15371327512856464,-0.2450809277635148,0.09490139090000001,1.6087412464132707,0.1496169672431573,-1.3968443806614768, ,0.03890813512032422,0.01521028074346382,0.01613861349544073,0.005157966689007857,0.09207239781440489,-0.07037174576166615, ,1.3537468910217285
0.011829503619088888,0.021499839662860402,-0.0850001538279281, ,0.012268960236583071,0.021412881370950165,-0.08552675696464233, ,0.0006913716271215138, ,0.005619713393541647,0.0023949156859811695,-0.015401870915017752,0.005205071379056087,-0.006677046014360593,-0.007893144652681872, ,0.0165690804648713, ,0.008466099742015364, ,6.403524965247108e-05, ,0.15413030270377276,-0.2449110276402819,0.09506342715,1.6089509363567556,0.15016351324221905,-1.3972900522762624, ,0.04045052922355958,0.01799335258977451,0.01617138225380711,0.013393520962651508,0.03149466839794442,-0.020974669329983386, ,1.3642189502716064
0.011896741843931203,0.021524586314681012,-0.08517339364606435, ,0.0123356254541212,0.021418150967199207,-0.08567384020628085, ,0.0006740875804519057, ,0.006471464894789545,0.002256416048256364,-0.01668236496016098,-0.014678424158068328,-0.02733157282441564,-0.011862070171653284, ,0.018035314578108395, ,0.031023696052282498, ,6.617649310794935e-05, ,0.15459366667622623,-0.24468706838692936,0.09524490775000001,1.6089509363567556,0.15016351324221905,-1.3971266947959813, ,0.04617856036908554,0.023162543704776856,0.017465802105263162,0.01280366923010795,0.01624273491826401,-0.006288333585545757, ,1.3747730255126953
0.011961032116465264,0.0215469444857213,-0.08534557755102679, ,0.012402801816170032,0.021422473108899397,-0.08582125487737141, ,0.0006610011422256032, ,0.0066476192087174075,0.0021722565751820105,-0.016499535250572,-0.0032605843912569986,-0.017016148415506836,-0.007319449116054624, ,0.01792049673578827, ,0.017325688865446588, ,6.85000268935652e-05, ,0.15508019884730237,-0.2444399409349542,0.09542509206000001,1.6089509363567556,0.1507100592412808,-1.397572366410767, ,0.049867021312911604,0.023600333638018098,0.017313925565217395,0.011732739657316284,0.030958227638941484,-0.01828783118400905, ,1.380213975906372
0.011961032116465264,0.0215469444857213,-0.08534557755102679, ,0.01247048195200317,0.021425863701348018,-0.0859689919668614, ,0.0008141530723054891, ,0.0066476192087174075,0.0021722565751820105,-0.016499535250572,-0.0032605843912569986,-0.017016148415506836,-0.007319449116054624, ,0.01792049673578827, ,0.017325688865446588, ,7.140140061112132e-05, ,0.15508019884730237,-0.2444399409349542,0.09542509206000001,1.6089509363567556,0.1507100592412808,-1.397572366410767, ,0.049867021312911604,0.023600333638018098,0.017313925565217395,0.011732739657316284,0.030958227638941484,-0.01828783118400905, ,1.3895149230957031
0.011984668152444077,0.021554953666536984,-0.08540852041352519, ,0.012538658541265355,0.02142833855535776,-0.08611704251489719, ,0.0009082622448488476, ,0.005939456397001104,0.0019627283172732866,-0.01537914617119483,0.05001059790673299,0.04478126743833374,0.008880923047121132, ,0.016602637793262865, ,0.06712988124561452, ,0.0004012171292063964, ,0.1552809899020322,-0.24434726814046348,0.09549120285000001,1.6089509363567556,0.15111996874057715,-1.3979066201218564, ,0.05039667634544386,0.022784379725923357,0.01617138225380711,0.011361100154535403,0.09534092315531732,-0.07078760233647495, ,1.3949151039123535
0.012102649416164705,0.021585154053381805,-0.0856827423466141, ,0.012607324313837091,0.021429913387484168,-0.08626539761272153, ,0.0007863101015577087, ,0.00773080511094311,0.001881735279905511,-0.017735575519923944,-0.023977744330590394,-0.04053622480962285,-0.010564602252694828, ,0.01943854198107334, ,0.0470968787734843, ,0.000409076169458464, ,0.1562231633126876,-0.24389162690088423,0.09577897923,1.6089509363567556,0.15193978773916977,-1.3983300913236132, ,0.05797003149570604,0.030221955910341013,0.018565048391608396,0.010057528620377763,0.015474138140556135,-0.004355501231260465, ,1.4001410007476807
0.012102649416164705,0.021585154053381805,-0.0856827423466141, ,0.01267647204969733,0.021430603820243452,-0.08641404840256688, ,0.0009423198696783564, ,0.00773080511094311,0.001881735279905511,-0.017735575519923944,-0.023977744330590394,-0.04053622480962285,-0.010564602252694828, ,0.01943854198107334, ,0.0470968787734843, ,0.00041974104346286184, ,0.1562231633126876,-0.24389162690088423,0.09577897923,1.6089509363567556,0.15193978773916977,-1.3983300913236132, ,0.05797003149570604,0.030221955910341013,0.018565048391608396,0.010057528620377763,0.015474138140556135,-0.004355501231260465, ,1.4054200649261475
0.012169600380021706,0.02160175918576618,-0.08584024860895537, ,0.01274609457878573,0.02143042538232622,-0.08656298607754795, ,0.0009402394811522177, ,0.008749010238008193,0.0020290607318516536,-0.020206618388649733,-0.04856106205456862,-0.06326246117558566,-0.005671818059098428, ,0.02211265914137945, ,0.07975156658721307, ,0.000429946895182261, ,0.15671741821663798,-0.24362133125028637,0.09594360806,1.6091606263002398,0.1520764242389352,-1.3981964730068879, ,0.06330683226048751,0.035303921710740614,0.02109776360264901,0.0001696940214994682,0.0,0.013715516553312438, ,1.4106829166412354
0.012169600380021706,0.02160175918576618,-0.08584024860895537, ,0.01281618478086947,0.021429393508837023,-0.08671220188156287, ,0.001099128665631935, ,0.008749010238008193,0.0020290607318516536,-0.020206618388649733,-0.04856106205456862,-0.06326246117558566,-0.005671818059098428, ,0.02211265914137945, ,0.07975156658721307, ,0.0004428157753832163, ,0.15671741821663798,-0.24362133125028637,0.09594360806,1.6091606263002398,0.1520764242389352,-1.3981964730068879, ,0.06330683226048751,0.035303921710740614,0.02109776360264901,0.0001696940214994682,0.0,0.013715516553312438, ,1.4160280227661133
0.012169600380021706,0.02160175918576618,-0.08584024860895537, ,0.012886735585403035,0.021427523541496657,-0.08686168710918092, ,0.0012601498213602885, ,0.008749010238008193,0.0020290607318516536,-0.020206618388649733,-0.04856106205456862,-0.06326246117558566,-0.005671818059098428, ,0.02211265914137945, ,0.07975156658721307, ,0.0004582371724771233, ,0.15742790964106662,-0.2432197491408267,0.09619768090000001,1.609580006187209,0.15275960673776243,-1.3984268475648078, ,0.06866638318268507,0.0392622844677165,0.02686140222596965,0.015294521367907654,0.09463884655379545,-0.039646367024764546, ,1.4215500354766846
0.01237438806786752,0.02166735517499363,-0.08640477830118139, ,0.012957739971394232,0.021424830728876375,-0.0870114331055432, ,0.000875869626124794, ,0.010042556900992355,0.0036465418943390907,-0.030018471003784464,-0.011782015180199442,0.04196505889868895,-0.03133174500064459, ,0.031863126310861085, ,0.0435873568271482, ,0.00046597110680393205, ,0.1582079056613633,-0.24273321696975056,0.09653212372000002,1.6099993860741781,0.15385269873588595,-1.3988281183535358, ,0.06998299524960973,0.045038890155895,0.031232963764705888,0.05134611918324014,0.10271309972429891,-0.024753162306026713, ,1.4277520179748535
0.01237438806786752,0.02166735517499363,-0.08640477830118139, ,0.013029190967266891,0.02142133022661511,-0.08716143126625432, ,0.0010304459334871184, ,0.010042556900992355,0.0036465418943390907,-0.030018471003784464,-0.011782015180199442,0.04196505889868895,-0.03133174500064459, ,0.031863126310861085, ,0.0435873568271482, ,0.00047623428547089906, ,0.1582079056613633,-0.24273321696975056,0.09653212372000002,1.6099993860741781,0.15385269873588595,-1.3988281183535358, ,0.06998299524960973,0.045038890155895,0.031232963764705888,0.05134611918324014,0.10271309972429891,-0.024753162306026713, ,1.4330010414123535
0.012483254441632036,0.021702152693885906,-0.08670448498382549, ,0.013101081650723595,0.02141703709763774,-0.08731167303727791, ,0.0009119641965412612, ,0.01142022433560686,0.003196523894433728,-0.030418308493465898,-0.03393586456567822,-0.016731161477039118,0.03175507333484375, ,0.03264831971919738, ,0.037835811424269755, ,0.0004840151767400127, ,0.15898017894878574,-0.24226985299729709,0.09684452961000001,1.6102090760176624,0.1546725177344786,-1.3990065533348708, ,0.08117787986182273,0.049893239515494625,0.031667617335984104,-0.02309055464639676,0.07216406392377175,-0.01880815890569025, ,1.4383158683776855
0.012483254441632036,0.021702152693885906,-0.08670448498382549, ,0.013173405148610547,0.021411966312382635,-0.08746214991483263, ,0.001065163030728607, ,0.01142022433560686,0.003196523894433728,-0.030418308493465898,-0.03393586456567822,-0.016731161477039118,0.03175507333484375, ,0.03264831971919738, ,0.037835811424269755, ,0.0004942107531257775, ,0.15898017894878574,-0.24226985299729709,0.09684452961000001,1.6102090760176624,0.1546725177344786,-1.3990065533348708, ,0.08117787986182273,0.049893239515494625,0.031667617335984104,-0.02309055464639676,0.07216406392377175,-0.01880815890569025, ,1.4436020851135254
0.012604356442881716,0.021730658497318107,-0.08701740766721938, ,0.013246154636780277,0.02140613274902054,-0.08761285344528663, ,0.0009336902899878856, ,0.012022448478216196,0.0024189372661424322,-0.03023924729393468,-0.05873889856251808,-0.010818639808723407,0.02827232500904957, ,0.032631313210053796, ,0.05972667651157897, ,0.0005017879865199517, ,0.15986057049644736,-0.2417060934974787,0.09716989840000001,1.6102090760176624,0.15549233673307122,-1.3990216308359247, ,0.08893808955807946,0.05775833326748069,0.03141777420118344,-0.017625095082782153,0.08487008135526085,-0.0009368507150396485, ,1.4489750862121582
0.012604356442881716,0.021730658497318107,-0.08701740766721938, ,0.013319323339954564,0.02139955119367192,-0.08776377522505084, ,0.001085299148539756, ,0.012022448478216196,0.0024189372661424322,-0.03023924729393468,-0.05873889856251808,-0.010818639808723407,0.02827232500904957, ,0.032631313210053796, ,0.05972667651157897, ,0.0005116780062152026, ,0.15986057049644736,-0.2417060934974787,0.09716989840000001,1.6102090760176624,0.15549233673307122,-1.3990216308359247, ,0.08893808955807946,0.05775833326748069,0.03141777420118344,-0.017625095082782153,0.08487008135526085,-0.0009368507150396485, ,1.4543979167938232
0.012604356442881716,0.021730658497318107,-0.08701740766721938, ,0.01339290453158893,0.02139223634063411,-0.08791490690047586, ,0.0012417095143528603, ,0.012022448478216196,0.0024189372661424322,-0.03023924729393468,-0.05873889856251808,-0.010818639808723407,0.02827232500904957, ,0.032631313210053796, ,0.05972667651157897, ,0.0005238451980174969, ,0.15986057049644736,-0.2417060934974787,0.09716989840000001,1.6102090760176624,0.15549233673307122,-1.3990216308359247, ,0.08893808955807946,0.05775833326748069,0.03141777420118344,-0.017625095082782153,0.08487008135526085,-0.0009368507150396485, ,1.4597420692443848
0.012604356442881716,0.021730658497318107,-0.08701740766721938, ,0.013466891533736414,0.021384202792605,-0.08806624016774842, ,0.001401444951630268, ,0.012022448478216196,0.0024189372661424322,-0.03023924729393468,-0.05873889856251808,-0.010818639808723407,0.02827232500904957, ,0.032631313210053796, ,0.05972667651157897, ,0.0005382320792242637, ,0.15986057049644736,-0.2417060934974787,0.09716989840000001,1.6102090760176624,0.15549233673307122,-1.3990216308359247, ,0.08893808955807946,0.05775833326748069,0.03141777420118344,-0.017625095082782153,0.08487008135526085,-0.0009368507150396485, ,1.465104103088379
0.01284235404326972,0.021762405717029976,-0.087561614185326, ,0.0135412777169094,0.021375465060894782,-0.08821776677278195, ,0.001033805393180681, ,0.012736951035795085,0.00040468256872437094,-0.025811102992145698,-0.05084171077944079,-0.015207293891765507,0.0229989034869822, ,0.02878552982560549, ,0.05306722045194892, ,0.0005462251971913027, ,0.16174491731775814,-0.24053223810059657,0.09773637713000001,1.6102090760176624,0.15754188422955284,-1.3994677182892628, ,0.10474276110206487,0.06744629819365372,0.026816181010101015,-0.011406410600046669,0.09506876095138175,-0.01745565366528952, ,1.4704198837280273
0.012978199643911482,0.021759958724924654,-0.08783115731186872, ,0.013616056499943404,0.02136603756565013,-0.08836947851111235, ,0.0010215571862319706, ,0.01388216271890556,-0.000331165809706052,-0.027220117667174023,-0.10801422133372636,-0.04172961372106601,0.004583664197474556, ,0.030557469109245436, ,0.11579472236773579, ,0.0005537701493982974, ,0.16284926811877223,-0.23975996481317413,0.09801507948,1.6099993860741781,0.1583617032281455,-1.3995644745304574, ,0.11190677070574384,0.07901493884968425,0.02814277653710248,0.0,0.07229475938968478,0.030059322759371176, ,1.476283073425293
0.012978199643911482,0.021759958724924654,-0.08783115731186872, ,0.013691221349862594,0.021355934636085983,-0.08852136722779781, ,0.0010714593532030034, ,0.01388216271890556,-0.000331165809706052,-0.027220117667174023,-0.10801422133372636,-0.04172961372106601,0.004583664197474556, ,0.030557469109245436, ,0.11579472236773579, ,0.000561859043207746, ,0.16284926811877223,-0.23975996481317413,0.09801507948,1.6099993860741781,0.1583617032281455,-1.3995644745304574, ,0.11190677070574384,0.07901493884968425,0.02814277653710248,0.0,0.07229475938968478,0.030059322759371176, ,1.481529951095581
0.013110451843526712,0.02175468379888704,-0.08808674468293173, ,0.013766765782106925,0.021345170512557726,-0.08867342481812542, ,0.0009708978827280357, ,0.01356494676573098,-0.0009596086592711349,-0.02594256194732813,-0.04539159729490223,-0.01679070528229964,0.010310729170664917, ,0.029290700741481435, ,0.04839744970702592, ,0.0005681519484311351, ,0.1639458961869121,-0.2389954142586259,0.09827952264,1.6099993860741781,0.15931815872650357,-1.3996092911950675, ,0.11270420612644985,0.08194899961871396,0.02677111179831933,0.0,0.09879698925997912,-0.03545267043144688, ,1.486772060394287
0.013110451843526712,0.02175468379888704,-0.08808674468293173, ,0.01384268335891675,0.02133375933926228,-0.08882564322421801, ,0.0011221904683055292, ,0.01356494676573098,-0.0009596086592711349,-0.02594256194732813,-0.04539159729490223,-0.01679070528229964,0.010310729170664917, ,0.029290700741481435, ,0.04839744970702592, ,0.000576546471459535, ,0.1639458961869121,-0.2389954142586259,0.09827952264,1.6099993860741781,0.15931815872650357,-1.3996092911950675, ,0.11270420612644985,0.08194899961871396,0.02677111179831933,0.0,0.09879698925997912,-0.03545267043144688, ,1.492211103439331
0.01324445869676981,0.021743464945662226,-0.08834067227560664, ,0.01391896769143922,0.021321715175858236,-0.088978014439897, ,0.0010193332559089668, ,0.013858690632304934,-0.001074484394811835,-0.026141503492321475,-0.07563581454258363,-0.013715043075229829,-0.0008265623985970826, ,0.029607364414883108, ,0.07686915271968675, ,0.0005831552294363921, ,0.16505796972080045,-0.23816908184108387,0.09854137322,1.6104187659611469,0.16027461422486164,-1.3996541078596771, ,0.11516619121173638,0.08353604010428767,0.02699798562711865,0.01187889687401027,0.10159574819347411,-0.0048337107046329455, ,1.4976789951324463
0.01324445869676981,0.021743464945662226,-0.08834067227560664, ,0.013995612438080927,0.021309051990012703,-0.08913053050724376, ,0.001173380835537532, ,0.013858690632304934,-0.001074484394811835,-0.026141503492321475,-0.07563581454258363,-0.013715043075229829,-0.0008265623985970826, ,0.029607364414883108, ,0.07686915271968675, ,0.0005918350177614089, ,0.16505796972080045,-0.23816908184108387,0.09854137322,1.6104187659611469,0.16027461422486164,-1.3996541078596771, ,0.11516619121173638,0.08353604010428767,0.02699798562711865,0.01187889687401027,0.10159574819347411,-0.0048337107046329455, ,1.5029489994049072
0.013397036242233746,0.021730192896633145,-0.08863374980029975, ,0.014072611304752784,0.0212957836595604,-0.0892831835173324, ,0.0010328974795063472, ,0.014992876798208635,-0.0016865047941814638,-0.028855052824719937,-0.05246394608236821,-0.004333744776717588,-0.021084130631258247, ,0.032561399334556214, ,0.05264244464942501, ,0.0005982272273519153, ,0.16630905244642483,-0.23721918569755426,0.09884340879,1.610838145848116,0.16136770622298516,-1.3998103424279833, ,0.12308293327946923,0.09713095348871113,0.029662591284916204,0.03359393830994713,0.1141652064089735,-0.03785201379738692, ,1.5082080364227295
0.013397036242233746,0.021730192896633145,-0.08863374980029975, ,0.014149958044733624,0.021281923972724853,-0.08943596561012596, ,0.0011880178762782444, ,0.014992876798208635,-0.0016865047941814638,-0.028855052824719937,-0.05246394608236821,-0.004333744776717588,-0.021084130631258247, ,0.032561399334556214, ,0.05264244464942501, ,0.0006066528080508628, ,0.16630905244642483,-0.23721918569755426,0.09884340879,1.610838145848116,0.16136770622298516,-1.3998103424279833, ,0.12308293327946923,0.09713095348871113,0.029662591284916204,0.03359393830994713,0.1141652064089735,-0.03785201379738692, ,1.5134570598602295
0.013551515501490835,0.02171262014648408,-0.08893661513095069, ,0.01422764645853343,0.021267486628340094,-0.08958886897437054, ,0.0010395826067718468, ,0.0155484217045571,-0.0018726761047641802,-0.029324738248699047,-0.07599277121929833,-0.030239856637450747,0.04986914769232437, ,0.03324455754933144, ,0.08178831531140743, ,0.0006127504108497499, ,0.1675678579049234,-0.23620750769103085,0.09915451839000002,1.6110478357916007,0.16259743472087412,-1.400077994899986, ,0.12703740503142005,0.09864546939549977,0.030168203636363643,-0.04200936561747532,0.10978387253100116,-0.028008774847485762, ,1.5187110900878906
0.013551515501490835,0.02171262014648408,-0.08893661513095069, ,0.014305670393757023,0.02125248523607172,-0.08974188584749068, ,0.0011953805520527958, ,0.0155484217045571,-0.0018726761047641802,-0.029324738248699047,-0.07599277121929833,-0.030239856637450747,0.04986914769232437, ,0.03324455754933144, ,0.08178831531140743, ,0.0006208424961442366, ,0.1675678579049234,-0.23620750769103085,0.09915451839000002,1.6110478357916007,0.16259743472087412,-1.400077994899986, ,0.12703740503142005,0.09864546939549977,0.030168203636363643,-0.04200936561747532,0.10978387253100116,-0.028008774847485762, ,1.5240199565887451
0.013640567926453333,0.021701949945837625,-0.0891001907612911, ,0.014384023744967223,0.02123693331663848,-0.08989500851548357, ,0.0011835126876774342, ,0.01594878364014539,-0.0022248960730691615,-0.028812965729441052,-0.09353132561747837,-0.03589797937099578,0.043599978971005704, ,0.033007587858885905, ,0.10018360113554646, ,0.0006285503069871571, ,0.1682937947951005,-0.2356514709240867,0.09932303609000001,1.6110478357916007,0.1631439807199359,-1.4001152728140691, ,0.13161850424198443,0.10095419314730934,0.029662591284916204,-0.036613125546763894,0.10732804826163439,-0.011896024618630669, ,1.529473066329956
0.013640567926453333,0.021701949945837625,-0.0891001907612911, ,0.01446270045354848,0.021220844302033696,-0.0900482293128149, ,0.0013439276869620668, ,0.01594878364014539,-0.0022248960730691615,-0.028812965729441052,-0.09353132561747837,-0.03589797937099578,0.043599978971005704, ,0.033007587858885905, ,0.10018360113554646, ,0.0006382175688787099, ,0.1682937947951005,-0.2356514709240867,0.09932303609000001,1.6110478357916007,0.1631439807199359,-1.4001152728140691, ,0.13161850424198443,0.10095419314730934,0.029662591284916204,-0.036613125546763894,0.10732804826163439,-0.011896024618630669, ,1.5348448753356934
0.013868022792117166,0.021665862503373733,-0.08951514335220051, ,0.014541694507570235,0.021204231535746583,-0.09020154062231357, ,0.0010668073597855066, ,0.01567803398750811,-0.0027900251612557802,-0.028592446877108324,-0.08373224840779447,-0.016032184021892108,0.03504293864749837, ,0.03272786287758737, ,0.08525315969578849, ,0.0006439320994241339, ,0.1701781416164113,-0.23415326074648712,0.09974951550000001,1.6110478357916007,0.1649202552168866,-1.400175166979733, ,0.12928738631944245,0.10555833321298196,0.02933482784530387,-0.02511455087768032,0.12253554472588751,-0.024390110100152816, ,1.5403308868408203
0.013868022792117166,0.021665862503373733,-0.08951514335220051, ,0.014620999941650333,0.021187108272983597,-0.09035493487506586, ,0.0012253285284820785, ,0.01567803398750811,-0.0027900251612557802,-0.028592446877108324,-0.08373224840779447,-0.016032184021892108,0.03504293864749837, ,0.03272786287758737, ,0.08525315969578849, ,0.0006515820524380543, ,0.1701781416164113,-0.23415326074648712,0.09974951550000001,1.6110478357916007,0.1649202552168866,-1.400175166979733, ,0.12928738631944245,0.10555833321298196,0.02933482784530387,-0.02511455087768032,0.12253554472588751,-0.024390110100152816, ,1.545659065246582
0.014024462641604332,0.021632304308574792,-0.0897873060131297, ,0.014700610836818468,0.02116948768088989,-0.0905084045503112, ,0.0010914937989188274, ,0.01604402866636256,-0.0037483741935465274,-0.027726859466963117,-0.10166436053631149,-0.031141832484303286,0.026141191886979536, ,0.032252750283388726, ,0.1063270405239815, ,0.0006572951920027396, ,0.17147556073928102,-0.2330720781440957,0.10002821785,1.6110478357916007,0.16601334721501013,-1.40041308028818, ,0.1327229951866724,0.11297254947436998,0.028343080996441283,-0.020634015696038028,0.1093971015600763,-0.013047583058605094, ,1.5509850978851318
0.014165193020857208,0.021601122368444633,-0.09003163621312718, ,0.014780521320379617,0.021151382838770785,-0.0906619421753369, ,0.001095534477717149, ,0.016129295750671086,-0.0035091096379520244,-0.028903980361203365,-0.07087805138509855,-0.03319732996408237,0.0037506310674425038, ,0.03328525368064083, ,0.07826711129885264, ,0.0006629136443836935, ,0.1726339706704147,-0.23209901380194342,0.10027840182000002,1.610838145848116,0.16696980271336823,-1.4005395756929304, ,0.12964063054435898,0.1131072009040176,0.02955252601113173,0.0,0.099188031023773,-0.04055242092230675, ,1.5567290782928467
0.014165193020857208,0.021601122368444633,-0.09003163621312718, ,0.014860725565777494,0.02113280673831293,-0.09081554032537277, ,0.0011478635405240867, ,0.016129295750671086,-0.0035091096379520244,-0.028903980361203365,-0.07087805138509855,-0.03319732996408237,0.0037506310674425038, ,0.03328525368064083, ,0.07826711129885264, ,0.0006690522506639517, ,0.1726339706704147,-0.23209901380194342,0.10027840182000002,1.610838145848116,0.16696980271336823,-1.4005395756929304, ,0.12964063054435898,0.1131072009040176,0.02955252601113173,0.0,0.099188031023773,-0.04055242092230675, ,1.5620310306549072
0.014165193020857208,0.021601122368444633,-0.09003163621312718, ,0.014941217792457872,0.0211137722838059,-0.09096919162348682, ,0.0013110052244861116, ,0.016129295750671086,-0.0035091096379520244,-0.028903980361203365,-0.07087805138509855,-0.03319732996408237,0.0037506310674425038, ,0.03328525368064083, ,0.07826711129885264, ,0.0006770766628367287, ,0.1726339706704147,-0.23209901380194342,0.10027840182000002,1.610838145848116,0.16696980271336823,-1.4005395756929304, ,0.12964063054435898,0.1131072009040176,0.02955252601113173,0.0,0.099188031023773,-0.04055242092230675, ,1.5676119327545166
0.014165193020857208,0.021601122368444633,-0.09003163621312718, ,0.015021992265732054,0.021094292292363467,-0.09112288874047858, ,0.0014770963917393352, ,0.016129295750671086,-0.0035091096379520244,-0.028903980361203365,-0.07087805138509855,-0.03319732996408237,0.0037506310674425038, ,0.03328525368064083, ,0.07826711129885264, ,0.0006869534496133041, ,0.1726339706704147,-0.23209901380194342,0.10027840182000002,1.610838145848116,0.16696980271336823,-1.4005395756929304, ,0.12964063054435898,0.1131072009040176,0.02955252601113173,0.0,0.099188031023773,-0.04055242092230675, ,1.5733129978179932
0.014484202731742474,0.021535345097081812,-0.09060500072049286, ,0.015103043296640377,0.021074379494145007,-0.09127662439477639, ,0.0010230011200933044, ,0.01607098627534866,-0.0035495127378821155,-0.029278795905338297,-0.13036772804860125,-0.032859121835528284,-3.144722088566695e-05, ,0.03358755022631581, ,0.134444951144072, ,0.000691051591936231, ,0.17511296792304076,-0.229952094062909,0.10085525087000001,1.6110478357916007,0.16874607721031895,-1.400681148598735, ,0.12602515479212587,0.11324217369745916,0.03005436135849057,0.0024366664960849198,0.09535578001978498,0.0011612742978249352, ,1.578660011291504
0.014637980424835438,0.021497889863820764,-0.09088557992089932, ,0.015184365241815575,0.02105404653257686,-0.09143039135233007, ,0.001184544445696745, ,0.015661575114336086,-0.004298420040342442,-0.028673143601845,-0.0825632188800525,-0.01247910837609156,-0.005662489857483395, ,0.03358755022631581, ,0.08350086153256928, ,0.0006969972889694901, ,0.1763794961144136,-0.2287859613989011,0.10115210128,1.6112575257350852,0.1698391692084425,-1.4007557044269006, ,0.12372482602147429,0.11876963899683453,0.029173647472527476,0.011062401314621238,0.11175408257757809,-0.032466640074926695, ,1.584580898284912
0.014637980424835438,0.021497889863820764,-0.09088557992089932, ,0.015265952503346034,0.021033305964573805,-0.0915841824265077, ,0.0010479659305868373, ,0.015661575114336086,-0.004298420040342442,-0.028673143601845,-0.0825632188800525,-0.01247910837609156,-0.005662489857483395, ,0.03295315635743007, ,0.08350086153256928, ,0.0007011754870839824, ,0.1763794961144136,-0.2287859613989011,0.10115210128,1.6112575257350852,0.1698391692084425,-1.4007557044269006, ,0.12372482602147429,0.11876963899683453,0.029173647472527476,0.011062401314621238,0.11175408257757809,-0.032466640074926695, ,1.5898571014404297
0.014800879656889395,0.021453126324242018,-0.09117942122265116, ,0.015347799528639499,0.021012170260760278,-0.09173799047798878, ,0.0008975317314974926, ,0.015324324546443821,-0.0043733846279751035,-0.027209324104929856,-0.07811011490241347,0.00532715689918385,4.5586694119155024e-05, ,0.03153266138714058, ,0.07829146656488918, ,0.0007034855605476707, ,0.1776769152372833,-0.22756576960477362,0.10145154427000001,1.6112575257350852,0.17106889770633144,-1.4008599994186222, ,0.12388634668207675,0.11530612583046268,0.02775054271777004,0.009925731769433633,0.13045598258633603,-0.03367553354600057, ,1.5951180458068848
0.014800879656889395,0.021453126324242018,-0.09117942122265116, ,0.015429900810286352,0.020990651805691894,-0.09189180841466077, ,0.0010569038759832164, ,0.015324324546443821,-0.0043733846279751035,-0.027209324104929856,-0.07811011490241347,0.00532715689918385,4.5586694119155024e-05, ,0.03153266138714058, ,0.07829146656488918, ,0.0007075950758434329, ,0.1776769152372833,-0.22756576960477362,0.10145154427000001,1.6112575257350852,0.17106889770633144,-1.4008599994186222, ,0.12388634668207675,0.11530612583046268,0.02775054271777004,0.009925731769433633,0.13045598258633603,-0.03367553354600057, ,1.600419044494629
0.014949115285188457,0.021404616401714125,-0.0914357990935494, ,0.015512250885922941,0.020968762898076726,-0.09204562919151311, ,0.0009375407883553735, ,0.015032885741673883,-0.005069399517300307,-0.025544109035008585,-0.11664373969190978,-0.012691137368279008,-0.004521648448374023, ,0.03006971851515464, ,0.11733207618294432, ,0.0007102381300102368, ,0.17888166156566232,-0.22640735967363995,0.10171209856,1.6112575257350852,0.1722986262042204,-1.4010459731504845, ,0.12119660480009038,0.11773814089140294,0.025942689771986976,0.008864381709116789,0.10939393645443526,0.0023098873574481926, ,1.606321096420288
0.014949115285188457,0.021404616401714125,-0.0914357990935494, ,0.015594844338095146,0.020946515750996736,-0.09219944581053222, ,0.001099990238281274, ,0.015032885741673883,-0.005069399517300307,-0.025544109035008585,-0.11664373969190978,-0.012691137368279008,-0.004521648448374023, ,0.03006971851515464, ,0.11733207618294432, ,0.0007146671312405896, ,0.17888166156566232,-0.22640735967363995,0.10171209856,1.6112575257350852,0.1722986262042204,-1.4010459731504845, ,0.12119660480009038,0.11773814089140294,0.025942689771986976,0.008864381709116789,0.10939393645443526,0.0023098873574481926, ,1.611694097518921
0.014949115285188457,0.021404616401714125,-0.0914357990935494, ,0.01567767579412167,0.02092392249212913,-0.09235325132059721, ,0.0012663276190639278, ,0.015032885741673883,-0.005069399517300307,-0.025544109035008585,-0.11664373969190978,-0.012691137368279008,-0.004521648448374023, ,0.03006971851515464, ,0.11733207618294432, ,0.0007208655636880428, ,0.17888166156566232,-0.22640735967363995,0.10171209856,1.6112575257350852,0.1722986262042204,-1.4010459731504845, ,0.12119660480009038,0.11773814089140294,0.025942689771986976,0.008864381709116789,0.10939393645443526,0.0023098873574481926, ,1.616955041885376
0.015143658534218594,0.02134370780416949,-0.0917691774764944, ,0.01576073992595761,0.020900995163967744,-0.09250703881737327, ,0.0010588783141553656, ,0.014617180465551022,-0.0046761950017952655,-0.025879762577787194,-0.12185578309522335,-0.003073834900801741,-0.0020460536231655282, ,0.030088052039637526, ,0.12189449834004135, ,0.0007246212609154575, ,0.18043393087338144,-0.22493231769466307,0.10205172654000001,1.6112575257350852,0.1736649912018748,-1.4008532923451995, ,0.11601093100057551,0.11283821826215314,0.026548019200000002,0.007764716064786224,0.112853467685605,0.010781778564414507, ,1.6222560405731201
0.015302650658680458,0.02129366657785864,-0.09205835306210484, ,0.015844031450057652,0.02087774572404436,-0.09266080144320853, ,0.0009105094012717515, ,0.015058816172272392,-0.004411771040028519,-0.028872355385860478,-0.10666153165501362,0.01403235058923909,0.008829672772244295, ,0.032860988630096837, ,0.10758052395461995, ,0.0007266639877325596, ,0.18160006353738933,-0.2237739077635294,0.10232524373000002,1.6114672156785694,0.17489471969976378,-1.4007942298566403, ,0.11601093100057551,0.1168681546286586,0.02933482784530387,0.0,0.1302674530466594,-0.009376840781663662, ,1.6281099319458008
0.015302650658680458,0.02129366657785864,-0.09205835306210484, ,0.01592754512723965,0.02085418604515014,-0.09281453238702736, ,0.00107491553477745, ,0.015058816172272392,-0.004411771040028519,-0.028872355385860478,-0.10666153165501362,0.01403235058923909,0.008829672772244295, ,0.032860988630096837, ,0.10758052395461995, ,0.0007304493306352216, ,0.18160006353738933,-0.2237739077635294,0.10232524373000002,1.6114672156785694,0.17489471969976378,-1.4007942298566403, ,0.11601093100057551,0.1168681546286586,0.02933482784530387,0.0,0.1302674530466594,-0.009376840781663662, ,1.6333699226379395
0.015302650658680458,0.02129366657785864,-0.09205835306210484, ,0.016011275762548023,0.020830327915557004,-0.09296822488422612, ,0.0012428591981817907, ,0.015058816172272392,-0.004411771040028519,-0.028872355385860478,-0.10666153165501362,0.01403235058923909,0.008829672772244295, ,0.032860988630096837, ,0.10758052395461995, ,0.0007359591141572276, ,0.18160006353738933,-0.2237739077635294,0.10232524373000002,1.6114672156785694,0.17489471969976378,-1.4007942298566403, ,0.11601093100057551,0.1168681546286586,0.02933482784530387,0.0,0.1302674530466594,-0.009376840781663662, ,1.6386640071868896
0.015429575164118704,0.0212594364566089,-0.09229950684177676, ,0.016095218205117032,0.02080618303923886,-0.09312187221656837, ,0.0011510013588364087, ,0.01456434723094495,-0.003960145062014679,-0.028099125454675355,-0.08613857786416756,0.026899284927357905,0.01207713625781723, ,0.03189614099688734, ,0.09024083670318857, ,0.0007403744571857295, ,0.1826580779411581,-0.2227390615583833,0.10259227947,1.6114672156785694,0.17612444819765274,-1.4008985248483619, ,0.1121713257192326,0.11008925934857398,0.0287005612972973,0.0,0.14271900504295765,-0.022135018595357422, ,1.6441240310668945
0.015429575164118704,0.0212594364566089,-0.09229950684177676, ,0.016179367348034365,0.02078176303609324,-0.09327546771207854, ,0.001320174168846043, ,0.01456434723094495,-0.003960145062014679,-0.028099125454675355,-0.08613857786416756,0.026899284927357905,0.01207713625781723, ,0.03189614099688734, ,0.09024083670318857, ,0.0007464776120453117, ,0.1826580779411581,-0.2227390615583833,0.10259227947,1.6114672156785694,0.17612444819765274,-1.4008985248483619, ,0.1121713257192326,0.11008925934857398,0.0287005612972973,0.0,0.14271900504295765,-0.022135018595357422, ,1.6495599746704102
0.015429575164118704,0.0212594364566089,-0.09229950684177676, ,0.016263718128204492,0.020757079442162398,-0.09342900474493877, ,0.0014912821891730637, ,0.01456434723094495,-0.003960145062014679,-0.028099125454675355,-0.08613857786416756,0.026899284927357905,0.01207713625781723, ,0.03189614099688734, ,0.09024083670318857, ,0.0007542359930570591, ,0.1826580779411581,-0.2227390615583833,0.10259227947,1.6114672156785694,0.17612444819765274,-1.4008985248483619, ,0.1121713257192326,0.11008925934857398,0.0287005612972973,0.0,0.14271900504295765,-0.022135018595357422, ,1.6548409461975098
0.015744866835355743,0.021182388672191695,-0.09294156935767735, ,0.016348265526212016,0.020732143709854784,-0.09358247673538206, ,0.0009887227988840748, ,0.014670753115797743,-0.003226749233380758,-0.029693814822341236,-0.13225922316203126,-0.007339435315319908,0.002833278963623102, ,0.03327710243250311, ,0.132462622415406, ,0.0007566533828078532, ,0.18498262053629969,-0.22038362803174483,0.10324820221000001,1.6114672156785694,0.178993814692727,-1.4010329748421915, ,0.10451205017452729,0.10474276110206487,0.030398495267175574,0.0,0.09965994124612831,0.029282612383823195, ,1.6601290702819824
0.015744866835355743,0.021182388672191695,-0.09294156935767735, ,0.016433004566185024,0.020706967208166435,-0.09373587714958845, ,0.0011534660694348493, ,0.014670753115797743,-0.003226749233380758,-0.029693814822341236,-0.13225922316203126,-0.007339435315319908,0.002833278963623102, ,0.03327710243250311, ,0.132462622415406, ,0.0007607024918550675, ,0.18498262053629969,-0.22038362803174483,0.10324820221000001,1.6114672156785694,0.178993814692727,-1.4010329748421915, ,0.10451205017452729,0.10474276110206487,0.030398495267175574,0.0,0.09965994124612831,0.029282612383823195, ,1.6654090881347656
0.015901526900025168,0.021144620818433192,-0.0932494587745917, ,0.01651793031565879,0.02068156122290233,-0.09388919949957886, ,0.001001821119274839, ,0.015401157313054468,-0.0040223507079265195,-0.029915728562962283,-0.1348415858261742,-0.017915367983592514,6.434564858883796e-05, ,0.03388695570941488, ,0.1360264302166762, ,0.0007631380335461763, ,0.18610241680306225,-0.21925610903210804,0.10356320068000001,1.6114672156785694,0.17995027019108506,-1.4007510765462388, ,0.11047373871766097,0.11283821826215314,0.030573534587332057,0.0,0.09490431250264333,0.023927642017030196, ,1.6706860065460205
0.015901526900025168,0.021144620818433192,-0.0932494587745917, ,0.016603037885438775,0.020655936956897707,-0.09404243734311138, ,0.0011660808673984483, ,0.015401157313054468,-0.0040223507079265195,-0.029915728562962283,-0.1348415858261742,-0.017915367983592514,6.434564858883796e-05, ,0.03388695570941488, ,0.1360264302166762, ,0.0007671674618846989, ,0.18610241680306225,-0.21925610903210804,0.10356320068000001,1.6114672156785694,0.17995027019108506,-1.4007510765462388, ,0.11047373871766097,0.11283821826215314,0.030573534587332057,0.0,0.09490431250264333,0.023927642017030196, ,1.68082594871521
0.01603634406396567,0.02111141293115775,-0.09351670832082529, ,0.016688322429464317,0.020630105530239456,-0.09419558428357483, ,0.0010571684709903756, ,0.015076722456837987,-0.003580727028563459,-0.030196593088462256,-0.10092297815760035,0.0016085528272096667,-0.0018139159351071134, ,0.03394058632734229, ,0.1009356718692237, ,0.000770038759004557, ,0.1870677584123403,-0.21827532195708155,0.10383671787000001,1.6116769056220543,0.18090672568944316,-1.4006325357305678, ,0.10734948140098505,0.10845364749539518,0.03092973110679612,0.006196597520086486,0.1103252952140675,-0.0045227201076023515, ,1.6893939971923828
0.016288150494586106,0.021035842241803254,-0.09396639017127983, ,0.01677377914467207,0.02060407798048755,-0.09434863396988508, ,0.0007539004474769686, ,0.01252106289286581,-0.005037340254149942,-0.01910278755674894,-0.132555986136766,-0.053081434995514966,-0.014906596370458108, ,0.023389491342084862, ,0.14278909502503717, ,0.0007698805402640905, ,0.18891349156927995,-0.2164373115330161,0.10429690082000001,1.6116769056220543,0.18227309068709754,-1.4003581761851422, ,0.09527805377356505,0.096734904748696,0.01944909831501832,0.006054194690381533,0.04189548669136506,0.03864622603107544, ,1.694957971572876
0.016288150494586106,0.021035842241803254,-0.09396639017127983, ,0.0168594032708591,0.020577865262896265,-0.09450158009637845, ,0.0009069183554959274, ,0.01252106289286581,-0.005037340254149942,-0.01910278755674894,-0.132555986136766,-0.053081434995514966,-0.014906596370458108, ,0.023389491342084862, ,0.14278909502503717, ,0.0007712110044896424, ,0.18891349156927995,-0.2164373115330161,0.10429690082000001,1.6116769056220543,0.18227309068709754,-1.4003581761851422, ,0.09527805377356505,0.096734904748696,0.01944909831501832,0.006054194690381533,0.04189548669136506,0.03864622603107544, ,1.7002248764038086
0.016403848978904182,0.020982673578519972,-0.09412880437914932, ,0.016945190090546618,0.02055147825063562,-0.09465441640270816, ,0.0008690498312830992, ,0.01252255081951924,-0.0065534371638174965,-0.01662738912379368,-0.13088216486126142,-0.07343889178934691,-0.020267533330776435, ,0.02182273783835563, ,0.15007801516242045, ,0.0007721517624395795, ,0.18980932858269,-0.21551058358810918,0.10446152965000001,1.6116769056220543,0.18254636368662844,-1.4000092608115513, ,0.09813541009148995,0.10614870420410602,0.016731944873949585,0.005624862507072618,0.024057633834460083,0.027672459970575367, ,1.705467939376831
0.016403848978904182,0.020982673578519972,-0.09412880437914932, ,0.01703113492884329,0.02052492773501282,-0.0948071366737385, ,0.0010310934109583382, ,0.01252255081951924,-0.0065534371638174965,-0.01662738912379368,-0.13088216486126142,-0.07343889178934691,-0.020267533330776435, ,0.02182273783835563, ,0.15007801516242045, ,0.0007746178733778533, ,0.18980932858269,-0.21551058358810918,0.10446152965000001,1.6116769056220543,0.18254636368662844,-1.4000092608115513, ,0.09813541009148995,0.10614870420410602,0.016731944873949585,0.005624862507072618,0.024057633834460083,0.027672459970575367, ,1.7107369899749756
0.016403848978904182,0.020982673578519972,-0.09412880437914932, ,0.01711723315330848,0.020498224425693413,-0.09495973473943936, ,0.0011975196138755346, ,0.01252255081951924,-0.0065534371638174965,-0.01662738912379368,-0.13088216486126142,-0.07343889178934691,-0.020267533330776435, ,0.02182273783835563, ,0.15007801516242045, ,0.0007786075124391522, ,0.18980932858269,-0.21551058358810918,0.10446152965000001,1.6116769056220543,0.18254636368662844,-1.4000092608115513, ,0.09813541009148995,0.10614870420410602,0.016731944873949585,0.005624862507072618,0.024057633834460083,0.027672459970575367, ,1.7189009189605713
0.01659878981111941,0.020888471042998263,-0.09442729609699191, ,0.01720348017381592,0.020471378950922874,-0.09511220447478233, ,0.0010043484126424302, ,0.01288564280435677,-0.005086884797601603,-0.02109589175531112,-0.031330596187260265,0.0001841230724598154,-0.00018174533694499833, ,0.02523792456556889, ,0.03133107052995301, ,0.0007807172404784351, ,0.1913461524246607,-0.2138501960201509,0.10476356522000001,1.6118865955655386,0.18391272868428285,-1.4007150461478126, ,0.09957706354509001,0.10084690920135046,0.02155454874154263,0.0032581450233832346,0.1015097493415202,-0.06707040263887629, ,1.7246899604797363
0.016743369919774542,0.02083979082344037,-0.09466176242531055, ,0.017289871442416893,0.02044440185774782,-0.09526453979963466, ,0.0009046197606944592, ,0.013641199425979057,-0.004216108149347059,-0.0226977220381047,-0.07529728742043681,-0.028470674348706898,0.0030013425083571907, ,0.026815004669501475, ,0.08050002960483772, ,0.0007818644860359909, ,0.19243505775992634,-0.21280762708213058,0.10500467516,1.6120962855090233,0.18473254768287548,-1.4008934811291478, ,0.10116944729048058,0.09518248902554742,0.02339032528634362,-0.0051035955882282715,0.07556094719021368,-0.019069809879732707, ,1.7307710647583008
0.016743369919774542,0.02083979082344037,-0.09466176242531055, ,0.01737640245320375,0.0204173036122374,-0.09541673467865479, ,0.0010720115369386397, ,0.013641199425979057,-0.004216108149347059,-0.0226977220381047,-0.07529728742043681,-0.028470674348706898,0.0030013425083571907, ,0.026815004669501475, ,0.08050002960483772, ,0.0007845263855855566, ,0.19243505775992634,-0.21280762708213058,0.10500467516,1.6120962855090233,0.18473254768287548,-1.4008934811291478, ,0.10116944729048058,0.09518248902554742,0.02339032528634362,-0.0051035955882282715,0.07556094719021368,-0.019069809879732707, ,1.7360289096832275
0.016886349948863833,0.0208001723582105,-0.09492145481165096, ,0.01746306874217339,0.02039009459970466,-0.0955687831211867, ,0.000959063227792629, ,0.014484153484754859,-0.003532185127029375,-0.028517711511098397,-0.12619215744401172,-0.03579575134208817,-0.00098234575745228, ,0.0321796038473406, ,0.13117079535149412, ,0.0007861130841510754, ,0.19343901303357552,-0.21181139454135564,0.10527171090000001,1.6120962855090233,0.18541573018170268,-1.4007154619863649, ,0.09643998125860852,0.10042004397721775,0.029280903529411772,-0.0051035955882282715,0.06315686535242242,0.026694798206545398, ,1.741265058517456
0.016886349948863833,0.0208001723582105,-0.09492145481165096, ,0.01754986588709037,0.020362785124927934,-0.09572067918115557, ,0.0011270849945453367, ,0.014484153484754859,-0.003532185127029375,-0.028517711511098397,-0.12619215744401172,-0.03579575134208817,-0.00098234575745228, ,0.0321796038473406, ,0.13117079535149412, ,0.0007891849031636363, ,0.19343901303357552,-0.21181139454135564,0.10527171090000001,1.6120962855090233,0.18541573018170268,-1.4007154619863649, ,0.09643998125860852,0.10042004397721775,0.029280903529411772,-0.0051035955882282715,0.06315686535242242,0.026694798206545398, ,1.7465860843658447
0.016886349948863833,0.0208001723582105,-0.09492145481165096, ,0.01763678950735066,0.020335385412372158,-0.09587241695696222, ,0.0012975035405649728, ,0.014484153484754859,-0.003532185127029375,-0.028517711511098397,-0.12619215744401172,-0.03579575134208817,-0.00098234575745228, ,0.0321796038473406, ,0.13117079535149412, ,0.0007937234624261482, ,0.19343901303357552,-0.21181139454135564,0.10527171090000001,1.6120962855090233,0.18541573018170268,-1.4007154619863649, ,0.09643998125860852,0.10042004397721775,0.029280903529411772,-0.0051035955882282715,0.06315686535242242,0.026694798206545398, ,1.7519309520721436
0.017034836324272863,0.02076815162579421,-0.09523286510518317, ,0.01772383526384486,0.020307905606410225,-0.09602399059137808, ,0.0011456113965901647, ,0.014483749144620691,-0.002735760269109603,-0.031119748828763047,-0.08169430720777326,0.01492232207003896,0.010375075258119497, ,0.03443402591477851, ,0.08304580868248389, ,0.0007968375149408741, ,0.19442752284147627,-0.21078427106908376,0.10559189453000001,1.6120962855090233,0.1865088221798262,-1.4007083390743902, ,0.09527805377356505,0.09753025853902444,0.03204992257545272,-0.0051035955882282715,0.11389725515010926,-0.014948962684089653, ,1.7574310302734375
0.01709470640125585,0.020757875954474606,-0.09535839458566621, ,0.017810998858821623,0.020280355771544453,-0.09617539427144081, ,0.001186839878175258, ,0.014638130846261558,-0.002604146118297583,-0.0306546387301031,-0.07976772881033342,0.014897281126782166,0.01129254014573697, ,0.03406997692031586, ,0.08114673422252325, ,0.0008002585883025793, ,0.1948213822180617,-0.21039813442537253,0.10572152353000001,1.6120962855090233,0.1869187316791225,-1.4007158778249171, ,0.09773114475640657,0.09508711579005087,0.031667617335984104,-0.0051035955882282715,0.1163701716509345,-0.014474165496776777, ,1.7627429962158203
0.01709470640125585,0.020757875954474606,-0.09535839458566621, ,0.017898276035751063,0.02025274589262763,-0.09632662222834806, ,0.001355855930738056, ,0.014638130846261558,-0.002604146118297583,-0.0306546387301031,-0.07976772881033342,0.014897281126782166,0.01129254014573697, ,0.03406997692031586, ,0.08114673422252325, ,0.0008050898695411487, ,0.1948213822180617,-0.21039813442537253,0.10572152353000001,1.6120962855090233,0.1869187316791225,-1.4007158778249171, ,0.09773114475640657,0.09508711579005087,0.031667617335984104,-0.0051035955882282715,0.1163701716509345,-0.014474165496776777, ,1.7680630683898926
0.01732066440916866,0.020712696655122365,-0.09582178584495281, ,0.017985662579188193,0.020225085875084887,-0.09647766873735346, ,0.0010536456745424093, ,0.015191024043622095,-0.0034284320871255333,-0.03008662343740753,-0.124823327294413,-0.0041362895095013175,0.006446441608408478, ,0.033878108978133606, ,0.12489174222060402, ,0.0008072325919980561, ,0.1963273151285355,-0.2089076469806472,0.10619985454000001,1.6120962855090233,0.18855836967630782,-1.4005009966066035, ,0.10203972210588257,0.10127741895247683,0.031050314853801175,-0.0051035955882282715,0.10122766425512757,0.0245251254316387, ,1.7733619213104248
0.01732066440916866,0.020712696655122365,-0.09582178584495281, ,0.018073154314636262,0.020197385545134495,-0.09662852811766103, ,0.0012176287170077708, ,0.015191024043622095,-0.0034284320871255333,-0.03008662343740753,-0.124823327294413,-0.0041362895095013175,0.006446441608408478, ,0.033878108978133606, ,0.12489174222060402, ,0.0008107402511861733, ,0.1963273151285355,-0.2089076469806472,0.10619985454000001,1.6120962855090233,0.18855836967630782,-1.4005009966066035, ,0.10203972210588257,0.10127741895247683,0.031050314853801175,-0.0051035955882282715,0.10122766425512757,0.0245251254316387, ,1.7786200046539307
0.017481437506040063,0.020680163545663505,-0.09614103363348461, ,0.018160747108410258,0.02016965465000966,-0.0967791947323203, ,0.0010626996078296229, ,0.015611709354517929,-0.0025366917309025253,-0.03093236240692427,-0.08334756259763618,0.01420250827923134,0.012255510668517945, ,0.03474149274255316, ,0.08454879723686956, ,0.0008128754999712873, ,0.19741622046380114,-0.20787280077550113,0.10653040849,1.6120962855090233,0.18978809817419678,-1.400441934118044, ,0.10591176513222186,0.09386443279769613,0.03217941721212122,-0.0047771333113269115,0.12387757535343734,-0.009605442844664094, ,1.7839949131011963
0.017481437506040063,0.020680163545663505,-0.09614103363348461, ,0.018248436867500228,0.02014190285817958,-0.09692966298812147, ,0.0012247239881564827, ,0.015611709354517929,-0.0025366917309025253,-0.03093236240692427,-0.08334756259763618,0.01420250827923134,0.012255510668517945, ,0.03474149274255316, ,0.08454879723686956, ,0.0008163364116367091, ,0.19741622046380114,-0.20787280077550113,0.10653040849,1.6120962855090233,0.18978809817419678,-1.400441934118044, ,0.10591176513222186,0.09386443279769613,0.03217941721212122,-0.0047771333113269115,0.12387757535343734,-0.009605442844664094, ,1.7897460460662842
0.017549106949409424,0.020668478865065974,-0.0962730676135346, ,0.018336219539434668,0.02011413975957103,-0.09707992733548959, ,0.001256129246602619, ,0.015445149627649526,-0.0028602364891489093,-0.029489624882196065,-0.09114580543611636,0.006727316591062538,0.010468038694859743, ,0.03341214712476555, ,0.09139361211260881, ,0.0008200013519280917, ,0.1978795844362546,-0.20746349593316724,0.10666781523,1.6120962855090233,0.19033464417325854,-1.4005608907722673, ,0.10614870420410602,0.09377168138188813,0.030691351676300584,-0.004646931047990468,0.11642826053265613,-0.0016873188281106427, ,1.7953078746795654
0.01778433504345542,0.02061326698498638,-0.0966958148227257, ,0.018424091112144065,0.02008637486578951,-0.09722998226838066, ,0.000986021294239257, ,0.014879338935787538,-0.004283699837371789,-0.0260826332329934,-0.11386476270303937,-0.02237966343363424,0.0017068351038841338, ,0.030332302382601848, ,0.11604318786311946, ,0.000821373417567027, ,0.1995168038055902,-0.20598073122131613,0.10710725754000001,1.6120962855090233,0.1918376456706784,-1.4003162703903982, ,0.10337357468243004,0.09968166130091469,0.02699798562711865,-0.0042388390758583624,0.08368952516834713,0.015335466940700933, ,1.8010900020599365
0.01778433504345542,0.02061326698498638,-0.0966958148227257, ,0.01851204761382401,0.020058617610340754,-0.09737982232417562, ,0.0011423956302030421, ,0.014879338935787538,-0.004283699837371789,-0.0260826332329934,-0.11386476270303937,-0.02237966343363424,0.0017068351038841338, ,0.030332302382601848, ,0.11604318786311946, ,0.0008240047471787976, ,0.1995168038055902,-0.20598073122131613,0.10710725754000001,1.6120962855090233,0.1918376456706784,-1.4003162703903982, ,0.10337357468243004,0.09968166130091469,0.02699798562711865,-0.0042388390758583624,0.08368952516834713,0.015335466940700933, ,1.8063809871673584
0.01793070329602043,0.02056740492489975,-0.09695414497487746, ,0.018600085112798995,0.020030877348852002,-0.09752944208357563, ,0.0010329088148379377, ,0.01442369320868008,-0.004761338164075328,-0.026015100158139633,-0.06572928783600203,0.0057308615561968155,0.0060970589186378375, ,0.030124719137758625, ,0.06597855816616599, ,0.000825703154232937, ,0.2005516500107363,-0.20496133048191847,0.10737429328,1.6120962855090233,0.1929307376688019,-1.4005541836988447, ,0.10073985303447004,0.10359928117736984,0.026816181010101015,-0.004013550512219507,0.1096991838608433,-0.03658211266821098, ,1.8117001056671143
0.01793070329602043,0.02056740492489975,-0.09695414497487746, ,0.018688199717385546,0.020003163359293447,-0.09767883617049752, ,0.0011905237090239094, ,0.01442369320868008,-0.004761338164075328,-0.026015100158139633,-0.06572928783600203,0.0057308615561968155,0.0060970589186378375, ,0.030124719137758625, ,0.06597855816616599, ,0.0008286452554812512, ,0.2005516500107363,-0.20496133048191847,0.10737429328,1.6120962855090233,0.1929307376688019,-1.4005541836988447, ,0.10073985303447004,0.10359928117736984,0.026816181010101015,-0.004013550512219507,0.1096991838608433,-0.03658211266821098, ,1.816951036453247
0.018053799993283232,0.020528351016021476,-0.09717116960018266, ,0.018776387575755626,0.019975484842199433,-0.09782799925196722, ,0.0011221492823877582, ,0.015064545722862643,-0.004465074768650594,-0.025936035152040984,-0.08533190715525978,-0.014404887832696682,0.0030344939913962764, ,0.030324171051057027, ,0.0865391439539651, ,0.0008309932876965033, ,0.20140887335977523,-0.20410410713287958,0.10759855145000001,1.6120962855090233,0.19375055666739455,-1.40073261868018, ,0.10532401948775891,0.10031389171085707,0.02690677621621622,-0.003839397799775378,0.09373014380148989,-0.013712113542925751, ,1.822293996810913
0.018053799993283232,0.020528351016021476,-0.09717116960018266, ,0.0188646448758001,0.019947850920889975,-0.09797692603801707, ,0.0012820659971557915, ,0.015064545722862643,-0.004465074768650594,-0.025936035152040984,-0.08533190715525978,-0.014404887832696682,0.0030344939913962764, ,0.030324171051057027, ,0.0865391439539651, ,0.000834573229835069, ,0.20140887335977523,-0.20410410713287958,0.10759855145000001,1.6120962855090233,0.19375055666739455,-1.40073261868018, ,0.10532401948775891,0.10031389171085707,0.02690677621621622,-0.003839397799775378,0.09373014380148989,-0.013712113542925751, ,1.827699899673462
0.018241080811908464,0.02047254275678672,-0.0974803214369911, ,0.018952967844992313,0.019920270641692005,-0.09812561128157828, ,0.0011082358144869039, ,0.01573566234972788,-0.004958416033127138,-0.025679037612291972,-0.11903514432121991,-0.03448541725875534,-0.0014832543784701361, ,0.03052228582258743, ,0.12392981247942139, ,0.0008367280533362646, ,0.20272173794839338,-0.2028839153387521,0.10792003137000002,1.6120962855090233,0.19470701216575265,-1.4006140778645086, ,0.11034528088194276,0.10416788315968253,0.026681426331658296,-0.003616371680174248,0.07824759381390062,0.01628017189338464, ,1.8330199718475342
0.018241080811908464,0.02047254275678672,-0.0974803214369911, ,0.01904135275025109,0.019892752974160724,-0.09827404977837759, ,0.0012675156990176893, ,0.01573566234972788,-0.004958416033127138,-0.025679037612291972,-0.11903514432121991,-0.03448541725875534,-0.0014832543784701361, ,0.03052228582258743, ,0.12392981247942139, ,0.0008400935818181507, ,0.20272173794839338,-0.2028839153387521,0.10792003137000002,1.6120962855090233,0.19470701216575265,-1.4006140778645086, ,0.11034528088194276,0.10416788315968253,0.026681426331658296,-0.003616371680174248,0.07824759381390062,0.01628017189338464, ,1.8382699489593506
0.01839754146632994,0.020422955360690134,-0.09773844735453657, ,0.019129795897804523,0.019865306811301088,-0.09842223636683223, ,0.001146619322349898, ,0.016529070239782926,-0.005178288278615783,-0.028008750757224764,-0.08076589499904527,0.0035529778549267294,0.006321553585097463, ,0.03293197460627689, ,0.08084390026066322, ,0.0008424697503494046, ,0.2038260887494075,-0.20184134640073179,0.10818836340000001,1.6120962855090233,0.19566346766411072,-1.4006588945291187, ,0.1168681546286586,0.11073155374383986,0.029120313564899455,-0.0034562331373542065,0.12374966794456312,-0.028372944071718156, ,1.8435258865356445
0.01839754146632994,0.020422955360690134,-0.09773844735453657, ,0.019218293633053118,0.019837940969788984,-0.09857016592794283, ,0.0013067638432751277, ,0.016529070239782926,-0.005178288278615783,-0.028008750757224764,-0.08076589499904527,0.0035529778549267294,0.006321553585097463, ,0.03293197460627689, ,0.08084390026066322, ,0.0008460412433719101, ,0.2038260887494075,-0.20184134640073179,0.10818836340000001,1.6120962855090233,0.19566346766411072,-1.4006588945291187, ,0.1168681546286586,0.11073155374383986,0.029120313564899455,-0.0034562331373542065,0.12374966794456312,-0.028372944071718156, ,1.8487589359283447
0.01856752024675167,0.020372079846324588,-0.09802947371493054, ,0.019306842340433363,0.0198106641901927,-0.09871783338519145, ,0.0011556918848886991, ,0.01645878160243159,-0.004925766969105656,-0.027701775713093263,-0.09023743383252007,0.015399723470740912,0.009096619332784696, ,0.03259667237202283, ,0.09154195559685019, ,0.0008484049887270002, ,0.20503855781066074,-0.20072155013396922,0.10849169526,1.6120962855090233,0.19716646916153055,-1.400986025328233, ,0.1171567179734207,0.10710715751520403,0.02890891382940109,-0.0033001009772960113,0.1360695644206104,-0.015303340698801841, ,1.8540449142456055
0.01856752024675167,0.020372079846324588,-0.09802947371493054, ,0.019395438443281062,0.019783485137194252,-0.09886523370443392, ,0.0013154417629889226, ,0.01645878160243159,-0.004925766969105656,-0.027701775713093263,-0.09023743383252007,0.015399723470740912,0.009096619332784696, ,0.03259667237202283, ,0.09154195559685019, ,0.0008519431461077723, ,0.20503855781066074,-0.20072155013396922,0.10849169526,1.6120962855090233,0.19716646916153055,-1.400986025328233, ,0.1171567179734207,0.10710715751520403,0.02890891382940109,-0.0033001009772960113,0.1360695644206104,-0.015303340698801841, ,1.859433889389038
0.01856752024675167,0.020372079846324588,-0.09802947371493054, ,0.019484078403694698,0.019756412399810696,-0.09901236189379627, ,0.0014782403160209512, ,0.01645878160243159,-0.004925766969105656,-0.027701775713093263,-0.09023743383252007,0.015399723470740912,0.009096619332784696, ,0.03259667237202283, ,0.09154195559685019, ,0.0008566521473853151, ,0.20503855781066074,-0.20072155013396922,0.10849169526,1.6120962855090233,0.19716646916153055,-1.400986025328233, ,0.1171567179734207,0.10710715751520403,0.02890891382940109,-0.0033001009772960113,0.1360695644206104,-0.015303340698801841, ,1.8650290966033936
0.01871740473039713,0.020328509826439203,-0.0982879964424714, ,0.01957275872239894,0.019729454491615527,-0.099159213003569, ,0.0013599691327912096, ,0.01657401086411877,-0.004800987809463811,-0.029421453067983556,-0.11278066518643703,0.01796531027002309,0.008211857657720438, ,0.03410819873142096, ,0.11420249019816124, ,0.0008604082442913291, ,0.20608884948155526,-0.19974848579181695,0.10876132358000001,1.6120962855090233,0.19839619765941952,-1.4010086415798142, ,0.11405882398854661,0.1087021094598749,0.030632329846153848,-0.0031737025196686658,0.135457321972655,0.005721242365972261, ,1.8703620433807373
0.018911312462384814,0.02026797841500406,-0.09862167146943807, ,0.019661475938607894,0.01970261985096004,-0.09930578212610233, ,0.001162059782265365, ,0.01673520477934621,-0.005196782110333884,-0.028438328584104042,-0.12906269297386005,0.013119281167932154,0.006955909161100611, ,0.03340377457663142, ,0.1297276981053445, ,0.0008626427001281739, ,0.2073631004058023,-0.19852057126481526,0.10909187753,1.6120962855090233,0.19989919915683937,-1.4008456999380852, ,0.11572797751033022,0.11047373871766097,0.02982923505617978,-0.0030315405581434708,0.1330078377022229,0.020991651996926507, ,1.8756768703460693
0.018911312462384814,0.02026797841500406,-0.09862167146943807, ,0.0197502266298887,0.019675916841194633,-0.09945206439570123, ,0.0013205552997161204, ,0.01673520477934621,-0.005196782110333884,-0.028438328584104042,-0.12906269297386005,0.013119281167932154,0.006955909161100611, ,0.03340377457663142, ,0.1297276981053445, ,0.0008660097045369088, ,0.2073631004058023,-0.19852057126481526,0.10909187753,1.6120962855090233,0.19989919915683937,-1.4008456999380852, ,0.11572797751033022,0.11047373871766097,0.02982923505617978,-0.0030315405581434708,0.1330078377022229,0.020991651996926507, ,1.880950927734375
0.019077792874828064,0.020219204553434275,-0.09890156766447507, ,0.019839007412024663,0.019649353750890206,-0.09959805498851997, ,0.0011786738740443752, ,0.01757574479283371,-0.004937849493326272,-0.029633314384840657,-0.1178581872580546,0.010695540135785407,0.007293692486067985, ,0.03480549502696906, ,0.1183424016646818, ,0.0008682919247522918, ,0.20859873766567824,-0.1974007749980527,0.10940169084000001,1.6120962855090233,0.2012655641544938,-1.4006530191328004, ,0.12181892369508443,0.10945437319316122,0.031050314853801175,-0.002910099483789894,0.13583208796722157,0.010160166449695515, ,1.8861749172210693
0.019077792874828064,0.020219204553434275,-0.09890156766447507, ,0.019927814938879053,0.019622938794059477,-0.09974374912245744, ,0.0013369143477970536, ,0.01757574479283371,-0.004937849493326272,-0.029633314384840657,-0.1178581872580546,0.010695540135785407,0.007293692486067985, ,0.03480549502696906, ,0.1183424016646818, ,0.0008716877394120364, ,0.20859873766567824,-0.1974007749980527,0.10940169084000001,1.6120962855090233,0.2012655641544938,-1.4006530191328004, ,0.12181892369508443,0.10945437319316122,0.031050314853801175,-0.002910099483789894,0.13583208796722157,0.010160166449695515, ,1.8914570808410645
0.019251235318726627,0.020168978978799726,-0.09918822752054146, ,0.020016645902258084,0.01959668011037844,-0.09988914205705199, ,0.001185183759452523, ,0.018287354916609252,-0.005212974351041997,-0.030167114616141227,-0.10905954453995913,0.004354163693470109,0.005976419059405212, ,0.035660303639958764, ,0.10914631469883065, ,0.0008739431064626873, ,0.2098112067269315,-0.19631959239566127,0.10970243012000001,1.6120962855090233,0.2026319291521482,-1.4007053745479374, ,0.12669818632639623,0.11270420612644985,0.031667617335984104,-0.0028049100386286566,0.13429223103894983,-0.0017742491228106977, ,1.8972699642181396
0.0194447547630866,0.020112918176992785,-0.09950307436188129, ,0.02010549703177458,0.019570585765407524,-0.10003422909337625, ,0.0010063946239305516, ,0.017217033603757804,-0.005159249612315926,-0.027529636818911917,-0.09796668978185406,-0.021041935832923745,3.591949778770204e-05, ,0.03287742395712137, ,0.10020089599321336, ,0.0008748891887303149, ,0.2111395167812981,-0.1951302915330307,0.11003298407,1.6120962855090233,0.20386165765003716,-1.4007279907995183, ,0.1178843994515165,0.10614870420410602,0.02890891382940109,-0.0026949062176609287,0.09933596029286626,-0.006401691806733195, ,1.9025819301605225
0.0194447547630866,0.020112918176992785,-0.09950307436188129, ,0.020194365094711293,0.019544663750813058,-0.1001790055739321, ,0.0011583228157883343, ,0.017217033603757804,-0.005159249612315926,-0.027529636818911917,-0.09796668978185406,-0.021041935832923745,3.591949778770204e-05, ,0.03287742395712137, ,0.10020089599321336, ,0.0008768993562981022, ,0.2111395167812981,-0.1951302915330307,0.11003298407,1.6120962855090233,0.20386165765003716,-1.4007279907995183, ,0.1178843994515165,0.10614870420410602,0.02890891382940109,-0.0026949062176609287,0.09933596029286626,-0.006401691806733195, ,1.9078609943389893
0.019609381374380695,0.02005512721668917,-0.09975163567979724, ,0.020283246895884337,0.01951892198458875,-0.10032346688254637, ,0.0010337319364519793, ,0.017668655974074538,-0.006345658766457684,-0.02580514422251071,-0.12919440162670007,-0.04919403702751056,-0.006585019216538571, ,0.031911663345164244, ,0.13824339133559935, ,0.0008780038110879183, ,0.21228248124668334,-0.1940645543963877,0.11029353836000001,1.6120962855090233,0.20468147664862982,-1.4006613895604318, ,0.12308293327946923,0.11378530162886184,0.027089815510204087,-0.00260569416431949,0.0758709787529737,0.017406800514631716, ,1.9131710529327393
0.019609381374380695,0.02005512721668917,-0.09975163567979724, ,0.02037213927750652,0.019493368311276738,-0.10046760844426426, ,0.0011874298657392917, ,0.017668655974074538,-0.006345658766457684,-0.02580514422251071,-0.12919440162670007,-0.04919403702751056,-0.006585019216538571, ,0.031911663345164244, ,0.13824339133559935, ,0.000880167629651914, ,0.21228248124668334,-0.1940645543963877,0.11029353836000001,1.6120962855090233,0.20468147664862982,-1.4006613895604318, ,0.12308293327946923,0.11378530162886184,0.027089815510204087,-0.00260569416431949,0.0758709787529737,0.017406800514631716, ,1.9183809757232666
0.019785952580840357,0.019992379802814632,-0.10001717664459443, ,0.020461039119050856,0.019468010502189288,-0.10061142572524567, ,0.0010410749095844125, ,0.01663135191474246,-0.005961148796569011,-0.025342789107151226,-0.07657208628829236,-0.01704948891502908,-0.0006616640414228951, ,0.0308932698369141, ,0.07844717341661764, ,0.0008812850413181119, ,0.21351039577368502,-0.19292158993100247,0.11057224071,1.6120962855090233,0.20563793214698786,-1.4007062062250417, ,0.11558701773260752,0.10845364749539518,0.026592339766277135,-0.002515780238932523,0.10099364363767625,-0.02996664512759509, ,1.9236249923706055
0.019785952580840357,0.019992379802814632,-0.10001717664459443, ,0.02054994333711384,0.019442856255629824,-0.10075491423265968, ,0.0011957904303958274, ,0.01663135191474246,-0.005961148796569011,-0.025342789107151226,-0.07657208628829236,-0.01704948891502908,-0.0006616640414228951, ,0.0308932698369141, ,0.07844717341661764, ,0.0008834540440014066, ,0.21351039577368502,-0.19292158993100247,0.11057224071,1.6120962855090233,0.20563793214698786,-1.4007062062250417, ,0.11558701773260752,0.10845364749539518,0.026592339766277135,-0.002515780238932523,0.10099364363767625,-0.02996664512759509, ,1.9290030002593994
0.01991292484425508,0.01994695206748117,-0.10021479045039805, ,0.020638848885278963,0.019417913197114542,-0.10089806951457916, ,0.001128591209979707, ,0.01665459285882924,-0.0057966348776375895,-0.026222530994415065,-0.04658989603526937,0.018333360268151327,0.006530115030265522, ,0.03160059447148217, ,0.050067136054381664, ,0.0008851330656861894, ,0.21439851005422084,-0.19208753478058624,0.11077964711,1.6120962855090233,0.20659438764534596,-1.4010777378502137, ,0.11672440536097266,0.10820631876678537,0.027558497439446373,-0.002452205243708411,0.13821397967329052,-0.0596848718323369, ,1.9346599578857422
0.01991292484425508,0.01994695206748117,-0.10021479045039805, ,0.020727752753980054,0.019393188879593556,-0.1010408871598763, ,0.001285703684422277, ,0.01665459285882924,-0.0057966348776375895,-0.026222530994415065,-0.04658989603526937,0.018333360268151327,0.006530115030265522, ,0.03160059447148217, ,0.050067136054381664, ,0.000887858035881673, ,0.21439851005422084,-0.19208753478058624,0.11077964711,1.6120962855090233,0.20659438764534596,-1.4010777378502137, ,0.11672440536097266,0.10820631876678537,0.027558497439446373,-0.002452205243708411,0.13821397967329052,-0.0596848718323369, ,1.94010591506958
0.020124884627535946,0.019871492209751134,-0.1005326629057873, ,0.02081665197036471,0.019368690783672454,-0.10118336279811735, ,0.0010745983810472913, ,0.01709287082150327,-0.005513912931156573,-0.026129197598768902,-0.13217932446102068,-0.05195814019701835,-0.00796839259810228, ,0.031706536169825994, ,0.14202468084167408, ,0.0008891197949706299, ,0.2158658293003235,-0.1907283337947227,0.11111408993,1.6120962855090233,0.20782411614323493,-1.401263711582076, ,0.11378530162886184,0.10462727845476381,0.0275109007253886,-0.002355149484674002,0.06346133468742943,0.029469937702819776, ,1.9454879760742188
0.020124884627535946,0.019871492209751134,-0.1005326629057873, ,0.02090554359815763,0.01934442631783349,-0.10132549209945699, ,0.0012311803333265089, ,0.01709287082150327,-0.005513912931156573,-0.026129197598768902,-0.13217932446102068,-0.05195814019701835,-0.00796839259810228, ,0.031706536169825994, ,0.14202468084167408, ,0.0008914155032817431, ,0.2158658293003235,-0.1907283337947227,0.11111408993,1.6120962855090233,0.20782411614323493,-1.401263711582076, ,0.11378530162886184,0.10462727845476381,0.0275109007253886,-0.002355149484674002,0.06346133468742943,0.029469937702819776, ,1.9508249759674072
0.020296874692601753,0.019818362720245397,-0.10079686323673319, ,0.020994424737524133,0.019320402818657007,-0.10146727077453443, ,0.0010881113892896547, ,0.01798590635414918,-0.005347863255513299,-0.027901750595280154,-0.124360984654024,-0.05734850471993799,-0.0110581648762799, ,0.03362439821113695, ,0.1369470283985727, ,0.0008927268091884625, ,0.21700879376570872,-0.18970121032245085,0.11139279228000001,1.6118865955655386,0.20850729864206213,-1.4010040136991526, ,0.11773814089140294,0.10603010229996734,0.029443274528650653,0.0,0.06153555540302895,0.02079022059384901, ,1.9560699462890625
0.020296874692601753,0.019818362720245397,-0.10079686323673319, ,0.02108329252493347,0.019296627551042743,-0.10160869457436758, ,0.0012448818074650648, ,0.01798590635414918,-0.005347863255513299,-0.027901750595280154,-0.124360984654024,-0.05734850471993799,-0.0110581648762799, ,0.03362439821113695, ,0.1369470283985727, ,0.0008950589614949301, ,0.21700879376570872,-0.18970121032245085,0.11139279228000001,1.6118865955655386,0.20850729864206213,-1.4010040136991526, ,0.11773814089140294,0.10603010229996734,0.029443274528650653,0.0,0.06153555540302895,0.02079022059384901, ,1.9613358974456787
0.02047509722973426,0.01976556811961911,-0.10107514832268152, ,0.021172144133022264,0.01927310770843115,-0.10174975929024796, ,0.0010878840009540221, ,0.017404745048263556,-0.005191978192778103,-0.02774191334934976,-0.0561903786220904,0.001991782698995333,0.001030363804068425, ,0.03315864207159528, ,0.05622552281954026, ,0.0008963275472808452, ,0.2181980946283393,-0.1886509186515563,0.11168705011,1.6118865955655386,0.2094637541404202,-1.4011305091039032, ,0.1170122583951551,0.10371250443548719,0.02933482784530387,0.0,0.12127770916091044,-0.04511901483431303, ,1.9667649269104004
0.02047509722973426,0.01976556811961911,-0.10107514832268152, ,0.021260976770457834,0.019249850413025026,-0.10189046075363585, ,0.0012443093528103088, ,0.017404745048263556,-0.005191978192778103,-0.02774191334934976,-0.0561903786220904,0.001991782698995333,0.001030363804068425, ,0.03315864207159528, ,0.05622552281954026, ,0.0008986019381666587, ,0.2181980946283393,-0.1886509186515563,0.11168705011,1.6118865955655386,0.2094637541404202,-1.4011305091039032, ,0.1170122583951551,0.10371250443548719,0.02933482784530387,0.0,0.12127770916091044,-0.04511901483431303, ,1.9724299907684326
0.020666087536290997,0.019711801390630466,-0.10138367278885241, ,0.021349787681801784,0.01922686271601048,-0.1020307948360555, ,0.0010589515338720536, ,0.01728235841882246,-0.004696905900276592,-0.028292511963467642,-0.0830877105400877,-0.004874132443162624,-0.0005600923333983989, ,0.0334844302737206, ,0.08323044323772182, ,0.0008996431693076029, ,0.21947234555258635,-0.187538845117668,0.11201371519000002,1.6118865955655386,0.21083011913807462,-1.4015095794796022, ,0.11297254947436998,0.099368525192116,0.029941375037593993,0.0,0.11012702464513634,-0.013948488816643009, ,1.9777169227600098
0.02084309161249116,0.019666742401438377,-0.1016749696447478, ,0.021438574147373213,0.01920415159777853,-0.10217075744898965, ,0.0009024385008493233, ,0.017557142000565247,-0.00437763074057511,-0.028913764747458246,-0.13308346754298114,-0.027108789476982625,-0.010201968534221208, ,0.034108982365356484, ,0.1358163303589688, ,0.0008996612037046462, ,0.22060758728509736,-0.18654261257689303,0.11232223221000001,1.6123059754525078,0.21178657463643272,-1.4013093599237902, ,0.11138138680571688,0.09703163758534844,0.030632329846153848,0.005096824361415592,0.08483617323784033,0.039495038720690816, ,1.983335018157959
0.02084309161249116,0.019666742401438377,-0.1016749696447478, ,0.02152733348311215,0.019181723968146318,-0.10231034454377459, ,0.001052202965428867, ,0.017557142000565247,-0.00437763074057511,-0.028913764747458246,-0.13308346754298114,-0.027108789476982625,-0.010201968534221208, ,0.034108982365356484, ,0.1358163303589688, ,0.0009006390355105707, ,0.22060758728509736,-0.18654261257689303,0.11232223221000001,1.6123059754525078,0.21178657463643272,-1.4013093599237902, ,0.11138138680571688,0.09703163758534844,0.030632329846153848,0.005096824361415592,0.08483617323784033,0.039495038720690816, ,1.9885799884796143
0.021015386231693755,0.019623580912031768,-0.10196233764156115, ,0.021616063040443077,0.019159586666578594,-0.1024495521114951, ,0.000901931942053253, ,0.017021105850632993,-0.003960953595073215,-0.028199265000769573,-0.09112204806843906,0.0075393729686033745,-0.0025211506053112384, ,0.033175378586301076, ,0.09143331973303197, ,0.000900647270584091, ,0.22171193808611145,-0.1855849937004892,0.11262686036000001,1.6123059754525078,0.21287966663455624,-1.4011388795315343, ,0.11008925934857398,0.09133488119198342,0.02999776180790961,0.0050868093920294405,0.11882839492718907,0.0031151039116179627, ,1.9938290119171143
0.021015386231693755,0.019623580912031768,-0.10196233764156115, ,0.02170476020613827,0.019137746462409046,-0.1025883761828799, ,0.001050331302160488, ,0.017021105850632993,-0.003960953595073215,-0.028199265000769573,-0.09112204806843906,0.0075393729686033745,-0.0025211506053112384, ,0.033175378586301076, ,0.09143331973303197, ,0.0009015946378725492, ,0.22171193808611145,-0.1855849937004892,0.11262686036000001,1.6123059754525078,0.21287966663455624,-1.4011388795315343, ,0.11008925934857398,0.09133488119198342,0.02999776180790961,0.0050868093920294405,0.11882839492718907,0.0031151039116179627, ,1.9991350173950195
0.021127214653631175,0.019596410754295784,-0.1021436160048038, ,0.021793422402181017,0.019116210055061464,-0.10272681282819557, ,0.0010072457548122135, ,0.01631156882550602,-0.004319983990007532,-0.026394695972609048,-0.07314097032394944,0.023870387171358705,0.0003553782766347156, ,0.031327456243838335, ,0.07693753383512437, ,0.0009022591103061319, ,0.22244559770916278,-0.18498262053629969,0.11282000757,1.6123059754525078,0.21369948563314886,-1.401235635772729, ,0.10808307694586651,0.09107192088144989,0.028093142010582012,0.004968635222154911,0.13344172760830128,-0.014618846614844763, ,2.0044949054718018
0.021127214653631175,0.019596410754295784,-0.1021436160048038, ,0.021882047085629356,0.019094984074271428,-0.10286485815714257, ,0.0011581843368595466, ,0.01631156882550602,-0.004319983990007532,-0.026394695972609048,-0.07314097032394944,0.023870387171358705,0.0003553782766347156, ,0.031327456243838335, ,0.07693753383512437, ,0.0009038586429720907, ,0.22244559770916278,-0.18498262053629969,0.11282000757,1.6123059754525078,0.21369948563314886,-1.401235635772729, ,0.10808307694586651,0.09107192088144989,0.028093142010582012,0.004968635222154911,0.13344172760830128,-0.014618846614844763, ,2.010080099105835
0.02134362417581054,0.019533589572551222,-0.10247399107808189, ,0.021970631748479196,0.019074075080307323,-0.10300250831874971, ,0.0009400119884603297, ,0.01594577423026652,-0.004660325472812794,-0.023629665723956545,-0.09535683852061774,0.001994545119308095,-0.0035389166606557463, ,0.02888507316142901, ,0.0953776572155517, ,0.0009040831979130115, ,0.22390519422239122,-0.18376242874217222,0.11317259845000001,1.6123059754525078,0.21533912363033417,-1.4011841120346964, ,0.10783743358917133,0.08877169462906527,0.02528382780952381,0.004745828992609907,0.11091831067375249,0.009828662187611185, ,2.015489101409912
0.02134362417581054,0.019533589572551222,-0.10247399107808189, ,0.022059173917527923,0.019053489564191915,-0.10313975950126864, ,0.0010889238009204269, ,0.01594577423026652,-0.004660325472812794,-0.023629665723956545,-0.09535683852061774,0.001994545119308095,-0.0035389166606557463, ,0.02888507316142901, ,0.0953776572155517, ,0.0009052241892896005, ,0.22390519422239122,-0.18376242874217222,0.11317259845000001,1.6123059754525078,0.21533912363033417,-1.4011841120346964, ,0.10783743358917133,0.08877169462906527,0.02528382780952381,0.004745828992609907,0.11091831067375249,0.009828662187611185, ,2.0208120346069336
0.021504685062174154,0.019488029634409734,-0.10271769535663793, ,0.022147671154237592,0.019033233947923684,-0.10327660793206968, ,0.0009657398707773662, ,0.01590308677186286,-0.004199275275821503,-0.02381692019334217,-0.0800428965153083,0.007310236527934565,-0.0017282829276945532, ,0.028944563724671257, ,0.08037597387988395, ,0.0009055954511392187, ,0.22497865409190843,-0.18287431446163638,0.11343315274000002,1.6123059754525078,0.21643221562845769,-1.4010953103825812, ,0.10686592517845808,0.08442788394881742,0.02556791576243981,0.004591287840127069,0.11536367600589681,-0.0012597826090902028, ,2.026087999343872
