NicholasDascanio/dvrk_moveit_final/test/execution/third_experiment_notsharpbends/thirdexp_200vel3.0/thirdexp_200vel3.0_21.csv
Current Position (x),Current Position (y),Current Position (z), ,Planned Position (x),Planned Position (y),Planned Position (z), ,Position Error,,Cartesian linear Velocity(x),Cartesian linear Velocity(y),Cartesian linear Velocity(z),Cartesian Angular Velocity(x),Cartesian Angular Velocity(y),Cartesian Angular Velocity(z), ,Total Linear Velocity, ,Total Angular Velocity, ,MSE, ,Joint 1 Position,Joint 2 Position,Joint 3 Position,Joint 4 Position,Joint 5 Position,Joint 6 Position, ,Joint 1 Velocity,Joint 2 Velocity,Joint 3 Velocity,Joint 4 Velocity,Joint 5 Velocity,Joint 6 Velocity, ,Time Stamp
0.009930206103146173,0.020119121777518418,-0.07917590166610272, ,0.010079311760067296,0.02008180798327422,-0.07933497476785155, ,0.00022119915882925717, ,0.0012658751368186771,0.00031672558708738426,-0.0017646238098864805,0.2601525375837007,-0.12094095537786405,-0.12927131942067882, ,0.002194687255612934, ,0.28689032311831675, ,1.8433263235771432e-05, ,0.18026403075014852,-0.24015382418975958,0.08984197103000001,1.703521100868276,0.5129334201194634,-1.2914902213191168, ,-0.0009024736726135077,0.000208852967501346,0.0014620965973362382,-0.0021079972511455114,-0.1274505657678896,-0.2834764622698067, ,0.05254077911376953
0.010007007036906396,0.020148946752861264,-0.07931186914212812, ,0.010119355108907645,0.020139192780354375,-0.07954914181928949, ,0.0002627081129112392, ,0.002425691523369764,0.000708159237662754,-0.0037126580943502435,0.04115274083184495,-0.1974834226367935,-0.07166988482670317, ,0.004491024270473207, ,0.20172568079847944, ,2.199578507911347e-05, ,0.18027175348302274,-0.2401615469226338,0.08996511858,1.703521100868276,0.5065115046304878,-1.3028343640939193, ,0.0014808251947936348,0.0007340058007551079,0.003234276450761422,-0.001907702081681585,-0.20331195750538936,-0.0637722080086186, ,0.1047658920288086
0.010044728571605734,0.020205356093985525,-0.07953943242047162, ,0.010160062501848722,0.020195182093172507,-0.0797617587470054, ,0.0002506679501409045, ,0.000320982663916661,0.0007644731608537139,-0.0030581898953056055,-0.012972349947771442,0.02780808312250755,0.014544672326729716, ,0.0031685918828321855, ,0.03068503462354631, ,2.2955475683793773e-05, ,0.18027947621589696,-0.24015382418975958,0.09020493223,1.703521100868276,0.5070580506295495,-1.295602234135492, ,0.0,0.00012180383138054903,0.00328971737298637,-0.0017429219151101367,0.02936674755871294,0.01606317593747203, ,0.157120943069458
0.010079426950659777,0.02025592531924505,-0.07974017840610526, ,0.010201427800680056,0.020249790714009428,-0.07997284005084913, ,0.0002627799111842345, ,0.0009636523915533827,0.0013111921544985594,-0.0050594949841186385,-0.013685910128733613,-0.002343668130310402,0.006200081637909789, ,0.00531472861885598, ,0.013885132806041381, ,2.374655078727703e-05, ,0.18025630801727427,-0.2401615469226338,0.09041493121000001,1.703521100868276,0.5070580506295495,-1.2971541301981628, ,0.0003628719217403837,-0.0006950180937721588,0.005306066462358428,-0.0015866805210732007,-0.0016170603728645466,0.014811012759324903, ,0.20928382873535156
0.01011939675221506,0.02030648828294278,-0.07994564166884802, ,0.010243444895981656,0.02030303336656245,-0.0801824001534769, ,0.0002673096677318233, ,0.000838221094509815,0.0011623081443404642,-0.0047144180472953896,-0.007808958169089668,-0.0010962160263356519,0.0037576639569464774, ,0.004927404220311733, ,0.0078855256599762, ,2.4320476938412664e-05, ,0.18028719894877118,-0.24015382418975958,0.09063011535000001,1.703521100868276,0.5070580506295495,-1.2969907727178815, ,-0.0003567871299935809,3.2888900863920944e-05,0.004923898460587326,-0.001470075064611884,-0.0011203275033641992,0.007879408563631316, ,0.26218581199645996
0.010154503528130663,0.020356719435629354,-0.08014103984333089, ,0.010286107707066254,0.020354924706074116,-0.08039045340052009, ,0.0002820106442623372, ,0.0009284071331514312,0.0013682903288532832,-0.005049878191505403,-0.002557524520696685,-0.00023275913240705998,-0.0008976632525068011, ,0.005313701909023668, ,0.002568093690594908, ,2.5355335164914682e-05, ,0.18027947621589696,-0.2401615469226338,0.09083492917000001,1.7037307908117605,0.5070580506295495,-1.2969907727178815, ,-1.9708536639879367e-06,-0.0011761227621809613,0.0053096038400000005,0.002453825308942683,-0.0008367803622934542,0.0043189761877895794, ,0.3095560073852539
0.010191215877916202,0.020408487535692615,-0.08034526358224563, ,0.010329410181924029,0.020405479319464105,-0.08059701406075301, ,0.000287202051618335, ,0.0007256048372715093,0.0009289985033283209,-0.003954147034345247,-0.0030017988254150644,-0.0009070577792153724,0.0014463132606966197, ,0.0041261143183726, ,0.003135849013658011, ,2.6198249952544724e-05, ,0.18027175348302274,-0.2401615469226338,0.09104881702,1.7039404807552447,0.5070580506295495,-1.2968274152376005, ,0.0,0.000585673376829661,0.004122363229813665,-0.0009904281102858232,-0.0006907417945381673,0.0023272862208022463, ,0.3567049503326416
0.010228668592264867,0.020454729130110344,-0.08053330351837365, ,0.010373346297164934,0.020454711725458204,-0.0808020963262614, ,0.00030525597810731193, ,0.0007785452830857386,0.0009015520714558851,-0.003627519437849026,-0.00192420239315422,-0.0021616321911715254,0.0014080312907981457, ,0.003818091953755693, ,0.0028939951540388914, ,2.707763892133472e-05, ,0.18031036714739385,-0.24015382418975958,0.09124585310000001,1.7039404807552447,0.5070580506295495,-1.2968274152376005, ,0.0013752442627070409,0.0,0.0038079874539803976,-0.0009904281102858232,-0.0005669199334534674,0.0018065065283883837, ,0.40477800369262695
0.010272194886576802,0.02051331180054289,-0.0807685722720442, ,0.010417910057962217,0.020502636374718726,-0.08100571431261055, ,0.0002785376514806955, ,0.000739100414280082,0.0010893968625990086,-0.004671232364605089,-0.0027043891489143303,0.0006964788057337959,0.0013120173052763575, ,0.004853191398529797, ,0.0027926333757739034, ,2.747353552575157e-05, ,0.18031808988026807,-0.24015382418975958,0.09149214820000001,1.7039404807552447,0.5070580506295495,-1.2966640577573192, ,-0.0014005209675423246,0.0007522476508576625,0.004854864833892107,-0.0009904281102858232,-0.0004812374849608336,0.0018571389026338877, ,0.4519209861755371
0.010309802497848875,0.020563251868096884,-0.08097236782635378, ,0.010463095497995815,0.020549267649974775,-0.0812078820590128, ,0.00028135610182739067, ,0.0008223856938583883,0.0011089452548725307,-0.00435050075738354,-0.0018324192682686834,-0.0006023481911016571,0.0017192760963572699, ,0.004564310971851282, ,0.0019288810641363255, ,2.782502297003638e-05, ,0.18031036714739385,-0.24014610145688536,0.09170473976000001,1.7039404807552447,0.5069214141297841,-1.2963892823733416, ,0.0003609579319782267,-0.00034228475101064255,0.004562821976511029,-0.0009904281102858232,0.0,0.0021196162955721305, ,0.4998188018798828
0.010346924255672242,0.020605197535326247,-0.08113731524558825, ,0.010508896679395884,0.02059461986615261,-0.0814086135284972, ,0.0003161482428251057, ,0.0008816706646723101,0.000993957062330399,-0.003892809491923903,-0.003951449770906551,-0.002322500994900062,0.0024398025742001683, ,0.004113302753641291, ,0.004583444694697867, ,2.8445051612439948e-05, ,0.1803953172090103,-0.24015382418975958,0.09187844262000001,1.7039404807552447,0.5069214141297841,-1.2963076036332013, ,0.002075096635995983,-0.0002778177139111817,0.004101135818743564,-0.0009904281102858232,0.0,0.004301624339895657, ,0.5470287799835205
0.010395933590266547,0.020662839267108456,-0.08137077540485264, ,0.010555307692685525,0.020638707270505388,-0.08160792260807626, ,0.00028674248687400047, ,0.0009006554090181891,0.0011797720964614802,-0.004944154658889606,0.0038692920881892422,-0.00021178732491824063,-0.0007758855520356754, ,0.005162141770273521, ,0.003875083506246221, ,2.8964192612216096e-05, ,0.18047254453775258,-0.24014610145688536,0.09212344143000001,1.7039404807552447,0.5069214141297841,-1.29614424615292, ,-1.0475810224805752e-05,0.0005334908711507712,0.0051616369151004544,-0.0009904281102858232,0.0,-0.004847816562036665, ,0.5900788307189941
0.01042861472068132,0.020708158888498997,-0.08155235767139987, ,0.010602322656724578,0.020681544042743374,-0.08180582310891413, ,0.00030842750375622695, ,0.0009534569090149155,0.0011800903521519684,-0.004882320845387126,0.0027027350061797763,-0.0009829541153170062,-0.0002768504008671117, ,0.005112606982146397, ,0.002875929855244692, ,2.959299558646608e-05, ,0.1804802672706268,-0.24014610145688536,0.09231399606000001,1.7039404807552447,0.5070580506295495,-1.2962556640566165, ,0.0007569646575428275,0.0003749345381745845,0.005108663091725466,-0.0009904281102858232,0.0,-0.003444054719662401, ,0.6320559978485107
0.010465286493872912,0.020756835527139868,-0.08175333243979385, ,0.010649935718652402,0.020723144295164052,-0.08200232876649634, ,0.0003118166224482686, ,0.0008210106567357266,0.0009699986576663713,-0.0040528364867268105,0.0019256060176789304,-0.0012092597548294779,-2.4580893879674596e-05, ,0.004247403852059786, ,0.002273822023934682, ,3.0170477569208694e-05, ,0.1804802672706268,-0.2401306559911369,0.09252399504000001,1.7039404807552447,0.5070580506295495,-1.2962556640566165, ,0.0009811043091438982,0.00042139277373358033,0.004242027035952064,-0.0009904281102858232,0.0,-0.0026675870255962824, ,0.6738348007202148
0.010501985353116736,0.020796237067800746,-0.0819189737798893, ,0.01069814105383211,0.020763522072782984,-0.08219745324079603, ,0.00034219605487067415, ,0.0009888675793372978,0.0011093666749410445,-0.004763005847525144,-0.0009739678106282466,-0.001666464609574978,0.0007759996227545715, ,0.004989466726263726, ,0.0019302111645502556, ,3.090114593382467e-05, ,0.18055749459936904,-0.24010748779251423,0.09269769790000001,1.7039404807552447,0.5070580506295495,-1.296337342796757, ,0.0014310615882936974,0.0008599485015661943,0.004980866641651032,-0.0009904281102858232,0.0,-4.751583999653748e-05, ,0.7156379222869873
0.010549670102956358,0.02084309433617894,-0.08210553605465995, ,0.010746932865792517,0.020802691353462566,-0.08239121011644336, ,0.0003495063206724114, ,0.0012949162243441037,0.0010845183342870109,-0.004490843561964227,-0.002074052416315321,-0.005891659804946185,0.001360257243662872, ,0.004797985404678698, ,0.006246066510713602, ,3.160181136671381e-05, ,0.18071967198972774,-0.24010748779251423,0.09289473398,1.7039404807552447,0.5070580506295495,-1.2962556640566165, ,0.00565198127498987,0.0004961582953796288,0.004750614828511781,-0.0009904281102858232,0.0,0.0014999528721656443, ,0.757692813873291
0.010599146351815953,0.020888909777186916,-0.08230154842301254, ,0.010796305386172574,0.02084066604804339,-0.0825836129028931, ,0.00034750469499043396, ,0.0013022285043428864,0.0012902316279459838,-0.005717932968331655,-0.002877472440800194,-0.0032909046423994473,0.0010879479926618808, ,0.006004602748026658, ,0.004371486577900318, ,3.2427249376017327e-05, ,0.18088184938008647,-0.2400688741281431,0.09309825151000001,1.7039404807552447,0.5070580506295495,-1.2962556640566165, ,0.003051968361925813,0.0015487219287457848,0.005943586388059703,-0.0009904281102858232,0.0,0.0012553205087545787, ,0.7953720092773438
0.010645795510556392,0.0209345292984065,-0.08251624460036558, ,0.010846252874663733,0.020877460000473504,-0.08277467503459321, ,0.00033200353752107776, ,0.0010885407126588835,0.0011346806716677818,-0.005380577435199009,-0.0033358597129192636,-0.0013624508775223485,0.0008913012853109216, ,0.0056056252680628865, ,0.00360336341607014, ,3.3083579325323304e-05, ,0.18098224490745138,-0.2399762013336524,0.09332510226000001,1.7039404807552447,0.5071946871293149,-1.2963670819603128, ,0.001250187217700402,0.002297960397001899,0.005594946090621708,-0.0009904281102858232,0.00013066422150015338,0.0009699320670842446, ,0.831981897354126
0.010679238324536244,0.020969694034019833,-0.08268471573109967, ,0.010896769618953795,0.02091308698793895,-0.08296440987115299, ,0.00035882172968918814, ,0.0011142317134802298,0.001242049711965479,-0.0055658383936348825,-0.002538393248545934,-0.0012572098307527403,0.0009827232798446284, ,0.00581057284803992, ,0.0028326686183581806, ,3.384547557928693e-05, ,0.1810131358389483,-0.23989897400491017,0.09350010141000001,1.7039404807552447,0.5071946871293149,-1.2963670819603128, ,0.0011488532211401507,0.0015918929915800014,0.005802845726775957,-0.0009904281102858232,0.0001342988307139057,0.0008609826017677979, ,0.8691678047180176
0.010721903832409667,0.021009053846967742,-0.082877279774494, ,0.010947849934670038,0.020947560720993852,-0.08315283069751053, ,0.00036160939816874346, ,0.0011887093380954436,0.0010260737252056128,-0.004776643032867069,-0.0018179525577424799,-0.0037657617710589435,0.0005353689047777474, ,0.005028138407350194, ,0.004181615803959707, ,3.4562090919021036e-05, ,0.1811135313663132,-0.23979857847754524,0.09370102636000001,1.7039404807552447,0.5073313236290804,-1.2963968211238688, ,0.0037252726839215955,0.0018861975372726266,0.0049996269679849345,-0.0009342989144594355,0.0001878835701543793,-0.0001956281089103816, ,0.9066779613494873
0.010773231308801968,0.021055325112300093,-0.0830798560090792, ,0.010999488165322324,0.020980894843690413,-0.08333995072410161, ,0.0003526773182249858, ,0.0012056523308912443,0.0010234826302392846,-0.004380877145964835,0.0019879435627457166,-0.0025374424979118025,0.00041089455449467666, ,0.004657595818168641, ,0.003223434879943408, ,3.5173928939970414e-05, ,0.1813065996881688,-0.2397445193474257,0.09391232163,1.7039404807552447,0.5076045966286112,-1.296537978191121, ,0.004999325312841091,0.0008757230054676986,0.004595733271783036,-0.0008778151119389557,0.002765119715919734,-0.002916308608946426, ,0.9434928894042969
0.010813135731615282,0.0210859488954262,-0.08321498056547286, ,0.01105167868224642,0.021013102933708904,-0.08352578308702836, ,0.000398506563107294, ,0.001496422222216707,0.0012476350109627318,-0.0051521224280899345,0.0023020803191662487,-0.004262105928353152,0.00043251809243047534, ,0.005508197355011101, ,0.004844080625897239, ,3.5983977134265635e-05, ,0.18148422254427599,-0.23970590568305455,0.09405750611000001,1.7039404807552447,0.5076045966286112,-1.296537978191121, ,0.006732826835556999,0.0005499582081624174,0.0054644293379073755,-0.0008401265036439053,0.002765119715919734,-0.0029153615355724106, ,0.9801468849182129
0.010870908867055294,0.021133451909548358,-0.0834446594496343, ,0.011104415884547811,0.021044198502488606,-0.08371034084822619, ,0.00036479899046977174, ,0.0014000847041862282,0.0011779352809360274,-0.005972149621839611,0.002323938338372077,0.0016997623475204194,-0.0002174259349338928, ,0.006246145996581338, ,0.002879214101348928, ,3.675147779232841e-05, ,0.18169273633188004,-0.23959006468994118,0.09429861605,1.7039404807552447,0.5078778696281421,-1.2967608139985138, ,0.0041354604250467605,0.003559781071765034,0.006239252455934196,-0.0007948191892298683,0.006240073312628672,-0.005747724816933281, ,1.01202392578125
0.010913013343608195,0.02116416193414643,-0.0836198454827154, ,0.011157694199043361,0.021074194995355906,-0.08389363699563258, ,0.0003780536517973429, ,0.0012033529790547966,0.000751721406391437,-0.005154918665341927,-9.705274786329341e-05,0.0022673900123677984,-0.0006931778524730947, ,0.005346618549262493, ,0.0022694653696385186, ,3.753920171754527e-05, ,0.18180857732499342,-0.23944333276533092,0.09448009665000001,1.7039404807552447,0.5078778696281421,-1.2967608139985138, ,0.0035750653460996946,0.006026189011668738,0.00532380064171123,-0.0007639208557141007,0.006240073312628672,-0.005746830310035282, ,1.0436298847198486
0.010960583598049158,0.021194663963362205,-0.08380399098911236, ,0.011211508080206326,0.02110310579165643,-0.08407568444335536, ,0.00038100305462088446, ,0.0015910261243247993,0.000955396663121304,-0.005942924742303374,-0.0016353356293057487,-0.0021325019305882256,-0.0006736021420717086, ,0.006225953855022452, ,0.00268735552008238, ,3.8295356301601645e-05, ,0.1819939229139748,-0.23926570990922377,0.09467194757000001,1.7039404807552447,0.508151142627673,-1.2969836498059066, ,0.0062113076091319455,0.005977775775135065,0.006173957953488373,-0.000735393684699332,0.00440531236460879,-0.004229884478923868, ,1.075049877166748
0.011008700303022022,0.02122015480990707,-0.08397161894316654, ,0.01126585201010876,0.021130944204884403,-0.08425649603184097, ,0.0003940056955905005, ,0.0018011566007035188,0.0010689128637348564,-0.005660987552342029,0.00026768392603028496,-0.005146331690249902,-0.00032718585708689074, ,0.006036018545223921, ,0.005153288148019009, ,3.9070042894907736e-05, ,0.18219471396870462,-0.23908036432024238,0.09484565043000001,1.7039404807552447,0.508151142627673,-1.2969836498059066, ,0.00923126870321846,0.004003942818342145,0.005956922782348543,-0.0007087238179205201,0.00440531236460879,-0.004184131299412674, ,1.1072449684143066
0.011066300486210623,0.02125279586255594,-0.08415523270005754, ,0.011320720498364899,0.021157723482812422,-0.08443608452804242, ,0.0003906994359570164, ,0.0018273893508900785,0.0009501216791035212,-0.005430030636381426,-0.0017624390054674535,-0.007255454627843802,-0.00043306966119022183, ,0.005807522342349604, ,0.007466445498625087, ,3.9786919860905763e-05, ,0.1824959005507994,-0.23892590966275787,0.09503879764,1.7039404807552447,0.508424415627204,-1.2972064856132997, ,0.00984351799187128,0.004678881717912315,0.005703119054779808,-0.000683991286312085,0.0028480307989644012,-0.0028748939181106386, ,1.138638973236084
0.011123163718749707,0.02128371335304681,-0.08432108937468978, ,0.011376108082074572,0.02118345680762219,-0.08461446262558771, ,0.0004001250931655222, ,0.0016744154539440757,0.0014118613057762781,-0.006149322674554919,0.00571303841345072,0.0005319930919835753,4.539860779815222e-05, ,0.006527724627689981, ,0.005737753547382036, ,4.068911938494609e-05, ,0.18281253259864258,-0.2388023459367703,0.09521379679000001,1.7039404807552447,0.5085610521269693,-1.297317903516996, ,0.006962758093113547,0.0014706854124719613,0.006509526571311812,-0.0006610867877265192,0.007926673211697186,-0.006982069178775296, ,1.1646459102630615
0.011163979500223421,0.02130850982973268,-0.08445155934419434, ,0.011432009325765826,0.021208157296033706,-0.08479164294494786, ,0.0004444856284533577, ,0.002233811335792393,0.00113713877706031,-0.006534645110376247,-0.001085602682372052,-0.007529329803674351,-0.0025222401496250778, ,0.006998898799152121, ,0.007607189268122206, ,4.1746312505685686e-05, ,0.18302104638624667,-0.23873284134090228,0.09535120353000001,1.703521100868276,0.5086976886267348,-1.2974293214206924, ,0.01225425381695129,0.005797207300561543,0.006871790992234686,0.0012734991661840626,0.004580684324350451,-0.004232980089829649, ,1.191098928451538
0.01123239479350513,0.021348762301937645,-0.08466061998354026, ,0.011488418821338916,0.021231837999436044,-0.08496763803360471, ,0.00041650891756252195, ,0.0019070094261247955,0.0011797168562806722,-0.006162099367845524,0.003937904570168954,-0.0009173879351803109,-0.002265316225387188, ,0.006557429788531768, ,0.004043350608425792, ,4.263806081055304e-05, ,0.18337629209846099,-0.23859383214916624,0.09557157283,1.703521100868276,0.5088343251265002,-1.297540739324389, ,0.009603986402089558,0.0042358251930680515,0.0064989031089351295,0.0012321713665733372,0.008694546433504818,-0.007559796953168401, ,1.2176928520202637
0.011288273715742047,0.021378811787264564,-0.0848479503661053, ,0.011545331188008982,0.02125451190401702,-0.08514246036622014, ,0.00041020134713486736, ,0.0021136230840926203,0.001183823751266244,-0.006870734593367203,0.008570074492288308,0.004993164309166613,-0.0027270789790435177, ,0.007285316401376407, ,0.009918560949566833, ,4.346583830249464e-05, ,0.18366203321480729,-0.23840076382731062,0.09576601633000001,1.703521100868276,0.509380871125562,-1.2979864109391746, ,0.010956811171743536,0.0062079883959672046,0.007217404404168555,0.0011932563488034713,0.016409208686592743,-0.01382593474825842, ,1.2438290119171143
0.011333162995613917,0.02139986873424451,-0.08498686657009505, ,0.011602741072249678,0.021276191930893612,-0.08531612234480354, ,0.00044314518644415285, ,0.0024806323520973695,0.0011148724485314098,-0.007608127199737404,0.005583899421690215,0.002186834054532228,-0.0032125864202559255, ,0.008079608711450739, ,0.005996845040727635, ,4.4395122232254636e-05, ,0.18390143793390826,-0.23824630916982611,0.09591379339000002,1.703521100868276,0.5095175076253274,-1.298097828842871, ,0.01371343086105069,0.009028650194426434,0.007980366492985972,0.0011684559930711061,0.016181074383816735,-0.013624777711482104, ,1.2701809406280518
0.01140442036213296,0.021430705275366314,-0.08521267223369072, ,0.011660643147736328,0.021296890936241826,-0.08548863629888001, ,0.0003996405365994187, ,0.0022500468630158744,0.0008160188116610223,-0.007241558387440196,-0.010864887486919834,-0.010035910931044853,-0.0030270135644518957, ,0.007626845053195829, ,0.014790715615047694, ,4.511151306063426e-05, ,0.18424896091324836,-0.23796056805347982,0.09614842188000002,1.703521100868276,0.5096541441250929,-1.2983726042268486, ,0.010302340186059019,0.01103569282862781,0.007460801648711945,0.0011329422202584845,0.0,0.00023100519731901893, ,1.296482801437378
0.011447553973431945,0.021449535638521054,-0.08535659411932581, ,0.011719032115289171,0.02131662171142675,-0.08566001448565908, ,0.00042828776801082726, ,0.0023976150455547337,0.0010589230754337706,-0.007451296952618364,0.0027149226561310157,0.0007806332302692762,-0.002876979385345512, ,0.007898841830449338, ,0.0028249195208113038, ,4.6095011932730654e-05, ,0.18447292016660086,-0.2377674997316242,0.09629879152000001,1.703521100868276,0.5100640536243892,-1.2987885366780783, ,0.012763542913042474,0.009091182112740083,0.007796775095447872,0.0011107393667642667,0.01375723286831473,-0.01088012683404242, ,1.317887783050537
0.011497105447047656,0.021466128466809568,-0.08549519560332414, ,0.011777902702815755,0.021335396983132297,-0.08583026909020208, ,0.0004563025983707527, ,0.00232329345783627,0.0008756342625061276,-0.006781413560409017,0.0025317424648707335,0.00023985138666596172,-0.0028922758062171552, ,0.007221634006940448, ,0.00254307574688569, ,4.715720939616749e-05, ,0.1847432158171987,-0.23756670867689436,0.09644267971,1.703521100868276,0.5100640536243892,-1.2987885366780783, ,0.013298338222879872,0.009277085839327943,0.007098400855614974,0.0010881129902384097,0.01375723286831473,-0.010882591124486016, ,1.339446783065796
0.0115494690102011,0.021486928530660605,-0.08565062005809812, ,0.01183724966525607,0.02135322941349216,-0.0859994122255916, ,0.00047153911339388156, ,0.0026046045046988022,0.001159904220172382,-0.008034649012020658,-0.0006841250552896676,-0.003323749473910741,-0.002848823256574998, ,0.00852554556449237, ,0.003393420718509825, ,4.8245325841587534e-05, ,0.1850212342006708,-0.23736591762216452,0.09660471596,1.703521100868276,0.5102006901241547,-1.2988999545817748, ,0.013462468656330086,0.00948769525152954,0.0083968431839747,0.0010675955939339814,0.010241639365473825,-0.008018529383553652, ,1.3603219985961914
0.011600974229577272,0.021511067302800283,-0.08581627482287811, ,0.0118970677845237,0.021370131600218664,-0.08616745593309812, ,0.0004804814644898844, ,0.002755968604489833,0.0012057527556082006,-0.008796860653041768,-0.004893562093015598,-0.0061896051160715455,-0.0030456029598425146, ,0.009296986608876278, ,0.007890380774840465, ,4.93343416034191e-05, ,0.18529152985126865,-0.2371728493003089,0.09677841882,1.703521100868276,0.5106105996234509,-1.299234208292864, ,0.013152729252733303,0.010671321724338954,0.00917558267281106,0.001047883479156317,0.0070180363077629315,-0.005392802380330268, ,1.381415843963623
0.011657572495499282,0.021535146804150695,-0.08598238999813158, ,0.011957351869451028,0.021386116076734442,-0.08633441218235005, ,0.0004857956864187445, ,0.0027923168585911188,0.0010820984723523136,-0.007950024352902894,0.0041124546887655,6.315894954401566e-05,-0.0030727065416602437, ,0.008495343298206877, ,0.00411293579610115, ,5.041067861836338e-05, ,0.18559271643336342,-0.2369797809784533,0.09695212168,1.703521100868276,0.5107472361232164,-1.2993456261965604, ,0.016243913310248336,0.010176918228882503,0.008348433710691824,0.0010289930980265372,0.016639138552930113,-0.01324120469773442, ,1.4025728702545166
0.011718437864237324,0.021553488899199547,-0.08614742233533934, ,0.012018096755730262,0.021401195312300222,-0.08650029287150009, ,0.00048734628669131266, ,0.003164260242512708,0.0009826754520537578,-0.008211253371593655,-0.0019186378323150666,-0.007890488168572723,-0.0032967159089149953, ,0.00885453984456131, ,0.00812040253564431, ,5.165095260668892e-05, ,0.18595568487845196,-0.2367249307936039,0.09712452825000001,1.703521100868276,0.5110205091227473,-1.2995684620039534, ,0.01937858720818272,0.011972866711893865,0.008605516758508914,0.001009942661404293,0.011653043224548265,-0.009178680410622735, ,1.418442964553833
0.011776022434864348,0.021571437888179935,-0.08631105510285379, ,0.012079297305858529,0.02141538171214688,-0.08666510982739514, ,0.0004916135936125522, ,0.002994923422131316,0.0009959552013828069,-0.00897596638240055,0.01400790202037438,0.013975287206129757,-0.004060451881556601, ,0.009514697344927847, ,0.019787114828631436, ,5.2879641423449815e-05, ,0.18629548512491784,-0.2364700806087545,0.09729563853,1.703521100868276,0.5114304186220436,-1.2999027157150425, ,0.017651960855370307,0.013928803986271948,0.009408630549320734,0.000992186424265272,0.03251296821733331,-0.02619181115843027, ,1.4348039627075195
0.011809226002218728,0.02158264603039807,-0.08640949070242426, ,0.01214094840908006,0.021428687617604306,-0.08682887480574311, ,0.0005564404498240623, ,0.003553927556961389,0.0013586775649084926,-0.010883876221202394,-0.0034050563494151705,-0.005070789639840244,-0.003857949508333386, ,0.011529751402522525, ,0.006107959036081359, ,5.431574801389643e-05, ,0.186473107981025,-0.23632334868414423,0.09739804544000001,1.703521100868276,0.5115670551218091,-1.300014133618739, ,0.018120477670129993,0.01489981811249345,0.01132916893314367,0.0009835476453600813,0.01327640381791539,-0.010507325740358744, ,1.4504239559173584
0.011889099557726802,0.021615200517254223,-0.08664581206425259, ,0.012203044981330574,0.021441125306232718,-0.08699159949128274, ,0.0004984303891077094, ,0.0042972229462084595,0.001682780265395075,-0.01241841177310777,0.0024039415081836824,-0.003984973859863844,-0.0033629314981378443, ,0.013248200837754735, ,0.004653886128078237, ,5.551390210341793e-05, ,0.18690558102198157,-0.23602216210204946,0.09764563683000001,1.7037307908117605,0.5119769646211053,-1.3002667085896877, ,0.023765825584390377,0.015569637663407838,0.013013734901960786,0.0,0.020487231130575073,-0.01688642399418416, ,1.4661509990692139
0.01192704560666754,0.02163040984107581,-0.08676565312739407, ,0.01226558196517889,0.021452706991950923,-0.0871532954979498, ,0.0005444738525138696, ,0.0039022514423703593,0.0015584126473210521,-0.012633008907072954,0.033344030778363995,0.03477036984173098,-0.004549215385563152, ,0.013313494295075067, ,0.04817471002214534, ,5.6849351383289365e-05, ,0.18711409480958566,-0.23585998471169076,0.09777137696,1.7037307908117605,0.5123868741204016,-1.3006009623007768, ,0.022276277361143376,0.017691450700684334,0.013296169883138568,0.0,0.05908088408221658,-0.0483585236721597, ,1.4820590019226074
0.012013788264131898,0.021654696194907116,-0.0870014959433052, ,0.012328554329771051,0.021463444825167557,-0.08731397436904721, ,0.00048300882917335736, ,0.0039870954161663604,0.0007989817234872928,-0.009685791952048483,-0.0018107944255714421,-0.009648257650527726,-0.00047396314182397595, ,0.010504754513573779, ,0.009816708557165139, ,5.7941871575679196e-05, ,0.1876006269806618,-0.2355047389994764,0.09801637577000001,1.7033114109247913,0.5125235106201671,-1.3005490227241923, ,0.02565475576060308,0.017622458970932363,0.010119956493011438,-0.003772960082420181,0.01748028030572886,-0.015564147378618274, ,1.5000548362731934
0.012050841968612978,0.021659665534059153,-0.08708609707258604, ,0.012391957070774777,0.021473350892911712,-0.08747364757741243, ,0.0005488789048778826, ,0.0036757711195062742,0.00019467139921305266,-0.007643873973135174,-0.017691770111668836,-0.0257632196257432,-0.00033082514803536845, ,0.008483984888826788, ,0.03125287489292465, ,5.944532699834074e-05, ,0.187847754432637,-0.23532711614336926,0.09810452349000001,1.7033114109247913,0.5126601471199326,-1.3006604406278888, ,0.024894265886272502,0.018570830050581365,0.007897278889439764,-0.0037402154128625977,0.0,-0.001306449644757784, ,1.5104877948760986
0.012085561920496694,0.02166202941567363,-0.08716453984570635, ,0.012455785210319467,0.021482437218960596,-0.0876323265255856, ,0.0006230112513589621, ,0.0036603335935021146,0.0002635766965631591,-0.00855719635012427,0.02241468140727334,0.019860194756265975,-0.0017508984998839418, ,0.00931091424433022, ,0.029947374383454378, ,6.118367388579688e-05, ,0.18811805008323484,-0.23513404782151365,0.09818748605000001,1.7033114109247913,0.5132066931189944,-1.301187790982815, ,0.027159971825549738,0.02065221796702302,0.00899424704686618,-0.0036484764758336063,0.04955493997579944,-0.04145318714609931, ,1.5210189819335938
0.012126012949200089,0.02166783380620986,-0.08726343628323252, ,0.012520033796942647,0.021490715763972136,-0.08779002254597806, ,0.0006811140297000253, ,0.004241089610703702,0.0008738220642193687,-0.010750104065675009,0.017179247853618622,0.014292423526527202,-0.0007774081049695971, ,0.011589441035217266, ,0.022347254495973478, ,6.309718991979835e-05, ,0.18839606846670692,-0.2349255340339096,0.09829118925000001,1.7033114109247913,0.5136166026182906,-1.3016037234340447, ,0.028523276693258423,0.019811470053960497,0.011313076363636366,-0.003559900604467476,0.04518404070287518,-0.035410282854175724, ,1.5317869186401367
0.01217685754524041,0.021679857995426065,-0.08739202619689235, ,0.012584697905532283,0.021498198425614127,-0.08794674690104042, ,0.0007120737450557998, ,0.0048013584336172085,0.0012635209028385333,-0.012915272297293313,-0.003224171476847469,-0.006927441011360514,-0.0006280245713627431, ,0.013836682636860944, ,0.0076409659944173735, ,6.508997687631604e-05, ,0.18866636411730478,-0.23472474297917975,0.09841563309000001,1.7033114109247913,0.5136166026182906,-1.3016037234340447, ,0.027886259641043427,0.02103212357235611,0.013175195632754346,-0.0034768431522837445,0.02350382704785332,-0.017728007560554634, ,1.5422389507293701
0.012230634838291881,0.021696942572620816,-0.08754124041853227, ,0.01264977263726826,0.021504897038693058,-0.08810251078343116, ,0.0007263486794550512, ,0.005806256374255465,0.0019195872759598062,-0.01659515395801488,-0.024975820622339415,-0.030098647566227897,-0.0006775186061726517, ,0.017686055616892817, ,0.03911162157749371, ,6.710406040909449e-05, ,0.18896755069939952,-0.23450850645870147,0.09856859531,1.7033114109247913,0.513753239118056,-1.3017151413377412, ,0.02935259559494921,0.023270461392464633,0.01701796102564103,-0.0033972868383300714,0.0,0.0014412623742590717, ,1.5527830123901367
0.012286168546338936,0.021718084231726976,-0.08770898603824055, ,0.012715253119568391,0.021510823375286106,-0.08825732531618441, ,0.0007264616970853297, ,0.006200430890384671,0.002441892056403538,-0.018370791230999904,0.0279746691767786,0.022007476466571394,-0.002414049385690207, ,0.019542112232165336, ,0.035593665779221566, ,6.909148851737348e-05, ,0.18929190548011696,-0.2342691017396005,0.09875655736000001,1.7033114109247913,0.5142997851171178,-1.302324170432808, ,0.035108006495919636,0.023010897565099605,0.019354570498177404,-0.0033207299787424167,0.05992198999924317,-0.04879949892349668, ,1.5636308193206787
0.01234952921141331,0.021741690333990905,-0.08789308359877562, ,0.012781134506030281,0.021515989144870407,-0.08841120155287881, ,0.000711105035473578, ,0.00626205582850495,0.0021414783226868144,-0.01801982668069788,0.015776057761416867,0.007855077159871562,-0.0034395744364937664, ,0.01919670352451799, ,0.017623403067555322, ,7.100122871216958e-05, ,0.18963942845945705,-0.23402969702049956,0.09894970457,1.7033114109247913,0.5147096946164142,-1.3028217816241783, ,0.03508204863529419,0.025105010994304438,0.01889538733096086,-0.00324882708217824,0.04521881904298074,-0.039377545248691, ,1.574246883392334
0.012478233958334084,0.021775079326000958,-0.08822628490188489, ,0.01284741197637378,0.02152040599445208,-0.08856415047780494, ,0.0005615194228143079, ,0.006407443509887005,0.0012541329771957987,-0.014750416545075024,-0.03527123523946485,-0.04150737455686539,0.00686785687715993, ,0.016130808104682978, ,0.05446945455624404, ,7.239035773663969e-05, ,0.1903808108153826,-0.23351999665080073,0.09929711029,1.7028920310378222,0.514982967615945,-1.3031262961717116, ,0.0393926698042635,0.025448361908948988,0.015375300694980696,-0.00904153157657497,0.0,0.009140763988065546, ,1.5854198932647705
0.012478233958334084,0.021775079326000958,-0.08822628490188489, ,0.01291408073638541,0.021524085508697527,-0.08871618300613407, ,0.0007021114319032359, ,0.006407443509887005,0.0012541329771957987,-0.014750416545075024,-0.03527123523946485,-0.04150737455686539,0.00686785687715993, ,0.016130808104682978, ,0.05446945455624404, ,7.446864511012681e-05, ,0.1903808108153826,-0.23351999665080073,0.09929711029,1.7028920310378222,0.514982967615945,-1.3031262961717116, ,0.0393926698042635,0.025448361908948988,0.015375300694980696,-0.00904153157657497,0.0,0.009140763988065546, ,1.590775966644287
0.012537927337625028,0.021783703837311978,-0.0883695241501298, ,0.012981136017861302,0.02152703921006303,-0.08886730998408675, ,0.0007142138346502628, ,0.006016919585695233,0.0006229573832331789,-0.013888947063106885,0.0315190498802108,0.018688468003125472,-0.0010802873326997292, ,0.015149067552949686, ,0.03664299148304314, ,7.657307007571936e-05, ,0.19078239292484228,-0.2332265328015802,0.09944747993000001,1.7028920310378222,0.5155295136150068,-1.3038170040069192, ,0.042554682313215596,0.03044496039732781,0.014613588550458717,-0.00904153157657497,0.06551258695986513,-0.06094061373103224, ,1.596134901046753
0.012537927337625028,0.021783703837311978,-0.0883695241501298, ,0.013048573078550584,0.021529278558924846,-0.0890175421891005, ,0.0008633763222600059, ,0.006016919585695233,0.0006229573832331789,-0.013888947063106885,0.0315190498802108,0.018688468003125472,-0.0010802873326997292, ,0.015149067552949686, ,0.03664299148304314, ,0.0004310998147371195, ,0.19078239292484228,-0.2332265328015802,0.09944747993000001,1.7028920310378222,0.5155295136150068,-1.3038170040069192, ,0.042554682313215596,0.03044496039732781,0.014613588550458717,-0.00904153157657497,0.06551258695986513,-0.06094061373103224, ,1.6014349460601807
0.012603888224984493,0.021791876515241,-0.08852272308686913, ,0.013116387202098491,0.0215308149537094,-0.08916689032999844, ,0.0008635738402551499, ,0.006945298212221916,0.0012169054924045107,-0.017454589024823938,0.034019884426891786,0.00529461126722632,-0.007219556489975673, ,0.018825002105169644, ,0.034429403491297264, ,0.00043868707834269897, ,0.1912303114315473,-0.23290217802086277,0.09960821989000002,1.7028920310378222,0.5160760596140685,-1.3042626756217048, ,0.04391343894422526,0.03314598028587872,0.018266985688073393,-0.00876475439936741,0.05294530312586967,-0.06750272058122572, ,1.6067159175872803
0.012603888224984493,0.021791876515241,-0.08852272308686913, ,0.013184573697988432,0.02153165973102209,-0.08931536504715698, ,0.0010164593796881398, ,0.006945298212221916,0.0012169054924045107,-0.017454589024823938,0.034019884426891786,0.00529461126722632,-0.007219556489975673, ,0.018825002105169644, ,0.034429403491297264, ,0.00044864866974520656, ,0.1912303114315473,-0.23290217802086277,0.09960821989000002,1.7028920310378222,0.5160760596140685,-1.3042626756217048, ,0.04391343894422526,0.03314598028587872,0.018266985688073393,-0.00876475439936741,0.05294530312586967,-0.06750272058122572, ,1.6119859218597412
0.012685052500132294,0.021810031589396723,-0.08872972514378923, ,0.013253127901488028,0.021531824165779596,-0.08946297691267499, ,0.0009683838024023642, ,0.00902728934087629,0.0022670974582377776,-0.02384766867252591,-0.009564206181595373,-0.01943375384259563,-0.0001462377985040182, ,0.025599667670569877, ,0.021659573291884584, ,0.0004574577397902431, ,0.19171684360262345,-0.23254693230864842,0.09982470032000001,1.7028920310378222,0.516485969113365,-1.3048419655532157, ,0.05135115885198635,0.038342198609483145,0.024888768000000002,-0.008209539426084256,0.03498102517281418,-0.028211530885799363, ,1.6171679496765137
0.012685052500132294,0.021810031589396723,-0.08872972514378923, ,0.013322045173589599,0.021531319471337844,-0.0896097364305414, ,0.0011215435683032445, ,0.00902728934087629,0.0022670974582377776,-0.02384766867252591,-0.009564206181595373,-0.01943375384259563,-0.0001462377985040182, ,0.025599667670569877, ,0.021659573291884584, ,0.00046852583693212643, ,0.19171684360262345,-0.23254693230864842,0.09982470032000001,1.7028920310378222,0.516485969113365,-1.3048419655532157, ,0.05135115885198635,0.038342198609483145,0.024888768000000002,-0.008209539426084256,0.03498102517281418,-0.028211530885799363, ,1.6224639415740967
0.01277840744799559,0.02183836210529549,-0.08899395146551348, ,0.013391320900954632,0.02153015679962291,-0.0897556540368038, ,0.0010251069302142065, ,0.010310781471405465,0.003543977853929886,-0.029669164093949336,0.07415282810158691,0.034674991816619614,-0.017818904279246883, ,0.03160903813174194, ,0.08185947705430026, ,0.0004776501171498655, ,0.19224971217094494,-0.23216079566493722,0.10010210638000001,1.7026823410943377,0.5173057881119575,-1.3056738304556754, ,0.05804094284921761,0.040364500875572425,0.031232963764705888,-0.0035534231212237693,0.0966559480900227,-0.11262171569728133, ,1.6347417831420898
0.01279707126804391,0.021845237082466308,-0.089048226731719, ,0.0134609504958571,0.021528347241260962,-0.08990074009973636, ,0.0011260256849776112, ,0.010418477147631573,0.0036567286427893683,-0.030251273882163126,0.07784877475720892,0.039396975244900836,-0.017842494045479215, ,0.032203352340033825, ,0.08724980260605728, ,0.00048810778759870007, ,0.19235010769830987,-0.2320912910690692,0.10015914314,1.7026823410943377,0.517442424611723,-1.305785248359372, ,0.05836220268048633,0.040658501096174283,0.031857623040000005,-0.0035534231212237693,0.10187167788258351,-0.11637748322110497, ,1.6401989459991455
0.01279707126804391,0.021845237082466308,-0.089048226731719, ,0.013530929396125513,0.021525901825707724,-0.09004500492000857, ,0.001278315107870645, ,0.010418477147631573,0.0036567286427893683,-0.030251273882163126,0.07784877475720892,0.039396975244900836,-0.017842494045479215, ,0.032203352340033825, ,0.08724980260605728, ,0.00050065076093635, ,0.19235010769830987,-0.2320912910690692,0.10015914314,1.7026823410943377,0.517442424611723,-1.305785248359372, ,0.05836220268048633,0.040658501096174283,0.031857623040000005,-0.0035534231212237693,0.10187167788258351,-0.11637748322110497, ,1.645486831665039
0.013051537988457105,0.021928788112542535,-0.08981366530414077, ,0.013601253065088937,0.021522831521380018,-0.0901884587308531, ,0.0007793956197537956, ,0.010403619905782915,0.0023178289593011672,-0.027320739357413394,-0.03462689114160377,-0.02796116470805587,0.04700683139201596, ,0.029326275543687694, ,0.044506551206487284, ,0.0005050061493553726, ,0.19370930868417338,-0.231017831199552,0.10096154665000001,1.7018435813203996,0.5199018816075008,-1.308035806846329, ,0.058759716135276016,0.04389312745535188,0.028495190554561723,-0.05195390418949732,0.044185758845314706,-0.01532843339183564, ,1.6508638858795166
0.013051537988457105,0.021928788112542535,-0.08981366530414077, ,0.013671916991516622,0.021519147235783846,-0.09033111169823445, ,0.0009057739928421984, ,0.010403619905782915,0.0023178289593011672,-0.027320739357413394,-0.03462689114160377,-0.02796116470805587,0.04700683139201596, ,0.029326275543687694, ,0.044506551206487284, ,0.0005111718084859392, ,0.19370930868417338,-0.231017831199552,0.10096154665000001,1.7018435813203996,0.5199018816075008,-1.308035806846329, ,0.058759716135276016,0.04389312745535188,0.028495190554561723,-0.05195390418949732,0.044185758845314706,-0.01532843339183564, ,1.656181812286377
0.013147550746145932,0.02193045444102126,-0.09001404518341335, ,0.013742916689564306,0.0215148598156459,-0.09047297392101687, ,0.0008589499900586148, ,0.010266811480678168,-0.0009430967115844345,-0.018949818846219994,-0.07635578877529445,-0.06550570586994776,-0.02513426417427435, ,0.021572957231027482, ,0.10060418250472748, ,0.0005164411748734039, ,0.19433485004698556,-0.2305235762956016,0.10116895305000001,1.7016338913769151,0.5200385181072663,-1.308065546009885, ,0.07045058764548684,0.06040543702003232,0.019472874718826406,0.021968267804532225,0.0,0.022509545641598357, ,1.6615869998931885
0.013147550746145932,0.02193045444102126,-0.09001404518341335, ,0.013814247698715502,0.02150998004704264,-0.09061405543113295, ,0.000990603775444939, ,0.010266811480678168,-0.0009430967115844345,-0.018949818846219994,-0.07635578877529445,-0.06550570586994776,-0.02513426417427435, ,0.021572957231027482, ,0.10060418250472748, ,0.0005235182286132776, ,0.19433485004698556,-0.2305235762956016,0.10116895305000001,1.7016338913769151,0.5200385181072663,-1.308065546009885, ,0.07045058764548684,0.06040543702003232,0.019472874718826406,0.021968267804532225,0.0,0.022509545641598357, ,1.6669487953186035
0.013252945705259728,0.021915332715544265,-0.0901982102371212, ,0.013885905583725463,0.021504518655530616,-0.09075436619375166, ,0.000937398446631845, ,0.011342340158803265,-0.001498404856881496,-0.01929617818389139,-0.04301466290796682,-0.06180491513205832,-0.03079734872753083, ,0.02243293092526283, ,0.07530010680181946, ,0.0005296047024076682, ,0.19509167786865955,-0.229882589467041,0.10135821139000001,1.7016338913769151,0.5201751546070318,-1.3080136064333003, ,0.08251907961606154,0.06706497636641044,0.019911014400000003,0.01642272168958201,0.0175202716614399,-0.019307042603929108, ,1.672318935394287
0.013252945705259728,0.021915332715544265,-0.0901982102371212, ,0.013957885934564505,0.02149848630627667,-0.09089391610744679, ,0.0010745735497475505, ,0.011342340158803265,-0.001498404856881496,-0.01929617818389139,-0.04301466290796682,-0.06180491513205832,-0.03079734872753083, ,0.02243293092526283, ,0.07530010680181946, ,0.000537502801644478, ,0.19509167786865955,-0.229882589467041,0.10135821139000001,1.7016338913769151,0.5201751546070318,-1.3080136064333003, ,0.08251907961606154,0.06706497636641044,0.019911014400000003,0.01642272168958201,0.0175202716614399,-0.019307042603929108, ,1.6778597831726074
0.013376334108621863,0.021898168795056114,-0.09040441620436686, ,0.014030184366361591,0.02149189360418808,-0.09103271500436516, ,0.0009936493709254155, ,0.010740708280314844,-0.0018648025032061265,-0.01655288135436573,0.07917628698556574,0.05612822513736559,-0.020281205595307106, ,0.019820145909414902, ,0.09705287649104773, ,0.0005440191812056342, ,0.19609563314230874,-0.22914120711111544,0.10157598811000002,1.7018435813203996,0.5215415196046862,-1.309209464210405, ,0.09331066033281296,0.06438055736666945,0.017679036093229746,0.0,0.15437522922362237,-0.13717123123451055, ,1.6837759017944336
0.013376334108621863,0.021898168795056114,-0.09040441620436686, ,0.014102796519346716,0.02148475109404195,-0.09117077265039512, ,0.0011340035414746613, ,0.010740708280314844,-0.0018648025032061265,-0.01655288135436573,0.07917628698556574,0.05612822513736559,-0.020281205595307106, ,0.019820145909414902, ,0.09705287649104773, ,0.0005523288200826627, ,0.19609563314230874,-0.22914120711111544,0.10157598811000002,1.7018435813203996,0.5215415196046862,-1.309209464210405, ,0.09331066033281296,0.06438055736666945,0.017679036093229746,0.0,0.15437522922362237,-0.13717123123451055, ,1.6891329288482666
0.01348498170006232,0.02187907752957669,-0.09058022997844872, ,0.014175718058795162,0.021477069260615926,-0.09130809874533449, ,0.0010809811780952265, ,0.011525479716905816,-0.0015226596646170877,-0.02122570337180056,0.06324368505797283,0.0553942100207146,-0.019846854639398826, ,0.024200943344975728, ,0.08407305094491509, ,0.0005596712139439484, ,0.19701463835434146,-0.2284693293510579,0.10176265387000001,1.7018435813203996,0.523044521102106,-1.310516739891206, ,0.09107192088144989,0.07200071438427222,0.022371926292134834,0.0,0.15129172744603944,-0.1285008402880725, ,1.694502830505371
0.01348498170006232,0.02187907752957669,-0.09058022997844872, ,0.014248944674969398,0.021468858528817407,-0.09144470292305898, ,0.0012244315119989118, ,0.011525479716905816,-0.0015226596646170877,-0.02122570337180056,0.06324368505797283,0.0553942100207146,-0.019846854639398826, ,0.024200943344975728, ,0.08407305094491509, ,0.0005687775193967562, ,0.19701463835434146,-0.2284693293510579,0.10176265387000001,1.7018435813203996,0.523044521102106,-1.310516739891206, ,0.09107192088144989,0.07200071438427222,0.022371926292134834,0.0,0.15129172744603944,-0.1285008402880725, ,1.6998498439788818
0.013609330773550405,0.021870009692482782,-0.09083307736990825, ,0.014322472083063217,0.021460129263814146,-0.09158059475169034, ,0.0011114651273007045, ,0.013146542650812689,-0.0005721089904355467,-0.027698544855596075,-0.007170570950703094,-0.005449946307205103,-0.013074918919372683, ,0.030665424821515876, ,0.009005703685068065, ,0.0005761111357197824, ,0.1979104753677515,-0.22772794699513235,0.10202709703000001,1.7016338913769151,0.524274249599995,-1.3116011797646145, ,0.0885232663791705,0.07696426728180923,0.028804360795660042,-0.0028379117953332457,0.0864712702613417,-0.06534081560712121, ,1.7051749229431152
0.013609330773550405,0.021870009692482782,-0.09083307736990825, ,0.01439629602314527,0.021450891771164216,-0.09171578373376538, ,0.001254649218241563, ,0.013146542650812689,-0.0005721089904355467,-0.027698544855596075,-0.007170570950703094,-0.005449946307205103,-0.013074918919372683, ,0.030665424821515876, ,0.009005703685068065, ,0.0005851583101534062, ,0.19883720331265844,-0.22691706004333878,0.10233431776000002,1.701214511489946,0.5249574320988222,-1.3121582692830966, ,0.0906370024436206,0.07862215539227074,0.031479864664031625,-0.019181236211115883,0.04204707226538403,-0.029580015556619543, ,1.7105669975280762
0.013750109834845202,0.021862868809857744,-0.09112961996992348, ,0.014470412260101847,0.021441156296945985,-0.09185027930640338, ,0.0011027361001765574, ,0.01429021444270689,-0.00024059292355646232,-0.030400800294776972,-0.04937633918673893,-0.05423942659385432,0.003184550624025663, ,0.033592808342505776, ,0.07334788546043046, ,0.0005919685442326581, ,0.19883720331265844,-0.22691706004333878,0.10233431776000002,1.701214511489946,0.5249574320988222,-1.3121582692830966, ,0.0906370024436206,0.07862215539227074,0.031479864664031625,-0.019181236211115883,0.04204707226538403,-0.029580015556619543, ,1.7161428928375244
0.01388357234559204,0.021857370240970186,-0.09140980945747643, ,0.014544816583580535,0.02143093302788822,-0.09198409084147437, ,0.0009741107467740466, ,0.014047991282995657,-0.0009569002973619643,-0.02840281964105786,-0.02724045828202094,-0.031393059960663,0.014322105354216522, ,0.03170144919130158, ,0.04156378587937457, ,0.0005969314299799489, ,0.1997021493945716,-0.22616023222166476,0.10262468672000001,1.7010048215464617,0.525503978097884,-1.3126039408978825, ,0.09442481747111521,0.08042113691395829,0.02949779911111111,-0.03238155428817185,0.07257348134303342,-0.054958096666707486, ,1.721426010131836
0.01388357234559204,0.021857370240970186,-0.09140980945747643, ,0.014619504807932834,0.021420232091499666,-0.09211722764576857, ,0.0011104624459998807, ,0.014047991282995657,-0.0009569002973619643,-0.02840281964105786,-0.02724045828202094,-0.031393059960663,0.014322105354216522, ,0.03170144919130158, ,0.04156378587937457, ,0.0006035151609545634, ,0.1997021493945716,-0.22616023222166476,0.10262468672000001,1.7010048215464617,0.525503978097884,-1.3126039408978825, ,0.09442481747111521,0.08042113691395829,0.02949779911111111,-0.03238155428817185,0.07257348134303342,-0.054958096666707486, ,1.72676682472229
0.014033802870972355,0.021839052630650023,-0.09169543854678147, ,0.014694472772156849,0.021409063556199023,-0.09224969896116299, ,0.0009636285225276006, ,0.01464305152075179,-0.0022351229376580293,-0.027166075855357893,0.018413266729184752,0.018133541407444536,0.010011588309985756, ,0.03094204921728513, ,0.025842966546987475, ,0.0006080735579365006, ,0.20078333199696302,-0.22524122700963206,0.10292283342000001,1.7010048215464617,0.5267337065957729,-1.3136067020311502, ,0.10820631876678537,0.09098460360351944,0.028393603422459897,-0.03238155428817185,0.13788082301314436,-0.10864308948624783, ,1.7320787906646729
0.014033802870972355,0.021839052630650023,-0.09169543854678147, ,0.01476971633984341,0.021397437431446245,-0.09238151396479147, ,0.0010987684455931622, ,0.01464305152075179,-0.0022351229376580293,-0.027166075855357893,0.018413266729184752,0.018133541407444536,0.010011588309985756, ,0.03094204921728513, ,0.025842966546987475, ,0.0006142072440322088, ,0.20078333199696302,-0.22524122700963206,0.10292283342000001,1.7010048215464617,0.5267337065957729,-1.3136067020311502, ,0.10820631876678537,0.09098460360351944,0.028393603422459897,-0.03238155428817185,0.13788082301314436,-0.10864308948624783, ,1.7374038696289062
0.014187073449355806,0.02182132374649752,-0.09197097424223971, ,0.014845231399115612,0.02138536366787061,-0.09251268176921121, ,0.000957434134427005, ,0.015515020907622702,-0.0017539329633962822,-0.026309725123362715,0.020210714415657957,0.0024896415921142347,0.0067681719939214615, ,0.030594015602253992, ,0.020363169849634974, ,0.0006184446130494285, ,0.20193401919522247,-0.22435311272909622,0.10321320238000001,1.7010048215464617,0.5282367080931928,-1.3148322989718109, ,0.1178843994515165,0.08405397835116987,0.027798972984293194,-0.02767233374094811,0.1305929404970456,-0.10305518202684001, ,1.7426447868347168
0.014187073449355806,0.02182132374649752,-0.09197097424223971, ,0.01492101386257484,0.021372852157402325,-0.09264321142257272, ,0.001091649267394874, ,0.015515020907622702,-0.0017539329633962822,-0.026309725123362715,0.020210714415657957,0.0024896415921142347,0.0067681719939214615, ,0.030594015602253992, ,0.020363169849634974, ,0.0006242154015170559, ,0.20193401919522247,-0.22435311272909622,0.10321320238000001,1.7010048215464617,0.5282367080931928,-1.3148322989718109, ,0.1178843994515165,0.08405397835116987,0.027798972984293194,-0.02767233374094811,0.1305929404970456,-0.10305518202684001, ,1.748039960861206
0.014359249184997737,0.021796756780593323,-0.09224406198059155, ,0.014997059667242964,0.0213599127334018,-0.0927731119087872, ,0.0009367650502406571, ,0.015527992530059955,-0.002872916822304407,-0.023328860935964563,-0.012672689820163539,-0.0346762439405106,0.0015312581397763992, ,0.02817104818161814, ,0.036919263958873336, ,0.0006279810599354125, ,0.20324688378384065,-0.2234032165855666,0.10350097876000001,1.7010048215464617,0.5293298000913162,-1.3156419634612417, ,0.12058061189132248,0.0880305580319766,0.02454362329738059,-0.022535941378840393,0.09381031288598837,-0.074485115297122, ,1.7534739971160889
0.014359249184997737,0.021796756780593323,-0.09224406198059155, ,0.015073364774504801,0.02134655517078946,-0.09290239214769487, ,0.0010705331258607988, ,0.015527992530059955,-0.002872916822304407,-0.023328860935964563,-0.012672689820163539,-0.0346762439405106,0.0015312581397763992, ,0.02817104818161814, ,0.036919263958873336, ,0.0006332495369107148, ,0.20324688378384065,-0.2234032165855666,0.10350097876000001,1.7010048215464617,0.5293298000913162,-1.3156419634612417, ,0.12058061189132248,0.0880305580319766,0.02454362329738059,-0.022535941378840393,0.09381031288598837,-0.074485115297122, ,1.7587659358978271
0.014503863749962492,0.021764855121450724,-0.09246357008396504, ,0.015149925170052782,0.021332789186176187,-0.09303106099523342, ,0.0009623524641865705, ,0.014387194128763239,-0.003549515874758444,-0.021845795488969085,-0.03824587511544515,-0.049154930678011174,-0.003786852747725856, ,0.02639752258053289, ,0.06228121063191261, ,0.0006371213360551367, ,0.20435895731772896,-0.22253827050365346,0.10373042209000001,1.7005854416594925,0.530149619089909,-1.3163104708834201, ,0.10882676784228298,0.090723653497582,0.022690614700854702,-0.01681587845397711,0.06539343516279454,-0.051481911078754494, ,1.7640798091888428
0.014503863749962492,0.021764855121450724,-0.09246357008396504, ,0.015226736863830238,0.021318624437993688,-0.09315912724360642, ,0.001097937668513005, ,0.014387194128763239,-0.003549515874758444,-0.021845795488969085,-0.03824587511544515,-0.049154930678011174,-0.003786852747725856, ,0.02639752258053289, ,0.06228121063191261, ,0.0006424796655023212, ,0.20435895731772896,-0.22253827050365346,0.10373042209000001,1.7005854416594925,0.530149619089909,-1.3163104708834201, ,0.10882676784228298,0.090723653497582,0.022690614700854702,-0.01681587845397711,0.06539343516279454,-0.051481911078754494, ,1.769425868988037
0.014654269726676154,0.021725026666339804,-0.09270339188237044, ,0.015303795889973024,0.02130407052662326,-0.09328659962145142, ,0.0009691334146009796, ,0.014792665457005217,-0.003441090606564308,-0.02471867701524929,-0.009259365040866725,-0.013980102835828597,0.04074201696626661, ,0.029011670914817607, ,0.016768121178792228, ,0.0006462343062965586, ,0.20549419905023997,-0.22155748342862697,0.10397930977000001,1.699956371829039,0.531106074588267,-1.317090396209295, ,0.11060249598889368,0.09395736787967403,0.0257747759223301,-0.06598723711993214,0.1145840015054389,-0.09174468423748722, ,1.7747089862823486
0.014654269726676154,0.021725026666339804,-0.09270339188237044, ,0.015381098306753944,0.021289136994526885,-0.09341348679400821, ,0.0011056737196591627, ,0.014792665457005217,-0.003441090606564308,-0.02471867701524929,-0.009259365040866725,-0.013980102835828597,0.04074201696626661, ,0.029011670914817607, ,0.016768121178792228, ,0.0006514552087211336, ,0.20549419905023997,-0.22155748342862697,0.10397930977000001,1.699956371829039,0.531106074588267,-1.317090396209295, ,0.11060249598889368,0.09395736787967403,0.0257747759223301,-0.06598723711993214,0.1145840015054389,-0.09174468423748722, ,1.780014991760254
0.014795199526018144,0.021697294183237865,-0.09294314411431262, ,0.015458640196527923,0.021273833326377674,-0.09353979736328769, ,0.0009876576937845084, ,0.014440156720177554,-0.0027888083021998565,-0.025239772466618272,0.029143370818675077,0.02633019950021682,0.03272915608653645, ,0.02921201280323507, ,0.039276013359249046, ,0.0006552327647330816, ,0.2065444907211345,-0.2206848146138396,0.10423079003,1.6997466818855542,0.532335803086156,-1.318093157342563, ,0.10820631876678537,0.08868873042847737,0.026548019200000002,-0.0579910188885448,0.15177608123893332,-0.12218942482161635, ,1.7853248119354248
0.014795199526018144,0.021697294183237865,-0.09294314411431262, ,0.015536417665668772,0.02125816894918707,-0.09366553986823938, ,0.0011243179830540413, ,0.014440156720177554,-0.0027888083021998565,-0.025239772466618272,0.029143370818675077,0.02633019950021682,0.03272915608653645, ,0.02921201280323507, ,0.039276013359249046, ,0.0006604448227144256, ,0.2065444907211345,-0.2206848146138396,0.10423079003,1.6997466818855542,0.532335803086156,-1.318093157342563, ,0.10820631876678537,0.08868873042847737,0.026548019200000002,-0.0579910188885448,0.15177608123893332,-0.12218942482161635, ,1.7906699180603027
0.014946999755340667,0.021668421571497374,-0.0931981047937398, ,0.01561442684452165,0.021242153232439144,-0.0937907227849197, ,0.0009891206699519364, ,0.015130649621465864,-0.002836643028758985,-0.024579348859459442,0.008107628080405315,-0.0024840195244689627,-0.029528553054410055, ,0.029002198054547214, ,0.008479092808824336, ,0.0006640566452115411, ,0.20767973245364552,-0.21976580940180687,0.10449912206,1.69953699194207,0.5337021680838104,-1.3191256576393866, ,0.11243713454795115,0.0902062182114741,0.02585846025974026,0.007493598037917366,0.11163011387535643,-0.09102687275168964, ,1.7961030006408691
0.014946999755340667,0.021668421571497374,-0.0931981047937398, ,0.01569266388733907,0.021225795488217156,-0.09391535452666169, ,0.0011253355174015629, ,0.015130649621465864,-0.002836643028758985,-0.024579348859459442,0.008107628080405315,-0.0024840195244689627,-0.029528553054410055, ,0.029002198054547214, ,0.008479092808824336, ,0.0006690705459962153, ,0.20767973245364552,-0.21976580940180687,0.10449912206,1.69953699194207,0.5337021680838104,-1.3191256576393866, ,0.11243713454795115,0.0902062182114741,0.02585846025974026,0.007493598037917366,0.11163011387535643,-0.09102687275168964, ,1.801360845565796
0.01510876749646764,0.021637013468780393,-0.09345227945044952, ,0.01577112497222748,0.0212091049713351,-0.09403944344424128, ,0.0009831503768428945, ,0.015276274074456064,-0.00331649421513995,-0.023646530469156823,-0.02084213010609203,-0.034316677066533005,-0.01705440345294731, ,0.02834646515362572, ,0.040149985292254116, ,0.0006724477484784377, ,0.20887675604915032,-0.21880819052540304,0.10476615780000001,1.6997466818855542,0.5346586235821684,-1.319823904225121, ,0.11297254947436998,0.0916878662400684,0.024772646220839814,-0.0050113497452549454,0.0821956122385529,-0.06702501033314553, ,1.806562900543213
0.01510876749646764,0.021637013468780393,-0.09345227945044952, ,0.015849806301089713,0.021192090879467423,-0.0941629978260471, ,0.0011190242311267134, ,0.015276274074456064,-0.00331649421513995,-0.023646530469156823,-0.02084213010609203,-0.034316677066533005,-0.01705440345294731, ,0.02834646515362572, ,0.040149985292254116, ,0.0006771985621236321, ,0.20999655231591285,-0.21792779897774145,0.10499949000000001,1.6997466818855542,0.535751715580292,-1.3207152474546924, ,0.11629527151773382,0.09029204715363537,0.023018513757225436,-0.005328853270570472,0.11673695999570426,-0.0951911633344119, ,1.8119819164276123
0.015255477927039015,0.021604186790209992,-0.09367339689971266, ,0.01592870409956674,0.02117476235327826,-0.09428602589824785, ,0.001006455719968192, ,0.014981705701642332,-0.0036089782910507183,-0.02176603085795911,0.009826374072926546,-0.0041883762361746004,-0.017830305093602804, ,0.026669014405214263, ,0.010681537228367066, ,0.0006806644269430484, ,0.20999655231591285,-0.21792779897774145,0.10499949000000001,1.6997466818855542,0.535751715580292,-1.3207152474546924, ,0.11629527151773382,0.09029204715363537,0.023018513757225436,-0.005328853270570472,0.11673695999570426,-0.0951911633344119, ,1.8174078464508057
0.015395489354866081,0.02156284200454911,-0.09387387515415141, ,0.01600781461698634,0.02115712847655383,-0.09440853582496174, ,0.0011429351995044883, ,0.013953259239988563,-0.004249578509333895,-0.019768458400266083,0.01996119973277729,0.014252880971215895,-0.010398095162729947, ,0.026669014405214263, ,0.024527353949115697, ,0.0006854797474905635, ,0.21110090311692697,-0.2170319619643314,0.10521078527000001,1.6993273019985855,0.536981444078181,-1.32171800858796, ,0.11086091303559671,0.09133488119198342,0.020876555072083886,-0.014121048698921541,0.1320358139303313,-0.10766635288683801, ,1.823150873184204
0.015395489354866081,0.02156284200454911,-0.09387387515415141, ,0.016087134126297316,0.021139198276328517,-0.09453053570842307, ,0.0010435753838823393, ,0.013953259239988563,-0.004249578509333895,-0.019768458400266083,0.01996119973277729,0.014252880971215895,-0.010398095162729947, ,0.02456713879246766, ,0.024527353949115697, ,0.0006891714550822313, ,0.21110090311692697,-0.2170319619643314,0.10521078527000001,1.6993273019985855,0.536981444078181,-1.32171800858796, ,0.11086091303559671,0.09133488119198342,0.020876555072083886,-0.014121048698921541,0.1320358139303313,-0.10766635288683801, ,1.8286638259887695
0.015542788530643331,0.021519720805330406,-0.09408544814365476, ,0.016166658924021315,0.021120980723018736,-0.09465203358915232, ,0.0009323234353083641, ,0.014488960905365842,-0.0038264327979546393,-0.021056179540485654,0.0035050973054462156,-0.008645661819055545,0.04579774054324524, ,0.025844424406739053, ,0.009328935436950023, ,0.0006916525977375998, ,0.21225159031518642,-0.21610523401942444,0.10543374715,1.6986982321681319,0.53821117257607,-1.3226390909810872, ,0.11257051193175657,0.08690196113413075,0.022278058069930072,-0.07147195767802372,0.12279526068935337,-0.09900411215634508, ,1.8339688777923584
0.015542788530643331,0.021519720805330406,-0.09408544814365476, ,0.01624638533019303,0.021102484730551284,-0.0947730374461234, ,0.0010686035033177618, ,0.014488960905365842,-0.0038264327979546393,-0.021056179540485654,0.0035050973054462156,-0.008645661819055545,0.04579774054324524, ,0.025844424406739053, ,0.009328935436950023, ,0.00069546018264245, ,0.21225159031518642,-0.21610523401942444,0.10543374715,1.6986982321681319,0.53821117257607,-1.3226390909810872, ,0.11257051193175657,0.08690196113413075,0.022278058069930072,-0.07147195767802372,0.12279526068935337,-0.09900411215634508, ,1.8392808437347412
0.01569778296060522,0.021487784002467553,-0.09432120951929875, ,0.01632630968830122,0.021083719156492754,-0.09489355519693257, ,0.0009412193271958461, ,0.015383735385726486,-0.003085062709882568,-0.024562379730176005,-0.0022091608787305128,-0.013471897491761075,0.0263710764034365, ,0.029145967548724856, ,0.013651500778826074, ,0.000697917774087984, ,0.21334049565045207,-0.2152711788690082,0.10566578306,1.6986982321681319,0.5394409010739589,-1.3235601733742146, ,0.11270420612644985,0.08794897271406003,0.025486098432000007,-0.052349120890717075,0.11309540893937835,-0.09032815430230723, ,1.8445320129394531
0.01569778296060522,0.021487784002467553,-0.09432120951929875, ,0.016406428365235058,0.02106469280218044,-0.09501359469796555, ,0.0010773029791571373, ,0.015383735385726486,-0.003085062709882568,-0.024562379730176005,-0.0022091608787305128,-0.013471897491761075,0.0263710764034365, ,0.029145967548724856, ,0.013651500778826074, ,0.0007016740632470844, ,0.21334049565045207,-0.2152711788690082,0.10566578306,1.6986982321681319,0.5394409010739589,-1.3235601733742146, ,0.11270420612644985,0.08794897271406003,0.025486098432000007,-0.052349120890717075,0.11309540893937835,-0.09032815430230723, ,1.8498289585113525
0.01584947704788385,0.021461581902872288,-0.09456870994355476, ,0.01648673775122535,0.021045414412852022,-0.09513316374456747, ,0.0009475783224888401, ,0.01579788348974674,-0.0026413294402842877,-0.026084231035731223,-0.0010464351154617982,-0.004941639827165012,0.001748952590908837, ,0.030609424246351467, ,0.0050500253016639235, ,0.0007040848893180821, ,0.21450662831446,-0.21435217365697548,0.1059457817,1.6986982321681319,0.5405339930720824,-1.3241248016432237, ,0.11270420612644985,0.08778625491070376,0.027606259133448878,-0.02273998250279858,0.11595822566023137,-0.0850687863508922, ,1.855098009109497
0.01584947704788385,0.021461581902872288,-0.09456870994355476, ,0.016567234259791033,0.02102589267777635,-0.09525227007121012, ,0.0010827072384673893, ,0.01579788348974674,-0.0026413294402842877,-0.026084231035731223,-0.0010464351154617982,-0.004941639827165012,0.001748952590908837, ,0.030609424246351467, ,0.0050500253016639235, ,0.000707760834455454, ,0.21450662831446,-0.21435217365697548,0.1059457817,1.6986982321681319,0.5405339930720824,-1.3241248016432237, ,0.11270420612644985,0.08778625491070376,0.027606259133448878,-0.02273998250279858,0.11595822566023137,-0.0850687863508922, ,1.8604578971862793
0.016012466365386054,0.0214360491254099,-0.09484366033575786, ,0.01664791432767675,0.02100613623038143,-0.09537092135166073, ,0.0009309260921158439, ,0.015454848268445056,-0.002765178952327614,-0.026205951203647958,0.002182442119793787,0.018648839889025184,0.00036015638372130146, ,0.030549147747965615, ,0.018775780232753454, ,0.00070990665424065, ,0.21566503824559366,-0.213440891177817,0.10623744695000001,1.6986982321681319,0.5419003580697368,-1.3249122657196255, ,0.10983442310008192,0.0891051094445735,0.02775054271777004,-0.017553829617595353,0.13616514170154953,-0.08702221531312743, ,1.8657898902893066
0.016012466365386054,0.0214360491254099,-0.09484366033575786, ,0.016728774414801553,0.020986153648386633,-0.09548912519914947, ,0.0010640150618184754, ,0.015454848268445056,-0.002765178952327614,-0.026205951203647958,0.002182442119793787,0.018648839889025184,0.00036015638372130146, ,0.030549147747965615, ,0.018775780232753454, ,0.0007132791152652009, ,0.21566503824559366,-0.213440891177817,0.10623744695000001,1.6986982321681319,0.5419003580697368,-1.3249122657196255, ,0.10983442310008192,0.0891051094445735,0.02775054271777004,-0.017553829617595353,0.13616514170154953,-0.08702221531312743, ,1.871142864227295
0.01615350347584888,0.021410151519515724,-0.09507705674310979, ,0.01680981100420011,0.020965953453931856,-0.09560688916653907, ,0.0009532963286176548, ,0.01490881113774242,-0.002929139078972928,-0.02334501933583423,-0.012472546877242259,-0.001957199027030715,-0.013081085755657671, ,0.027853948249311315, ,0.012624900785287113, ,0.0007155434285987145, ,0.21667671625211707,-0.21263772695889765,0.10648503834,1.6984885422246472,0.5431300865676258,-1.3255066331521907, ,0.10783743358917133,0.08457837928562457,0.024772646220839814,-0.0016614159131320115,0.10940135871560205,-0.0655419275289222, ,1.8764870166778564
0.01615350347584888,0.021410151519515724,-0.09507705674310979, ,0.016891020601965744,0.02094554411370726,-0.09572422074649209, ,0.0010856393508534754, ,0.01490881113774242,-0.002929139078972928,-0.02334501933583423,-0.012472546877242259,-0.001957199027030715,-0.013081085755657671, ,0.027853948249311315, ,0.012624900785287113, ,0.0007190022689936188, ,0.21667671625211707,-0.21263772695889765,0.10648503834,1.6984885422246472,0.5431300865676258,-1.3255066331521907, ,0.10783743358917133,0.08457837928562457,0.024772646220839814,-0.0016614159131320115,0.10940135871560205,-0.0655419275289222, ,1.882066011428833
0.016304332404320644,0.021370067879876116,-0.09530224340728698, ,0.016972399737193195,0.020924934039083246,-0.09584112737163954, ,0.0009668784952137398, ,0.014457683958711285,-0.0040765399295490095,-0.020760929265371788,-0.05608682670743087,-0.036597154177038536,0.021162409991764625, ,0.02562535828449928, ,0.06697073963386321, ,0.0007212974192363976, ,0.21778106705313116,-0.21173416721261337,0.10672225941,1.6978594723941938,0.5440865420659838,-1.3262048797379251, ,0.10626757173400983,0.08811229485466182,0.02185022156378601,-0.03441495402656868,0.0792047029994834,-0.03285699182094885, ,1.888293981552124
0.016446076086833326,0.021328964173954402,-0.09549867060083062, ,0.01705394496192275,0.020904131586240923,-0.0959576164147491, ,0.0008721344833218783, ,0.013957917191361103,-0.004246910998034613,-0.018592154225343528,-0.03752734101308733,-0.03507187302273831,0.03956366845042668, ,0.023633194961432537, ,0.05136472894237954, ,0.0007226812455124113, ,0.21883908145689993,-0.21086922113070022,0.10692966581,1.6976497824507093,0.5449063610645766,-1.3266283509396817, ,0.10626757173400983,0.08368336998101479,0.01968950744128554,-0.058193353401437685,0.08580883674688417,-0.052792701981997564, ,1.8936378955841064
0.016446076086833326,0.021328964173954402,-0.09549867060083062, ,0.01713565285108535,0.02088314505630244,-0.09607369518889373, ,0.0010024590147918388, ,0.013957917191361103,-0.004246910998034613,-0.018592154225343528,-0.03752734101308733,-0.03507187302273831,0.03956366845042668, ,0.023633194961432537, ,0.05136472894237954, ,0.0007252246797785879, ,0.21883908145689993,-0.21086922113070022,0.10692966581,1.6976497824507093,0.5449063610645766,-1.3266283509396817, ,0.10626757173400983,0.08368336998101479,0.01968950744128554,-0.058193353401437685,0.08580883674688417,-0.052792701981997564, ,1.8990449905395508
0.016589381916861247,0.021286291989599554,-0.0956835927836358, ,0.017217520002440867,0.020861982695459448,-0.0961893709476197, ,0.0009112669108511644, ,0.013699865058503987,-0.004491122609930285,-0.017514145794778783,0.022083140359841442,-0.005597584317006344,0.008766988086250052, ,0.022684836076979107, ,0.022781492277406293, ,0.0007269007359143769, ,0.21994343225791405,-0.2100042750487871,0.10712670189000001,1.6976497824507093,0.5458628165629346,-1.3272449187852757, ,0.10771503014582383,0.08457837928562457,0.01869578816901409,-0.03973248065279753,0.1135130942754603,-0.11049749777132942, ,1.9043018817901611
0.016589381916861247,0.021286291989599554,-0.0956835927836358, ,0.017299543036526668,0.020840652695104975,-0.09630465088511482, ,0.0010433773823956445, ,0.013699865058503987,-0.004491122609930285,-0.017514145794778783,0.022083140359841442,-0.005597584317006344,0.008766988086250052, ,0.022684836076979107, ,0.022781492277406293, ,0.0007297264202579596, ,0.21994343225791405,-0.2100042750487871,0.10712670189000001,1.6976497824507093,0.5458628165629346,-1.3272449187852757, ,0.10771503014582383,0.08457837928562457,0.01869578816901409,-0.03973248065279753,0.1135130942754603,-0.11049749777132942, ,1.909531831741333
0.016589381916861247,0.021286291989599554,-0.0956835927836358, ,0.01738171859659824,0.020819163191962288,-0.09641954213637736, ,0.0011779763059753786, ,0.013699865058503987,-0.004491122609930285,-0.017514145794778783,0.022083140359841442,-0.005597584317006344,0.008766988086250052, ,0.022684836076979107, ,0.022781492277406293, ,0.0007336932334059014, ,0.21994343225791405,-0.2100042750487871,0.10712670189000001,1.6976497824507093,0.5458628165629346,-1.3272449187852757, ,0.10771503014582383,0.08457837928562457,0.01869578816901409,-0.03973248065279753,0.1135130942754603,-0.11049749777132942, ,1.9148399829864502
0.016718904605741724,0.02124781880030922,-0.09585436140647377, ,0.01746404334857176,0.020797522268214973,-0.09653405177738325, ,0.0011045260129075726, ,0.01403005495116966,-0.004136319376191881,-0.01934427821870476,0.01804866906050065,-0.0028991235829902676,0.0018874144140033442, ,0.02425185930433698, ,0.018279952507981624, ,0.0007369461525243371, ,0.22094738753156323,-0.2092165562956162,0.10730947878000001,1.6976497824507093,0.5469559085610581,-1.328136262014847, ,0.10638670578303898,0.08510936462643119,0.020606483208279434,-0.030968436653213704,0.11302961154848987,-0.10484869517529882, ,1.9201159477233887
0.01686518571416679,0.0212082485959926,-0.09605443926408816, ,0.017546513980969087,0.020775737951637292,-0.09664818682525547, ,0.001001903104604731, ,0.014392164449649665,-0.0035556549101334123,-0.019463040639369267,-0.02056626526132833,-0.04792127410190873,-0.023177692246445638, ,0.02446603830446309, ,0.05214802954534386, ,0.0007392501260206883, ,0.22202857013395466,-0.2083670556794515,0.10752207034000001,1.6974400925072246,0.5477757275596508,-1.328886448177166, ,0.10474276110206487,0.08042113691395829,0.02068676820779221,0.0,0.05841613843042042,-0.05653590753262085, ,1.9254329204559326
0.01686518571416679,0.0212082485959926,-0.09605443926408816, ,0.01762912720486076,0.02075381821572422,-0.0967619542384319, ,0.0011360858289034385, ,0.014392164449649665,-0.0035556549101334123,-0.019463040639369267,-0.02056626526132833,-0.04792127410190873,-0.023177692246445638, ,0.02446603830446309, ,0.05214802954534386, ,0.0007426711234593327, ,0.22202857013395466,-0.2083670556794515,0.10752207034000001,1.6974400925072246,0.5477757275596508,-1.328886448177166, ,0.10474276110206487,0.08042113691395829,0.02068676820779221,0.0,0.05841613843042042,-0.05653590753262085, ,1.9308009147644043
0.016988797668738943,0.021175215073212624,-0.09622179222092665, ,0.017711879753809293,0.020731770979821276,-0.0968753609168335, ,0.0010708138988557929, ,0.015066138384192657,-0.003759222006633778,-0.02072138691206365,-0.04461877987563162,-0.0638071348886605,-0.007406784163777384, ,0.025893940439149964, ,0.07786001643988663, ,0.0007454757625652854, ,0.22293212988023892,-0.2076720097207713,0.10769966207000001,1.6970207126202554,0.5483222735587124,-1.3294137985320924, ,0.10747105499260563,0.08420314246536893,0.021940511735537193,-0.013916973490714262,0.04784219326755098,-0.03901210065582942, ,1.9361658096313477
0.016988797668738943,0.021175215073212624,-0.09622179222092665, ,0.017794768383809938,0.020709604109254053,-0.09698841370203273, ,0.0012058568980620218, ,0.015066138384192657,-0.003759222006633778,-0.02072138691206365,-0.04461877987563162,-0.0638071348886605,-0.007406784163777384, ,0.025893940439149964, ,0.07786001643988663, ,0.000749377297611868, ,0.22293212988023892,-0.2076720097207713,0.10769966207000001,1.6970207126202554,0.5483222735587124,-1.3294137985320924, ,0.10747105499260563,0.08420314246536893,0.021940511735537193,-0.013916973490714262,0.04784219326755098,-0.03901210065582942, ,1.9414558410644531
0.01717328872528258,0.021133209132752698,-0.09650216054999039, ,0.01787778987323891,0.020687325415459423,-0.09710111937742222, ,0.0010265894183058616, ,0.015676121001520178,-0.0029244040289824226,-0.025815892760979883,0.02263112434834096,0.011626532125288276,0.04730516748774153, ,0.030343915825506836, ,0.025442731219386543, ,0.0007517068112311452, ,0.22423727173598287,-0.20664488624849944,0.10799780877000001,1.696391642789802,0.5495520020566015,-1.3304165596653603, ,0.10895171246667139,0.08397959429953167,0.027558497439446373,-0.07660345993581208,0.14004875586899793,-0.11703880301855801, ,1.9468178749084473
0.01717328872528258,0.021133209132752698,-0.09650216054999039, ,0.01796094102279092,0.0206649426561141,-0.09721348466838228, ,0.0011600222568208327, ,0.015676121001520178,-0.0029244040289824226,-0.025815892760979883,0.02263112434834096,0.011626532125288276,0.04730516748774153, ,0.030343915825506836, ,0.025442731219386543, ,0.0007551094399443926, ,0.22423727173598287,-0.20664488624849944,0.10799780877000001,1.696391642789802,0.5495520020566015,-1.3304165596653603, ,0.10895171246667139,0.08397959429953167,0.027558497439446373,-0.07660345993581208,0.14004875586899793,-0.11703880301855801, ,1.9520659446716309
0.01732908743172583,0.021107481518857853,-0.09675627936037644, ,0.018044218655428698,0.020642463535266206,-0.09732551624244996, ,0.001025516952610338, ,0.01612524870300016,-0.002244986063307713,-0.025198870856096286,0.025985985401181893,0.0045114117293229995,-0.048137800921065704, ,0.03000077833290785, ,0.02637449739404126, ,0.0007573442127763426, ,0.2253184543383743,-0.20583399929670584,0.10827002967000002,1.6959722629028329,0.5509183670542559,-1.3315307387023245, ,0.11151226975143451,0.08042113691395829,0.027089815510204087,0.025307286232832966,0.11385353120262781,-0.09555562151299421, ,1.957366943359375
0.017490176318556094,0.02108065249867133,-0.09700193070648706, ,0.01812761961632001,0.020619895703463658,-0.09743722070948731, ,0.000898948368320525, ,0.01589106006676715,-0.0028463752413118845,-0.024008538506950467,0.0016678091402888733,-0.01814123702548771,-0.04102652018346454, ,0.028931601464483057, ,0.018217521547809864, ,0.000758504902575885, ,0.2253184543383743,-0.20583399929670584,0.10827002967000002,1.6959722629028329,0.5509183670542559,-1.3315307387023245, ,0.11151226975143451,0.08042113691395829,0.027089815510204087,0.025307286232832966,0.11385353120262781,-0.09555562151299421, ,1.9635279178619385
0.017490176318556094,0.02108065249867133,-0.09700193070648706, ,0.01821114077278599,0.020597246757885643,-0.09754860462184875, ,0.0010258280675748967, ,0.01589106006676715,-0.0028463752413118845,-0.024008538506950467,0.0016678091402888733,-0.01814123702548771,-0.04102652018346454, ,0.028931601464483057, ,0.018217521547809864, ,0.0007606782616409177, ,0.22643052787226262,-0.20501538961203805,0.10853317654000001,1.6959722629028329,0.551874822552614,-1.3323106640281992, ,0.10945437319316122,0.08287942494189587,0.02569163148387097,0.01834460550081231,0.08995052927533302,-0.07582568181970463, ,1.9689829349517822
0.017592488535007344,0.021061315268376866,-0.09715673832410855, ,0.0182947790142394,0.020574524242471075,-0.09765967447455107, ,0.0009915251845234885, ,0.015434425177282841,-0.003315435202310923,-0.022891546095568115,-0.008041850414817716,-0.024095840351583065,-0.0220771136067056, ,0.02780712990906082, ,0.025402255693641608, ,0.0007625399303738416, ,0.22714101929669128,-0.20446707557796812,0.10869910166,1.6961819528463176,0.5525580050514411,-1.332949432286822, ,0.10686592517845808,0.08383122045801306,0.024430692515337426,-0.0014151906139606171,0.08532325461178784,-0.07146670936472464, ,1.9742980003356934
0.017592488535007344,0.021061315268376866,-0.09715673832410855, ,0.018378531252134348,0.02055173564805039,-0.09777043670543983, ,0.0011198929617821142, ,0.015434425177282841,-0.003315435202310923,-0.022891546095568115,-0.008041850414817716,-0.024095840351583065,-0.0220771136067056, ,0.02780712990906082, ,0.025402255693641608, ,0.0007653987546251078, ,0.22714101929669128,-0.20446707557796812,0.10869910166,1.6961819528463176,0.5525580050514411,-1.332949432286822, ,0.10686592517845808,0.08383122045801306,0.024430692515337426,-0.0014151906139606171,0.08532325461178784,-0.07146670936472464, ,1.979597806930542
0.017791339843305713,0.021007985394415136,-0.09742517897778485, ,0.018462394419903203,0.02052888841247401,-0.09788089769535906, ,0.0009420868921840533, ,0.014241152285225465,-0.004555786171340422,-0.01720865025711782,0.009024771120809762,-0.01043474412210776,-0.022676104300684872, ,0.022797000893138557, ,0.013795972945797973, ,0.0007668010414311312, ,0.22858517034417125,-0.20334727931120555,0.10898687804000001,1.6959722629028329,0.5537877335493301,-1.3340338721602303, ,0.1087021094598749,0.08383122045801306,0.0185867112252042,-0.003136588680847101,0.10157649283466885,-0.08863878155426891, ,1.984879970550537
0.017791339843305713,0.021007985394415136,-0.09742517897778485, ,0.018546365472904017,0.02050598992074324,-0.09799106376831909, ,0.0010687790946193527, ,0.014241152285225465,-0.004555786171340422,-0.01720865025711782,0.009024771120809762,-0.01043474412210776,-0.022676104300684872, ,0.022797000893138557, ,0.013795972945797973, ,0.000769178821377495, ,0.22858517034417125,-0.20334727931120555,0.10898687804000001,1.6959722629028329,0.5537877335493301,-1.3340338721602303, ,0.1087021094598749,0.08383122045801306,0.0185867112252042,-0.003136588680847101,0.10157649283466885,-0.08863878155426891, ,1.9901649951934814
0.0179345066149826,0.020958521864913447,-0.09759492802444783, ,0.018630441388363294,0.020483047505140267,-0.0981009411916648, ,0.00098308209270595, ,0.014922547225974624,-0.00467674909399378,-0.017751040644066768,-0.024646928683276576,-0.04973577473159204,0.019584769262550913, ,0.023657004073781723, ,0.055507806831209885, ,0.0007708499406847486, ,0.22968179841231115,-0.2025055014279151,0.10916965493000001,1.6953431930723792,0.5547441890476882,-1.3348137974861054, ,0.11177496061068408,0.08375722997217191,0.019099294388489212,-0.04612290732884658,0.07320373339378729,-0.06535365535117522, ,1.995473861694336
0.0179345066149826,0.020958521864913447,-0.09759492802444783, ,0.018714619165315628,0.020460068445357145,-0.09821053617624406, ,0.0011117575271669834, ,0.014922547225974624,-0.00467674909399378,-0.017751040644066768,-0.024646928683276576,-0.04973577473159204,0.019584769262550913, ,0.023657004073781723, ,0.055507806831209885, ,0.0007734926351536032, ,0.22968179841231115,-0.2025055014279151,0.10916965493000001,1.6953431930723792,0.5547441890476882,-1.3348137974861054, ,0.11177496061068408,0.08375722997217191,0.019099294388489212,-0.04612290732884658,0.07320373339378729,-0.06535365535117522, ,2.000767946243286
0.0179345066149826,0.020958521864913447,-0.09759492802444783, ,0.018798895824552107,0.020437059968627283,-0.09831985487657578, ,0.0012428234612505118, ,0.014922547225974624,-0.00467674909399378,-0.017751040644066768,-0.024646928683276576,-0.04973577473159204,0.019584769262550913, ,0.023657004073781723, ,0.055507806831209885, ,0.0007771028722774255, ,0.22968179841231115,-0.2025055014279151,0.10916965493000001,1.6953431930723792,0.5547441890476882,-1.3348137974861054, ,0.11177496061068408,0.08375722997217191,0.019099294388489212,-0.04612290732884658,0.07320373339378729,-0.06535365535117522, ,2.0062429904937744
0.018144069831967913,0.020900993985620005,-0.09785418716955928, ,0.018883268408560163,0.020414029249854262,-0.09842890339101874, ,0.0010553899396545583, ,0.015248817757591755,-0.004253178219361505,-0.019347338617545035,0.012610697427518948,-0.008398392249842863,0.022295621261694442, ,0.0249987095577321, ,0.015151236620699692, ,0.0007792272010360296, ,0.23122634498715605,-0.2013702596954041,0.10944965357000001,1.695133503128895,0.5558372810458118,-1.3357868194558173, ,0.1141960788910599,0.08266284107880731,0.021014263218997364,-0.05066139787595454,0.11900083445553525,-0.10118526290960084, ,2.0117948055267334
0.01831441343848251,0.020859405263228062,-0.0980726580395134, ,0.01896773398146862,0.020390983411742666,-0.09853768776193923, ,0.0009287084610232209, ,0.01578171883969405,-0.0038185782751148224,-0.021378296998832605,0.02502898013766261,0.003075036767386974,0.00657018152501843, ,0.026845405047207394, ,0.0252170821547459, ,0.0007803596348238112, ,0.23249287317852887,-0.20047442268199406,0.10968817093000001,1.695133503128895,0.5572036460434662,-1.336982677232922, ,0.11474841784579294,0.08302444580793594,0.023219841865889216,-0.03554256330878503,0.12820075148797866,-0.11042054707648467, ,2.017772912979126
0.01831441343848251,0.020859405263228062,-0.0980726580395134, ,0.019052289628990766,0.020367929524927747,-0.09864621397587994, ,0.0010559242804283454, ,0.01578171883969405,-0.0038185782751148224,-0.021378296998832605,0.02502898013766261,0.003075036767386974,0.00657018152501843, ,0.026845405047207394, ,0.0252170821547459, ,0.0007824315494524168, ,0.23249287317852887,-0.20047442268199406,0.10968817093000001,1.695133503128895,0.5572036460434662,-1.336982677232922, ,0.11474841784579294,0.08302444580793594,0.023219841865889216,-0.03554256330878503,0.12820075148797866,-0.11042054707648467, ,2.023052930831909
0.018470700169788738,0.020822018020246625,-0.09829261617195596, ,0.01913693245836412,0.02034487460810476,-0.09875448796372803, ,0.0009406682997345621, ,0.015758449356828127,-0.00399518466416802,-0.02229061443246251,0.012798376107817887,-0.003435576659411025,-0.0008739066708398158, ,0.027589159436438547, ,0.01325126842398286, ,0.0007836124207231791, ,0.2336126694452914,-0.19962492206582935,0.10992668829,1.695133503128895,0.5585700110411206,-1.3380968562698863, ,0.11086091303559671,0.08634844545811718,0.02402535674208145,-0.028000534808769066,0.11595645616106445,-0.1000824259249472, ,2.028319835662842
0.018470700169788738,0.020822018020246625,-0.09829261617195596, ,0.019221659598301546,0.020321825628160647,-0.098862515600883, ,0.0010672009424022883, ,0.015758449356828127,-0.00399518466416802,-0.02229061443246251,0.012798376107817887,-0.003435576659411025,-0.0008739066708398158, ,0.027589159436438547, ,0.01325126842398286, ,0.0007857130764393206, ,0.2336126694452914,-0.19962492206582935,0.10992668829,1.695133503128895,0.5585700110411206,-1.3380968562698863, ,0.11086091303559671,0.08634844545811718,0.02402535674208145,-0.028000534808769066,0.11595645616106445,-0.1000824259249472, ,2.033583879470825
0.018604913719694142,0.020786910897510676,-0.09847685824466629, ,0.019306468198925224,0.02029878950030212,-0.0989703027074263, ,0.0009868782212464405, ,0.015758449356828127,-0.00399518466416802,-0.02229061443246251,0.012798376107817887,-0.003435576659411025,-0.0008739066708398158, ,0.027589159436438547, ,0.01325126842398286, ,0.0007871922319158436, ,0.2345548428559468,-0.19889126244277802,0.11012502066000002,1.6949238131854105,0.5593898300397131,-1.3388470424322052, ,0.1111205404665934,0.0846538283304824,0.022246943463687153,0.0,0.0904217780167067,-0.07271091368185516, ,2.0389089584350586
0.018604913719694142,0.020786910897510676,-0.09847685824466629, ,0.019391355431717154,0.020275773088187187,-0.099077855048288, ,0.0011139791669924632, ,0.015758449356828127,-0.00399518466416802,-0.02229061443246251,0.012798376107817887,-0.003435576659411025,-0.0008739066708398158, ,0.027589159436438547, ,0.01325126842398286, ,0.0007895775380112934, ,0.2345548428559468,-0.19889126244277802,0.11012502066000002,1.6949238131854105,0.5593898300397131,-1.3388470424322052, ,0.1111205404665934,0.0846538283304824,0.022246943463687153,0.0,0.0904217780167067,-0.07271091368185516, ,2.044376850128174
0.018785047608358564,0.020738558950049314,-0.09870684680226857, ,0.019476318489459677,0.02025278320405436,-0.09918517833341606, ,0.0009708936914745926, ,0.016005954284699243,-0.0039933212328926385,-0.020111526303739698,-0.012172548389677093,-0.0347521145900298,-0.006100339711524369, ,0.026011741143163927, ,0.036822236658789975, ,0.0007908914231813172, ,0.23584453924594231,-0.19794908903212263,0.11037390834000001,1.6942947433549567,0.5603462855380713,-1.3396269677580803, ,0.11488733844851184,0.08180770824006102,0.021880235604395604,-0.01786831641480295,0.08581327894282918,-0.06896777750196216, ,2.049942970275879
0.018785047608358564,0.020738558950049314,-0.09870684680226857, ,0.019561354586174126,0.020229826608852235,-0.09929227821794498, ,0.0010973563966396127, ,0.016005954284699243,-0.0039933212328926385,-0.020111526303739698,-0.012172548389677093,-0.0347521145900298,-0.006100339711524369, ,0.026011741143163927, ,0.036822236658789975, ,0.0007930962071630316, ,0.23584453924594231,-0.19794908903212263,0.11037390834000001,1.6942947433549567,0.5603462855380713,-1.3396269677580803, ,0.11488733844851184,0.08180770824006102,0.021880235604395604,-0.01786831641480295,0.08581327894282918,-0.06896777750196216, ,2.055250883102417
0.018943304968783648,0.020694257645238218,-0.09890624111457058, ,0.019646460957076655,0.02020691001237131,-0.09939916030236247, ,0.000987372971488843, ,0.016397875699695363,-0.004685866992663338,-0.020160515346992175,-0.00042070911365371596,-0.018578336257650898,0.04187068715728589, ,0.026406326060092085, ,0.0185830095455649, ,0.0007944838983367874, ,0.23698750371132754,-0.1971150338817064,0.11059038877,1.6936656735245033,0.5613027410364293,-1.3404068930839552, ,0.12088782364136405,0.08611337709480106,0.022031551203319507,-0.07124078995385869,0.11921072338033151,-0.09631752813069895, ,2.0605318546295166
0.018943304968783648,0.020694257645238218,-0.09890624111457058, ,0.01973163485850802,0.020184040073371923,-0.09950583013267997, ,0.001114133284805438, ,0.016397875699695363,-0.004685866992663338,-0.020160515346992175,-0.00042070911365371596,-0.018578336257650898,0.04187068715728589, ,0.026406326060092085, ,0.0185830095455649, ,0.000796750915262097, ,0.23698750371132754,-0.1971150338817064,0.11059038877,1.6936656735245033,0.5613027410364293,-1.3404068930839552, ,0.12088782364136405,0.08611337709480106,0.022031551203319507,-0.07124078995385869,0.11921072338033151,-0.09631752813069895, ,2.06584095954895
0.019106236007694483,0.02065050323824779,-0.09910517378814868, ,0.019816873567883787,0.020161223399715364,-0.0996122932005995, ,0.0010007849923088343, ,0.01596940868455446,-0.004168437459526241,-0.019216754480956805,0.03427282418940384,0.0139093670734919,-0.03605375076865988, ,0.025331433780378054, ,0.03698775945777358, ,0.0007981877749596092, ,0.2381999727725808,-0.1962655332655417,0.11080946178000001,1.6934559835810188,0.5626691060340837,-1.3415210721209194, ,0.11906768075090436,0.08287942494189587,0.021238415360000002,0.010243355959551703,0.13427244698361998,-0.10869665857059457, ,2.0714058876037598
0.019106236007694483,0.02065050323824779,-0.09910517378814868, ,0.019902174383636295,0.020138466548493595,-0.0997185549436817, ,0.0011278013619048146, ,0.01596940868455446,-0.004168437459526241,-0.019216754480956805,0.03427282418940384,0.0139093670734919,-0.03605375076865988, ,0.025331433780378054, ,0.03698775945777358, ,0.0008004927650781071, ,0.2381999727725808,-0.1962655332655417,0.11080946178000001,1.6934559835810188,0.5626691060340837,-1.3415210721209194, ,0.11906768075090436,0.08287942494189587,0.021238415360000002,0.010243355959551703,0.13427244698361998,-0.10869665857059457, ,2.076737880706787
0.019253322927386185,0.020610386635603245,-0.09928124307631087, ,0.01998753462515835,0.020115776026159427,-0.09982462074551574, ,0.0010387327680931157, ,0.01574632051863065,-0.004331368474680579,-0.01945551409382019,0.0264051897971782,0.010229658974565979,-0.03584397397659087, ,0.025401267515495, ,0.02831743603275899, ,0.0008021472095434891, ,0.23929660084072066,-0.19549325997811923,0.11100390528000001,1.6934559835810188,0.5638988345319728,-1.3425238332541871, ,0.11530612583046268,0.08442788394881742,0.02138095506040269,0.009836790439808044,0.1267281710991645,-0.10261834930210362, ,2.0820698738098145
0.019253322927386185,0.020610386635603245,-0.09928124307631087, ,0.020072951632743558,0.02009315828865611,-0.09993049593588636, ,0.001166552893442226, ,0.01644763254505879,-0.004117698678423166,-0.021155942535459483,-0.006412565372845507,-0.026871970238197176,-0.0249678947093335, ,0.027111878638471896, ,0.027626428309399462, ,0.0008046603521910666, ,0.2405708517649677,-0.19455108656746384,0.11124890409000002,1.6936656735245033,0.5651285630298617,-1.343526594387455, ,0.11474841784579294,0.0846538283304824,0.023051825643994214,2.8631173444377876e-05,0.09009185387420016,-0.07329835193819612, ,2.0877490043640137
0.019431213682461,0.02056354135526442,-0.09950499217086958, ,0.020158422767537657,0.020070619741548255,-0.1000361857909418, ,0.001026631108379247, ,0.01644763254505879,-0.004117698678423166,-0.021155942535459483,-0.006412565372845507,-0.026871970238197176,-0.0249678947093335, ,0.027111878638471896, ,0.027626428309399462, ,0.0008061806998361912, ,0.2405708517649677,-0.19455108656746384,0.11124890409000002,1.6936656735245033,0.5651285630298617,-1.343526594387455, ,0.11474841784579294,0.0846538283304824,0.023051825643994214,2.8631173444377876e-05,0.09009185387420016,-0.07329835193819612, ,2.093261957168579
0.01958914521844235,0.020520769111613563,-0.09970994239051306, ,0.020243945411470104,0.02004816674015055,-0.1001416955333634, ,0.0009157112375977425, ,0.01634356159197441,-0.004118948258531675,-0.020860235650119595,-0.00508169311639551,-0.025414196231858983,-0.009440755309086673, ,0.026818411057436695, ,0.025917195547554117, ,0.0008069258055352493, ,0.2416752025659818,-0.19372475414992182,0.11147186597000001,1.693246293637534,0.5660850185282198,-1.34430651971333, ,0.11433366452827805,0.08302444580793594,0.022787999313304726,-0.01625237914493045,0.09434594743275902,-0.07676727998624147, ,2.098543882369995
0.01958914521844235,0.020520769111613563,-0.09970994239051306, ,0.020329516967205967,0.02002580558965872,-0.10024703033253354, ,0.0010400012845650896, ,0.01634356159197441,-0.004118948258531675,-0.020860235650119595,-0.00508169311639551,-0.025414196231858983,-0.009440755309086673, ,0.026818411057436695, ,0.025917195547554117, ,0.0008085006398530185, ,0.2416752025659818,-0.19372475414992182,0.11147186597000001,1.693246293637534,0.5660850185282198,-1.34430651971333, ,0.11433366452827805,0.08302444580793594,0.022787999313304726,-0.01625237914493045,0.09434594743275902,-0.07676727998624147, ,2.1037979125976562
0.01975591008572934,0.02047600441726198,-0.09992276067044706, ,0.02041513485808885,0.020003542545279397,-0.10035219530470264, ,0.0009177208867994491, ,0.016365925999048687,-0.004392480075798598,-0.020417884581291665,-0.006850705520482059,-0.030816139284773822,0.04718161377286157, ,0.026533515142128705, ,0.031568387003046545, ,0.0008092336616446053, ,0.2428413352299897,-0.19287525353375712,0.11170390188000001,1.6926172238070805,0.5670414740265779,-1.3450047662990643, ,0.11601093100057551,0.08166690323448432,0.022371926292134834,-0.07764799533595927,0.102517114458217,-0.08827155401637782, ,2.109057903289795
0.01975591008572934,0.02047600441726198,-0.09992276067044706, ,0.02050079652807787,0.019981383812359796,-0.10045719551315987, ,0.001041693791809249, ,0.016365925999048687,-0.004392480075798598,-0.020417884581291665,-0.006850705520482059,-0.030816139284773822,0.04718161377286157, ,0.026533515142128705, ,0.031568387003046545, ,0.000810783395845703, ,0.2428413352299897,-0.19287525353375712,0.11170390188000001,1.6926172238070805,0.5670414740265779,-1.3450047662990643, ,0.11601093100057551,0.08166690323448432,0.022371926292134834,-0.07764799533595927,0.102517114458217,-0.08827155401637782, ,2.1144659519195557
0.019922416002947783,0.020432100155099175,-0.10012514564787824, ,0.020586499441698745,0.01995933554651802,-0.10056203596839887, ,0.0009248709860920153, ,0.015713684945649488,-0.004733958895141351,-0.018686734260419037,0.0006466899096148665,-0.02019468024258334,0.025097834448836842, ,0.024870148747274067, ,0.020204975608618427, ,0.0008115389428009766, ,0.2440306360926203,-0.19202575291759244,0.11192686376000001,1.6926172238070805,0.5681345660247014,-1.3458961095286357, ,0.11351308798860141,0.08230437255721663,0.02055330518709678,-0.05486754500376627,0.10632301552434889,-0.09092767584158312, ,2.119830846786499
0.019922416002947783,0.020432100155099175,-0.10012514564787824, ,0.020672241083980743,0.019937403853772837,-0.1006667216282882, ,0.0010489359490688929, ,0.015713684945649488,-0.004733958895141351,-0.018686734260419037,0.0006466899096148665,-0.02019468024258334,0.025097834448836842, ,0.024870148747274067, ,0.020204975608618427, ,0.000813100765210634, ,0.2440306360926203,-0.19202575291759244,0.11192686376000001,1.6926172238070805,0.5681345660247014,-1.3458961095286357, ,0.11351308798860141,0.08230437255721663,0.02055330518709678,-0.05486754500376627,0.10632301552434889,-0.09092767584158312, ,2.1251189708709717
0.020073887182906078,0.020387131515662297,-0.10030089247973704, ,0.02075801896040416,0.01991559479067393,-0.10077125739823803, ,0.0009547912486778852, ,0.015529962541144639,-0.004946976542916374,-0.017594873111128347,0.01626138568654639,-0.002641815473865017,0.0093243049313975, ,0.02398399202055879, ,0.016474530863143242, ,0.0008140268468019232, ,0.2451349868936344,-0.1912225886986731,0.11212130726000001,1.6926172238070805,0.5692276580228249,-1.3467057740180666, ,0.11502659582844943,0.08287942494189587,0.01952060235294118,-0.03908710864792325,0.12274396279303504,-0.10286343156282113, ,2.1304287910461426
0.020073887182906078,0.020387131515662297,-0.10030089247973704, ,0.02084383059684174,0.019893914364431733,-0.10087564813136969, ,0.0010800092953371112, ,0.015529962541144639,-0.004946976542916374,-0.017594873111128347,0.01626138568654639,-0.002641815473865017,0.0093243049313975, ,0.02398399202055879, ,0.016474530863143242, ,0.0008157540055586453, ,0.2451349868936344,-0.1912225886986731,0.11212130726000001,1.6926172238070805,0.5692276580228249,-1.3467057740180666, ,0.11502659582844943,0.08287942494189587,0.01952060235294118,-0.03908710864792325,0.12274396279303504,-0.10286343156282113, ,2.1356489658355713
0.0202331701580515,0.02033961125075551,-0.10048415391942446, ,0.020929673539502626,0.019872368533047587,-0.1009798986286832, ,0.0009742666649239171, ,0.015409133179476238,-0.004587527496535014,-0.018284644456487077,0.01832107766289074,0.004822063676642008,0.002496460456867924, ,0.024347792852216478, ,0.01894497667083642, ,0.000816776667877131, ,0.24630111955764228,-0.1903808108153826,0.11232482479000001,1.6926172238070805,0.5704573865207139,-1.347790213891475, ,0.11190677070574384,0.080832147835154,0.020265663511450382,-0.030176779261531325,0.12544183492948902,-0.10050688991789783, ,2.140929937362671
0.0202331701580515,0.02033961125075551,-0.10048415391942446, ,0.021015545354873138,0.01985096320544345,-0.10108401363922598, ,0.0011003270169496653, ,0.015409133179476238,-0.004587527496535014,-0.018284644456487077,0.01832107766289074,0.004822063676642008,0.002496460456867924, ,0.024347792852216478, ,0.01894497667083642, ,0.0008185942983199036, ,0.24630111955764228,-0.1903808108153826,0.11232482479000001,1.6926172238070805,0.5704573865207139,-1.347790213891475, ,0.11190677070574384,0.080832147835154,0.020265663511450382,-0.030176779261531325,0.12544183492948902,-0.10050688991789783, ,2.146270990371704
0.020388876534848218,0.020296227758940064,-0.10067111373855141, ,0.021101443629666178,0.019829704241592343,-0.10118799786026046, ,0.0009962756908259564, ,0.015992819489604432,-0.004210719064804266,-0.01907877346794712,0.010961265818931355,-0.009025523546944154,-0.025130445917925875, ,0.025248762886743985, ,0.014198834311102571, ,0.0008197260269345918, ,0.24742091582440484,-0.18958536932933748,0.11253223119000001,1.6924075338635962,0.5716871150186029,-1.3487929750247427, ,0.11351308798860141,0.07987958043642322,0.02115380015936255,0.0,0.10703039445473787,-0.08549359474969805, ,2.151731014251709
0.020388876534848218,0.020296227758940064,-0.10067111373855141, ,0.021187365970756482,0.01980859745264797,-0.1012918559374338, ,0.0011228043339535899, ,0.015992819489604432,-0.004210719064804266,-0.01907877346794712,0.010961265818931355,-0.009025523546944154,-0.025130445917925875, ,0.025248762886743985, ,0.014198834311102571, ,0.0008216442440676234, ,0.24742091582440484,-0.18958536932933748,0.11253223119000001,1.6924075338635962,0.5716871150186029,-1.3487929750247427, ,0.11351308798860141,0.07987958043642322,0.02115380015936255,0.0,0.10703039445473787,-0.08549359474969805, ,2.1570348739624023
0.020554023536050965,0.020253658073199815,-0.10087392908105004, ,0.02127331000513144,0.01978764860107491,-0.10139559246494433, ,0.0010033297258670373, ,0.016623628755982663,-0.0036199158538729502,-0.02105173699918786,-0.0027317647491626137,-0.02450216277843982,-0.007182213274992761, ,0.027067036307819693, ,0.024653891879520974, ,0.0008227869200537832, ,0.2485793257555385,-0.18878992784329238,0.11275648936000002,1.6917784640331426,0.5727802070167264,-1.3496026395141736, ,0.11337746900653618,0.07683962879228404,0.023253739445255477,-0.016805225050703716,0.09422705579271871,-0.07318226325888542, ,2.162371873855591
0.020554023536050965,0.020253658073199815,-0.10087392908105004, ,0.021359273379827976,0.019766863400778635,-0.10149921198571173, ,0.001129767708364289, ,0.016623628755982663,-0.0036199158538729502,-0.02105173699918786,-0.0027317647491626137,-0.01787143476392598,0.049999150919334316, ,0.027067036307819693, ,0.024653891879520974, ,0.0008247055499807238, ,0.24969912202230107,-0.1880176545558699,0.11299241414000001,1.6913590841461734,0.5737366625150844,-1.3500558498794861, ,0.11392189862961677,0.07810447864894715,0.024966789216300942,-0.07643749465433856,0.11295086826302732,-0.08247376817913804, ,2.1685237884521484
0.020719732439346297,0.020216301536524692,-0.10108812930983369, ,0.021445253761879248,0.019746247517235492,-0.10160271899154426, ,0.0010060489605495763, ,0.016969957382190697,-0.003754272215160327,-0.02267670099962371,-0.00836962771938601,-0.01787143476392598,0.049999150919334316, ,0.028571082962415485, ,0.01973405311032783, ,0.000825831906568108, ,0.24969912202230107,-0.1880176545558699,0.11299241414000001,1.6913590841461734,0.5737366625150844,-1.3500558498794861, ,0.11392189862961677,0.07810447864894715,0.024966789216300942,-0.07643749465433856,0.11295086826302732,-0.08247376817913804, ,2.1738898754119873
0.020879327300810976,0.020184340250883094,-0.10129964796619052, ,0.02153124883825984,0.019725806567622555,-0.10170611792330664, ,0.0008946913745600445, ,0.016193640473874903,-0.003537542571693097,-0.02137589352045338,-0.011889337644674041,0.008262657764659396,0.03195217537382433, ,0.027049529072451912, ,0.014478376981604849, ,0.0008262569650125027, ,0.25078030462469253,-0.18728399493281858,0.11322704263000001,1.6913590841461734,0.5749663910129734,-1.3507318960521917, ,0.11034528088194276,0.07472200122714234,0.023703588571428576,-0.04741179917566137,0.13051002801387027,-0.06654183544235363, ,2.1791398525238037
