NicholasDascanio/dvrk_moveit_final/test/execution/third_experiment_notsharpbends/thirdexp_200vel3.0/thirdexp_200vel3.0_27.csv
Current Position (x),Current Position (y),Current Position (z), ,Planned Position (x),Planned Position (y),Planned Position (z), ,Position Error,,Cartesian linear Velocity(x),Cartesian linear Velocity(y),Cartesian linear Velocity(z),Cartesian Angular Velocity(x),Cartesian Angular Velocity(y),Cartesian Angular Velocity(z), ,Total Linear Velocity, ,Total Angular Velocity, ,MSE, ,Joint 1 Position,Joint 2 Position,Joint 3 Position,Joint 4 Position,Joint 5 Position,Joint 6 Position, ,Joint 1 Velocity,Joint 2 Velocity,Joint 3 Velocity,Joint 4 Velocity,Joint 5 Velocity,Joint 6 Velocity, ,Time Stamp
0.010408281681697138,0.0198342058700117,-0.07994427244476264, ,0.010516593003966897,0.01981447649802288,-0.08001825138414181, ,0.00013264039400787494, ,0.0009601053636917077,6.836028505843518e-05,-0.00010468686782404081,0.2714448692363473,-0.11631158811347941,-0.13481980094120083, ,0.0009682121556031328, ,0.29531458237651825, ,1.1053366167322912e-05, ,0.18488994774180897,-0.23450850645870147,0.09059381923000001,1.7014242014334306,0.5178523341110194,-1.298278343016967, ,-0.0005511475810256103,-0.0013955026904620292,-0.0002649169780571668,0.002770615687045435,-0.12337960182468155,-0.2979839961552406, ,0.05379605293273926
0.010463780417382938,0.019861809382503946,-0.0799951690622657, ,0.010514987087236386,0.01990927860876625,-0.080125401766888, ,0.00014777011819938765, ,0.0011696672166851682,0.0004931157781073981,-0.0007511925437349866,-0.11213285971624808,-0.14150833639143193,-0.0033670190592726083, ,0.001474982985044076, ,0.18055023538177456, ,1.274593237305739e-05, ,0.18478182948156985,-0.23472474297917975,0.09062881906,1.7018435813203996,0.5110205091227473,-1.3056126887743549, ,-0.002081455478681496,-0.004734460394102069,0.00038788614748703587,0.0040956152988287425,-0.14956997716758152,0.11104969531963582, ,0.1057591438293457
0.010465214203096445,0.019914985126263923,-0.08006438953244689, ,0.010514905318518971,0.02000176971176107,-0.08023340752096025, ,0.00019638699466346897, ,6.842539095074852e-06,0.000936256476484674,-0.0010537601382444232,0.03723141907611986,0.021937501732174104,-0.01212595944755995, ,0.0014096217361596233, ,0.043213800442329815, ,1.489992208971036e-05, ,0.18472004761857605,-0.23513404782151365,0.09071178162000001,1.7020532712638843,0.5118403281213398,-1.2999919332057102, ,-0.0004401877244959899,-0.007299993226503945,0.0013216831044805227,0.009389309401056615,0.019936340006720267,-0.028300554801163516, ,0.15889310836791992
0.010480880972104863,0.02000668469823625,-0.08019470779280972, ,0.010516332537684428,0.02009197499876155,-0.08034225801128844, ,0.00017407560380149648, ,7.712720147037567e-05,0.0014458701475821075,-0.0018078178227351849,0.009163964302696278,0.0033330974035320486,0.002396523011351746, ,0.002316180987978863, ,0.009751296325269485, ,1.5496978825529238e-05, ,0.18459648389258845,-0.23580592558157118,0.09086085497000002,1.7026823410943377,0.5117036916215745,-1.300370587742857, ,-0.003175373383197331,-0.012359591242311901,0.002162477806136302,0.00070891105867504,0.0,0.0027277726098938163, ,0.2154700756072998
0.010482851738704594,0.020067295119371862,-0.08025654164202391, ,0.010519253663426292,0.020179919535622478,-0.08045194265033258, ,0.00022845330662365462, ,-8.32543805330869e-06,0.0016040358738178334,-0.0017744756452936661,0.008788468888641996,0.006482069440318137,-0.004824798557666639, ,0.0023920209474738497, ,0.010920366734599216, ,1.7241694456782014e-05, ,0.18446519743372664,-0.23633107141701845,0.09093474350000001,1.7028920310378222,0.5115670551218091,-1.299850776138458, ,-0.004199977369398909,-0.013253762787495918,0.0020957747187422032,0.009827201644812168,0.0,0.006362206359287543, ,0.26250410079956055
0.010492293001451242,0.020155976981068115,-0.08037490610659428, ,0.010523653693089613,0.02026562826255979,-0.08056245089800196, ,0.00021949930591450958, ,0.00015549994114038188,0.0017614405557978556,-0.0023834547144191347,0.001421049361666442,0.005322003524693216,-0.0009910348069506797, ,0.002967778536041886, ,0.0055084573819010755, ,1.831376205350654e-05, ,0.18430302004336793,-0.23700294917707598,0.09106955766000001,1.7033114109247913,0.5114304186220436,-1.2991676070537774, ,-0.0034117157695486688,-0.013399737582387853,0.002756803655244029,0.008467098410178122,-0.00022138154548775323,0.01405729179457869, ,0.3098771572113037
0.010499500940356999,0.020238311069511947,-0.08049242661219587, ,0.010529517702498997,0.020349125994412506,-0.08067377226157414, ,0.00021463270519339175, ,2.728249440801043e-05,0.001545161431198685,-0.0021811504161901745,-0.012883128848643328,0.004515129175252971,0.0060463891578323836, ,0.002673141470444777, ,0.013651424846901532, ,1.903562939715629e-05, ,0.1841022289886381,-0.23762849053988816,0.09120437182,1.703521100868276,0.5112937821222782,-1.2982394017486754, ,-0.004763864055050735,-0.011619559392490606,0.0024738020686442,0.004889013182384239,-0.0013696184397766268,0.02660302766122607, ,0.35772705078125
0.010500459408699076,0.020299085148598413,-0.0805690677640456, ,0.010536830845786825,0.020430437420904498,-0.08078589629561529, ,0.0002561072294537377, ,7.482734671536187e-05,0.001625957352631512,-0.002359779818192757,0.005904371684808059,0.005762393368363446,-0.006637346710638621, ,0.0028666875021081, ,0.008250259526278433, ,2.0122636639198995e-05, ,0.18392460613253092,-0.23809957724521585,0.09129251954,1.7039404807552447,0.5111571456225127,-1.2973928751837138, ,-0.00465715319290775,-0.01166675950442225,0.0026708268812877262,0.011531353786166036,-0.0016526814725030228,0.007931535099530604, ,0.4046192169189453
0.010504846588444656,0.020380416346171288,-0.08069656949365736, ,0.010545578355220726,0.020509587106905158,-0.0808988126018994, ,0.00024340591012682975, ,0.00010161572642437509,0.0014804720878357144,-0.0021548708219148458,-0.006777651835161747,0.0035005912614741366,-1.847225250163254e-05, ,0.002616408152001013, ,0.007628283131355154, ,2.0838753654992546e-05, ,0.18367747868055573,-0.23868650494365692,0.09143511144000001,1.7039404807552447,0.5110205091227473,-1.2967097060990336, ,-0.003908218891309945,-0.010681632774767922,0.0024389544510794673,0.008351612200965988,-0.0024097777814166394,0.019697163215458342, ,0.45266103744506836
0.010511048928346917,0.02043166098162481,-0.08077085589224067, ,0.010555745541031477,0.02058659949269047,-0.08101251082932683, ,0.00029051822320609973, ,0.00019731608882245938,0.0015524907158403784,-0.002405712342773946,0.014184077162381759,0.002158879252240843,-0.010144396844370527, ,0.0028699499887373772, ,0.014347431982538806, ,2.214199780200475e-05, ,0.1835693604203166,-0.23904947338874546,0.09151937029000001,1.704359860642214,0.5108838726229818,-1.2961898944946344, ,-0.0034824381477170287,-0.01064758818872278,0.002703923191308776,0.010770988213990071,-0.004030105984305835,-0.00229374269595216, ,0.49468207359313965
0.010522778876927529,0.020513148286255115,-0.08090673686837346, ,0.010567317791240986,0.020661498894205477,-0.08112698067384438, ,0.00026925629354905784, ,0.00037885154246631404,0.0016032329986915546,-0.0024283498028299625,0.01398832900133923,-0.001074672681045151,-0.0038673060634540897, ,0.002934410895601865, ,0.014029549869352594, ,2.3036369754752516e-05, ,0.18336856936558676,-0.23971362841592878,0.09170085089,1.7045695505856984,0.5107472361232164,-1.2952616891895323, ,-0.002751677546071499,-0.011850938617099934,0.002909903456339058,0.0043094316656858,-0.0034959854949641,0.001963127060321852, ,0.5364069938659668
0.010540942848755095,0.020599463449824322,-0.08104436393523852, ,0.01058028057148969,0.02073430950332374,-0.08124221187836407, ,0.0002426411407270475, ,0.0002548681250973463,0.0017428908018075325,-0.0025956064787283125,-0.0012566978877587341,-0.000992668100996119,-0.005536760146932972, ,0.0031368454059185528, ,0.0016014616517479353, ,2.3562047076275287e-05, ,0.1832604511053476,-0.24018471512125647,0.09182529473,1.7049889304726675,0.5103373266239201,-1.2948457567383027, ,-0.003535264897446675,-0.01221324859182378,0.002927552199963243,0.01158662045233178,-0.007522165172199638,0.015555634041312213, ,0.5790231227874756
0.010558319495081372,0.0206659554751657,-0.0811523102619725, ,0.010594619424864546,0.02080505538810999,-0.0813581942326827, ,0.0002511069096595502, ,0.000554810301709462,0.0017695374597374437,-0.003310001843650902,0.004526783160091729,-0.0022115937328989845,0.0027391954586155854, ,0.0037940992998693854, ,0.00503814571251839, ,2.4088186009463082e-05, ,0.18321411470810225,-0.2406326336279615,0.09194714599,1.7051986204161522,0.5102006901241547,-1.2943259451339033, ,-0.0010439124259608145,-0.01090545007916472,0.0036761623632587124,0.0005083695292129956,-0.003489889378958522,0.006345821405255202, ,0.6214241981506348
0.010575605768371814,0.020735957180053277,-0.08127473898947292, ,0.010610319971726529,0.020873760493080245,-0.08147491757340022, ,0.00024549194377596566, ,0.0002643621726838759,0.0015348594351830528,-0.0025724791972258293,-0.010135115375567194,0.010895689820090993,0.004152484494347184, ,0.00300721300613645, ,0.014880746628413365, ,2.4503827392929705e-05, ,0.18312144191361157,-0.24108055213466653,0.09208325644000001,1.7054083103596365,0.5099274171246237,-1.2933680006652453, ,-0.0018807674362053088,-0.009844039578763121,0.0029168305292071053,0.007717868630331105,0.007520624063758675,0.023197066258882387, ,0.6641499996185303
0.0105864006986335,0.020797308004380836,-0.08137751710113532, ,0.010627367909538176,0.020940448639463052,-0.0815923717838394, ,0.0002614002457170283, ,0.0002419699336229534,0.001610176864391634,-0.003016299220425373,0.02242586479547663,0.00970709816261624,-0.006497720414793448, ,0.00342772227150017, ,0.02443659481830462, ,2.5174524810590303e-05, ,0.18302104638624667,-0.2414821342441262,0.09219862625000001,1.705618000303121,0.5099274171246237,-1.2930412857046831, ,-0.003341734335533915,-0.009575131092446421,0.0033506124358435004,0.0057069057117832235,0.0051612613759995235,-0.01225607889728601, ,0.7005860805511475
0.010601412452549055,0.02084890766309319,-0.08148684009112543, ,0.010645749012691321,0.021005143525460943,-0.08171054679396494, ,0.0002764417916132976, ,0.0005126309330490867,0.0016095045372775255,-0.003436478433083946,-0.005252435892716487,-0.004859009953853834,0.0022949063139008617, ,0.003829187818596368, ,0.00715528196925114, ,2.5885305788882256e-05, ,0.1829438190575044,-0.24175242989472406,0.09231788493000001,1.7058276902466056,0.5097907806248584,-1.2926031528404243, ,-0.002246400155230499,-0.008600560950529615,0.003736526277269529,0.0021133602353813436,-0.00787086244730444,0.014207659685245705, ,0.737199068069458
0.010623979594169284,0.020915344101181895,-0.08161965771696315, ,0.010665449132334756,0.021067868726511466,-0.08182943258030188, ,0.0002626575283831899, ,0.000504328991124372,0.0016734442529096367,-0.0032916271116226674,-0.0025991146812249046,0.0011376377242882498,-0.001196981994818529, ,0.0037268716694909424, ,0.0028371845783220235, ,2.6435713814970186e-05, ,0.1829052053931333,-0.24212312107268683,0.09246436570000001,1.70603738019009,0.5096541441250929,-1.292328377456447, ,-0.0015111149434334373,-0.009377192763680195,0.003635055116385213,0.00728312101997235,-0.002164854113594033,0.013710460139957269, ,0.7746551036834717
0.010641380808721354,0.020974386211967896,-0.08172809292614601, ,0.010686454196201244,0.02112864769554702,-0.08194901916585468, ,0.00027319703323197986, ,0.000561856932290728,0.0014794976797344933,-0.002739149322430077,-0.0038323457718524474,-0.005467838639424018,0.0007281160859690548, ,0.003163468919915612, ,0.006677135115273293, ,2.7004404373210112e-05, ,0.18285886899588794,-0.24247064405202692,0.09258232809000001,1.7062470701335748,0.5095175076253274,-1.2918085658520477, ,0.0,-0.009056330963705565,0.0030225448804554085,0.003875006703316436,-0.006614562964512039,0.014976544170632267, ,0.8117730617523193
0.010659457556721088,0.02103216659893315,-0.0818496541747016, ,0.010708750208435496,0.02118750376325685,-0.08206929662002649, ,0.00027349991576134866, ,0.0005442581568732603,0.001691321633494742,-0.0035917062587736935,-0.010629920288743877,-0.0007427045035445809,-0.001825582949816625, ,0.004007136091844714, ,0.010655834773817839, ,2.7525818479067384e-05, ,0.18280480986576836,-0.24277955336699591,0.09271843854,1.7064567600770593,0.5095175076253274,-1.2914001721513448, ,-0.0019981641994255162,-0.008576918262797498,0.003921420856720828,0.009727620494943847,-0.005221897230869795,0.021567856912486926, ,0.8488001823425293
0.010677396164620094,0.021080640524979377,-0.0819512877539656, ,0.010732323249421525,0.02124446013834805,-0.08219025505853811, ,0.0002948884925250519, ,0.0006878082369494041,0.0017187101804247943,-0.0034052805202633035,-0.0005997195392820373,0.0008701252751521615,-0.0020186875826447787, ,0.003875948951778905, ,0.001056778625049633, ,2.829804217936886e-05, ,0.1827816416671457,-0.24304212628471955,0.09282991948000001,1.7064567600770593,0.509380871125562,-1.2912887542476486, ,0.0005958714345318826,-0.009372855833125334,0.0037862637318754467,0.007963553165196667,-0.0004345175775671914,0.011873333100015048, ,0.8814141750335693
0.01070131903953418,0.021133416530475332,-0.08206989124079583, ,0.010757159475610035,0.021299539907806045,-0.082311884643346, ,0.00029879079248650264, ,0.0008389473668735705,0.0018194084105804267,-0.0044031523260832615,0.0024248386528206538,-0.0005692043372118287,-0.004460133195505359, ,0.004837543803994681, ,0.0024907497695745187, ,2.9039436084025696e-05, ,0.18278936440001992,-0.2432815310038205,0.09295954848000001,1.7068761399640284,0.5092442346257966,-1.2908506213833897, ,0.0,-0.007673129347359447,0.0047819908495947165,0.007791647526938536,-0.0025267302658989275,0.006654765205493943, ,0.9132440090179443
0.010721777256540922,0.021181930371476258,-0.0821840782242968, ,0.010783245119345822,0.021352766037155507,-0.08243417558256153, ,0.000309049852672461, ,0.0006989326888017587,0.0015942972655146157,-0.003555158621766199,-0.003912494647780802,-0.00044893646756927956,-0.0021744556951329578, ,0.003958464790827572, ,0.003938166801050569, ,2.9788398507182955e-05, ,0.1827816416671457,-0.24350549025717302,0.09308399232,1.7068761399640284,0.5092442346257966,-1.290605585162968, ,0.0,-0.007468950223754087,0.003982202880000001,0.007791647526938536,-0.002291956233395131,0.006960110603153046, ,0.9454421997070312
0.010753982471950994,0.021250639920672998,-0.08234464430180786, ,0.010810566488695262,0.021404161370721445,-0.0825571181303701, ,0.0002681710543660301, ,0.0007703166719668037,0.0016467850999461956,-0.004144818364684364,-0.0033892136675691183,-0.00012269158157947508,0.00018731914636926217, ,0.004526014606332991, ,0.0033914335148050832, ,3.0269262288489045e-05, ,0.18279708713289414,-0.243814399572142,0.09325899147000001,1.7070858299075127,0.5091075981260311,-1.29024913103885, ,-0.00011579996770395377,-0.00655845402706106,0.0044869891605633806,0.004613961175023165,-0.001377152587490991,0.011178139114241661, ,0.9771931171417236
0.01077643458536779,0.021300756396952246,-0.08246892874218294, ,0.010839109967273466,0.021453748631889622,-0.08268070258694941, ,0.0002686689203747461, ,0.0007287157092626874,0.001531478875252031,-0.0037524012400604366,-0.004573055918089309,-0.0006273885338378994,0.0011553935968618735, ,0.0041178840679014445, ,0.004615891686165139, ,3.072266513559223e-05, ,0.18278936440001992,-0.24401519062687183,0.09339380563,1.7072955198509974,0.5091075981260311,-1.2900040948184281, ,0.0002602701415836721,-0.0063814841644275035,0.004075949723643808,0.003910702110746484,-0.0013337133433373968,0.012122681270583673, ,1.0089571475982666
0.010796811858368859,0.021343700034903264,-0.0825791616526714, ,0.01086886201407194,0.02150155042336789,-0.0828049192983881, ,0.0002847358155814203, ,0.000907138009829601,0.001859697337644927,-0.004722506346887508,-0.0010827957004711573,-0.0005081592781962517,0.00043076051597077254, ,0.005155913086245155, ,0.0011961061959898747, ,3.138826153104126e-05, ,0.18278936440001992,-0.24418509075010478,0.09351306431,1.7072955198509974,0.5091075981260311,-1.289840737338147, ,0.0002602701415836721,-0.0072949063942796865,0.005113583152487962,0.003910702110746484,-0.0012165887257810377,0.00938179474881986, ,1.0371410846710205
0.010818288284597008,0.02138467426893304,-0.08269110567439658, ,0.010899809163285725,0.021547589227446803,-0.08292975865660462, ,0.000300236878625053, ,0.0008921538066098244,0.001789170251277527,-0.004656586561282147,0.0030107926587188043,-0.0001039444068579046,-0.002359529536627367, ,0.005067629327942049, ,0.003012586045915551, ,3.209764554574347e-05, ,0.18279708713289414,-0.2443163772089666,0.09363361928000001,1.7075052097944818,0.5091075981260311,-1.2897590585980065, ,0.00022695262592619232,-0.0066125025456073416,0.005031210208464941,0.00502501981109371,-0.001125078274856397,0.004540246132662325, ,1.06325101852417
0.010846212953554521,0.02143482738079797,-0.0828308306002849, ,0.01093193802414068,0.021591887406260415,-0.08305521109926604, ,0.0002869899783063741, ,0.0010441737922410239,0.0017681978440885339,-0.005355163993492802,-0.0031691658524871805,-0.0011019265529846286,0.001651127795278077, ,0.0057353817589977495, ,0.0033552719598529427, ,3.2708765113751475e-05, ,0.18282025533151683,-0.24447083186645108,0.09378398892,1.7077148997379663,0.5091075981260311,-1.289514022377585, ,0.0005276455731536596,-0.004515626407330325,0.005717448499641064,0.0017789138510255088,-0.00102524652214143,0.008314185678690258, ,1.0894091129302979
0.010862528528752802,0.021463884883791196,-0.08291552885394779, ,0.010965235280720909,0.021634467202046852,-0.08318126710970615, ,0.00033205997165392914, ,0.000883836069235359,0.0015025047633279475,-0.004385421353265136,-0.0008035299904676635,-0.0012758782431459225,0.0006940321191597113, ,0.0047191744200419635, ,0.001507820982375721, ,3.35036525952853e-05, ,0.18282797806439105,-0.24455578192806754,0.09387472922000001,1.7077148997379663,0.5091075981260311,-1.2894323436374444, ,0.000754465529043054,-0.004277327438611042,0.004698764460176992,0.0017789138510255088,-0.0009768637632614264,0.005558256772539096, ,1.116133213043213
0.010891792058116813,0.0215162223214818,-0.08306529301378188, ,0.010999687691795981,0.021675350737409595,-0.08330791721684454, ,0.00030956392624869813, ,0.00092529131727905,0.0014910848057300362,-0.00484306152473641,-0.0026142986832330224,-0.0021868350381883915,0.006128261062270971, ,0.00515118848928023, ,0.0034083430615181967, ,3.4158240905295774e-05, ,0.1828434235301395,-0.24469479111980358,0.09403546918000001,1.7081342796249355,0.5091075981260311,-1.2892689861571631, ,0.00029700929836346305,-0.003149630875102338,0.005141643486120078,-0.0042385643183823,-0.0008866249428172378,0.005184823143840344, ,1.142275094985962
0.010912269347196355,0.02155191699211629,-0.0831760334795804, ,0.011035282090648286,0.02171456001557824,-0.0834351519951048, ,0.0003297382192285056, ,0.0011028086503374465,0.0016467494637079302,-0.005549297003718334,-0.0035528226658141345,-0.002698531932146132,0.0063206654703583795, ,0.005892594331103978, ,0.004461459203115322, ,3.503202034243298e-05, ,0.1828434235301395,-0.24477974118142007,0.09415343157000002,1.7081342796249355,0.5091075981260311,-1.2891873074170226, ,0.0008518356407435177,-0.0028563641130179506,0.005882131285081241,-0.0042385643183823,-0.0008396274236468532,0.005879724208992981, ,1.1632251739501953
0.010934410050459694,0.021583536722166747,-0.08328221871282694, ,0.011072005384900116,0.0217521169206685,-0.08356296206433299, ,0.00035520218017561525, ,0.001252480022867754,0.0018889644150626422,-0.0061469571722102346,0.0010425417074017645,-0.00020794472258771777,-0.005486697124330635, ,0.006551486491327186, ,0.0010630735831714268, ,3.5987905226014684e-05, ,0.18287431446163638,-0.24484152304441387,0.09426620880000001,1.707924589681451,0.5091075981260311,-1.289105628676882, ,0.0012265522597382365,-0.0032532639400636564,0.006536237800574478,0.00742100552597979,-0.0008031104124977416,0.0036025322967740917, ,1.1844611167907715
0.010967705841294336,0.021629884832721394,-0.08343300158248919, ,0.011109844556340802,0.02178804321794356,-0.08369133808971684, ,0.00033459713103630063, ,0.001580226196978956,0.002097335777077843,-0.007178271343755705,-0.0008586539801004183,-0.001393762577796033,-0.006536245845793823, ,0.007643527436989654, ,0.0016370222117735847, ,3.682041837069696e-05, ,0.18293609632463018,-0.2449187503731561,0.09442694876,1.7081342796249355,0.5091075981260311,-1.288942271196601, ,0.0028148534193308105,-0.002513156774594582,0.007621440918660288,0.008931479719208768,-0.000763029656152861,0.005135614535729974, ,1.205665111541748
0.010998312336894347,0.02166799720704965,-0.08356200397747958, ,0.011148786660754502,0.021822360554075115,-0.08382027078170301, ,0.00033641092017034616, ,0.0016122927316687078,0.001986193977552543,-0.006625899375328924,-0.0015317955028219014,-0.002552242889864459,-0.00750841029974443, ,0.007102604937700109, ,0.0029766303869224985, ,3.763213187579378e-05, ,0.18301332365337242,-0.24496508677040144,0.0945643555,1.7083439695684197,0.5091075981260311,-1.2888605924564605, ,0.004364972681130909,-0.002707200791609076,0.007066908393966283,0.010419695913239801,-0.0007297742408172283,0.0063355768252649535, ,1.2271161079406738
0.011031437045459724,0.02170639189831051,-0.0836973408841469, ,0.0111888188277467,0.021855090457403376,-0.08394975089591686, ,0.00033255240325973903, ,0.0015096778786908133,0.0016534956852446514,-0.0060422023287239,-0.005873956772404842,-0.008140649114315602,0.01340918353772114, ,0.006443708890054515, ,0.010038601900321718, ,3.8400165106834134e-05, ,0.18310599644786313,-0.24499597770189835,0.09470824369000001,1.7085536595119044,0.5091075981260311,-1.2888605924564605, ,0.004577893474150601,-0.0017708706550752123,0.0064099845150905445,-0.011870473845296067,-0.0006998631765941208,0.005791204976740679, ,1.248138189315796
0.0110606987421933,0.02173659964201396,-0.08381238737608572, ,0.011229928260571845,0.021886254338198314,-0.0840797692330799, ,0.00035004030543684783, ,0.001532944469250683,0.001640977722008453,-0.006023439040471261,-0.0036663957137160036,-0.008409964221230614,0.012575951874585383, ,0.006428416951645845, ,0.009174418117943929, ,3.937866431565224e-05, ,0.1831986692423538,-0.24500370043477257,0.09483009495000001,1.7085536595119044,0.5091075981260311,-1.2887789137163197, ,0.00487875656356196,-0.0016712889353481847,0.006391978940609952,-0.011870473845296067,-0.0006717505922196667,0.003344864554863477, ,1.2640330791473389
0.011079393129417784,0.021754233858745687,-0.08387872821155207, ,0.011272102235960604,0.021915873488920656,-0.08421031663892863, ,0.0004161911279180423, ,0.001891523644364647,0.0018325235999217865,-0.007341282953650453,-0.004521174160964155,-0.009032662554089577,0.011776625966506313, ,0.007799387145604425, ,0.010100989421153596, ,4.0605228657097036e-05, ,0.1832604511053476,-0.2450114231676468,0.09490009461000001,1.7085536595119044,0.5089709616262656,-1.2886674958126232, ,0.006259920306178351,0.0,0.007755020214216165,-0.011410214800649951,0.0,0.0026582149091757034, ,1.2797150611877441
0.011120037644092697,0.02179733740131577,-0.08404420467390197, ,0.011315328103946379,0.021943969084481253,-0.0843413840041329, ,0.0003846488899428983, ,0.0021661321789166197,0.002231236473166579,-0.008875414408589967,-0.003959259652689898,-0.008410167996278852,0.009848806608426033, ,0.00940444180905668, ,0.009295515459052543, ,4.16736563155182e-05, ,0.18337629209846099,-0.245019145900521,0.09507509376,1.7085536595119044,0.5089709616262656,-1.2886674958126232, ,0.006107921008088967,0.0,0.009364380670194005,-0.009472062655739806,0.0,0.0024242379568260248, ,1.29569411277771
0.01114335259709745,0.021822179112081837,-0.08414119880110407, ,0.011359593287693408,0.021970562182503844,-0.08447296226421408, ,0.00042290018599194844, ,0.0023114052257998167,0.0023900301154900308,-0.00948183017595017,-0.003725554873452475,-0.008584956719637327,0.009082828646207903, ,0.010047882441408399, ,0.00935848087844413, ,4.286995839200573e-05, ,0.1835075785573228,-0.2450114231676468,0.09527472242000001,1.7083439695684197,0.5091075981260311,-1.2887789137163197, ,0.007319653971238637,3.244589706650075e-05,0.009543925416417017,0.0036379291366913265,0.0017153024076930188,0.0008264209894411728, ,1.3118669986724854
0.011187564011594289,0.0218652521508372,-0.08431776783092199, ,0.011404885283323311,0.02199567372358422,-0.08460504239946381, ,0.0003830992032289029, ,0.002072304879750912,0.0020214402848381208,-0.00787350256347017,-0.00012053358964046228,-0.004687559462970539,-0.002813183696563561, ,0.008388844435127952, ,0.00468910565109604, ,4.387983667792987e-05, ,0.18358480588606504,-0.24500370043477257,0.09536416643000001,1.7083439695684197,0.5091075981260311,-1.2887789137163197, ,0.007195592378751648,0.00021187890531588588,0.00834406051335778,0.0036379291366913265,0.0016932513244890257,0.000754241882257342, ,1.3278470039367676
0.011209886108012188,0.02188600470317565,-0.08439842111320965, ,0.01145119165974209,0.022019324531550966,-0.08473761543486194, ,0.0004370987689010949, ,0.0022147460696357118,0.0020579684845795725,-0.00800254806892853,0.001409423260289276,-0.0060810713649041585,-0.0033364549988435135, ,0.008554595842703577, ,0.00624226481747483, ,4.5255187447793e-05, ,0.1836697559476815,-0.24500370043477257,0.09544972157,1.7083439695684197,0.5091075981260311,-1.2886972349761794, ,0.00854708423825874,0.00021187890531588588,0.008495366144000002,0.0036012927149284557,0.0016552448630537395,-0.000880134470120066, ,1.3383400440216064
0.011234138958172695,0.02190856582252698,-0.08448508980853092, ,0.011498500058467935,0.022041535313727417,-0.08487067243999494, ,0.00048604695516598826, ,0.002441295660112952,0.002264409838427172,-0.008874719350240472,0.001404521260381157,-0.006440479230669901,-0.004908336668697223, ,0.009478824819669617, ,0.00659184326569952, ,4.680025221447426e-05, ,0.18376242874217222,-0.24499597770189835,0.09554175816,1.7085536595119044,0.5091075981260311,-1.2886972349761794, ,0.009258825047972374,0.0004836848531018029,0.00941419120567376,0.005194262971663966,0.001620083760998227,-0.0008615542733147452, ,1.3487961292266846
0.011259837912207464,0.02193211593965063,-0.08457882547038328, ,0.011546798193457697,0.022062326661191116,-0.08500420452897431, ,0.0005293849058172065, ,0.002661893516002419,0.0023331057222291543,-0.00924197357562824,0.00016192089252364464,-0.00914512648854846,-0.004843118898860455, ,0.009896622402327209, ,0.0091465561519937, ,4.8489339041560536e-05, ,0.18387054700241134,-0.24498825496902413,0.09564157249,1.7085536595119044,0.5092442346257966,-1.2888086528798757, ,0.010894886618337173,0.0007925685889052622,0.009808381477832513,0.005076836153104244,0.0005394655064275042,9.060241000656305e-06, ,1.3594481945037842
0.011288600337394818,0.021957523270934583,-0.08468303140520628, ,0.011596073850934252,0.022081719049034866,-0.08513820286035484, ,0.0005631568222158713, ,0.0032490190141410244,0.0030069526418503288,-0.011853560839627445,0.002093277908648921,-0.010362532951680605,-0.005192080787124842, ,0.012653252282450149, ,0.0105718336896799, ,5.0282331903609574e-05, ,0.1839786652626505,-0.24497280950327568,0.09575175714,1.7085536595119044,0.5092442346257966,-1.2887269741397351, ,0.012036864352930648,0.0007036168337351184,0.0125621541955836,0.004750157350065048,0.0005394655064275042,-0.0020091666316676064, ,1.3699860572814941
0.011325736010296846,0.021990753018039582,-0.08481992692061124, ,0.011646314889213753,0.022099732836627854,-0.08527265863705268, ,0.0005653436349152242, ,0.00392051851528678,0.003386530754362475,-0.014005675173734045,0.00133435622740829,-0.012305531965127197,-0.005280383407729094, ,0.01493311732529747, ,0.01237764454859724, ,5.2056297442189745e-05, ,0.18412539718726076,-0.244949641304653,0.09589694162000001,1.7085536595119044,0.509380871125562,-1.2888383920434314, ,0.015239592349200382,0.002642348117261392,0.014817499088372096,0.004449184074990968,0.001924074349052395,-0.003148952365229266, ,1.3804361820220947
0.011365611383125952,0.02202746638478419,-0.08496768654427608, ,0.011697509238532501,0.02211638826787604,-0.08540756310626416, ,0.000558170831827062, ,0.004104877553812351,0.0036684310101461424,-0.014996183926414088,0.005259875819554737,-0.008600391802027768,-0.005029516627598315, ,0.015974759408605644, ,0.010081283369490976, ,5.3776215006366574e-05, ,0.18427985184474524,-0.24493419583890455,0.09605379271000002,1.7085536595119044,0.5095175076253274,-1.288949809947128, ,0.015577304917674128,0.0023411745741732776,0.015881168015952143,0.0041858234266027574,0.006190409418810343,-0.006638386905613818, ,1.3910870552062988
0.011414232382063275,0.022070323226436556,-0.08514986512329091, ,0.011749644900873863,0.02213170547148212,-0.08554290755938278, ,0.0005203380577573836, ,0.004435973497029142,0.0035243381727612546,-0.015438442055576637,0.010888656944048865,-0.002727080904476357,-0.0054494012797589855, ,0.01644519119760316, ,0.011224925089677165, ,5.532804067457955e-05, ,0.18447292016660086,-0.2448878594416592,0.09624693992000001,1.7085536595119044,0.5097907806248584,-1.2891726457545207, ,0.019276242445352584,0.005327963279182062,0.016354015934291585,0.0039183348920092086,0.016201397080282693,-0.014813516742569696, ,1.4020121097564697
0.011459640830245421,0.022105309430992478,-0.08530136546288677, ,0.011802709949795943,0.022145704461207727,-0.08567868333191928, ,0.0005115632449135577, ,0.004040308066019889,0.0031521748560186264,-0.013612424876699638,0.01985982171379612,0.006124543482552163,-0.005187899689538429, ,0.014545047494424092, ,0.020782735238305948, ,5.70367867578716e-05, ,0.18468143395420492,-0.24484152304441387,0.09640767988000001,1.7085536595119044,0.5099274171246237,-1.2892840636582172, ,0.01944211054260823,0.004381416118807825,0.014493914030937218,0.003711561837111714,0.025620633610405237,-0.022478004708754353, ,1.4073331356048584
0.011459640830245421,0.022105309430992478,-0.08530136546288677, ,0.011856692530258011,0.022158405136132736,-0.08581488180341815, ,0.0006512819960508365, ,0.004040308066019889,0.0031521748560186264,-0.013612424876699638,0.01985982171379612,0.006124543482552163,-0.005187899689538429, ,0.014545047494424092, ,0.020782735238305948, ,5.925411962836774e-05, ,0.18468143395420492,-0.24484152304441387,0.09640767988000001,1.7085536595119044,0.5099274171246237,-1.2892840636582172, ,0.01944211054260823,0.004381416118807825,0.014493914030937218,0.003711561837111714,0.025620633610405237,-0.022478004708754353, ,1.4126091003417969
0.011503027954949167,0.022134238847813518,-0.08543446906710843, ,0.011911580858448236,0.022169827280917223,-0.08595149439737672, ,0.0006599221193954099, ,0.0045203194906883815,0.002943096264975399,-0.013652306129177063,0.015293681910477318,-0.0012632941410347098,-0.005422896885929687, ,0.014679256335645038, ,0.015345753294993034, ,0.0003308005235959593, ,0.18490539320755744,-0.24477974118142007,0.09654897549000001,1.7085536595119044,0.5100640536243892,-1.2893954815619135, ,0.024559249885732604,0.006896074149354722,0.014533587153284672,0.003530772660300975,0.02330724587650731,-0.02051184245417383, ,1.4178791046142578
0.011503027954949167,0.022134238847813518,-0.08543446906710843, ,0.011967363221609824,0.022179990566060508,-0.08608851258116318, ,0.0008034135783421023, ,0.0045203194906883815,0.002943096264975399,-0.013652306129177063,0.015293681910477318,-0.0012632941410347098,-0.005422896885929687, ,0.014679256335645038, ,0.015345753294993034, ,0.00034006744623804055, ,0.18490539320755744,-0.24477974118142007,0.09654897549000001,1.7085536595119044,0.5100640536243892,-1.2893954815619135, ,0.024559249885732604,0.006896074149354722,0.014533587153284672,0.003530772660300975,0.02330724587650731,-0.02051184245417383, ,1.4232521057128906
0.011556025669639371,0.022166058801575746,-0.0855940408040521, ,0.012024027977868997,0.02218891454816335,-0.08622592786593475, ,0.0007866573616480189, ,0.006062941478402276,0.003648065183194656,-0.018034191228886394,0.015526063603439841,-0.004367639662374084,-0.006188982674017374, ,0.01937265320577981, ,0.016128639733585786, ,0.0003486557138420786, ,0.1852065797896522,-0.24467162292118091,0.09671878948000001,1.7085536595119044,0.5104739631236854,-1.2897297352730028, ,0.033215590324981024,0.011633804285701946,0.019145206153846156,0.0033644704460789043,0.029114592345117575,-0.025173922812182194, ,1.428589105606079
0.011556025669639371,0.022166058801575746,-0.0855940408040521, ,0.012081563556061475,0.022196618670187792,-0.08636373180655585, ,0.0009324956916628758, ,0.006062941478402276,0.003648065183194656,-0.018034191228886394,0.015526063603439841,-0.004367639662374084,-0.006188982674017374, ,0.01937265320577981, ,0.016128639733585786, ,0.0003596715624802068, ,0.1852065797896522,-0.24467162292118091,0.09671878948000001,1.7085536595119044,0.5104739631236854,-1.2897297352730028, ,0.033215590324981024,0.011633804285701946,0.019145206153846156,0.0033644704460789043,0.029114592345117575,-0.025173922812182194, ,1.4338860511779785
0.011622628381841,0.02221000125076162,-0.08580604042882059, ,0.012139958455559716,0.02220312226171823,-0.08650191600151613, ,0.0008671335181726174, ,0.006696470976854168,0.004823318392760381,-0.02298804163979672,0.05288041754848232,0.03900425988592023,-0.006608965082968589, ,0.024424520103674886, ,0.06570893721345712, ,0.0003690690061041404, ,0.1855618255018665,-0.24454805919519332,0.09694434394000001,1.7085536595119044,0.5110205091227473,-1.2902570856279292, ,0.03384341710359157,0.0128726182255115,0.0244682204608295,0.003208896948165541,0.07485010493133076,-0.061745618198665676, ,1.4399142265319824
0.011694731242733323,0.022257882717630028,-0.08603918367426104, ,0.012199201246099996,0.022208444539222008,-0.08664047209284897, ,0.0007864361894706096, ,0.008296170169710248,0.0054193940995058065,-0.026477278804718805,0.018438017775454577,-0.0009663823832988512,-0.005767044817488464, ,0.02827087838736816, ,0.018462973263235396, ,0.0003766575003471671, ,0.1859325166798293,-0.24440905000345728,0.09719193533,1.7085536595119044,0.5115670551218091,-1.2907844359828555, ,0.0412774865413096,0.015903626874220006,0.02804368225352113,0.0030796865643477104,0.04109280706508354,-0.03162456984828841, ,1.4451642036437988
0.011694731242733323,0.022257882717630028,-0.08603918367426104, ,0.012259280567609346,0.02221260460630996,-0.08677939176604899, ,0.0009320268594472135, ,0.008296170169710248,0.0054193940995058065,-0.026477278804718805,0.018438017775454577,-0.0009663823832988512,-0.005767044817488464, ,0.02827087838736816, ,0.018462973263235396, ,0.00038657481033109654, ,0.1859325166798293,-0.24440905000345728,0.09719193533,1.7085536595119044,0.5115670551218091,-1.2907844359828555, ,0.0412774865413096,0.015903626874220006,0.02804368225352113,0.0030796865643477104,0.04109280706508354,-0.03162456984828841, ,1.45039701461792
0.011785538749498167,0.022316225271374463,-0.08633506954322719, ,0.012320185130032333,0.022215621453996935,-0.08691866674999092, ,0.0007978430798293928, ,0.009488518784382763,0.005678254707315047,-0.030284591506844163,0.009501840870860612,-0.007829095945743294,-0.0042253945790210285, ,0.03224020855979606, ,0.012310737126218201, ,0.0003937900431293122, ,0.18636498972078586,-0.24420053621585322,0.09750434122000001,1.7087633494553889,0.5119769646211053,-1.2911186896939446, ,0.04626862094513446,0.023431343594684143,0.03192146597194389,0.0,0.03992753827906331,-0.03068283645697532, ,1.4557909965515137
0.011882765703178992,0.022373561480540757,-0.08664668070707225, ,0.012381903713158527,0.02221751396096254,-0.08705828881684752, ,0.0006655154524168548, ,0.009311594219748894,0.005306408015801137,-0.028928945090636794,0.03545119168320579,0.018514824021833094,-0.004752137184254467, ,0.030850407079980293, ,0.039994567621371345, ,0.00039847496397909745, ,0.18685924462473624,-0.2439456860310038,0.09783359888000001,1.7087633494553889,0.5126601471199326,-1.2916757792124267, ,0.04958042923640061,0.023939692623226736,0.030632329846153848,0.0,0.07072010672897674,-0.05580028603169107, ,1.4656620025634766
0.011882765703178992,0.022373561480540757,-0.08664668070707225, ,0.012444425166449419,0.022218300893812635,-0.0871982497820071, ,0.0008023687723839159, ,0.009311594219748894,0.005306408015801137,-0.028928945090636794,0.03545119168320579,0.018514824021833094,-0.004752137184254467, ,0.030850407079980293, ,0.039994567621371345, ,0.00040532062174867064, ,0.18685924462473624,-0.2439456860310038,0.09783359888000001,1.7087633494553889,0.5126601471199326,-1.2916757792124267, ,0.04958042923640061,0.023939692623226736,0.030632329846153848,0.0,0.07072010672897674,-0.05580028603169107, ,1.4709601402282715
0.01197296285661352,0.022413785025932838,-0.08690139061318776, ,0.012507738408865087,0.022218000907338664,-0.08733854150399248, ,0.0007179256324376677, ,0.009246893566893013,0.003265369856705618,-0.02400259235522167,-0.0034215095707240293,-0.022454171699073773,-0.003165439967672761, ,0.025928596581949338, ,0.02271318092008925, ,0.0004105307052601539, ,0.18736894499443504,-0.24367539038040595,0.09810193091000001,1.7085536595119044,0.5130700566192289,-1.2920100329235158, ,0.055854585967316524,0.03210316020245967,0.02524375835182251,-0.002790409906130895,0.03538152001949022,-0.026991309662364068, ,1.4761919975280762
0.01197296285661352,0.022413785025932838,-0.08690139061318776, ,0.012571832428691369,0.02221663254477876,-0.08747915588437877, ,0.000855176340751037, ,0.009246893566893013,0.003265369856705618,-0.02400259235522167,-0.0034215095707240293,-0.022454171699073773,-0.003165439967672761, ,0.025928596581949338, ,0.02271318092008925, ,0.0004178199779731192, ,0.18736894499443504,-0.24367539038040595,0.09810193091000001,1.7085536595119044,0.5130700566192289,-1.2920100329235158, ,0.055854585967316524,0.03210316020245967,0.02524375835182251,-0.002790409906130895,0.03538152001949022,-0.026991309662364068, ,1.4814321994781494
0.012067386174328893,0.022438499876355007,-0.08712381486107458, ,0.012636696283367176,0.022214214238079392,-0.08762008486771139, ,0.0007878464109692832, ,0.00985847653821792,0.0019568711475392905,-0.021515813281091194,0.00870102126928283,-0.018452858158528387,-0.006365367793849686, ,0.02374761304825066, ,0.020401253255965594, ,0.00042378814624725094, ,0.18800220909012147,-0.2433124219353174,0.09833655940000001,1.7085536595119044,0.5136166026182906,-1.292374025798161, ,0.06926784055362831,0.03980576407653976,0.022690614700854702,-0.002790409906130895,0.05344725765341948,-0.04616110754217848, ,1.4866950511932373
0.012067386174328893,0.022438499876355007,-0.08712381486107458, ,0.012702319099311124,0.02221076430815472,-0.08776132044142392, ,0.0009281253542633883, ,0.00985847653821792,0.0019568711475392905,-0.021515813281091194,0.00870102126928283,-0.018452858158528387,-0.006365367793849686, ,0.02374761304825066, ,0.020401253255965594, ,0.00043179349875544355, ,0.18800220909012147,-0.2433124219353174,0.09833655940000001,1.7085536595119044,0.5136166026182906,-1.292374025798161, ,0.06926784055362831,0.03980576407653976,0.022690614700854702,-0.002790409906130895,0.05344725765341948,-0.04616110754217848, ,1.4920971393585205
0.012143671173529907,0.022452101242789145,-0.08728950975928391, ,0.012768690071748422,0.022206300965147523,-0.08790285463575688, ,0.0009095374302988428, ,0.009828146898786137,0.0016192579108184515,-0.021530635682254554,0.032812557676442984,0.01059951640679242,-0.007568221828369811, ,0.023723042396114388, ,0.034482010708340366, ,0.0004392582476858092, ,0.1885505231241914,-0.24298806715459997,0.09851155855,1.7085536595119044,0.5141631486173524,-1.2928196974129467, ,0.071512390021455,0.043650847083013235,0.02275544502857143,-0.002790409906130895,0.08593251852866063,-0.07265612403674704, ,1.49751615524292
0.012143671173529907,0.022452101242789145,-0.08728950975928391, ,0.012835798464538275,0.02220084230869049,-0.08804467952367546, ,0.0010547286911685688, ,0.009828146898786137,0.0016192579108184515,-0.021530635682254554,0.032812557676442984,0.01059951640679242,-0.007568221828369811, ,0.023723042396114388, ,0.034482010708340366, ,0.0004487270237393901, ,0.1885505231241914,-0.24298806715459997,0.09851155855,1.7085536595119044,0.5141631486173524,-1.2928196974129467, ,0.071512390021455,0.043650847083013235,0.02275544502857143,-0.002790409906130895,0.08593251852866063,-0.07265612403674704, ,1.5028440952301025
0.01228151452582301,0.022466604662823797,-0.08757001716971627, ,0.012903633610000523,0.022194406328166306,-0.08818678722078745, ,0.0009173491070396929, ,0.010914655673764918,0.0009756228522352101,-0.021377699688510242,0.0015182482375223649,-0.028721020522205543,0.008312664124847787, ,0.02402264748937517, ,0.02876104366531914, ,0.00045582735833484927, ,0.18952358746634368,-0.24241658492190735,0.09879155719,1.7081342796249355,0.5151196041157104,-1.2935996227388218, ,0.08055767534674939,0.04821999062930426,0.02253014359264498,-0.00822065144425243,0.05944739584831672,-0.05106780505055806, ,1.5080811977386475
0.01228151452582301,0.022466604662823797,-0.08757001716971627, ,0.012972184908742917,0.022187010902968707,-0.08832916988526131, ,0.001063725102605012, ,0.010914655673764918,0.0009756228522352101,-0.021377699688510242,0.0015182482375223649,-0.028721020522205543,0.008312664124847787, ,0.02402264748937517, ,0.02876104366531914, ,0.00046490045899559796, ,0.18952358746634368,-0.24241658492190735,0.09879155719,1.7081342796249355,0.5151196041157104,-1.2935996227388218, ,0.08055767534674939,0.04821999062930426,0.02253014359264498,-0.00822065144425243,0.05944739584831672,-0.05106780505055806, ,1.5133130550384521
0.012385709628995016,0.022475041241232334,-0.08778018542124177, ,0.013041441829487566,0.022178673802762332,-0.08847181971774493, ,0.0009980863577103351, ,0.011438421005914537,0.0007417850228586915,-0.024350000533403367,-0.0033240364562685024,-0.02184172467119522,0.006427051556182495, ,0.026913012579520498, ,0.02209302139950071, ,0.00047274142809434404, ,0.19033447441813728,-0.24187599362071163,0.09902748197000001,1.707924589681451,0.5156661501147722,-1.2941269730937481, ,0.080832147835154,0.05934768077452831,0.02540480306220096,-0.020214954608495834,0.06621501668856103,-0.055985286694564436, ,1.518537998199463
0.012385709628995016,0.022475041241232334,-0.08778018542124177, ,0.013111393908898452,0.022169412687744333,-0.08861472896128265, ,0.0011473837226621706, ,0.011438421005914537,0.0007417850228586915,-0.024350000533403367,-0.0033240364562685024,-0.02184172467119522,0.006427051556182495, ,0.026913012579520498, ,0.02209302139950071, ,0.00048251885265329804, ,0.19033447441813728,-0.24187599362071163,0.09902748197000001,1.707924589681451,0.5156661501147722,-1.2941269730937481, ,0.080832147835154,0.05934768077452831,0.02540480306220096,-0.020214954608495834,0.06621501668856103,-0.055985286694564436, ,1.523806095123291
0.01250861635278465,0.02248471382915496,-0.08805163688319895, ,0.013182030751408464,0.02215924510890513,-0.08875788990123425, ,0.0010286934264487665, ,0.012646072270292684,0.0010561437992539994,-0.02768280272081878,0.015083350585796578,-0.006084742796994351,0.003738340492660352, ,0.030452851263386486, ,0.016263926414911756, ,0.0004903213465646619, ,0.1911994205000504,-0.24121956132640257,0.09931136948000001,1.707924589681451,0.5166226056131303,-1.294906898419623, ,0.08868873042847737,0.06499790517703478,0.028961475490909095,-0.02011399510115964,0.09065610143644667,-0.07909172163858595, ,1.5292479991912842
0.01250861635278465,0.02248471382915496,-0.08805163688319895, ,0.013253342029045372,0.022148188508287068,-0.08890129486519258, ,0.001178891136124414, ,0.012646072270292684,0.0010561437992539994,-0.02768280272081878,0.015083350585796578,-0.006084742796994351,0.003738340492660352, ,0.030452851263386486, ,0.016263926414911756, ,0.0005000195126147992, ,0.19210298024633468,-0.24054768356634504,0.09961210876000001,1.7077148997379663,0.517442424611723,-1.2955754058418016, ,0.09204359026039842,0.06901595749706967,0.02977347947663552,-0.015048189507168831,0.06551043371600407,-0.058555484102695655, ,1.5350561141967773
0.012639703367793492,0.022495751691699827,-0.0883395619897101, ,0.013325317481260222,0.022136260219248017,-0.08904493622290176, ,0.001047307805853206, ,0.0133806749527415,0.0008751973464308574,-0.028562656586916257,-0.009538409614623737,-0.03244541148436951,-0.001559533687145744, ,0.0315536651419171, ,0.0338181456305692, ,0.0005076207389097771, ,0.19210298024633468,-0.24054768356634504,0.09961210876000001,1.7077148997379663,0.517442424611723,-1.2955754058418016, ,0.09204359026039842,0.06901595749706967,0.02977347947663552,-0.015048189507168831,0.06551043371600407,-0.058555484102695655, ,1.5407772064208984
0.012772661154811196,0.022498770541387866,-0.0886135137145609, ,0.013397946914753276,0.022123477466719926,-0.08918880638617505, ,0.0009288642696826055, ,0.014064252160201835,-0.0002418250938722467,-0.02819464850623273,-0.004267340471393457,-0.023388226662900136,-0.0038861931570908204, ,0.03150872692750026, ,0.023773967363093215, ,0.0005133911982354323, ,0.19303743092411585,-0.23982174667616793,0.09989729256,1.7077148997379663,0.5181256071105501,-1.2961324953602837, ,0.10138562132315254,0.07987958043642322,0.02933482784530387,-0.015048189507168831,0.08458063147485834,-0.0736694685306136, ,1.5460422039031982
0.012772661154811196,0.022498770541387866,-0.0886135137145609, ,0.013471220203301167,0.022109857367469985,-0.08933289780881351, ,0.0010755239077480981, ,0.014064252160201835,-0.0002418250938722467,-0.02819464850623273,-0.004267340471393457,-0.023388226662900136,-0.0038861931570908204, ,0.03150872692750026, ,0.023773967363093215, ,0.0005209875862018197, ,0.19303743092411585,-0.23982174667616793,0.09989729256,1.7077148997379663,0.5181256071105501,-1.2961324953602837, ,0.10138562132315254,0.07987958043642322,0.02933482784530387,-0.015048189507168831,0.08458063147485834,-0.0736694685306136, ,1.551307201385498
0.012914542565494746,0.022491553678924185,-0.08889282967759446, ,0.013545127287584134,0.02209541693036159,-0.08947720298652312, ,0.0009466010667026141, ,0.014361972409532828,-0.0008415883671698325,-0.027384396800137517,0.005498766761959389,-0.012680150414500373,0.0006599929473542251, ,0.030933472333045955, ,0.013820537276382812, ,0.000526662432608497, ,0.19407999986213614,-0.23900313699150014,0.10018766152000001,1.7070858299075127,0.5190820626089083,-1.2970757781664397, ,0.10734948140098505,0.08368336998101479,0.028546257204301078,-0.020548958756557635,0.10314871584609958,-0.08740918499222432, ,1.556556224822998
0.012914542565494746,0.022491553678924185,-0.08889282967759446, ,0.013619658175012763,0.022080173056614603,-0.08962171445683395, ,0.0010943925532480496, ,0.014361972409532828,-0.0008415883671698325,-0.027384396800137517,0.005498766761959389,-0.012680150414500373,0.0006599929473542251, ,0.030933472333045955, ,0.013820537276382812, ,0.0005341325657748069, ,0.19407999986213614,-0.23900313699150014,0.10018766152000001,1.7070858299075127,0.5190820626089083,-1.2970757781664397, ,0.10734948140098505,0.08368336998101479,0.028546257204301078,-0.020548958756557635,0.10314871584609958,-0.08740918499222432, ,1.5619831085205078
0.013049786959201259,0.022481124193987113,-0.08914541465569356, ,0.013694802939555013,0.022064142540066486,-0.08976642479901742, ,0.000987710945939759, ,0.01456527545808836,-0.001391273040530485,-0.02638172846996726,-0.011201901174199832,-0.03565349253652238,0.04941797668685284, ,0.030167507137753014, ,0.03737166494014828, ,0.0005400231940886375, ,0.1950994006015338,-0.23821541823832923,0.10045080839000001,1.7066664500205435,0.5200385181072663,-1.2978557034923146, ,0.11073155374383986,0.08397959429953167,0.02746346813793104,-0.07176451134848032,0.0953122005512101,-0.08101903222967259, ,1.5674850940704346
0.013049786959201259,0.022481124193987113,-0.08914541465569356, ,0.013770551721562815,0.022047342067431915,-0.08991132663400454, ,0.001137668640027096, ,0.01456527545808836,-0.001391273040530485,-0.02638172846996726,-0.011201901174199832,-0.03565349253652238,0.04941797668685284, ,0.030167507137753014, ,0.03737166494014828, ,0.0005476853151904125, ,0.1950994006015338,-0.23821541823832923,0.10045080839000001,1.7066664500205435,0.5200385181072663,-1.2978557034923146, ,0.11073155374383986,0.08397959429953167,0.02746346813793104,-0.07176451134848032,0.0953122005512101,-0.08101903222967259, ,1.57283616065979
0.013209165397725885,0.02246046730842611,-0.08942649939891335, ,0.01384689472759963,0.022029788218564637,-0.09005641262430418, ,0.0009944716427065159, ,0.014298350608024101,-0.0029466551716733186,-0.025078832347499126,-0.017363781250274737,-0.026961581908715275,0.012562419473321013, ,0.02901850166229643, ,0.03206895504626302, ,0.0005533408383235278, ,0.19631186966278705,-0.2372346311633027,0.10074247364000001,1.7064567600770593,0.5209949736056244,-1.29871730755833, ,0.10958076392433115,0.09803403053561031,0.025816550275526744,-0.0367842032959531,0.09451176170819969,-0.08223813105783959, ,1.5781891345977783
0.013209165397725885,0.02246046730842611,-0.08942649939891335, ,0.013923822230267103,0.022011497466717638,-0.09020167547392105, ,0.0011459521169428998, ,0.014298350608024101,-0.0029466551716733186,-0.025078832347499126,-0.017363781250274737,-0.026961581908715275,0.012562419473321013, ,0.02901850166229643, ,0.03206895504626302, ,0.0005607484793062699, ,0.19631186966278705,-0.2372346311633027,0.10074247364000001,1.7064567600770593,0.5209949736056244,-1.29871730755833, ,0.10958076392433115,0.09803403053561031,0.025816550275526744,-0.0367842032959531,0.09451176170819969,-0.08223813105783959, ,1.5833961963653564
0.013346925417621522,0.022433230129582524,-0.08967249715624548, ,0.014001324568031782,0.021992486178803214,-0.09034710792827405, ,0.0010380718529770527, ,0.014531867990619911,-0.0024923829624077117,-0.026066548323767057,-0.0008501762137669271,-0.009738244199916304,-0.03645077600430117, ,0.029947489070761623, ,0.009774669584203092, ,0.0005666413604626993, ,0.19736988406655578,-0.2362847350197731,0.10099654648,1.7062470701335748,0.522088065603748,-1.2997720082681827, ,0.10945437319316122,0.0978318985138874,0.02695230375634518,0.01359530323731819,0.09993853692883035,-0.08890459753033744, ,1.5886640548706055
0.013346925417621522,0.022433230129582524,-0.08967249715624548, ,0.014079392145052301,0.021972770615654412,-0.09049270277411349, ,0.0011921693362699425, ,0.014531867990619911,-0.0024923829624077117,-0.026066548323767057,-0.0008501762137669271,-0.009738244199916304,-0.03645077600430117, ,0.029947489070761623, ,0.009774669584203092, ,0.0005742697504115681, ,0.19736988406655578,-0.2362847350197731,0.10099654648,1.7062470701335748,0.522088065603748,-1.2997720082681827, ,0.10945437319316122,0.0978318985138874,0.02695230375634518,0.01359530323731819,0.09993853692883035,-0.08890459753033744, ,1.593919038772583
0.013497669729528058,0.0224079815574666,-0.08994685359181284, ,0.014158015431006305,0.021952366932285198,-0.09063845283944, ,0.0010592217196878264, ,0.014702434197850984,-0.0027676005491320786,-0.02744797094223258,0.01723963296610735,0.01440338549328438,-0.015912782112149696, ,0.03126039495891468, ,0.02246434684241606, ,0.0005801125452221255, ,0.19849740306619257,-0.23526533428037547,0.10128043399000002,1.7064567600770593,0.5231811576018714,-1.3008267089780352, ,0.11047373871766097,0.10281358782066174,0.028393603422459897,-0.009908836500803327,0.13169932636034593,-0.11507360699932703, ,1.599261999130249
0.013497669729528058,0.0224079815574666,-0.08994685359181284, ,0.014237184960917457,0.02193129117815145,-0.09078435099342264, ,0.0012147091803768068, ,0.014702434197850984,-0.0027676005491320786,-0.02744797094223258,0.01723963296610735,0.01440338549328438,-0.015912782112149696, ,0.03126039495891468, ,0.02246434684241606, ,0.000587667267069205, ,0.19849740306619257,-0.23526533428037547,0.10128043399000002,1.7064567600770593,0.5231811576018714,-1.3008267089780352, ,0.11047373871766097,0.10281358782066174,0.028393603422459897,-0.009908836500803327,0.13169932636034593,-0.11507360699932703, ,1.6045360565185547
0.013653420627827225,0.022377346669220602,-0.09023999310931617, ,0.014316891334981978,0.02190955929741083,-0.0909303901463164, ,0.0010656765330886383, ,0.015008245897235442,-0.002988052729126867,-0.02810350473044806,0.007220877512694684,-0.00011530588195076893,0.014289465539437975, ,0.03199973253260476, ,0.007220584233443754, ,0.0005932909054929631, ,0.19963264479870357,-0.23421504260948092,0.10157339553000001,1.7058276902466056,0.5246841590992912,-1.3021339846588362, ,0.11125081073677699,0.10439707542186004,0.029067174306569344,-0.0434151940361867,0.1254128122658153,-0.11337754052553252, ,1.609795093536377
0.013813529892189098,0.022340321903664497,-0.09052940956032496, ,0.014397125218396397,0.021887187129184953,-0.09107656324938056, ,0.0009193975136255161, ,0.015008245897235442,-0.002988052729126867,-0.02810350473044806,0.007220877512694684,-0.00011530588195076893,0.014289465539437975, ,0.03199973253260476, ,0.007220584233443754, ,0.00059708284279683, ,0.20084511385995682,-0.23305663267834725,0.10188061626000001,1.7051986204161522,0.5256406145976494,-1.302995588724852, ,0.11243713454795115,0.11008925934857398,0.029067174306569344,-0.07379170203173746,0.06909023872262648,-0.06780860269349902, ,1.615389108657837
0.013813529892189098,0.022340321903664497,-0.09052940956032496, ,0.01447787734118332,0.021864190407817632,-0.09122286329479674, ,0.0010718847028367221, ,0.01569012396803376,-0.0036829376457951173,-0.028444461090850054,-0.05235882080395467,-0.06265278973043478,0.043111307679455715, ,0.03269298681038435, ,0.08165047187007715, ,0.0006025403354409667, ,0.20084511385995682,-0.23305663267834725,0.10188061626000001,1.7051986204161522,0.5256406145976494,-1.302995588724852, ,0.11243713454795115,0.11008925934857398,0.029067174306569344,-0.07379170203173746,0.06909023872262648,-0.06780860269349902, ,1.6206960678100586
0.013960540309508315,0.022306519128958563,-0.09079339919292874, ,0.0145591384980194,0.021840584763137806,-0.09136928331558708, ,0.0009523954783972406, ,0.015236404008492339,-0.003979043369650427,-0.02719901271291537,-0.018112402006488556,-0.02284085742990248,0.01057895123163182, ,0.03142876207878529, ,0.029150454353232175, ,0.0006065159620654698, ,0.2019108509965998,-0.2320063410074527,0.10215154087000002,1.7051986204161522,0.5264604335962421,-1.303745774887171, ,0.11190677070574384,0.11060249598889368,0.02794528336842106,-0.04180247062038587,0.10215658515833427,-0.09563532899786335, ,1.6261420249938965
0.013960540309508315,0.022306519128958563,-0.09079339919292874, ,0.014640899548061971,0.02181638572071911,-0.0915158163855326, ,0.001106799914856965, ,0.015236404008492339,-0.003979043369650427,-0.02719901271291537,-0.018112402006488556,-0.02284085742990248,0.01057895123163182, ,0.03142876207878529, ,0.029150454353232175, ,0.000612137130074363, ,0.2019108509965998,-0.2320063410074527,0.10215154087000002,1.7051986204161522,0.5264604335962421,-1.303745774887171, ,0.11190677070574384,0.11060249598889368,0.02794528336842106,-0.04180247062038587,0.10215658515833427,-0.09563532899786335, ,1.6315360069274902
0.01411566928201194,0.02226342615350766,-0.09106731295443043, ,0.014723151414775603,0.021791608702140468,-0.09166245561909002, ,0.00097254359302801, ,0.014794760017629407,-0.004450658966249139,-0.02602618452244719,0.03889799017619751,0.044875230152535986,-0.007677821180537225, ,0.030266409929318824, ,0.05938710280579036, ,0.0006161416463294035, ,0.20309242912635617,-0.2308324856105706,0.10243413209,1.7051986204161522,0.5279634350936618,-1.3051347293081128, ,0.11502659582844943,0.11405882398854661,0.02690677621621622,-0.023608000645856924,0.17095408500332757,-0.14917557047075727, ,1.6368510723114014
0.01411566928201194,0.02226342615350766,-0.09106731295443043, ,0.014805885085759448,0.02176626902524677,-0.09180919417131195, ,0.0011286942924835872, ,0.014794760017629407,-0.004450658966249139,-0.02602618452244719,0.03889799017619751,0.044875230152535986,-0.007677821180537225, ,0.030266409929318824, ,0.05938710280579036, ,0.0006217740929904384, ,0.20309242912635617,-0.2308324856105706,0.10243413209,1.7051986204161522,0.5279634350936618,-1.3051347293081128, ,0.11502659582844943,0.11405882398854661,0.02690677621621622,-0.023608000645856924,0.17095408500332757,-0.14917557047075727, ,1.6421680450439453
0.014258860605128097,0.022217608994544894,-0.09131650760509447, ,0.014889091612574056,0.02174038190440969,-0.09195602523776297, ,0.001016818381422757, ,0.014993630601532398,-0.004784220512764621,-0.025652205755555418,0.010943983872669946,0.011550468751202261,-0.012130492679425592, ,0.03009540470994396, ,0.01591141111568327, ,0.0006260680526473114, ,0.20419677992737026,-0.22972041207668226,0.10269079751000001,1.704779240529183,0.5294664365910817,-1.3065236837290546, ,0.1141960788910599,0.11586928151217434,0.02637220450331126,-0.020305358208549566,0.13474536640433435,-0.12407461838507844, ,1.6474761962890625
0.014258860605128097,0.022217608994544894,-0.09131650760509447, ,0.014972762110568048,0.02171396245078796,-0.09210294205443845, ,0.0011754974877143322, ,0.014993630601532398,-0.004784220512764621,-0.025652205755555418,0.010943983872669946,0.011550468751202261,-0.012130492679425592, ,0.03009540470994396, ,0.01591141111568327, ,0.0006319758960351289, ,0.20419677992737026,-0.22972041207668226,0.10269079751000001,1.704779240529183,0.5294664365910817,-1.3065236837290546, ,0.1141960788910599,0.11586928151217434,0.02637220450331126,-0.020305358208549566,0.13474536640433435,-0.12407461838507844, ,1.6527671813964844
0.014410164361338993,0.022167704331770045,-0.09157848431845718, ,0.015056887758705492,0.02168702567258842,-0.09224993789768324, ,0.0010488818022777377, ,0.01572525682786479,-0.004960720556424933,-0.027858679719794808,-0.027999540645178844,-0.029268095719399926,0.06280780084552723, ,0.032372804735940806, ,0.04050406057382042, ,0.0006364110652504758, ,0.20533202165988126,-0.2285620021455486,0.10295912954000001,1.7039404807552447,0.5306961650889708,-1.3075264448623223, ,0.11460983280008549,0.11876963899683453,0.028343080996441283,-0.09879521049758115,0.11153094537534056,-0.10426004110642313, ,1.6580321788787842
0.014410164361338993,0.022167704331770045,-0.09157848431845718, ,0.015141459799392817,0.02165958647532661,-0.09239700608410903, ,0.0012095266241802323, ,0.01572525682786479,-0.004960720556424933,-0.027858679719794808,-0.027999540645178844,-0.029268095719399926,0.06280780084552723, ,0.032372804735940806, ,0.04050406057382042, ,0.0006424438606076311, ,0.20533202165988126,-0.2285620021455486,0.10295912954000001,1.7039404807552447,0.5306961650889708,-1.3075264448623223, ,0.11460983280008549,0.11876963899683453,0.028343080996441283,-0.09879521049758115,0.11153094537534056,-0.10426004110642313, ,1.6633291244506836
0.014564115991886194,0.022127642269940042,-0.09185685358309878, ,0.015226469538305094,0.021631659662086758,-0.09254413997051263, ,0.0010756735313611724, ,0.01600930092144665,-0.004244254682878779,-0.029248067968538616,-0.0026197840665503668,0.0026216020891023477,0.024487654864252306, ,0.03361191594805071, ,0.003703331272485043, ,0.0006469566696779805, ,0.20643637246089536,-0.22744220587878602,0.10324560963000001,1.7037307908117605,0.5317892570870942,-1.3085811455721748, ,0.11586928151217434,0.11615292724415029,0.030168203636363643,-0.0568862351500323,0.13561824358842053,-0.11779590831743686, ,1.6687099933624268
0.014564115991886194,0.022127642269940042,-0.09185685358309878, ,0.015311908344213658,0.021603259933783047,-0.09269133295379414, ,0.0012371443152635988, ,0.01600930092144665,-0.004244254682878779,-0.029248067968538616,-0.0026197840665503668,0.0026216020891023477,0.024487654864252306, ,0.03361191594805071, ,0.003703331272485043, ,0.0006530410783953581, ,0.20643637246089536,-0.22744220587878602,0.10324560963000001,1.7037307908117605,0.5317892570870942,-1.3085811455721748, ,0.11586928151217434,0.11615292724415029,0.030168203636363643,-0.0568862351500323,0.13561824358842053,-0.11779590831743686, ,1.6741139888763428
0.014768314287352077,0.022069753449958953,-0.09222788341184113, ,0.015397767648812956,0.02157440188942023,-0.09283857847087498, ,0.0010072403674947275, ,0.015455103060445613,-0.004722188849859389,-0.027728475909163403,-0.01937755032688849,-0.009035400199059544,-0.0010890847403407218, ,0.03209404390829842, ,0.021380166545231064, ,0.0006566553568555557, ,0.20791141443987224,-0.22589765930394112,0.10362801518,1.7037307908117605,0.533565531584045,-1.3100295783202283, ,0.11021712143840974,0.11744670984959255,0.02844430628571429,-0.029956579752278507,0.11141629902987173,-0.09783659534583092, ,1.6793692111968994
0.014768314287352077,0.022069753449958953,-0.09222788341184113, ,0.015484038946546617,0.02154510002635314,-0.09298586999861574, ,0.0011670761193729722, ,0.015455103060445613,-0.004722188849859389,-0.027728475909163403,-0.01937755032688849,-0.009035400199059544,-0.0010890847403407218, ,0.03209404390829842, ,0.021380166545231064, ,0.0006618111221335094, ,0.20791141443987224,-0.22589765930394112,0.10362801518,1.7037307908117605,0.533565531584045,-1.3100295783202283, ,0.11021712143840974,0.11744670984959255,0.02844430628571429,-0.029956579752278507,0.11141629902987173,-0.09783659534583092, ,1.6846091747283936
0.01492917958505628,0.02201666355591725,-0.09252122632891445, ,0.015570713794436104,0.02151536874054964,-0.09313320105373504, ,0.0010185164198667994, ,0.0156923205197075,-0.004863098385949118,-0.029694036874260157,0.005073418685222087,0.0270643444577232,-0.015739058895033294, ,0.03393574037934896, ,0.02753534514425693, ,0.0006653781751108423, ,0.20898487430938945,-0.2247160811741848,0.10390671753000001,1.703521100868276,0.5347952600819339,-1.3111140181936367, ,0.11073155374383986,0.12453666871190391,0.03022544880455408,0.0,0.1440131733003381,-0.12315572538919875, ,1.6898860931396484
0.01492917958505628,0.02201666355591725,-0.09252122632891445, ,0.015657783811905808,0.02148522232684855,-0.09328056519272682, ,0.0011789357104748774, ,0.0156923205197075,-0.004863098385949118,-0.029694036874260157,0.005073418685222087,0.0270643444577232,-0.015739058895033294, ,0.03393574037934896, ,0.02753534514425693, ,0.0006704629031837535, ,0.20898487430938945,-0.2247160811741848,0.10390671753000001,1.703521100868276,0.5347952600819339,-1.3111140181936367, ,0.11073155374383986,0.12453666871190391,0.03022544880455408,0.0,0.1440131733003381,-0.12315572538919875, ,1.6951401233673096
0.015075610947120332,0.021967479180094767,-0.09279486070315246, ,0.01574524068061073,0.021454674979221457,-0.09342795601177856, ,0.0010546003025848755, ,0.015200976709566057,-0.005346799328724293,-0.02732061525490582,0.007287741222438168,0.017651761405011075,0.08609357450915872, ,0.03171866916963902, ,0.01909661308982681, ,0.0006742289561190587, ,0.21011239330902623,-0.22348044391430885,0.10421004939,1.7024726511508534,0.5364348980791193,-1.3126143905182748, ,0.11138138680571688,0.11832536353924038,0.028292738046181175,-0.12462033866038073,0.16384848884024922,-0.14370799230408823, ,1.7004671096801758
0.015231785607813908,0.021912906178661307,-0.0930652061632402, ,0.015833076144264296,0.02142374079103458,-0.09357536714669008, ,0.000927953293388927, ,0.015190172837051383,-0.005563091258289677,-0.026387907519766572,-0.00614893967958736,0.005305543690702739,0.018884082772047527, ,0.030951752752296693, ,0.008120680913229839, ,0.0006766922991993487, ,0.21126308050728568,-0.22227569758592983,0.10448875174000001,1.7018435813203996,0.537937899576539,-1.3140033449392166, ,0.11008925934857398,0.11981937065463481,0.027089815510204087,-0.05437417445583581,0.13129704248768184,-0.11816954589173709, ,1.7096800804138184
0.015231785607813908,0.021912906178661307,-0.0930652061632402, ,0.015921282008463454,0.021392433755306715,-0.09372279227279079, ,0.0010856870273956323, ,0.015190172837051383,-0.005563091258289677,-0.026387907519766572,-0.00614893967958736,0.005305543690702739,0.018884082772047527, ,0.030951752752296693, ,0.008120680913229839, ,0.0006806249408166207, ,0.21126308050728568,-0.22227569758592983,0.10448875174000001,1.7018435813203996,0.537937899576539,-1.3140033449392166, ,0.11008925934857398,0.11981937065463481,0.027089815510204087,-0.05437417445583581,0.13129704248768184,-0.11816954589173709, ,1.7149062156677246
0.015391778413848234,0.021855173142938784,-0.09333718913538169, ,0.016009850140517187,0.021360767764972102,-0.09387022510485818, ,0.0009542414169515266, ,0.014926133408313239,-0.0056083912891887475,-0.024807165709211817,-0.01882685722965581,-0.019783296370679986,-0.035112539688896126, ,0.02948964194254836, ,0.027309704752614124, ,0.0006832308120179054, ,0.21233654037680288,-0.22110956492192194,0.10474930603000002,1.7016338913769151,0.5390309915746625,-1.3151397243892093, ,0.10614870420410602,0.11744670984959255,0.025609021736334413,0.0,0.0892278359135992,-0.0948800686036961, ,1.7201261520385742
0.015391778413848234,0.021855173142938784,-0.09333718913538169, ,0.016098772469272306,0.021328756613139467,-0.09401765939703582, ,0.001113550508170408, ,0.014926133408313239,-0.0056083912891887475,-0.024807165709211817,-0.01882685722965581,-0.019783296370679986,-0.035112539688896126, ,0.02948964194254836, ,0.027309704752614124, ,0.0006872904317929291, ,0.21233654037680288,-0.22110956492192194,0.10474930603000002,1.7016338913769151,0.5390309915746625,-1.3151397243892093, ,0.10614870420410602,0.11744670984959255,0.025609021736334413,0.0,0.0892278359135992,-0.0948800686036961, ,1.7253320217132568
0.015535304711675708,0.021800169121096554,-0.09356370174816289, ,0.016188040984941466,0.021296413993354156,-0.09416508894275152, ,0.0010205392834079516, ,0.015024433768495715,-0.005986360624948024,-0.02338833300929295,-0.015321652898010997,-0.023698660415355368,-0.03678787125109355, ,0.028435615775808772, ,0.028220073611676028, ,0.0006904049070416676, ,0.21344861391069123,-0.2198970958606687,0.10499949000000001,1.7018435813203996,0.5398508105732552,-1.3159715892916692, ,0.10996169357876104,0.11832536353924038,0.02395310003007519,0.0,0.08887739653501082,-0.09870820027179528, ,1.7305381298065186
0.015535304711675708,0.021800169121096554,-0.09356370174816289, ,0.016277647738929465,0.021263753499857787,-0.09431250757463612, ,0.0011830152385246355, ,0.015024433768495715,-0.005986360624948024,-0.02338833300929295,-0.015321652898010997,-0.023698660415355368,-0.03678787125109355, ,0.028435615775808772, ,0.028220073611676028, ,0.0006949661138146581, ,0.21344861391069123,-0.2198970958606687,0.10499949000000001,1.7018435813203996,0.5398508105732552,-1.3159715892916692, ,0.10996169357876104,0.11832536353924038,0.02395310003007519,0.0,0.08887739653501082,-0.09870820027179528, ,1.7359180450439453
0.015679144753132684,0.02174210667473432,-0.09379343850556388, ,0.016367584843659667,0.021230788627848093,-0.09445990916443975, ,0.0010860842704223223, ,0.015187173838769248,-0.005877519866307998,-0.02535806533090735,0.03738573628602071,0.016816147213885965,-0.03986926955306129, ,0.030136804182169144, ,0.04099348240237345, ,0.0006985543537835358, ,0.21450662831446,-0.21875413139528346,0.10523541478000001,1.7016338913769151,0.5409439025713787,-1.3171079687416622, ,0.11021712143840974,0.12119660480009038,0.026112805770491805,-0.006597945534117286,0.1323221758365263,-0.155283542596379, ,1.7417430877685547
0.015679144753132684,0.02174210667473432,-0.09379343850556388, ,0.016457844472402075,0.021197532773741465,-0.09460728762295212, ,0.0012511132531895061, ,0.015187173838769248,-0.005877519866307998,-0.02535806533090735,0.03738573628602071,0.016816147213885965,-0.03986926955306129, ,0.030136804182169144, ,0.04099348240237345, ,0.0007035776165054083, ,0.21450662831446,-0.21875413139528346,0.10523541478000001,1.7016338913769151,0.5409439025713787,-1.3171079687416622, ,0.11021712143840974,0.12119660480009038,0.026112805770491805,-0.006597945534117286,0.1323221758365263,-0.155283542596379, ,1.74704909324646
0.015837263848863047,0.02167874013436078,-0.0940589436761379, ,0.016548418859099554,0.021163999235432066,-0.09475463689991923, ,0.0011201288779554258, ,0.01529830263485421,-0.006061221112452453,-0.025686536105902356,0.017239891434556502,0.002715600805630505,0.08656559481975999, ,0.030505320880158792, ,0.017452139186903998, ,0.0007073303305725256, ,0.21566503824559366,-0.21752621686828177,0.10550893197000001,1.700375751716008,0.5424469040687986,-1.3187419593830259, ,0.1120388920406975,0.1171567179734207,0.026503846123128123,-0.1352752419301604,0.14812632172211357,-0.15705476503253754, ,1.752351999282837
0.015837263848863047,0.02167874013436078,-0.0940589436761379, ,0.016639300298194815,0.021130201212553025,-0.09490195098396197, ,0.0012863975807811145, ,0.01529830263485421,-0.006061221112452453,-0.025686536105902356,0.017239891434556502,0.002715600805630505,0.08656559481975999, ,0.030505320880158792, ,0.017452139186903998, ,0.0007125005738779594, ,0.21566503824559366,-0.21752621686828177,0.10550893197000001,1.700375751716008,0.5424469040687986,-1.3187419593830259, ,0.1120388920406975,0.1171567179734207,0.026503846123128123,-0.1352752419301604,0.14812632172211357,-0.15705476503253754, ,1.7576050758361816
0.015994866178157197,0.021621539689577897,-0.09432684286336467, ,0.016730481144457368,0.021096151806736494,-0.0950492239024942, ,0.0011571500212916425, ,0.01616439873215574,-0.005408785290536403,-0.027910783406655853,0.026612033220524016,-0.0014350974352073018,-0.003746895603684167, ,0.03270404524006926, ,0.026650382339783635, ,0.0007164355247400274, ,0.21680027997810467,-0.21632147053990275,0.10578633803000001,1.699956371829039,0.5439499055662184,-1.3203759500243892, ,0.11270420612644985,0.11921726326441054,0.028856542608695655,-0.04524989315616973,0.12437210135277912,-0.15129536532230264, ,1.7628381252288818
0.015994866178157197,0.021621539689577897,-0.09432684286336467, ,0.01682195381281064,0.021061864021875144,-0.09519644972164076, ,0.0013242080260955878, ,0.01616439873215574,-0.005408785290536403,-0.027910783406655853,0.026612033220524016,-0.0014350974352073018,-0.003746895603684167, ,0.03270404524006926, ,0.026650382339783635, ,0.0007217668624712165, ,0.21680027997810467,-0.21632147053990275,0.10578633803000001,1.699956371829039,0.5439499055662184,-1.3203759500243892, ,0.11270420612644985,0.11921726326441054,0.028856542608695655,-0.04524989315616973,0.12437210135277912,-0.15129536532230264, ,1.7681021690368652
0.01616523140084129,0.021572691462430196,-0.09462317258591676, ,0.016913710778158394,0.021027350764381565,-0.09534362254615558, ,0.0011733141098722378, ,0.016739226548527896,-0.004723911608679784,-0.029859475297956083,-0.005270983432316968,-0.001341200275927718,-0.00977083905270229, ,0.03455582890626139, ,0.005436758992462908, ,0.0007256933602747036, ,0.21795868990923833,-0.21512444694439795,0.10609355876000001,1.699956371829039,0.5450429975643419,-1.3216756869546635, ,0.11297254947436998,0.1170122583951551,0.030989905680933853,-0.025576063523742257,0.1205078679120494,-0.1111242029034947, ,1.7777972221374512
0.016328811474142075,0.021521502857095236,-0.09491292959028073, ,0.01700574457521264,0.020992624843450367,-0.09549073651934044, ,0.0010352831612227462, ,0.016244386646647527,-0.005099846120859656,-0.02848029924884442,0.03820819245019335,0.023658056400920613,-0.04380487864021771, ,0.03318156074216456, ,0.044939413269439184, ,0.0007283622378690832, ,0.2190784861760009,-0.21393514608176736,0.10639429804000002,1.6997466818855542,0.5464093625619963,-1.3231982596923304, ,0.11164346065702443,0.11832536353924038,0.02960745635687733,0.0,0.13915573989019644,-0.1513099231404589, ,1.7833151817321777
0.016328811474142075,0.021521502857095236,-0.09491292959028073, ,0.01709804779831927,0.0209576989713171,-0.09563778582296162, ,0.0011979214924645492, ,0.016244386646647527,-0.005099846120859656,-0.02848029924884442,0.03820819245019335,0.023658056400920613,-0.04380487864021771, ,0.03318156074216456, ,0.044939413269439184, ,0.0007323755648314377, ,0.2201210551140212,-0.21283079528075327,0.10666263007000001,1.6993273019985855,0.5476390910598853,-1.3242826995657389, ,0.10650610724856428,0.11086091303559671,0.02573313654281099,-0.018975643319315942,0.10090731526676175,-0.08633099665260831, ,1.788802146911621
0.01647949473659443,0.02146998462626022,-0.09517166543908645, ,0.01719061310128648,0.020922585763520754,-0.09578476467716984, ,0.0010868419936997244, ,0.015275611476631524,-0.0053494257033375806,-0.024827062062717387,-0.022866379739816124,-0.012436888039118946,-0.011515631781366368, ,0.029636863396900595, ,0.026029561540806344, ,0.0007353795176184571, ,0.2201210551140212,-0.21283079528075327,0.10666263007000001,1.6993273019985855,0.5476390910598853,-1.3242826995657389, ,0.10650610724856428,0.11086091303559671,0.02573313654281099,-0.018975643319315942,0.10090731526676175,-0.08633099665260831, ,1.7947731018066406
0.016642337230659304,0.021401744347423632,-0.09541945213965017, ,0.017283433197209756,0.02088729773916182,-0.09593166734041679, ,0.000968516268823467, ,0.015527013796037083,-0.006975065806241997,-0.022532362170620948,-0.0748835785041731,-0.0792364064192457,0.047063685446283865, ,0.028239104897495638, ,0.10902271609042223, ,0.0007373386499815244, ,0.22126401957940642,-0.2116106034866258,0.10691670291000001,1.6984885422246472,0.5483222735587124,-1.325003146564502, ,0.10996169357876104,0.11803102183889398,0.023018513757225436,-0.08465431809718468,0.049827216154906276,-0.05783743932163066, ,1.7999911308288574
0.016642337230659304,0.021401744347423632,-0.09541945213965017, ,0.017376500858301343,0.020851847321166222,-0.09607848810937486, ,0.0011294739399517924, ,0.015527013796037083,-0.006975065806241997,-0.022532362170620948,-0.0748835785041731,-0.0792364064192457,0.047063685446283865, ,0.028239104897495638, ,0.10902271609042223, ,0.0007406064440646098, ,0.22126401957940642,-0.2116106034866258,0.10691670291000001,1.6984885422246472,0.5483222735587124,-1.325003146564502, ,0.10996169357876104,0.11803102183889398,0.023018513757225436,-0.08465431809718468,0.049827216154906276,-0.05783743932163066, ,1.8052730560302734
0.016788684409658704,0.0213384479051996,-0.09563103182268091, ,0.01746980891571402,0.02081624683654175,-0.09622522131885279, ,0.0010438801206161005, ,0.015492086708104334,-0.00639063770127147,-0.021599959698463365,-0.014748496171267604,-0.028314043803219523,-0.06319188917388907, ,0.027338676993877684, ,0.031924888629383606, ,0.0007431128380856965, ,0.22231431125030096,-0.21050625268561168,0.10713447963000002,1.698069162337678,0.5490054560575397,-1.3255602360829841, ,0.11297254947436998,0.11544640092271385,0.022403391729957808,0.02739935905799149,0.0810777485267027,-0.09080755717394223, ,1.8105740547180176
0.016788684409658704,0.0213384479051996,-0.09563103182268091, ,0.017563350259371602,0.020780508516643228,-0.09637186134171713, ,0.0012084005611921462, ,0.015492086708104334,-0.00639063770127147,-0.021599959698463365,-0.014748496171267604,-0.028314043803219523,-0.06319188917388907, ,0.027338676993877684, ,0.031924888629383606, ,0.0007469266718816511, ,0.22231431125030096,-0.21050625268561168,0.10713447963000002,1.698069162337678,0.5490054560575397,-1.3255602360829841, ,0.11297254947436998,0.11544640092271385,0.022403391729957808,0.02739935905799149,0.0810777485267027,-0.09080755717394223, ,1.815791130065918
0.016948436684774127,0.02127236063099235,-0.09586037542246051, ,0.01765711783779321,0.02074464449742983,-0.09651840258880769, ,0.0011016864553572072, ,0.015598854647312163,-0.0063969318244194145,-0.022825084390625434,0.05427234339411135,0.032645253868227704,-0.038818863595551895, ,0.02837656569272284, ,0.06333398505000948, ,0.0007498108977635661, ,0.22350361211293154,-0.20930150635723266,0.10737429328,1.698278852281163,0.5503718210551941,-1.3269194513403701, ,0.11672440536097266,0.11658100928559063,0.02395310003007519,-0.0075083397441106595,0.1550998380874304,-0.1669949825808709, ,1.821031093597412
0.016948436684774127,0.02127236063099235,-0.09586037542246051, ,0.01775110465792014,0.020708666819725753,-0.09666483950885643, ,0.00126853815641289, ,0.015598854647312163,-0.0063969318244194145,-0.022825084390625434,0.05427234339411135,0.032645253868227704,-0.038818863595551895, ,0.02837656569272284, ,0.06333398505000948, ,0.0007539941821075124, ,0.22350361211293154,-0.20930150635723266,0.10737429328,1.698278852281163,0.5503718210551941,-1.3269194513403701, ,0.11672440536097266,0.11658100928559063,0.02395310003007519,-0.0075083397441106595,0.1550998380874304,-0.1669949825808709, ,1.8265891075134277
0.01706518560197578,0.021225131463860306,-0.09603627267716765, ,0.01784530378494541,0.020672587429483393,-0.09681116658840633, ,0.0012305892340664028, ,0.016005940801617224,-0.005975433537218608,-0.025003768801238366,0.020951370384454587,0.011284606103550384,-0.001056537660151155, ,0.030283401413453755, ,0.023796900699686246, ,0.0007578069425231835, ,0.22436083546197044,-0.20844428300819373,0.10755836646000001,1.6978594723941938,0.5514649130533176,-1.3279741520502224, ,0.1141960788910599,0.11488733844851184,0.026155683940886704,-0.04140636681414851,0.13772380132627063,-0.13921988911244498, ,1.8319032192230225
0.01706518560197578,0.021225131463860306,-0.09603627267716765, ,0.017939708342138014,0.02063641817804144,-0.09695737835172863, ,0.0013999317910773203, ,0.016005940801617224,-0.005975433537218608,-0.025003768801238366,0.020951370384454587,0.011284606103550384,-0.001056537660151155, ,0.030283401413453755, ,0.023796900699686246, ,0.0007629031714799624, ,0.22436083546197044,-0.20844428300819373,0.10755836646000001,1.6978594723941938,0.5514649130533176,-1.3279741520502224, ,0.1141960788910599,0.11488733844851184,0.026155683940886704,-0.04140636681414851,0.13772380132627063,-0.13921988911244498, ,1.8371620178222656
0.017278360029891696,0.021152657461694105,-0.0963861195390066, ,0.018034311510670458,0.020600170822385758,-0.0971034693607409, ,0.0011795316420715738, ,0.017258217159747735,-0.005385238070054574,-0.030140070257888105,-0.012434702613233213,-0.039204729937309286,0.05367266374146303, ,0.03514641779405986, ,0.041129160044064306, ,0.000766183710618479, ,0.22580498650945044,-0.20699240922783954,0.10792262395,1.6966013327332867,0.5528312780509721,-1.3298234397484519, ,0.1111205404665934,0.11586928151217434,0.03129432518664047,-0.10367674350198279,0.09558362077027233,-0.12290884204707446, ,1.8424420356750488
0.017278360029891696,0.021152657461694105,-0.0963861195390066, ,0.018129106529447245,0.020563857025411837,-0.09724943421492671, ,0.0013475042819714018, ,0.017258217159747735,-0.005385238070054574,-0.030140070257888105,-0.012434702613233213,-0.039204729937309286,0.05367266374146303, ,0.03514641779405986, ,0.041129160044064306, ,0.0007707252775821737, ,0.22580498650945044,-0.20699240922783954,0.10792262395,1.6966013327332867,0.5528312780509721,-1.3298234397484519, ,0.1111205404665934,0.11586928151217434,0.03129432518664047,-0.10367674350198279,0.09558362077027233,-0.12290884204707446, ,1.847717046737671
0.017449882048965526,0.021105792159234967,-0.09669220415316328, ,0.01822408669492945,0.020527488356182892,-0.09739526755125114, ,0.0011950423692018062, ,0.017924134228298617,-0.004545330656318026,-0.032933464252905456,0.008699896636980717,-0.01977275394731054,-0.010690593233204313, ,0.037769666219159684, ,0.02160118648836223, ,0.0007740145573621708, ,0.22688616911184187,-0.20585716749532854,0.10824151129000001,1.696391642789802,0.5537877335493301,-1.3309300800348889, ,0.11060249598889368,0.11601093100057551,0.034329335172413794,-0.03752266511464044,0.10099497944762573,-0.1296830126398195, ,1.8529281616210938
0.017449882048965526,0.021105792159234967,-0.09669220415316328, ,0.01831924536096327,0.020491076290191965,-0.09754096404408115, ,0.0013616392768761852, ,0.017924134228298617,-0.004545330656318026,-0.032933464252905456,0.008699896636980717,-0.01977275394731054,-0.010690593233204313, ,0.037769666219159684, ,0.02160118648836223, ,0.0007785347475122786, ,0.22688616911184187,-0.20585716749532854,0.10824151129000001,1.696391642789802,0.5537877335493301,-1.3309300800348889, ,0.11060249598889368,0.11601093100057551,0.034329335172413794,-0.03752266511464044,0.10099497944762573,-0.1296830126398195, ,1.8581600189208984
0.017640633233029366,0.021055374079212447,-0.09703027335989042, ,0.018414575938606743,0.020454632209622424,-0.09768651840510327, ,0.0011792097628332966, ,0.01802798917326855,-0.005080677019149344,-0.031035967098898283,-0.018131937439756596,-0.04451339234728507,-0.03391122775011097, ,0.03624986794966703, ,0.048064336653738333, ,0.0007815933354154925, ,0.22807546997447245,-0.20461380750257838,0.10859410217000001,1.696391642789802,0.5547441890476882,-1.332118399061467, ,0.11270420612644985,0.11773814089140294,0.03230996251521299,-0.009897638152965826,0.07198518778209986,-0.09888159151812834, ,1.863542079925537
0.017640633233029366,0.021055374079212447,-0.09703027335989042, ,0.018510071895956184,0.020418167403608085,-0.09783192538324058, ,0.0013433547195614913, ,0.01802798917326855,-0.005080677019149344,-0.031035967098898283,-0.018131937439756596,-0.04451339234728507,-0.03391122775011097, ,0.03624986794966703, ,0.048064336653738333, ,0.0007858491034772046, ,0.22807546997447245,-0.20461380750257838,0.10859410217000001,1.696391642789802,0.5547441890476882,-1.332118399061467, ,0.11270420612644985,0.11773814089140294,0.03230996251521299,-0.009897638152965826,0.07198518778209986,-0.09888159151812834, ,1.8688859939575195
0.017814781841493453,0.02100106894138828,-0.0973200317764524, ,0.018605726757973215,0.020381693068493793,-0.09797717976457204, ,0.0012004431727985604, ,0.017655263684825288,-0.005863711040645295,-0.028738173326741504,0.012181785363717113,-0.017587258938985318,-0.019583314447614377, ,0.03423410651830617, ,0.021393643211047007, ,0.0007889663521187185, ,0.22919526624123499,-0.20346312030431893,0.10889613774000001,1.6959722629028329,0.5555640080462809,-1.3332769789244887, ,0.11643796510241813,0.11936722208612675,0.03005436135849057,-0.029563652571583884,0.10750430633550516,-0.13447809938368477, ,1.8751552104949951
0.01799585802454569,0.0209359058727683,-0.09760533586091791, ,0.018701534106312374,0.020345220308096604,-0.09812227637225077, ,0.001055516774355661, ,0.017510510047700302,-0.006544389917448371,-0.02634456858358992,-2.4302856040115664e-06,-0.021146917742972622,0.06759658012836926, ,0.032302992049927606, ,0.0211466178410293, ,0.000790955534374218, ,0.23038456710386557,-0.2022815421745626,0.1091865067,1.695133503128895,0.5569303730439352,-1.334717872922015, ,0.12197550328852286,0.11629527151773382,0.027606259133448878,-0.11718105513821792,0.12734817984245136,-0.1383522209034796, ,1.8804349899291992
0.01799585802454569,0.0209359058727683,-0.09760533586091791, ,0.018797487579147055,0.020308760133965688,-0.09826721006642072, ,0.0012140836809786395, ,0.017510510047700302,-0.006544389917448371,-0.02634456858358992,-2.4302856040115664e-06,-0.021146917742972622,0.06759658012836926, ,0.032302992049927606, ,0.0211466178410293, ,0.0007940898169416582, ,0.23038456710386557,-0.2022815421745626,0.1091865067,1.695133503128895,0.5569303730439352,-1.334717872922015, ,0.12197550328852286,0.11629527151773382,0.027606259133448878,-0.11718105513821792,0.12734817984245136,-0.1383522209034796, ,1.8856470584869385
0.018171748902960076,0.02086779493392593,-0.09786291209471491, ,0.01889358087099725,0.020272323465643432,-0.09841197574413657, ,0.0010849417268845203, ,0.01714619891686661,-0.007045960958484827,-0.024382555187861015,0.005176820461193629,-0.012027178353280495,0.0008763870652118051, ,0.03062918054101902, ,0.013093657679794037, ,0.0007962284339265322, ,0.2316588180281126,-0.201022736716064,0.10946650534,1.6947141232419258,0.5581601015418242,-1.336047349015845, ,0.12119660480009038,0.12012271083350731,0.02565026009661836,-0.04729661363609684,0.12157915053484293,-0.13108161714408306, ,1.890883207321167
0.018171748902960076,0.02086779493392593,-0.09786291209471491, ,0.018989807732556166,0.020235921130925812,-0.09855656833928064, ,0.0012448468730020528, ,0.01714619891686661,-0.007045960958484827,-0.024382555187861015,0.005176820461193629,-0.012027178353280495,0.0008763870652118051, ,0.03062918054101902, ,0.013093657679794037, ,0.0007995030210730689, ,0.2316588180281126,-0.201022736716064,0.10946650534,1.6947141232419258,0.5581601015418242,-1.336047349015845, ,0.12119660480009038,0.12012271083350731,0.02565026009661836,-0.04729661363609684,0.12157915053484293,-0.13108161714408306, ,1.896226167678833
0.018297965668161158,0.02081811874576217,-0.09803995832091122, ,0.019086161970516897,0.020199563866122722,-0.09870098282248166, ,0.0012003403441730486, ,0.01725619709362426,-0.006981293229447404,-0.024261487737629817,0.010363249835583135,-0.022184156147916512,-0.01807220939424533, ,0.03057997025068364, ,0.024485206251801395, ,0.000802407639356402, ,0.23254693230864842,-0.20015006790127662,0.10965317110000002,1.6947141232419258,0.5589799205404169,-1.3369608926584453, ,0.12088782364136405,0.11951755863787251,0.02552694153846154,-0.03149070559513394,0.10755472740703592,-0.13329773764343456, ,1.9015130996704102
0.018297965668161158,0.02081811874576217,-0.09803995832091122, ,0.019182637447399786,0.020163262316318882,-0.09884521420103227, ,0.0013637881553357108, ,0.01725619709362426,-0.006981293229447404,-0.024261487737629817,0.010363249835583135,-0.022184156147916512,-0.01807220939424533, ,0.03057997025068364, ,0.024485206251801395, ,0.0008064463481044546, ,0.23254693230864842,-0.20015006790127662,0.10965317110000002,1.6947141232419258,0.5589799205404169,-1.3369608926584453, ,0.12088782364136405,0.11951755863787251,0.02552694153846154,-0.03149070559513394,0.10755472740703592,-0.13329773764343456, ,1.9068140983581543
0.01852121572160985,0.020728732964176145,-0.09836116274642344, ,0.019279228081379295,0.02012702703563456,-0.09898925751880834, ,0.0011537485883426147, ,0.017705127834069544,-0.0069349940971667,-0.026057849416863843,-0.05241229164201304,-0.04037431173141292,-0.02114980068792087, ,0.03225797902814794, ,0.06615981672290411, ,0.00080892707839187, ,0.23399880608900264,-0.1986981941209224,0.10997076215000001,1.6945044332984414,0.5600730125385404,-1.3382606295887196, ,0.11876963899683453,0.12150696742441842,0.027089815510204087,0.0,0.07894653759029671,-0.06437408264425731, ,1.9120800495147705
0.01852121572160985,0.020728732964176145,-0.09836116274642344, ,0.019375927846111,0.020090868487485914,-0.09913310785618593, ,0.001316549717587144, ,0.017705127834069544,-0.0069349940971667,-0.026057849416863843,-0.05241229164201304,-0.04037431173141292,-0.02114980068792087, ,0.03225797902814794, ,0.06615981672290411, ,0.0008125272389535387, ,0.23399880608900264,-0.1986981941209224,0.10997076215000001,1.6945044332984414,0.5600730125385404,-1.3382606295887196, ,0.11876963899683453,0.12150696742441842,0.027089815510204087,0.0,0.07894653759029671,-0.06437408264425731, ,1.91733717918396
0.018693123331199418,0.020662069444644035,-0.09862287056925868, ,0.019472730770558104,0.020054797044845547,-0.0992767603299598, ,0.001184963858609278, ,0.017942090405517884,-0.006955460591778108,-0.028262019429432534,0.0024706939417018033,-0.01254446880203786,0.0856635707308238, ,0.03419120913909272, ,0.012784756362134258, ,0.0008151500320497058, ,0.23522672061600433,-0.1974393886624238,0.11026501998000002,1.6934559835810188,0.5613027410364293,-1.3395901056825497, ,0.11966827434863908,0.12088782364136405,0.02971793194029851,-0.1401751015833764,0.1378873473227004,-0.15042181789918652, ,1.9225621223449707
0.018693123331199418,0.020662069444644035,-0.09862287056925868, ,0.019569630938818774,0.02001882299050311,-0.09942021009326191, ,0.0013482514244447027, ,0.017942090405517884,-0.006955460591778108,-0.028262019429432534,0.0024706939417018033,-0.01254446880203786,0.0856635707308238, ,0.03419120913909272, ,0.012784756362134258, ,0.0008188780138147058, ,0.23522672061600433,-0.1974393886624238,0.11026501998000002,1.6934559835810188,0.5613027410364293,-1.3395901056825497, ,0.11966827434863908,0.12088782364136405,0.02971793194029851,-0.1401751015833764,0.1378873473227004,-0.15042181789918652, ,1.9287161827087402
0.018693123331199418,0.020662069444644035,-0.09862287056925868, ,0.019666622489952972,0.019982956517325977,-0.099563452335479, ,0.001514459982663958, ,0.017942090405517884,-0.006955460591778108,-0.028262019429432534,0.0024706939417018033,-0.01254446880203786,0.0856635707308238, ,0.03419120913909272, ,0.012784756362134258, ,0.0008237084441539366, ,0.2366322579991132,-0.1960184058135665,0.11061242570000002,1.6926172238070805,0.5629423790336147,-1.34141719296775, ,0.12104201729396784,0.12292349942807097,0.03005436135849057,-0.05570729353060766,0.12907130993303523,-0.1282842971177996, ,1.934338092803955
0.018904087990132906,0.02058324031843093,-0.09895214378709243, ,0.019763699617809397,0.019947207728519874,-0.09970648228217108, ,0.001308623769852556, ,0.018353531615827093,-0.006782759003867445,-0.028497894507052014,-0.0018813629535085678,-0.00582761258866241,0.00970402863238735, ,0.034568597510063595, ,0.006122238080478347, ,0.0008270526877794444, ,0.2366322579991132,-0.1960184058135665,0.11061242570000002,1.6926172238070805,0.5629423790336147,-1.34141719296775, ,0.12104201729396784,0.12292349942807097,0.03005436135849057,-0.05570729353060766,0.12907130993303523,-0.1282842971177996, ,1.9398159980773926
0.019128150065434016,0.02050277171660654,-0.09927863414922054, ,0.019860856570852115,0.019911586637888983,-0.09984929519498958, ,0.0011009144605910598, ,0.01820761024052078,-0.0068865750811398846,-0.025150610543676087,-0.04685583277722588,-0.06368336909901899,-0.03807370740537633, ,0.03180401228993859, ,0.07906345870057357, ,0.0008289284533466473, ,0.2381150227109643,-0.1945665320332123,0.11095723884000001,1.6924075338635962,0.5640354710317381,-1.3424718936776026, ,0.12088782364136405,0.11891847313091576,0.026503846123128123,0.0,0.05854379046199795,-0.06830905348044475, ,1.94547700881958
0.019128150065434016,0.02050277171660654,-0.09927863414922054, ,0.019958087651988785,0.019876103170097848,-0.09999188637159556, ,0.001261046627798741, ,0.01820761024052078,-0.0068865750811398846,-0.025150610543676087,-0.04685583277722588,-0.06368336909901899,-0.03807370740537633, ,0.03180401228993859, ,0.07906345870057357, ,0.0008318680327646887, ,0.2381150227109643,-0.1945665320332123,0.11095723884000001,1.6924075338635962,0.5640354710317381,-1.3424718936776026, ,0.12088782364136405,0.11891847313091576,0.026503846123128123,0.0,0.05854379046199795,-0.06830905348044475, ,1.9508020877838135
0.019319678692922785,0.0204244207530782,-0.09954593204665567, ,0.0200553872183953,0.01984076716092998,-0.10013425114557722, ,0.0011081687201127505, ,0.018328349800537658,-0.00747550301151989,-0.025892864247011482,-0.005673232319466175,-0.003053594142552414,-0.03426887921578421, ,0.03259220720663572, ,0.00644192234859405, ,0.0008337349293008243, ,0.23941244183383403,-0.19325366744459413,0.11123983006000002,1.6924075338635962,0.5651285630298617,-1.3436082731275956, ,0.12470031742243204,0.1255250549715222,0.02746346813793104,-0.006999105107875828,0.12598351722414655,-0.11524012183810477, ,1.9561131000518799
0.019319678692922785,0.0204244207530782,-0.09954593204665567, ,0.02015274968134518,0.019805588357550197,-0.1002763848863692, ,0.001269063495870694, ,0.018328349800537658,-0.00747550301151989,-0.025892864247011482,-0.005673232319466175,-0.003053594142552414,-0.03426887921578421, ,0.03259220720663572, ,0.00644192234859405, ,0.0008366565975328368, ,0.23941244183383403,-0.19325366744459413,0.11123983006000002,1.6924075338635962,0.5651285630298617,-1.3436082731275956, ,0.12470031742243204,0.1255250549715222,0.02746346813793104,-0.006999105107875828,0.12598351722414655,-0.11524012183810477, ,1.9613561630249023
0.019500307945014027,0.02035106801222042,-0.09980594747210848, ,0.020250169506034914,0.01977057641876446,-0.1004182829991697, ,0.001128812494824124, ,0.018328369308714176,-0.007245868291521959,-0.025983201960579988,0.01855883569763065,-0.005901117643923615,0.04668772933441505, ,0.03261224483133578, ,0.019474129732930757, ,0.0008386043035147787, ,0.24064035636083572,-0.1920489211162151,0.11151593983000001,1.691568774089658,0.5664949280275161,-1.3448858096448408, ,0.1255250549715222,0.11862117694808846,0.02770228090434783,-0.10104020006720096,0.1421262648058289,-0.15597217755919093, ,1.9702441692352295
0.01962151282605937,0.020304563204671146,-0.0999775415015508, ,0.02034764121141104,0.019735740915279944,-0.10055994092485873, ,0.0010908759403300994, ,0.018219898366908505,-0.007611225530615216,-0.025218238568241586,-0.04555962482498283,-0.02320520704976862,0.06968819296066354, ,0.032028971370668645, ,0.051128767333434556, ,0.0008402749766062709, ,0.24064035636083572,-0.1920489211162151,0.11151593983000001,1.691568774089658,0.5664949280275161,-1.3448858096448408, ,0.1255250549715222,0.11862117694808846,0.02770228090434783,-0.10104020006720096,0.1421262648058289,-0.15597217755919093, ,1.9755620956420898
0.01962151282605937,0.020304563204671146,-0.0999775415015508, ,0.020445159369998328,0.019701091329967117,-0.10070135413991725, ,0.0012515896565409852, ,0.018219898366908505,-0.007611225530615216,-0.025218238568241586,-0.04555962482498283,-0.02320520704976862,0.06968819296066354, ,0.032028971370668645, ,0.051128767333434556, ,0.0008429809942374204, ,0.24145896604550351,-0.19126892509591842,0.11169871672000001,1.6911493942026892,0.5673147470261087,-1.3458810320275818, ,0.12453666871190391,0.11981937065463481,0.026816181010101015,-0.10746290938578597,0.12466614947319231,-0.09229967948541479, ,1.980828046798706
0.019860729749039425,0.020216278205311994,-0.10030575086266628, ,0.020542718607724567,0.019666637058118264,-0.10084251815634349, ,0.001027294174820751, ,0.018172806767747022,-0.006875293099817436,-0.024750602502590178,-0.04361316157843995,-0.060300376062435004,-0.0016687856599312209, ,0.031466059258628054, ,0.07441931152594426, ,0.0008441856555484225, ,0.243057571750468,-0.18976299218544465,0.11204871502000001,1.6909397042592043,0.5685444755239978,-1.3471288293812713, ,0.11966827434863908,0.11405882398854661,0.02628516752475248,-0.03816868524604943,0.06809298573342393,-0.07550056196726009, ,1.9861140251159668
0.019860729749039425,0.020216278205311994,-0.10030575086266628, ,0.02064031360375011,0.019632387407710297,-0.10098342852157344, ,0.001186560769379889, ,0.018172806767747022,-0.006875293099817436,-0.024750602502590178,-0.04361316157843995,-0.060300376062435004,-0.0016687856599312209, ,0.031466059258628054, ,0.07441931152594426, ,0.0008464088705733022, ,0.243057571750468,-0.18976299218544465,0.11204871502000001,1.6909397042592043,0.5685444755239978,-1.3471288293812713, ,0.11966827434863908,0.11405882398854661,0.02628516752475248,-0.03816868524604943,0.06809298573342393,-0.07550056196726009, ,1.9913220405578613
0.020040822914430805,0.020146111984056234,-0.10055944095263555, ,0.020737939090292264,0.01959835159966335,-0.10112408081839688, ,0.0010511092138141096, ,0.018115277341420134,-0.007191827902584933,-0.025881461676401388,-0.008359658837443242,-0.018654092220764234,-0.0191938477927595, ,0.0323996253102409, ,0.02044131697006423, ,0.0008477295179490494, ,0.24423914988022435,-0.1885814140556883,0.11231834334000002,1.6909397042592043,0.5695009310223558,-1.347908754707146, ,0.11862117694808846,0.11936722208612675,0.0275109007253886,-0.025423221857618503,0.10717502193280322,-0.1121500052740764, ,1.9965541362762451
0.020040822914430805,0.020146111984056234,-0.10055944095263555, ,0.02083558985245443,0.019564538768103046,-0.10126447066487645, ,0.0012111766124030267, ,0.018115277341420134,-0.007191827902584933,-0.025881461676401388,-0.008359658837443242,-0.018654092220764234,-0.0191938477927595, ,0.0323996253102409, ,0.02044131697006423, ,0.000850059307016062, ,0.24423914988022435,-0.1885814140556883,0.11231834334000002,1.6909397042592043,0.5695009310223558,-1.347908754707146, ,0.11862117694808846,0.11936722208612675,0.0275109007253886,-0.025423221857618503,0.10717502193280322,-0.1121500052740764, ,2.001866102218628
0.020163230845861004,0.020099775756455864,-0.10073883035748271, ,0.02093326072805153,0.019530957960619842,-0.10140459371426644, ,0.0011660791360632622, ,0.017635332620744997,-0.006300945273435867,-0.025795872367230147,0.018651675232060953,0.0040491363513876,-0.03061740863267828, ,0.03187685522710128, ,0.019085834325992642, ,0.0008520721721692289, ,0.24502686863339523,-0.18780141803539163,0.11250889797000001,1.6905203243722353,0.570184113521183,-1.3485475229657689, ,0.11502659582844943,0.11099057492218804,0.027606259133448878,-0.01312407572565559,0.12433050287487471,-0.12779470636839363, ,2.0097122192382812
0.02040122834315301,0.0200050424438249,-0.10107957393991998, ,0.021030946607437304,0.019497618138529883,-0.10154444565492908, ,0.0009328077129788626, ,0.017299900356741605,-0.007026125013994745,-0.0245668465575182,0.007544751459756068,0.0036763737379307037,0.08968356976936687, ,0.03085746157489489, ,0.008392261317182594, ,0.0008525831566047328, ,0.2466254743383597,-0.18628776239204362,0.11287445175000001,1.6890524947678438,0.5722336610176646,-1.3505455064817773, ,0.11643796510241813,0.10907694432008136,0.02637220450331126,-0.13969185236660764,0.14918400531262377,-0.1445665111745276, ,2.014975070953369
0.02040122834315301,0.0200050424438249,-0.10107957393991998, ,0.021128642433332172,0.01946452817713649,-0.10168402221025495, ,0.0010893322002932919, ,0.017299900356741605,-0.007026125013994745,-0.0245668465575182,0.007544751459756068,0.0036763737379307037,0.08968356976936687, ,0.03085746157489489, ,0.008392261317182594, ,0.0008540721443008872, ,0.2466254743383597,-0.18628776239204362,0.11287445175000001,1.6890524947678438,0.5722336610176646,-1.3505455064817773, ,0.11643796510241813,0.10907694432008136,0.02637220450331126,-0.13969185236660764,0.14918400531262377,-0.1445665111745276, ,2.020177125930786
0.020571761444450377,0.019941866341203866,-0.1013187649180048, ,0.02122634320064885,0.019431696865989324,-0.1018233191385796, ,0.0009712492627994123, ,0.017422533908799744,-0.005969790776118557,-0.02407208892545258,-0.020293969476713296,-0.015320139136369605,-0.05533141812710935, ,0.03030921567689939, ,0.02542722512088272, ,0.0008548045012915029, ,0.24774527060512228,-0.18524519345402332,0.11313111717000002,1.68842342493739,0.5733267530157882,-1.3516002071916298, ,0.11324217369745916,0.10520725228211839,0.025900506536585367,0.026338880010400332,0.09512521439759722,-0.07287673591388744, ,2.0253992080688477
0.020571761444450377,0.019941866341203866,-0.1013187649180048, ,0.021324043956319445,0.019399132909145713,-0.10196233223310143, ,0.0011290117116302813, ,0.017422533908799744,-0.005969790776118557,-0.02407208892545258,-0.020293969476713296,-0.015320139136369605,-0.05533141812710935, ,0.03030921567689939, ,0.02542722512088272, ,0.0008565076516662779, ,0.24774527060512228,-0.18524519345402332,0.11313111717000002,1.68842342493739,0.5733267530157882,-1.3516002071916298, ,0.11324217369745916,0.10520725228211839,0.025900506536585367,0.026338880010400332,0.09512521439759722,-0.07287673591388744, ,2.030726194381714
0.020741053832084456,0.01988329119919725,-0.10155364559158774, ,0.02142173979912434,0.019366844925431993,-0.10210105732180194, ,0.0010147461464756345, ,0.017403846348014465,-0.0063400392115100625,-0.02421554436840432,-0.01565151541369382,-0.024121599750183114,-0.01795458099493692, ,0.030487416321606193, ,0.028754359366649142, ,0.0008574844324984345, ,0.24884189867326215,-0.18421034724887722,0.11338389372000002,1.6888428048243591,0.5742832085141462,-1.3526251687379265, ,0.11230407285026127,0.10626757173400983,0.025985010636215337,-0.01980402969847485,0.09383108329441049,-0.09070622960440844, ,2.0359981060028076
