NicholasDascanio/dvrk_moveit_final/test/execution/third_experiment_notsharpbends/thirdexp_200vel3.0/thirdexp_200vel3.0_18.csv
Current Position (x),Current Position (y),Current Position (z), ,Planned Position (x),Planned Position (y),Planned Position (z), ,Position Error,,Cartesian linear Velocity(x),Cartesian linear Velocity(y),Cartesian linear Velocity(z),Cartesian Angular Velocity(x),Cartesian Angular Velocity(y),Cartesian Angular Velocity(z), ,Total Linear Velocity, ,Total Angular Velocity, ,MSE, ,Joint 1 Position,Joint 2 Position,Joint 3 Position,Joint 4 Position,Joint 5 Position,Joint 6 Position, ,Joint 1 Velocity,Joint 2 Velocity,Joint 3 Velocity,Joint 4 Velocity,Joint 5 Velocity,Joint 6 Velocity, ,Time Stamp
0.009618753784238937,0.02015387541698154,-0.07821962253411491, ,0.009809351114454024,0.020113510211933822,-0.07842629949288404, ,0.000284028268575018, ,0.0017591586487158994,0.00044925493408793206,-0.002314040518691713,0.18233259911955652,-0.15629000447418318,-0.11460530606225729, ,0.0029413011864311543, ,0.24014941640605073, ,2.3669022381251498e-05, ,0.1784028521274604,-0.2434128174626823,0.08888790159000001,1.704779240529183,0.5115670551218091,-1.2879256800779357, ,0.0004607221421850083,0.0002172762012775884,0.0018920075448390548,0.0006996900506808365,-0.16326688008200377,-0.20959807519768514, ,0.05237293243408203
0.009702691804859642,0.02018921493880396,-0.07839686343878818, ,0.009886335583036865,0.020151801722466167,-0.0786774968812228, ,0.00033746098297825206, ,0.0026464089564998392,0.0011724384858684315,-0.0055565881150926675,0.07285808149624334,-0.18023461845713284,-0.08125793450249107, ,0.006265282423720188, ,0.19440374925500883, ,2.8249511434239546e-05, ,0.1784646339904542,-0.24335103559968851,0.08904993784000001,1.704779240529183,0.5058283221316605,-1.2988467674895334, ,0.0019136271176305505,0.0011808963116030065,0.005107025174735492,0.0006613855249962212,-0.1750701888518332,-0.1454033252149346, ,0.10445594787597656
0.00977445783102944,0.02025134372743231,-0.07869662362894879, ,0.009963623774552637,0.02018918894988341,-0.07892790431272875, ,0.00030518473954459506, ,0.0007869270303515783,0.0007135203173461414,-0.003471063958360294,0.02502988037813212,0.011696801470643944,-0.00613150637433728, ,0.0036299656193126023, ,0.027628066814082343, ,2.8958562221808283e-05, ,0.17871176144242937,-0.2431888582093298,0.08936234373000002,1.704779240529183,0.505964958631426,-1.2930773161031093, ,0.0035356627852717037,0.0023266928464191266,0.0038410444948155298,0.0006203544604899212,0.01679647130483147,-0.01585943148527795, ,0.1572408676147461
0.009836650487837328,0.0202940857835552,-0.07893310752195, ,0.010041211078954702,0.020225681472474503,-0.07917751846190223, ,0.0003259768285952935, ,0.001283635672286986,0.0008064516759760047,-0.004749387392228549,0.010653069420104681,-0.005060211068220528,-0.006874481666155388, ,0.004985455390063346, ,0.011793795899031173, ,2.9825019516503773e-05, ,0.17896661162727878,-0.24298034442172575,0.08960993512000001,1.704779240529183,0.5061015951311915,-1.2944955938490548, ,0.005254327489883932,0.0049093723751911225,0.005047151939163498,0.000589673803559204,0.0,-0.016856715544595658, ,0.2099158763885498
0.009906885661503467,0.020336766843400956,-0.07918048567167846, ,0.010119092917748514,0.020261288827595973,-0.0794263360423344, ,0.0003334235372983922, ,0.0016575825205035614,0.0010317556472293342,-0.005956818813237896,-0.007900534532441203,-0.007007725463112515,-0.0007302650174640987, ,0.006268635409849061, ,0.010560618095758735, ,3.109949719591276e-05, ,0.17926779820937355,-0.24273321696975056,0.08987048941,1.704779240529183,0.505964958631426,-1.2943841759453583, ,0.0071350914972229855,0.005756135403484882,0.006190754574426739,0.0005615447171890742,0.0,0.002477880918972461, ,0.2574739456176758
0.00996127634029419,0.0203696664950007,-0.07938891127768542, ,0.010197264743907456,0.020296020511743028,-0.07967435380660334, ,0.0003776131549681298, ,0.0012828269244101085,0.0007500620979770096,-0.004818764551647866,-0.005847010335071945,-0.0037879173251313286,-0.0010031086780280711, ,0.005042690737397172, ,0.006966767178701509, ,3.2728125199328006e-05, ,0.17949948019560028,-0.24249381225064962,0.09008696984,1.704779240529183,0.5062382316309569,-1.2946886904928918, ,0.005153126751916168,0.005624669994298094,0.00498554351173709,0.0005406681883776529,0.0012858624910897663,0.0005529442861197163, ,0.30486607551574707
0.01003447676346682,0.020412750526158513,-0.07965618044923188, ,0.010275722041788208,0.020329885980619373,-0.07992156854616997, ,0.0003680987085228526, ,0.0015244425970532846,0.0009703672537865413,-0.0056008567670562176,-0.0021227871632565334,-0.0019102963779253502,-0.0011602573672347828, ,0.005885162220704814, ,0.0028557752153258575, ,3.379400319539903e-05, ,0.1798161122434435,-0.24220034840142907,0.09036437590000002,1.704779240529183,0.5063748681307223,-1.294800108396588, ,0.0066846374935638055,0.005384199178038381,0.005836867541223892,0.0005172470372720844,0.004824870636890208,-0.0028195276247172025, ,0.3521769046783447
0.010108353394113777,0.02045252212268478,-0.07990286067778923, ,0.010354460327048438,0.020362894649209144,-0.08016797709127425, ,0.0003726773660142129, ,0.0016233826917158773,0.0010229408883607632,-0.005646584599493683,-0.0006042779576677273,-0.0022161722250959117,-0.0006839663375451701, ,0.0059636982707110715, ,0.002297077587105175, ,3.4672610083291614e-05, ,0.18020997162002894,-0.24191460728508277,0.09062233761,1.7049889304726675,0.5067847776300186,-1.2951343621076774, ,0.007846947439186732,0.004885163234400804,0.005910505202226346,0.0,0.0058412700988052174,-0.00390855618791791, ,0.4006819725036621
0.010178733580444212,0.02048942190330915,-0.08012490000506096, ,0.010433475146559066,0.020395055891844302,-0.08041357631083092, ,0.00039639906551279806, ,0.0017414292385905766,0.0007655298344524749,-0.0051620721546359665,-6.25714482188311e-05,-0.002613961965263711,-0.0010684492549143066, ,0.005501418058112199, ,0.002614710055930896, ,3.5642099448385564e-05, ,0.18058838553086592,-0.24168292529885604,0.09085437352,1.7049889304726675,0.5069214141297841,-1.295245780011374, ,0.010549689418543534,0.00654594713705422,0.005405093831014592,0.0,0.008231045762123468,-0.005991853160744356, ,0.4477870464324951
0.010246248701308962,0.02051787431426513,-0.08031868559942504, ,0.010512762078323532,0.020426379042278175,-0.08065836311232606, ,0.0004413406594619425, ,0.0019292018152522131,0.0008963816121484615,-0.005594883791679235,0.001171657189812222,-0.0029652617149995703,-0.0009863719440830934, ,0.005985653204201303, ,0.003188346299678698, ,3.728635064706828e-05, ,0.1810208585718225,-0.24144352057975507,0.09105789105,1.704779240529183,0.5073313236290804,-1.2956617124626038, ,0.011921110754461908,0.006301002375138923,0.005882131285081241,-9.503606079880652e-05,0.009310163575552123,-0.0069639451196869895, ,0.4903900623321533
0.01033928411473773,0.02056009123056099,-0.08059699135349906, ,0.010592316731391428,0.020456873393753877,-0.08090233444171237, ,0.00040977289862239365, ,0.0019663168207293283,0.0008196664253490433,-0.005672276355189242,-0.008002593410613155,-0.010606253910639293,-0.0032992850280726205, ,0.006059123198777734, ,0.013286614220354587, ,3.836870106887262e-05, ,0.18154600440726978,-0.24111916579903764,0.09134826001000002,1.7045695505856984,0.5074679601288459,-1.2958548091064406, ,0.01119538764807939,0.007409945954208155,0.0059061221802002226,0.0024816926543726426,0.0,0.0012201104690524231, ,0.5324079990386963
0.010418762036702426,0.020597499113685656,-0.08083995884253944, ,0.01067213474577517,0.020486548199075433,-0.08114548728330603, ,0.0004121352487630366, ,0.0019165371862876436,0.0008880761835852635,-0.005720442361840392,-0.0015842823364940616,-0.004110878447197019,-0.003197410571953859, ,0.0060979713765655546, ,0.004405594852430714, ,3.9316319449161406e-05, ,0.1819939229139748,-0.24083342468269134,0.09160233285000001,1.7045695505856984,0.5077412331283767,-1.2960776449138334, ,0.011062828346755746,0.006763963776458911,0.0059905270853704414,0.0023324450600764298,0.006632577730701524,-0.0043214148072716705, ,0.5741229057312012
0.010493615999236535,0.020628562932816022,-0.08106356445488931, ,0.010752211792365688,0.020515412670678117,-0.08138781865968159, ,0.00042990179735777296, ,0.002013956250172321,0.0007566792043349141,-0.005817535902272809,-0.0020612157614528113,-0.003811289371727333,-0.003461483226844647, ,0.00620260486973934, ,0.00433295862280166, ,4.0285825682476375e-05, ,0.18242639595493138,-0.24053223810059657,0.09183566505000001,1.7045695505856984,0.5080145061279076,-1.2963004807212262, ,0.012094945393636349,0.008559235968709807,0.006070431219512196,0.0022022053638524235,0.008045381160721446,-0.005579339060382567, ,0.6158230304718018
0.010594965130375984,0.020675279360707958,-0.08138896363502755, ,0.010832543572846194,0.02054347598069722,-0.0816293256315697, ,0.000362752721134596, ,0.002272734027613822,0.0011981708015301727,-0.007378765613909805,0.000725422063361641,-0.001288333680457256,-0.003309170448359929, ,0.007813265336268246, ,0.0014785191810380784, ,4.0926714105946706e-05, ,0.1829747099890013,-0.24011521052538845,0.09217529303000001,1.7045695505856984,0.5085610521269693,-1.296746152336012, ,0.010909669459501727,0.008170385135377874,0.006670356582914574,0.00205762114608011,0.013119597805325857,-0.00982460347016787, ,0.6572930812835693
0.010656433429459423,0.020695310442339125,-0.08155972300173597, ,0.010913125819611843,0.020570747261041685,-0.0818700052977514, ,0.0004215235136000218, ,0.001974734706158115,0.0005797920419219097,-0.005164206641520037,-0.004546089550452312,-0.0072889163833604305,-0.003272638016746817, ,0.005559205537475747, ,0.00859041492428486, ,4.194202624773915e-05, ,0.18333767843408985,-0.23985263760766481,0.09234899589000001,1.7045695505856984,0.5085610521269693,-1.296746152336012, ,0.012614241866073479,0.008742420126282253,0.005363236202020203,0.0019809953900742053,0.01033848592746899,-0.007610020727630974, ,0.6940040588378906
0.010731914201561357,0.0207251574380562,-0.08179846176506406, ,0.01099395429568144,0.02059723560346088,-0.08210985479495533, ,0.0004266082813982448, ,0.00212575458230676,0.0009463869496363385,-0.006995085178340375,0.010322201039970317,0.011157371003167594,-0.003736405143079736, ,0.007371953435479457, ,0.015199827145852975, ,4.289212694533965e-05, ,0.18377015147504644,-0.23948966916257627,0.09260177244000001,1.7045695505856984,0.5092442346257966,-1.297303241854494, ,0.012098576875020122,0.009710557345113904,0.007330332038656236,0.0018903287853122685,0.023640894076790916,-0.018517032959675057, ,0.7308008670806885
0.010826104082292405,0.02075610203712839,-0.0820713374445133, ,0.011075024794615411,0.02062295005961709,-0.08234887129775287, ,0.0003958737296570294, ,0.0019916908656998295,0.0005060834963640779,-0.005511008747268188,-0.0012352049435755048,-0.0021437374774041997,0.001189758108915962, ,0.005881680918093968, ,0.0024741334930125417, ,4.354266327894273e-05, ,0.1843261882419906,-0.23904947338874546,0.09288565995,1.7045695505856984,0.5096541441250929,-1.2976374955655834, ,0.012594152827932418,0.010123786064620773,0.005729788316546763,-0.0031561535514086714,0.011607503061104803,-0.008761168116046162, ,0.7683329582214355
0.01089135638978281,0.02077810137935511,-0.08226197348278018, ,0.011156333140430068,0.02064789964115468,-0.08258705201845531, ,0.0004391369095973182, ,0.0022619916812961615,0.0009273495431184754,-0.007048644294427366,0.007664641670242625,0.006723258582145803,0.0010692128342563146, ,0.007460560966223555, ,0.010195534340899903, ,4.441498968572662e-05, ,0.1847046021528276,-0.23874828680665072,0.09308399232,1.7045695505856984,0.5099274171246237,-1.2978603313729762, ,0.013276013088762,0.009725881861038128,0.0073881315027829325,-0.0031561535514086714,0.021503021690551568,-0.016865700343702883, ,0.8054418563842773
0.010958358416538071,0.020799946120540713,-0.082461811363158, ,0.011237875187515243,0.020672093319771743,-0.08282439420700881, ,0.00047533386432792107, ,0.0022370350463570524,0.0008274012376634151,-0.006986781147526609,-0.0048165027929446365,-0.0056021835755919085,0.0007964967366612475, ,0.007382684431163904, ,0.007388040560268286, ,4.572026422456138e-05, ,0.1850830160636646,-0.2384316547588075,0.09329139872000002,1.704359860642214,0.5102006901241547,-1.297919809700088, ,0.011678186261195024,0.010479034675680447,0.00724366144611187,-0.0029851948857215656,0.007026800250896314,-0.00572988443785046, ,0.8370819091796875
0.01105664994844394,0.020840836810561408,-0.08277053223073383, ,0.011319646820548401,0.020695540027289384,-0.08306089515089067, ,0.0004178386475278899, ,0.0025122533838104247,0.0011714343185474946,-0.008286162554511657,0.005808712269739908,0.005206614866312274,-0.003427321413475391, ,0.008737514824418263, ,0.00780063699550123, ,4.658482484010669e-05, ,0.18560043916623764,-0.2380223499164736,0.09361287864000001,1.7041501706987296,0.5106105996234509,-1.2982540634111772, ,0.01301741310815786,0.0105000920952761,0.00866167021207178,0.00120535675709369,0.018586328099568714,-0.015155904299530508, ,0.8697159290313721
0.01112926833238617,0.020867500737917925,-0.08298930014063652, ,0.011401643954409027,0.02071824865572089,-0.08329655217500571, ,0.0004368849689981319, ,0.002426098492020037,0.0006971621726788809,-0.006880574983385894,-0.003353040634227681,-0.0047894333416072825,-0.0035161678354501996, ,0.0073290040994661776, ,0.00584649790961106, ,4.749980170032467e-05, ,0.18600974400857154,-0.23769799513575618,0.09384102568000001,1.7041501706987296,0.5110205091227473,-1.2985883171222665, ,0.014174300456829094,0.011845829679000223,0.00714616936742934,0.00120535675709369,0.0094287011666733,-0.00768847358044261, ,0.9016308784484863
0.011205559712702703,0.02088331900152289,-0.08318930007602078, ,0.011483862534099182,0.020740228057345843,-0.08353136264158237, ,0.00046361004892182323, ,0.002625397715562543,0.0007362292025281223,-0.006899603431148004,0.005645741904414084,0.0014659282092595327,-0.003800927022629617, ,0.0074188458745714295, ,0.005832952213942829, ,4.850323562571723e-05, ,0.18648855344677345,-0.23730413575917073,0.09404843208000001,1.7041501706987296,0.5112937821222782,-1.2988928316697999, ,0.017304329241150763,0.01157956039550901,0.007240368872727274,0.00120535675709369,0.019151608965215547,-0.016053627604970276, ,0.9329888820648193
0.011291616824623294,0.020913561868270578,-0.08344374448017793, ,0.011566298534653508,0.020761487044776327,-0.0837653239500683, ,0.00044943314210336917, ,0.0026056620201124693,0.0007556638832982663,-0.007684909074694079,-0.0024141658017900434,-0.0038582107888143124,0.001452753026704327, ,0.008149744164935082, ,0.004551259189040156, ,4.936417980152737e-05, ,0.18698280835072384,-0.23691027638258527,0.09431417153,1.704359860642214,0.5118403281213398,-1.2995018607648667, ,0.014637812981408418,0.013029924695657115,0.00797237813813814,-0.004561284751152152,0.012276837597781342,-0.010754817803210633, ,0.9644649028778076
0.011374014522953658,0.020931749670886807,-0.08366569131537288, ,0.011648947961056238,0.0207820343910278,-0.08399843353702624, ,0.00045685932898538787, ,0.002587958274074412,0.0005269560125973939,-0.006677067105296557,0.002807273309861233,-0.001218673776563324,0.004743947344537463, ,0.007180420307767233, ,0.0030603816654425136, ,5.0475494245854096e-05, ,0.18746934052179998,-0.2365086942731256,0.09454361486000001,1.7039404807552447,0.5119769646211053,-1.2997766361488443, ,0.01717902635019384,0.012702040096167955,0.00697103348796499,-0.008156303716991602,0.01850934839512967,-0.0160719051704187, ,0.9913768768310547
0.011435311039029856,0.02095159101519306,-0.0838485258678347, ,0.011731806848160971,0.020801878829592935,-0.08423068887603127, ,0.0005063319742849894, ,0.0029926654154223326,0.0009986990039378895,-0.009053671908422814,-0.0046734457898688995,-0.00694504231238709,0.004224370742973698, ,0.009587618109546074, ,0.008371060114517019, ,5.178453807603822e-05, ,0.18781686350114007,-0.23621523042390508,0.09473416949,1.7039404807552447,0.5123868741204016,-1.3001925686000741, ,0.015871707904076063,0.013815248443510085,0.009397528920353984,-0.007640541805463067,0.011096212230389852,-0.009885489367842363, ,1.0180659294128418
0.011531440734005867,0.020988112527627795,-0.08414354520466874, ,0.011814871260601548,0.02082102905450809,-0.08446208747756465, ,0.0004579507943193656, ,0.0030832132295223478,0.0011001358628459754,-0.009285014809772408,0.0036570770733748655,0.000767028300816768,0.0031277641569874164, ,0.00984520201687677, ,0.0037366396835529594, ,5.2784679301863215e-05, ,0.1883033956722162,-0.23580592558157118,0.09503490877000001,1.7039404807552447,0.512796783619698,-1.3005268223111635, ,0.01759305553549699,0.013386506073983746,0.009784282260442262,-0.006623930640263605,0.02048413175963726,-0.017540708257487853, ,1.0448589324951172
0.011621883157011577,0.021011828540703745,-0.08439825815168298, ,0.011898137292708697,0.020839493720424426,-0.08469262688891255, ,0.00043894030485773505, ,0.0027197746282102303,0.000543680247116541,-0.007268355950119385,0.020266384881096916,0.0181057460718115,-0.003939478929495492, ,0.0077795732824491514, ,0.027176172958685598, ,5.364260532317899e-05, ,0.18886715517203462,-0.23535800707486615,0.09530712967,1.7037307908117605,0.5134799661185252,-1.301165590569786, ,0.018903773218818882,0.014550282361004412,0.007647053058089295,-0.00019658672905161403,0.03836670946550818,-0.033162845761276566, ,1.0714330673217773
0.01168214500198564,0.021024596989299555,-0.08455443939290666, ,0.011981601068427895,0.020857281442679742,-0.08492230469405979, ,0.0005029844010128289, ,0.003295568082890322,0.0008852055642809392,-0.009415102561146098,-0.0003923627149977267,-0.0030267595472768245,-0.0038377478646752236, ,0.010014415315778508, ,0.003052072717889698, ,5.50292109949103e-05, ,0.18923012361712316,-0.23506454322564563,0.09546916592000002,1.7037307908117605,0.5136166026182906,-1.3012770084734826, ,0.018772886559539223,0.016302515299513966,0.009736437359413203,-0.00019658672905161403,0.016636333900690657,-0.015443181571076842, ,1.0927300453186035
0.011753431042213373,0.021046987109433674,-0.08476416718714785, ,0.012065258741231898,0.02087440079736672,-0.08515111851358724, ,0.0005260740233287134, ,0.003539234723323644,0.0011645427087827612,-0.010588297482354514,0.004780009713665824,0.0001588642089934555,0.002774674948701024, ,0.011224722077726193, ,0.004782635007415855, ,5.647240523712291e-05, ,0.18963942845945705,-0.2347401884449282,0.09568823893000002,1.703521100868276,0.5141631486173524,-1.3018043588284087, ,0.01939839361375118,0.016024475102747515,0.011038677422037424,-0.007664022179024945,0.022085125470213206,-0.02122614300540539, ,1.1136958599090576
0.011828135073292915,0.021072732147891793,-0.08499005127324266, ,0.012149106494038834,0.020890860321404747,-0.08537906600456693, ,0.000536127294019511, ,0.004076124415453225,0.001368335914252347,-0.011664833721621385,-0.023465947496080053,-0.03333046351780531,0.002545178043566399, ,0.012432034394159394, ,0.040762363452465165, ,5.790869076059985e-05, ,0.19004873330179095,-0.23440038819846232,0.09592416371000001,1.703521100868276,0.5147096946164142,-1.3024133879234756, ,0.019932144834797473,0.016353083156724242,0.012058146495079488,-0.007228572792818401,-0.012143078514140291,0.005334573960659632, ,1.134902000427246
0.011916899199805278,0.021101149829337876,-0.0852371248675632, ,0.012233140539126486,0.02090666851260942,-0.08560614486045867, ,0.0005234570874567275, ,0.004446485579559667,0.001275152647061545,-0.012440627399481404,-0.013592897527300066,-0.022056467357463232,0.0009406588320101596, ,0.01327277131481092, ,0.02590857613767782, ,5.923515587157407e-05, ,0.19051982000711865,-0.23403741975337378,0.09618082913,1.703521100868276,0.5147096946164142,-1.3025767454037567, ,0.023730167931600595,0.019639267706637164,0.012897823093117412,-0.006458908319115472,0.0032740573563669515,-0.006997355272209023, ,1.1563758850097656
0.011999878631537278,0.02112606552072211,-0.08547274733893628, ,0.012317357118048764,0.020921833829763065,-0.08583235281100642, ,0.000521362895239389, ,0.0038108599334176186,0.0009523933045271501,-0.010896530462021206,0.02158491300343548,0.01754683214948378,-0.005187682998147714, ,0.011582922021165124, ,0.027817254253976274, ,6.050489815618609e-05, ,0.19099090671244634,-0.23368217404115943,0.09642323536000001,1.7033114109247913,0.5152562406154759,-1.3031857744988236, ,0.023408224360747604,0.019643332965943033,0.011418502881720433,-0.0010999110225033144,0.0425182225717873,-0.039566758676093425, ,1.1771469116210938
0.012078984497282223,0.02113939170919484,-0.0856730941581429, ,0.012401752501549797,0.020936364692684676,-0.08605768762213309, ,0.0005415822066462835, ,0.004096827898835676,0.0005781933290268409,-0.010146037376635287,-0.01644904900514034,-0.024449136403510728,-0.004636797924777773, ,0.01095720679765102, ,0.02946746301486958, ,6.209109865036109e-05, ,0.19146971615064826,-0.23327286919882553,0.09663453063,1.7033114109247913,0.5153928771152414,-1.3032971924025198, ,0.024208403458793566,0.021253514346801967,0.010465710591327202,-0.0010855516211666614,0.0,-0.004895999135423359, ,1.1931629180908203
0.012120533438836999,0.02114680592921176,-0.0857821009166293, ,0.012486322989481751,0.02095026948230079,-0.08628214709583787, ,0.00064998057791473, ,0.004178016977979502,0.000913472551125639,-0.01109774116890763,0.0034075365316272865,-0.005118645202249277,-0.0046768938028703255, ,0.011893280330590558, ,0.006149119090280494, ,6.410721726759434e-05, ,0.1917400118012461,-0.23306435541122147,0.09674860415000001,1.7031017209813069,0.5158027866145377,-1.3037131248537497, ,0.02486165615888676,0.0202080369587885,0.011559369753265604,-0.0017318400172629596,0.020831069914670805,-0.02309393669893025, ,1.2088019847869873
0.012210958845465213,0.021170939116898078,-0.08603828200194533, ,0.012571064910719278,0.020963556540715612,-0.08650572907009133, ,0.0006254523744100191, ,0.005096560621857564,0.0016931339975989265,-0.015271792464443688,0.007613333488421526,-0.001783190816972277,-0.00610272292894701, ,0.016188553918838257, ,0.007819321299476756, ,6.596614740753956e-05, ,0.19224971217094494,-0.23263188237026491,0.09701563989,1.7031017209813069,0.5163493326135995,-1.3043221539488166, ,0.026367585873428946,0.022670076817599326,0.015912898621378624,-0.0017318400172629596,0.02583433888326069,-0.029661451336749044, ,1.2245450019836426
0.012268798778887733,0.021189271309075625,-0.08620186228527038, ,0.01265597462307473,0.02097623417128071,-0.08672843141873206, ,0.0006874336395000927, ,0.005674172398761155,0.0019282829678420649,-0.016782791766255422,-0.011468990285237042,-0.013208776171331057,-0.0027414471896391747, ,0.017820679198179385, ,0.017493089340334708, ,6.804044909091869e-05, ,0.19254317602016546,-0.23239247765116394,0.09718545388000001,1.7031017209813069,0.5163493326135995,-1.3044855114290976, ,0.028600645436549364,0.023994169799866186,0.017465802105263162,-0.0017318400172629596,0.016345009886548127,-0.011665843838105913, ,1.2402420043945312
0.012326399290102421,0.02120847933724219,-0.08637695782712998, ,0.012741048513213447,0.020988310638665478,-0.0869502520513621, ,0.0007409956151000156, ,0.005889406148199439,0.0017898226818344686,-0.016841445811207258,0.0010368542744144543,-0.014812959338067913,-0.007873871941617882, ,0.017931058725649443, ,0.014849157426265388, ,7.058210756536481e-05, ,0.19284436260226023,-0.2321299047334403,0.09736823077000001,1.7031017209813069,0.5167592421128957,-1.3048197651401867, ,0.030830715256163342,0.025633965845075844,0.017523445016501653,-0.0017318400172629596,0.01696106810535369,-0.02657725959860653, ,1.2508869171142578
0.012378332213304916,0.02122399354866119,-0.08653989079737856, ,0.012826282996571394,0.02099979416892822,-0.08717118891324366, ,0.0008058924104348681, ,0.006304645922877876,0.0018335417954059065,-0.01849807869450593,0.016681909098828482,0.01278588251878586,-5.4540095193762395e-05, ,0.01962878883468094, ,0.021018152085569786, ,7.335180837913206e-05, ,0.19351624036231777,-0.23157386796649615,0.09772730310000001,1.7026823410943377,0.5181256071105501,-1.3060973016574322, ,0.034684554663183764,0.029325383670726447,0.019331081941747576,-0.008340445685990315,0.051067708140559595,-0.04525025165730182, ,1.2619519233703613
0.012510324282429899,0.021260496687636923,-0.08691571293329621, ,0.012911674517269545,0.02101069294958557,-0.08739123998519441, ,0.0006705295635818444, ,0.007140941320778857,0.001920994039703495,-0.01969333751429195,-0.01134491673756909,-0.019606073180204152,0.0005867307527642366, ,0.0210359407562201, ,0.022651761062906537, ,7.551637840732868e-05, ,0.19388693154028053,-0.23126495865152716,0.09793211692,1.7026823410943377,0.5185355166098464,-1.3064315553685213, ,0.038623093837391445,0.03125722712729604,0.02050040092664093,-0.008340445685990315,0.021638843939890733,-0.020200053764926125, ,1.2725059986114502
0.012525590667508153,0.02126450055391005,-0.08695829295619681, ,0.012997219548028174,0.02102101512968277,-0.08761040328348438, ,0.0008408131966773643, ,0.007138341430052124,0.001975765146728317,-0.019995805346758204,-0.0137254787768028,-0.02103050319274686,0.0006806000431649546, ,0.021323503411786463, ,0.025113096892795107, ,7.834334742315945e-05, ,0.1939641588690228,-0.23119545405565914,0.09797619078000001,1.7026823410943377,0.5185355166098464,-1.3064315553685213, ,0.03767246588267994,0.0313708897713953,0.020794793107049615,-0.008340445685990315,0.019182693785279457,-0.018015447887745693, ,1.2830810546875
0.012624908327871682,0.021289260069928574,-0.08723568078265105, ,0.013082914590085613,0.02103076881986472,-0.08782867685973056, ,0.000792610755679253, ,0.006373404071360517,0.0009584973499541088,-0.017205279911898415,-0.01151547291673237,-0.01150246547974427,0.00013104591974493548, ,0.018372823775170737, ,0.01627609661221959, ,8.09284045810169e-05, ,0.19451247290309273,-0.23072436735033144,0.09826526345000001,1.7026823410943377,0.5190820626089083,-1.3068772269833073, ,0.03571582294259344,0.034927103996492743,0.01779755477094972,-0.008340445685990315,0.027011362954785786,-0.02335445255335692, ,1.2937428951263428
0.012715160750941899,0.021302597846626786,-0.08747673276888773, ,0.01316875617311019,0.021039962092444964,-0.08804605880079508, ,0.0007738594685044887, ,0.007534572794848781,0.0016199888532394914,-0.02112790237425257,0.012450764119226238,0.013032557298967011,-0.001639424328598348, ,0.022489606706686604, ,0.01802400806994098, ,8.339615723965582e-05, ,0.19503761873854,-0.2302378351792553,0.09851544742000001,1.7024726511508534,0.5196286086079701,-1.307322898598093, ,0.04266948811082319,0.03820327760002849,0.022031551203319507,-0.007780817176485707,0.059430845395469126,-0.049154706619847374, ,1.30446195602417
0.012793727465207436,0.021320350844174954,-0.08770162227436647, ,0.013254740855118038,0.021048602981476993,-0.0882625472286788, ,0.00077525289482082, ,0.008018478669629524,0.0018361761102091072,-0.021823998424360756,0.020798085532981896,0.021898694157241216,0.0021621847643539583, ,0.023322831091218472, ,0.030201129397303097, ,8.582999956102186e-05, ,0.19547781451237078,-0.22984397580266985,0.09875007591000001,1.7022629612073688,0.5203117911067973,-1.3079616668567156, ,0.04761512371222819,0.03762765327457208,0.022886223448275865,-0.010444307100592472,0.0743302745592216,-0.056622860133415234, ,1.3148729801177979
0.012793727465207436,0.021320350844174954,-0.08770162227436647, ,0.013340865222389132,0.021056699482824365,-0.08847814030041906, ,0.0009858255476809536, ,0.008018478669629524,0.0018361761102091072,-0.021823998424360756,0.020798085532981896,0.021898694157241216,0.0021621847643539583, ,0.023322831091218472, ,0.030201129397303097, ,8.941563919496581e-05, ,0.19547781451237078,-0.22984397580266985,0.09875007591000001,1.7022629612073688,0.5203117911067973,-1.3079616668567156, ,0.04761512371222819,0.03762765327457208,0.022886223448275865,-0.010444307100592472,0.0743302745592216,-0.056622860133415234, ,1.3201169967651367
0.012875095010957707,0.02133840580520912,-0.08792194844002646, ,0.013427125889381284,0.02106425955423047,-0.08869283620798518, ,0.000986996559491033, ,0.008862149947219216,0.0019471722236890506,-0.024471501005487374,0.0031250675268906787,0.005064015884977409,0.00575989148843124, ,0.02609949315249768, ,0.0059499183020477854, ,9.297746824375973e-05, ,0.1959566239505727,-0.22946556189183287,0.09898081553000002,1.7020532712638843,0.5209949736056244,-1.3085187563751974, ,0.04965826350521757,0.04272712361930247,0.02552694153846154,-0.015064614140676575,0.06010639785396018,-0.04541073962002174, ,1.325443983078003
0.012875095010957707,0.02133840580520912,-0.08792194844002646, ,0.01351351949864658,0.021071291115389322,-0.08890663317817393, ,0.001203553122026147, ,0.008862149947219216,0.0019471722236890506,-0.024471501005487374,0.0031250675268906787,0.005064015884977409,0.00575989148843124, ,0.02609949315249768, ,0.0059499183020477854, ,0.0005241250025415659, ,0.1959566239505727,-0.22946556189183287,0.09898081553000002,1.7020532712638843,0.5209949736056244,-1.3085187563751974, ,0.04965826350521757,0.04272712361930247,0.02552694153846154,-0.015064614140676575,0.06010639785396018,-0.04541073962002174, ,1.3307578563690186
0.012974245917556144,0.021361999207577732,-0.08820362338573447, ,0.013600042720746691,0.021077802048015366,-0.08911952947250656, ,0.00114510856436104, ,0.010537607385087671,0.002620641689230379,-0.031054252181951465,0.01620408889150734,0.024333214172063793,0.002397127628190548, ,0.032897956028389116, ,0.02923437921699171, ,0.0005370621600794715, ,0.19650493798464264,-0.2289790297207567,0.09927507336000001,1.7020532712638843,0.521814792604217,-1.309187263797376, ,0.055625405368388496,0.05237138055103244,0.032375633170731714,-0.01439138471580959,0.08601440278587309,-0.06687221159743685, ,1.336089849472046
0.012974245917556144,0.021361999207577732,-0.08820362338573447, ,0.013686692254169623,0.0210838001959143,-0.08933152338712397, ,0.0013627666292432147, ,0.010537607385087671,0.002620641689230379,-0.031054252181951465,0.01620408889150734,0.024333214172063793,0.002397127628190548, ,0.032897956028389116, ,0.02923437921699171, ,0.0005539132716950581, ,0.19650493798464264,-0.2289790297207567,0.09927507336000001,1.7020532712638843,0.521814792604217,-1.309187263797376, ,0.055625405368388496,0.05237138055103244,0.032375633170731714,-0.01439138471580959,0.08601440278587309,-0.06687221159743685, ,1.3413259983062744
0.01308563779314352,0.021394775533642888,-0.08853982451975996, ,0.013773464825242705,0.02108929336505257,-0.0895426132526832, ,0.0012537984783412422, ,0.012025720158766552,0.0041778784147176555,-0.03664280125736195,0.046631522333126674,0.04957839224838111,0.00040298589955588596, ,0.03879133276096162, ,0.06806210246763078, ,0.0005679109758279818, ,0.19707642021733526,-0.22845388388530943,0.09962636795000002,1.7020532712638843,0.5227712481025752,-1.3099671891232512, ,0.0621053282450725,0.05007754171950965,0.03847539014492755,-0.012920695110141567,0.11843423315230522,-0.09358059694993533, ,1.3465499877929688
0.013207043555342756,0.021438437985250122,-0.08892389087014928, ,0.01386035718805229,0.021094289323628626,-0.08975279743425303, ,0.0011101094972993811, ,0.012025720158766552,0.0041778784147176555,-0.03664280125736195,0.046631522333126674,0.04957839224838111,0.00040298589955588596, ,0.03879133276096162, ,0.06806210246763078, ,0.0005785423193862446, ,0.197686516114399,-0.22794418351561063,0.10002951414000001,1.7016338913769151,0.5241376131002295,-1.3110813681602154, ,0.06442426446603583,0.056926779579166635,0.043640579506849325,-0.022171148862087788,0.13617959889370437,-0.10827965662161712, ,1.3522250652313232
0.013207043555342756,0.021438437985250122,-0.08892389087014928, ,0.01394736612435444,0.02109879580214205,-0.08996207433121049, ,0.001319567814686126, ,0.013141731129312564,0.0046493152723258175,-0.041639773971116824,0.05341137622342968,0.0624205345767135,0.007186554096021835, ,0.04391118315352392, ,0.08215213366032119, ,0.000592792809680473, ,0.197686516114399,-0.22794418351561063,0.10002951414000001,1.7016338913769151,0.5241376131002295,-1.3110813681602154, ,0.06442426446603583,0.056926779579166635,0.043640579506849325,-0.022171148862087788,0.13617959889370437,-0.10827965662161712, ,1.3575329780578613
0.013207043555342756,0.021438437985250122,-0.08892389087014928, ,0.014034488443493828,0.0211028204934648,-0.09017044237713659, ,0.0015333606240190035, ,0.015078794596159625,0.004693183673693084,-0.04536581049354169,0.012465702094456643,0.011732498882306243,0.05897257094399125, ,0.048035953006098774, ,0.017112951452377907, ,0.0006105393722151622, ,0.19838928480595344,-0.22732636488567268,0.10048580822000001,1.7010048215464617,0.5253673415981185,-1.312084129293483, ,0.07448739525782637,0.06259692714938705,0.04740717714285715,-0.07692704147548428,0.1068851228150479,-0.08459042705410727, ,1.3632149696350098
0.013348973094890543,0.021482994864948545,-0.0893603510504101, ,0.014121720982318413,0.021106371052910668,-0.090377900039712, ,0.0013320625882245515, ,0.015078794596159625,0.004693183673693084,-0.04536581049354169,0.012465702094456643,0.011732498882306243,0.05897257094399125, ,0.048035953006098774, ,0.017112951452377907, ,0.0006239009132523732, ,0.19838928480595344,-0.22732636488567268,0.10048580822000001,1.7010048215464617,0.5253673415981185,-1.312084129293483, ,0.07448739525782637,0.06259692714938705,0.04740717714285715,-0.07692704147548428,0.1068851228150479,-0.08459042705410727, ,1.3690710067749023
0.013504313739035809,0.02153146339694479,-0.0898231847488955, ,0.014209060605094314,0.02110945509830594,-0.09058444582061385, ,0.0011199453418150001, ,0.01569598757305116,0.004049711586093742,-0.04477960285293728,-0.005143042695086647,-0.006730805020327695,0.0323792905976342, ,0.047623282346880576, ,0.008460175591723266, ,0.0006329199028626027, ,0.19914611262762744,-0.2266699325913636,0.10096932439,1.7007951316029768,0.5263237970964766,-1.3128640546193582, ,0.07974532904073174,0.0686167328694655,0.04671205724340176,-0.0499117943121648,0.08691785529249965,-0.06848153857935356, ,1.374377965927124
0.013504313739035809,0.02153146339694479,-0.0898231847488955, ,0.014296504203427325,0.02111208021006054,-0.09079007825541065, ,0.0013184578272569776, ,0.01569598757305116,0.004049711586093742,-0.04477960285293728,-0.005143042695086647,-0.006730805020327695,0.0323792905976342, ,0.047623282346880576, ,0.008460175591723266, ,0.0006451616515125023, ,0.19914611262762744,-0.2266699325913636,0.10096932439,1.7007951316029768,0.5263237970964766,-1.3128640546193582, ,0.07974532904073174,0.0686167328694655,0.04671205724340176,-0.0499117943121648,0.08691785529249965,-0.06848153857935356, ,1.3797149658203125
0.01365708467654146,0.021567606127446,-0.09024481990823853, ,0.014384048696163857,0.021114253931235755,-0.09099479591345948, ,0.0011386258858999206, ,0.015510940354101136,0.0030915901966352237,-0.040882841156574784,0.02133621660863352,0.01924544276384953,-0.016663308634456787, ,0.04383553240974882, ,0.028731637545175766, ,0.000653818918782457, ,0.199956999579421,-0.22599033209843183,0.10141006299000001,1.7005854416594925,0.5272802525948347,-1.3136439799452329, ,0.0870614142738264,0.07129747675317114,0.042819385806451615,0.0,0.1096676941556113,-0.08717925183635024, ,1.3849890232086182
0.01365708467654146,0.021567606127446,-0.09024481990823853, ,0.014471691029326633,0.021115983767617565,-0.09119859739780097, ,0.001333130813345408, ,0.015510940354101136,0.0030915901966352237,-0.040882841156574784,0.02133621660863352,0.01924544276384953,-0.016663308634456787, ,0.04383553240974882, ,0.028731637545175766, ,0.0006655311928266458, ,0.199956999579421,-0.22599033209843183,0.10141006299000001,1.7005854416594925,0.5272802525948347,-1.3136439799452329, ,0.0870614142738264,0.07129747675317114,0.042819385806451615,0.0,0.1096676941556113,-0.08717925183635024, ,1.3902230262756348
0.013813780424566609,0.021590636449307716,-0.09065075330838135, ,0.014559428176008847,0.021117277187784604,-0.0914014813450566, ,0.0011591601031569587, ,0.015129166664902684,0.001167225521238914,-0.038103791143947754,0.00036289510376091155,0.00808992548643032,-0.00883290654344603, ,0.04101405855232356, ,0.008093099779674378, ,0.0006738977845271596, ,0.20084511385995682,-0.2251948906123867,0.10183394982,1.7007951316029768,0.5283733445929583,-1.3145353231748045, ,0.08754330402072949,0.08331601541568988,0.03962390925373134,-0.01064080660439627,0.1011176009404522,-0.08034313332944912, ,1.396251916885376
0.013813780424566609,0.021590636449307716,-0.09065075330838135, ,0.01464725713631059,0.02111814162317943,-0.09160344642532242, ,0.0013511324749277743, ,0.015129166664902684,0.001167225521238914,-0.038103791143947754,0.00036289510376091155,0.00808992548643032,-0.00883290654344603, ,0.04101405855232356, ,0.008093099779674378, ,0.0006851850293671699, ,0.20084511385995682,-0.2251948906123867,0.10183394982,1.7007951316029768,0.5283733445929583,-1.3145353231748045, ,0.08754330402072949,0.08331601541568988,0.03962390925373134,-0.01064080660439627,0.1011176009404522,-0.08034313332944912, ,1.401695966720581
0.013970952851989647,0.021597231872052213,-0.09101923437677963, ,0.014735174937239168,0.02111858446817895,-0.0918044913420677, ,0.0011957287461423557, ,0.015099964313023394,9.485633811546328e-05,-0.033048087366564186,-0.005493515347227007,-0.008865792896301078,-0.016606897591233873, ,0.03633447396849884, ,0.010427922764674417, ,0.000693554598494632, ,0.20180273273636065,-0.224345389996222,0.10221765166,1.7005854416594925,0.5293298000913162,-1.3153152485006792, ,0.09653808907270679,0.08223305161045995,0.034477947012987016,-0.0021402134528017936,0.09092563206728956,-0.07215232227167002, ,1.4076049327850342
0.014119204535161259,0.021589320278450296,-0.09133238919800558, ,0.014823178632628713,0.02111861308016373,-0.09200461483202929, ,0.001081217877887005, ,0.014968976662427483,-0.0014817146855477755,-0.030233861001022926,-0.029207873743978662,-0.030893758153565782,0.013899623423908129, ,0.033769099658694506, ,0.04251469063131043, ,0.0006998072320332187, ,0.20276807434563873,-0.22349588938005732,0.10254302045000001,1.7001660617725234,0.530149619089909,-1.3159837559228578, ,0.09978647903098925,0.08960995425729064,0.03135592818897638,-0.0354172164853866,0.07913380164711381,-0.0626407817493159, ,1.4128329753875732
0.014119204535161259,0.021589320278450296,-0.09133238919800558, ,0.014911265303062027,0.021118234779589365,-0.09220381566510776, ,0.0012683319340183695, ,0.014968976662427483,-0.0014817146855477755,-0.030233861001022926,-0.029207873743978662,-0.030893758153565782,0.013899623423908129, ,0.033769099658694506, ,0.04251469063131043, ,0.0007088314336520306, ,0.20276807434563873,-0.22349588938005732,0.10254302045000001,1.7001660617725234,0.530149619089909,-1.3159837559228578, ,0.09978647903098925,0.08960995425729064,0.03135592818897638,-0.0354172164853866,0.07913380164711381,-0.0626407817493159, ,1.4180428981781006
0.014273703697928193,0.02157354661744955,-0.0916477264361431, ,0.01499943205577819,0.0211174568500557,-0.09240209264426359, ,0.0011418265635651974, ,0.015539368031124445,-0.001832408123145753,-0.0323227944259919,-0.013987101370324318,-0.009419987780096705,0.04095271055350006, ,0.03591089970804736, ,0.01686238100706074, ,0.0007155969825569238, ,0.20381064328365903,-0.22256143870227615,0.10287098182000001,1.6997466818855542,0.5312427110880324,-1.3168750991524294, ,0.10348630486201829,0.09643998125860852,0.033534340042105266,-0.06650967812102977,0.11208912596218998,-0.0896089078001185, ,1.4232680797576904
0.014273703697928193,0.02157354661744955,-0.0916477264361431, ,0.015087676024588197,0.021116286538378302,-0.09259944460541454, ,0.001333193610171424, ,0.015539368031124445,-0.001832408123145753,-0.0323227944259919,-0.013987101370324318,-0.009419987780096705,0.04095271055350006, ,0.03591089970804736, ,0.01686238100706074, ,0.0007250984691356085, ,0.20381064328365903,-0.22256143870227615,0.10287098182000001,1.6997466818855542,0.5312427110880324,-1.3168750991524294, ,0.10348630486201829,0.09643998125860852,0.033534340042105266,-0.06650967812102977,0.11208912596218998,-0.0896089078001185, ,1.4288818836212158
0.01443256092974693,0.021559142914608313,-0.09197932883747593, ,0.015175994369798388,0.021114731054657342,-0.09279587041732837, ,0.0011903509283735345, ,0.016308361637846366,-0.0015844683494784068,-0.034698691870293466,0.007104787680390745,0.014778402619643886,0.018417348615631678, ,0.03837280829924815, ,0.016396002325512023, ,0.0007321477488210316, ,0.20485321222167935,-0.22158837436012385,0.10321579496000001,1.6997466818855542,0.532335803086156,-1.3177664423820006, ,0.10747105499260563,0.10020796363090896,0.03611975401360545,-0.04479310711226946,0.13614778185098045,-0.10931087660531993, ,1.4343979358673096
0.01443256092974693,0.021559142914608313,-0.09197932883747593, ,0.015264384278120222,0.021112797572348803,-0.0929913689815219, ,0.0013839723626634622, ,0.016308361637846366,-0.0015844683494784068,-0.034698691870293466,0.007104787680390745,0.014778402619643886,0.018417348615631678, ,0.03837280829924815, ,0.016396002325512023, ,0.0007418764744007694, ,0.20485321222167935,-0.22158837436012385,0.10321579496000001,1.6997466818855542,0.532335803086156,-1.3177664423820006, ,0.10747105499260563,0.10020796363090896,0.03611975401360545,-0.04479310711226946,0.13614778185098045,-0.10931087660531993, ,1.439863920211792
0.01460320645157992,0.021547962928956728,-0.09234589639002751, ,0.015352842962583756,0.02111049322833466,-0.09318593923215601, ,0.0012078934614458768, ,0.017100150260635702,-0.0010527130035872774,-0.03692701103011444,-0.0013158414661414055,0.0032509911211170074,0.007642784444992211, ,0.04070783078502752, ,0.0034973875033856333, ,0.0007487296653867268, ,0.20595756302269344,-0.22056897362072622,0.10359820051000002,1.6997466818855542,0.5337021680838104,-1.3188806214189648, ,0.10882676784228298,0.09978647903098925,0.03847539014492755,-0.03323750715478205,0.12300322558681497,-0.09867146724609581, ,1.445188045501709
0.01460320645157992,0.021547962928956728,-0.09234589639002751, ,0.01544136766246118,0.021107825122992165,-0.09337958013593037, ,0.0014016909752898499, ,0.017100150260635702,-0.0010527130035872774,-0.03692701103011444,-0.0013158414661414055,0.0032509911211170074,0.007642784444992211, ,0.04070783078502752, ,0.0034973875033856333, ,0.0007581928727766272, ,0.20595756302269344,-0.22056897362072622,0.10359820051000002,1.6997466818855542,0.5337021680838104,-1.3188806214189648, ,0.10882676784228298,0.09978647903098925,0.03847539014492755,-0.03323750715478205,0.12300322558681497,-0.09867146724609581, ,1.450448989868164
0.01478386244678127,0.02153870812271518,-0.09273558942576131, ,0.015529955643172576,0.021104800320265668,-0.09357229069198186, ,0.0012020815478257032, ,0.018525135317181925,-0.0008093088489785102,-0.03953498715497583,-0.024265186969949365,-0.02392695294660272,-0.024187919206654, ,0.04366750311933395, ,0.034076411069357486, ,0.0007645341395630425, ,0.20708508202233022,-0.21953412741558015,0.10400393928000001,1.69953699194207,0.5347952600819339,-1.319771964648536, ,0.11433366452827805,0.10416788315968253,0.041159719689922485,0.0,0.09315811985073519,-0.07440650191292796, ,1.4556989669799805
0.01478386244678127,0.02153870812271518,-0.09273558942576131, ,0.015618604196211328,0.02110142584773521,-0.09376406993177788, ,0.0013949128028336825, ,0.018525135317181925,-0.0008093088489785102,-0.03953498715497583,-0.024265186969949365,-0.02392695294660272,-0.024187919206654, ,0.04366750311933395, ,0.034076411069357486, ,0.0007734127122851641, ,0.20708508202233022,-0.21953412741558015,0.10400393928000001,1.69953699194207,0.5347952600819339,-1.319771964648536, ,0.11433366452827805,0.10416788315968253,0.041159719689922485,0.0,0.09315811985073519,-0.07440650191292796, ,1.4609489440917969
0.014967844416925818,0.02152506161346591,-0.0931261011522217, ,0.015707310639046852,0.02109770869668937,-0.0939549169190159, ,0.0011901161222427183, ,0.018877080789721678,-0.0011861155757932737,-0.03960568781391539,-0.029778259674271293,-0.03280408669027955,0.03965804120335416, ,0.04389033557076255, ,0.04430299540070915, ,0.0007792002596456858, ,0.20822804648771545,-0.21849155847755983,0.10440967805000001,1.6986982321681319,0.535751715580292,-1.320551889974411, ,0.11803102183889398,0.10428235336095688,0.04126635108808291,-0.06745178542298363,0.10281749698189954,-0.0823474958658015, ,1.466343879699707
0.014967844416925818,0.02152506161346591,-0.0931261011522217, ,0.01579607231505607,0.02109365582219178,-0.09414483074951518, ,0.0013819849494071444, ,0.018877080789721678,-0.0011861155757932737,-0.03960568781391539,-0.029778259674271293,-0.03280408669027955,0.03965804120335416, ,0.04389033557076255, ,0.04430299540070915, ,0.000787457584162966, ,0.20822804648771545,-0.21849155847755983,0.10440967805000001,1.6986982321681319,0.535751715580292,-1.320551889974411, ,0.11803102183889398,0.10428235336095688,0.04126635108808291,-0.06745178542298363,0.10281749698189954,-0.0823474958658015, ,1.471747875213623
0.015159659359368426,0.02151395082552865,-0.09352463462113621, ,0.015884886593426992,0.02108927414315447,-0.0943338105511155, ,0.0011666492665880518, ,0.018730571126019467,-0.0014503504366753317,-0.03877581406925483,-0.02776219144715031,-0.03018429458026492,0.04541626438488121, ,0.04308713923933056, ,0.04100906305464205, ,0.0007925817960876293, ,0.20943279281609448,-0.21744126680666528,0.10482578714000002,1.698278852281163,0.5368448075784156,-1.3214432332039825, ,0.11759224480603565,0.1039396950257073,0.040428455634517774,-0.07378025067459973,0.10636083011669298,-0.0852979483715258, ,1.4772379398345947
0.015347467878599596,0.021495243002086106,-0.09390240154594141, ,0.015973750869081565,0.021084570542406433,-0.09452185548357214, ,0.000971908140799637, ,0.018730571126019467,-0.0014503504366753317,-0.03877581406925483,-0.02776219144715031,-0.03018429458026492,0.04541626438488121, ,0.04308713923933056, ,0.04100906305464205, ,0.0007949728140171228, ,0.21062981641159928,-0.21636008420427386,0.10521985930000001,1.698069162337678,0.537937899576539,-1.322334576433554, ,0.11544640092271385,0.10462727845476381,0.03801625661097852,0.0,0.10995803624831542,-0.08828730886098902, ,1.4828648567199707
0.015347467878599596,0.021495243002086106,-0.09390240154594141, ,0.016062662562586757,0.021079551866764103,-0.09470896473845176, ,0.0011553556766213946, ,0.018130909101958564,-0.0017855648008130668,-0.036402394069549475,-0.010349769131871675,-0.008608870013641965,-0.025560494507099275, ,0.04070690851091688, ,0.013459808397084707, ,0.0007997146937882316, ,0.21062981641159928,-0.21636008420427386,0.10521985930000001,1.698069162337678,0.537937899576539,-1.322334576433554, ,0.11544640092271385,0.10462727845476381,0.03801625661097852,0.0,0.10995803624831542,-0.08828730886098902, ,1.4883859157562256
0.015529013013569966,0.021477290457112313,-0.09425725779348619, ,0.016151619120066657,0.02107422492710417,-0.09489513753903094, ,0.0009782590429451407, ,0.01789948033021984,-0.0019004520393235882,-0.03493885963486274,0.000509578698100542,-0.00046837731085195666,-0.017752870126386152, ,0.0393030154902946, ,0.0006534393803168653, ,0.0008020334515694902, ,0.21181139454135564,-0.21532523799912778,0.10559189453000001,1.698278852281163,0.539167628074428,-1.3233373375668216, ,0.11629527151773382,0.1014940551427495,0.03661795751724139,-0.008179585542277783,0.1210252488218615,-0.09736326145547257, ,1.4938418865203857
0.015529013013569966,0.021477290457112313,-0.09425725779348619, ,0.016240618013129746,0.021068596498429078,-0.0950803731401876, ,0.0011622957030110793, ,0.01789948033021984,-0.0019004520393235882,-0.03493885963486274,0.000509578698100542,-0.00046837731085195666,-0.017752870126386152, ,0.0393030154902946, ,0.0006534393803168653, ,0.0008066521983828439, ,0.21181139454135564,-0.21532523799912778,0.10559189453000001,1.698278852281163,0.539167628074428,-1.3233373375668216, ,0.11629527151773382,0.1014940551427495,0.03661795751724139,-0.008179585542277783,0.1210252488218615,-0.09736326145547257, ,1.4990758895874023
0.015701540895143282,0.021454585606322726,-0.09458677878054825, ,0.01632965673877255,0.021062673319941678,-0.09526467082830095, ,0.0010038238797921096, ,0.01752615477917761,-0.002488075120938631,-0.033009753049507276,-0.008137616092849662,-0.008099443150741925,-0.02143736422210689, ,0.037456647147610246, ,0.011479659479609178, ,0.0008091480424513157, ,0.21181139454135564,-0.21532523799912778,0.10559189453000001,1.698278852281163,0.539167628074428,-1.3233373375668216, ,0.11629527151773382,0.1014940551427495,0.03661795751724139,-0.008179585542277783,0.1210252488218615,-0.09736326145547257, ,1.5043458938598633
0.015701540895143282,0.021454585606322726,-0.09458677878054825, ,0.016418732819306222,0.021056462095111198,-0.0954480299211436, ,0.0011893780363873901, ,0.01752615477917761,-0.002488075120938631,-0.033009753049507276,-0.008137616092849662,-0.008099443150741925,-0.02143736422210689, ,0.037456647147610246, ,0.011479659479609178, ,0.0008139009173755166, ,0.2129389135409924,-0.21432900545835282,0.10593670767,1.698069162337678,0.5402607200725515,-1.324228680796393, ,0.11502659582844943,0.10248049844327299,0.034552736485900216,-0.0043623940576057564,0.11100084432829985,-0.08923501998726356, ,1.509657859802246
0.015881554641814354,0.02142869009111615,-0.09493703090864669, ,0.016507843802258327,0.021049969491749358,-0.09563044976778319, ,0.001008214817923503, ,0.01708059884977441,-0.0024951467739245583,-0.033314079504421924,-0.03170393876260745,-0.028603790311716483,0.009665806639927969, ,0.03752066774082367, ,0.042699830441232545, ,0.0008162998544193189, ,0.21408960073925185,-0.21327099105458405,0.10630226145,1.6976497824507093,0.5413538120706751,-1.3251200240259644, ,0.10734948140098505,0.10063302392202628,0.03470329307189543,-0.03580037655713386,0.08881237559308684,-0.07113115041542144, ,1.5150070190429688
0.015881554641814354,0.02142869009111615,-0.09493703090864669, ,0.016596987262078776,0.02104320214118325,-0.09581192974757706, ,0.0011941075211402, ,0.01708059884977441,-0.0024951467739245583,-0.033314079504421924,-0.03170393876260745,-0.028603790311716483,0.009665806639927969, ,0.03752066774082367, ,0.042699830441232545, ,0.0008209072649890856, ,0.21408960073925185,-0.21327099105458405,0.10630226145,1.6976497824507093,0.5413538120706751,-1.3251200240259644, ,0.10734948140098505,0.10063302392202628,0.03470329307189543,-0.03580037655713386,0.08881237559308684,-0.07113115041542144, ,1.52028489112854
0.016047201472511013,0.021405160984602167,-0.09525845360210258, ,0.016686160792881967,0.021036166641870434,-0.09599246927364147, ,0.0010407712736819814, ,0.01711239623006609,-0.002570917669833703,-0.03265718774111231,-0.05643683468620495,-0.05805253605696664,0.02882288937107292, ,0.036958566443493164, ,0.08096404206556716, ,0.000823556228949241, ,0.21511672421152372,-0.21231337217818022,0.10663670427000001,1.6972304025637401,0.5420369945695022,-1.3256771135444465, ,0.10626757173400983,0.09823699954293041,0.033963350788912584,-0.05434416625945008,0.0613716934298903,-0.04885115198638842, ,1.5255169868469238
0.016047201472511013,0.021405160984602167,-0.09525845360210258, ,0.01677536201920178,0.0210288695541937,-0.0961720677874098, ,0.0012273972062663435, ,0.01711239623006609,-0.002570917669833703,-0.03265718774111231,-0.05643683468620495,-0.05805253605696664,0.02882288937107292, ,0.036958566443493164, ,0.08096404206556716, ,0.0008283638596315874, ,0.21511672421152372,-0.21231337217818022,0.10663670427000001,1.6972304025637401,0.5420369945695022,-1.3256771135444465, ,0.10626757173400983,0.09823699954293041,0.033963350788912584,-0.05434416625945008,0.0613716934298903,-0.04885115198638842, ,1.5307409763336182
0.01621520264848752,0.021381869923682028,-0.09558726360954872, ,0.016864588588622522,0.021021317404021935,-0.09635072476207439, ,0.0010651634382075276, ,0.016827419012781876,-0.0018472945856022338,-0.03314227019029855,-0.007858773797101,-0.004825767487898083,-0.060053716168097356, ,0.03721538124599129, ,0.009219998434753537, ,0.0008311497370265986, ,0.21614384768379558,-0.21134803056890217,0.10697892483000002,1.696811022676771,0.5427201770683294,-1.3263158818030691, ,0.10348630486201829,0.09643998125860852,0.034855167439824954,0.03767752066637993,0.08662493371759163,-0.06948137399208781, ,1.5360078811645508
0.01621520264848752,0.021381869923682028,-0.09558726360954872, ,0.016953838173530626,0.021013516681914257,-0.09652843970159876, ,0.0012518302543967816, ,0.016827419012781876,-0.0018472945856022338,-0.03314227019029855,-0.007858773797101,-0.004825767487898083,-0.060053716168097356, ,0.03721538124599129, ,0.009219998434753537, ,0.0008360413709495076, ,0.21614384768379558,-0.21134803056890217,0.10697892483000002,1.696811022676771,0.5427201770683294,-1.3263158818030691, ,0.10348630486201829,0.09643998125860852,0.034855167439824954,0.03767752066637993,0.08662493371759163,-0.06948137399208781, ,1.5414578914642334
0.016389472337144453,0.021364355494923618,-0.09593315691630513, ,0.01704310847103028,0.021005473843190462,-0.09670521214061413, ,0.001073361777246954, ,0.016916975358909757,-0.001735561366745008,-0.033783956086054216,-0.012534808301722227,-0.011012829298018776,-0.012455740924402561, ,0.03782263763113484, ,0.01668411874183327, ,0.0008387691917115472, ,0.21721730755331278,-0.21037496622674987,0.10734188603000001,1.6970207126202554,0.543813269066453,-1.3272072250326405, ,0.10281358782066174,0.09331066033281296,0.03539735893333334,-0.011909964411358838,0.09697031768407441,-0.07795461019919157, ,1.5467560291290283
0.016389472337144453,0.021364355494923618,-0.09593315691630513, ,0.017132397202858977,0.020997195308001135,-0.09688104164431526, ,0.0012590589408573035, ,0.016916975358909757,-0.001735561366745008,-0.033783956086054216,-0.012534808301722227,-0.011012829298018776,-0.012455740924402561, ,0.03782263763113484, ,0.01668411874183327, ,0.0008435452115882036, ,0.21721730755331278,-0.21037496622674987,0.10734188603000001,1.6970207126202554,0.543813269066453,-1.3272072250326405, ,0.10281358782066174,0.09331066033281296,0.03539735893333334,-0.011909964411358838,0.09697031768407441,-0.07795461019919157, ,1.5520150661468506
0.016560572649862722,0.021344278168578586,-0.09626636232522683, ,0.017221702115303113,0.02098868746139814,-0.09705592780835601, ,0.0010894726124394336, ,0.016628070930763166,-0.001833657516868459,-0.0320145240834943,-0.028644621159978154,-0.03389844820664114,-0.011760493870291131, ,0.03612180498065255, ,0.044380012185304976, ,0.0008463084408112512, ,0.2182598764913331,-0.20943279281609448,0.10769058804000001,1.696811022676771,0.5446330880650456,-1.3278757324548192, ,0.10106170560007538,0.08969465175658865,0.033534340042105266,-0.011520026805317359,0.07152408117645692,-0.059153352390726395, ,1.5572290420532227
0.016560572649862722,0.021344278168578586,-0.09626636232522683, ,0.01731102097911357,0.020979956653404505,-0.09722987025874567, ,0.0012744608268785238, ,0.016628070930763166,-0.001833657516868459,-0.0320145240834943,-0.028644621159978154,-0.03389844820664114,-0.011760493870291131, ,0.03612180498065255, ,0.044380012185304976, ,0.000851065689545332, ,0.2182598764913331,-0.20943279281609448,0.10769058804000001,1.696811022676771,0.5446330880650456,-1.3278757324548192, ,0.10106170560007538,0.08969465175658865,0.033534340042105266,-0.011520026805317359,0.07152408117645692,-0.059153352390726395, ,1.5624630451202393
0.016728018563165158,0.021326045267484772,-0.09659418328660094, ,0.017400351589421322,0.020971009199085094,-0.09740286865174512, ,0.00110997942677234, ,0.016938443811630198,-0.001484207667764307,-0.03476607580253546,-0.011664619828928358,-0.01117701831703514,0.009362763736611738, ,0.038701340776108074, ,0.01615358487132552, ,0.0008539108954489254, ,0.2192715544978565,-0.20853695580268444,0.10803410489000001,1.696391642789802,0.5454529070636382,-1.328625918617138, ,0.09957706354509001,0.09055051675426601,0.03645036961098399,-0.03525310894796245,0.09837358378208468,-0.08120986956201161, ,1.5676870346069336
0.016728018563165158,0.021326045267484772,-0.09659418328660094, ,0.017489691765653,0.02096185137861656,-0.09757492267376197, ,0.0012940761189381559, ,0.016938443811630198,-0.001484207667764307,-0.03476607580253546,-0.011664619828928358,-0.01117701831703514,0.009362763736611738, ,0.038701340776108074, ,0.01615358487132552, ,0.0008586953000520693, ,0.2192715544978565,-0.20853695580268444,0.10803410489000001,1.696391642789802,0.5454529070636382,-1.328625918617138, ,0.09957706354509001,0.09055051675426601,0.03645036961098399,-0.03525310894796245,0.09837358378208468,-0.08120986956201161, ,1.572943925857544
0.01689531299051463,0.02131628339268047,-0.09694157742655575, ,0.017579039351446498,0.020952489437357828,-0.09774603204124807, ,0.0011166803507101735, ,0.017170693998220188,-0.0008729246662698282,-0.03550895361208105,-0.0008131853036415849,-0.006356242264479176,0.022163416592755898, ,0.039452256164615236, ,0.006403642147851249, ,0.0008614693328548446, ,0.220252341572883,-0.20768745518651974,0.10839965867000001,1.6959722629028329,0.5465459990617618,-1.3297622980671313, ,0.10020796363090896,0.08503310175490213,0.03739157633802818,-0.048437646552528794,0.10669924152413385,-0.08937790854640477, ,1.579331874847412
0.017069127204019596,0.02130995957462522,-0.0972982505762845, ,0.01766839221456646,0.020942929585919947,-0.09791619650059355, ,0.000935781347775695, ,0.016650521022446352,-0.0007426122753126685,-0.03391572522950345,0.00686250687635197,-0.02193681929156949,0.005511999977928754, ,0.037789783555261997, ,0.022984193832881094, ,0.0008622598862050665, ,0.22120223771641262,-0.2068842909676004,0.10875613842000001,1.6959722629028329,0.5473658180603544,-1.330594162969591, ,0.09614685061648508,0.08090105844711916,0.035875701621621625,-0.03702777277452168,0.08852680643050008,-0.0955872920855224, ,1.5848209857940674
0.017069127204019596,0.02130995957462522,-0.0972982505762845, ,0.017757748246819992,0.020933178000236943,-0.09808541582802402, ,0.001111662012003721, ,0.016650521022446352,-0.0007426122753126685,-0.03391572522950345,0.00686250687635197,-0.02193681929156949,0.005511999977928754, ,0.037789783555261997, ,0.022984193832881094, ,0.0008648851717397891, ,0.22120223771641262,-0.2068842909676004,0.10875613842000001,1.6959722629028329,0.5473658180603544,-1.330594162969591, ,0.09614685061648508,0.08090105844711916,0.035875701621621625,-0.03702777277452168,0.08852680643050008,-0.0955872920855224, ,1.5901169776916504
0.017240604969357604,0.021301123237273872,-0.09764409077102736, ,0.01784710536397216,0.020923240821635603,-0.09825368982949623, ,0.0009392810339841638, ,0.016137730210833055,-0.0013993773027828223,-0.03164453357176588,-0.059020989405407044,-0.05867898562978996,-0.0012185877791303327, ,0.035549417690980474, ,0.08322661120833301, ,0.000865660128638168, ,0.22222163845581028,-0.20599617668706457,0.10913854397000002,1.6959722629028329,0.5480490005591817,-1.3313962887084947, ,0.09151103332542987,0.08173724509773538,0.03311603226611227,-0.016694875105614546,0.03726894577915207,-0.022726184701768744, ,1.595432996749878
0.017240604969357604,0.021301123237273872,-0.09764409077102736, ,0.0179364615056616,0.020913124156905872,-0.09842101834059411, ,0.0011128234603189797, ,0.016137730210833055,-0.0013993773027828223,-0.03164453357176588,-0.059020989405407044,-0.05867898562978996,-0.0012185877791303327, ,0.035549417690980474, ,0.08322661120833301, ,0.0008682082042225062, ,0.22222163845581028,-0.20599617668706457,0.10913854397000002,1.6959722629028329,0.5480490005591817,-1.3313962887084947, ,0.09151103332542987,0.08173724509773538,0.03311603226611227,-0.016694875105614546,0.03726894577915207,-0.022726184701768744, ,1.6006689071655273
0.01739176846683079,0.021287076118273993,-0.09794409000884621, ,0.018025814635316145,0.0209028340783712,-0.09858740122642468, ,0.0009815833187569463, ,0.015810870042283792,-0.001409433880982785,-0.03116303645016579,0.02338146981106525,-0.0073861488179937295,-0.0207359886637333, ,0.03497291746699453, ,0.024519766208875467, ,0.000869365093146327, ,0.22309430727059765,-0.2052161806667679,0.10945354244000001,1.6957625729593484,0.5487321830580089,-1.3321167357072579, ,0.09285415025290683,0.0809700866539853,0.03284291035051547,-0.0119031748826207,0.09024974261680897,-0.10387680811098937, ,1.605907917022705
0.01739176846683079,0.021287076118273993,-0.09794409000884621, ,0.018115162740068292,0.020892376623958715,-0.09875283838151365, ,0.001154625868261133, ,0.015810870042283792,-0.001409433880982785,-0.03116303645016579,0.02338146981106525,-0.0073861488179937295,-0.0207359886637333, ,0.03497291746699453, ,0.024519766208875467, ,0.0008722465151171836, ,0.22309430727059765,-0.2052161806667679,0.10945354244000001,1.6957625729593484,0.5487321830580089,-1.3321167357072579, ,0.09285415025290683,0.0809700866539853,0.03284291035051547,-0.0119031748826207,0.09024974261680897,-0.10387680811098937, ,1.611311912536621
0.017524282031764538,0.021275456595336383,-0.09820306782662505, ,0.018204503830670894,0.020881757797269456,-0.09891732972970196, ,0.0010620124789727258, ,0.015605362820098017,-0.0012298349584032315,-0.030373391025114233,0.020638862283196703,-0.01148026968826116,0.018379388476406546, ,0.03416990964483661, ,0.02361637944544495, ,0.000874144174755739, ,0.22388202602376853,-0.2045597483724588,0.10972705963000001,1.6953431930723792,0.5495520020566015,-1.3329486006097175, ,0.09258238200826417,0.0754347707142057,0.03211453935483872,-0.05089169075417307,0.09386226066073983,-0.10397511426421899, ,1.61677885055542
0.017524282031764538,0.021275456595336383,-0.09820306782662505, ,0.018293835941412644,0.02087098356764865,-0.09908087522404137, ,0.0012354584076124837, ,0.015605362820098017,-0.0012298349584032315,-0.030373391025114233,0.020638862283196703,-0.01148026968826116,0.018379388476406546, ,0.03416990964483661, ,0.02361637944544495, ,0.000877721543397885, ,0.22388202602376853,-0.2045597483724588,0.10972705963000001,1.6953431930723792,0.5495520020566015,-1.3329486006097175, ,0.09258238200826417,0.0754347707142057,0.03211453935483872,-0.05089169075417307,0.09386226066073983,-0.10397511426421899, ,1.6222739219665527
0.017713190440210268,0.021256804941466718,-0.09856700785392783, ,0.018383157129237104,0.020860059871441804,-0.09924347484772607, ,0.0010314405502466352, ,0.015380432480314154,-0.0017665098686822948,-0.029628144752443283,0.002336769068936499,-0.01947690948529619,0.03232751902160912, ,0.03342910740461652, ,0.01961600524875062, ,0.0008792285924846374, ,0.22499409955765687,-0.20363302042755188,0.11011076147000001,1.6945044332984414,0.5505084575549596,-1.3341369196362953, ,0.09081047039088112,0.0778481883170392,0.031232963764705888,-0.06335796209746195,0.08632225565639286,-0.09067353524145377, ,1.6275360584259033
0.017713190440210268,0.021256804941466718,-0.09856700785392783, ,0.018472465476884678,0.0208489926073279,-0.09940512860984911, ,0.0012021879564771635, ,0.015380432480314154,-0.0017665098686822948,-0.029628144752443283,0.002336769068936499,-0.01947690948529619,0.03232751902160912, ,0.03342910740461652, ,0.01961600524875062, ,0.0008823641202903902, ,0.22499409955765687,-0.20363302042755188,0.11011076147000001,1.6945044332984414,0.5505084575549596,-1.3341369196362953, ,0.09081047039088112,0.0778481883170392,0.031232963764705888,-0.06335796209746195,0.08632225565639286,-0.09067353524145377, ,1.633018970489502
0.017857261309995383,0.02124119224610816,-0.09884327779583975, ,0.01856175908790774,0.020837787643485796,-0.09956583655150356, ,0.001086804282236129, ,0.014946208805470651,-0.0011767327771199426,-0.028649477520628134,0.021422882984020283,-0.004687984716614383,-0.03360556193782837, ,0.032335219496555975, ,0.02192938245562118, ,0.00088432989107833, ,0.22584360017382157,-0.20289936080450055,0.11040242672000002,1.6942947433549567,0.5513282765535522,-1.3347237483183332, ,0.08762413809646424,0.07294153847691835,0.030340593371428574,0.006411060624312431,0.08373721111383373,-0.0898804494021561, ,1.6384479999542236
0.01801177045087854,0.02122872995089484,-0.09913431010105937, ,0.018651036089894903,0.020826450812939556,-0.09972559874154395, ,0.0009592243316488312, ,0.015613379241410772,-0.001320595843870376,-0.02934753159379728,0.002739484336114252,-0.009698222989142784,-0.030649612834572987, ,0.033268591725047425, ,0.010076633048879275, ,0.0008850431714647158, ,0.22675488265298005,-0.202157978448575,0.11071094374000001,1.6942947433549567,0.5521480955521448,-1.3356372919609336, ,0.09186538389009755,0.07555488977585254,0.031110960000000003,0.008391375090968635,0.08259439635435153,-0.07238486924923208, ,1.6443309783935547
0.01801177045087854,0.02122872995089484,-0.09913431010105937, ,0.018740294633547688,0.020814987914810033,-0.09988441527751689, ,0.0011245388979069216, ,0.015613379241410772,-0.001320595843870376,-0.02934753159379728,0.002739484336114252,-0.009698222989142784,-0.030649612834572987, ,0.033268591725047425, ,0.010076633048879275, ,0.0008873025651103969, ,0.22675488265298005,-0.202157978448575,0.11071094374000001,1.6942947433549567,0.5521480955521448,-1.3356372919609336, ,0.09186538389009755,0.07555488977585254,0.031110960000000003,0.008391375090968635,0.08259439635435153,-0.07238486924923208, ,1.649704933166504
0.018168412042383383,0.021215738750753506,-0.0994303714948567, ,0.018829532892598512,0.02080340471438103,-0.1000422862855522, ,0.0009907269286803047, ,0.015428901295475054,-0.0012061444367936118,-0.029735551390780903,0.03766372787074183,0.027358760417494955,-0.02536296187066999, ,0.033521766005115125, ,0.046551422330620935, ,0.000888269147947499, ,0.22768933333076122,-0.20139342789402676,0.11102594221,1.6945044332984414,0.5532411875502683,-1.3364469564503643, ,0.0916878662400684,0.07466321129698723,0.031667617335984104,0.0,0.12219047822957414,-0.10724794759433669, ,1.6550190448760986
0.018168412042383383,0.021215738750753506,-0.0994303714948567, ,0.018918749063722172,0.020791706943177377,-0.1001992119202677, ,0.001154956371112788, ,0.015428901295475054,-0.0012061444367936118,-0.029735551390780903,0.03766372787074183,0.027358760417494955,-0.02536296187066999, ,0.033521766005115125, ,0.046551422330620935, ,0.0008907384740879183, ,0.22768933333076122,-0.20139342789402676,0.11102594221,1.6945044332984414,0.5532411875502683,-1.3364469564503643, ,0.0916878662400684,0.07466321129698723,0.031667617335984104,0.0,0.12219047822957414,-0.10724794759433669, ,1.660290002822876
0.01832909612738203,0.021203684726649533,-0.09973876781868206, ,0.019007941366455977,0.020779900299026526,-0.10035519236465609, ,0.0010101501475465989, ,0.016118921952176363,-0.0009844827904033667,-0.030441093900463203,0.01932032210177737,0.003764129667604622,-0.01976959130755894, ,0.03445938259925403, ,0.019682920985726545, ,0.0008918339940279063, ,0.2286315067414166,-0.20063660007235276,0.11135390358000001,1.6942947433549567,0.554334279548392,-1.337338299679936, ,0.09461310225171563,0.07333612176079658,0.032441571323828924,-0.004104287495629497,0.10179511899032322,-0.08904401416921373, ,1.6655490398406982
0.01832909612738203,0.021203684726649533,-0.09973876781868206, ,0.01909710804311373,0.02076799044613113,-0.10051022782998348, ,0.0011725281906289112, ,0.016118921952176363,-0.0009844827904033667,-0.030441093900463203,0.01932032210177737,0.003764129667604622,-0.01976959130755894, ,0.03445938259925403, ,0.019682920985726545, ,0.0008943857594515517, ,0.2286315067414166,-0.20063660007235276,0.11135390358000001,1.6942947433549567,0.554334279548392,-1.337338299679936, ,0.09461310225171563,0.07333612176079658,0.032441571323828924,-0.004104287495629497,0.10179511899032322,-0.08904401416921373, ,1.6707849502563477
0.0184996085335036,0.021191325591886696,-0.10005582188201412, ,0.019186247358698654,0.02075598301514619,-0.10066431855569122, ,0.0010155118104997131, ,0.017402185846591065,-0.0013629223527681122,-0.031752927614408406,-0.06655471601929745,-0.09145151836983405,0.06594982258039994, ,0.03623454210646009, ,0.11310560621669906, ,0.0008954769851366703, ,0.2296045710835689,-0.1998952177164272,0.11168964269000001,1.6934559835810188,0.5548808255474537,-1.3377839712947215, ,0.09803403053561031,0.07478088381282172,0.033534340042105266,-0.09016346580230863,0.02510109831178929,-0.02597455979313141, ,1.6760270595550537
0.018672909662083032,0.021180308218641596,-0.10037672029228953, ,0.019275357600823814,0.020743883603237492,-0.10081746480928154, ,0.0008646766407635623, ,0.016871106305938362,-0.0013255898029380824,-0.03147232930711511,0.030556264402135172,0.018400285597445144,0.02636052304773173, ,0.035733722564650655, ,0.035668262175454546, ,0.0008952019820619104, ,0.23061624909009232,-0.199130667161879,0.11203186325000002,1.693246293637534,0.5558372810458118,-1.338645575360737, ,0.10084690920135046,0.07579627920005652,0.03367613429175476,-0.05435378378085944,0.13331017518836003,-0.11301858293886088, ,1.6872868537902832
0.018672909662083032,0.021180308218641596,-0.10037672029228953, ,0.01936443707962395,0.020731697774160944,-0.1009696668862213, ,0.0010154049258119815, ,0.016871106305938362,-0.0013255898029380824,-0.03147232930711511,0.030556264402135172,0.018400285597445144,0.02636052304773173, ,0.035733722564650655, ,0.035668262175454546, ,0.0008962657249269553, ,0.23061624909009232,-0.199130667161879,0.11203186325000002,1.693246293637534,0.5558372810458118,-1.338645575360737, ,0.10084690920135046,0.07579627920005652,0.03367613429175476,-0.05435378378085944,0.13331017518836003,-0.11301858293886088, ,1.6927239894866943
0.018833280427204103,0.021166072278642634,-0.10066491035093555, ,0.019453484127671634,0.020719431058332,-0.10112092510983804, ,0.0008899946461024841, ,0.014602774051647168,-0.0016453508825137908,-0.024728800318525146,0.01905699786626239,0.0030345097475333632,-0.02947417534551208, ,0.028765634961243913, ,0.01929684351847214, ,0.0008962107154635827, ,0.23158159069937037,-0.19840473027170188,0.11234038027000001,1.6930366036940496,0.5569303730439352,-1.3395369185903083, ,0.09046419595659749,0.06759041421543502,0.026548019200000002,0.00825178824977388,0.09419086214219236,-0.08057507355953016, ,1.6980090141296387
0.018833280427204103,0.021166072278642634,-0.10066491035093555, ,0.019542497099894817,0.020707088952889936,-0.10127123983120896, ,0.0010398506723516196, ,0.014602774051647168,-0.0016453508825137908,-0.024728800318525146,0.01905699786626239,0.0030345097475333632,-0.02947417534551208, ,0.028765634961243913, ,0.01929684351847214, ,0.0008974597585669569, ,0.23158159069937037,-0.19840473027170188,0.11234038027000001,1.6930366036940496,0.5569303730439352,-1.3395369185903083, ,0.09046419595659749,0.06759041421543502,0.026548019200000002,0.00825178824977388,0.09419086214219236,-0.08057507355953016, ,1.7032530307769775
0.01897397148673055,0.021141036398742454,-0.10088410486103182, ,0.01963147437349015,0.020694676921774662,-0.10142061142906462, ,0.0009588462474862747, ,0.014295271983160192,-0.0033834089486805222,-0.020540391426399594,-0.0240739991621431,-0.03932925944538516,-0.028421490968276543, ,0.02525291937848466, ,0.0461123023483594, ,0.0008979889524369511, ,0.2324774277127804,-0.19770968431302166,0.11257500876000001,1.6930366036940496,0.5576135555427625,-1.340175686848931, ,0.09349452370292687,0.07537485429584652,0.021940511735537193,0.007926035715578334,0.053938978378689106,-0.046097988705322016, ,1.7084810733795166
0.01897397148673055,0.021141036398742454,-0.10088410486103182, ,0.019720414347839645,0.02068220039579395,-0.10156904030968072, ,0.001112134880002587, ,0.014295271983160192,-0.0033834089486805222,-0.020540391426399594,-0.0240739991621431,-0.03932925944538516,-0.028421490968276543, ,0.02525291937848466, ,0.0461123023483594, ,0.0008998192595101617, ,0.2324774277127804,-0.19770968431302166,0.11257500876000001,1.6930366036940496,0.5576135555427625,-1.340175686848931, ,0.09349452370292687,0.07537485429584652,0.021940511735537193,0.007926035715578334,0.053938978378689106,-0.046097988705322016, ,1.7137360572814941
0.01911867757575999,0.021105897494572298,-0.10109373581459283, ,0.019809315444425973,0.020669664772694697,-0.10171652690677553, ,0.0010272041655748664, ,0.014810961333788559,-0.0032285705368985335,-0.0216903978318448,-0.008058582246918996,-0.02314906695227819,-0.022074218426347453, ,0.0264624564514787, ,0.024511532949336095, ,0.0009008987926124049, ,0.23342732385631004,-0.196929688292725,0.11279926693000002,1.693246293637534,0.5582967380415896,-1.340732776367413, ,0.09703163758534844,0.07573578735711954,0.02328773614035088,0.0,0.07577288546607279,-0.06359442031921374, ,1.7189838886260986
0.01911867757575999,0.021105897494572298,-0.10109373581459283, ,0.01989817610674853,0.02065707541723148,-0.10186307168140454, ,0.0011836117999093944, ,0.01494440727870082,-0.002955115023584335,-0.021977633615157786,0.0321460056536011,0.017863848074996427,-0.008388902562779422, ,0.02674106192798658, ,0.0367760468245296, ,0.0009032745321695225, ,0.2343926654655881,-0.19621147413542211,0.11302482139000002,1.6928269137505652,0.5593898300397131,-1.3416241195969845, ,0.10095419314730934,0.0731101244672348,0.02388127664167916,-0.016513244514148772,0.1251162115300995,-0.10365013639533222, ,1.7246930599212646
0.019261615208918812,0.021074062440317242,-0.10130228380907529, ,0.01998699480023835,0.02064443766123776,-0.10200867512185646, ,0.0010998825796759877, ,0.01494440727870082,-0.002955115023584335,-0.021977633615157786,0.0321460056536011,0.017863848074996427,-0.008388902562779422, ,0.02674106192798658, ,0.0367760468245296, ,0.0009049129325654096, ,0.2343926654655881,-0.19621147413542211,0.11302482139000002,1.6928269137505652,0.5593898300397131,-1.3416241195969845, ,0.10095419314730934,0.0731101244672348,0.02388127664167916,-0.016513244514148772,0.1251162115300995,-0.10365013639533222, ,1.7302489280700684
0.019421430139138558,0.021043468099665365,-0.10154215781445557, ,0.020075770012173925,0.02063175680369857,-0.10215333774355223, ,0.0009854987399287737, ,0.01421991663681895,-0.0026910117081451125,-0.021839710876707077,-0.006090043842936675,-0.019593490682927633,0.05635082692072206, ,0.026199628706331163, ,0.02051800532572352, ,0.0009055789309733713, ,0.23538117527348884,-0.19550098271099348,0.11326852391000002,1.6921978439201113,0.5604829220378368,-1.3425154628265559, ,0.09267279449069411,0.06678180264494778,0.02363325151335312,-0.08092756739656112,0.09094536922732527,-0.07563534468335326, ,1.7355470657348633
0.019421430139138558,0.021043468099665365,-0.10154215781445557, ,0.020164500251596967,0.020619038110815963,-0.10229706008893626, ,0.001141127272253089, ,0.01421991663681895,-0.0026910117081451125,-0.021839710876707077,-0.006090043842936675,-0.019593490682927633,0.05635082692072206, ,0.026199628706331163, ,0.02051800532572352, ,0.0009075096550822214, ,0.23538117527348884,-0.19550098271099348,0.11326852391000002,1.6921978439201113,0.5604829220378368,-1.3425154628265559, ,0.09267279449069411,0.06678180264494778,0.02363325151335312,-0.08092756739656112,0.09094536922732527,-0.07563534468335326, ,1.740813970565796
0.019561662607897552,0.02101972809748054,-0.10176187323517714, ,0.020253184049227713,0.020606286816084354,-0.10243984272737662, ,0.001052985388946626, ,0.01607238777024555,-0.003019562279424681,-0.026021930082076997,-0.039912703666209824,-0.051967258591491705,0.03246723367051962, ,0.030734024308459295, ,0.06552562817625972, ,0.0009086923846258344, ,0.23631562595127,-0.1947827685536906,0.11352000417000001,1.6921978439201113,0.5611661045366639,-1.343072552345038, ,0.09663639669905374,0.0783624620631468,0.02770228090434783,-0.056976515666810314,0.05707318145097682,-0.04789202750998222, ,1.746048927307129
0.019561662607897552,0.02101972809748054,-0.10176187323517714, ,0.02034181995738061,0.020593508120356447,-0.10258168625505787, ,0.0012092982867837215, ,0.01607238777024555,-0.003019562279424681,-0.026021930082076997,-0.039912703666209824,-0.051967258591491705,0.03246723367051962, ,0.030734024308459295, ,0.06552562817625972, ,0.000911116625772269, ,0.23631562595127,-0.1947827685536906,0.11352000417000001,1.6921978439201113,0.5611661045366639,-1.343072552345038, ,0.09663639669905374,0.0783624620631468,0.02770228090434783,-0.056976515666810314,0.05707318145097682,-0.04789202750998222, ,1.751291036605835
0.0197288116270595,0.021000305634494603,-0.10205615693857267, ,0.020430406549880147,0.020580707191915446,-0.10272259129487754, ,0.0010547194129274604, ,0.016370004985112138,-0.0009582129115235429,-0.030919555032392115,0.048182297026846364,0.04099115769428562,-0.03528334924344081, ,0.03499877310131787, ,0.06325962769642442, ,0.0009122654480695106, ,0.23728869029342228,-0.19401821799914235,0.11383500264000002,1.691988153976627,0.562122560035022,-1.3438524776709129, ,0.09312751870311164,0.07145854033017378,0.03325430379958247,0.011196751688414597,0.13520346437713607,-0.11149979642007521, ,1.7566840648651123
0.0197288116270595,0.021000305634494603,-0.10205615693857267, ,0.0205189424219759,0.02056788916654767,-0.10286255849634567, ,0.001208955808623968, ,0.016370004985112138,-0.0009582129115235429,-0.030919555032392115,0.048182297026846364,0.04099115769428562,-0.03528334924344081, ,0.03499877310131787, ,0.06325962769642442, ,0.0009146201334707365, ,0.23728869029342228,-0.19401821799914235,0.11383500264000002,1.691988153976627,0.562122560035022,-1.3438524776709129, ,0.09312751870311164,0.07145854033017378,0.03325430379958247,0.011196751688414597,0.13520346437713607,-0.11149979642007521, ,1.7621819972991943
0.01989117547398777,0.02099365823091301,-0.1023641378447369, ,0.020607426190258696,0.020555059147605505,-0.10300158853547318, ,0.0010543849522622016, ,0.01694458181371869,-0.000980560856452722,-0.03152610216748295,0.044204283738107704,0.03458870006770222,-0.016950534374848156, ,0.03580468503296163, ,0.05612811889616237, ,0.0009157206438549213, ,0.238207695505455,-0.19333089477333637,0.11416685288000002,1.6921978439201113,0.5634889250326764,-1.344966656707877, ,0.0962443626353659,0.07156632093399003,0.03389108834042554,-0.008379987559033408,0.13855096180097068,-0.11414393192204708, ,1.7675039768218994
0.01989117547398777,0.02099365823091301,-0.1023641378447369, ,0.02069585649257559,0.020542222206088603,-0.10313968211467764, ,0.001205311138595636, ,0.01694458181371869,-0.000980560856452722,-0.03152610216748295,0.044204283738107704,0.03458870006770222,-0.016950534374848156, ,0.03580468503296163, ,0.05612811889616237, ,0.0009179830695950831, ,0.238207695505455,-0.19333089477333637,0.11416685288000002,1.6921978439201113,0.5634889250326764,-1.344966656707877, ,0.0962443626353659,0.07156632093399003,0.03389108834042554,-0.008379987559033408,0.13855096180097068,-0.11414393192204708, ,1.7727758884429932
0.0200675441346427,0.020983580859007592,-0.10268267081426968, ,0.020784231987946,0.02052938338070381,-0.10327683996267038, ,0.0010358444889466856, ,0.017270276402868594,-0.0009772964840405946,-0.03086111138284486,0.02048862402491636,0.0026939787280075445,-0.022042513622240346, ,0.035378323182897665, ,0.02066429873676097, ,0.0009188967240086614, ,0.23921937351197842,-0.19261268061603348,0.11451036973,1.691988153976627,0.5647186535305654,-1.3458877391010042, ,0.09813541009148995,0.0701900455314133,0.03325430379958247,-0.0010954039004455113,0.10350768405928354,-0.08629072586221155, ,1.7780420780181885
0.0200675441346427,0.020983580859007592,-0.10268267081426968, ,0.02087255135647694,0.020516547677941005,-0.10341306283435736, ,0.0011830592218609426, ,0.017270276402868594,-0.0009772964840405946,-0.03086111138284486,0.02048862402491636,0.0026939787280075445,-0.022042513622240346, ,0.035378323182897665, ,0.02066429873676097, ,0.0009209287432229098, ,0.23921937351197842,-0.19261268061603348,0.11451036973,1.691988153976627,0.5647186535305654,-1.3458877391010042, ,0.09813541009148995,0.0701900455314133,0.03325430379958247,-0.0010954039004455113,0.10350768405928354,-0.08629072586221155, ,1.7834229469299316
0.020245959697505256,0.02096866080402999,-0.10299884119122273, ,0.02096081329927865,0.020503720072140817,-0.10354835151073268, ,0.0010144688991713632, ,0.018203283718262003,-0.0012568140852168373,-0.032097408329977956,-0.011660383753384043,-0.031884024974599544,0.017523354216039195, ,0.03692130470708856, ,0.03394880748430279, ,0.0009216427902148826, ,0.24023105151850183,-0.19187902099298218,0.11484999771000001,1.6913590841461734,0.5656751090289234,-1.3466676644268794, ,0.10182075274514032,0.07277372818901133,0.034477947012987016,-0.04192009115949027,0.07979426179109804,-0.0668423463515055, ,1.7887248992919922
0.020245959697505256,0.02096866080402999,-0.10299884119122273, ,0.021049016538380372,0.02049090550556965,-0.10368270679877825, ,0.001157938937975806, ,0.018203283718262003,-0.0012568140852168373,-0.032097408329977956,-0.011660383753384043,-0.031884024974599544,0.017523354216039195, ,0.03692130470708856, ,0.03394880748430279, ,0.0009234329125464048, ,0.24023105151850183,-0.19187902099298218,0.11484999771000001,1.6913590841461734,0.5656751090289234,-1.3466676644268794, ,0.10182075274514032,0.07277372818901133,0.034477947012987016,-0.04192009115949027,0.07979426179109804,-0.0668423463515055, ,1.7939510345458984
0.02042993797057571,0.0209542500609026,-0.10330886933644905, ,0.021137159816645552,0.020478108888482404,-0.10381612953135434, ,0.0009920615207573947, ,0.016763534958555478,-0.0020211066103827287,-0.026707236810946052,-0.017351741398815585,-0.03938981742477577,0.03873739743438722, ,0.031597111803346775, ,0.04304215443800334, ,0.0009239489171194199, ,0.2412890659222706,-0.19114536136993085,0.11518444053000002,1.6911493942026892,0.5664949280275161,-1.3473361718490577, ,0.09978647903098925,0.06846821180264846,0.028856542608695655,-0.06283102513183507,0.07405336514146532,-0.0620575602273445, ,1.7992398738861084
0.020580575497015238,0.020931484269273867,-0.10353817253086851, ,0.021225241897687853,0.020465335099198963,-0.10394862056709975, ,0.0008951856831762803, ,0.016763534958555478,-0.0020211066103827287,-0.026707236810946052,-0.017351741398815585,-0.03938981742477577,0.03873739743438722, ,0.031597111803346775, ,0.04304215443800334, ,0.0009237342661198442, ,0.2412890659222706,-0.19114536136993085,0.11518444053000002,1.6911493942026892,0.5664949280275161,-1.3473361718490577, ,0.09978647903098925,0.06846821180264846,0.028856542608695655,-0.06283102513183507,0.07405336514146532,-0.0620575602273445, ,1.8047800064086914
0.020580575497015238,0.020931484269273867,-0.10353817253086851, ,0.021313261565786463,0.020452588984172394,-0.10408018079032669, ,0.0010295351003169987, ,0.014943841746264362,-0.0031057823401453365,-0.021904614165913824,0.008049840549339894,-0.004885031585239199,0.017694549363200994, ,0.0266978727961481, ,0.009415860214844354, ,0.0009245179760027861, ,0.2422157938671775,-0.19048120634274754,0.11543332821,1.6911493942026892,0.5673147470261087,-1.3480046792712364, ,0.09527805377356505,0.07024199967318341,0.02380988269058296,-0.04290719780418969,0.1008632251195306,-0.08383546612040112, ,1.810426950454712
0.020731516895592352,0.020899734711758884,-0.10375162367938895, ,0.021401217625801425,0.02043987535805659,-0.10421081111091379, ,0.00093317886308062, ,0.014991501821533705,-0.0032853494965995197,-0.02137806308208118,0.02722733827813743,0.015214843213252753,0.005892073215452119, ,0.02631653908327038, ,0.031189981380359923, ,0.0009245816589960055, ,0.24319658094220403,-0.18976299218544465,0.11566666041000001,1.6911493942026892,0.5684078390242323,-1.3488960225008078, ,0.09793286022546002,0.07135108387854945,0.02339032528634362,-0.03222521204088089,0.12206555798847775,-0.10104468446492425, ,1.8156330585479736
0.020731516895592352,0.020899734711758884,-0.10375162367938895, ,0.021489108903090085,0.02042719900378264,-0.1043405124642083, ,0.0010695913453385168, ,0.014991501821533705,-0.0032853494965995197,-0.02137806308208118,0.02722733827813743,0.015214843213252753,0.005892073215452119, ,0.02631653908327038, ,0.031189981380359923, ,0.0009256401238598195, ,0.24319658094220403,-0.18976299218544465,0.11566666041000001,1.6911493942026892,0.5684078390242323,-1.3488960225008078, ,0.09793286022546002,0.07135108387854945,0.02339032528634362,-0.03222521204088089,0.12206555798847775,-0.10104468446492425, ,1.8212029933929443
0.02088658498414092,0.020870992129949386,-0.10397288913041833, ,0.021576934243421546,0.020414564672623006,-0.10446928581091566, ,0.0009650480754861415, ,0.015600441611581337,-0.0027060188604634224,-0.022358906733042385,0.01593643302411024,-0.001476308719899153,0.002272055087439902, ,0.027397390876622362, ,0.016004493025847742, ,0.0009259256887266769, ,0.244192813482979,-0.18906022349389023,0.11590906664000002,1.6911493942026892,0.5695009310223558,-1.3497873657303792, ,0.09957706354509001,0.06783198109969318,0.024505863876923082,-0.025855207252894884,0.10541476404959746,-0.08514561248039658, ,1.826596975326538
0.02088658498414092,0.020870992129949386,-0.10397288913041833, ,0.02166469251289304,0.020401977084264358,-0.10459713213699841, ,0.00110231836174664, ,0.015600441611581337,-0.0027060188604634224,-0.022358906733042385,0.01593643302411024,-0.001476308719899153,0.002272055087439902, ,0.027397390876622362, ,0.016004493025847742, ,0.0009271947007627918, ,0.244192813482979,-0.18906022349389023,0.11590906664000002,1.6911493942026892,0.5695009310223558,-1.3497873657303792, ,0.09957706354509001,0.06783198109969318,0.024505863876923082,-0.025855207252894884,0.10541476404959746,-0.08514561248039658, ,1.8319129943847656
0.021046027765924475,0.02084269827781836,-0.10419903596064756, ,0.02175238259784537,0.020389440926879315,-0.10472405245357304, ,0.000989960450019115, ,0.015952311568523125,-0.0028900849213780036,-0.022680251859264214,-0.0065896730245577784,-0.024505666341872824,-0.020952112545008665, ,0.02787871337834067, ,0.02537608071023403, ,0.0009276430275431941, ,0.2452044914895024,-0.18836517753521,0.11615665803000001,1.6909397042592043,0.5704573865207139,-1.3504856123161135, ,0.099368525192116,0.07081861310333641,0.02473417937888199,0.0,0.07663940988477097,-0.06002254824540104, ,1.8372039794921875
0.021046027765924475,0.02084269827781836,-0.10419903596064756, ,0.021840003404777965,0.020376960857192462,-0.10485004779680263, ,0.00112744182593962, ,0.015952311568523125,-0.0028900849213780036,-0.022680251859264214,-0.0065896730245577784,-0.024505666341872824,-0.020952112545008665, ,0.02787871337834067, ,0.02537608071023403, ,0.0009290600402977788, ,0.2452044914895024,-0.18836517753521,0.11615665803000001,1.6909397042592043,0.5704573865207139,-1.3504856123161135, ,0.099368525192116,0.07081861310333641,0.02473417937888199,0.0,0.07663940988477097,-0.06002254824540104, ,1.842439889907837
0.021206762720117407,0.02081237715945447,-0.10443117607452329, ,0.0219275538602654,0.020364541500556395,-0.10497511922779734, ,0.0010079537683297952, ,0.015815157790354556,-0.002751375923234832,-0.02346337885198054,0.008681513156612967,-0.0031200862646540675,-0.008687999491599686, ,0.028429200350279578, ,0.009224776291362407, ,0.0009296156299318071, ,0.24620072403027737,-0.18765468611078137,0.11640943458000001,1.6905203243722353,0.5712772055193065,-1.3509907622580108, ,0.09753025853902444,0.07008636747302126,0.025609021736334413,-0.013808972776951707,0.09925983796267868,-0.07726755247026101, ,1.8477280139923096
0.021206762720117407,0.02081237715945447,-0.10443117607452329, ,0.02201503291087204,0.020352187451016763,-0.10509926783250595, ,0.0011451732908598917, ,0.015815157790354556,-0.002751375923234832,-0.02346337885198054,0.008681513156612967,-0.0031200862646540675,-0.008687999491599686, ,0.028429200350279578, ,0.009224776291362407, ,0.0009311230261620733, ,0.24620072403027737,-0.18765468611078137,0.11640943458000001,1.6905203243722353,0.5712772055193065,-1.3509907622580108, ,0.09753025853902444,0.07008636747302126,0.025609021736334413,-0.013808972776951707,0.09925983796267868,-0.07726755247026101, ,1.8529798984527588
0.021363382786925015,0.02078576158409379,-0.10466732138015798, ,0.022102439523068174,0.0203399032713852,-0.10522249472161431, ,0.0010262611428450924, ,0.016733274820036975,-0.0024885038195269064,-0.025373789085866405,0.007315493536037698,-0.005896609036191692,0.041517858989156685, ,0.03049629994010284, ,0.009395526912305793, ,0.0009317837075279277, ,0.24716606563955543,-0.18698280835072384,0.11666739629000002,1.6898912545417817,0.57237029751743,-1.351882105487582, ,0.10214956034281031,0.0686167328694655,0.02775054271777004,-0.06704874918619176,0.11120766839155274,-0.08704633331438565, ,1.8582789897918701
0.021363382786925015,0.02078576158409379,-0.10466732138015798, ,0.02218977268314533,0.02032769349330883,-0.10534480103044047, ,0.0011626372232632519, ,0.016733274820036975,-0.0024885038195269064,-0.025373789085866405,0.007315493536037698,-0.005896609036191692,0.041517858989156685, ,0.03049629994010284, ,0.009395526912305793, ,0.0009333758007398956, ,0.24716606563955543,-0.18698280835072384,0.11666739629000002,1.6898912545417817,0.57237029751743,-1.351882105487582, ,0.10214956034281031,0.0686167328694655,0.02775054271777004,-0.06704874918619176,0.11120766839155274,-0.08704633331438565, ,1.8636109828948975
0.021538965476110755,0.020760414474141158,-0.10492473571603408, ,0.02227703139713174,0.020315562617339897,-0.10546618791882992, ,0.0010177450398722388, ,0.016566635265921087,-0.0023198225763957844,-0.023811788227461037,0.025776770911198024,0.004857835140001102,-0.042486938941396615, ,0.02910045084546746, ,0.02623037982176094, ,0.0009339536722408019, ,0.24824724824194686,-0.18626459419342095,0.11694998751,1.6896815645982974,0.5734633895155536,-1.3526100912368724, ,0.10281358782066174,0.06802648140392172,0.02624186411861615,0.021112594898415094,0.10611786905127377,-0.08390779985785612, ,1.8689179420471191
0.021538965476110755,0.020760414474141158,-0.10492473571603408, ,0.02236421469070869,0.02030351511300922,-0.10558665657105502, ,0.0011523595405553465, ,0.016566635265921087,-0.0023198225763957844,-0.023811788227461037,0.025776770911198024,0.004857835140001102,-0.042486938941396615, ,0.02910045084546746, ,0.02623037982176094, ,0.0009354394264470234, ,0.24824724824194686,-0.18626459419342095,0.11694998751,1.6896815645982974,0.5734633895155536,-1.3526100912368724, ,0.10281358782066174,0.06802648140392172,0.02624186411861615,0.021112594898415094,0.10611786905127377,-0.08390779985785612, ,1.8741240501403809
0.021711266295664625,0.020736482980431688,-0.10517291387703322, ,0.02245132160912512,0.020291555418892174,-0.10570620819570585, ,0.0010149114406326895, ,0.01680870495457021,-0.0021233320663875672,-0.02425302948603595,0.011634067005632865,0.00319485537718678,-0.03164740306599893, ,0.029584633520874853, ,0.012064419781268777, ,0.0009359763995158452, ,0.24931298537858984,-0.18556954823474076,0.11722350470000001,1.6896815645982974,0.5745564815136771,-1.3531747195058816, ,0.10348630486201829,0.0665010102021519,0.02677111179831933,0.015245820195596454,0.10626315609860715,-0.06882128597867454, ,1.879472017288208
0.021711266295664625,0.020736482980431688,-0.10517291387703322, ,0.02253835121711384,0.02027968794268173,-0.10582484402558981, ,0.0011479303517194152, ,0.01680870495457021,-0.0021233320663875672,-0.02425302948603595,0.011634067005632865,0.00319485537718678,-0.03164740306599893, ,0.029584633520874853, ,0.012064419781268777, ,0.000937398909262178, ,0.24931298537858984,-0.18556954823474076,0.11722350470000001,1.6896815645982974,0.5745564815136771,-1.3531747195058816, ,0.10348630486201829,0.0665010102021519,0.02677111179831933,0.015245820195596454,0.10626315609860715,-0.06882128597867454, ,1.8847730159759521
0.0218767566834773,0.020716318867149076,-0.10541213905451927, ,0.02262530259880602,0.02026791706125538,-0.10594256531762415, ,0.0010211450374336894, ,0.017361094356735975,-0.0018460094918633472,-0.025012724662913835,0.012163666336388792,0.0037105409024319803,-0.027194926982954577, ,0.030503307089072774, ,0.012716646650294604, ,0.0009379572167833214, ,0.25033238611798747,-0.1849285614061801,0.11748794786000001,1.6896815645982974,0.5756495735118006,-1.3539027052551718, ,0.10650610724856428,0.06504245480361259,0.02770228090434783,0.011885017562312746,0.11052495378323728,-0.06841129543254967, ,1.8900630474090576
0.022054104759320153,0.020697185704495795,-0.10566467268859975, ,0.02271217485764901,0.020256247120752434,-0.10605937335273788, ,0.0008850263856062329, ,0.016647126564449305,-0.002088875125943399,-0.02372138418233028,0.020763437558361016,0.0217603943497355,-0.015352912821170869, ,0.029055021763376602, ,0.030077027620010858, ,0.0009376066814775129, ,0.251382677788882,-0.18428757457761946,0.11775757618000002,1.6898912545417817,0.576742665509924,-1.3546306910044619, ,0.10382597544690457,0.06433690953116662,0.026503846123128123,0.0,0.1284996729391768,-0.0783201339524145, ,1.8961379528045654
0.022054104759320153,0.020697185704495795,-0.10566467268859975, ,0.022798967116319426,0.02024468243663558,-0.10617526943576044, ,0.0010100931523922788, ,0.016647126564449305,-0.002088875125943399,-0.02372138418233028,0.020763437558361016,0.0217603943497355,-0.015352912821170869, ,0.029055021763376602, ,0.030077027620010858, ,0.0009380835661545838, ,0.251382677788882,-0.18428757457761946,0.11775757618000002,1.6898912545417817,0.576742665509924,-1.3546306910044619, ,0.10382597544690457,0.06433690953116662,0.026503846123128123,0.0,0.1284996729391768,-0.0783201339524145, ,1.901500940322876
0.022223384987866676,0.020672355828374737,-0.10589283596321573, ,0.022885678516640227,0.02023322729376742,-0.1062902548953233, ,0.0008884865760151988, ,0.01668059744264941,-0.002561680275155811,-0.02189807256606472,-0.061307200088377097,-0.065008844639621,-0.005270769566945491, ,0.027646520920081075, ,0.08935724720864627, ,0.0009377594028203394, ,0.2524715831241477,-0.18361569681756193,0.11802072305000001,1.6896815645982974,0.5775624845085168,-1.3548908047259378, ,0.1014940551427495,0.06433690953116662,0.024134562909090912,-0.002826918349644484,0.03790361907179356,0.0010084238564958825, ,1.9067928791046143
0.022223384987866676,0.020672355828374737,-0.10589283596321573, ,0.022972308219496206,0.020221885946478876,-0.10640433108375294, ,0.0010126383262068744, ,0.01668059744264941,-0.002561680275155811,-0.02189807256606472,-0.061307200088377097,-0.065008844639621,-0.005270769566945491, ,0.027646520920081075, ,0.08935724720864627, ,0.0009382456295955767, ,0.2524715831241477,-0.18361569681756193,0.11802072305000001,1.6896815645982974,0.5775624845085168,-1.3548908047259378, ,0.1014940551427495,0.06433690953116662,0.024134562909090912,-0.002826918349644484,0.03790361907179356,0.0010084238564958825, ,1.9120218753814697
0.022379595618008223,0.020646430389805837,-0.10609680377052025, ,0.02305885540474769,0.020210662618635532,-0.10651749937696543, ,0.0009100946113203629, ,0.016242625073806184,-0.002411398811981528,-0.021023309740257796,-0.052812650418468686,-0.04999573680531539,0.005062059866819797, ,0.026676155381791463, ,0.07272376252719509, ,0.0009380640101228333, ,0.2534369247334257,-0.1830056009204982,0.11824627751000001,1.6894718746548125,0.5781090305075786,-1.355009761380161, ,0.10031389171085707,0.060909461847542215,0.023321832386530017,-0.011765878061884416,0.05371701431895323,-0.005643501450066403, ,1.9172699451446533
0.022379595618008223,0.020646430389805837,-0.10609680377052025, ,0.023145319271149926,0.020199561503717087,-0.10662976117436873, ,0.0010344409643144414, ,0.016242625073806184,-0.002411398811981528,-0.021023309740257796,-0.052812650418468686,-0.04999573680531539,0.005062059866819797, ,0.026676155381791463, ,0.07272376252719509, ,0.000938681811111241, ,0.2534369247334257,-0.1830056009204982,0.11824627751000001,1.6894718746548125,0.5781090305075786,-1.355009761380161, ,0.10031389171085707,0.060909461847542215,0.023321832386530017,-0.011765878061884416,0.05371701431895323,-0.005643501450066403, ,1.9224720001220703
0.022543632670028745,0.020619167028779837,-0.10630600752746652, ,0.023231699036264902,0.020188586764878357,-0.10674111789875138, ,0.0009209537030744489, ,0.015546213792936641,-0.0030133277409545144,-0.019338632840740763,0.03486522443520832,0.024083756917276208,0.013135324289364663, ,0.02499495204074368, ,0.04237462114765443, ,0.0009385688932256564, ,0.2544949391371945,-0.18238005955768602,0.11848090600000001,1.6890524947678438,0.579202122505702,-1.3557377471294514, ,0.10348630486201829,0.06263824525311602,0.02185022156378601,-0.03573853203538646,0.13704785158383553,-0.1004966339971047, ,1.927696943283081
0.022543632670028745,0.020619167028779837,-0.10630600752746652, ,0.02331799393637825,0.020177742535023278,-0.10685157099618092, ,0.0010450504547180166, ,0.015546213792936641,-0.0030133277409545144,-0.019338632840740763,0.03486522443520832,0.024083756917276208,0.013135324289364663, ,0.02499495204074368, ,0.04237462114765443, ,0.0009392428271591523, ,0.2544949391371945,-0.18238005955768602,0.11848090600000001,1.6890524947678438,0.579202122505702,-1.3557377471294514, ,0.10348630486201829,0.06263824525311602,0.02185022156378601,-0.03573853203538646,0.13704785158383553,-0.1004966339971047, ,1.9330830574035645
0.02269491299854734,0.020589711274680247,-0.10649528716864001, ,0.023404203226416304,0.020167032916877856,-0.10696112193590326, ,0.0009480251325234692, ,0.015747627134282807,-0.0026481357874920345,-0.019238545394867683,0.02027538718800293,0.012201429887212822,-0.048018340201399605, ,0.025002440129310993, ,0.02366354963709548, ,0.000939298061784085, ,0.25549889441084367,-0.18176224092774806,0.11869479385000001,1.6888428048243591,0.5805684875033564,-1.3568519261664156, ,0.10292509930419824,0.06202414480945802,0.021760671475409835,0.03429560278795693,0.11136804307628048,-0.06791180331442596, ,1.9383890628814697
0.02269491299854734,0.020589711274680247,-0.10649528716864001, ,0.023490326179859,0.02015646198305491,-0.10706977221023292, ,0.0010725764032050132, ,0.015747627134282807,-0.0026481357874920345,-0.019238545394867683,0.02027538718800293,0.012201429887212822,-0.048018340201399605, ,0.025002440129310993, ,0.02366354963709548, ,0.0009401310514179659, ,0.25549889441084367,-0.18176224092774806,0.11869479385000001,1.6888428048243591,0.5805684875033564,-1.3568519261664156, ,0.10292509930419824,0.06202414480945802,0.021760671475409835,0.03429560278795693,0.11136804307628048,-0.06791180331442596, ,1.9436230659484863
0.022852033223531503,0.020564390355538316,-0.10668499443892945, ,0.023576362088656985,0.02014603377612732,-0.10717752333445184, ,0.0009707003890567558, ,0.015986624272594417,-0.002357829732982753,-0.01947699332222931,0.0030370423379474563,-0.01719061410967059,-0.04181985935256019, ,0.02530780088346294, ,0.017456747598489124, ,0.0009403209230803186, ,0.2565105724173671,-0.181175313229307,0.11890868170000002,1.6888428048243591,0.5813883065019492,-1.3572753973681726, ,0.10203972210588257,0.05919958924421134,0.02197077451034483,0.02809534529333775,0.0815718543667377,-0.05051314573114834, ,1.9488399028778076
0.022852033223531503,0.020564390355538316,-0.10668499443892945, ,0.023662310263147315,0.020135752308699323,-0.1072843768467062, ,0.0010952345533623237, ,0.015986624272594417,-0.002357829732982753,-0.01947699332222931,0.0030370423379474563,-0.01719061410967059,-0.04181985935256019, ,0.02530780088346294, ,0.017456747598489124, ,0.000941277180057368, ,0.2565105724173671,-0.181175313229307,0.11890868170000002,1.6888428048243591,0.5813883065019492,-1.3572753973681726, ,0.10203972210588257,0.05919958924421134,0.02197077451034483,0.02809534529333775,0.0815718543667377,-0.05051314573114834, ,1.9540879726409912
