NicholasDascanio/dvrk_moveit_final/test/execution/third_experiment_notsharpbends/thirdexp_500vel5.0/thirdexp_500vel5.0_11.csv
Current Position (x),Current Position (y),Current Position (z), ,Planned Position (x),Planned Position (y),Planned Position (z), ,Position Error,,Cartesian linear Velocity(x),Cartesian linear Velocity(y),Cartesian linear Velocity(z),Cartesian Angular Velocity(x),Cartesian Angular Velocity(y),Cartesian Angular Velocity(z), ,Total Linear Velocity, ,Total Angular Velocity, ,MSE, ,Joint 1 Position,Joint 2 Position,Joint 3 Position,Joint 4 Position,Joint 5 Position,Joint 6 Position, ,Joint 1 Velocity,Joint 2 Velocity,Joint 3 Velocity,Joint 4 Velocity,Joint 5 Velocity,Joint 6 Velocity, ,Time Stamp
0.01001037862970758,0.02044148776004023,-0.07927056720387553, ,0.010169192268548649,0.02037118421069462,-0.0793039099670436, ,0.0001768505040654813, ,1.7888653978399353e-05,-1.0297510114294645e-05,-3.9641734087536306e-07,0.03759431466413421,-0.00045134182038966556,0.0009131434267415316, ,2.064460710260794e-05, ,0.03759702387829081, ,1.4737542005456775e-05, ,0.1408085884957355,-0.24997714040577315,0.08904604897000001,1.6055958972610032,0.13390376977013163,-1.300310613092312, ,0.00022146152510003528,0.00011607481672945864,0.0,-0.000870627489372937,0.0,-0.03782775299265073, ,0.023123979568481445
0.010012506634926085,0.02044247415072867,-0.07927678670795861, ,0.010196800575631725,0.020383384846393807,-0.07938520505279278, ,0.00022183403698299828, ,4.6246791138464355e-05,3.305944562212623e-05,-0.00012885436439970997,0.19902455757799833,-0.000633536924061879,0.001312738075395888, ,0.00014083728149996474, ,0.19902556591591974, ,1.8122024593112706e-05, ,0.14082403396148394,-0.24996941767289893,0.08905253042000001,1.6055958972610032,0.13390376977013163,-1.303659441438075, ,0.0003471762794430484,0.0,0.00013767279300475665,-0.000848159246416806,0.0,-0.19914054739032228, ,0.04491901397705078
0.010048659088900987,0.02044861539694344,-0.07930798998993843, ,0.010224661406525507,0.02039533537655372,-0.07946718024566239, ,0.00024322235485125767, ,0.0013626381539356626,0.0003990105514235945,-0.0015632328691873494,0.05827886568066563,-0.11398931003931347,-0.027950370512599246, ,0.0021117976138863934, ,0.12802339234786142, ,2.005959049686679e-05, ,0.1408472021601066,-0.24994624947427627,0.08908493767,1.6055958972610032,0.13062449377576107,-1.3080097834014492, ,0.0010026759608034654,6.968829163204425e-05,0.0016445844162925223,-0.0008174939404249547,-0.11639935883605361,-0.05843024207943004, ,0.07094693183898926
0.010076964267936315,0.020458598920699966,-0.07935395741045215, ,0.010252773521739431,0.020407037754355303,-0.07954982843774788, ,0.00026820310760973157, ,0.0023169090147796287,0.0007099286048423759,-0.0031641439133686185,0.3034344529298309,-0.17901713723206417,-0.04233494188295768, ,0.003985457653927367, ,0.3523061206497444, ,2.1669285797844495e-05, ,0.14088581582447773,-0.24992308127565357,0.0891329004,1.6055958972610032,0.12857494627927946,-1.3131995290178102, ,0.002674080077133929,0.0013177548331910157,0.003311603226611227,-0.0007985934143159036,-0.18136220066700753,-0.3048097327736354, ,0.0929861068725586
0.01010651610798984,0.02046856782278698,-0.07939987404199167, ,0.010281135685258885,0.020418493927310443,-0.07963314254754367, ,0.0002956578892170432, ,0.0019989308341993558,0.0011906018756609026,-0.005133065503766622,0.012508802690044724,-0.10506306433755563,-0.025336437780119188, ,0.005635744739801394, ,0.10580509264289817, ,2.318784409089446e-05, ,0.14092442948884884,-0.2498999130770309,0.08918086313000001,1.6055958972610032,0.12638876228303242,-1.3150107071248522, ,0.003979334763621171,0.0016699855674214745,0.005366850242587601,-0.000785800155254588,-0.10415356728599863,-0.014241882683144969, ,0.11674904823303223
0.0101330952289246,0.02049150748634642,-0.07950791043384824, ,0.010309746664540851,0.02042970583726823,-0.07971711551990407, ,0.0002806990230935885, ,0.0005410331180073848,0.0008252916605977306,-0.004099534585913754,-0.11155782563843313,0.04843748554388931,0.01319505174163296, ,0.004216634556246961, ,0.12161964670986192, ,2.397527283580807e-05, ,0.1410634386805849,-0.2498381312140371,0.08929364036000001,1.6055958972610032,0.12638876228303242,-1.3110084488579647, ,0.0057890934429689275,0.002874011532991276,0.004268170289389067,-0.000760146598031795,0.055936732900446956,0.10859801831266042, ,0.13936996459960938
0.010146281900456425,0.020508482196950086,-0.07959585608874002, ,0.01033860523050941,0.020440675420422015,-0.07980174032600583, ,0.00028978326621860055, ,0.000925105106378345,0.0003504951088495799,-0.0022404178727501115,0.006963393025484782,-0.025807616965562486,-0.0065981147778032415, ,0.0024491097410514096, ,0.0267305431260218, ,2.467014141720418e-05, ,0.1412565070024405,-0.2497686266181691,0.08938567695,1.6053862073175185,0.1280284002802177,-1.3111202826002133, ,0.005049115467212761,0.00282225159249806,0.002331159303380653,0.0009201702820637865,-0.02165433696398856,-0.009620644964356245, ,0.1627650260925293
0.010168172356076076,0.020520352626864604,-0.07966163165462646, ,0.010367710157551292,0.020451404607315874,-0.07988700996331076, ,0.00030881150503608124, ,0.0010914489674203516,0.0007142537475087496,-0.003730600976069505,0.07074635162580999,-0.006837871197238305,-0.0006685406625011247, ,0.003952063120316272, ,0.07107603499176199, ,2.5741502309565212e-05, ,0.14139551619417653,-0.24969912202230107,0.08945049145,1.6055958972610032,0.12789176378045228,-1.3119890095782036, ,0.0069087635157038885,0.0031091411047414006,0.0037665669236226066,0.0009390580536564164,0.0,-0.07593308429006114, ,0.18321895599365234
0.010193166694781994,0.02053622791480741,-0.07974471080953155, ,0.010397060223511391,0.02046189532285101,-0.07997291745552655, ,0.00031492249611764873, ,0.0013346505353851613,0.0009666478347172669,-0.004916087141413502,-0.021090121195134735,-0.007543850956549041,-0.0015679030255155322, ,0.005184940970728466, ,0.022398725329997458, ,2.6666490924360342e-05, ,0.14155769358453527,-0.24962961742643305,0.08954123175,1.6058055872044876,0.12789176378045228,-1.3120706883183444, ,0.007808115208616586,0.0037488134245012078,0.005128400360592403,0.0009186432288631346,0.0,0.01750515077917393, ,0.20307111740112305
0.010220407437369896,0.02055344702517569,-0.07984333755391786, ,0.01042665420968841,0.020472149486292824,-0.08005945585257025, ,0.0003096031975490917, ,0.001140747798210155,0.0006655181036733849,-0.003972691788154951,0.0010238209006594777,-0.006848302803289665,-0.0014339239211488223, ,0.004186466281855392, ,0.006924410410471982, ,2.736956950243962e-05, ,0.14171987097489397,-0.24952922189906812,0.08964104608000001,1.6058055872044876,0.12789176378045228,-1.311907330838063, ,0.007058741894879206,0.004395492951810113,0.004103248717156105,0.0008984582052853499,0.0,-0.005331749495569167, ,0.2262589931488037
0.010245811195329059,0.020563923414750655,-0.07991575641629588, ,0.010456490900830251,0.020482169011277147,-0.08014661823052967, ,0.00032305866041432065, ,0.001186391905875215,0.0005289628750898992,-0.003532068132001637,-0.001160774590933472,-0.008168283668167178,-0.0014756819301879017, ,0.003763353925244227, ,0.00825034879171048, ,2.8080055936628175e-05, ,0.14188977109812692,-0.24942882637170322,0.08971882348000002,1.6058055872044876,0.12775512728068683,-1.3117959129343668, ,0.008377890131394896,0.004697697506977763,0.0036719252005532506,0.0008790333562205845,0.0,-0.0033694065625234928, ,0.2458479404449463
0.01026985102754084,0.02057568407324198,-0.0799959609804174, ,0.01048656908512973,0.02049195580581737,-0.08023439769162555, ,0.0003329102048642907, ,0.0010936700620358024,0.0006292413621201645,-0.004217056227946386,-0.005284899508748036,-0.005809245368781205,-0.0016039173440988714, ,0.0044017748836188385, ,0.007853501972916635, ,2.876543800017208e-05, ,0.1420442257556114,-0.24932070811146406,0.08980178604000001,1.6058055872044876,0.12775512728068683,-1.3118775916745071, ,0.006243713325552838,0.0055001402052734195,0.0043414585772690115,0.0008610020222994536,0.0,0.0, ,0.270190954208374
0.010291196369919027,0.0205874458419878,-0.0800790585185023, ,0.010516887554219968,0.02050151177231034,-0.08032278736417359, ,0.0003431106603047286, ,0.0010506266901300504,0.0002711168740424885,-0.0031732029431130937,-0.0065138189549257385,-0.007104392824079875,-0.0017416007563415888, ,0.0033535858002421517, ,0.009638580520733287, ,2.9433864335911604e-05, ,0.14217551221447322,-0.24920486711835071,0.08988734118000001,1.6058055872044876,0.12789176378045228,-1.3119890095782036, ,0.007312664346383633,0.006572741083659688,0.003246802185079495,0.0008433524857286364,0.0,0.00012321763946700684, ,0.29073309898376465
0.010329256646608222,0.020603394409465767,-0.08019923739342419, ,0.010547445103170065,0.02051083880754354,-0.08041178040254711, ,0.00031835086422224635, ,0.0012404059513409795,0.0007257282273792457,-0.004196026073163506,-0.00014187634825329313,-0.003436011137995589,0.0005725085183223053, ,0.004435304182443984, ,0.0034389388098485046, ,2.9829761263311915e-05, ,0.14246125333081952,-0.24901952152936932,0.09001178502000001,1.6060152771479719,0.12816503677998314,-1.312130166645456, ,0.008285175258888954,0.0041686575302526604,0.004356895929978119,0.0001204586558199963,0.005088479757035948,-0.0041493140449578424, ,0.31934309005737305
0.010354388566375316,0.020615104234157196,-0.08028199967304149, ,0.010578240530480586,0.020519938802701906,-0.08050136998713814, ,0.00032755075314326565, ,0.0011426080884164727,0.0005233346824900202,-0.0038515680878885472,-0.001423039893854555,-0.0028280334665585303,0.0003879809258008788, ,0.004051420635931687, ,0.0031658829700231487, ,3.0240059192294267e-05, ,0.14262343072117825,-0.24890368053625594,0.09009734016000001,1.6060152771479719,0.12816503677998314,-1.312130166645456, ,0.007776516666652492,0.00564534676717214,0.003978224655344656,0.0001204586558199963,0.005088479757035948,-0.0041493140449578424, ,0.3390779495239258
0.010366750310490069,0.020619681368884278,-0.08031968797404954, ,0.010609272638079089,0.020528813643373847,-0.08059154932432087, ,0.00037547651949221836, ,0.001229043259424929,0.0005178015168411919,-0.003809945397511553,-0.0013930566628117512,-0.003949736007021002,0.0003918641612163581, ,0.004036626026324505, ,0.004188200160950712, ,3.111871738935917e-05, ,0.1427083807827947,-0.24884189867326215,0.09013622886000001,1.6060152771479719,0.12816503677998314,-1.312130166645456, ,0.008898255421488357,0.005615066230561816,0.003947660847583643,0.0001204586558199963,0.005088479757035948,-0.0041493140449578424, ,0.360044002532959
0.010407185081349414,0.020636864292515374,-0.08043787569484209, ,0.010640540231315736,0.02053746520955826,-0.08068231164641233, ,0.00035225521731915984, ,0.0015316974437846957,0.0005591396030649438,-0.004317321957613218,-0.0007393012137782343,-0.0048857825090543065,0.0007824351075117407, ,0.004614975952342701, ,0.004941400156892866, ,3.176437662813596e-05, ,0.14302501283063793,-0.24867972128290344,0.09025937641000001,1.6060152771479719,0.128438309779514,-1.312353002452849, ,0.011910157799061651,0.006722719320148376,0.004485725575894115,0.0001204586558199963,0.007235359518980329,-0.0058999505364864145, ,0.37827014923095703
0.010422611063472626,0.020644615652672154,-0.08048768701414359, ,0.01067204211895875,0.020545895375671065,-0.08077365021163566, ,0.0003920924570199981, ,0.001445530249444672,0.0008595213012376587,-0.004949336995458921,0.0034635101535536337,-2.6668900727347762e-05,0.0018227170154085858, ,0.0052272623106133865, ,0.0034636123980868487, ,3.258567093762948e-05, ,0.14314085382375127,-0.24861793941990964,0.09031122801000001,1.6060152771479719,0.12857494627927946,-1.3124644203565452, ,0.010082717373166903,0.0050588797145112606,0.0051599648590864924,0.0001204586558199963,0.010370947546270886,-0.008456812322729825, ,0.3995699882507324
0.010456094320192559,0.02066360365312989,-0.08060105322979427, ,0.010703777113190047,0.020554106010552117,-0.08086555830408165, ,0.00037854911702564893, ,0.0017223308898764392,0.0011531274775517556,-0.006041706027236559,0.002698381192582797,-0.0023709695600584936,0.0015630156733567257, ,0.0063873577004309075, ,0.0035920397638626125, ,3.325535133265569e-05, ,0.1433648130771038,-0.24849437569392205,0.09042919040000001,1.6060152771479719,0.1287115827790449,-1.3125758382602415, ,0.011385062382474323,0.0049293428284435175,0.006315944298176051,0.0001204586558199963,0.009292738989599305,-0.007563358218691029, ,0.4176161289215088
0.010492860083069301,0.020678354014787313,-0.0807017349954039, ,0.010735744029600766,0.020562098977471212,-0.08095802923367067, ,0.0003717453184006658, ,0.0015805612880310522,0.0004621131766898159,-0.0040581927363299965,0.001081845254665856,-0.0031453489801909493,-0.0024790345583414483, ,0.0043795719948979345, ,0.003326200273817787, ,3.382982148341341e-05, ,0.14363510872770166,-0.248355366502186,0.09053418989,1.6062249670914566,0.1287115827790449,-1.3125758382602415, ,0.013112745828170621,0.007132653838699,0.0042217894301616755,0.0040046672932021144,0.009292738989599305,-0.007586810733253741, ,0.43551111221313477
0.010524181959326568,0.020686175505770395,-0.08078152038322581, ,0.010767941687186706,0.020569876134135398,-0.0810510563361155, ,0.0003815677903981177, ,0.0016155608173956993,0.0005421787348674921,-0.004164335935447112,0.0019127506562617738,-0.0031523979362845424,-0.0022177439301188815, ,0.004499520898773885, ,0.003687306139902416, ,3.440757782992805e-05, ,0.14392084984404796,-0.24820091184470153,0.09061715245000002,1.6062249670914566,0.12912149227834124,-1.312910091971331, ,0.01335260187962161,0.006515641885903803,0.004348569893529894,0.0038921797048745324,0.009561788863804538,-0.007821816245717319, ,0.45598912239074707
0.010556674633978453,0.020694618526272517,-0.08086922561713132, ,0.010800368908344125,0.020577439332695173,-0.0811446329728826, ,0.00038596252974603697, ,0.0014186825763030206,0.000260775232271765,-0.00392689170881557,0.014273664053637879,0.014421464674472065,0.002319280824721069, ,0.004183436681346645, ,0.020290789238947303, ,3.496108736546111e-05, ,0.14419114549464582,-0.24803101172146858,0.09070789275,1.6062249670914566,0.1293947652778721,-1.3131329277787236, ,0.013371416310901899,0.009040873108978182,0.004045926217932436,0.0036550946429668753,0.027817709995371427,-0.022718385441795535, ,0.4744141101837158
0.010586676127448931,0.0207023663701177,-0.08094423846454671, ,0.010833024518864967,0.020584790419751312,-0.08123875253115483, ,0.00040155967114225777, ,0.001809025750506201,0.0005959947714445171,-0.00510360871546693,0.00698135101307374,0.003729408328439505,0.0001373629960518339, ,0.005447440302947223, ,0.007915032848036895, ,3.571873016538396e-05, ,0.14442282748087257,-0.24789200252973254,0.09078567015000001,1.6062249670914566,0.1293947652778721,-1.3131329277787236, ,0.014970333105926926,0.008680623617013663,0.005299005828343314,0.0034833731969902216,0.01845657018328725,-0.015090845119355559, ,0.4917330741882324
0.010607036127628549,0.020708786416792132,-0.08099657267130259, ,0.010865907347932649,0.02059193123636154,-0.08133340842379325, ,0.00044059932597673157, ,0.001846023353192974,0.0006786416926085355,-0.0051854613700316994,0.005121653922618251,0.0007264152838957872,-0.00046901059900069015, ,0.005545932418229728, ,0.0051729115900585486, ,3.6609235842108465e-05, ,0.14457728213835705,-0.24780705246811607,0.09084011433000001,1.6062249670914566,0.1293947652778721,-1.3131329277787236, ,0.014906839704440901,0.00795750513714434,0.0053995971254237295,0.0033833339194255228,0.01531051668434084,-0.012528355435342716, ,0.5074460506439209
0.01065917532916224,0.020729504231691207,-0.08115675944017399, ,0.010899016228117531,0.020598863618046963,-0.08142859408929931, ,0.00038533712929084986, ,0.002139189364086458,0.0008412257215043847,-0.006532820378812181,-0.006061592231114118,-0.01034494651055121,-0.0006811859566200196, ,0.006925426625975105, ,0.011990029473844387, ,3.719327420589168e-05, ,0.14495569604919406,-0.24755992501614088,0.09100603945,1.606434657034941,0.12966803827740297,-1.3133557635861166, ,0.014832282206700654,0.009971014165755548,0.006760955653650255,0.0004196960074815816,0.00453518135858147,-0.003746818782326802, ,0.5234861373901367
0.010678032008961917,0.02073684639789677,-0.08121563946272226, ,0.01093234999537239,0.02060558939479873,-0.08152430299177706, ,0.00042092661265679147, ,0.002085038739753842,0.000772904001462365,-0.006311451263972216,-0.005613716821303111,-0.009469424007468403,-0.0005264371929140533, ,0.006691725054068443, ,0.011008351264749453, ,3.789754479017041e-05, ,0.14522599169979192,-0.24736685669428526,0.09112529813,1.606434657034941,0.13007794777669932,-1.3136900172972057, ,0.015370414894472106,0.01138891389708419,0.006391978940609952,0.00042446090959022355,0.025031587876693163,-0.02046264509411451, ,0.5408351421356201
0.01071860665383146,0.020748647156966372,-0.08133509942806219, ,0.01096590748902817,0.020612110391085004,-0.08162052862089486, ,0.00040158413271373667, ,0.001878977384084428,0.000356381122311067,-0.00516689562231748,0.007691204743010333,0.006528001841114554,0.0038795195031581763, ,0.005509480364441278, ,0.010088083799907267, ,3.847755040371315e-05, ,0.14540361455589906,-0.24724329296829767,0.09119011263000001,1.606434657034941,0.13007794777669932,-1.3136900172972057, ,0.016097869645202847,0.011530217173313543,0.0053166927636849135,0.0004257098577808511,0.023292172023462534,-0.01904534395046316, ,0.5560791492462158
0.01073964423104621,0.02075151189724139,-0.08138688430600331, ,0.010999687551789228,0.020618428425857205,-0.08171726449184794, ,0.0004410043154181701, ,0.0019435719306562821,0.000258285699321259,-0.005128375712742373,0.0025491050067235105,0.0013421411994357078,0.0024304066900807464, ,0.005490393501667681, ,0.0028808463664720717, ,3.918689529045769e-05, ,0.1455657919462578,-0.2471197292423101,0.09124326052000001,1.606434657034941,0.13007794777669932,-1.3136900172972057, ,0.01636436308992426,0.012535923587644751,0.0052587690723010895,0.0004258886887056997,0.018204234940868622,-0.014897208693777652, ,0.5719201564788818
0.010787245505411732,0.020759732974951456,-0.0815184436584101, ,0.01103368902972919,0.02062454531255673,-0.08181450414532052, ,0.00040824248511318846, ,0.002082581724812539,0.0004828898599928768,-0.0061879472558892526,-0.0053787430436702316,-0.0062831976705782465,1.0898180134371012e-05, ,0.006546832860175556, ,0.008270999977316203, ,3.972478371648173e-05, ,0.14593648312422056,-0.24681854266021533,0.09137807468,1.606434657034941,0.13035122077623018,-1.313994531844739, ,0.015103762781867067,0.012978246930863071,0.006341087388535033,0.0004236969538766493,0.009014304778643885,-0.007404556351283333, ,0.5904090404510498
0.01083187364139804,0.02077001573173554,-0.08165524720631064, ,0.011067910772286246,0.020630462859121696,-0.08191224114744734, ,0.00037581167783038507, ,0.0022285739390517294,0.00044371098566520125,-0.006753000047612308,-0.009101776881778241,-0.00823492794290086,-0.00033808643705102235, ,0.007125056553015727, ,0.012274215518177544, ,4.0106573528259124e-05, ,0.146260837904938,-0.2465250788109948,0.091518074,1.6066443469784255,0.13062449377576107,-1.314380725132413, ,0.015656977653600194,0.015039134953798858,0.006892605590653397,9.8472101285374e-05,0.007649479902293683,-0.005763882090307381, ,0.606011152267456
0.010849648973629687,0.020773122686620984,-0.08170603541450812, ,0.011102351632258917,0.020636182867993652,-0.08201046908977641, ,0.00041867769255278894, ,0.002203974534962423,0.0003677929542088414,-0.006354684490468998,-0.008801557805138475,-0.008624010793579412,-0.0002970184296146271, ,0.006736081233279163, ,0.012322376864969635, ,4.0786108838882153e-05, ,0.1463844016309256,-0.24640923781788143,0.0915699256,1.6066443469784255,0.13062449377576107,-1.314380725132413, ,0.016046151768425904,0.014744708135250277,0.006488314264765784,9.8472101285374e-05,0.007649479902293683,-0.0057726567278155744, ,0.6208879947662354
0.010875280157187597,0.0207758724027664,-0.08177069976615015, ,0.011137010465801402,0.020641707136123875,-0.08210918158923097, ,0.00044841166106208475, ,0.0021679576116636025,0.0002019064752674913,-0.005635784645879712,-0.008469629223060335,-0.009436673572613286,-0.00027085655001866607, ,0.006041760919256786, ,0.012680119147966736, ,4.1546164838989584e-05, ,0.1465774699527812,-0.24624706042752273,0.09163603639000001,1.6066443469784255,0.13062449377576107,-1.3144624038725539, ,0.016858579065281716,0.01455697830318619,0.005752550205850488,9.8472101285374e-05,0.007649479902293683,-0.005918645001892335, ,0.6342270374298096
0.010919175391247503,0.02078037113289572,-0.08189674988082807, ,0.01117188613241923,0.020647037454980286,-0.08220837228807103, ,0.00042278731422065827, ,0.0021639112125221207,0.0003590916569441105,-0.006479036933319902,-0.00455160155951523,-0.003979790019738926,0.0007953004275751788, ,0.006840276174036336, ,0.006046138762945137, ,4.217941420098492e-05, ,0.1469249929321213,-0.2459227056468053,0.0917643691,1.6066443469784255,0.1310344032750574,-1.3147149788435024, ,0.015755759846998302,0.015127840197428789,0.006606723981750311,9.8472101285374e-05,0.01215283978469926,-0.010401944626998666, ,0.6483759880065918
0.010939527307006829,0.020785610454510814,-0.08196386586623798, ,0.01120697749496484,0.020652175610554088,-0.0823080348538564, ,0.0004558363222241308, ,0.002050338303059621,0.0006018848474403268,-0.007091730469876557,0.017462588279101073,0.01945325827480244,0.007174656203437033, ,0.00740667223413776, ,0.026141370066890164, ,4.290355647604999e-05, ,0.14707944758960578,-0.24578369645506926,0.09183307247000001,1.6066443469784255,0.13130767627458828,-1.315019493391036, ,0.01594906580814635,0.01411736708694894,0.007266793576642336,9.8472101285374e-05,0.036582521038380195,-0.031422244231588264, ,0.663283109664917
0.010990636735982232,0.020798093903830008,-0.08212106237596019, ,0.011242283419633028,0.020657123383366248,-0.08240816297940798, ,0.00040697112616542316, ,0.0024052583228556454,0.0006659451264723029,-0.007884256751485439,0.003006793816213837,0.0033636140853857666,2.770889322793849e-05, ,0.008269840085181956, ,0.004511615930400564, ,4.34264578302777e-05, ,0.14741152510319744,-0.24545934167435182,0.09199381243000002,1.6068540369219102,0.13130767627458828,-1.315019493391036, ,0.01694285691099282,0.015690631871440274,0.008073396614292957,0.002965820070048303,0.020257394424928875,-0.018106132366874462, ,0.676720142364502
0.011015809746912792,0.020802916587919305,-0.08219467036491344, ,0.01127780277595654,0.020661882548474224,-0.08250875038277028, ,0.00043263980996513155, ,0.0023506088055569954,0.00036845657208102917,-0.007090472247741765,-0.0011302176987746102,-0.0005905814668340577,-0.0010923315600025315, ,0.0074790319359037336, ,0.0012752100195777025, ,4.401577653912518e-05, ,0.1475814252264304,-0.2452971642839931,0.09206899725,1.6068540369219102,0.13130767627458828,-1.315019493391036, ,0.01725712703372809,0.016769206848996427,0.007227228457350273,0.002965820070048303,0.01649366654947964,-0.015035164870601768, ,0.6899280548095703
0.011038046515450303,0.020805834601246107,-0.08226075626156384, ,0.011313534436801697,0.02066645487547844,-0.08260979080717376, ,0.00046598864449115356, ,0.002353669044932733,0.00023393219851665365,-0.006481060030869283,-0.0049717512290747634,-0.008290409900030582,-0.0029973443533812725, ,0.006899175412345214, ,0.009666912390183751, ,4.4693273133945325e-05, ,0.14775904808253754,-0.2451349868936344,0.09213640433,1.6068540369219102,0.13158094927411915,-1.3153240079385693, ,0.0175086608041459,0.016529688479092627,0.006601248039784502,0.002965820070048303,0.008798046785521364,-0.010955416301309888, ,0.7043299674987793
0.011045593915060246,0.020806686707302315,-0.08228499251946299, ,0.011349477278363806,0.02067084212852935,-0.08271127802099598, ,0.0005408494956010635, ,0.0023366620609924526,0.00024564532234730684,-0.006517071125115018,-0.002589440713618722,-0.00554302220122275,-0.0022623203701251783, ,0.006927665354322518, ,0.0061180296318766505, ,4.5740742209626305e-05, ,0.14812973926050033,-0.2447951866471685,0.09227769994000001,1.6068540369219102,0.13226413177294635,-1.3160444549373325, ,0.01840514770334965,0.01685558464626479,0.007432949846010267,0.002965820070048303,0.025993543260964633,-0.02555658833965388, ,0.7152221202850342
0.0111113889500871,0.020815939554692908,-0.08248066773687746, ,0.01138563018016277,0.02067504606633345,-0.08281320581772465, ,0.0004534763528002856, ,0.002874660765396182,0.0005571894767946605,-0.008273363663937924,-0.01573943801219808,-0.021439992067795767,-0.006245273959457479, ,0.00877625665901626, ,0.026597051153174463, ,4.647052351401641e-05, ,0.14833053031523016,-0.2446021183253129,0.09236066250000001,1.6068540369219102,0.1324007682727118,-1.316155872841029, ,0.01913244789485298,0.017962699518923108,0.008459273244822095,0.002965820070048303,-0.00311619043898525,-0.001600484226837692, ,0.7267439365386963
0.011140354296197912,0.02082153280684265,-0.0825656773970013, ,0.011421992025038638,0.02067906844216051,-0.08291556801591987, ,0.0004712105163491908, ,0.0029476377690978964,0.0006044135735444364,-0.008824286208413242,-0.01770085380880492,-0.022131722111998816,-0.006646276910056792, ,0.009323192118244122, ,0.028339606484529427, ,4.723364779126596e-05, ,0.14852359863708578,-0.2444167727363315,0.09244751393,1.6068540369219102,0.1324007682727118,-1.316155872841029, ,0.018873695616243195,0.01895664034328222,0.009009508778280545,0.002965820070048303,-0.00409844475864332,-0.0006207243530218622, ,0.7401981353759766
0.011171528774873563,0.02082890198350244,-0.08265682755533202, ,0.011458561699147194,0.0206829110038498,-0.08301835845917502, ,0.00048415478949458433, ,0.0030708136628351903,0.0007521638404485676,-0.009225226349870812,-0.01091807165800098,-0.01819989676124309,-0.005271160374908322, ,0.00975194586741971, ,0.02122358273318694, ,4.801347971119758e-05, ,0.1487166669589414,-0.2442314271473501,0.09254084681000001,1.6070637268653947,0.13226413177294635,-1.3162078124176135, ,0.020160811888351556,0.018433749331482282,0.009453300605341247,0.0030562892468425436,0.0012812309762612823,-0.006873206535458846, ,0.7528080940246582
0.011200022115353819,0.020836630146079213,-0.08275048092555297, ,0.011495338091955428,0.02068657549381684,-0.08312157101607995, ,0.0004974291708264259, ,0.003007293962623906,0.0006456232923069966,-0.009269203525145183,0.001366570943402992,-0.006441464708390585,-0.002217159423710026, ,0.009766206039387425, ,0.006584824622434722, ,4.881026538386147e-05, ,0.14891745801367123,-0.24404608155836874,0.09263677227000001,1.6070637268653947,0.13253740477247725,-1.3165940057052876, ,0.02065221796702302,0.01973730065691988,0.0094757950743605,0.0030562892468425436,0.013954896449370051,-0.020446423755365113, ,0.7637510299682617
0.011228120563880192,0.020841154060001463,-0.08283689896614206, ,0.011532320096237059,0.02069006364906017,-0.08322519958018286, ,0.000515890525818227, ,0.002826747017974227,0.0003869477124290085,-0.00850945574225799,0.026897010889687573,0.007110235172425143,0.0015887145229555684, ,0.008975024471567066, ,0.027820938057320867, ,4.9639043429285006e-05, ,0.1491259718012753,-0.2438452905036389,0.09272491999000002,1.6070637268653947,0.1328106777720081,-1.317061877733102, ,0.021421431503040808,0.02048282787793455,0.008675823267973858,0.0030562892468425436,0.028799919920515612,-0.04671489580673729, ,0.7750511169433594
0.011261062441175957,0.020845614763635167,-0.08292567083486359, ,0.011569506608068237,0.02069337720116761,-0.08332923806995207, ,0.0005302646440720893, ,0.0029416589803206434,0.0003991030805344292,-0.008609678878103223,-0.001337823222908236,0.005919955375829087,0.00119796213764944, ,0.009107096749757846, ,0.0060692335034615965, ,5.048609876539811e-05, ,0.149597058506603,-0.24342054019555653,0.09290769688000002,1.6070637268653947,0.1328106777720081,-1.3173069139535238, ,0.023576879890303302,0.020792493768288952,0.009055606321773737,0.0030562892468425436,0.02103012173910734,-0.015346866508951333, ,0.7860541343688965
0.011327913479709361,0.020854625680831167,-0.08310827162690682, ,0.011606896526822922,0.020696517876323532,-0.08343368042873861, ,0.0004568593949264876, ,0.003422137272293117,0.0005722458602777659,-0.009522691475272476,-0.011285149240116558,-0.019234843025098147,-0.005619394428520139, ,0.010135094561386681, ,0.022300979827470223, ,5.1090917999420296e-05, ,0.14983646322570393,-0.24320430367507825,0.09300232605000001,1.6072734168088794,0.13294731427177356,-1.3173366531170796, ,0.023807561856114094,0.021220246323450532,0.009748354663402695,0.003643572960236365,0.003839763336456917,-0.009169610369840951, ,0.7987799644470215
0.011358736591565222,0.020862126509913727,-0.08320686547844122, ,0.011644488755168526,0.020699487395314884,-0.08353852062473784, ,0.00046701275856928567, ,0.0033234527545380984,0.0007321416494531272,-0.009908856376007195,-0.0010692632506968188,-0.007361199326792907,-0.0025802331351755196, ,0.010476965414033266, ,0.00743844633663041, ,5.185889778471739e-05, ,0.15006814521193068,-0.24300351262034842,0.09310343667000001,1.6072734168088794,0.13335722377106987,-1.317670906828169, ,0.023145595502066043,0.020447520266854296,0.010158680816326532,0.003643572960236365,0.015428480866723424,-0.018619432459610598, ,0.8076460361480713
0.011387614981055602,0.02086728866902083,-0.08330091074769809, ,0.011682282199061396,0.020702287473537886,-0.08364375265095178, ,0.00048124290592660977, ,0.0029400597047447626,0.0003850401127551711,-0.009718973913511878,0.02870525916691518,0.029963055126580276,0.01630653212140617, ,0.010161233236542638, ,0.0414942946637449, ,5.26502484054912e-05, ,0.15028438173240896,-0.24278727609987014,0.09319936213,1.6074831067523636,0.1337671332703662,-1.318086839279399, ,0.023333400924138378,0.023635601882558102,0.0098875304283054,-0.005718979560908793,0.056536910099497635,-0.052892829680975445, ,0.8170130252838135
0.011387614981055602,0.02086728866902083,-0.08330091074769809, ,0.011720275767742431,0.02070491982100518,-0.08374937052515123, ,0.0005815006567479959, ,0.0029400597047447626,0.0003850401127551711,-0.009718973913511878,0.02870525916691518,0.029963055126580276,0.01630653212140617, ,0.010161233236542638, ,0.0414942946637449, ,5.3709961728708434e-05, ,0.15028438173240896,-0.24278727609987014,0.09319936213,1.6074831067523636,0.1337671332703662,-1.318086839279399, ,0.023333400924138378,0.023635601882558102,0.0098875304283054,-0.005718979560908793,0.056536910099497635,-0.052892829680975445, ,0.8262650966644287
0.011425900640174786,0.020873003543177795,-0.083406115913312, ,0.011758468373732563,0.02070738614235194,-0.08385536828983808, ,0.00058297351455654, ,0.0032651827441634836,0.0004721506242997245,-0.009253617107350884,0.008872494605153623,0.002497864988944572,0.009921957910053472, ,0.009824142412153162, ,0.009217397798199906, ,5.474988734351551e-05, ,0.1505469546501326,-0.24254787138076916,0.09330695420000001,1.6074831067523636,0.1337671332703662,-1.318086839279399, ,0.025071847175289503,0.02135875344552572,0.0094757950743605,-0.005718979560908793,0.0299395511374541,-0.030816705825071684, ,0.835198163986206
0.011457951085318479,0.020876011059818362,-0.08348723268997588, ,0.011796858932828395,0.0207096881368426,-0.08396174001220662, ,0.0006063654365657676, ,0.0034031700742275513,9.519817888866697e-05,-0.008906612575280267,-0.002232287315367597,-0.007374922398651078,0.007166877468163191, ,0.009535112836958053, ,0.007705357291919017, ,5.583191496136944e-05, ,0.15077863663635932,-0.24234708032603933,0.09338991676000001,1.6074831067523636,0.1337671332703662,-1.318086839279399, ,0.026301813070529596,0.024603822027086022,0.009060757406143346,-0.005718979560908793,0.021002091438990563,-0.022923143758272767, ,0.8441901206970215
0.011498631265731845,0.02087897512691304,-0.08359785551086334, ,0.011835446364097633,0.020711827498377623,-0.08406847978410671, ,0.0006023868746727677, ,0.003956376421790532,0.0004882665147022427,-0.010629307703881367,-0.01343175608775899,-0.02142429675895988,0.00394263481575923, ,0.011352246510892517, ,0.02528660569420495, ,5.687903986420726e-05, ,0.1510875459513283,-0.24206133920969303,0.09350269399000001,1.6074831067523636,0.13404040626989708,-1.3183096750867918, ,0.02831054342436479,0.02502556475698069,0.010872908887372013,-0.005718979560908793,0.008551581528047582,-0.012143625005649026, ,0.8533220291137695
0.011535403971905065,0.020886076649799808,-0.08371170170192171, ,0.011874229589874667,0.02071380591550014,-0.08417558172200519, ,0.0005997205001675997, ,0.003579333567405877,0.0007701727857871752,-0.011731103391788645,0.03597786176653549,0.04033312648875997,0.020084599307903163, ,0.012289165215569392, ,0.054047825187288484, ,5.789599161478314e-05, ,0.1513732870676746,-0.24181421175771783,0.09361936009,1.6074831067523636,0.13458695226895884,-1.3189187041818584, ,0.02870445903160036,0.024900798099834892,0.012021744543396226,-0.005718979560908793,0.07276579612229937,-0.061423422465869675, ,0.8621981143951416
0.011570468809672987,0.02089380338021525,-0.08382307503651158, ,0.011913207535756146,0.020715625071402382,-0.08428303996694811, ,0.0006006538781361523, ,0.0040347331519399905,0.0009424550910927142,-0.012826499046445991,0.00834796575677654,0.009059887314776688,0.011718574205976412, ,0.013479108686948484, ,0.01231948632305678, ,5.905308078359561e-05, ,0.15162813725252403,-0.2415825297714911,0.09373343361000001,1.6074831067523636,0.13499686176825518,-1.3192529578929477, ,0.02853185254313613,0.025956493861726142,0.01314258376237624,-0.005718979560908793,0.040263232338055684,-0.034842201728865256, ,0.8692619800567627
0.011570468809672987,0.02089380338021525,-0.08382307503651158, ,0.011952379130596578,0.02071728664393255,-0.08439084868452278, ,0.000706668640022886, ,0.0040347331519399905,0.0009424550910927142,-0.012826499046445991,0.00834796575677654,0.009059887314776688,0.011718574205976412, ,0.013479108686948484, ,0.01231948632305678, ,6.047649314292921e-05, ,0.15162813725252403,-0.2415825297714911,0.09373343361000001,1.6074831067523636,0.13499686176825518,-1.3192529578929477, ,0.02853185254313613,0.025956493861726142,0.01314258376237624,-0.005718979560908793,0.040263232338055684,-0.034842201728865256, ,0.8759679794311523
0.011620038086298358,0.0209049048386499,-0.08396979563080983, ,0.011991743306503743,0.020718792305601367,-0.08449900206482018, ,0.0006729502919856876, ,0.004424315192564591,0.001071878843833334,-0.013871102054902438,-0.011967350618156071,-0.010860232860951105,0.006404559012050306, ,0.014599005493407213, ,0.01616049581835135, ,6.178721530974761e-05, ,0.15194476930036724,-0.2412890659222706,0.09388380325000001,1.6074831067523636,0.13499686176825518,-1.3193346366330883, ,0.028967320378043584,0.02733994282871529,0.01420946611953613,-0.005718979560908793,0.020119485671611585,-0.01589717660952237, ,0.8834569454193115
0.011667428778881318,0.02091505447148238,-0.08411418585171991, ,0.012031298998834337,0.020720143723588602,-0.08460749432239681, ,0.0006432301173411821, ,0.005147010531589285,0.0011988292267811967,-0.01558141657674216,-0.03145877980030711,-0.031126040729449148,-0.008514748237024016, ,0.01645325048327081, ,0.044254766066600976, ,6.299850756216016e-05, ,0.1522536786153362,-0.24099560207305004,0.09403158031000002,1.6072734168088794,0.1351334982680206,-1.3195277332769253, ,0.03208145421178863,0.0308006950855147,0.015960732985971945,0.00398330716185208,0.0,0.0016012274073888022, ,0.8901350498199463
0.011713171946485024,0.020927541286416156,-0.08426717141655435, ,0.012071045146189481,0.02072134255974976,-0.0847163196962366, ,0.0006101846598260812, ,0.004879799700956012,0.00149490179738062,-0.016454585055374005,0.03107306556141559,0.030107606947278858,0.008146895639372962, ,0.017227900215923, ,0.04326664065112094, ,6.410399086173917e-05, ,0.15257031066317941,-0.24070213822382952,0.09418843140000001,1.6072734168088794,0.13568004426708236,-1.3200550836318516, ,0.03423410590132423,0.029888800490856935,0.016909566369426754,0.00398330716185208,0.06549361065466969,-0.06004195070867485, ,0.8972179889678955
0.011713171946485024,0.020927541286416156,-0.08426717141655435, ,0.01211098069041024,0.020722390470622874,-0.08482547244971342, ,0.0007155687930524164, ,0.004879799700956012,0.00149490179738062,-0.016454585055374005,0.03107306556141559,0.030107606947278858,0.008146895639372962, ,0.017227900215923, ,0.04326664065112094, ,6.546663883170582e-05, ,0.15257031066317941,-0.24070213822382952,0.09418843140000001,1.6072734168088794,0.13568004426708236,-1.3200550836318516, ,0.03423410590132423,0.029888800490856935,0.016909566369426754,0.00398330716185208,0.06549361065466969,-0.06004195070867485, ,0.9054760932922363
0.011767215741490058,0.02094270751685623,-0.08444241752718128, ,0.012151104576573297,0.02072328910743489,-0.08493494687055335, ,0.0006618914036132226, ,0.005330604747563015,0.0014474649650923815,-0.016507906866171325,0.022124913911935856,0.0033184959073346855,-0.006178204605898529, ,0.017407512484617027, ,0.02237237146087651, ,6.666945921185597e-05, ,0.15295644730689065,-0.24037006071023787,0.09436861571,1.607692796695848,0.13636322676590956,-1.3208572093707551, ,0.03631723748889046,0.030621794630032523,0.016981675394456292,0.011755965142876686,0.03811680074419857,-0.05064525933939404, ,0.9122910499572754
0.011821390412629036,0.020954842396112554,-0.08459894933260957, ,0.012191415752986316,0.020724040116108382,-0.08504473727079555, ,0.0006236307647909528, ,0.005464538187139401,0.00104310214023928,-0.016293502223932534,0.014880379673072968,-0.013690672613285467,-0.011333644691444189, ,0.01721706869344985, ,0.020220263783501884, ,6.775567046097234e-05, ,0.15330397028623075,-0.24006115139526887,0.09452935567000001,1.6079024866393328,0.13636322676590956,-1.3210205668510364, ,0.03624787683669625,0.03439541194580311,0.01667938379057592,0.01204995739408042,0.02045134782494726,-0.047080972265993504, ,0.919219970703125
0.011821390412629036,0.020954842396112554,-0.08459894933260957, ,0.012231913171183625,0.02072464513726832,-0.08515483798675592, ,0.0007283762139714001, ,0.005464538187139401,0.00104310214023928,-0.016293502223932534,0.014880379673072968,-0.013690672613285467,-0.011333644691444189, ,0.01721706869344985, ,0.020220263783501884, ,6.926808085140462e-05, ,0.15330397028623075,-0.24006115139526887,0.09452935567000001,1.6079024866393328,0.13636322676590956,-1.3210205668510364, ,0.03624787683669625,0.03439541194580311,0.01667938379057592,0.01204995739408042,0.02045134782494726,-0.047080972265993504, ,0.9236619472503662
0.011880406307896179,0.020961602387806883,-0.08476015408243315, ,0.012272595785921709,0.020725105806248704,-0.08526524337898847, ,0.0006818052634421302, ,0.00574118410998396,0.0006652891079190618,-0.01567371134814916,0.0025073535475351864,-0.02408537812376668,-0.013575823566695058, ,0.01670535937976037, ,0.02421551806686511, ,7.064693643957549e-05, ,0.1536978296628162,-0.2396827374844319,0.09469398450000001,1.6079024866393328,0.13636322676590956,-1.3210205668510364, ,0.03963949104363859,0.03685318118775564,0.01602496128772636,0.01204995739408042,0.013207286578305855,-0.03713260737529099, ,0.9280900955200195
0.011880406307896179,0.020961602387806883,-0.08476015408243315, ,0.012313462555174723,0.020725423753098816,-0.08537594783224714, ,0.0007889993682567305, ,0.00574118410998396,0.0006652891079190618,-0.01567371134814916,0.0025073535475351864,-0.02408537812376668,-0.013575823566695058, ,0.01670535937976037, ,0.02421551806686511, ,7.228255637739766e-05, ,0.1536978296628162,-0.2396827374844319,0.09469398450000001,1.6079024866393328,0.13636322676590956,-1.3210205668510364, ,0.03963949104363859,0.03685318118775564,0.01602496128772636,0.01204995739408042,0.013207286578305855,-0.03713260737529099, ,0.932440996170044
0.011937403349048106,0.020966571777958395,-0.08492292983289884, ,0.012354512440130106,0.020725600602590245,-0.08548694575544863, ,0.0007417284288142447, ,0.006263852226439204,0.0006019823072174056,-0.017681472129283598,-0.01790812091214832,-0.02304771688457112,-0.013808837950749692, ,0.018767863066196502, ,0.029187262975534662, ,7.378296671925557e-05, ,0.1541071345051501,-0.23928115537497222,0.09485990962000002,1.6079024866393328,0.13677313626520587,-1.3215998567825473, ,0.042308043494636995,0.04295923112651461,0.01801901755656109,0.01204995739408042,0.016976530227905757,-0.022741762390031936, ,0.9375410079956055
0.011937403349048106,0.020966571777958395,-0.08492292983289884, ,0.012395744405184173,0.02072563797422354,-0.08559823158163374, ,0.000850974778337455, ,0.006263852226439204,0.0006019823072174056,-0.017681472129283598,-0.01790812091214832,-0.02304771688457112,-0.013808837950749692, ,0.018767863066196502, ,0.029187262975534662, ,7.554148883150293e-05, ,0.1541071345051501,-0.23928115537497222,0.09485990962000002,1.6079024866393328,0.13677313626520587,-1.3215998567825473, ,0.042308043494636995,0.04295923112651461,0.01801901755656109,0.01204995739408042,0.016976530227905757,-0.022741762390031936, ,0.9421660900115967
0.011993618338280236,0.020975055202388154,-0.08510314736020394, ,0.01243715741793737,0.02072553748223457,-0.08570979976793007, ,0.0007918416203090421, ,0.006384527277463495,0.0013428900775070965,-0.0206623539823171,0.05531208707500372,0.058081427172146774,0.008379927602721143, ,0.021667912091558748, ,0.08020520801534191, ,7.713541580325923e-05, ,0.15453188481323243,-0.23887185053263832,0.09504398280000001,1.6079024866393328,0.13772959176356397,-1.3225431395887033, ,0.04751975040484265,0.04290096815482405,0.02118193021276596,0.01204995739408042,0.10614359587441279,-0.09587935701246975, ,0.947782039642334
0.011993618338280236,0.020975055202388154,-0.08510314736020394, ,0.012478750449190322,0.02072530073560122,-0.08582164479551382, ,0.0009022023183648898, ,0.006384527277463495,0.0013428900775070965,-0.0206623539823171,0.05531208707500372,0.058081427172146774,0.008379927602721143, ,0.021667912091558748, ,0.08020520801534191, ,7.898673136454233e-05, ,0.15453188481323243,-0.23887185053263832,0.09504398280000001,1.6079024866393328,0.13772959176356397,-1.3225431395887033, ,0.04751975040484265,0.04290096815482405,0.02118193021276596,0.01204995739408042,0.10614359587441279,-0.09587935701246975, ,0.9522981643676758
0.012074162164346484,0.02099387081068943,-0.08535312015177643, ,0.012520522472938792,0.020724929338050292,-0.08593376116957188, ,0.0007801993542284352, ,0.007970343739495532,0.0018378713975810504,-0.023714464882999886,-0.01675369939908091,-0.03064022676116444,-0.014035469246844094, ,0.025085453858497298, ,0.034921375108053564, ,8.051930745197915e-05, ,0.15504158518293126,-0.23841620929305907,0.09528379645000001,1.6079024866393328,0.13827613776262573,-1.3231521686837704, ,0.050638709476238414,0.04529686947898366,0.02395310003007519,0.01204995739408042,0.03530191158288864,-0.040769247499555204, ,0.9573421478271484
0.012074162164346484,0.02099387081068943,-0.08535312015177643, ,0.012562472466369773,0.020724424888063735,-0.0860461434192639, ,0.0008895669202261892, ,0.007970343739495532,0.0018378713975810504,-0.023714464882999886,-0.01675369939908091,-0.03064022676116444,-0.014035469246844094, ,0.025085453858497298, ,0.034921375108053564, ,8.23049160434552e-05, ,0.15504158518293126,-0.23841620929305907,0.09528379645000001,1.6079024866393328,0.13827613776262573,-1.3231521686837704, ,0.050638709476238414,0.04529686947898366,0.02395310003007519,0.01204995739408042,0.03530191158288864,-0.040769247499555204, ,0.9617869853973389
0.012074162164346484,0.02099387081068943,-0.08535312015177643, ,0.012604599409856657,0.020723788978885754,-0.08615878609768512, ,0.0010017012946441678, ,0.007970343739495532,0.0018378713975810504,-0.023714464882999886,-0.01675369939908091,-0.03064022676116444,-0.014035469246844094, ,0.025085453858497298, ,0.034921375108053564, ,8.43466025374973e-05, ,0.15504158518293126,-0.23841620929305907,0.09528379645000001,1.6079024866393328,0.13827613776262573,-1.3231521686837704, ,0.050638709476238414,0.04529686947898366,0.02395310003007519,0.01204995739408042,0.03530191158288864,-0.040769247499555204, ,0.9661951065063477
0.01215007823763338,0.021010454424149637,-0.08558737682694163, ,0.012646902286954908,0.020723023198528714,-0.08627168378182677, ,0.0008931555597712846, ,0.008529878656326713,0.0017488319864343968,-0.026086624442706912,-0.025265873388813354,-0.04510648300272143,-0.018640398123815856, ,0.027501440289978776, ,0.05170055208939861, ,8.610500631103198e-05, ,0.15554356281975584,-0.23792195438910868,0.09554046187000001,1.6079024866393328,0.13854941076215663,-1.3235383619714443, ,0.051074780171405154,0.0526912501712775,0.026681426331658296,0.01204995739408042,0.0033023934873987653,-0.024976474141403065, ,0.9706399440765381
0.01215007823763338,0.021010454424149637,-0.08558737682694163, ,0.012689380084397663,0.02072212912978088,-0.08638483107254034, ,0.0010049433969729867, ,0.008529878656326713,0.0017488319864343968,-0.026086624442706912,-0.025265873388813354,-0.04510648300272143,-0.018640398123815856, ,0.027501440289978776, ,0.05170055208939861, ,8.832979660319167e-05, ,0.15554356281975584,-0.23792195438910868,0.09554046187000001,1.6079024866393328,0.13854941076215663,-1.3235383619714443, ,0.051074780171405154,0.0526912501712775,0.026681426331658296,0.01204995739408042,0.0033023934873987653,-0.024976474141403065, ,0.9731171131134033
0.01215007823763338,0.021010454424149637,-0.08558737682694163, ,0.01273203179209114,0.02072110835021181,-0.08649822259449771, ,0.001118941956637646, ,0.008529878656326713,0.0017488319864343968,-0.026086624442706912,-0.025265873388813354,-0.04510648300272143,-0.018640398123815856, ,0.027501440289978776, ,0.05170055208939861, ,9.08191979559319e-05, ,0.15554356281975584,-0.23792195438910868,0.09554046187000001,1.6079024866393328,0.13854941076215663,-1.3235383619714443, ,0.051074780171405154,0.0526912501712775,0.026681426331658296,0.01204995739408042,0.0033023934873987653,-0.024976474141403065, ,0.9754109382629395
0.012236691962137685,0.02103049987215164,-0.08586454288342399, ,0.012774856403110305,0.020719962432179904,-0.08661185299615466, ,0.0009718677233765423, ,0.008700799112940711,0.001948977328620192,-0.027510142269570534,0.023221359216061766,0.0059836809128605145,-0.00449359954531314, ,0.028919030853803467, ,0.02397957890471923, ,9.294220645092133e-05, ,0.15609187685382578,-0.23738136308791297,0.09582434938,1.6079024866393328,0.13909595676121836,-1.3242290698066514, ,0.056152036425130634,0.05416492098086232,0.02819258676106195,0.01204995739408042,0.06129456741283255,-0.07490596713699463, ,0.9776511192321777
0.012236691962137685,0.02103049987215164,-0.08586454288342399, ,0.012817852913694437,0.02071869294283849,-0.08672571694971236, ,0.0010847084332804326, ,0.008700799112940711,0.001948977328620192,-0.027510142269570534,0.023221359216061766,0.0059836809128605145,-0.00449359954531314, ,0.028919030853803467, ,0.02397957890471923, ,0.0005217858435580629, ,0.15609187685382578,-0.23738136308791297,0.09582434938,1.6079024866393328,0.13909595676121836,-1.3242290698066514, ,0.056152036425130634,0.05416492098086232,0.02819258676106195,0.01204995739408042,0.06129456741283255,-0.07490596713699463, ,0.9799380302429199
0.012236691962137685,0.02103049987215164,-0.08586454288342399, ,0.012861020323242517,0.020717301444142945,-0.08683980915107929, ,0.0011995930354137894, ,0.008700799112940711,0.001948977328620192,-0.027510142269570534,0.023221359216061766,0.0059836809128605145,-0.00449359954531314, ,0.028919030853803467, ,0.02397957890471923, ,0.000530588534361384, ,0.15609187685382578,-0.23738136308791297,0.09582434938,1.6079024866393328,0.13909595676121836,-1.3242290698066514, ,0.056152036425130634,0.05416492098086232,0.02819258676106195,0.01204995739408042,0.06129456741283255,-0.07490596713699463, ,0.9822821617126465
0.012236691962137685,0.02103049987215164,-0.08586454288342399, ,0.012904357634308864,0.02071578949285681,-0.08695412431983379, ,0.0013160576656060855, ,0.008700799112940711,0.001948977328620192,-0.027510142269570534,0.023221359216061766,0.0059836809128605145,-0.00449359954531314, ,0.028919030853803467, ,0.02397957890471923, ,0.0005406586514286238, ,0.15609187685382578,-0.23738136308791297,0.09582434938,1.6079024866393328,0.13909595676121836,-1.3242290698066514, ,0.056152036425130634,0.05416492098086232,0.02819258676106195,0.01204995739408042,0.06129456741283255,-0.07490596713699463, ,0.9846370220184326
0.012236691962137685,0.02103049987215164,-0.08586454288342399, ,0.012947863852598763,0.02071415864055882,-0.08706865719918601, ,0.0014337811960026129, ,0.008700799112940711,0.001948977328620192,-0.027510142269570534,0.023221359216061766,0.0059836809128605145,-0.00449359954531314, ,0.028919030853803467, ,0.02397957890471923, ,0.0005519640000941173, ,0.15609187685382578,-0.23738136308791297,0.09582434938,1.6079024866393328,0.13909595676121836,-1.3242290698066514, ,0.056152036425130634,0.05416492098086232,0.02819258676106195,0.01204995739408042,0.06129456741283255,-0.07490596713699463, ,0.9871389865875244
0.012236691962137685,0.02103049987215164,-0.08586454288342399, ,0.012991537986963888,0.02071241043364931,-0.08718340255593984, ,0.0015525347815335006, ,0.008700799112940711,0.001948977328620192,-0.027510142269570534,0.023221359216061766,0.0059836809128605145,-0.00449359954531314, ,0.028919030853803467, ,0.02397957890471923, ,0.0005644711348621095, ,0.15609187685382578,-0.23738136308791297,0.09582434938,1.6079024866393328,0.13909595676121836,-1.3242290698066514, ,0.056152036425130634,0.05416492098086232,0.02819258676106195,0.01204995739408042,0.06129456741283255,-0.07490596713699463, ,0.9895460605621338
0.012327972840745981,0.021047725478258096,-0.08616274297635905, ,0.013035379049397793,0.020710546413356873,-0.08729835518045505, ,0.0013797566248938851, ,0.009897049299200357,0.0020537289197947533,-0.032741620479833,0.0604210600720577,0.03361650057711309,0.0033132364716784595, ,0.03426635520378879, ,0.06914286647350776, ,0.0005745363878254648, ,0.1566942500180153,-0.2367558217251008,0.09612897753,1.6079024866393328,0.14005241225957646,-1.3253357100930887, ,0.06373199567392263,0.06678180264494778,0.03346388974789917,0.011417371288609212,0.09783524515836077,-0.12465562696089316, ,0.9922130107879639
0.012327972840745981,0.021047725478258096,-0.08616274297635905, ,0.01307938605503171,0.02070856811574525,-0.08741350988660983, ,0.0014980211610415115, ,0.009897049299200357,0.0020537289197947533,-0.032741620479833,0.0604210600720577,0.03361650057711309,0.0033132364716784595, ,0.03426635520378879, ,0.06914286647350776, ,0.0005857983972549287, ,0.1566942500180153,-0.2367558217251008,0.09612897753,1.6079024866393328,0.14005241225957646,-1.3253357100930887, ,0.06373199567392263,0.06678180264494778,0.03346388974789917,0.011417371288609212,0.09783524515836077,-0.12465562696089316, ,0.9945781230926514
0.012440095247073428,0.02107476151692059,-0.08652957213277221, ,0.013123558022129871,0.02070647707171961,-0.08752886151176224, ,0.0013221140339490318, ,0.009897049299200357,0.0020537289197947533,-0.032741620479833,0.0604210600720577,0.03361650057711309,0.0033132364716784595, ,0.03426635520378879, ,0.06914286647350776, ,0.000594669669986183, ,0.15740474144244396,-0.23605305303354637,0.09650490163000001,1.6081121765828172,0.14100886775793453,-1.3263606716393852, ,0.07402257531861994,0.06797775183271546,0.04022427151515152,0.006770029720658606,0.0959720178739125,-0.11294710984264954, ,0.997236967086792
0.012440095247073428,0.02107476151692059,-0.08652957213277221, ,0.013167893972085041,0.020704274807033175,-0.0876444049167128, ,0.001381956411208565, ,0.011887094567866135,0.003476415276093784,-0.039127402139306856,0.04685363709396461,0.020462374057403265,0.006867877246597319, ,0.04104073681853538, ,0.051126122026343944, ,0.0006040421311912113, ,0.15740474144244396,-0.23605305303354637,0.09650490163000001,1.6081121765828172,0.14100886775793453,-1.3263606716393852, ,0.07402257531861994,0.06797775183271546,0.04022427151515152,0.006770029720658606,0.0959720178739125,-0.11294710984264954, ,0.999500036239624
0.012440095247073428,0.02107476151692059,-0.08652957213277221, ,0.01321239292941421,0.020701962842294343,-0.08776013498566582, ,0.0014999024957888716, ,0.011887094567866135,0.003476415276093784,-0.039127402139306856,0.04685363709396461,0.020462374057403265,0.006867877246597319, ,0.04104073681853538, ,0.051126122026343944, ,0.0006145816648923602, ,0.15740474144244396,-0.23605305303354637,0.09650490163000001,1.6081121765828172,0.14100886775793453,-1.3263606716393852, ,0.07402257531861994,0.06797775183271546,0.04022427151515152,0.006770029720658606,0.0959720178739125,-0.11294710984264954, ,1.0017280578613281
0.012440095247073428,0.02107476151692059,-0.08652957213277221, ,0.01325705392175407,0.02069954269297262,-0.08787604662619308, ,0.0016190133425681974, ,0.011887094567866135,0.003476415276093784,-0.039127402139306856,0.04685363709396461,0.020462374057403265,0.006867877246597319, ,0.04104073681853538, ,0.051126122026343944, ,0.0006262611030048701, ,0.15740474144244396,-0.23605305303354637,0.09650490163000001,1.6081121765828172,0.14100886775793453,-1.3263606716393852, ,0.07402257531861994,0.06797775183271546,0.04022427151515152,0.006770029720658606,0.0959720178739125,-0.11294710984264954, ,1.003993034362793
0.012440095247073428,0.02107476151692059,-0.08652957213277221, ,0.013301875979856494,0.020697015869405946,-0.087992134769194, ,0.0017390938074380682, ,0.011887094567866135,0.003476415276093784,-0.039127402139306856,0.04685363709396461,0.020462374057403265,0.006867877246597319, ,0.04104073681853538, ,0.051126122026343944, ,0.0006390522835155964, ,0.15740474144244396,-0.23605305303354637,0.09650490163000001,1.6081121765828172,0.14100886775793453,-1.3263606716393852, ,0.07402257531861994,0.06797775183271546,0.04022427151515152,0.006770029720658606,0.0959720178739125,-0.11294710984264954, ,1.0062060356140137
0.012570668824782623,0.021114745437355985,-0.08696828872761513, ,0.013346858137584142,0.02069438387680672,-0.0881083943688593, ,0.0014418788312793452, ,0.01398974688687938,0.004260180895977495,-0.04784948058427273,0.08834600808028477,0.05781343726342185,0.013467219624240096, ,0.050034337723308536, ,0.10558011099675141, ,0.0006481753124674571, ,0.15821562839423753,-0.23530394794474657,0.09695601055000001,1.608321866526302,0.1422385962558235,-1.3277718264733558, ,0.08642708702957265,0.08216185416317816,0.049162998518518526,0.010439424688943938,0.14645736766154713,-0.1678435730734526, ,1.0084559917449951
0.012570668824782623,0.021114745437355985,-0.08696828872761513, ,0.013391999431906039,0.02069164821526891,-0.08822482040263217, ,0.0015596368410167368, ,0.01398974688687938,0.004260180895977495,-0.04784948058427273,0.08834600808028477,0.05781343726342185,0.013467219624240096, ,0.050034337723308536, ,0.10558011099675141, ,0.0006584164532376738, ,0.15821562839423753,-0.23530394794474657,0.09695601055000001,1.608321866526302,0.1422385962558235,-1.3277718264733558, ,0.08642708702957265,0.08216185416317816,0.049162998518518526,0.010439424688943938,0.14645736766154713,-0.1678435730734526, ,1.0106611251831055
0.012570668824782623,0.021114745437355985,-0.08696828872761513, ,0.013437298902893092,0.02068881037977434,-0.08834140787117063, ,0.001678667491780742, ,0.01398974688687938,0.004260180895977495,-0.04784948058427273,0.08834600808028477,0.05781343726342185,0.013467219624240096, ,0.050034337723308536, ,0.10558011099675141, ,0.0006697525758881524, ,0.15821562839423753,-0.23530394794474657,0.09695601055000001,1.608321866526302,0.1422385962558235,-1.3277718264733558, ,0.08642708702957265,0.08216185416317816,0.049162998518518526,0.010439424688943938,0.14645736766154713,-0.1678435730734526, ,1.0129151344299316
0.012570668824782623,0.021114745437355985,-0.08696828872761513, ,0.013482755593713577,0.020685871860199528,-0.08845815179831008, ,0.0017987570121232312, ,0.01398974688687938,0.004260180895977495,-0.04784948058427273,0.08834600808028477,0.05781343726342185,0.013467219624240096, ,0.050034337723308536, ,0.10558011099675141, ,0.0006821592180445818, ,0.15821562839423753,-0.23530394794474657,0.09695601055000001,1.608321866526302,0.1422385962558235,-1.3277718264733558, ,0.08642708702957265,0.08216185416317816,0.049162998518518526,0.010439424688943938,0.14645736766154713,-0.1678435730734526, ,1.0151381492614746
0.01272002532292936,0.0211621332858768,-0.08748671603783988, ,0.013528368550628672,0.02068283414132219,-0.08857504723102419, ,0.0014379190623244813, ,0.01564720276883449,0.005406451065748643,-0.05553930918417628,0.06641880667258784,0.06455945740085746,0.018046947845847323, ,0.05795411574919321, ,0.09262209764182018, ,0.0006903739989606676, ,0.15912691087339603,-0.2344312791299592,0.09748878574000001,1.6085315564697864,0.14387823425300877,-1.329517235018416, ,0.0914228724070046,0.08902152116179247,0.057092514408602156,0.007181464123447729,0.15924115107698053,-0.15314348444097325, ,1.017820119857788
0.01272002532292936,0.0211621332858768,-0.08748671603783988, ,0.013574136822988168,0.02067969870282809,-0.08869208923938854, ,0.0015540830532715306, ,0.01564720276883449,0.005406451065748643,-0.05553930918417628,0.06641880667258784,0.06455945740085746,0.018046947845847323, ,0.05795411574919321, ,0.09262209764182018, ,0.0006996611930930425, ,0.15912691087339603,-0.2344312791299592,0.09748878574000001,1.6085315564697864,0.14387823425300877,-1.329517235018416, ,0.0914228724070046,0.08902152116179247,0.057092514408602156,0.007181464123447729,0.15924115107698053,-0.15314348444097325, ,1.020076036453247
0.01272002532292936,0.0211621332858768,-0.08748671603783988, ,0.013620059463225843,0.020676467019317198,-0.08880927291654196, ,0.0016718522283908283, ,0.01564720276883449,0.005406451065748643,-0.05553930918417628,0.06641880667258784,0.06455945740085746,0.018046947845847323, ,0.05795411574919321, ,0.09262209764182018, ,0.0007100036509153592, ,0.15912691087339603,-0.2344312791299592,0.09748878574000001,1.6085315564697864,0.14387823425300877,-1.329517235018416, ,0.0914228724070046,0.08902152116179247,0.057092514408602156,0.007181464123447729,0.15924115107698053,-0.15314348444097325, ,1.0223641395568848
0.01272002532292936,0.0211621332858768,-0.08748671603783988, ,0.01366613552685504,0.020673140560310995,-0.08892659337864806, ,0.0017909453258548686, ,0.01564720276883449,0.005406451065748643,-0.05553930918417628,0.06641880667258784,0.06455945740085746,0.018046947845847323, ,0.05795411574919321, ,0.09262209764182018, ,0.0007213819843357752, ,0.15912691087339603,-0.2344312791299592,0.09748878574000001,1.6085315564697864,0.14387823425300877,-1.329517235018416, ,0.0914228724070046,0.08902152116179247,0.057092514408602156,0.007181464123447729,0.15924115107698053,-0.15314348444097325, ,1.0248751640319824
0.01272002532292936,0.0211621332858768,-0.08748671603783988, ,0.013712364072464251,0.020669720790258552,-0.08904404576485846, ,0.0019111468123420635, ,0.01564720276883449,0.005406451065748643,-0.05553930918417628,0.06641880667258784,0.06455945740085746,0.018046947845847323, ,0.05795411574919321, ,0.09262209764182018, ,0.0007337753679608406, ,0.15912691087339603,-0.2344312791299592,0.09748878574000001,1.6085315564697864,0.14387823425300877,-1.329517235018416, ,0.0914228724070046,0.08902152116179247,0.057092514408602156,0.007181464123447729,0.15924115107698053,-0.15314348444097325, ,1.027306079864502
0.012879868920545993,0.021214113750532875,-0.08804678677671289, ,0.01375874416171263,0.02066620916854344,-0.08916162523727435, ,0.0015216720782244015, ,0.017206112454873034,0.0050127400908693606,-0.058069371632969616,0.04363219929712199,0.04294102288391293,0.01389994677886496, ,0.06077194904621936, ,0.061213070258177855, ,0.0007418980144584031, ,0.16006908428405142,-0.2335122739179265,0.09806433850000001,1.6085315564697864,0.14551787225019408,-1.3310176073430542, ,0.10182075274514032,0.09895405793375472,0.05965847011235956,0.006577157574837206,0.1477392296046809,-0.14025134967584696, ,1.0297341346740723
0.012879868920545993,0.021214113750532875,-0.08804678677671289, ,0.0138052748593256,0.0206626071494902,-0.08927932698090804, ,0.0016369761872060428, ,0.017206112454873034,0.0050127400908693606,-0.058069371632969616,0.04363219929712199,0.04294102288391293,0.01389994677886496, ,0.06077194904621936, ,0.061213070258177855, ,0.0007510314652007259, ,0.16006908428405142,-0.2335122739179265,0.09806433850000001,1.6085315564697864,0.14551787225019408,-1.3310176073430542, ,0.10182075274514032,0.09895405793375472,0.05965847011235956,0.006577157574837206,0.1477392296046809,-0.14025134967584696, ,1.0324339866638184
0.012879868920545993,0.021214113750532875,-0.08804678677671289, ,0.013851955233090227,0.0206589161823711,-0.08939714620364654, ,0.0017540429643076512, ,0.017206112454873034,0.0050127400908693606,-0.058069371632969616,0.04363219929712199,0.04294102288391293,0.01389994677886496, ,0.06077194904621936, ,0.061213070258177855, ,0.0007611628944846343, ,0.16006908428405142,-0.2335122739179265,0.09806433850000001,1.6085315564697864,0.14551787225019408,-1.3310176073430542, ,0.10182075274514032,0.09895405793375472,0.05965847011235956,0.006577157574837206,0.1477392296046809,-0.14025134967584696, ,1.0350301265716553
0.013052127504471924,0.02125546364624211,-0.08861465379226414, ,0.013898784353850967,0.020655137711412686,-0.08951507813621172, ,0.001374038954252277, ,0.017634783689710783,0.0037731831960031883,-0.056949263470795895,-0.00948080060116311,0.018257590811459102,0.007057119686602688, ,0.05973643040121847, ,0.02055787399834836, ,0.0007672916550823107, ,0.16006908428405142,-0.2335122739179265,0.09806433850000001,1.6085315564697864,0.14551787225019408,-1.3310176073430542, ,0.10182075274514032,0.09895405793375472,0.05965847011235956,0.006577157574837206,0.1477392296046809,-0.14025134967584696, ,1.0378129482269287
0.013052127504471924,0.02125546364624211,-0.08861465379226414, ,0.013945761295505073,0.02065127317580254,-0.08963311803212445, ,0.0014835420064563398, ,0.017634783689710783,0.0037731831960031883,-0.056949263470795895,-0.00948080060116311,0.018257590811459102,0.007057119686602688, ,0.05973643040121847, ,0.02055787399834836, ,0.0007743832427196774, ,0.16108076229057483,-0.23246970497990618,0.09864637271000001,1.6085315564697864,0.14674760074808305,-1.3321020472164624, ,0.10497449287441457,0.10808307694586651,0.05834729494505495,0.006063349205059221,0.12555268668309547,-0.09622218172066985, ,1.0404081344604492
0.013052127504471924,0.02125546364624211,-0.08861465379226414, ,0.013992885134998216,0.02064732400969581,-0.08975126116766476, ,0.0015958493233219659, ,0.017634783689710783,0.0037731831960031883,-0.056949263470795895,-0.00948080060116311,0.018257590811459102,0.007057119686602688, ,0.05973643040121847, ,0.02055787399834836, ,0.0007824368317451899, ,0.16108076229057483,-0.23246970497990618,0.09864637271000001,1.6085315564697864,0.14674760074808305,-1.3321020472164624, ,0.10497449287441457,0.10808307694586651,0.05834729494505495,0.006063349205059221,0.12555268668309547,-0.09622218172066985, ,1.0426270961761475
0.013052127504471924,0.02125546364624211,-0.08861465379226414, ,0.014040154952319948,0.02064329164222159,-0.08986950284183536, ,0.001710438229640974, ,0.017634783689710783,0.0037731831960031883,-0.056949263470795895,-0.00948080060116311,0.018257590811459102,0.007057119686602688, ,0.05973643040121847, ,0.02055787399834836, ,0.0007914465540548577, ,0.16108076229057483,-0.23246970497990618,0.09864637271000001,1.6085315564697864,0.14674760074808305,-1.3321020472164624, ,0.10497449287441457,0.10808307694586651,0.05834729494505495,0.006063349205059221,0.12555268668309547,-0.09622218172066985, ,1.0448150634765625
0.013052127504471924,0.02125546364624211,-0.08861465379226414, ,0.01408756983049934,0.020639177497490186,-0.08998783837632328, ,0.0018269059443688396, ,0.018261298809714468,0.0011161119595589747,-0.051271790259768996,-0.010735507278414057,0.011341227156483407,0.01276437724238179, ,0.05443819630154633, ,0.015605134815096336, ,0.0008014028943463382, ,0.16227778588607963,-0.23128040411727563,0.09923488837000001,1.6087412464132707,0.14811396574573746,-1.333134547513286, ,0.12166274558778303,0.12088782364136405,0.05239740631578948,0.0005382128542895066,0.13691431493788148,-0.10842602630115085, ,1.0477359294891357
0.01324238759039507,0.02128414472751372,-0.089189230717838, ,0.014135128855600443,0.020634982994599184,-0.09010626311546169, ,0.0014350422782526428, ,0.018261298809714468,0.0011161119595589747,-0.051271790259768996,-0.010735507278414057,0.011341227156483407,0.01276437724238179, ,0.05443819630154633, ,0.015605134815096336, ,0.0008074375551454459, ,0.16227778588607963,-0.23128040411727563,0.09923488837000001,1.6087412464132707,0.14811396574573746,-1.333134547513286, ,0.12166274558778303,0.12088782364136405,0.05239740631578948,0.0005382128542895066,0.13691431493788148,-0.10842602630115085, ,1.050187110900879
0.01324238759039507,0.02128414472751372,-0.089189230717838, ,0.014182831116717847,0.020630709547640312,-0.09022477242619258, ,0.0015439424180456077, ,0.018261298809714468,0.0011161119595589747,-0.051271790259768996,-0.010735507278414057,0.011341227156483407,0.01276437724238179, ,0.05443819630154633, ,0.015605134815096336, ,0.0008143857142294096, ,0.16227778588607963,-0.23128040411727563,0.09923488837000001,1.6087412464132707,0.14811396574573746,-1.333134547513286, ,0.12166274558778303,0.12088782364136405,0.05239740631578948,0.0005382128542895066,0.13691431493788148,-0.10842602630115085, ,1.0523681640625
0.01324238759039507,0.02128414472751372,-0.089189230717838, ,0.01423067570597231,0.020626358565706014,-0.09034336169802787, ,0.0016557217017032005, ,0.018261298809714468,0.0011161119595589747,-0.051271790259768996,-0.010735507278414057,0.011341227156483407,0.01276437724238179, ,0.05443819630154633, ,0.015605134815096336, ,0.0008222486673833703, ,0.16227778588607963,-0.23128040411727563,0.09923488837000001,1.6087412464132707,0.14811396574573746,-1.333134547513286, ,0.12166274558778303,0.12088782364136405,0.05239740631578948,0.0005382128542895066,0.13691431493788148,-0.10842602630115085, ,1.0546560287475586
0.01324238759039507,0.02128414472751372,-0.089189230717838, ,0.014278661718506098,0.020621931452896085,-0.09046202634301323, ,0.0017698585234806978, ,0.018261298809714468,0.0011161119595589747,-0.051271790259768996,-0.010735507278414057,0.011341227156483407,0.01276437724238179, ,0.05443819630154633, ,0.015605134815096336, ,0.0008310228327176048, ,0.16227778588607963,-0.23128040411727563,0.09923488837000001,1.6087412464132707,0.14811396574573746,-1.333134547513286, ,0.12166274558778303,0.12088782364136405,0.05239740631578948,0.0005382128542895066,0.13691431493788148,-0.10842602630115085, ,1.0568959712982178
0.013417120512742228,0.02128213111483944,-0.08965989002470826, ,0.014326788252478804,0.020617429608324408,-0.090580761795688, ,0.0014551042258436914, ,0.01826174631781198,-0.0012381643960531026,-0.047029665749964235,0.0010863035650312861,0.0282219910659937,0.01663393634192493, ,0.05046596764356284, ,0.02823881664387103, ,0.0008367483500857341, ,0.16349025494733288,-0.2300447668573997,0.09971451567,1.6087412464132707,0.1496169672431573,-1.3343601444539468, ,0.13053224423448526,0.1340352281899305,0.04783426882882884,0.0005382128542895066,0.16338813640521632,-0.13319903403611927, ,1.0591061115264893
0.013417120512742228,0.02128213111483944,-0.08965989002470826, ,0.014375054409062626,0.020612854426125364,-0.0906995635130492, ,0.0015641258255443128, ,0.01826174631781198,-0.0012381643960531026,-0.047029665749964235,0.0010863035650312861,0.0282219910659937,0.01663393634192493, ,0.05046596764356284, ,0.02823881664387103, ,0.0008433608725899029, ,0.16349025494733288,-0.2300447668573997,0.09971451567,1.6087412464132707,0.1496169672431573,-1.3343601444539468, ,0.13053224423448526,0.1340352281899305,0.04783426882882884,0.0005382128542895066,0.16338813640521632,-0.13319903403611927, ,1.0613720417022705
0.013417120512742228,0.02128213111483944,-0.08965989002470826, ,0.014423459292438065,0.02060820729546064,-0.09081842697451244, ,0.001676036669618953, ,0.01826174631781198,-0.0012381643960531026,-0.047029665749964235,0.0010863035650312861,0.0282219910659937,0.01663393634192493, ,0.05046596764356284, ,0.02823881664387103, ,0.0008508624563469214, ,0.16349025494733288,-0.2300447668573997,0.09971451567,1.6087412464132707,0.1496169672431573,-1.3343601444539468, ,0.13053224423448526,0.1340352281899305,0.04783426882882884,0.0005382128542895066,0.16338813640521632,-0.13319903403611927, ,1.0637390613555908
0.013417120512742228,0.02128213111483944,-0.08965989002470826, ,0.014472002009789452,0.02060348960052594,-0.09093734768187464, ,0.00179031487275712, ,0.01826174631781198,-0.0012381643960531026,-0.047029665749964235,0.0010863035650312861,0.0282219910659937,0.01663393634192493, ,0.05046596764356284, ,0.02823881664387103, ,0.0008592504243505838, ,0.16349025494733288,-0.2300447668573997,0.09971451567,1.6087412464132707,0.1496169672431573,-1.3343601444539468, ,0.13053224423448526,0.1340352281899305,0.04783426882882884,0.0005382128542895066,0.16338813640521632,-0.13319903403611927, ,1.0661721229553223
0.013563136860485941,0.021269516738587135,-0.09002016447980632, ,0.014520681671300419,0.0205987027205572,-0.09105632115927575, ,0.0016608859880192321, ,0.018812748014200534,-0.0020826398900736748,-0.04524837264478288,0.004620380510130181,0.023394378878768093,0.0165873446577515, ,0.04904765135823191, ,0.023842298591288544, ,0.0008663445443830498, ,0.1645637148168501,-0.22898675245363093,0.10008136574000001,1.6087412464132707,0.15098333224081167,-1.3355560022310513, ,0.13894134928033788,0.13773141009937706,0.04603702751445087,0.0005382128542895066,0.16702526778036048,-0.14036723681075747, ,1.0693559646606445
0.013563136860485941,0.021269516738587135,-0.09002016447980632, ,0.014569497390149514,0.020593848029837793,-0.09117534295316104, ,0.0016744333444332438, ,0.018812748014200534,-0.0020826398900736748,-0.04524837264478288,0.004620380510130181,0.023394378878768093,0.0165873446577515, ,0.04904765135823191, ,0.023842298591288544, ,0.0008734330426291042, ,0.1645637148168501,-0.22898675245363093,0.10008136574000001,1.6087412464132707,0.15098333224081167,-1.3355560022310513, ,0.13894134928033788,0.13773141009937706,0.04603702751445087,0.0005382128542895066,0.16702526778036048,-0.14036723681075747, ,1.0729990005493164
0.013563136860485941,0.021269516738587135,-0.09002016447980632, ,0.01461844828250575,0.02058892689770486,-0.09129440863224347, ,0.0017890172970035575, ,0.018812748014200534,-0.0020826398900736748,-0.04524837264478288,0.004620380510130181,0.023394378878768093,0.0165873446577515, ,0.04904765135823191, ,0.023842298591288544, ,0.000881394644841056, ,0.1645637148168501,-0.22898675245363093,0.10008136574000001,1.6087412464132707,0.15098333224081167,-1.3355560022310513, ,0.13894134928033788,0.13773141009937706,0.04603702751445087,0.0005382128542895066,0.16702526778036048,-0.14036723681075747, ,1.0754499435424805
0.013563136860485941,0.021269516738587135,-0.09002016447980632, ,0.014667533467523993,0.020583940688555697,-0.0914135137874652, ,0.0019055520667689374, ,0.018812748014200534,-0.0020826398900736748,-0.04524837264478288,0.004620380510130181,0.023394378878768093,0.0165873446577515, ,0.04904765135823191, ,0.023842298591288544, ,0.0008902235881335377, ,0.1662395478505568,-0.22728002848842732,0.10059728916,1.6091606263002398,0.15275960673776243,-1.337004434979105, ,0.1422742752001061,0.14667224352159317,0.04126635108808291,0.013072793986499584,0.12668401707619473,-0.10722048349164129, ,1.0778961181640625
0.013786977172161012,0.021230988620602007,-0.09052872867219464, ,0.014716752067340744,0.020578890761854995,-0.09153265403196005, ,0.001515776731932852, ,0.018895518790993947,-0.004110317849779428,-0.040766319275628723,-0.03525484751803195,-0.016277145586934223,-0.0069526413267904106, ,0.045120152154990774, ,0.038829591164275035, ,0.0008955701962001986, ,0.1662395478505568,-0.22728002848842732,0.10059728916,1.6091606263002398,0.15275960673776243,-1.337004434979105, ,0.1422742752001061,0.14667224352159317,0.04126635108808291,0.013072793986499584,0.12668401707619473,-0.10722048349164129, ,1.0804381370544434
0.013786977172161012,0.021230988620602007,-0.09052872867219464, ,0.014766103207069507,0.020573778472140834,-0.09165182500101544, ,0.001628483446427001, ,0.018895518790993947,-0.004110317849779428,-0.040766319275628723,-0.03525484751803195,-0.016277145586934223,-0.0069526413267904106, ,0.045120152154990774, ,0.038829591164275035, ,0.0009017813254394089, ,0.1662395478505568,-0.22728002848842732,0.10059728916,1.6091606263002398,0.15275960673776243,-1.337004434979105, ,0.1422742752001061,0.14667224352159317,0.04126635108808291,0.013072793986499584,0.12668401707619473,-0.10722048349164129, ,1.0826900005340576
0.013786977172161012,0.021230988620602007,-0.09052872867219464, ,0.014815586014796388,0.020568605169031827,-0.09177102235203502, ,0.0017435829705044368, ,0.018895518790993947,-0.004110317849779428,-0.040766319275628723,-0.03525484751803195,-0.016277145586934223,-0.0069526413267904106, ,0.045120152154990774, ,0.038829591164275035, ,0.0009088552888433166, ,0.1662395478505568,-0.22728002848842732,0.10059728916,1.6091606263002398,0.15275960673776243,-1.337004434979105, ,0.1422742752001061,0.14667224352159317,0.04126635108808291,0.013072793986499584,0.12668401707619473,-0.10722048349164129, ,1.0849480628967285
0.013786977172161012,0.021230988620602007,-0.09052872867219464, ,0.014865199621575578,0.020563372197233278,-0.09189024176449967, ,0.001860643232780324, ,0.018895518790993947,-0.004110317849779428,-0.040766319275628723,-0.03525484751803195,-0.016277145586934223,-0.0069526413267904106, ,0.045120152154990774, ,0.038829591164275035, ,0.0009167868550427916, ,0.1662395478505568,-0.22728002848842732,0.10059728916,1.6091606263002398,0.15275960673776243,-1.337004434979105, ,0.1422742752001061,0.14667224352159317,0.04126635108808291,0.013072793986499584,0.12668401707619473,-0.10722048349164129, ,1.087249994277954
0.013990001357377378,0.02117989609769291,-0.09094671188689984, ,0.014914943161425023,0.020558080896544345,-0.0920094789399309, ,0.0015400147058592202, ,0.019618214689587368,-0.005437219706279324,-0.04007564779100266,-0.0625605284314891,-0.04025151903358772,-0.012628605599189734, ,0.04494991937267063, ,0.07439019512124777, ,0.0009219374984379688, ,0.1677840944254017,-0.22568914551633706,0.10101987970000001,1.6091606263002398,0.1539893352356514,-1.3380888748525133, ,0.1480451506372399,0.15763611554563253,0.040428455634517774,0.012142352344265908,0.10813399728358322,-0.09083857001380082, ,1.0900890827178955
0.013990001357377378,0.02117989609769291,-0.09094671188689984, ,0.014964815771321879,0.020552732601864236,-0.09212872960185217, ,0.0016555250135818315, ,0.019618214689587368,-0.005437219706279324,-0.04007564779100266,-0.0625605284314891,-0.04025151903358772,-0.012628605599189734, ,0.04494991937267063, ,0.07439019512124777, ,0.0009279505108571808, ,0.1677840944254017,-0.22568914551633706,0.10101987970000001,1.6091606263002398,0.1539893352356514,-1.3380888748525133, ,0.1480451506372399,0.15763611554563253,0.040428455634517774,0.012142352344265908,0.10813399728358322,-0.09083857001380082, ,1.0923089981079102
0.013990001357377378,0.02117989609769291,-0.09094671188689984, ,0.015014816591197955,0.020547328643198984,-0.09224798949575114, ,0.0017730513989316233, ,0.019618214689587368,-0.005437219706279324,-0.04007564779100266,-0.0625605284314891,-0.04025151903358772,-0.012628605599189734, ,0.04494991937267063, ,0.07439019512124777, ,0.0009348212497846153, ,0.1677840944254017,-0.22568914551633706,0.10101987970000001,1.6091606263002398,0.1539893352356514,-1.3380888748525133, ,0.1480451506372399,0.15763611554563253,0.040428455634517774,0.012142352344265908,0.10813399728358322,-0.09083857001380082, ,1.0945420265197754
0.013990001357377378,0.02117989609769291,-0.09094671188689984, ,0.015064944763935493,0.02054187034566807,-0.09236725438904142, ,0.0018922265160229294, ,0.019618214689587368,-0.005437219706279324,-0.04007564779100266,-0.0625605284314891,-0.04025151903358772,-0.012628605599189734, ,0.04494991937267063, ,0.07439019512124777, ,0.0009425422599962145, ,0.1677840944254017,-0.22568914551633706,0.10101987970000001,1.6091606263002398,0.1539893352356514,-1.3380888748525133, ,0.1480451506372399,0.15763611554563253,0.040428455634517774,0.012142352344265908,0.10813399728358322,-0.09083857001380082, ,1.0968151092529297
0.014193721261615189,0.02112661759686327,-0.09138059182407286, ,0.01511519943536253,0.02053635902951116,-0.09248652007102562, ,0.0015558291964201264, ,0.020850955799708144,-0.004797673811788473,-0.04657890905215636,-0.029033801444722084,0.0017045815688833338,-0.0017554533736721086, ,0.051257924267909614, ,0.029080027014130976, ,0.0009474485554876058, ,0.16930547280162392,-0.22405192614700148,0.10145802572000001,1.6091606263002398,0.15535570023330578,-1.339284732629618, ,0.15256743015831317,0.16532568215761462,0.047126661301775154,0.010753749228786897,0.15623925310975129,-0.13210565479336986, ,1.099025011062622
0.014193721261615189,0.02112661759686327,-0.09138059182407286, ,0.015165579754248398,0.02053079601009463,-0.09260578235285638, ,0.0016735005601384277, ,0.020850955799708144,-0.004797673811788473,-0.04657890905215636,-0.029033801444722084,0.0017045815688833338,-0.0017554533736721086, ,0.051257924267909614, ,0.029080027014130976, ,0.0009532108729848346, ,0.16930547280162392,-0.22405192614700148,0.10145802572000001,1.6091606263002398,0.15535570023330578,-1.339284732629618, ,0.15256743015831317,0.16532568215761462,0.047126661301775154,0.010753749228786897,0.15623925310975129,-0.13210565479336986, ,1.1012661457061768
0.014193721261615189,0.02112661759686327,-0.09138059182407286, ,0.015216084872299526,0.020525182597918152,-0.09272503706749956, ,0.001792898330352364, ,0.020850955799708144,-0.004797673811788473,-0.04657890905215636,-0.029033801444722084,0.0017045815688833338,-0.0017554533736721086, ,0.051257924267909614, ,0.029080027014130976, ,0.000959822585247571, ,0.16930547280162392,-0.22405192614700148,0.10145802572000001,1.6091606263002398,0.15535570023330578,-1.339284732629618, ,0.15256743015831317,0.16532568215761462,0.047126661301775154,0.010753749228786897,0.15623925310975129,-0.13210565479336986, ,1.1035521030426025
0.014193721261615189,0.02112661759686327,-0.09138059182407286, ,0.015266713944154643,0.020519520098621496,-0.09284428006969511, ,0.0019137042481865826, ,0.020850955799708144,-0.004797673811788473,-0.04657890905215636,-0.029033801444722084,0.0017045815688833338,-0.0017554533736721086, ,0.051257924267909614, ,0.029080027014130976, ,0.0009672747857392821, ,0.16930547280162392,-0.22405192614700148,0.10145802572000001,1.6091606263002398,0.15535570023330578,-1.339284732629618, ,0.15256743015831317,0.16532568215761462,0.047126661301775154,0.010753749228786897,0.15623925310975129,-0.13210565479336986, ,1.1059000492095947
0.01439674206322588,0.02108664866738044,-0.09184315418114353, ,0.015317466127380537,0.020513809812990846,-0.09296350723592021, ,0.001559188289706957, ,0.022068089552648065,-0.00415559982421298,-0.0504083167577505,-0.0031573094483156065,0.018338214420417432,0.004243673976239847, ,0.05518394680296439, ,0.018599280660038436, ,0.0009718632625142253, ,0.17076506931485236,-0.22249965683928236,0.10192728270000001,1.6091606263002398,0.15685870173072564,-1.3407553657907005, ,0.15922305630615904,0.16648586238328208,0.051218043472668826,0.00970413520142156,0.18039095910697006,-0.15924752116383195, ,1.1089789867401123
0.01439674206322588,0.02108664866738044,-0.09184315418114353, ,0.015368340582467548,0.020508053036965856,-0.09308271446435079, ,0.0016778814862296806, ,0.022068089552648065,-0.00415559982421298,-0.0504083167577505,-0.0031573094483156065,0.018338214420417432,0.004243673976239847, ,0.05518394680296439, ,0.018599280660038436, ,0.0009772941719274212, ,0.17076506931485236,-0.22249965683928236,0.10192728270000001,1.6091606263002398,0.15685870173072564,-1.3407553657907005, ,0.15922305630615904,0.16648586238328208,0.051218043472668826,0.00970413520142156,0.18039095910697006,-0.15924752116383195, ,1.1113851070404053
0.01439674206322588,0.02108664866738044,-0.09184315418114353, ,0.015419336472825118,0.02050225106164601,-0.09320189767482377, ,0.0017981667802932366, ,0.022068089552648065,-0.00415559982421298,-0.0504083167577505,-0.0031573094483156065,0.018338214420417432,0.004243673976239847, ,0.05518394680296439, ,0.018599280660038436, ,0.0009835603750447174, ,0.17076506931485236,-0.22249965683928236,0.10192728270000001,1.6091606263002398,0.15685870173072564,-1.3407553657907005, ,0.15922305630615904,0.16648586238328208,0.051218043472668826,0.00970413520142156,0.18039095910697006,-0.15924752116383195, ,1.1139569282531738
0.01439674206322588,0.02108664866738044,-0.09184315418114353, ,0.015470452964777219,0.02049640517329726,-0.09332105280879963, ,0.0019197465551591669, ,0.022068089552648065,-0.00415559982421298,-0.0504083167577505,-0.0031573094483156065,0.018338214420417432,0.004243673976239847, ,0.05518394680296439, ,0.018599280660038436, ,0.000990652694591039, ,0.17076506931485236,-0.22249965683928236,0.10192728270000001,1.6091606263002398,0.15685870173072564,-1.3407553657907005, ,0.15922305630615904,0.16648586238328208,0.051218043472668826,0.00970413520142156,0.18039095910697006,-0.15924752116383195, ,1.1165380477905273
0.014510506757759544,0.021066839590579967,-0.09210431051379447, ,0.01552168922755816,0.02049051665335869,-0.09344017582932342, ,0.0017717715023186902, ,0.022745438819699565,-0.0037926288632443086,-0.05234394925411615,-0.012766928835209032,0.003542206248565217,0.001254919784795733, ,0.057198147210486605, ,0.01323437763514526, ,0.0009965257683333523, ,0.17158367899952015,-0.22165787895599187,0.10219302215,1.6091606263002398,0.1578151572290837,-1.341616969856716, ,0.16057012108032281,0.16648586238328208,0.05327361712374583,0.009221260316973665,0.1666410988331878,-0.14969818177399014, ,1.118880033493042
0.014510506757759544,0.021066839590579967,-0.09210431051379447, ,0.015573044433307738,0.02048458677844917,-0.09355926272098805, ,0.001893380726217272, ,0.022745438819699565,-0.0037926288632443086,-0.05234394925411615,-0.012766928835209032,0.003542206248565217,0.001254919784795733, ,0.057198147210486605, ,0.01323437763514526, ,0.0010032187157802473, ,0.17158367899952015,-0.22165787895599187,0.10219302215,1.6091606263002398,0.1578151572290837,-1.341616969856716, ,0.16057012108032281,0.16648586238328208,0.05327361712374583,0.009221260316973665,0.1666410988331878,-0.14969818177399014, ,1.1214799880981445
0.014510506757759544,0.021066839590579967,-0.09210431051379447, ,0.015624517757067129,0.02047861682037396,-0.09367830948989554, ,0.0020160603440210617, ,0.022745438819699565,-0.0037926288632443086,-0.05234394925411615,-0.012766928835209032,0.003542206248565217,0.001254919784795733, ,0.057198147210486605, ,0.01323437763514526, ,0.0010107212463598087, ,0.17158367899952015,-0.22165787895599187,0.10219302215,1.6091606263002398,0.1578151572290837,-1.341616969856716, ,0.16057012108032281,0.16648586238328208,0.05327361712374583,0.009221260316973665,0.1666410988331878,-0.14969818177399014, ,1.1239540576934814
0.014510506757759544,0.021066839590579967,-0.09210431051379447, ,0.015676108376774325,0.02047260804613149,-0.0937973121636199, ,0.0021396244644748116, ,0.022745438819699565,-0.0037926288632443086,-0.05234394925411615,-0.012766928835209032,0.003542206248565217,0.001254919784795733, ,0.057198147210486605, ,0.01323437763514526, ,0.0010190220053165366, ,0.17158367899952015,-0.22165787895599187,0.10219302215,1.6091606263002398,0.1578151572290837,-1.341616969856716, ,0.16057012108032281,0.16648586238328208,0.05327361712374583,0.009221260316973665,0.1666410988331878,-0.14969818177399014, ,1.1262409687042236
0.014871672958869556,0.021006055035844868,-0.09292154247888793, ,0.015727815473259528,0.02046656171791968,-0.09391626679116825, ,0.0014189818541734372, ,0.02381370422325094,-0.004228115926833825,-0.05173960988259972,-0.07564621675707105,-0.07094292080431033,-0.007148530848869288, ,0.0571135422113428, ,0.1037057247328946, ,0.0010219414202716965, ,0.17407812171789466,-0.21906304071025245,0.10302524033,1.6093703162437245,0.15986470472556533,-1.3433699171523028, ,0.1630531641898123,0.1667784561660295,0.05274440900662252,0.0,0.09466914355083955,-0.0885810569537268, ,1.1285009384155273
0.014871672958869556,0.021006055035844868,-0.09292154247888793, ,0.015779638230240887,0.020460479093142834,-0.09403516944294399, ,0.001536951221849397, ,0.02381370422325094,-0.004228115926833825,-0.05173960988259972,-0.07564621675707105,-0.07094292080431033,-0.007148530848869288, ,0.0571135422113428, ,0.1037057247328946, ,0.001025673375355593, ,0.17407812171789466,-0.21906304071025245,0.10302524033,1.6093703162437245,0.15986470472556533,-1.3433699171523028, ,0.1630531641898123,0.1667784561660295,0.05274440900662252,0.0,0.09466914355083955,-0.0885810569537268, ,1.130753993988037
0.014871672958869556,0.021006055035844868,-0.09292154247888793, ,0.01583157583431991,0.020454361424418106,-0.09415401621070779, ,0.0016567350031954258, ,0.02381370422325094,-0.004228115926833825,-0.05173960988259972,-0.07564621675707105,-0.07094292080431033,-0.007148530848869288, ,0.0571135422113428, ,0.1037057247328946, ,0.001030213387066671, ,0.17407812171789466,-0.21906304071025245,0.10302524033,1.6093703162437245,0.15986470472556533,-1.3433699171523028, ,0.1630531641898123,0.1667784561660295,0.05274440900662252,0.0,0.09466914355083955,-0.0885810569537268, ,1.1329810619354248
0.014871672958869556,0.021006055035844868,-0.09292154247888793, ,0.015883627474977055,0.020448209959582273,-0.09427280320754079, ,0.0017779619311392076, ,0.02381370422325094,-0.004228115926833825,-0.05173960988259972,-0.07564621675707105,-0.07094292080431033,-0.007148530848869288, ,0.0571135422113428, ,0.1037057247328946, ,0.0010355544480957605, ,0.17407812171789466,-0.21906304071025245,0.10302524033,1.6093703162437245,0.15986470472556533,-1.3433699171523028, ,0.1630531641898123,0.1667784561660295,0.05274440900662252,0.0,0.09466914355083955,-0.0885810569537268, ,1.1352250576019287
0.014871672958869556,0.021006055035844868,-0.09292154247888793, ,0.0159357923445673,0.02044202594169844,-0.09439152656780575, ,0.0019003505223334327, ,0.02381370422325094,-0.004228115926833825,-0.05173960988259972,-0.07564621675707105,-0.07094292080431033,-0.007148530848869288, ,0.0571135422113428, ,0.1037057247328946, ,0.0010416877535868079, ,0.17407812171789466,-0.21906304071025245,0.10302524033,1.6093703162437245,0.15986470472556533,-1.3433699171523028, ,0.1630531641898123,0.1667784561660295,0.05274440900662252,0.0,0.09466914355083955,-0.0885810569537268, ,1.1375041007995605
0.015116557521793668,0.020958552775948117,-0.09344927129485785, ,0.01598806963831558,0.020435810609062344,-0.0945101824471103, ,0.0014691239618420822, ,0.024141097343981507,-0.004754092597283874,-0.05277575180889782,-0.0292066028781022,-0.01792766556821951,0.005013144273090257, ,0.058229493870284685, ,0.03426393762387056, ,0.0010446978677294506, ,0.17577712295022407,-0.21732542581355194,0.10356320068000001,1.6093703162437245,0.1610944332234543,-1.3445360357658518, ,0.16825698857884888,0.1728541740591453,0.05381355243243244,0.0,0.15443873814816594,-0.14094681931889258, ,1.1405889987945557
0.015116557521793668,0.020958552775948117,-0.09344927129485785, ,0.016040458554312485,0.020429565195209057,-0.09462876702226734, ,0.0015889087920465277, ,0.024141097343981507,-0.004754092597283874,-0.05277575180889782,-0.0292066028781022,-0.01792766556821951,0.005013144273090257, ,0.058229493870284685, ,0.03426393762387056, ,0.001048503538528871, ,0.17577712295022407,-0.21732542581355194,0.10356320068000001,1.6093703162437245,0.1610944332234543,-1.3445360357658518, ,0.16825698857884888,0.1728541740591453,0.05381355243243244,0.0,0.15443873814816594,-0.14094681931889258, ,1.1427831649780273
0.015116557521793668,0.020958552775948117,-0.09344927129485785, ,0.016092958293509606,0.020423290928920042,-0.0947472764912589, ,0.0017101699335959342, ,0.024141097343981507,-0.004754092597283874,-0.05277575180889782,-0.0292066028781022,-0.01792766556821951,0.005013144273090257, ,0.058229493870284685, ,0.03426393762387056, ,0.0010530984440501698, ,0.17577712295022407,-0.21732542581355194,0.10356320068000001,1.6093703162437245,0.1610944332234543,-1.3445360357658518, ,0.16825698857884888,0.1728541740591453,0.05381355243243244,0.0,0.15443873814816594,-0.14094681931889258, ,1.1450459957122803
0.015116557521793668,0.020958552775948117,-0.09344927129485785, ,0.016145568059715256,0.020416989034229286,-0.09486570707319743, ,0.0018326058735196257, ,0.024141097343981507,-0.004754092597283874,-0.05277575180889782,-0.0292066028781022,-0.01792766556821951,0.005013144273090257, ,0.058229493870284685, ,0.03426393762387056, ,0.001058474357356856, ,0.17577712295022407,-0.21732542581355194,0.10356320068000001,1.6093703162437245,0.1610944332234543,-1.3445360357658518, ,0.16825698857884888,0.1728541740591453,0.05381355243243244,0.0,0.15443873814816594,-0.14094681931889258, ,1.1472721099853516
0.015354273523337071,0.02091434941237053,-0.0939747552982284, ,0.016198287059589866,0.020410660730430144,-0.0949840550082875, ,0.0014088105062137254, ,0.023508870213384988,-0.0041405129308629916,-0.051904608436289565,0.007964183554534772,0.01534384512311648,0.0003725536933764157, ,0.05713054527102787, ,0.01727672056212286, ,0.0010608739200202591, ,0.17743751051818232,-0.215641870046971,0.10409986474,1.609580006187209,0.16287070772040502,-1.346229504734327, ,0.16389799923742793,0.1630531641898123,0.053096038400000004,0.0124118466523539,0.18136521190503221,-0.16624924223601487, ,1.1494760513305664
0.015354273523337071,0.02091434941237053,-0.0939747552982284, ,0.01625111450264164,0.020404307232081906,-0.09510231655778863, ,0.0015283524337974576, ,0.023508870213384988,-0.0041405129308629916,-0.051904608436289565,0.007964183554534772,0.01534384512311648,0.0003725536933764157, ,0.05713054527102787, ,0.01727672056212286, ,0.0010640540459643216, ,0.17743751051818232,-0.215641870046971,0.10409986474,1.609580006187209,0.16287070772040502,-1.346229504734327, ,0.16389799923742793,0.1630531641898123,0.053096038400000004,0.0124118466523539,0.18136521190503221,-0.16624924223601487, ,1.1517629623413086
0.015354273523337071,0.02091434941237053,-0.0939747552982284, ,0.016304049601222014,0.020397929749016584,-0.09522048800397737, ,0.0016494283376351222, ,0.023508870213384988,-0.0041405129308629916,-0.051904608436289565,0.007964183554534772,0.01534384512311648,0.0003725536933764157, ,0.05713054527102787, ,0.01727672056212286, ,0.0010680092776648, ,0.17743751051818232,-0.215641870046971,0.10409986474,1.609580006187209,0.16287070772040502,-1.346229504734327, ,0.16389799923742793,0.1630531641898123,0.053096038400000004,0.0124118466523539,0.18136521190503221,-0.16624924223601487, ,1.154386043548584
0.015354273523337071,0.02091434941237053,-0.0939747552982284, ,0.016357091570521225,0.020391529486345306,-0.09533856565010851, ,0.00177171199315877, ,0.023508870213384988,-0.0041405129308629916,-0.051904608436289565,0.007964183554534772,0.01534384512311648,0.0003725536933764157, ,0.05713054527102787, ,0.01727672056212286, ,0.001072732114681538, ,0.17743751051818232,-0.215641870046971,0.10409986474,1.609580006187209,0.16287070772040502,-1.346229504734327, ,0.16389799923742793,0.1630531641898123,0.053096038400000004,0.0124118466523539,0.18136521190503221,-0.16624924223601487, ,1.156830072402954
0.015354273523337071,0.02091434941237053,-0.0939747552982284, ,0.016410239628563864,0.02038510764446512,-0.09545654582037852, ,0.001894957629029585, ,0.023508870213384988,-0.0041405129308629916,-0.051904608436289565,0.007964183554534772,0.01534384512311648,0.0003725536933764157, ,0.05713054527102787, ,0.01727672056212286, ,0.001078213618110525, ,0.17743751051818232,-0.215641870046971,0.10409986474,1.609580006187209,0.16287070772040502,-1.346229504734327, ,0.16389799923742793,0.1630531641898123,0.053096038400000004,0.0124118466523539,0.18136521190503221,-0.16624924223601487, ,1.1592309474945068
0.01551139888178133,0.02088493712843696,-0.0943155065213411, ,0.01646349299620437,0.020378665419065488,-0.0955744248598866, ,0.001657609613134243, ,0.023623036238009484,-0.004821523592406147,-0.04940363174144036,-0.008213940462883202,-0.004933777701963406,-0.004091426386241873, ,0.05497284566127436, ,0.009566434944658043, ,0.0010820506776802183, ,0.17854186131919644,-0.21455296471170532,0.10444856675000001,1.609580006187209,0.16410043621829398,-1.3473139446077353, ,0.1667784561660295,0.16333380646896864,0.05056765561904762,0.0124118466523539,0.16346004000108713,-0.1503166446517363, ,1.1621520519256592
0.01551139888178133,0.02088493712843696,-0.0943155065213411, ,0.016516850897122626,0.020372204001135104,-0.09569219913459698, ,0.0017801998669755902, ,0.023623036238009484,-0.004821523592406147,-0.04940363174144036,-0.008213940462883202,-0.004933777701963406,-0.004091426386241873, ,0.05497284566127436, ,0.009566434944658043, ,0.0010866437644518985, ,0.17854186131919644,-0.21455296471170532,0.10444856675000001,1.609580006187209,0.16410043621829398,-1.3473139446077353, ,0.1667784561660295,0.16333380646896864,0.05056765561904762,0.0124118466523539,0.16346004000108713,-0.1503166446517363, ,1.1644959449768066
0.01551139888178133,0.02088493712843696,-0.0943155065213411, ,0.016570312557819475,0.020365724576968468,-0.0958098650313016, ,0.0019036772844141369, ,0.023623036238009484,-0.004821523592406147,-0.04940363174144036,-0.008213940462883202,-0.004933777701963406,-0.004091426386241873, ,0.05497284566127436, ,0.009566434944658043, ,0.0010919838528176645, ,0.17854186131919644,-0.21455296471170532,0.10444856675000001,1.609580006187209,0.16410043621829398,-1.3473139446077353, ,0.1667784561660295,0.16333380646896864,0.05056765561904762,0.0124118466523539,0.16346004000108713,-0.1503166446517363, ,1.1667070388793945
0.0158445439355384,0.02082123180016955,-0.09501439478590007, ,0.016623877207612235,0.020359228328172115,-0.09592741895758142, ,0.0012862428601059014, ,0.023858531357552497,-0.004258300210219542,-0.04981645518038144,-0.0865434722776507,-0.09485076151830565,-0.02417000329173087, ,0.05539893361752214, ,0.12839833623647165, ,0.001093245274942913, ,0.18079689931846998,-0.212305649445306,0.10516411883000001,1.6097896961306934,0.1656034377157138,-1.3487028990286771, ,0.15633763024459765,0.15608049598432694,0.05105388307692308,0.010243654728396785,0.060927439209611696,-0.06516669316787946, ,1.1693191528320312
0.0158445439355384,0.02082123180016955,-0.09501439478590007, ,0.016677544078630296,0.02035271643167211,-0.09604485734176935, ,0.0014054355082884645, ,0.023858531357552497,-0.004258300210219542,-0.04981645518038144,-0.0865434722776507,-0.09485076151830565,-0.02417000329173087, ,0.05539893361752214, ,0.12839833623647165, ,0.0010952594054806262, ,0.18079689931846998,-0.212305649445306,0.10516411883000001,1.6097896961306934,0.1656034377157138,-1.3487028990286771, ,0.15633763024459765,0.15608049598432694,0.05105388307692308,0.010243654728396785,0.060927439209611696,-0.06516669316787946, ,1.171666145324707
0.0158445439355384,0.02082123180016955,-0.09501439478590007, ,0.016731312405810533,0.0203461900597196,-0.09616217663291138, ,0.0015262457676819905, ,0.023858531357552497,-0.004258300210219542,-0.04981645518038144,-0.0865434722776507,-0.09485076151830565,-0.02417000329173087, ,0.05539893361752214, ,0.12839833623647165, ,0.0010980221385716606, ,0.18079689931846998,-0.212305649445306,0.10516411883000001,1.6097896961306934,0.1656034377157138,-1.3487028990286771, ,0.15633763024459765,0.15608049598432694,0.05105388307692308,0.010243654728396785,0.060927439209611696,-0.06516669316787946, ,1.173875093460083
0.0158445439355384,0.02082123180016955,-0.09501439478590007, ,0.016785181426893045,0.020339650379898565,-0.0962793733007295, ,0.0016482991832407882, ,0.023858531357552497,-0.004258300210219542,-0.04981645518038144,-0.0865434722776507,-0.09485076151830565,-0.02417000329173087, ,0.05539893361752214, ,0.12839833623647165, ,0.0011015270879007632, ,0.18079689931846998,-0.212305649445306,0.10516411883000001,1.6097896961306934,0.1656034377157138,-1.3487028990286771, ,0.15633763024459765,0.15608049598432694,0.05105388307692308,0.010243654728396785,0.060927439209611696,-0.06516669316787946, ,1.1760931015014648
0.0158445439355384,0.02082123180016955,-0.09501439478590007, ,0.016839150382416516,0.02033309855513139,-0.0963964438355834, ,0.0017713203055386715, ,0.023858531357552497,-0.004258300210219542,-0.04981645518038144,-0.0865434722776507,-0.09485076151830565,-0.02417000329173087, ,0.05539893361752214, ,0.12839833623647165, ,0.00110576628548075, ,0.18079689931846998,-0.212305649445306,0.10516411883000001,1.6097896961306934,0.1656034377157138,-1.3487028990286771, ,0.15633763024459765,0.15608049598432694,0.05105388307692308,0.010243654728396785,0.060927439209611696,-0.06516669316787946, ,1.1783490180969238
0.016088150595711025,0.02077556829905136,-0.09552683004489225, ,0.01689321851571384,0.020326535743686393,-0.09651338474843298, ,0.0013502054564671203, ,0.02359908143637892,-0.004335417480130778,-0.05045115807765971,-0.045063971572905634,-0.05087729494728483,-0.013796666412127307, ,0.05586619586784907, ,0.06796273846491978, ,0.0011073036387573936, ,0.18239550502343446,-0.21069159827459308,0.10568911628000001,1.6097896961306934,0.16642325671430647,-1.3495347639311366, ,0.1548074087413879,0.15659561313279005,0.05171692051948052,0.009242927073797598,0.10470682381331378,-0.10725703234665837, ,1.181380033493042
0.016088150595711025,0.02077556829905136,-0.09552683004489225, ,0.016947385072907654,0.02031996309918381,-0.09663019257079962, ,0.0014708055100952021, ,0.02359908143637892,-0.004335417480130778,-0.05045115807765971,-0.045063971572905634,-0.05087729494728483,-0.013796666412127307, ,0.05586619586784907, ,0.06796273846491978, ,0.001109575525453255, ,0.18239550502343446,-0.21069159827459308,0.10568911628000001,1.6097896961306934,0.16642325671430647,-1.3495347639311366, ,0.1548074087413879,0.15659561313279005,0.05171692051948052,0.009242927073797598,0.10470682381331378,-0.10725703234665837, ,1.183568000793457
0.016088150595711025,0.02077556829905136,-0.09552683004489225, ,0.017001649302905812,0.020313381770602747,-0.09674686385472933, ,0.001592664048778497, ,0.02359908143637892,-0.004335417480130778,-0.05045115807765971,-0.045063971572905634,-0.05087729494728483,-0.013796666412127307, ,0.05586619586784907, ,0.06796273846491978, ,0.0011125760752875734, ,0.18239550502343446,-0.21069159827459308,0.10568911628000001,1.6097896961306934,0.16642325671430647,-1.3495347639311366, ,0.1548074087413879,0.15659561313279005,0.05171692051948052,0.009242927073797598,0.10470682381331378,-0.10725703234665837, ,1.1857869625091553
0.016088150595711025,0.02077556829905136,-0.09552683004489225, ,0.017056010457397065,0.020306792902287738,-0.09686339517275404, ,0.0017154910158581455, ,0.02359908143637892,-0.004335417480130778,-0.05045115807765971,-0.045063971572905634,-0.05087729494728483,-0.013796666412127307, ,0.05586619586784907, ,0.06796273846491978, ,0.001116297772451589, ,0.18239550502343446,-0.21069159827459308,0.10568911628000001,1.6097896961306934,0.16642325671430647,-1.3495347639311366, ,0.1548074087413879,0.15659561313279005,0.05171692051948052,0.009242927073797598,0.10470682381331378,-0.10725703234665837, ,1.1880669593811035
