NicholasDascanio/dvrk_moveit_final/test/execution/third_experiment_notsharpbends/thirdexp_500vel5.0/thirdexp_500vel5.0_30.csv
Current Position (x),Current Position (y),Current Position (z), ,Planned Position (x),Planned Position (y),Planned Position (z), ,Position Error,,Cartesian linear Velocity(x),Cartesian linear Velocity(y),Cartesian linear Velocity(z),Cartesian Angular Velocity(x),Cartesian Angular Velocity(y),Cartesian Angular Velocity(z), ,Total Linear Velocity, ,Total Angular Velocity, ,MSE, ,Joint 1 Position,Joint 2 Position,Joint 3 Position,Joint 4 Position,Joint 5 Position,Joint 6 Position, ,Joint 1 Velocity,Joint 2 Velocity,Joint 3 Velocity,Joint 4 Velocity,Joint 5 Velocity,Joint 6 Velocity, ,Time Stamp
0.009929366997914222,0.020221625876086315,-0.07946089411183774, ,0.010050700085261353,0.02015682123130468,-0.07959381495431436, ,0.00019128332503162997, ,3.3086967073986986e-05,1.9069596086300355e-05,8.987450802977749e-06,0.1043377214044208,-8.518970227078344e-05,-0.07354879368887243, ,3.9232271881522314e-05, ,0.10433775618227518, ,1.5940277085969163e-05, ,0.20211936478420386,-0.2299829849944059,0.09147529643,1.8056401033452392,0.7800577771608995,-1.2178007994839541, ,0.00039567018179510435,-0.00010486604416079916,0.0,0.0017650758011676668,0.0,-0.1263359293061217, ,0.022603988647460938
0.009934138633436656,0.020225899522844964,-0.07946977472101692, ,0.01007128484949224,0.02019367895574489,-0.07967578090983579, ,0.00024957123102291285, ,9.564788806655703e-05,9.484248360855404e-05,-0.000318306892507401,0.10667790921155888,-1.5006551917857118e-05,-0.07532048123177498, ,0.0003456340449179589, ,0.10667791026705668, ,2.0038843457024673e-05, ,0.20211936478420386,-0.22999843046015434,0.09148307417000001,1.8058497932887239,0.7796478676616032,-1.2204886591580655, ,0.00033645879713728097,-6.187189314136243e-05,0.00034198707852918156,0.0019703881814361495,0.0,-0.12915377794716942, ,0.04482293128967285
0.009965875535316358,0.020246297607356172,-0.07954278567364394, ,0.010092362975691481,0.020229824280612704,-0.07975819416077433, ,0.0002503422844715843, ,0.0013924362853637707,0.0009459259550937219,-0.004428632174757214,0.18283447990538068,-0.07448959012108593,-0.14410655241912018, ,0.004737767159814044, ,0.19742630543312842, ,2.159990126644147e-05, ,0.20211936478420386,-0.23002159865877703,0.09154529609,1.8064788631191775,0.7771884106658253,-1.2243640061816505, ,0.00027579183943597543,-0.0007275226221841514,0.004082217201435162,-0.012599497895439996,-0.07727553372984072,-0.17091013200043692, ,0.06834697723388672
0.009995863386337723,0.0202640607539183,-0.07962035587763593, ,0.010113930715199565,0.020265262909975074,-0.07984105014962979, ,0.00025029442865285147, ,0.002108033553737528,0.0007686788115721946,-0.004042210774405608,0.08981411690956932,-0.19117306017430902,-0.12720167230774368, ,0.0046232175509880674, ,0.21121958841825392, ,2.241645878997568e-05, ,0.20211936478420386,-0.2300447668573997,0.09161788833000001,1.8064788631191775,0.7750022266695782,-1.229442333894315, ,0.0002459459906366202,-0.0015530680370203459,0.003181943971234519,-0.012599497895439996,-0.19816505700357842,-0.15427403615960378, ,0.0909280776977539
0.010027343935018536,0.02028561369851324,-0.07971523476358643, ,0.01013598433364513,0.02030000052813939,-0.0799243443350701, ,0.0002360858529571917, ,0.0009182705593230049,0.0012103235531333197,-0.004254700280879889,-0.11318103924832114,0.002871320381536137,0.06854156644483404, ,0.00451780681343371, ,0.11321745503529555, ,2.2645713887234044e-05, ,0.20211936478420386,-0.2300756577888966,0.09170733234,1.8062691731756926,0.773089315672862,-1.2286175919038302, ,0.0003445525948997517,-0.001354826972991367,0.004513689861150468,0.012037418197239733,0.0,0.1414814330543617, ,0.11307501792907715
0.010039979201308094,0.020311361568445645,-0.0797934769526166, ,0.01015852011092236,0.02033404279968198,-0.08000807219190899, ,0.0002462062189091324, ,0.0002865790588273204,0.0008664700337243216,-0.0025179784012851567,-0.034989905648309054,0.05090567704405845,0.03067387751080178, ,0.002678266810017093, ,0.061771202453006616, ,2.296424743621456e-05, ,0.2021348102499523,-0.2301142714532677,0.09179548006,1.8066885530626617,0.7739091346714547,-1.2250388048386993, ,0.0008618778468445786,-0.0010639594208514483,0.0029723477365180074,0.01688461288213045,0.050408787122398734,0.05890919074725487, ,0.13823294639587402
0.010050365591843666,0.020332081960869802,-0.07985209692232859, ,0.01018153434116885,0.02036739536947585,-0.08009222921108282, ,0.00027589090910948213, ,0.0005821724607466749,0.0008552570351686422,-0.003396213831303837,0.014692393217432473,0.008721192874003034,0.016539635808023707, ,0.0035503038965976957, ,0.017085831064053834, ,2.3606586807705347e-05, ,0.20215025571570078,-0.23015288511763884,0.09186159085000001,1.807107932949631,0.7744556806705164,-1.2246676890520796, ,0.00022718366938027107,-0.002021448086355125,0.0036458712565804537,-0.023100025040850146,0.015083556759083822,-0.017499737996080372, ,0.16079115867614746
0.010064718472143701,0.02035325539392341,-0.07992334093834333, ,0.01020502333274307,0.020400063862719177,-0.08017681089962968, ,0.0002934680696997812, ,0.0007016172831156517,0.001019736999554098,-0.0036996399626778283,0.010559386867151261,-0.004740081348754529,0.013486039053905115, ,0.0039012134283667415, ,0.011574498758472215, ,2.4606695306846497e-05, ,0.202157978448575,-0.23019922151488417,0.09193807196,1.807107932949631,0.7745923171702819,-1.2251875006564787, ,-0.0002862916460876376,-0.0032393176796046827,0.003905077597450356,-0.021822992642342352,0.0,-0.014122347860363442, ,0.18253493309020996
0.010081292644157608,0.020374913969355597,-0.08000576123712186, ,0.010228983408202077,0.020432053884962914,-0.0802618127806665, ,0.0003010646520122323, ,0.000881763704777092,0.0012415283540675084,-0.004098688027029458,0.00409102315082703,0.0017319549187918193,-0.008182253437721115, ,0.004384111535530954, ,0.004442537237280106, ,2.549118857629776e-05, ,0.202157978448575,-0.2302687261107522,0.09206899725,1.8068982430061464,0.7745923171702819,-1.2251058219163382, ,0.00033972020146529817,-0.0023648151681935166,0.0043664505263157904,0.00907663091482054,0.0,0.0, ,0.20367908477783203
0.010108189518023902,0.020414130077468846,-0.08013078049689869, ,0.010253410904279156,0.02046337102213931,-0.08034723039336678, ,0.00026526303801883755, ,0.000905156553077119,0.0012943252220538174,-0.004221673805764684,0.004475816917515938,0.0020013670149133626,-0.00909238474095527, ,0.004507451152070623, ,0.00490289768060907, ,2.5853232423087234e-05, ,0.20216570118144922,-0.23031506250799755,0.09215844126000002,1.8073176228931154,0.7745923171702819,-1.2251058219163382, ,0.00029813037966712816,-0.0025597948791520465,0.004500935721955355,0.010072779873663494,0.0,1.2103795797792214e-06, ,0.22678613662719727
0.010125775132649397,0.02044116782501923,-0.08021035876198715, ,0.010278302171861453,0.020494020840589766,-0.08043305929293856, ,0.0002750517504611403, ,0.000730424038101017,0.00089274694190615,-0.0035463907226222567,-0.0017956611047204492,-0.004676123932701913,0.018284765640396675, ,0.0037292631356904533, ,0.005009045146136353, ,2.6245571855062744e-05, ,0.20217342391432344,-0.23037684437099135,0.09224399640000001,1.8077370027800843,0.7745923171702819,-1.2251875006564787, ,0.0003903083344931901,-0.0019125411204333554,0.0037295273987356593,-0.018768789389082538,0.0,0.0, ,0.24808406829833984
0.010141141460188876,0.020459701674344813,-0.08027171456031407, ,0.010303653575967542,0.020524008887092837,-0.08051929505060186, ,0.00030305396311122956, ,0.0006152417237327061,0.0008129546818133857,-0.0027532590912861415,-0.005135765715556298,-0.005231137341813578,0.021676907154788094, ,0.0029359586708694804, ,0.007330817636238769, ,2.68168865252821e-05, ,0.2021965921129461,-0.2304231807682367,0.09230881090000001,1.8077370027800843,0.7744556806705164,-1.2248310465323606, ,0.0009646364077981504,-0.0031809883457011956,0.0029307840883164675,-0.018768789389082538,0.0,0.005553639620915979, ,0.2706949710845947
0.01016012067293564,0.020479971205730012,-0.08034292123919097, ,0.010329461495725108,0.02055334068889264,-0.0806059332535668, ,0.00032130159512301783, ,0.0010806469442191545,0.0014086883562982634,-0.004444802799222673,-0.00051440922749272,0.0010486081859764492,-0.0035350027778002307, ,0.004786279622754839, ,0.001167987262847609, ,2.7451407290325583e-05, ,0.2022583739759399,-0.23050040809697894,0.09241769926000001,1.8075273128366,0.774319044170751,-1.2244745924082425, ,0.001567894412746161,-0.003527456199214403,0.005128400360592403,0.008372261849995509,0.001020471793264588,0.007589726200853071, ,0.29423093795776367
0.010193711862483456,0.020522566769170893,-0.08047563563198225, ,0.010355722324348575,0.020582021753726483,-0.08069296950501126, ,0.00027751810266727625, ,0.0010704161315316073,0.0013669448254934068,-0.004270772165956669,-0.0008853220595077962,0.0007529170099708453,-0.0038382269502187216, ,0.004610186953269521, ,0.0011621866253565334, ,2.7677003120357775e-05, ,0.20231243310605948,-0.23056991269284696,0.09252658762,1.8079466927235692,0.774319044170751,-1.2244745924082425, ,0.0022532549004577913,-0.0032341782465571023,0.004591758869991353,0.009291122878897407,0.0009042294248472733,0.007317876555768252, ,0.31479310989379883
0.010206329737053172,0.020536324235882936,-0.08052159747461485, ,0.010382432469116689,0.020610057569853405,-0.08078039942405822, ,0.0003216010351574232, ,0.0010703115218928564,0.0012708807868743472,-0.003993498744367173,0.0008181493716497274,2.0069599035238013e-05,-0.005342376819396165, ,0.004325359747998443, ,0.0008183948725590109, ,2.8377597597242815e-05, ,0.20235104677043061,-0.23060080362434385,0.09257584664000001,1.8079466927235692,0.774319044170751,-1.224392913668102, ,0.0029335538082879615,-0.002866374394406797,0.004300435075593954,0.009291122878897407,0.0008583685829632602,0.0048068997814035876, ,0.3325941562652588
0.010228554698712651,0.02056177343786411,-0.08060502100085255, ,0.010409588351350205,0.02063745360608188,-0.08086821864575429, ,0.00032828900610679064, ,0.0013303550160764812,0.001391966529850358,-0.00462739762590706,0.00049761095485256,-0.0020205348863755698,-0.0040354460428563095, ,0.0050120079885484815, ,0.002080907438534791, ,2.9048248096109358e-05, ,0.20241282863342439,-0.23066258548733765,0.09266529065000001,1.8079466927235692,0.774319044170751,-1.224392913668102, ,0.004523609628162488,-0.0025803041997572306,0.00497309132688105,0.00762597592684976,0.0007855914449608387,0.004444854620428932, ,0.35027098655700684
0.010255441108222739,0.020592602901944677,-0.08070798287054383, ,0.010437186406389427,0.02066421531179821,-0.0809564228210467, ,0.0003160412942268763, ,0.0014721090998916755,0.0015388350277517275,-0.005456730005416544,0.001517042075742822,-0.0020293642936814876,-0.0042064756353149225, ,0.005857560993846566, ,0.0025337188593217747, ,2.957438211785779e-05, ,0.20248233322929243,-0.23073209008320567,0.09277547530000001,1.8079466927235692,0.774319044170751,-1.2242295561878207, ,0.004186753132976789,-0.002123915396235558,0.005807076748086038,0.006427139698829253,0.0007230274407292088,0.002305583298631339, ,0.3724639415740967
0.010281112568212602,0.020624751723208084,-0.0808080727421603, ,0.010465223083571912,0.020690348116994186,-0.08104500761676138, ,0.00030714443433967965, ,0.0012163141530404451,0.0013532592114600837,-0.004185265092754335,0.0012686635782295807,-0.0008402841891436688,-0.007429766777387953, ,0.004563679930595047, ,0.0015217041463779276, ,2.9996833479515378e-05, ,0.20253639235941198,-0.23079387194619946,0.09288306737,1.808366072610538,0.774319044170751,-1.2240661987075396, ,0.004141997471962052,-0.003064571832545413,0.004522660851788757,0.011584402978660207,0.0006685781315429575,0.004999483964480002, ,0.39188408851623535
0.010304533562064299,0.02065020119376391,-0.08089402804601382, ,0.010493694846209992,0.020715857432295575,-0.0811339687155808, ,0.0003125128125213825, ,0.0013431232475458704,0.0013362223396093662,-0.004380822633782427,-0.0018420231380473844,-0.0019444981117889663,-0.00585674681161548, ,0.004772952665555117, ,0.0026784548781560486, ,3.0411337163431147e-05, ,0.20260589695528,-0.23084793107631904,0.09297510396000001,1.808366072610538,0.774319044170751,-1.2237394837469775, ,0.005176741146292175,-0.0022984061009921116,0.004722446344500445,0.011425536335820212,0.0006218633164650621,0.007811560563650227, ,0.40981602668762207
0.010331503085698104,0.020678330302374988,-0.0809909429605085, ,0.010522598171568531,0.020740748648990174,-0.08122330181602135, ,0.00030725237114339395, ,0.0014629104534064677,0.0014818547559045897,-0.005184739643949007,-0.006331836253443259,-0.0018404723489993313,-0.0017103091332047384, ,0.005587264597978106, ,0.0065938975622367385, ,3.076085450679696e-05, ,0.2026908470168965,-0.23090199020643862,0.09307880716000001,1.808366072610538,0.774319044170751,-1.223657805006837, ,0.004648369901878966,-0.0018906483380074742,0.00554817538140021,0.009661090649185251,0.0005818754378217144,0.01234002120276504, ,0.4291660785675049
0.010346149459175214,0.02069171617116647,-0.08104345736361782, ,0.010551929550842363,0.020765027139055484,-0.0813130026324117, ,0.00034695042307011627, ,0.0013086909807391769,0.0013909925057794456,-0.004868865207030091,0.007291014549709695,-0.0011592441879463755,-0.010061916131953463, ,0.005230045949934935, ,0.007382596935714636, ,3.128893611420922e-05, ,0.20273718341414182,-0.23090971293931284,0.09313454763000001,1.808366072610538,0.774319044170751,-1.2235761262666962, ,0.0034798784496629966,-0.0005790512982472884,0.005401428118006105,0.00896157848711996,0.0005634814737143592,-0.0022966625352820493, ,0.4471559524536133
0.010365898835868574,0.020713298060871566,-0.08111607873261267, ,0.010581685489134105,0.020788698255187088,-0.08140306689486947, ,0.000366894091402258, ,0.0013854497944678855,0.0014057865813581877,-0.004876529994824539,0.006077563894116499,-0.003700048003438652,-0.0032868730457829808, ,0.005260822353562346, ,0.007115274791395717, ,3.203576206674858e-05, ,0.2027912425442614,-0.23094060387080972,0.09321232503000002,1.8085757625540226,0.774319044170751,-1.2234944475265557, ,0.004606219451779237,-0.0024467819490465717,0.005222561154098361,0.0017983198475189748,0.0005387351734027222,-0.003911050110117945, ,0.4647810459136963
0.01039852286680303,0.020744714554077483,-0.0812262135026801, ,0.010611862505431587,0.02081176733082674,-0.08149349034928016, ,0.0003484921649168358, ,0.0013416059356205906,0.0012136270454756785,-0.0042376674054174735,-8.801625542551412e-05,-0.003975912825443174,-0.0022424339036021864, ,0.004607669924261077, ,0.003976886758529204, ,3.2641819776258806e-05, ,0.20290708353737477,-0.23097921753518086,0.09333028742,1.808785452497507,0.774319044170751,-1.223494447526556, ,0.005583490952353036,-0.001734698189164734,0.004553691114922814,0.004895004533782161,0.0005002454058448528,0.003441151381549969, ,0.4802370071411133
0.010420391335757713,0.020764046908728042,-0.08130233599508976, ,0.010642457132585584,0.02083423968019046,-0.08158426875727406, ,0.0003656861026607958, ,0.0016736311214699722,0.001462948138414321,-0.0054941135795551965,-0.002104480524285158,-0.005274082443220544,-0.001602938165042742, ,0.005926764919540472, ,0.005678448634003268, ,3.328895828676345e-05, ,0.20299203359899123,-0.23098694026805508,0.09341195369000001,1.808785452497507,0.7744556806705164,-1.2235241866901116, ,0.006414547409961418,-0.0011106696855024813,0.0058648054197349055,0.004895004533782161,0.0,0.005031402471207222, ,0.5006141662597656
0.010461412710813967,0.020800034294510977,-0.08144517414340599, ,0.010673465917287373,0.020856120598296335,-0.08167539789620441, ,0.00031798618240506255, ,0.0016271489683647004,0.0014129367625744021,-0.005580588370571816,0.005199316344245861,-0.0045358254826425885,-0.0072426143066108145, ,0.005982221211393469, ,0.0068997534625526, ,3.367691935707266e-05, ,0.20312332005785305,-0.23100238573380352,0.09356102704000001,1.808785452497507,0.7744556806705164,-1.2230341142492682, ,0.0056038800948083655,-0.00032024452565451435,0.005948025212845408,0.004854423034340474,0.0,0.020958081824886118, ,0.5163941383361816
0.0104763900684953,0.020813093258474562,-0.08149906887778248, ,0.010704885420046384,0.020877415360992874,-0.08176687355912479, ,0.0003578642283068917, ,0.0015041623841233883,0.0013718454734241695,-0.0054462614172604545,-0.03041084264555658,-0.0032937965432345965,0.017303415819578966, ,0.0058143123330197865, ,0.03058869793386597, ,3.421729897126462e-05, ,0.20317737918797263,-0.23100238573380352,0.09362065638000001,1.808785452497507,0.7744556806705164,-1.2228707567689872, ,0.00448425350060448,-0.0002703113294701394,0.005775493662073967,0.004544289801019984,0.0,0.03824046950340455, ,0.5376060009002686
0.01050397924832578,0.020838747616717827,-0.08159402568496722, ,0.01073671221516782,0.020898129224986843,-0.08185869155476712, ,0.0003574056965027955, ,0.001469194826779035,0.0010990646728261683,-0.004399298934999417,0.0009683693862373597,-0.003808793673386809,-0.0025802976075485254, ,0.004766582393452962, ,0.003929967794624312, ,3.4723241476431766e-05, ,0.20330094291396023,-0.23101010846667777,0.09372435958000001,1.8089951424409914,0.7748655901698127,-1.2231233317399357, ,0.006830594842390139,0.0,0.004708486999704405,0.003471081369162736,0.0023535336161789643,0.00018417002050265512, ,0.5537271499633789
0.01053748907380966,0.020863085575919184,-0.08169374006699842, ,0.010768942890730127,0.02091826742787166,-0.08195084770751906, ,0.00035031449437048694, ,0.0016285578750678592,0.0013015653544541205,-0.005248309837419823,0.00357370035357382,-0.0036533262686407977,-0.004236908987809751, ,0.005647214293252782, ,0.005110589306558543, ,3.5170123993246196e-05, ,0.2034553975714447,-0.23101010846667777,0.09383065536000001,1.8089951424409914,0.7748655901698127,-1.2229599742596546, ,0.006627727926544336,0.0,0.005596911988756149,0.003318800976912164,0.0023535336161789643,-0.003007969671091652, ,0.5716681480407715
0.010551596672470846,0.02087436414237836,-0.08174013116977014, ,0.010801574048562818,0.020937835188155094,-0.08204333785740216, ,0.00039805974128841724, ,0.0016369698046554404,0.0013445117474341222,-0.005434469031800974,0.0010215416785254335,-0.00331018119767847,-0.0023791518567797747, ,0.005832738262424078, ,0.0034642231773298767, ,3.593044512059961e-05, ,0.20350945670156428,-0.23101010846667777,0.09387991438000001,1.8089951424409914,0.7748655901698127,-1.2230416529997952, ,0.006265207224236236,0.0,0.0057880855813953495,0.0031817176181974677,0.0023535336161789643,5.143872109710564e-05, ,0.5878410339355469
0.010595308438424267,0.02091069208263766,-0.08188117369841601, ,0.010834602304223954,0.020956837705287647,-0.08213615786004935, ,0.00035271503424574017, ,0.0020424779415227543,0.0015468127572537964,-0.006286054393540347,0.001085691384534419,-0.006334996279123111,-0.0013917047470091597, ,0.006788138602456348, ,0.0064273551188609125, ,3.6474621166322396e-05, ,0.2036793568247972,-0.231017831199552,0.09403028402000001,1.8092048323844763,0.7748655901698127,-1.2230416529997952, ,0.008996876849322199,1.3378277750505761e-05,0.006709693142375738,0.0019088555294659653,0.0023535336161789643,-0.00034467964299758755, ,0.601794958114624
0.01060984020606269,0.020922003954815808,-0.08192480951809923, ,0.010868024286977716,0.02097528015969031,-0.08222930358668222, ,0.0004027580060606971, ,0.0020370651154458276,0.001539172097200274,-0.006585084613788457,-0.0008584988080766772,-0.007805571358914437,0.00729786638305205, ,0.007062720750540806, ,0.007852639814744995, ,3.7187451705325354e-05, ,0.203741138687791,-0.23101010846667777,0.09407695046,1.8094145223279605,0.7748655901698127,-1.2230416529997952, ,0.008356493407239488,0.0002262340563098058,0.006995525480895917,-0.007308208897077814,0.0023535336161789643,-0.0004405295072610509, ,0.6156070232391357
0.010637112545829983,0.02094125301898023,-0.08200644963084562, ,0.010901836639772067,0.020993167712782885,-0.08232277092408975, ,0.0004157320554223847, ,0.0019960877043234695,0.0014216601777368905,-0.0059100801976354695,-0.0002483594598080681,-0.00894011869962446,0.007231912951851949, ,0.0063980099817675445, ,0.00894356738522869, ,3.791702498256184e-05, ,0.2038647024137786,-0.23100238573380352,0.09416380189000001,1.8094145223279605,0.7748655901698127,-1.2230416529997952, ,0.009506938613757341,-0.00024508398788877436,0.0063109395879556275,-0.007236003794202319,0.0023535336161789643,-0.0006043520703290421, ,0.6287610530853271
0.010682182812561601,0.020976324363009457,-0.08214679010750141, ,0.010936036019216437,0.021010505507012008,-0.08241655577460512, ,0.00037199908102329487, ,0.002517469451718916,0.0018408210649713196,-0.007914234170842652,0.0009400062665088453,-0.008263933821029376,0.005849360475458397, ,0.00850654907377331, ,0.008317222068133883, ,3.845219880155415e-05, ,0.20406549346850844,-0.23101010846667777,0.09431417153,1.8094145223279605,0.7750022266695782,-1.2231530709034917, ,0.010877333225425188,0.0005932472667353209,0.008423485732416712,-0.006478268958904226,0.004341827782350999,-0.002409924457626479, ,0.6419310569763184
0.010695699315706094,0.0209861189075661,-0.08218690658597481, ,0.01097061909555913,0.02102729866587909,-0.08251065405608364, ,0.0004267189733900084, ,0.002587016187540574,0.0018771338492282116,-0.00805577444689899,0.0010059206465898118,-0.008687213037967776,0.005664837664383308, ,0.008666705612966558, ,0.008745256587886581, ,3.9162364673223295e-05, ,0.20412727533150224,-0.23101010846667777,0.0943569491,1.8094145223279605,0.7750022266695782,-1.2230713921633511, ,0.011339419416330383,0.0005932472667353209,0.008577712180936998,-0.006308059717455738,0.004341827782350999,-0.0024495139124270215, ,0.6571791172027588
0.010728911499414132,6.9072057150122e-310,-0.08238733488546487, ,0.01100558255266515,0.021043552293968457,-0.08260506170188057, ,0.00041687180145582513, ,0.002661177517707575,0.0019556979229171535,-0.008340050583109545,0.0024047904991455833,-0.007543092598681321,0.004992287041187144, ,0.008970120616540258, ,0.00791714739960502, ,3.980739167115409e-05, ,0.20441301644784854,-0.2309946630009293,0.09457083695000001,1.8094145223279605,0.7751388631693437,-1.2231828100670474, ,0.012101617702811419,0.0006400691635733642,0.006706868008421054,-0.005587836177605172,0.005410396540920139,-0.0034819504138464985, ,0.670922040939331
0.010784788885956579,0.02104801590900451,-0.08244777495877142, ,0.011040923087993619,0.021059271476975495,-0.08269977466082894, ,0.0003594930696141101, ,0.002333888219957239,0.0013560602576054197,-0.005800892856742088,0.002046690279330709,-0.01030117817476304,0.004499489881499625, ,0.006398147511656279, ,0.010502533328635525, ,4.0226310836387375e-05, ,0.20455202563958458,-0.23098694026805508,0.09463565145000001,1.8094145223279605,0.7751388631693437,-1.2231828100670474, ,0.013829341527028676,0.0005143696761091421,0.00624904335817968,-0.005336783523281929,0.005036000597424653,-0.0032302466118024477, ,0.6841609477996826
0.010806707166055385,0.02106068782151853,-0.08250404519376937, ,0.011076637412575434,0.02107446128173447,-0.08279478889721714, ,0.0003969684462110539, ,0.0024030739729526732,0.0013424802964587558,-0.005930935552396372,-0.0014848605700471368,-0.014602536853341137,0.004576249688179858, ,0.006538578927606655, ,0.014677836561531108, ,4.089469613341508e-05, ,0.2046833120984464,-0.23097149480230664,0.09469657708000001,1.8094145223279605,0.7752754996691091,-1.2232125492306034, ,0.013963646491829131,0.0009786190231793415,0.006353734152373355,-0.005125419290384796,0.0005670531760931094,-0.00046239384259074876, ,0.6987349987030029
0.010829849554449966,0.021074640413031153,-0.08255982540708602, ,0.011112722250990976,0.021089126756246905,-0.0828901003907663, ,0.00043509583017210986, ,0.0025147382178323007,0.0013242399134752334,-0.0058152629176724015,0.000972212658173584,-0.013694763544621935,0.0038436127122923962, ,0.00647261944303255, ,0.01372922937915432, ,4.166859663510982e-05, ,0.20483004402305668,-0.23097149480230664,0.09475750271000001,1.8094145223279605,0.7754121361688746,-1.2233239671343, ,0.015753144349015733,0.0009786190231793415,0.0062687176387249115,-0.004929589785362799,0.0033811398001204565,-0.002757092792047959, ,0.7102720737457275
0.010882569388926983,0.02110566325591794,-0.08269259900128711, ,0.011149174341347518,0.021103272929709576,-0.08298570513660834, ,0.00039622609817815377, ,0.0028498094920020246,0.0017835941549199101,-0.007655227204484978,0.008038764983716076,-0.006779412502184019,0.0015789207928693144, ,0.008360928525137395, ,0.010515804774157728, ,4.228867292224713e-05, ,0.20514667607089987,-0.23094832660368397,0.09490139090000001,1.8094145223279605,0.7756854091684054,-1.2233834454614116, ,0.015677670834044404,0.0009098576478405073,0.008240461210553544,-0.004544307737359093,0.01054742845400481,-0.00952655332353288, ,0.7220001220703125
0.010912098214693659,0.021125499301653288,-0.0827756165473838, ,0.01118599043525698,0.021116904812542244,-0.08308159914526406, ,0.0004107507321158864, ,0.0029258037500988336,0.002009417317404484,-0.008621000393310636,0.012101690107246455,0.0031017567362091924,0.0022725780141043006, ,0.009323075314564373, ,0.012492867992681374, ,4.29357747647947e-05, ,0.20530113072838438,-0.23094060387080972,0.09499083491000002,1.8094145223279605,0.7758220456681709,-1.223494863365108, ,0.01489981811249345,0.001106247093764099,0.0092933556126021,-0.004382737221417415,0.02014450475791168,-0.012479036145400205, ,0.7330961227416992
0.010912098214693659,0.021125499301653288,-0.0827756165473838, ,0.011223167297813478,0.02113002739641608,-0.08317777844261973, ,0.0005084473110312778, ,0.0029258037500988336,0.002009417317404484,-0.008621000393310636,0.012101690107246455,0.0031017567362091924,0.0022725780141043006, ,0.009323075314564373, ,0.012492867992681374, ,4.387433207216628e-05, ,0.20530113072838438,-0.23094060387080972,0.09499083491000002,1.8094145223279605,0.7758220456681709,-1.223494863365108, ,0.01489981811249345,0.001106247093764099,0.0092933556126021,-0.004382737221417415,0.02014450475791168,-0.012479036145400205, ,0.7444190979003906
0.01098032386862196,0.021166784433640003,-0.0829578273367601, ,0.011260701707570934,0.021142645654281724,-0.0832742390699061, ,0.00042345105752029314, ,0.003033481802849842,0.0018187346016007725,-0.008233724388525604,0.007561151576095929,-0.0039043724723048347,0.001931636980860916, ,0.008961251291280831, ,0.00850970620624074, ,4.451609118273062e-05, ,0.2056563764405987,-0.23090199020643862,0.09518527841,1.8094145223279605,0.7758220456681709,-1.2231681484045458, ,0.016601984177479143,0.002200050826904765,0.0088542587659811,-0.004075903818780371,0.014450242397901308,-0.0094876878773771, ,0.7559590339660645
0.011010096158750846,0.021185375855077203,-0.08303842710837903, ,0.011298590456520536,0.021154764540397133,-0.08337097708367464, ,0.0004413111130497158, ,0.003459839578139789,0.001957668870274054,-0.008834366672914085,-0.0032396932276424146,-0.01832129439568921,0.004264458620431943, ,0.0096875689325856, ,0.01860552032948814, ,4.519327587974629e-05, ,0.2058185538309574,-0.23088654474069017,0.09527212984000001,1.8094145223279605,0.7759586821679364,-1.2232795663082423, ,0.01906709695769957,0.0022180277366738287,0.009453300605341247,-0.0039543758219436915,0.001813865944223535,0.0008164298159517407, ,0.7675590515136719
0.011043732248939194,0.021205002957665323,-0.08313002514161187, ,0.011336830350068655,0.021166388990355653,-0.08346798855577695, ,0.0004490175995116464, ,0.00332036583585671,0.0017423431556230764,-0.008755138842558605,0.0060013638524429504,-0.00588004231788293,0.0007253623482131813, ,0.009524339615340764, ,0.008401857789073652, ,4.601359543935688e-05, ,0.20601934488568724,-0.23084793107631904,0.09537194417000001,1.8094145223279605,0.7763685916672326,-1.2236138200193314, ,0.018603595678978783,0.004546805027340389,0.009375404072984109,-0.003823446780659401,0.014418222282734417,-0.010330688220827665, ,0.7763819694519043
0.011043732248939194,0.021205002957665323,-0.08313002514161187, ,0.01137541820701405,0.0211775239211144,-0.08356526957334084, ,0.0005479127554500612, ,0.00332036583585671,0.0017423431556230764,-0.008755138842558605,0.0060013638524429504,-0.00588004231788293,0.0007253623482131813, ,0.009524339615340764, ,0.008401857789073652, ,4.7112865450512876e-05, ,0.20601934488568724,-0.23084793107631904,0.09537194417000001,1.8094145223279605,0.7763685916672326,-1.2236138200193314, ,0.018603595678978783,0.004546805027340389,0.009375404072984109,-0.003823446780659401,0.014418222282734417,-0.010330688220827665, ,0.7860500812530518
0.01111538626390976,0.02124326658360179,-0.08331570754065616, ,0.011414350859525808,0.02118817423102182,-0.08366281623874909, ,0.0004614102784252116, ,0.003441769516465249,0.0020160850024816186,-0.009905087394005184,0.01649645260759779,0.0053401093781444255,-0.002373915803157232, ,0.010678067822625082, ,0.017339250891017847, ,4.7927667888193946e-05, ,0.2064132042622727,-0.23076298101470258,0.09557027654000001,1.8094145223279605,0.7765052281669981,-1.223725237923028, ,0.0179593000678408,0.0047145214644218995,0.010633385527369827,-0.0036017767284785744,0.025586960645054387,-0.020668485603724078, ,0.8005411624908447
0.011152549984664589,0.02126333825369983,-0.083417283576338, ,0.011453625153120692,0.021198344799846273,-0.0837606246696167, ,0.0004612521137496273, ,0.0033509941828461336,0.0018268754383945483,-0.009350344035234824,0.011171321147589735,-0.000137111650620074,-0.0016712368430283463, ,0.010099285591472763, ,0.011172159339849632, ,4.87227753872997e-05, ,0.2065985498512541,-0.230708921884583,0.09567786861000001,1.8094145223279605,0.7765052281669981,-1.223725237923028, ,0.017754338925813056,0.005250822760740977,0.010005534874371861,-0.003495903167626858,0.01953622208074811,-0.01619281162206482, ,0.8099360466003418
0.011184449302164213,0.021279545907996023,-0.08350305424482829, ,0.011493237946640814,0.021208040488803877,-0.08385869099876848, ,0.00047638319941477764, ,0.003580361927752925,0.001834629156170291,-0.009886721776394417,0.007320450364613059,-0.004298385177308164,-0.0015800008384154892, ,0.01067389915439547, ,0.008489111508886132, ,4.954345205746173e-05, ,0.2067607272416128,-0.23065486275446342,0.09576860891000001,1.8094145223279605,0.7765052281669981,-1.223725237923028, ,0.018828758245728328,0.0065921016147616,0.010534928253968255,-0.0034085073690936682,0.016242246225743513,-0.01383993563356817, ,0.8188040256500244
0.011211852113625841,0.021292489694344816,-0.08357461963218311, ,0.011533186112231381,0.021217266140586118,-0.08395701137421728, ,0.0005051114392644828, ,0.0037718400609866405,0.0016498720676771373,-0.009373545110864794,-0.007056277557196377,-0.021821648745038853,0.001328441190025797, ,0.010237783120909635, ,0.022934152143748013, ,5.042799854459325e-05, ,0.2069151818990973,-0.23060080362434385,0.09584509002000001,1.8094145223279605,0.7766418646667635,-1.2238366558267244, ,0.021055456303188547,0.0071154725829392,0.009924493158878505,-0.003340203067561362,0.0,-0.0006963831096328333, ,0.8293049335479736
0.011258989847014907,0.021314687005020306,-0.08369247352408492, ,0.011573466535317973,0.021226026579388865,-0.08405558195914094, ,0.0004884710781285255, ,0.003567526399266499,0.001675304259547089,-0.008686495273669685,0.03386045238790592,0.018986851214028707,-0.007342891416585654, ,0.009538820111051774, ,0.038820493369879486, ,5.124497599174468e-05, ,0.20721636848119204,-0.23051585356272739,0.09597342273000001,1.8094145223279605,0.7771884106658253,-1.22428232744151, ,0.023742041921058485,0.005710572023822031,0.009515419068100361,-0.0032259540573917043,0.046102733428739016,-0.03816860220464137, ,0.8379950523376465
0.01129916690954037,0.021331223231935773,-0.08378964417736326, ,0.01161407611458443,0.02123432661093945,-0.08415439893186075, ,0.0004915310707478309, ,0.0038980073933161797,0.0015372777482602238,-0.010069980318555072,0.02102704683974167,0.00775760416896815,-0.007979103951566478, ,0.010906978872709442, ,0.022412429981926323, ,5.219920238375766e-05, ,0.20745577320029301,-0.23043090350111092,0.09607712593,1.8094145223279605,0.7773250471655907,-1.2243120666050658, ,0.02320786049363433,0.010770003145026689,0.010784571103588356,-0.0031413429984378555,0.03361928819504307,-0.03141276329778075, ,0.8445849418640137
0.01129916690954037,0.021331223231935773,-0.08378964417736326, ,0.01165501176195032,0.021242171022525496,-0.08425345848581832, ,0.0005913371015885584, ,0.0038980073933161797,0.0015372777482602238,-0.010069980318555072,0.02102704683974167,0.00775760416896815,-0.007979103951566478, ,0.010906978872709442, ,0.022412429981926323, ,5.341696007125706e-05, ,0.20745577320029301,-0.23043090350111092,0.09607712593,1.8094145223279605,0.7773250471655907,-1.2243120666050658, ,0.02320786049363433,0.010770003145026689,0.010784571103588356,-0.0031413429984378555,0.03361928819504307,-0.03141276329778075, ,0.851099967956543
0.011342048969651665,0.02134820916311203,-0.08389523589586435, ,0.011696270402548508,0.021249564583022473,-0.08435275682955407, ,0.0005869659116753237, ,0.004280106349436881,0.0019370402639534692,-0.011010798704940145,0.013163502936628432,-0.00410465490831521,-0.005291077431231786, ,0.011971178867069793, ,0.013788612679885844, ,5.460227960309471e-05, ,0.20769517791939396,-0.230330507973746,0.09618860687000001,1.8094145223279605,0.7773250471655907,-1.2243120666050658, ,0.024432786189101642,0.008682215469673222,0.011772957516629714,-0.0030647127861825343,0.022318530021729496,-0.02194133850093648, ,0.8580601215362549
0.01138706029780067,0.021368410357567324,-0.08401636411772412, ,0.011737848974702779,0.021256512042921925,-0.08445229018668438, ,0.0005706184944972916, ,0.004977619621298218,0.0023784465399517,-0.013325453600323223,-0.0067313889781512,-0.025078522631683597,-0.004011991576334615, ,0.014422254286071521, ,0.025966198697683615, ,5.572297286945286e-05, ,0.20793458263849493,-0.2302378351792553,0.09631693958000001,1.8092048323844763,0.7774616836653562,-1.2244234845087623, ,0.02506522492299809,0.009849206794922575,0.01407138826855124,0.0,0.0,-0.00351542506326716, ,0.8659379482269287
0.01138706029780067,0.021368410357567324,-0.08401636411772412, ,0.011779744429905434,0.02126301813435963,-0.08455205479587947, ,0.0006725123426243401, ,0.004977619621298218,0.0023784465399517,-0.013325453600323223,-0.0067313889781512,-0.025078522631683597,-0.004011991576334615, ,0.014422254286071521, ,0.025966198697683615, ,5.7103692607201435e-05, ,0.20793458263849493,-0.2302378351792553,0.09631693958000001,1.8092048323844763,0.7774616836653562,-1.2244234845087623, ,0.02506522492299809,0.009849206794922575,0.01407138826855124,0.0,0.0,-0.00351542506326716, ,0.8727610111236572
0.01143969181055009,0.021395889932428764,-0.0841684089736349, ,0.011821953732794967,0.021269087571143454,-0.08465204691084091, ,0.0006293716472250464, ,0.005209414841814824,0.002639042714963184,-0.015101932008467508,0.0376818996008373,0.022139442547600464,-0.016037303590053356, ,0.016191692309141015, ,0.043704458448955597, ,5.8345049163850337e-05, ,0.208212601021967,-0.23012199418614193,0.09648027212000002,1.8092048323844763,0.7780082296644178,-1.2247874773834073, ,0.027206691960570746,0.012455301425183196,0.016187816585365857,0.0,0.052347055111444656,-0.0486097117437211, ,0.8792710304260254
0.011492218979391122,0.02142172590212021,-0.08431952515098093, ,0.011864473861133356,0.021274725048781605,-0.0847522628002799, ,0.000589444502039003, ,0.00561098915007853,0.002734695646245356,-0.01580166911904122,0.02468803752390338,0.007041391725365943,-0.013278752509092365, ,0.016989835386711467, ,0.025672541927776786, ,5.945905280510692e-05, ,0.2084906194054391,-0.2299907077272801,0.09664230837000001,1.8092048323844763,0.7785547756634796,-1.2252331489981931, ,0.028976165361365123,0.013069403878043076,0.016855885206349206,0.0,0.03820865380988102,-0.036789868051829606, ,0.8860390186309814
0.011492218979391122,0.02142172590212021,-0.08431952515098093, ,0.011907301805784087,0.021279935244510613,-0.08485269874789396, ,0.000690414678144167, ,0.00561098915007853,0.002734695646245356,-0.01580166911904122,0.02468803752390338,0.007041391725365943,-0.013278752509092365, ,0.016989835386711467, ,0.025672541927776786, ,6.098711850706936e-05, ,0.2084906194054391,-0.2299907077272801,0.09664230837000001,1.8092048323844763,0.7785547756634796,-1.2252331489981931, ,0.028976165361365123,0.013069403878043076,0.016855885206349206,0.0,0.03820865380988102,-0.036789868051829606, ,0.8904759883880615
0.011551981749564278,0.021448026851601472,-0.08447825943184423, ,0.011950434570689412,0.02128472281732333,-0.08495335105234582, ,0.0006412058219830218, ,0.00605509314023115,0.002490975453121429,-0.01607527209873423,0.0032597231578711436,-0.012247406472584781,-0.008255629474547173, ,0.017357519543220196, ,0.012673740051632057, ,6.236805357347596e-05, ,0.20879180598753386,-0.22985169853554407,0.09680952978000001,1.8092048323844763,0.7785547756634796,-1.2253148277383334, ,0.03202731743451596,0.016310921546660497,0.01701796102564103,0.0,0.02097819364292183,-0.018552424756935335, ,0.8951070308685303
0.011551981749564278,0.021448026851601472,-0.08447825943184423, ,0.011993869172847992,0.021289092407997017,-0.08505421602723959, ,0.0007431356888210878, ,0.00605509314023115,0.002490975453121429,-0.01607527209873423,0.0032597231578711436,-0.012247406472584781,-0.008255629474547173, ,0.017357519543220196, ,0.012673740051632057, ,6.400403130277262e-05, ,0.20879180598753386,-0.22985169853554407,0.09680952978000001,1.8092048323844763,0.7785547756634796,-1.2253148277383334, ,0.03202731743451596,0.016310921546660497,0.01701796102564103,0.0,0.02097819364292183,-0.018552424756935335, ,0.8999249935150146
0.011551981749564278,0.021448026851601472,-0.08447825943184423, ,0.012037602642292648,0.021293048639121497,-0.08515529000110009, ,0.0008474764241586313, ,0.00605509314023115,0.002490975453121429,-0.01607527209873423,0.0032597231578711436,-0.012247406472584781,-0.008255629474547173, ,0.017357519543220196, ,0.012673740051632057, ,6.589736909633338e-05, ,0.20879180598753386,-0.22985169853554407,0.09680952978000001,1.8092048323844763,0.7785547756634796,-1.2253148277383334, ,0.03202731743451596,0.016310921546660497,0.01701796102564103,0.0,0.02097819364292183,-0.018552424756935335, ,0.905764102935791
0.011585110289855885,0.021460154407307,-0.08456483531354801, ,0.012081632022067771,0.021296596115126975,-0.08525656931734923, ,0.0008670530995933342, ,0.006387181650402059,0.0024108501888107075,-0.01672131069628823,-0.003044330773474901,-0.01820114724791568,-0.007907433227493158, ,0.01806129894193451, ,0.018453953608100065, ,6.782212920471209e-05, ,0.20896170611076678,-0.22975130300817917,0.09690027008,1.8092048323844763,0.7785547756634796,-1.2253148277383334, ,0.03387966496196743,0.018877450081255374,0.017639879867109635,0.0,0.016629985979985436,-0.01493461132300104, ,0.9104211330413818
0.011585110289855885,0.021460154407307,-0.08456483531354801, ,0.012125954368207011,0.02129973942231249,-0.08535805033428454, ,0.0009733629095154138, ,0.006387181650402059,0.0024108501888107075,-0.01672131069628823,-0.003044330773474901,-0.01820114724791568,-0.007907433227493158, ,0.01806129894193451, ,0.018453953608100065, ,7.000368819196727e-05, ,0.20896170611076678,-0.22975130300817917,0.09690027008,1.8092048323844763,0.7785547756634796,-1.2253148277383334, ,0.03387966496196743,0.018877450081255374,0.017639879867109635,0.0,0.016629985979985436,-0.01493461132300104, ,0.9149601459503174
0.011694511188724045,0.02149931164952453,-0.08485104351748969, ,0.01217056674971081,0.021302483128873527,-0.08545972942505659, ,0.0007974138810922598, ,0.00603761411633665,0.0023146088933023615,-0.015777010529290415,0.042982162705867306,0.029390707707629412,-0.014150070367142543, ,0.017050638105011864, ,0.0520699436615177, ,7.170681385183339e-05, ,0.20958724747357896,-0.22942694822746174,0.09720489823,1.808785452497507,0.7793745946620723,-1.225983335160512, ,0.03594581119639045,0.01785455156321181,0.016981675394456292,-0.004025523703909766,0.07022210736494384,-0.05843617488820733, ,0.9193730354309082
0.011694511188724045,0.02149931164952453,-0.08485104351748969, ,0.012215466248524005,0.021304831784930367,-0.08556160297764617, ,0.0009022811859290958, ,0.00603761411633665,0.0023146088933023615,-0.015777010529290415,0.042982162705867306,0.029390707707629412,-0.014150070367142543, ,0.017050638105011864, ,0.0520699436615177, ,7.366265807406388e-05, ,0.20958724747357896,-0.22942694822746174,0.09720489823,1.808785452497507,0.7793745946620723,-1.225983335160512, ,0.03594581119639045,0.01785455156321181,0.016981675394456292,-0.004025523703909766,0.07022210736494384,-0.05843617488820733, ,0.9238331317901611
0.011770070153962718,0.021520537747646645,-0.08504312869389194, ,0.01226064995951342,0.021306789922556104,-0.08566366739484282, ,0.0008194052463359705, ,0.008146342212913184,0.0024341610873449995,-0.021350873771116812,0.0015339560037321803,-0.00989365173447759,-0.010655914745769459, ,0.02298146736914768, ,0.010011639664838782, ,7.53859399463404e-05, ,0.20999655231591285,-0.2291643753097381,0.09739286028000001,1.8085757625540226,0.7797845041613686,-1.2263175888716014, ,0.043791851203724405,0.030880879127390425,0.021730984338335608,-0.003728239242930886,0.031312109327154884,-0.026618963302212136, ,0.9286201000213623
0.011770070153962718,0.021520537747646645,-0.08504312869389194, ,0.012306114990445465,0.02130836205580453,-0.08576591909422189, ,0.0009245477563315084, ,0.008146342212913184,0.0024341610873449995,-0.021350873771116812,0.0015339560037321803,-0.00989365173447759,-0.010655914745769459, ,0.02298146736914768, ,0.010011639664838782, ,7.735985799848026e-05, ,0.20999655231591285,-0.2291643753097381,0.09739286028000001,1.8085757625540226,0.7797845041613686,-1.2263175888716014, ,0.043791851203724405,0.030880879127390425,0.021730984338335608,-0.003728239242930886,0.031312109327154884,-0.026618963302212136, ,0.9330899715423584
0.011770070153962718,0.021520537747646645,-0.08504312869389194, ,0.012351858461963704,0.02130955268073841,-0.08586835450812261, ,0.001031498898815501, ,0.008146342212913184,0.0024341610873449995,-0.021350873771116812,0.0015339560037321803,-0.00989365173447759,-0.010655914745769459, ,0.02298146736914768, ,0.010011639664838782, ,7.958518587365423e-05, ,0.20999655231591285,-0.2291643753097381,0.09739286028000001,1.8085757625540226,0.7797845041613686,-1.2263175888716014, ,0.043791851203724405,0.030880879127390425,0.021730984338335608,-0.003728239242930886,0.031312109327154884,-0.026618963302212136, ,0.9379470348358154
0.011770070153962718,0.021520537747646645,-0.08504312869389194, ,0.012397877507566444,0.021310366275457425,-0.08597097008362545, ,0.0011398261996741893, ,0.008146342212913184,0.0024341610873449995,-0.021350873771116812,0.0015339560037321803,-0.00989365173447759,-0.010655914745769459, ,0.02298146736914768, ,0.010011639664838782, ,8.226934033897205e-05, ,0.20999655231591285,-0.2291643753097381,0.09739286028000001,1.8085757625540226,0.7797845041613686,-1.2263175888716014, ,0.043791851203724405,0.030880879127390425,0.021730984338335608,-0.003728239242930886,0.031312109327154884,-0.026618963302212136, ,0.9426431655883789
0.011834922424361453,0.021542408276190562,-0.08521984940994691, ,0.01244416927358433,0.021310807300126182,-0.08607376228253005, ,0.0010742383019447647, ,0.008436133471411833,0.0030053280686631167,-0.02302002881350488,0.033693322640321176,0.022258085988034533,-0.017292578941431536, ,0.02470064920852009, ,0.04038138083299346, ,8.47743124642392e-05, ,0.21036724349387564,-0.22890952512488869,0.09759508152000002,1.8085757625540226,0.7803310501604305,-1.2267632604863872, ,0.04551412065154474,0.02944366787417647,0.0244682204608295,-0.003728239242930886,0.07271200986269999,-0.0603111485684335, ,0.9469759464263916
0.011871162351271345,0.021554948083044142,-0.08532080316726932, ,0.012490730919157915,0.021310880197002426,-0.08617672758133281, ,0.0010844542156770887, ,0.008558449019685943,0.0030066087621941407,-0.02326885072008168,0.03843280729978843,0.026230322661921775,-0.01047731322566852, ,0.02497451019949964, ,0.046530674640210525, ,8.729239786276022e-05, ,0.21056803454860548,-0.2287859613989011,0.09770267359000001,1.808366072610538,0.7807409596597268,-1.2270975141974763, ,0.04690901708278338,0.029544502353197624,0.024772646220839814,-0.012496179233992124,0.0804861618077195,-0.06661924397351701, ,0.9497570991516113
0.011871162351271345,0.021554948083044142,-0.08532080316726932, ,0.012537559616215287,0.021310589390464985,-0.08627986247120445, ,0.001193143425506041, ,0.008558449019685943,0.0030066087621941407,-0.02326885072008168,0.03843280729978843,0.026230322661921775,-0.01047731322566852, ,0.02497451019949964, ,0.046530674640210525, ,0.0004910715805071486, ,0.21056803454860548,-0.2287859613989011,0.09770267359000001,1.808366072610538,0.7807409596597268,-1.2270975141974763, ,0.04690901708278338,0.029544502353197624,0.024772646220839814,-0.012496179233992124,0.0804861618077195,-0.06661924397351701, ,0.9525470733642578
0.011871162351271345,0.021554948083044142,-0.08532080316726932, ,0.012584652549449512,0.0213099392870416,-0.0863831634579679, ,0.0013029608437202156, ,0.008558449019685943,0.0030066087621941407,-0.02326885072008168,0.03843280729978843,0.026230322661921775,-0.01047731322566852, ,0.02497451019949964, ,0.046530674640210525, ,0.000502043057037055, ,0.21056803454860548,-0.2287859613989011,0.09770267359000001,1.808366072610538,0.7807409596597268,-1.2270975141974763, ,0.04690901708278338,0.029544502353197624,0.024772646220839814,-0.012496179233992124,0.0804861618077195,-0.06661924397351701, ,0.9548470973968506
0.011871162351271345,0.021554948083044142,-0.08532080316726932, ,0.012632006916296493,0.02130893427543759,-0.08648662706207579, ,0.0014137017363514439, ,0.008558449019685943,0.0030066087621941407,-0.02326885072008168,0.03843280729978843,0.026230322661921775,-0.01047731322566852, ,0.02497451019949964, ,0.046530674640210525, ,0.0005141985060945801, ,0.21056803454860548,-0.2287859613989011,0.09770267359000001,1.808366072610538,0.7807409596597268,-1.2270975141974763, ,0.04690901708278338,0.029544502353197624,0.024772646220839814,-0.012496179233992124,0.0804861618077195,-0.06661924397351701, ,0.9571609497070312
0.011871162351271345,0.021554948083044142,-0.08532080316726932, ,0.012679619926912227,0.021307578726563307,-0.08659024981858843, ,0.001525218033817513, ,0.01075727261135253,0.0018295648990168947,-0.026864705446729337,-0.03600660959349082,-0.04447740096443915,0.005219927306546851, ,0.028996182860752534, ,0.05722500448215825, ,0.0005275013946172503, ,0.21157198982225467,-0.228060024508724,0.09819526379000001,1.8079466927235692,0.7812875056587885,-1.227543185812262, ,0.05821898255120907,0.05034320507080678,0.02789634241681261,-0.02109588276747654,0.01960871420466465,-0.016850167501432027, ,0.9601750373840332
0.012056255550967638,0.02160141598935065,-0.08579116650492993, ,0.012727488804150639,0.02130587699356243,-0.08669402827715111, ,0.0011632096792704716, ,0.01075727261135253,0.0018295648990168947,-0.026864705446729337,-0.03600660959349082,-0.04447740096443915,0.005219927306546851, ,0.028996182860752534, ,0.05722500448215825, ,0.0005357573463659934, ,0.21157198982225467,-0.228060024508724,0.09819526379000001,1.8079466927235692,0.7812875056587885,-1.227543185812262, ,0.05821898255120907,0.05034320507080678,0.02789634241681261,-0.02109588276747654,0.01960871420466465,-0.016850167501432027, ,0.9624550342559814
0.012056255550967638,0.02160141598935065,-0.08579116650492993, ,0.012775610783541088,0.021303833411840063,-0.08679795900197215, ,0.00127265803465391, ,0.01075727261135253,0.0018295648990168947,-0.026864705446729337,-0.03600660959349082,-0.04447740096443915,0.005219927306546851, ,0.028996182860752534, ,0.05722500448215825, ,0.0005452047910876333, ,0.21157198982225467,-0.228060024508724,0.09819526379000001,1.8079466927235692,0.7812875056587885,-1.227543185812262, ,0.05821898255120907,0.05034320507080678,0.02789634241681261,-0.02109588276747654,0.01960871420466465,-0.016850167501432027, ,0.9647049903869629
0.012056255550967638,0.02160141598935065,-0.08579116650492993, ,0.01282398311326586,0.02130145229909074,-0.08690203857179994, ,0.0013832644629060485, ,0.01075727261135253,0.0018295648990168947,-0.026864705446729337,-0.03600660959349082,-0.04447740096443915,0.005219927306546851, ,0.028996182860752534, ,0.05722500448215825, ,0.0005558131413638158, ,0.21157198982225467,-0.228060024508724,0.09819526379000001,1.8079466927235692,0.7812875056587885,-1.227543185812262, ,0.05821898255120907,0.05034320507080678,0.02789634241681261,-0.02109588276747654,0.01960871420466465,-0.016850167501432027, ,0.9668569564819336
0.012056255550967638,0.02160141598935065,-0.08579116650492993, ,0.012872603054137888,0.021298737955326285,-0.08700626357990188, ,0.0014948237821959247, ,0.01075727261135253,0.0018295648990168947,-0.026864705446729337,-0.03600660959349082,-0.04447740096443915,0.005219927306546851, ,0.028996182860752534, ,0.05722500448215825, ,0.0005675507743742172, ,0.21157198982225467,-0.228060024508724,0.09819526379000001,1.8079466927235692,0.7812875056587885,-1.227543185812262, ,0.05821898255120907,0.05034320507080678,0.02789634241681261,-0.02109588276747654,0.01960871420466465,-0.016850167501432027, ,0.9691109657287598
0.012167070528667567,0.021625297771856056,-0.08609666422157103, ,0.012921467879578336,0.0212956946629043,-0.08711063063404041, ,0.0013060939698612349, ,0.012410861644612666,0.0038038233330617744,-0.03524194877378073,0.09924068883068442,0.0963968068692361,-0.008184871310968792, ,0.03755653754121442, ,0.1383510185421627, ,0.0005766685916024519, ,0.21219753118506685,-0.2275194332075283,0.09851933629000001,1.8075273128366,0.7827905071562083,-1.2287687827529226, ,0.06832033229551533,0.051295644085659876,0.03765676482269504,-0.040525909142674926,0.18403723378450307,-0.15007002393619503, ,0.9714159965515137
0.012167070528667567,0.021625297771856056,-0.08609666422157103, ,0.012970574875593922,0.021292326686555788,-0.08721513635645216, ,0.0014168517550121958, ,0.012410861644612666,0.0038038233330617744,-0.03524194877378073,0.09924068883068442,0.0963968068692361,-0.008184871310968792, ,0.03755653754121442, ,0.1383510185421627, ,0.0005869147277415952, ,0.21219753118506685,-0.2275194332075283,0.09851933629000001,1.8075273128366,0.7827905071562083,-1.2287687827529226, ,0.06832033229551533,0.051295644085659876,0.03765676482269504,-0.040525909142674926,0.18403723378450307,-0.15007002393619503, ,0.9736621379852295
0.012167070528667567,0.021625297771856056,-0.08609666422157103, ,0.013019921340754961,0.0212886382734135,-0.08731977738382432, ,0.0015286268129425737, ,0.012410861644612666,0.0038038233330617744,-0.03524194877378073,0.09924068883068442,0.0963968068692361,-0.008184871310968792, ,0.03755653754121442, ,0.1383510185421627, ,0.0005982606564789564, ,0.21219753118506685,-0.2275194332075283,0.09851933629000001,1.8075273128366,0.7827905071562083,-1.2287687827529226, ,0.06832033229551533,0.051295644085659876,0.03765676482269504,-0.040525909142674926,0.18403723378450307,-0.15007002393619503, ,0.9760849475860596
0.012167070528667567,0.021625297771856056,-0.08609666422157103, ,0.013069504586172485,0.021284633653039686,-0.08742455036727394, ,0.001641255886796282, ,0.012410861644612666,0.0038038233330617744,-0.03524194877378073,0.09924068883068442,0.0963968068692361,-0.008184871310968792, ,0.03755653754121442, ,0.1383510185421627, ,0.0006106772663636864, ,0.21219753118506685,-0.2275194332075283,0.09851933629000001,1.8075273128366,0.7827905071562083,-1.2287687827529226, ,0.06832033229551533,0.051295644085659876,0.03765676482269504,-0.040525909142674926,0.18403723378450307,-0.15007002393619503, ,0.9784679412841797
0.012270967365340526,0.021657312692610335,-0.08639108828141898, ,0.01311932193547615,0.02128031703745454,-0.08752945197232413, ,0.0014689122143435108, ,0.012410861644612666,0.0038038233330617744,-0.03524194877378073,0.09924068883068442,0.0963968068692361,-0.008184871310968792, ,0.03755653754121442, ,0.1383510185421627, ,0.0006207741481046255, ,0.21276129068488525,-0.22711785109806862,0.09883303847000001,1.8068982430061464,0.7841568721538626,-1.2299646405300275, ,0.07810447864894715,0.054507146213940705,0.04236386042553192,-0.0843572442759897,0.15458224716798266,-0.12462942992412492, ,0.981050968170166
0.012270967365340526,0.021657312692610335,-0.08639108828141898, ,0.01316937072479161,0.02127569262116395,-0.08763447887888212, ,0.0015807538243077246, ,0.014451940214281277,0.004284971044269114,-0.039890476461603076,0.0605072205759564,0.049043830064094684,0.03929230812682297, ,0.04264351844232713, ,0.07788658423264216, ,0.0006319367024790802, ,0.21276129068488525,-0.22711785109806862,0.09883303847000001,1.8068982430061464,0.7841568721538626,-1.2299646405300275, ,0.07810447864894715,0.054507146213940705,0.04236386042553192,-0.0843572442759897,0.15458224716798266,-0.12462942992412492, ,0.9838690757751465
0.012270967365340526,0.021657312692610335,-0.08639108828141898, ,0.013219648302718236,0.021270764581187568,-0.08773962778121736, ,0.0016935092990311043, ,0.014451940214281277,0.004284971044269114,-0.039890476461603076,0.0605072205759564,0.049043830064094684,0.03929230812682297, ,0.04264351844232713, ,0.07788658423264216, ,0.0006441386863474942, ,0.21276129068488525,-0.22711785109806862,0.09883303847000001,1.8068982430061464,0.7841568721538626,-1.2299646405300275, ,0.07810447864894715,0.054507146213940705,0.04236386042553192,-0.0843572442759897,0.15458224716798266,-0.12462942992412492, ,0.986422061920166
0.012270967365340526,0.021657312692610335,-0.08639108828141898, ,0.01327015203030665,0.02126553707708711,-0.08784489538793912, ,0.0018070454423147566, ,0.014451940214281277,0.004284971044269114,-0.039890476461603076,0.0605072205759564,0.049043830064094684,0.03929230812682297, ,0.04264351844232713, ,0.07788658423264216, ,0.0006573535358471222, ,0.21276129068488525,-0.22711785109806862,0.09883303847000001,1.8068982430061464,0.7841568721538626,-1.2299646405300275, ,0.07810447864894715,0.054507146213940705,0.04236386042553192,-0.0843572442759897,0.15458224716798266,-0.12462942992412492, ,0.9888570308685303
0.012478085230351914,0.021713610312726523,-0.08695169591287309, ,0.01332087928103632,0.02126001425099406,-0.08795027842197357, ,0.0013831913195829573, ,0.017426642131978864,0.004877227787340821,-0.04751558916198396,0.027241941527912806,0.018559685256117217,-0.0012354033250863094, ,0.05084492521674231, ,0.03295971922539566, ,0.0006655090165632551, ,0.21384247328727668,-0.2262992414134008,0.09942414671000001,1.8060594832322083,0.7856598736512825,-1.231190237470688, ,0.08868873042847737,0.06993142340344198,0.05009060226415095,-0.03880319543250121,0.12255519942914103,-0.09851351999688962, ,0.9911601543426514
0.012478085230351914,0.021713610312726523,-0.08695169591287309, ,0.013371827440793065,0.021254200227637996,-0.08805577362054257, ,0.0014929234238828058, ,0.017426642131978864,0.004877227787340821,-0.04751558916198396,0.027241941527912806,0.018559685256117217,-0.0012354033250863094, ,0.05084492521674231, ,0.03295971922539566, ,0.0006747025099779168, ,0.21384247328727668,-0.2262992414134008,0.09942414671000001,1.8060594832322083,0.7856598736512825,-1.231190237470688, ,0.08868873042847737,0.06993142340344198,0.05009060226415095,-0.03880319543250121,0.12255519942914103,-0.09851351999688962, ,0.9934260845184326
0.012478085230351914,0.021713610312726523,-0.08695169591287309, ,0.013422993907846719,0.021248099114374454,-0.0881613777351398, ,0.001604020946159573, ,0.017426642131978864,0.004877227787340821,-0.04751558916198396,0.027241941527912806,0.018559685256117217,-0.0012354033250863094, ,0.05084492521674231, ,0.03295971922539566, ,0.0006849148004854075, ,0.21384247328727668,-0.2262992414134008,0.09942414671000001,1.8060594832322083,0.7856598736512825,-1.231190237470688, ,0.08868873042847737,0.06993142340344198,0.05009060226415095,-0.03880319543250121,0.12255519942914103,-0.09851351999688962, ,0.9956319332122803
0.012478085230351914,0.021713610312726523,-0.08695169591287309, ,0.013474376092828757,0.021241715001213097,-0.08826708753151001, ,0.0017162563264452825, ,0.017426642131978864,0.004877227787340821,-0.04751558916198396,0.027241941527912806,0.018559685256117217,-0.0012354033250863094, ,0.05084492521674231, ,0.03295971922539566, ,0.0006961250344632323, ,0.21384247328727668,-0.2262992414134008,0.09942414671000001,1.8060594832322083,0.7856598736512825,-1.231190237470688, ,0.08868873042847737,0.06993142340344198,0.05009060226415095,-0.03880319543250121,0.12255519942914103,-0.09851351999688962, ,0.997931957244873
0.012478085230351914,0.021713610312726523,-0.08695169591287309, ,0.013525971418709712,0.021235051960845887,-0.08837289978962574, ,0.0018294545687724834, ,0.017426642131978864,0.004877227787340821,-0.04751558916198396,0.027241941527912806,0.018559685256117217,-0.0012354033250863094, ,0.05084492521674231, ,0.03295971922539566, ,0.0007083113735418264, ,0.21472286483493827,-0.2255424135917268,0.09994525529,1.8056401033452392,0.7872995116484678,-1.2326089310551858, ,0.09285415025290683,0.08302444580793594,0.055116994878892746,-0.0414945039170368,0.18458020082330232,-0.14968020079096475, ,1.0004019737243652
0.012653539835530681,0.02176130111886365,-0.08744525161647108, ,0.013577777320776903,0.02122811404867478,-0.08847881130366554, ,0.0014855130453632357, ,0.018516374382793712,0.0047582341807091075,-0.052199886119388944,0.06724788134780864,0.07258912144969663,-0.01426066001295757, ,0.05559069187984102, ,0.09894983845730865, ,0.0007165794764335435, ,0.21472286483493827,-0.2255424135917268,0.09994525529,1.8056401033452392,0.7872995116484678,-1.2326089310551858, ,0.09285415025290683,0.08302444580793594,0.055116994878892746,-0.0414945039170368,0.18458020082330232,-0.14968020079096475, ,1.0027000904083252
0.012653539835530681,0.02176130111886365,-0.08744525161647108, ,0.013629791246611941,0.021220905302839897,-0.08858481888199073, ,0.0015949006264523323, ,0.018516374382793712,0.0047582341807091075,-0.052199886119388944,0.06724788134780864,0.07258912144969663,-0.01426066001295757, ,0.05559069187984102, ,0.09894983845730865, ,0.0007258249622232149, ,0.21472286483493827,-0.2255424135917268,0.09994525529,1.8056401033452392,0.7872995116484678,-1.2326089310551858, ,0.09285415025290683,0.08302444580793594,0.055116994878892746,-0.0414945039170368,0.18458020082330232,-0.14968020079096475, ,1.0049941539764404
0.012653539835530681,0.02176130111886365,-0.08744525161647108, ,0.013682010656068423,0.021213429744248082,-0.08869091934712456, ,0.0017057559517739056, ,0.018516374382793712,0.0047582341807091075,-0.052199886119388944,0.06724788134780864,0.07258912144969663,-0.01426066001295757, ,0.05559069187984102, ,0.09894983845730865, ,0.0007360325766977012, ,0.21472286483493827,-0.2255424135917268,0.09994525529,1.8056401033452392,0.7872995116484678,-1.2326089310551858, ,0.09285415025290683,0.08302444580793594,0.055116994878892746,-0.0414945039170368,0.18458020082330232,-0.14968020079096475, ,1.0072541236877441
0.012653539835530681,0.02176130111886365,-0.08744525161647108, ,0.013734433021249298,0.021205691376600014,-0.08879710953572852, ,0.0018178427045512592, ,0.018516374382793712,0.0047582341807091075,-0.052199886119388944,0.06724788134780864,0.07258912144969663,-0.01426066001295757, ,0.05559069187984102, ,0.09894983845730865, ,0.0007471852584281503, ,0.21472286483493827,-0.2255424135917268,0.09994525529,1.8056401033452392,0.7872995116484678,-1.2326089310551858, ,0.09285415025290683,0.08302444580793594,0.055116994878892746,-0.0414945039170368,0.18458020082330232,-0.14968020079096475, ,1.0094780921936035
0.012845657028519676,0.021802699861217738,-0.08796868212157063, ,0.013787055826484684,0.02119769418641898,-0.08890338629858074, ,0.001458058799180886, ,0.019782146975088007,0.0032472922262963373,-0.051663163339907656,0.00881288981441644,0.002792269513053206,0.0613862771143813, ,0.055416249350104224, ,0.009224735632084336, ,0.0007544390700684843, ,0.21571137464283902,-0.22467746750981366,0.10049617854000001,1.8048013435713013,0.7889391496456531,-1.2341093033798238, ,0.10509074369708835,0.09151103332542987,0.054179631020408174,-0.1159547296698466,0.14115368404851317,-0.11749255532094735, ,1.0117239952087402
0.012845657028519676,0.021802699861217738,-0.08796868212157063, ,0.013839876568309244,0.0211894421430789,-0.08900974650055354, ,0.0015647276323192182, ,0.019782146975088007,0.0032472922262963373,-0.051663163339907656,0.00881288981441644,0.002792269513053206,0.0613862771143813, ,0.055416249350104224, ,0.009224735632084336, ,0.0007626238030205119, ,0.21571137464283902,-0.22467746750981366,0.10049617854000001,1.8048013435713013,0.7889391496456531,-1.2341093033798238, ,0.10509074369708835,0.09151103332542987,0.054179631020408174,-0.1159547296698466,0.14115368404851317,-0.11749255532094735, ,1.013988971710205
0.012845657028519676,0.021802699861217738,-0.08796868212157063, ,0.01389289275543991,0.021180939198831975,-0.0891161870205911, ,0.0016733369302996029, ,0.019782146975088007,0.0032472922262963373,-0.051663163339907656,0.00881288981441644,0.002792269513053206,0.0613862771143813, ,0.055416249350104224, ,0.009224735632084336, ,0.0007717309342933028, ,0.21571137464283902,-0.22467746750981366,0.10049617854000001,1.8048013435713013,0.7889391496456531,-1.2341093033798238, ,0.10509074369708835,0.09151103332542987,0.054179631020408174,-0.1159547296698466,0.14115368404851317,-0.11749255532094735, ,1.0163500308990479
0.012845657028519676,0.021802699861217738,-0.08796868212157063, ,0.013946101908753433,0.02117218928883693,-0.08922270475168706, ,0.001783562522918884, ,0.019782146975088007,0.0032472922262963373,-0.051663163339907656,0.00881288981441644,0.002792269513053206,0.0613862771143813, ,0.055416249350104224, ,0.009224735632084336, ,0.0007817490688341501, ,0.21571137464283902,-0.22467746750981366,0.10049617854000001,1.8048013435713013,0.7889391496456531,-1.2341093033798238, ,0.10509074369708835,0.09151103332542987,0.054179631020408174,-0.1159547296698466,0.14115368404851317,-0.11749255532094735, ,1.0190060138702393
0.012845657028519676,0.021802699861217738,-0.08796868212157063, ,0.01399950156126393,0.021163196331187094,-0.08932929660086228, ,0.0018951500552524946, ,0.019782146975088007,0.0032472922262963373,-0.051663163339907656,0.00881288981441644,0.002792269513053206,0.0613862771143813, ,0.055416249350104224, ,0.009224735632084336, ,0.0007926647647794279, ,0.21571137464283902,-0.22467746750981366,0.10049617854000001,1.8048013435713013,0.7889391496456531,-1.2341093033798238, ,0.10509074369708835,0.09151103332542987,0.054179631020408174,-0.1159547296698466,0.14115368404851317,-0.11749255532094735, ,1.0214691162109375
0.012845657028519676,0.021802699861217738,-0.08796868212157063, ,0.014053089258100475,0.021153964226938545,-0.08943595948914242, ,0.002007897752775888, ,0.019782146975088007,0.0032472922262963373,-0.051663163339907656,0.00881288981441644,0.002792269513053206,0.0613862771143813, ,0.055416249350104224, ,0.009224735632084336, ,0.0008044631433036654, ,0.21571137464283902,-0.22467746750981366,0.10049617854000001,1.8048013435713013,0.7889391496456531,-1.2341093033798238, ,0.10509074369708835,0.09151103332542987,0.054179631020408174,-0.1159547296698466,0.14115368404851317,-0.11749255532094735, ,1.0240111351013184
0.012845657028519676,0.021802699861217738,-0.08796868212157063, ,0.01410686255648463,0.021144496860138154,-0.0895426903515359, ,0.0021216438161006045, ,0.019782146975088007,0.0032472922262963373,-0.051663163339907656,0.00881288981441644,0.002792269513053206,0.0613862771143813, ,0.055416249350104224, ,0.009224735632084336, ,0.0008171283420805592, ,0.21571137464283902,-0.22467746750981366,0.10049617854000001,1.8048013435713013,0.7889391496456531,-1.2341093033798238, ,0.10509074369708835,0.09151103332542987,0.054179631020408174,-0.1159547296698466,0.14115368404851317,-0.11749255532094735, ,1.0264661312103271
0.012845657028519676,0.021802699861217738,-0.08796868212157063, ,0.014160819025708184,0.021134798097851203,-0.08964948613701128, ,0.0022362571369765106, ,0.019782146975088007,0.0032472922262963373,-0.051663163339907656,0.00881288981441644,0.002792269513053206,0.0613862771143813, ,0.055416249350104224, ,0.009224735632084336, ,0.0008306438544129015, ,0.21571137464283902,-0.22467746750981366,0.10049617854000001,1.8048013435713013,0.7889391496456531,-1.2341093033798238, ,0.10509074369708835,0.09151103332542987,0.054179631020408174,-0.1159547296698466,0.14115368404851317,-0.11749255532094735, ,1.0288679599761963
0.012980299147217536,0.021819433875524718,-0.0883102025518619, ,0.01421495624711059,0.021124871790189997,-0.08975634380847511, ,0.002024381184159666, ,0.019766827740268212,0.0019252768541884859,-0.04970427461027064,0.010976544729461949,0.011966133668954106,0.041853919566717024, ,0.05352521914398768, ,0.016228663590306756, ,0.0008419055273350408, ,0.21693156643696648,-0.22356539397592534,0.10107562017,1.8037528938538785,0.7905787876428384,-1.2355279969643214, ,0.11658100928559063,0.10591176513222186,0.05072869910828026,-0.0655584739321289,0.17260973459096363,-0.14753988977848656, ,1.0312449932098389
0.013066270520617419,0.02182612976080386,-0.08852169196327436, ,0.014269271814056465,0.021114721770341672,-0.08986326034274944, ,0.0019372968687624654, ,0.020092216540951578,0.0013924215053465658,-0.04826440651535987,0.03547775357912931,0.032538120410541466,0.0012610257571024686, ,0.05229807777975164, ,0.048136663565961975, ,0.0008521428295913719, ,0.21693156643696648,-0.22356539397592534,0.10107562017,1.8037528938538785,0.7905787876428384,-1.2355279969643214, ,0.11658100928559063,0.10591176513222186,0.05072869910828026,-0.0655584739321289,0.17260973459096363,-0.14753988977848656, ,1.0335450172424316
0.013066270520617419,0.02182612976080386,-0.08852169196327436, ,0.014323763331913486,0.021104351854596047,-0.08997023273054969, ,0.002049517472677315, ,0.020092216540951578,0.0013924215053465658,-0.04826440651535987,0.03547775357912931,0.032538120410541466,0.0012610257571024686, ,0.05229807777975164, ,0.048136663565961975, ,0.0008632296318421676, ,0.21693156643696648,-0.22356539397592534,0.10107562017,1.8037528938538785,0.7905787876428384,-1.2355279969643214, ,0.11658100928559063,0.10591176513222186,0.05072869910828026,-0.0655584739321289,0.17260973459096363,-0.14753988977848656, ,1.0358541011810303
0.013066270520617419,0.02182612976080386,-0.08852169196327436, ,0.014378428418029617,0.021093765842374285,-0.09007725797646243, ,0.0021628455511535144, ,0.020092216540951578,0.0013924215053465658,-0.04826440651535987,0.03547775357912931,0.032538120410541466,0.0012610257571024686, ,0.05229807777975164, ,0.048136663565961975, ,0.0008751527136707121, ,0.21693156643696648,-0.22356539397592534,0.10107562017,1.8037528938538785,0.7905787876428384,-1.2355279969643214, ,0.11658100928559063,0.10591176513222186,0.05072869910828026,-0.0655584739321289,0.17260973459096363,-0.14753988977848656, ,1.0381431579589844
0.013439623250575312,0.021809212412720755,-0.0892752287414392, ,0.01443326470171088,0.02108296751625612,-0.09018433309892275, ,0.0022771338912797334, ,0.020427359704790767,-0.003182623476895705,-0.03544789241474171,6.342324624360255e-05,-0.0008294081204084029,-0.049159874282034215, ,0.04103607185576733, ,0.0007974777441052996, ,0.0008878979971035213, ,0.21940284095671833,-0.2214493651683878,0.10187024594,1.8033335139669096,0.7937214271374435,-1.238090608749339, ,0.1464458974667759,0.12602515479212587,0.03730400824355972,-0.004541754476273019,0.15456928120161323,-0.11690491660439425, ,1.040761947631836
0.013439623250575312,0.021809212412720755,-0.0892752287414392, ,0.014488269824198938,0.021071960642008534,-0.09029145513019202, ,0.0016358226930167181, ,0.020427359704790767,-0.003182623476895705,-0.03544789241474171,6.342324624360255e-05,-0.0008294081204084029,-0.049159874282034215, ,0.04103607185576733, ,0.0007974777441052996, ,0.0008946360574270637, ,0.21940284095671833,-0.2214493651683878,0.10187024594,1.8033335139669096,0.7937214271374435,-1.238090608749339, ,0.1464458974667759,0.12602515479212587,0.03730400824355972,-0.004541754476273019,0.15456928120161323,-0.11690491660439425, ,1.0451631546020508
0.013439623250575312,0.021809212412720755,-0.0892752287414392, ,0.014543441438648582,0.021060748968613516,-0.0903986211163359, ,0.0017437380960058965, ,0.020427359704790767,-0.003182623476895705,-0.03544789241474171,6.342324624360255e-05,-0.0008294081204084029,-0.049159874282034215, ,0.04103607185576733, ,0.0007974777441052996, ,0.0009022173256286604, ,0.21940284095671833,-0.2214493651683878,0.10187024594,1.8033335139669096,0.7937214271374435,-1.238090608749339, ,0.1464458974667759,0.12602515479212587,0.03730400824355972,-0.004541754476273019,0.15456928120161323,-0.11690491660439425, ,1.0475270748138428
0.013439623250575312,0.021809212412720755,-0.0892752287414392, ,0.014598777210105425,0.021049336228296217,-0.09050582811720148, ,0.0018534898276431002, ,0.020427359704790767,-0.003182623476895705,-0.03544789241474171,6.342324624360255e-05,-0.0008294081204084029,-0.049159874282034215, ,0.04103607185576733, ,0.0007974777441052996, ,0.0009106356663544519, ,0.21940284095671833,-0.2214493651683878,0.10187024594,1.8033335139669096,0.7937214271374435,-1.238090608749339, ,0.1464458974667759,0.12602515479212587,0.03730400824355972,-0.004541754476273019,0.15456928120161323,-0.11690491660439425, ,1.05007004737854
0.013662074076706124,0.021754276399257026,-0.08967876022804368, ,0.014654274815483335,0.021037726136552904,-0.09061307320639547, ,0.0015397556061037716, ,0.021263585039142864,-0.005715500652221571,-0.0390008002053379,-0.030418537877327415,-0.014622559262598991,0.13111342153814814, ,0.04478693350832462, ,0.033749317808321744, ,0.0009161542623171652, ,0.22099372392880856,-0.21995115499078827,0.10229024390000001,1.8014463044755487,0.7956343381341597,-1.239650459401089, ,0.15135078398480187,0.14667224352159317,0.040531327022900764,-0.20833849541565846,0.19180521937461953,-0.14954510153068418, ,1.0523619651794434
0.013662074076706124,0.021754276399257026,-0.08967876022804368, ,0.014709931943542144,0.02102592239217931,-0.09072035347126181, ,0.0016472468403472423, ,0.021263585039142864,-0.005715500652221571,-0.0390008002053379,-0.030418537877327415,-0.014622559262598991,0.13111342153814814, ,0.04478693350832462, ,0.033749317808321744, ,0.0009225115890826442, ,0.22099372392880856,-0.21995115499078827,0.10229024390000001,1.8014463044755487,0.7956343381341597,-1.239650459401089, ,0.15135078398480187,0.14667224352159317,0.040531327022900764,-0.20833849541565846,0.19180521937461953,-0.14954510153068418, ,1.0545930862426758
0.013662074076706124,0.021754276399257026,-0.08967876022804368, ,0.014765746294865165,0.021013928677298007,-0.09082766601285873, ,0.0017567559924268074, ,0.021263585039142864,-0.005715500652221571,-0.0390008002053379,-0.030418537877327415,-0.014622559262598991,0.13111342153814814, ,0.04478693350832462, ,0.033749317808321744, ,0.0009297033511804386, ,0.22099372392880856,-0.21995115499078827,0.10229024390000001,1.8014463044755487,0.7956343381341597,-1.239650459401089, ,0.15135078398480187,0.14667224352159317,0.040531327022900764,-0.20833849541565846,0.19180521937461953,-0.14954510153068418, ,1.0568630695343018
0.013662074076706124,0.021754276399257026,-0.08967876022804368, ,0.014821715581836835,0.021001748657387288,-0.09093500794593756, ,0.0018679466671773536, ,0.021263585039142864,-0.005715500652221571,-0.0390008002053379,-0.030418537877327415,-0.014622559262598991,0.13111342153814814, ,0.04478693350832462, ,0.033749317808321744, ,0.0009377225248214379, ,0.22099372392880856,-0.21995115499078827,0.10229024390000001,1.8014463044755487,0.7956343381341597,-1.239650459401089, ,0.15135078398480187,0.14667224352159317,0.040531327022900764,-0.20833849541565846,0.19180521937461953,-0.14954510153068418, ,1.0590989589691162
0.0138750222863831,0.021702630997084835,-0.09007480702186815, ,0.014877837528620156,0.020989385981308582,-0.0910423763989192, ,0.0015654224228621421, ,0.02134088769428669,-0.0051917589812723,-0.03870888876242166,0.010301581123081867,0.030551266074705288,0.0008124496636714362, ,0.04450579645530807, ,0.03223996782955504, ,0.0009430420154827998, ,0.2224842113735339,-0.21847611301181138,0.10270376041000001,1.8001881648146416,0.7976838856306414,-1.2413217279565354, ,0.15039134953798858,0.14850851574095583,0.040531327022900764,-0.07666798112800303,0.20779570657397675,-0.16393154018987444, ,1.0613939762115479
0.0138750222863831,0.021702630997084835,-0.09007480702186815, ,0.014934109871134455,0.020976844281334856,-0.09114976851387295, ,0.0016745074136075898, ,0.02134088769428669,-0.0051917589812723,-0.03870888876242166,0.010301581123081867,0.030551266074705288,0.0008124496636714362, ,0.04450579645530807, ,0.03223996782955504, ,0.0009491887835342686, ,0.2224842113735339,-0.21847611301181138,0.10270376041000001,1.8001881648146416,0.7976838856306414,-1.2413217279565354, ,0.15039134953798858,0.14850851574095583,0.040531327022900764,-0.07666798112800303,0.20779570657397675,-0.16393154018987444, ,1.063730001449585
0.0138750222863831,0.021702630997084835,-0.09007480702186815, ,0.014990530357032805,0.02096412717317845,-0.091257181446493, ,0.001785428641423656, ,0.02134088769428669,-0.0051917589812723,-0.03870888876242166,0.010301581123081867,0.030551266074705288,0.0008124496636714362, ,0.04450579645530807, ,0.03223996782955504, ,0.0009561574490166802, ,0.2224842113735339,-0.21847611301181138,0.10270376041000001,1.8001881648146416,0.7976838856306414,-1.2413217279565354, ,0.15039134953798858,0.14850851574095583,0.040531327022900764,-0.07666798112800303,0.20779570657397675,-0.16393154018987444, ,1.0663831233978271
0.0138750222863831,0.021702630997084835,-0.09007480702186815, ,0.015047096745679675,0.02095123825601919,-0.09136461236607737, ,0.001897879715738638, ,0.02134088769428669,-0.0051917589812723,-0.03870888876242166,0.010301581123081867,0.030551266074705288,0.0008124496636714362, ,0.04450579645530807, ,0.03223996782955504, ,0.0009639402776672749, ,0.2224842113735339,-0.21847611301181138,0.10270376041000001,1.8001881648146416,0.7976838856306414,-1.2413217279565354, ,0.15039134953798858,0.14850851574095583,0.040531327022900764,-0.07666798112800303,0.20779570657397675,-0.16393154018987444, ,1.0688960552215576
0.014089986762086391,0.021651470460785863,-0.09046048766519998, ,0.015103806808128594,0.020938181112532653,-0.09147205845550459, ,0.0015999650758332143, ,0.023345371998784913,-0.005059451879410953,-0.0424534485009813,0.008446023893311913,0.02891592298357963,-0.05556368542504783, ,0.048712418711322446, ,0.030121886086486117, ,0.0009691535956850285, ,0.22399014428400768,-0.2169701801013376,0.10310820289000001,1.7999784748711571,0.7997334331271229,-1.2430746752521222, ,0.16002856923856792,0.15895635101921404,0.044493886927374306,-0.01945713044797534,0.20311758992324686,-0.16017128824931312, ,1.071669101715088
0.014089986762086391,0.021651470460785863,-0.09046048766519998, ,0.015160658327099528,0.020924959308917728,-0.09157951691121188, ,0.0017106672696191988, ,0.023345371998784913,-0.005059451879410953,-0.0424534485009813,0.008446023893311913,0.02891592298357963,-0.05556368542504783, ,0.048712418711322446, ,0.030121886086486117, ,0.0009751821621397778, ,0.22399014428400768,-0.2169701801013376,0.10310820289000001,1.7999784748711571,0.7997334331271229,-1.2430746752521222, ,0.16002856923856792,0.15895635101921404,0.044493886927374306,-0.01945713044797534,0.20311758992324686,-0.16017128824931312, ,1.0739190578460693
0.014089986762086391,0.021651470460785863,-0.09046048766519998, ,0.01521764909695663,0.020911576394925174,-0.09168698494317298, ,0.0018230088159567515, ,0.023345371998784913,-0.005059451879410953,-0.0424534485009813,0.008446023893311913,0.02891592298357963,-0.05556368542504783, ,0.048712418711322446, ,0.030121886086486117, ,0.000982019473864108, ,0.22399014428400768,-0.2169701801013376,0.10310820289000001,1.7999784748711571,0.7997334331271229,-1.2430746752521222, ,0.16002856923856792,0.15895635101921404,0.044493886927374306,-0.01945713044797534,0.20311758992324686,-0.16017128824931312, ,1.0761549472808838
0.014089986762086391,0.021651470460785863,-0.09046048766519998, ,0.015274776923685809,0.020898035903885462,-0.09179445977487502, ,0.0019367170541783702, ,0.023345371998784913,-0.005059451879410953,-0.0424534485009813,0.008446023893311913,0.02891592298357963,-0.05556368542504783, ,0.048712418711322446, ,0.030121886086486117, ,0.0009896570545066224, ,0.22399014428400768,-0.2169701801013376,0.10310820289000001,1.7999784748711571,0.7997334331271229,-1.2430746752521222, ,0.16002856923856792,0.15895635101921404,0.044493886927374306,-0.01945713044797534,0.20311758992324686,-0.16017128824931312, ,1.0783491134643555
0.014342919950006205,0.021596451925205963,-0.09093019901658272, ,0.01533203962487212,0.020884341352736507,-0.0919019386432973, ,0.001558761399559607, ,0.025386183100129852,-0.0053272678659666076,-0.047845881599185014,-0.0421919778376431,-0.02053066660153326,-0.008699184171250061, ,0.05442486987868974, ,0.04691929800653742, ,0.0009941737556578365, ,0.22568142278346284,-0.21527890160188243,0.10359820051000002,1.7991397150972188,0.8016463441238391,-1.244634525903872, ,0.1650381592321231,0.16945882421155498,0.049777536000000004,-0.06418619317516312,0.1663178224778792,-0.13098925301750677, ,1.081022024154663
0.014342919950006205,0.021596451925205963,-0.09093019901658272, ,0.015389435029677632,0.02087049624205239,-0.09200941879888828, ,0.0016694073212976885, ,0.025386183100129852,-0.0053272678659666076,-0.047845881599185014,-0.0421919778376431,-0.02053066660153326,-0.008699184171250061, ,0.05442486987868974, ,0.04691929800653742, ,0.0009994905553872841, ,0.22568142278346284,-0.21527890160188243,0.10359820051000002,1.7991397150972188,0.8016463441238391,-1.244634525903872, ,0.1650381592321231,0.16945882421155498,0.049777536000000004,-0.06418619317516312,0.1663178224778792,-0.13098925301750677, ,1.0833120346069336
0.014342919950006205,0.021596451925205963,-0.09093019901658272, ,0.015446960978818826,0.020856504056070733,-0.09211689750554343, ,0.0017817639422889383, ,0.025386183100129852,-0.0053272678659666076,-0.047845881599185014,-0.0421919778376431,-0.02053066660153326,-0.008699184171250061, ,0.05442486987868974, ,0.04691929800653742, ,0.0010056020662224533, ,0.22568142278346284,-0.21527890160188243,0.10359820051000002,1.7991397150972188,0.8016463441238391,-1.244634525903872, ,0.1650381592321231,0.16945882421155498,0.049777536000000004,-0.06418619317516312,0.1663178224778792,-0.13098925301750677, ,1.0855770111083984
0.014342919950006205,0.021596451925205963,-0.09093019901658272, ,0.015504615324544077,0.020842368262721303,-0.0922243720405827, ,0.0018955374249268236, ,0.025386183100129852,-0.0053272678659666076,-0.047845881599185014,-0.0421919778376431,-0.02053066660153326,-0.008699184171250061, ,0.05442486987868974, ,0.04691929800653742, ,0.0010125007899333398, ,0.22568142278346284,-0.21527890160188243,0.10359820051000002,1.7991397150972188,0.8016463441238391,-1.244634525903872, ,0.1650381592321231,0.16945882421155498,0.049777536000000004,-0.06418619317516312,0.1663178224778792,-0.13098925301750677, ,1.0877859592437744
0.014342919950006205,0.021596451925205963,-0.09093019901658272, ,0.015562395930611596,0.02082809231365351,-0.09233183969472891, ,0.0020104961453762163, ,0.025386183100129852,-0.0053272678659666076,-0.047845881599185014,-0.0421919778376431,-0.02053066660153326,-0.008699184171250061, ,0.05442486987868974, ,0.04691929800653742, ,0.0010201776772829005, ,0.22568142278346284,-0.21527890160188243,0.10359820051000002,1.7991397150972188,0.8016463441238391,-1.244634525903872, ,0.1650381592321231,0.16945882421155498,0.049777536000000004,-0.06418619317516312,0.1663178224778792,-0.13098925301750677, ,1.0900981426239014
0.014608304379560899,0.02153502411775676,-0.09143054691017974, ,0.015620300672266621,0.020813679644264924,-0.09243929777208466, ,0.0016006413237453503, ,0.027067675979128215,-0.006266981362098274,-0.05084998699118166,-0.04647603335337549,-0.03046480813369206,0.06683950031875352, ,0.05794527862826535, ,0.05556785248875965, ,0.0010246086974849038, ,0.22741131494728914,-0.21351039577368502,0.1041180128,1.797671885492827,0.8034226186207898,-1.2460829586519255, ,0.17638836720905351,0.17871363758657396,0.052919639601328915,-0.15597883892568948,0.18796722381289305,-0.15702885030812552, ,1.0924019813537598
0.014608304379560899,0.02153502411775676,-0.09143054691017974, ,0.015678327436219157,0.020799133673729087,-0.09254674359011016, ,0.0017124190829581442, ,0.027067675979128215,-0.006266981362098274,-0.05084998699118166,-0.04647603335337549,-0.03046480813369206,0.06683950031875352, ,0.05794527862826535, ,0.05556785248875965, ,0.0010298193822233374, ,0.22741131494728914,-0.21351039577368502,0.1041180128,1.797671885492827,0.8034226186207898,-1.2460829586519255, ,0.17638836720905351,0.17871363758657396,0.052919639601328915,-0.15597883892568948,0.18796722381289305,-0.15702885030812552, ,1.0946431159973145
0.014608304379560899,0.02153502411775676,-0.09143054691017974, ,0.015736474120621617,0.02078445780502363,-0.09265417447960161, ,0.0018257549625029367, ,0.027067675979128215,-0.006266981362098274,-0.05084998699118166,-0.04647603335337549,-0.03046480813369206,0.06683950031875352, ,0.05794527862826535, ,0.05556785248875965, ,0.0010358038602705523, ,0.22741131494728914,-0.21351039577368502,0.1041180128,1.797671885492827,0.8034226186207898,-1.2460829586519255, ,0.17638836720905351,0.17871363758657396,0.052919639601328915,-0.15597883892568948,0.18796722381289305,-0.15702885030812552, ,1.0968599319458008
0.014608304379560899,0.02153502411775676,-0.09143054691017974, ,0.015794738635046313,0.020769655424958275,-0.09276158778466767, ,0.0019403827684410333, ,0.027067675979128215,-0.006266981362098274,-0.05084998699118166,-0.04647603335337549,-0.03046480813369206,0.06683950031875352, ,0.05794527862826535, ,0.05556785248875965, ,0.001042554449137496, ,0.22741131494728914,-0.21351039577368502,0.1041180128,1.797671885492827,0.8034226186207898,-1.2460829586519255, ,0.17638836720905351,0.17871363758657396,0.052919639601328915,-0.15597883892568948,0.18796722381289305,-0.15702885030812552, ,1.0991079807281494
0.014608304379560899,0.02153502411775676,-0.09143054691017974, ,0.015853118900462995,0.020754729904202837,-0.09286898086270852, ,0.0020560920424295263, ,0.027067675979128215,-0.006266981362098274,-0.05084998699118166,-0.04647603335337549,-0.03046480813369206,0.06683950031875352, ,0.05794527862826535, ,0.05556785248875965, ,0.0010500621350137333, ,0.22741131494728914,-0.21351039577368502,0.1041180128,1.797671885492827,0.8034226186207898,-1.2460829586519255, ,0.17638836720905351,0.17871363758657396,0.052919639601328915,-0.15597883892568948,0.18796722381289305,-0.15702885030812552, ,1.1014080047607422
0.01487004505923147,0.02147740923246266,-0.09191285005671804, ,0.01591161284921662,0.02073968459731536,-0.09297635108439252, ,0.0016613655631144038, ,0.027302328289089725,-0.006142517709123077,-0.04934331906053355,-0.008388593974735032,0.005987325989891946,-0.03790836945022562, ,0.05672663210275869, ,0.010291942025554626, ,0.0010545570131615324, ,0.22741131494728914,-0.21351039577368502,0.1041180128,1.797671885492827,0.8034226186207898,-1.2460829586519255, ,0.17638836720905351,0.17871363758657396,0.052919639601328915,-0.15597883892568948,0.18796722381289305,-0.15702885030812552, ,1.104727029800415
0.01487004505923147,0.02147740923246266,-0.09191285005671804, ,0.015970218425004665,0.020724522842770272,-0.09308369583363388, ,0.0017742883598396329, ,0.027302328289089725,-0.006142517709123077,-0.04934331906053355,-0.008388593974735032,0.005987325989891946,-0.03790836945022562, ,0.05672663210275869, ,0.010291942025554626, ,0.0010598105266409346, ,0.22912576164536697,-0.21179594907560717,0.10462226961000001,1.7968331257188892,0.805335529617506,-1.2478061667839566, ,0.18007009783391037,0.17972905598195224,0.05171692051948052,-0.05121371531991617,0.2066194079642791,-0.17274078642520543, ,1.1072781085968018
0.01487004505923147,0.02147740923246266,-0.09191285005671804, ,0.016028933582854912,0.020709247962986052,-0.0931910125075713, ,0.0018885956679186887, ,0.027302328289089725,-0.006142517709123077,-0.04934331906053355,-0.008388593974735032,0.005987325989891946,-0.03790836945022562, ,0.05672663210275869, ,0.010291942025554626, ,0.0010658162160704836, ,0.22912576164536697,-0.21179594907560717,0.10462226961000001,1.7968331257188892,0.805335529617506,-1.2478061667839566, ,0.18007009783391037,0.17972905598195224,0.05171692051948052,-0.05121371531991617,0.2066194079642791,-0.17274078642520543, ,1.1098010540008545
0.01487004505923147,0.02147740923246266,-0.09191285005671804, ,0.01608775628910304,0.020693863264353744,-0.09329829851654488, ,0.002004053980892638, ,0.027302328289089725,-0.006142517709123077,-0.04934331906053355,-0.008388593974735032,0.005987325989891946,-0.03790836945022562, ,0.05672663210275869, ,0.010291942025554626, ,0.0010725661280476214, ,0.22912576164536697,-0.21179594907560717,0.10462226961000001,1.7968331257188892,0.805335529617506,-1.2478061667839566, ,0.18007009783391037,0.17972905598195224,0.05171692051948052,-0.05121371531991617,0.2066194079642791,-0.17274078642520543, ,1.1121001243591309
0.01503307943146906,0.021437847968964793,-0.09219967477957336, ,0.016146684521369956,0.020678372037264563,-0.09340555128407396, ,0.0018086066822810608, ,0.026833112113283188,-0.007098477953639274,-0.0461576343366484,-0.0017834104275569747,0.012494536632133806,-0.06660915377863712, ,0.05386029616051207, ,0.012612869703409172, ,0.0010778235605778603, ,0.23021466698063264,-0.21070704374034152,0.10492300889000002,1.796623435775405,0.8065652581153949,-1.2488906066573648, ,0.181447306995164,0.18319872887735672,0.0484158404863222,-0.024312501471284442,0.20892853946499362,-0.1771626471806443, ,1.1146631240844727
0.01503307943146906,0.021437847968964793,-0.09219967477957336, ,0.01620571626853967,0.020662777556138382,-0.09351276824683477, ,0.0019235450996164523, ,0.026833112113283188,-0.007098477953639274,-0.0461576343366484,-0.0017834104275569747,0.012494536632133806,-0.06660915377863712, ,0.05386029616051207, ,0.012612869703409172, ,0.0010838215856774247, ,0.23021466698063264,-0.21070704374034152,0.10492300889000002,1.796623435775405,0.8065652581153949,-1.2488906066573648, ,0.181447306995164,0.18319872887735672,0.0484158404863222,-0.024312501471284442,0.20892853946499362,-0.1771626471806443, ,1.1172230243682861
0.01503307943146906,0.021437847968964793,-0.09219967477957336, ,0.01626484953073671,0.02064708307945139,-0.09361994685463826, ,0.0020395439331247892, ,0.026833112113283188,-0.007098477953639274,-0.0461576343366484,-0.0017834104275569747,0.012494536632133806,-0.06660915377863712, ,0.05386029616051207, ,0.012612869703409172, ,0.0010905520247439554, ,0.23021466698063264,-0.21070704374034152,0.10492300889000002,1.796623435775405,0.8065652581153949,-1.2488906066573648, ,0.181447306995164,0.18319872887735672,0.0484158404863222,-0.024312501471284442,0.20892853946499362,-0.1771626471806443, ,1.1194491386413574
0.01503307943146906,0.021437847968964793,-0.09219967477957336, ,0.016324082319303726,0.020631291849764317,-0.09372708457040779, ,0.002156432678975643, ,0.026833112113283188,-0.007098477953639274,-0.0461576343366484,-0.0017834104275569747,0.012494536632133806,-0.06660915377863712, ,0.05386029616051207, ,0.012612869703409172, ,0.0010980057356127085, ,0.23021466698063264,-0.21070704374034152,0.10492300889000002,1.796623435775405,0.8065652581153949,-1.2488906066573648, ,0.181447306995164,0.18319872887735672,0.0484158404863222,-0.024312501471284442,0.20892853946499362,-0.1771626471806443, ,1.1216650009155273
0.01503307943146906,0.021437847968964793,-0.09219967477957336, ,0.016383412656779124,0.020615407093750454,-0.09383417887015659, ,0.0022740739730125145, ,0.026833112113283188,-0.007098477953639274,-0.0461576343366484,-0.0017834104275569747,0.012494536632133806,-0.06660915377863712, ,0.05386029616051207, ,0.012612869703409172, ,0.0011061728761502072, ,0.23021466698063264,-0.21070704374034152,0.10492300889000002,1.796623435775405,0.8065652581153949,-1.2488906066573648, ,0.181447306995164,0.18319872887735672,0.0484158404863222,-0.024312501471284442,0.20892853946499362,-0.1771626471806443, ,1.1239171028137207
0.015495004269456058,0.021279431117534046,-0.09292271182818462, ,0.016442838576874477,0.02059943202222375,-0.09394122724296583, ,0.001548600107868105, ,0.026415241590850753,-0.010264345101460895,-0.03989177326177053,-0.09309544428609365,-0.09489799713507571,0.010590037181140566, ,0.04893337657093986, ,0.13293716780833031, ,0.001109224098437917, ,0.23342732385631004,-0.2074480504674188,0.10567356080000001,1.795155606171013,0.8090247151111729,-1.2512228438844628, ,0.1842659059387782,0.19287996251721704,0.041159719689922485,-0.09789683900061408,0.11496002354339496,-0.11767211859250265, ,1.1261789798736572
0.015495004269456058,0.021279431117534046,-0.09292271182818462, ,0.01650235812445245,0.020583369830166728,-0.09404822719096186, ,0.0016631439915999774, ,0.026415241590850753,-0.010264345101460895,-0.03989177326177053,-0.09309544428609365,-0.09489799713507571,0.010590037181140566, ,0.04893337657093986, ,0.13293716780833031, ,0.00111301807030889, ,0.23342732385631004,-0.2074480504674188,0.10567356080000001,1.795155606171013,0.8090247151111729,-1.2512228438844628, ,0.1842659059387782,0.19287996251721704,0.041159719689922485,-0.09789683900061408,0.11496002354339496,-0.11767211859250265, ,1.1284239292144775
0.015495004269456058,0.021279431117534046,-0.09292271182818462, ,0.016561969355503952,0.020567223696758723,-0.09415517622929415, ,0.0017789385613491222, ,0.026415241590850753,-0.010264345101460895,-0.03989177326177053,-0.09309544428609365,-0.09489799713507571,0.010590037181140566, ,0.04893337657093986, ,0.13293716780833031, ,0.0011175481416765105, ,0.23342732385631004,-0.2074480504674188,0.10567356080000001,1.795155606171013,0.8090247151111729,-1.2512228438844628, ,0.1842659059387782,0.19287996251721704,0.041159719689922485,-0.09789683900061408,0.11496002354339496,-0.11767211859250265, ,1.1306591033935547
0.015495004269456058,0.021279431117534046,-0.09292271182818462, ,0.016621670337126013,0.02055099678540369,-0.09426207188611321, ,0.0018957527183257727, ,0.026415241590850753,-0.010264345101460895,-0.03989177326177053,-0.09309544428609365,-0.09489799713507571,0.010590037181140566, ,0.04893337657093986, ,0.13293716780833031, ,0.0011228062807079242, ,0.23342732385631004,-0.2074480504674188,0.10567356080000001,1.795155606171013,0.8090247151111729,-1.2512228438844628, ,0.1842659059387782,0.19287996251721704,0.041159719689922485,-0.09789683900061408,0.11496002354339496,-0.11767211859250265, ,1.1329121589660645
0.015756010801765592,0.021183445263311035,-0.09335497909922516, ,0.016681459147499317,0.020534692243758455,-0.0943689117025479, ,0.0015183525430810514, ,0.02651052348620827,-0.00872461948591285,-0.04697212418367382,0.040122104961325386,0.01694734763912482,0.0167859293338676, ,0.05463796565588113, ,0.043551891265949945, ,0.0011254609536097574, ,0.23514177055438787,-0.20561004004335334,0.10610652166000001,1.7936877765666213,0.810937626107889,-1.2535178031974779, ,0.17508660804145898,0.18828758245728333,0.04931520594427245,-0.16064058632589603,0.23544934919614816,-0.26615455220616985, ,1.1351161003112793
0.015756010801765592,0.021183445263311035,-0.09335497909922516, ,0.016741333875865624,0.020518313203760633,-0.09447569323268268, ,0.0016337877420054081, ,0.02651052348620827,-0.00872461948591285,-0.04697212418367382,0.040122104961325386,0.01694734763912482,0.0167859293338676, ,0.05463796565588113, ,0.043551891265949945, ,0.0011288497988657283, ,0.23514177055438787,-0.20561004004335334,0.10610652166000001,1.7936877765666213,0.810937626107889,-1.2535178031974779, ,0.17508660804145898,0.18828758245728333,0.04931520594427245,-0.16064058632589603,0.23544934919614816,-0.26615455220616985, ,1.1375210285186768
0.015756010801765592,0.021183445263311035,-0.09335497909922516, ,0.016801292622505536,0.020501862781656728,-0.09458241404353708, ,0.0017503614788338608, ,0.02651052348620827,-0.00872461948591285,-0.04697212418367382,0.040122104961325386,0.01694734763912482,0.0167859293338676, ,0.05463796565588113, ,0.043551891265949945, ,0.0011329657702562458, ,0.23514177055438787,-0.20561004004335334,0.10610652166000001,1.7936877765666213,0.810937626107889,-1.2535178031974779, ,0.17508660804145898,0.18828758245728333,0.04931520594427245,-0.16064058632589603,0.23544934919614816,-0.26615455220616985, ,1.1398301124572754
0.015756010801765592,0.021183445263311035,-0.09335497909922516, ,0.016861333498716033,0.020485344078030147,-0.09468907171504107, ,0.0018678561606448464, ,0.02651052348620827,-0.00872461948591285,-0.04697212418367382,0.040122104961325386,0.01694734763912482,0.0167859293338676, ,0.05463796565588113, ,0.043551891265949945, ,0.0011378005754561708, ,0.23514177055438787,-0.20561004004335334,0.10610652166000001,1.7936877765666213,0.810937626107889,-1.2535178031974779, ,0.17508660804145898,0.18828758245728333,0.04931520594427245,-0.16064058632589603,0.23544934919614816,-0.26615455220616985, ,1.143754005432129
0.01602128089496264,0.02110474368288047,-0.09382752040276258, ,0.01692145462678792,0.020468760177829278,-0.0947956638400144, ,0.001467000164028346, ,0.026638191130657577,-0.008297427738975308,-0.046010847640647556,-0.007182371491675642,-0.06010441621018754,-0.014027515670890531, ,0.05380928018853108, ,0.060530332084601665, ,0.0011399522067540282, ,0.23690255364971105,-0.203741138687791,0.10661725992000001,1.7924296369057142,0.8128505371046052,-1.2560577987309145, ,0.16976197058760426,0.181447306995164,0.04783426882882884,-0.11814590036384948,0.14003167394581412,-0.2093456157929113, ,1.146111011505127
0.01602128089496264,0.02110474368288047,-0.09382752040276258, ,0.016981654139983635,0.020452114150395596,-0.09490218802414355, ,0.0015821354470677259, ,0.026638191130657577,-0.008297427738975308,-0.046010847640647556,-0.007182371491675642,-0.06010441621018754,-0.014027515670890531, ,0.05380928018853108, ,0.060530332084601665, ,0.001142823526496325, ,0.23690255364971105,-0.203741138687791,0.10661725992000001,1.7924296369057142,0.8128505371046052,-1.2560577987309145, ,0.16976197058760426,0.181447306995164,0.04783426882882884,-0.11814590036384948,0.14003167394581412,-0.2093456157929113, ,1.1484401226043701
0.01602128089496264,0.02110474368288047,-0.09382752040276258, ,0.017041930182514594,0.020435409049491503,-0.09500864188595978, ,0.0016984645353095248, ,0.026638191130657577,-0.008297427738975308,-0.046010847640647556,-0.007182371491675642,-0.06010441621018754,-0.014027515670890531, ,0.05380928018853108, ,0.060530332084601665, ,0.0011464083071983456, ,0.23690255364971105,-0.203741138687791,0.10661725992000001,1.7924296369057142,0.8128505371046052,-1.2560577987309145, ,0.16976197058760426,0.181447306995164,0.04783426882882884,-0.11814590036384948,0.14003167394581412,-0.2093456157929113, ,1.1507771015167236
0.01602128089496264,0.02110474368288047,-0.09382752040276258, ,0.017102280909518916,0.02041864791332845,-0.09511502305681613, ,0.0018157509522681694, ,0.026638191130657577,-0.008297427738975308,-0.046010847640647556,-0.007182371491675642,-0.06010441621018754,-0.014027515670890531, ,0.05380928018853108, ,0.060530332084601665, ,0.0011506989651795623, ,0.23690255364971105,-0.203741138687791,0.10661725992000001,1.7924296369057142,0.8128505371046052,-1.2560577987309145, ,0.16976197058760426,0.181447306995164,0.04783426882882884,-0.11814590036384948,0.14003167394581412,-0.2093456157929113, ,1.1530160903930664
0.016286692718135983,0.021024266029555958,-0.09427129923877667, ,0.017162704487039025,0.020401833764595305,-0.09522132918086675, ,0.0014343554073479698, ,0.02687228517069838,-0.007909565783761938,-0.04526188399717079,-0.12937257543081465,-0.15173241961828499,-0.0269969990144902, ,0.05322893089435799, ,0.19939859697699625, ,0.0011525056941105712, ,0.23857066395054355,-0.20198035559246783,0.10707614658000002,1.7915908771317761,0.8135337196034325,-1.2571866394303803, ,0.16361541648012204,0.17770962838664942,0.04657547228070176,-0.04606138499875871,0.02219981657911788,-0.06081164853621769, ,1.155264139175415
0.016286692718135983,0.021024266029555958,-0.09427129923877667, ,0.017223199091999052,0.020384969610485925,-0.09532755791504224, ,0.0015496536680523903, ,0.02687228517069838,-0.007909565783761938,-0.04526188399717079,-0.12937257543081465,-0.15173241961828499,-0.0269969990144902, ,0.05322893089435799, ,0.19939859697699625, ,0.001155019288882355, ,0.23857066395054355,-0.20198035559246783,0.10707614658000002,1.7915908771317761,0.8135337196034325,-1.2571866394303803, ,0.16361541648012204,0.17770962838664942,0.04657547228070176,-0.04606138499875871,0.02219981657911788,-0.06081164853621769, ,1.1576640605926514
0.016286692718135983,0.021024266029555958,-0.09427129923877667, ,0.017283762912182633,0.02036805844272729,-0.09543370692902951, ,0.0016661179451727545, ,0.02687228517069838,-0.007909565783761938,-0.04526188399717079,-0.12937257543081465,-0.15173241961828499,-0.0269969990144902, ,0.05322893089435799, ,0.19939859697699625, ,0.0011582337458401564, ,0.23857066395054355,-0.20198035559246783,0.10707614658000002,1.7915908771317761,0.8135337196034325,-1.2571866394303803, ,0.16361541648012204,0.17770962838664942,0.04657547228070176,-0.04606138499875871,0.02219981657911788,-0.06081164853621769, ,1.1598820686340332
0.016286692718135983,0.021024266029555958,-0.09427129923877667, ,0.01734439414621035,0.020351103237607904,-0.09553977390524787, ,0.0017835101443202056, ,0.02687228517069838,-0.007909565783761938,-0.04526188399717079,-0.12937257543081465,-0.15173241961828499,-0.0269969990144902, ,0.05322893089435799, ,0.19939859697699625, ,0.0011621417233306567, ,0.23857066395054355,-0.20198035559246783,0.10707614658000002,1.7915908771317761,0.8135337196034325,-1.2571866394303803, ,0.16361541648012204,0.17770962838664942,0.04657547228070176,-0.04606138499875871,0.02219981657911788,-0.06081164853621769, ,1.1621079444885254
0.016286692718135983,0.021024266029555958,-0.09427129923877667, ,0.01740509100351735,0.02033410695600545,-0.09564575653882756, ,0.0019016485325136397, ,0.02687228517069838,-0.007909565783761938,-0.04526188399717079,-0.12937257543081465,-0.15173241961828499,-0.0269969990144902, ,0.05322893089435799, ,0.19939859697699625, ,0.0011667349333255822, ,0.23857066395054355,-0.20198035559246783,0.10707614658000002,1.7915908771317761,0.8135337196034325,-1.2571866394303803, ,0.16361541648012204,0.17770962838664942,0.04657547228070176,-0.04606138499875871,0.02219981657911788,-0.06081164853621769, ,1.164320945739746
0.01656809998927554,0.020937636178549397,-0.09476492082695759, ,0.017465851704330924,0.020317072543414992,-0.09575165253758791, ,0.0014712908739945188, ,0.027316546248035457,-0.008306249850904966,-0.04990557457428259,-0.020453430800813837,-0.04255365410495495,-0.03017681964457782, ,0.057495685569405985, ,0.04721066350813352, ,0.001168614908267983, ,0.24027738791574718,-0.20006511783966016,0.10758688484000001,1.7907521173578382,0.8144901751017904,-1.258783352157661, ,0.16333380646896864,0.18791473575934806,0.05188537954397395,-0.0921915273110401,0.14587758664360706,-0.19267943992894554, ,1.1674461364746094
