NicholasDascanio/dvrk_moveit_final/test/execution/third_experiment_notsharpbends/thirdexp_500vel5.0/thirdexp_500vel5.0_14.csv
Current Position (x),Current Position (y),Current Position (z), ,Planned Position (x),Planned Position (y),Planned Position (z), ,Position Error,,Cartesian linear Velocity(x),Cartesian linear Velocity(y),Cartesian linear Velocity(z),Cartesian Angular Velocity(x),Cartesian Angular Velocity(y),Cartesian Angular Velocity(z), ,Total Linear Velocity, ,Total Angular Velocity, ,MSE, ,Joint 1 Position,Joint 2 Position,Joint 3 Position,Joint 4 Position,Joint 5 Position,Joint 6 Position, ,Joint 1 Velocity,Joint 2 Velocity,Joint 3 Velocity,Joint 4 Velocity,Joint 5 Velocity,Joint 6 Velocity, ,Time Stamp
0.009466610224649284,0.02015603592300364,-0.07823062546727491, ,0.009655025173939888,0.02010937864027498,-0.07838865047201642, ,0.00025029781715259897, ,1.5329421539196505e-05,-3.537615082877678e-05,-7.259628883819612e-06,0.104277411659154,-0.0004461524216682394,0.0010891812227511797, ,3.9232198813188304e-05, ,0.10427836608959705, ,2.0858151429383246e-05, ,0.1351092116345578,-0.2499616949400247,0.08790401748000001,1.6041280676566114,0.12761849078092136,-1.300902901332116, ,0.00018078194713752892,0.00043699292430352844,0.0,-0.0008419301654294879,0.0,-0.10482087309216914, ,0.025087833404541016
0.00948339545001559,0.020169363657554347,-0.07829043072866518, ,0.009707572358694298,0.02013506614829782,-0.07855484751231195, ,0.00034835017008758506, ,0.0010840608521936236,0.0010474556902626906,-0.00423973805354183,0.22033909284368258,-0.04411638833654271,-0.011212762562552912, ,0.0044997477837066735, ,0.22471219716265448, ,2.721127214728109e-05, ,0.13515554803180316,-0.24993852674140205,0.08796623940000001,1.6039183777131267,0.12707194478185962,-1.307073207668716, ,0.0013031147635028273,0.0005876969115945218,0.004418533015256588,0.0009651111014492137,-0.04434699555628788,-0.2207750430833868, ,0.047783851623535156
0.00952759253039636,0.02020625850656042,-0.07844200654859255, ,0.009760253331314259,0.020160344537256004,-0.07872070040820506, ,0.0003659363445283324, ,0.0020025844890091196,0.0021486874074599445,-0.008678220546496812,0.2975761036784074,-0.05500671068192343,-0.012353145453803801, ,0.009161807357952703, ,0.30261737499893454, ,3.0143260367766138e-05, ,0.13522505262767118,-0.24991535854277935,0.0881217942,1.6041280676566114,0.12515903378514345,-1.3092705790634318, ,0.004352893762893977,0.0010117583736274983,0.00932600206088993,0.0009299041613125972,-0.05470496642027546,-0.2738491107163843, ,0.07061600685119629
0.00957952234746416,0.020243338308300128,-0.07860482567424487, ,0.009813066662122272,0.020185216716374167,-0.07888620819398452, ,0.0003702663754274352, ,0.0032269177704863142,0.001489261092108294,-0.006628514745590074,0.10393047068103399,-0.18799571555327055,-0.046813523033892454, ,0.007521177077456228, ,0.21481138654543264, ,3.17821596951417e-05, ,0.13537178455228144,-0.24984585394691133,0.08829420077000001,1.6041280676566114,0.12310948628866183,-1.3151137546009173, ,0.007874596965403734,0.002832387324763957,0.00693763567944251,0.0009147457756249716,-0.18604470133080503,-0.10655912791762567, ,0.0932929515838623
0.009646591028510168,0.02028150901472808,-0.07879214223077685, ,0.009866010928051476,0.020209685586489085,-0.0790513699114268, ,0.0003471349702549056, ,0.0013642979054862606,0.0007966403478358237,-0.0047965075956148155,-0.1292336613299022,0.009567901720914273,0.0030841804514308703, ,0.005049993042916475, ,0.1295873603463476, ,3.234587841251648e-05, ,0.13568841660012462,-0.24971456748804952,0.08848994056000001,1.6043377576000957,0.12133321179171111,-1.3130935706718798, ,0.011261183973124915,0.005514273926715958,0.0049917930178627395,0.00023060945573504207,0.021149273786173997,0.12380273881234903, ,0.12024688720703125
0.009667968614404568,0.020300895531459334,-0.07890833801723779, ,0.0099190847126338,0.02023375404006002,-0.07921618460978462, ,0.0004029104108854631, ,0.0010462232648023359,0.001102698626436126,-0.006191402864097866,-0.014400413457583494,0.06618856493778891,0.01886679906258665, ,0.006375264449896729, ,0.06773697680864761, ,3.3627356263489035e-05, ,0.1359278213192256,-0.2495832810291877,0.08861049553000001,1.6043377576000957,0.12283621328913097,-1.3118688054083236, ,0.011596839980260391,0.006131605162577888,0.006430686927735164,0.00023030999435751594,0.08024201904979525,0.008337671904252116, ,0.1426098346710205
0.00970434279270873,0.020322516841540975,-0.07903820092740191, ,0.009972286605988204,0.020257424961178078,-0.07938065134577207, ,0.00043966251717177964, ,0.0018781679461751571,0.001187479110765896,-0.006728436360532623,0.017398492001706924,-0.0018692337684868485,0.001986044671624213, ,0.00708586461416549, ,0.01749861551736324, ,3.555716345786056e-05, ,0.13619039423694923,-0.24943654910457744,0.08874530969000001,1.6043377576000957,0.12310948628866183,-1.311601568774873, ,0.013224211476932939,0.0067901374627990395,0.006998599086115994,0.0002261129275457265,0.011714813241763142,-0.024100153802016713, ,0.16585493087768555
0.009751597263626581,0.02034674722056406,-0.07918789346282726, ,0.010025615204808908,0.020280701225576295,-0.0795447691835533, ,0.0004547616799901411, ,0.0023974096508245246,0.0013176558373796726,-0.0080942378306748,0.05976956753908864,-0.010411382218963558,0.0007566235160768817, ,0.008544031601016841, ,0.060669580918076484, ,3.7241503568728015e-05, ,0.13652247175054089,-0.24925892624847026,0.08890086449000001,1.6043377576000957,0.12310948628866183,-1.3126633923967006, ,0.01670720802085753,0.009466324351369727,0.008401271898734177,0.00022202743874325288,0.006583630870319522,-0.06912362744394035, ,0.18630695343017578
0.009800723280725506,0.020374621994575196,-0.07934584039198912, ,0.010079069112353465,0.02030358570063907,-0.07970853719472762, ,0.000462678644155495, ,0.0025469948743651683,0.0016214515521624433,-0.00891533703378486,-0.0037591650528876835,-0.012276670822278759,-0.0002719058408867214, ,0.009412731933505185, ,0.012839311198426772, ,3.867414527700827e-05, ,0.13686227199700676,-0.24909674885811156,0.08906549332000001,1.6045474475435806,0.12310948628866183,-1.3129901073572627, ,0.016873567133440747,0.008349405571284363,0.009282524195804198,0.0003487243859200679,0.004667309486320459,-0.004467130768898693, ,0.20686888694763184
0.009857357159383722,0.02040744661929129,-0.07953931134591727, ,0.010132646938431163,0.02032608124541223,-0.07987195445831749, ,0.00043938164133447183, ,0.0024952566600189557,0.001372325261807351,-0.008229404181487505,-0.005891914211858003,-0.013726083677947882,-0.0006918734385423753, ,0.008708195886970367, ,0.014937201493935853, ,3.960592419375722e-05, ,0.13723296317496952,-0.2488882350705075,0.08926641827000001,1.6045474475435806,0.12310948628866183,-1.3129901073572627, ,0.01718836108648266,0.00917641172999382,0.008554678582169711,0.0003487243859200679,0.0034929001802731,-0.0031530188131878474, ,0.22726893424987793
0.009927697819316586,0.020439648644707185,-0.07975342239155028, ,0.010186347299391094,0.020348190710612828,-0.08003502006075523, ,0.0003931429187372974, ,0.002342341926413838,0.0008608867383174932,-0.006288318009592777,0.01674320061249315,0.006995873909439307,0.00016750296506141274, ,0.00676539984525792, ,0.018145991531858256, ,3.994881766098602e-05, ,0.13760365435293231,-0.2487028894815261,0.08942067678000001,1.6047571374870648,0.12365603228772361,-1.3133541002319076, ,0.01997830348599385,0.009789564769392535,0.007210869859665008,0.005882196292632171,0.004379497077773237,-0.0067964769079753694, ,0.24846696853637695
0.009972525971205064,0.020455972736316837,-0.07987303611717861, ,0.010240168818110323,0.020369916938638582,-0.08019773309586922, ,0.0004294955433813092, ,0.0024516555417103754,0.001131166790941215,-0.007503555958631727,0.007988140249669647,-0.0004818714630252388,-0.0019347937442886483, ,0.007974553606845033, ,0.008002659618432603, ,4.055188821643805e-05, ,0.13815969111987647,-0.24842487109805403,0.08961382399000001,1.6047571374870648,0.12379266878748904,-1.313465518135604, ,0.01936277118107953,0.00987827136064146,0.007808240941176472,0.005461402450917619,0.018144435715661898,-0.017047947380180443, ,0.26922082901000977
0.010034274552321336,0.020482837399274,-0.08004563006441091, ,0.010294110123982216,0.020391262763578017,-0.08036009266487097, ,0.000418075549741061, ,0.002850565351417502,0.0012276414968283745,-0.007821516362822517,-0.0071627264979590155,-0.020377768180003305,-0.006106330612889242, ,0.008414805088731252, ,0.021599955037230008, ,4.0976756662782997e-05, ,0.1386385005580784,-0.24820863457757575,0.0897940083,1.6047571374870648,0.12392930528725449,-1.31349525729916, ,0.02159693708658871,0.009726508726200983,0.008168621292307693,0.004979440640583317,0.0,-0.0018034891785146292, ,0.289870023727417
0.010061898286092013,0.020497667520076486,-0.08013498125561135, ,0.010348169852904533,0.020412231011219983,-0.08052209787634257, ,0.0004889888393994735, ,0.0029359264272392754,0.0014636651711839226,-0.008860928546622779,0.004411951439702819,-0.00857470439785322,-0.0026491757800899685, ,0.009448705436611584, ,0.009643174601305586, ,4.2188597159754496e-05, ,0.13887018254430514,-0.24810823905021082,0.08988734118000001,1.6047571374870648,0.1243392147865508,-1.3137478322701086, ,0.022260600881649256,0.010072745982073516,0.009250180905923347,0.004791048800913181,0.01294324924088786,-0.01375003637712089, ,0.30800795555114746
0.010120864848128425,0.02052832051588014,-0.08030827087769954, ,0.010402346647267696,0.020432824499063605,-0.0806837478462232, ,0.00047888876199617044, ,0.0028886262516700065,0.001597277481297962,-0.009183506737209603,0.01379574186444116,0.003995497559702864,-0.0006744213948182584, ,0.009758701397546338, ,0.01436267485604273, ,4.3191292086833466e-05, ,0.13931037831813592,-0.24793061619410367,0.09006882178,1.605176517374034,0.12447585128631626,-1.3139409289139459, ,0.022460814570052258,0.00946876108468036,0.009601453598553349,0.006223933141283089,0.025790376615151406,-0.022336594746050067, ,0.3261690139770508
0.010182483001838894,0.020561649163977427,-0.08049939120379068, ,0.010456639155942932,0.020453046036327898,-0.0808450416977953, ,0.00045434623380634863, ,0.0031613243955996265,0.0015417081962558667,-0.009207362433909405,-0.00808008140474221,-0.02125017961014594,-0.007377528556605736, ,0.009856285257944903, ,0.0227345064340185, ,4.392160012114005e-05, ,0.13975057409196673,-0.24773754787224805,0.09026845044000001,1.605176517374034,0.1246124877860817,-1.3140523468176422, ,0.022773444098505104,0.010153649776582858,0.009618847536231887,0.006223933141283089,0.0,-0.0011341176330439237, ,0.3437628746032715
0.010211288028323922,0.020577023062722823,-0.08059126834075599, ,0.010511046034270447,0.020472898423961657,-0.08100597856167238, ,0.0005221890173669928, ,0.0030879473396412654,0.0015378828211768936,-0.009199736334125923,-0.0004177488595921154,-0.011071872188985905,-0.004629114582430975, ,0.009825255770793209, ,0.011079747378899106, ,4.5009601499470446e-05, ,0.13997453334531923,-0.24763715234488312,0.09036437590000002,1.605176517374034,0.12488576078561256,-1.3143568613651757, ,0.023038830191422863,0.010163109067921996,0.009613042558841281,0.006223933141283089,0.0107993157413774,-0.008806117862544737, ,0.3630218505859375
0.010307557272934685,0.02062304242269515,-0.08087685540702726, ,0.010565565944047778,0.020492384454653307,-0.08116655757578553, ,0.00040934988159961036, ,0.002913193785052328,0.001154191397611839,-0.008102552855780178,0.00014034876463437832,-0.005304251667679155,-0.003233413418138989, ,0.008687359702021103, ,0.005306104843195883, ,4.5308226163736184e-05, ,0.14070047023549634,-0.24730507483129147,0.0906625226,1.605176517374034,0.1252956702849089,-1.3147727938164055, ,0.02332766508320324,0.011305330183282199,0.008450297888594166,0.006223933141283089,0.01705445730279702,-0.010493021611514556, ,0.38073086738586426
0.010366307553162922,0.020638638549691078,-0.0810217239858265, ,0.010620197553517789,0.020511506912840195,-0.08132677788537003, ,0.00041674988541725753, ,0.0026885769959958186,0.0006622574910578603,-0.0064116293678759,-0.00613479796675359,-0.011643125153477549,-0.002423185550890955, ,0.006983983275958561, ,0.013160474862143006, ,4.562200695048397e-05, ,0.1411638342079498,-0.24704250191356783,0.09081289224000001,1.6053862073175185,0.1252956702849089,-1.3147727938164055, ,0.022708050145602003,0.011914242505771598,0.006670356582914574,0.0035479504837475965,0.010537384438740083,-0.005178785678974115, ,0.400022029876709
0.010392453801555138,0.020646216828444003,-0.08109283724694932, ,0.010674939537356922,0.020530268574719172,-0.08148663864295222, ,0.0004983189018762416, ,0.002914011111824186,0.0007843127746222572,-0.007486844518089868,-0.007421122811711577,-0.011751498102137005,-0.005945076575322008, ,0.008072140244465703, ,0.013898587982524045, ,4.635870775861861e-05, ,0.14140323892705078,-0.246911215454706,0.09088678077000001,1.6055958972610032,0.1257055797842052,-1.315025368787354, ,0.023530111965899023,0.01371144943772154,0.007762578713450294,0.006918960233370341,0.010424543362601976,-0.0052080469297987615, ,0.4175388813018799
0.010452465762600848,0.020666857261915736,-0.0812667879796103, ,0.01072979057666352,0.02054867220825545,-0.0816461390083366, ,0.00048454510873527693, ,0.003040488521228012,0.0012363981585130238,-0.009364387994486374,0.0062014435764716465,0.004175556999780881,-0.0017725265280938783, ,0.009922953862906661, ,0.007476169251688084, ,4.720995326087897e-05, ,0.14187432563237848,-0.2466254743383597,0.09106696508,1.6055958972610032,0.12611548928350153,-1.3153596224984434, ,0.023535947807160416,0.013953380614390646,0.009712689951219513,0.006918960233370341,0.02690497367481167,-0.01906866935431831, ,0.4331200122833252
0.010528895212940379,0.020697482580793056,-0.08150118576539851, ,0.010784749358945842,0.02056672057319322,-0.081805278148593, ,0.0004183685267519823, ,0.003016420924235872,0.0011884608347735865,-0.009632851788446648,-0.006174397085611605,-0.007112511345094044,-0.005571453071769814, ,0.010163811682933647, ,0.009418647146109784, ,4.766071661434476e-05, ,0.1423917487349515,-0.24627795135901961,0.09130937131000001,1.6055958972610032,0.12611548928350153,-1.3153596224984434, ,0.021092896545559185,0.01513507839848019,0.009943078352059926,0.006918960233370341,0.012706498460296334,-0.00785753111721424, ,0.4543418884277344
0.010558036141091598,0.02070722249258864,-0.0815877946862459, ,0.010839814578110321,0.020584416421064847,-0.08196405523804204, ,0.00048585226315183224, ,0.003274081780121063,0.001047776812615224,-0.009215345717677757,-0.016842292471615693,-0.021779405488178267,-0.008883790933728703, ,0.009835651704299854, ,0.027531895188276905, ,4.841431684628248e-05, ,0.1426079852554298,-0.24613121943440935,0.09139881532000001,1.6055958972610032,0.12625212578326697,-1.31547104040214, ,0.023471912332048178,0.015574748327338055,0.009526801148325359,0.006918960233370341,0.0,0.0023795739435743366, ,0.46974802017211914
0.010601530548294371,0.020723520083307873,-0.08172838799403592, ,0.010894984934449847,0.02060176249520069,-0.08212246945824339, ,0.0005062021211408229, ,0.0030212437506672526,0.0011798461053563506,-0.009992209947091758,0.0204093428004162,0.02243309901425776,0.002838810245162544, ,0.010505437176054596, ,0.030327959135380167, ,4.92148044214827e-05, ,0.14294778550189569,-0.2458995374481826,0.09154399980000001,1.6055958972610032,0.12679867178232873,-1.3159167120169255, ,0.024085518162048423,0.016285728772691056,0.010323273830200909,0.006918960233370341,0.04635167838314227,-0.03558567523888036, ,0.4877498149871826
0.010682029383809834,0.020744844840753528,-0.08194687218546487, ,0.010950259134631752,0.020618761530739407,-0.08228051999798225, ,0.00044627913136033786, ,0.003087572241415093,0.000697934737751827,-0.008943633335027202,-0.007109313259854459,-0.007119305928661901,-0.0028352853741277265, ,0.00948729637333669, ,0.010061152752528618, ,4.968598729375103e-05, ,0.14332619941273267,-0.24566785546195588,0.09168529541,1.6058055872044876,0.12693530828209418,-1.316028129920622, ,0.021865654736974834,0.014651372789635755,0.00770252007736944,0.00432559579081896,0.021532736593669773,-0.015509963717000952, ,0.5033299922943115
0.010713632902513388,0.020753701979851612,-0.08204008960004915, ,0.011005635891686282,0.02063541625463673,-0.0824382060532561, ,0.0005076947594663515, ,0.003179205004413899,0.0009417007419361547,-0.009239209596438406,-0.01778190674796698,-0.021106429829490597,-0.0060216769669927655, ,0.009816167211003132, ,0.02759850576418867, ,5.040299558258554e-05, ,0.14378184065231192,-0.24531260974974156,0.09186547972,1.6060152771479719,0.12707194478185962,-1.3161395478243183, ,0.022028073713665455,0.016601984177479143,0.009515419068100361,0.0037709327048441646,0.0,0.0018755495980407077, ,0.5194218158721924
0.010777518236212903,0.020778124138046847,-0.08224718746071277, ,0.011061113924994455,0.02065172938567636,-0.08259552682726108, ,0.0004666288272380486, ,0.003387513668483967,0.0013503590671422577,-0.011298118102984223,0.01111367248508705,0.011681749450477907,0.0031585092819477957, ,0.011872076108809228, ,0.016123796148530656, ,5.0897812357194016e-05, ,0.1442452046247654,-0.24499597770189835,0.09207158983000001,1.6060152771479719,0.12775512728068683,-1.3166966373428004, ,0.024796692333020846,0.017754338925813056,0.011626869722627739,0.0037709327048441646,0.038512326080252145,-0.0296703076210962, ,0.5347168445587158
0.010814948582458453,0.020791039224249113,-0.08235760763776437, ,0.011116691960276535,0.020667703634478857,-0.08275248153037938, ,0.0005120411358767732, ,0.00353897576303838,0.0012514995086134978,-0.010791074827753952,0.00014658104326558188,-0.002901959948237943,-0.00034502150240571305, ,0.011425318219184001, ,0.002905634391443904, ,5.177346600860761e-05, ,0.14451550027536325,-0.24480290938004273,0.09219344109000001,1.6060152771479719,0.12775512728068683,-1.3166966373428004, ,0.02593521223243257,0.017541024317647095,0.011154629915966389,0.0037709327048441646,0.022865834440112698,-0.01698006079657148, ,0.5482089519500732
0.010849900353835176,0.02080236262318429,-0.08245916569095246, ,0.011172368729580093,0.020683341703511843,-0.0829090693801662, ,0.0005661847421499245, ,0.0037569508995132722,0.0011680048716240202,-0.010483647475785266,-0.018481571982071468,-0.025596786893966897,-0.006177147521394004, ,0.011197579195434602, ,0.03157156751867458, ,5.2829432728021986e-05, ,0.14477035046021267,-0.24463300925680978,0.09229844058000002,1.6060152771479719,0.12789176378045228,-1.3168080552464967, ,0.026514931980573,0.017586534758797404,0.010843302600408444,0.0037709327048441646,0.0,0.0016069744575013202, ,0.5624089241027832
0.010921614767784717,0.020824847267948175,-0.08267239498221679, ,0.011228142971268205,0.020698646287099706,-0.08306528960133612, ,0.0005140548694748967, ,0.0034475449389285064,0.001303227381621447,-0.010989890266130098,0.028889325345233776,0.02877915667288086,0.00852563585326775, ,0.011591447527195235, ,0.04077784714023919, ,5.362410318409765e-05, ,0.14532638722715682,-0.24426231807884702,0.09251880988000001,1.6060152771479719,0.12857494627927946,-1.3173651447649788, ,0.028076018212565317,0.017463551998246372,0.011385855268048606,0.0037709327048441646,0.05782583026939328,-0.045651742132318686, ,0.5762279033660889
0.010964243668252374,0.02084191834473513,-0.082798415408782, ,0.011284013430007582,0.020713620071433226,-0.08322114142575031, ,0.00054535349351327, ,0.00417813227112842,0.0017185292863726048,-0.01290048930335985,0.0028504581287192195,-0.00305502950294474,-0.0008163408046617981, ,0.013668677933482337, ,0.004178272311515009, ,5.450445308334444e-05, ,0.14561985107637734,-0.24408469522273984,0.09264455001,1.6062249670914566,0.1287115827790449,-1.3174765626686753, ,0.029964301092033716,0.018235384619229588,0.013385555899159665,0.005093992774480515,0.02705111061188802,-0.02060570742250225, ,0.589357852935791
0.011035364847971617,0.020866064526744884,-0.08300255880351703, ,0.011339978856756914,0.020728265734579535,-0.08337662409240286, ,0.0005017001513052528, ,0.00406509643775634,0.0013094560719930767,-0.01155625971271689,-0.00811228761343364,-0.014813377007630885,-0.004201013209770128, ,0.012320179495466058, ,0.01688920195240894, ,5.5176273978749e-05, ,0.14611410598032773,-0.2437603404420224,0.09286103044,1.606434657034941,0.1287115827790449,-1.3174765626686753, ,0.029425408235184736,0.018933946839279885,0.01196755185574756,0.005144197182790823,0.013820305178069318,-0.009892067354880992, ,0.6045420169830322
0.011087155112660743,0.020882542464342336,-0.08315652759117004, ,0.011396038008754933,0.020742585946491695,-0.08353173684740839, ,0.000505745446203273, ,0.0038630084790831853,0.0012454534828538566,-0.011688025636941171,0.02933535120078361,0.028487259809517752,0.007595710324259738, ,0.012372709168860935, ,0.04089115531998472, ,5.58329950401429e-05, ,0.14653113355553585,-0.2434977675242988,0.09302047411000001,1.606434657034941,0.1293947652778721,-1.3180336521871574, ,0.03176998378254797,0.020033131002421527,0.01210396012158055,0.005144197182790823,0.06100836984358555,-0.048424665702017075, ,0.6185300350189209
0.011128315776133182,0.020895065496945187,-0.08327410942924197, ,0.011452189649508572,0.020756583369018533,-0.08368647894398815, ,0.0005423285003595752, ,0.004152386233802186,0.0011903676744696385,-0.011470434478528092,0.004214063260309109,-0.0017739099734592617,-0.0002505371801316134, ,0.01225684110043441, ,0.004572186259587472, ,5.65952396361676e-05, ,0.14685548833625328,-0.24329697646956897,0.09314232537000001,1.606434657034941,0.12980467477716842,-1.3183679058982467, ,0.03214666041953617,0.019999355439087624,0.011887172776119406,0.005144197182790823,0.030111187954315784,-0.023268906438772063, ,0.631497859954834
0.011170933055953475,0.02090601944442015,-0.08338019945114834, ,0.011508432548781268,0.020770260655914616,-0.08384084964245743, ,0.0005869710001938815, ,0.004303568214322166,0.0012065446297204597,-0.01101443252003798,-0.003463425258684382,-0.01525633042917671,-0.0032621742944688873, ,0.011886722553223053, ,0.01564451247487142, ,5.769269379505945e-05, ,0.1471721203840965,-0.24311163088058757,0.09325251002000001,1.606434657034941,0.12980467477716842,-1.3182862271581062, ,0.03326215967699642,0.01852732166311417,0.011459576633093526,0.005144197182790823,0.01733213203245363,-0.014133191504178268, ,0.6439878940582275
0.011256978361770703,0.020922348491290425,-0.08358659140802585, ,0.011564765482581086,0.020783620452849687,-0.08399484821021178, ,0.0005297659831637336, ,0.004276020368477678,0.0008160211549039886,-0.009919967211312462,-0.01013078596716453,-0.02353979175069121,-0.0054661875356902525, ,0.010833096980568445, ,0.0256272223215179, ,5.854837646948653e-05, ,0.14785172087702825,-0.24269460330537945,0.09346639787000001,1.606434657034941,0.13007794777669932,-1.3184273842253584, ,0.033819294924615384,0.019757847503325165,0.010303241604139717,0.005144197182790823,0.009350120693376231,-0.008677952470956742, ,0.6579189300537109
0.011297095193687774,0.02093150706205434,-0.08369013175588358, ,0.011621187233148882,0.02079666539741848,-0.08414847392171478, ,0.0005773174737894758, ,0.003797574091212854,0.0009156497267532424,-0.010739856013695032,0.03534385667567356,0.032742847019759165,0.008704984141713699, ,0.01142823217279277, ,0.048179685478249495, ,5.953992905290829e-05, ,0.14817607565774565,-0.24250925771639806,0.09356621220000001,1.6066443469784255,0.13062449377576107,-1.318873055840144, ,0.033308859795883036,0.020585019860839646,0.011015775601659753,0.005251678046587674,0.06643572073137724,-0.05522743155162005, ,0.6688950061798096
0.011340971574552081,0.020942458589654125,-0.08381052131666526, ,0.011677696588946459,0.02080939811915073,-0.08430172605848381, ,0.0006102220272282072, ,0.004459615336385838,0.0014003795315860707,-0.012722069259839753,0.00425932418778016,-0.004185624335820198,-0.0009404863445540362, ,0.01355360756526367, ,0.0059716798602178454, ,6.061021118292084e-05, ,0.1485081531713373,-0.24228529846304556,0.09368935975,1.6066443469784255,0.13089776677529194,-1.3191775703876776, ,0.03299615492297315,0.021050785616342233,0.013077841970443352,0.005251678046587674,0.02985924669473805,-0.025401769530382548, ,0.6796970367431641
0.011385912426252497,0.020957791185024843,-0.08393400377700427, ,0.011734292344644924,0.020821821239520664,-0.08445460390907789, ,0.0006409999150815746, ,0.004804072279253763,0.0017515338766775615,-0.013999358320640294,-0.004437883780014621,-0.015539410028370724,-0.0031330064401181366, ,0.014903993249298128, ,0.016160678784444295, ,6.174808612961098e-05, ,0.14884023068492896,-0.24208450740831572,0.09382676649,1.6068540369219102,0.13089776677529194,-1.3191775703876776, ,0.03342618582545642,0.020527134232851133,0.014533587153284672,0.004674679089643636,0.017334314562846693,-0.015188527208814747, ,0.6916139125823975
0.011436748034171058,0.020977084258197692,-0.08408248243632128, ,0.011790973301112628,0.02083393737195706,-0.0846071067690832, ,0.0006489971196439171, ,0.005206105380992729,0.001939416600265856,-0.014914895199311292,-0.019019253855215204,-0.033429428218851816,-0.007588289041319224, ,0.015915997260424093, ,0.03846112258076426, ,6.287476390774298e-05, ,0.1491877536642691,-0.24187599362071163,0.09398102500000001,1.6068540369219102,0.1310344032750574,-1.3193706670315146, ,0.03454566492845678,0.020948552220412975,0.015494952840466926,0.004674679089643636,0.0,-0.0010220797100498602, ,0.7031610012054443
0.011537993505461846,0.021014964210643222,-0.08439368974164321, ,0.011847738265403538,0.020845749121852563,-0.08475923394110182, ,0.0005081319950009095, ,0.005182670849769334,0.0018339643306426083,-0.014966657468044299,-0.0032064648518383707,-0.014858782696255941,-0.002486730618772822, ,0.015944414008325435, ,0.015200792383557538, ,6.350589802976967e-05, ,0.14955072210935763,-0.24165203436735913,0.09414306125,1.6068540369219102,0.13144431277435373,-1.3197049207426037, ,0.036275589280761,0.022244946450649502,0.01554030392195122,0.004674679089643636,0.02098143396727739,-0.018115312572177678, ,0.7144289016723633
0.011537993505461846,0.021014964210643222,-0.08439368974164321, ,0.011904586050745333,0.020857259086573997,-0.0849109847347365, ,0.0006533414959226928, ,0.004680449444569216,0.0016222161558438145,-0.014373175963933277,0.02091018851415243,0.016196594992975846,0.0050609231247781845, ,0.015202841167020007, ,0.02644929223317171, ,6.478987842785203e-05, ,0.14990596782157195,-0.2414203523811324,0.09429861605,1.6068540369219102,0.13199085877341546,-1.3201505923573895, ,0.03450797874853483,0.022773444098505104,0.014845117912395157,0.004674679089643636,0.053474433491902326,-0.04458272150808614, ,0.7237160205841064
0.01163818468268629,0.021045080942361863,-0.084671289898013, ,0.011961515476527643,0.02086846985547152,-0.08506235846657902, ,0.0005372791672668357, ,0.005392147051911675,0.001504251775691727,-0.014272787388354762,-0.021728781865409667,-0.03585591742803921,-0.009452711431408634, ,0.015331356204435738, ,0.04192596073625331, ,6.567279796294862e-05, ,0.15062418197887484,-0.24095698840867893,0.09459157759,1.6070637268653947,0.13226413177294635,-1.3203734281647823, ,0.037316925504707346,0.02381951344339126,0.014803728178438665,0.00613567862715701,0.0,-0.0009270021655815739, ,0.7352678775787354
0.01163818468268629,0.021045080942361863,-0.084671289898013, ,0.012018525368290124,0.02087938400988915,-0.08521335446019655, ,0.0006826042045956898, ,0.005392147051911675,0.001504251775691727,-0.014272787388354762,-0.021728781865409667,-0.03585591742803921,-0.009452711431408634, ,0.015331356204435738, ,0.04192596073625331, ,6.698913969568811e-05, ,0.15062418197887484,-0.24095698840867893,0.09459157759,1.6070637268653947,0.13226413177294635,-1.3203734281647823, ,0.037316925504707346,0.02381951344339126,0.014803728178438665,0.00613567862715701,0.0,-0.0009270021655815739, ,0.7467818260192871
0.011742823901414796,0.02107144912090715,-0.08495526366689829, ,0.012075614557710739,0.020890004123173593,-0.08536397204611819, ,0.0005574176597175336, ,0.0041794845825846695,0.0005994797729300721,-0.010324559363402777,0.01368808908097869,0.008537347926277061,-0.006003529806670681, ,0.011154550346053543, ,0.01613226502965446, ,6.788530409486701e-05, ,0.15141962346491997,-0.24043956530610588,0.09488583542000001,1.6074831067523636,0.133083950771539,-1.321041935586961, ,0.03432077452385923,0.02285571810175115,0.010676147131367292,0.01342368654487879,0.040994913912232395,-0.034304141255519546, ,0.7558488845825195
0.011742823901414796,0.02107144912090715,-0.08495526366689829, ,0.012132781882593953,0.020900332760684953,-0.08551421056182198, ,0.0007026874605155959, ,0.0041794845825846695,0.0005994797729300721,-0.010324559363402777,0.01368808908097869,0.008537347926277061,-0.006003529806670681, ,0.011154550346053543, ,0.01613226502965446, ,6.920379413809675e-05, ,0.15141962346491997,-0.24043956530610588,0.09488583542000001,1.6074831067523636,0.133083950771539,-1.321041935586961, ,0.03432077452385923,0.02285571810175115,0.010676147131367292,0.01342368654487879,0.040994913912232395,-0.034304141255519546, ,0.7650558948516846
0.011789649303829915,0.021075037970513466,-0.08506361500539346, ,0.012190026186858861,0.020910372479805713,-0.08566406935172216, ,0.0007402444152568991, ,0.005254895609741081,0.00047270081750279316,-0.012714518170964726,-0.0321082813952426,-0.04106188903555509,0.007303946713195961, ,0.013765767187190699, ,0.0521250432426477, ,7.060388247255147e-05, ,0.1517825919100085,-0.24016926965550803,0.09499731636000001,1.607692796695848,0.13322058727130442,-1.3212350322307977, ,0.038111221509426016,0.030464507723425613,0.013045709680589684,-0.012407336673816539,0.0,0.0001718627666644086, ,0.7739219665527344
0.011840218662987859,0.0210837736463035,-0.0851996415523218, ,0.012247346320527324,0.020920125829951043,-0.08581354776715541, ,0.0007545955061765386, ,0.005564534952862718,0.0012645771774806355,-0.01491990330076687,-0.014020985870020486,-0.02433649597849372,0.012450896570478792, ,0.01597393874984094, ,0.02808651530472698, ,7.201337493907784e-05, ,0.15214556035509708,-0.23989897400491017,0.09513213052000001,1.607692796695848,0.1334938602708353,-1.32137618929805, ,0.03949102853036654,0.028084327185105295,0.01540504015473888,-0.012407336673816539,0.01886267577818517,-0.015209384534887332, ,0.7847199440002441
0.011886536019120241,0.021097671464070614,-0.08533973344632464, ,0.012304741139712276,0.02092959535257828,-0.08596264516636799, ,0.0007688719744607313, ,0.005442548163500808,0.001763841526792665,-0.016551711712958866,0.039603029819489134,0.035720768468692786,0.02876449142426216, ,0.01751261339927779, ,0.053332654430577456, ,7.364897212737221e-05, ,0.15252397426593406,-0.23964412382006076,0.09528250016,1.607692796695848,0.13431367926942794,-1.3220446967202286, ,0.04197122581091144,0.026678926499429514,0.017164667586206897,-0.012407336673816539,0.08332601844248433,-0.0677749180288662, ,0.7925229072570801
0.01195509891421067,0.021119926229330586,-0.08553858363916197, ,0.01236220950660581,0.020938783581196687,-0.0861113609145022, ,0.0007256896723527552, ,0.006277019440067223,0.002138658219210289,-0.019102720495133788,-0.0075190366479411285,-0.016225484397935745,0.01465782519889491, ,0.020220998055110486, ,0.017882944732367182, ,7.512915616247673e-05, ,0.15298733823838753,-0.2393352145050918,0.09548861027000001,1.607692796695848,0.13458695226895884,-1.3222675325276214, ,0.04113434831316461,0.029325383670726447,0.019762793449131517,-0.012407336673816539,0.02877571896578595,-0.023292806556899123, ,0.7991929054260254
0.01195509891421067,0.021119926229330586,-0.08553858363916197, ,0.012419750289467398,0.020947693041377415,-0.08625969438358438, ,0.0008749662149374244, ,0.006277019440067223,0.002138658219210289,-0.019102720495133788,-0.0075190366479411285,-0.016225484397935745,0.01465782519889491, ,0.020220998055110486, ,0.017882944732367182, ,7.701746647192437e-05, ,0.15342753401221834,-0.23901085972437436,0.09569990554,1.607692796695848,0.13472358876872428,-1.322378950431318, ,0.046313783093445964,0.03326215967699642,0.0224349458028169,-0.012407336673816539,0.0,0.0001718627666644086, ,0.8057808876037598
0.012023928686644977,0.021141941199869813,-0.08574297231895793, ,0.012477362362612019,0.02095632625076303,-0.08640764495250977, ,0.0008257388919178015, ,0.0074098092358935415,0.0024170283535267295,-0.021682820515948064,-0.03488556411045472,-0.04925052283137653,0.006827176343420069, ,0.02304109382171132, ,0.06035405363174635, ,7.87312603984432e-05, ,0.15342753401221834,-0.23901085972437436,0.09569990554,1.607692796695848,0.13472358876872428,-1.322378950431318, ,0.046313783093445964,0.03326215967699642,0.0224349458028169,-0.012407336673816539,0.0,0.0001718627666644086, ,0.8131270408630371
0.012094126844315583,0.021167511579369046,-0.08596600458294111, ,0.01253504460639847,0.0209646857190775,-0.08655521200703163, ,0.000763355874495359, ,0.006940582008948708,0.002586762148297005,-0.022027229700952423,0.02458801561085397,0.021095241100114806,0.0012846862817008388, ,0.023239231169152847, ,0.03239713757644214, ,8.023743780787185e-05, ,0.15389089798467182,-0.2386787822107827,0.09593064516000001,1.6074831067523636,0.13527013476778604,-1.3228246220461035, ,0.047142047470676005,0.032532376262759954,0.022820646876790834,0.011133568562029982,0.06775927632379335,-0.05508128362499352, ,0.8199419975280762
0.012094126844315583,0.021167511579369046,-0.08596600458294111, ,0.012592795907217407,0.02097277394813575,-0.08670239493974617, ,0.0009104198684723571, ,0.006940582008948708,0.002586762148297005,-0.022027229700952423,0.02458801561085397,0.021095241100114806,0.0012846862817008388, ,0.023239231169152847, ,0.03239713757644214, ,8.21346263490864e-05, ,0.15436970742287373,-0.23835442743006527,0.09614971817000001,1.6074831067523636,0.1360899537663787,-1.3234931294682821, ,0.050665745626519376,0.034160166147757666,0.022820646876790834,0.00992564225381939,0.0690313756255801,-0.056118595307758166, ,0.830704927444458
0.012253825197447287,0.021218512492478313,-0.0864387592418835, ,0.012650615157479526,0.0209805934318535,-0.08684919315008019, ,0.0006184688713173733, ,0.00803614494685474,0.0022068783628836487,-0.02201758632855246,-0.0212668783364851,-0.03535499989069453,-0.011551616378536411, ,0.023541963500326033, ,0.04125834409166704, ,8.317975273186763e-05, ,0.1549952487856859,-0.23792967712198293,0.09642064278000001,1.6079024866393328,0.136499863265675,-1.3238273831793714, ,0.05370511689783292,0.036484791064387075,0.022820646876790834,0.010428088290555557,0.01641384370003834,-0.013212526176249245, ,0.8378078937530518
0.012253825197447287,0.021218512492478313,-0.0864387592418835, ,0.01270850125560385,0.020988146656257173,-0.08699560604427832, ,0.000754902045099884, ,0.00803614494685474,0.0022068783628836487,-0.02201758632855246,-0.0212668783364851,-0.03535499989069453,-0.011551616378536411, ,0.023541963500326033, ,0.04125834409166704, ,8.482372630627028e-05, ,0.1549952487856859,-0.23792967712198293,0.09642064278000001,1.6079024866393328,0.136499863265675,-1.3238273831793714, ,0.05370511689783292,0.036484791064387075,0.022820646876790834,0.010428088290555557,0.01641384370003834,-0.013212526176249245, ,0.8421750068664551
0.012253825197447287,0.021218512492478313,-0.0864387592418835, ,0.012766453106005866,0.020995436099493333,-0.08714163303538894, ,0.0008980991144283869, ,0.00803614494685474,0.0022068783628836487,-0.02201758632855246,-0.0212668783364851,-0.03535499989069453,-0.011551616378536411, ,0.023541963500326033, ,0.04125834409166704, ,8.684720314464763e-05, ,0.1549952487856859,-0.23792967712198293,0.09642064278000001,1.6079024866393328,0.136499863265675,-1.3238273831793714, ,0.05370511689783292,0.036484791064387075,0.022820646876790834,0.010428088290555557,0.01641384370003834,-0.013212526176249245, ,0.8465850353240967
0.012334298073910947,0.021240296912865973,-0.08665085574677128, ,0.012824469619085687,0.02100246423183876,-0.08728727354325141, ,0.0008377709350056322, ,0.0077757457993961705,0.0018282278066597522,-0.019722903830716267,-0.03151453074551322,-0.049069481260695574,-0.018202151675583096, ,0.021279040748246936, ,0.05831789309399407, ,8.86816686935878e-05, ,0.15554356281975584,-0.2375821541426428,0.09664101208,1.6081121765828172,0.13663649976544046,-1.323938801083068, ,0.05292634777382642,0.03435805270038768,0.02047405079691517,0.013587775379229842,0.0006799270586644429,-0.00038257215865140356, ,0.8509809970855713
0.012334298073910947,0.021240296912865973,-0.08665085574677128, ,0.012882549711216147,0.02100923351571002,-0.08743252699448358, ,0.0009823340016578755, ,0.0077757457993961705,0.0018282278066597522,-0.019722903830716267,-0.03151453074551322,-0.049069481260695574,-0.018202151675583096, ,0.021279040748246936, ,0.05831789309399407, ,9.089312656246333e-05, ,0.15554356281975584,-0.2375821541426428,0.09664101208,1.6081121765828172,0.13663649976544046,-1.323938801083068, ,0.05292634777382642,0.03435805270038768,0.02047405079691517,0.013587775379229842,0.0006799270586644429,-0.00038257215865140356, ,0.8553729057312012
0.012408422388037894,0.021253475988085815,-0.08685554074475432, ,0.012940692304731183,0.02101574640567347,-0.08757739282246749, ,0.000927845375409848, ,0.0074772866810535145,0.0012682202033595781,-0.02199236631213864,0.0797639213496647,0.08935144569094239,0.017490773394818988, ,0.02326332681716354, ,0.11977461689122577, ,9.293153946488115e-05, ,0.15611504505244847,-0.2371651265674347,0.09685230735000001,1.6081121765828172,0.13759295526379853,-1.3247187264089426, ,0.06079240330459371,0.04647254728622467,0.02265833786628734,0.013587775379229842,0.15175889235592574,-0.1235773380882658, ,0.8600099086761475
0.012408422388037894,0.021253475988085815,-0.08685554074475432, ,0.012998896327913824,0.021022005348454605,-0.08772187046733697, ,0.0010736690919058852, ,0.0074772866810535145,0.0012682202033595781,-0.02199236631213864,0.0797639213496647,0.08935144569094239,0.017490773394818988, ,0.02326332681716354, ,0.11977461689122577, ,9.534405580449018e-05, ,0.15611504505244847,-0.2371651265674347,0.09685230735000001,1.6081121765828172,0.13759295526379853,-1.3247187264089426, ,0.06079240330459371,0.04647254728622467,0.02265833786628734,0.013587775379229842,0.15175889235592574,-0.1235773380882658, ,0.8645229339599609
0.012496151678815145,0.021274462856458405,-0.08712675262570017, ,0.013057160714984497,0.02102801278294818,-0.08786595937596432, ,0.0009601538402948474, ,0.008842399620667277,0.002524500685094575,-0.02690958133606496,0.0571011031222175,0.058334833012414815,0.01027222790515804, ,0.028437417295579345, ,0.0816301084778806, ,9.742369290904658e-05, ,0.1567560318810091,-0.23668631712923277,0.09711286164,1.6081121765828172,0.1392325932609838,-1.3260557412532998, ,0.06390366434913858,0.04593269194504877,0.027558497439446373,0.013587775379229842,0.13854760788601564,-0.11280442145690185, ,0.8697149753570557
0.012496151678815145,0.021274462856458405,-0.08712675262570017, ,0.013115484406089081,0.021033771140227874,-0.08800965900194659, ,0.0011050018997952628, ,0.008842399620667277,0.002524500685094575,-0.02690958133606496,0.0571011031222175,0.058334833012414815,0.01027222790515804, ,0.028437417295579345, ,0.0816301084778806, ,9.987034482834004e-05, ,0.1567560318810091,-0.23668631712923277,0.09711286164,1.6081121765828172,0.1392325932609838,-1.3260557412532998, ,0.06390366434913858,0.04593269194504877,0.027558497439446373,0.013587775379229842,0.13854760788601564,-0.11280442145690185, ,0.8743669986724854
0.012496151678815145,0.021274462856458405,-0.08712675262570017, ,0.013173866347287254,0.0210392828435558,-0.0881529688055934, ,0.0012520888379846562, ,0.009307108427532332,0.002745537369476281,-0.027915950380826147,0.03938660563661142,0.03643997528402327,0.004904439615593798, ,0.029554365640185574, ,0.05365780044567682, ,0.00010268410993082126, ,0.15694137746999048,-0.23655503067037095,0.09719452791000001,1.6081121765828172,0.13964250276028015,-1.326389994964389, ,0.06522126567592494,0.045977200367476156,0.02890891382940109,0.013587775379229842,0.10164914942843309,-0.0827162027303477, ,0.8789968490600586
0.012515564705795717,0.021280217530136217,-0.08718690083318714, ,0.0132323054905405,0.021044550308392945,-0.08829588825391321, ,0.001341308872426267, ,0.009307108427532332,0.002745537369476281,-0.027915950380826147,0.03938660563661142,0.03643997528402327,0.004904439615593798, ,0.029554365640185574, ,0.05365780044567682, ,0.00010570522868764208, ,0.15694137746999048,-0.23655503067037095,0.09719452791000001,1.6081121765828172,0.13964250276028015,-1.326389994964389, ,0.06522126567592494,0.045977200367476156,0.02890891382940109,0.013587775379229842,0.10164914942843309,-0.0827162027303477, ,0.8836109638214111
0.012515564705795717,0.021280217530136217,-0.08718690083318714, ,0.013290800793700382,0.02104957594240813,-0.08843841682060015, ,0.0014901271089171606, ,0.009307108427532332,0.002745537369476281,-0.027915950380826147,0.03938660563661142,0.03643997528402327,0.004904439615593798, ,0.029554365640185574, ,0.05365780044567682, ,0.00010937743526650022, ,0.15694137746999048,-0.23655503067037095,0.09719452791000001,1.6081121765828172,0.13964250276028015,-1.326389994964389, ,0.06522126567592494,0.045977200367476156,0.02890891382940109,0.013587775379229842,0.10164914942843309,-0.0827162027303477, ,0.8859078884124756
0.012705754088887179,0.02134036821588035,-0.08773522895100451, ,0.013349351220496693,0.021054362145488028,-0.08858055398602058, ,0.0011002686739802093, ,0.011945524454154323,0.003739577818970474,-0.03469782380096206,-0.029209155618543037,-0.04742716935943589,-0.015416039918299318, ,0.03688656900921451, ,0.05569973852698824, ,0.00011199884065992272, ,0.1581770147298664,-0.23572869825282894,0.09776359922000001,1.6081121765828172,0.14046232175887277,-1.3268951449062865, ,0.07384975996768155,0.05274982854834395,0.03595668514672686,0.013587775379229842,0.023995983520871508,-0.02080093648955608, ,0.8886818885803223
0.012705754088887179,0.02134036821588035,-0.08773522895100451, ,0.013407955740525706,0.02105891130974735,-0.0887222992372007, ,0.001243628923539998, ,0.011945524454154323,0.003739577818970474,-0.03469782380096206,-0.029209155618543037,-0.04742716935943589,-0.015416039918299318, ,0.03688656900921451, ,0.05569973852698824, ,0.0001149846720131683, ,0.1581770147298664,-0.23572869825282894,0.09776359922000001,1.6081121765828172,0.14046232175887277,-1.3268951449062865, ,0.07384975996768155,0.05274982854834395,0.03595668514672686,0.013587775379229842,0.023995983520871508,-0.02080093648955608, ,0.8909749984741211
0.012705754088887179,0.02134036821588035,-0.08773522895100451, ,0.013466613329238174,0.021063225819538137,-0.08886365206781299, ,0.001388903676294929, ,0.011945524454154323,0.003739577818970474,-0.03469782380096206,-0.029209155618543037,-0.04742716935943589,-0.015416039918299318, ,0.03688656900921451, ,0.05569973852698824, ,0.000642401348132653, ,0.1581770147298664,-0.23572869825282894,0.09776359922000001,1.6081121765828172,0.14046232175887277,-1.3268951449062865, ,0.07384975996768155,0.05274982854834395,0.03595668514672686,0.013587775379229842,0.023995983520871508,-0.02080093648955608, ,0.8933060169219971
0.012705754088887179,0.02134036821588035,-0.08773522895100451, ,0.013525322967927774,0.021067308051459416,-0.08900461197816274, ,0.0015354439978465006, ,0.011945524454154323,0.003739577818970474,-0.03469782380096206,-0.029209155618543037,-0.04742716935943589,-0.015416039918299318, ,0.03688656900921451, ,0.05569973852698824, ,0.0006549794136215804, ,0.1581770147298664,-0.23572869825282894,0.09776359922000001,1.6081121765828172,0.14046232175887277,-1.3268951449062865, ,0.07384975996768155,0.05274982854834395,0.03595668514672686,0.013587775379229842,0.023995983520871508,-0.02080093648955608, ,0.8956089019775391
0.012705754088887179,0.02134036821588035,-0.08773522895100451, ,0.013584083643718933,0.0210711603743676,-0.08914517847517492, ,0.0016828230238296786, ,0.011945524454154323,0.003739577818970474,-0.03469782380096206,-0.029209155618543037,-0.04742716935943589,-0.015416039918299318, ,0.03688656900921451, ,0.05569973852698824, ,0.0006692550193189152, ,0.1581770147298664,-0.23572869825282894,0.09776359922000001,1.6081121765828172,0.14046232175887277,-1.3268951449062865, ,0.07384975996768155,0.05274982854834395,0.03595668514672686,0.013587775379229842,0.023995983520871508,-0.02080093648955608, ,0.8978309631347656
0.012828963245083855,0.021377471560966706,-0.08811264846969086, ,0.013642894349555386,0.02107478514938552,-0.08928535107238202, ,0.0014592238693705495, ,0.013138268454427247,0.003933965129385302,-0.04087647693069947,0.04818096287992693,0.046311746047082374,0.013590588775806975, ,0.04311585028601226, ,0.06682865316998697, ,0.0006800765104155129, ,0.15897245621591152,-0.2351186023557652,0.09815378251000001,1.608321866526302,0.14141877725723084,-1.327756748972302, ,0.0866638735693797,0.06654764485166254,0.04225148944297083,0.009502167550107438,0.13493635779093505,-0.11241064107392904, ,0.9010138511657715
0.012828963245083855,0.021377471560966706,-0.08811264846969086, ,0.01370175408418813,0.021078184729912748,-0.08942512928990935, ,0.0016043510711524704, ,0.013138268454427247,0.003933965129385302,-0.04087647693069947,0.04818096287992693,0.046311746047082374,0.013590588775806975, ,0.04311585028601226, ,0.06682865316998697, ,0.0006925667071822285, ,0.15897245621591152,-0.2351186023557652,0.09815378251000001,1.608321866526302,0.14141877725723084,-1.327756748972302, ,0.0866638735693797,0.06654764485166254,0.04225148944297083,0.009502167550107438,0.13493635779093505,-0.11241064107392904, ,0.9032418727874756
0.012828963245083855,0.021377471560966706,-0.08811264846969086, ,0.013760661852163594,0.02108136146163487,-0.08956451265446295, ,0.0017503294251039097, ,0.013138268454427247,0.003933965129385302,-0.04087647693069947,0.04818096287992693,0.046311746047082374,0.013590588775806975, ,0.04311585028601226, ,0.06682865316998697, ,0.000706670210087851, ,0.15897245621591152,-0.2351186023557652,0.09815378251000001,1.608321866526302,0.14141877725723084,-1.327756748972302, ,0.0866638735693797,0.06654764485166254,0.04225148944297083,0.009502167550107438,0.13493635779093505,-0.11241064107392904, ,0.9054830074310303
0.012828963245083855,0.021377471560966706,-0.08811264846969086, ,0.013819616663811853,0.021084317682533767,-0.089703500699316, ,0.0018968774891861173, ,0.013138268454427247,0.003933965129385302,-0.04087647693069947,0.04818096287992693,0.046311746047082374,0.013590588775806975, ,0.04311585028601226, ,0.06682865316998697, ,0.0007223308321812492, ,0.15897245621591152,-0.2351186023557652,0.09815378251000001,1.608321866526302,0.14141877725723084,-1.327756748972302, ,0.0866638735693797,0.06654764485166254,0.04225148944297083,0.009502167550107438,0.13493635779093505,-0.11241064107392904, ,0.9077138900756836
0.012970318703804678,0.02142711542020078,-0.08856680084665426, ,0.013878617535234927,0.021087055722896986,-0.08984209296429602, ,0.0016021914212187931, ,0.015151493133893695,0.006014490157691922,-0.050164430271500034,0.10706545359719198,0.1063455323169006,0.023756780480910115, ,0.05274667667737551, ,0.1509041613918697, ,0.0007337575930778408, ,0.1599069068936927,-0.23443900186283345,0.09862433578000002,1.6089509363567556,0.1431950517541816,-1.3292051817203556, ,0.09874811816698312,0.06822210032959797,0.052054939607843145,0.016915878515410196,0.2076034688026571,-0.1716657975694487, ,0.9099349975585938
0.012970318703804678,0.02142711542020078,-0.08856680084665426, ,0.01393766348829478,0.021089577905327606,-0.08998028899577117, ,0.0017457480498974912, ,0.015151493133893695,0.006014490157691922,-0.050164430271500034,0.10706545359719198,0.1063455323169006,0.023756780480910115, ,0.05274667667737551, ,0.1509041613918697, ,0.0007467318297037337, ,0.1599069068936927,-0.23443900186283345,0.09862433578000002,1.6089509363567556,0.1431950517541816,-1.3292051817203556, ,0.09874811816698312,0.06822210032959797,0.052054939607843145,0.016915878515410196,0.2076034688026571,-0.1716657975694487, ,0.912214994430542
0.012970318703804678,0.02142711542020078,-0.08856680084665426, ,0.013996753550601537,0.02109188654475391,-0.09011808834663713, ,0.00189008989237427, ,0.015151493133893695,0.006014490157691922,-0.050164430271500034,0.10706545359719198,0.1063455323169006,0.023756780480910115, ,0.05274667667737551, ,0.1509041613918697, ,0.000761204716572981, ,0.1599069068936927,-0.23443900186283345,0.09862433578000002,1.6089509363567556,0.1431950517541816,-1.3292051817203556, ,0.09874811816698312,0.06822210032959797,0.052054939607843145,0.016915878515410196,0.2076034688026571,-0.1716657975694487, ,0.9146499633789062
0.012970318703804678,0.02142711542020078,-0.08856680084665426, ,0.014055886755501753,0.021093983948439476,-0.09025549057630486, ,0.0020349711485351933, ,0.015151493133893695,0.006014490157691922,-0.050164430271500034,0.10706545359719198,0.1063455323169006,0.023756780480910115, ,0.05274667667737551, ,0.1509041613918697, ,0.0007771267969725087, ,0.1599069068936927,-0.23443900186283345,0.09862433578000002,1.6089509363567556,0.1431950517541816,-1.3292051817203556, ,0.09874811816698312,0.06822210032959797,0.052054939607843145,0.016915878515410196,0.2076034688026571,-0.1716657975694487, ,0.9170830249786377
0.013143349348191953,0.02149716168035134,-0.08913716902920457, ,0.01411506214206649,0.021095872415992527,-0.09039249525068607, ,0.0016374073255632261, ,0.017868408274164537,0.007363241970248519,-0.05897483667770895,0.11241407780172763,0.1179212139862713,-0.027467271902134435, ,0.0620606856852799, ,0.16291600349559054, ,0.0007877475442390607, ,0.16102670316045525,-0.23368217404115943,0.09921674031000001,1.6093703162437245,0.14551787225019408,-1.3311809648233353, ,0.11283821826215314,0.07683962879228404,0.061264659692307696,0.07169784074736936,0.2209487181362985,-0.17687410783764168, ,0.9194848537445068
0.013143349348191953,0.02149716168035134,-0.08913716902920457, ,0.014174278755079626,0.021097554239376034,-0.09052910194218097, ,0.0017776329157324835, ,0.017868408274164537,0.007363241970248519,-0.05897483667770895,0.11241407780172763,0.1179212139862713,-0.027467271902134435, ,0.0620606856852799, ,0.16291600349559054, ,0.0007998193170621512, ,0.16102670316045525,-0.23368217404115943,0.09921674031000001,1.6093703162437245,0.14551787225019408,-1.3311809648233353, ,0.11283821826215314,0.07683962879228404,0.061264659692307696,0.07169784074736936,0.2209487181362985,-0.17687410783764168, ,0.9220089912414551
0.013143349348191953,0.02149716168035134,-0.08913716902920457, ,0.014233535645025792,0.021099031702917142,-0.09066531022966486, ,0.001918913538771414, ,0.017868408274164537,0.007363241970248519,-0.05897483667770895,0.11241407780172763,0.1179212139862713,-0.027467271902134435, ,0.0620606856852799, ,0.16291600349559054, ,0.0008133023799743109, ,0.16102670316045525,-0.23368217404115943,0.09921674031000001,1.6093703162437245,0.14551787225019408,-1.3311809648233353, ,0.11283821826215314,0.07683962879228404,0.061264659692307696,0.07169784074736936,0.2209487181362985,-0.17687410783764168, ,0.9250938892364502
0.013143349348191953,0.02149716168035134,-0.08913716902920457, ,0.01429283186807879,0.021100307083317196,-0.09080111969847471, ,0.0020609549884645856, ,0.017868408274164537,0.007363241970248519,-0.05897483667770895,0.11241407780172763,0.1179212139862713,-0.027467271902134435, ,0.0620606856852799, ,0.16291600349559054, ,0.0008281553872182428, ,0.16102670316045525,-0.23368217404115943,0.09921674031000001,1.6093703162437245,0.14551787225019408,-1.3311809648233353, ,0.11283821826215314,0.07683962879228404,0.061264659692307696,0.07169784074736936,0.2209487181362985,-0.17687410783764168, ,0.9276778697967529
0.013143349348191953,0.02149716168035134,-0.08913716902920457, ,0.014352166486089684,0.02110138264966145,-0.09093652994039667, ,0.0022035379739716605, ,0.017868408274164537,0.007363241970248519,-0.05897483667770895,0.11241407780172763,0.1179212139862713,-0.027467271902134435, ,0.0620606856852799, ,0.16291600349559054, ,0.0008443363588271065, ,0.16102670316045525,-0.23368217404115943,0.09921674031000001,1.6093703162437245,0.14551787225019408,-1.3311809648233353, ,0.11283821826215314,0.07683962879228404,0.061264659692307696,0.07169784074736936,0.2209487181362985,-0.17687410783764168, ,0.9300110340118408
0.01327455368872973,0.021548130200863776,-0.08955501761817439, ,0.014411538566574907,0.021102260663428647,-0.09107154055365214, ,0.0019471456213368589, ,0.02004853567095666,0.007687003695541405,-0.06223149529813883,0.07257856308761708,0.06213913875027319,-0.016608501972554243, ,0.06583154878481262, ,0.09554049937171909, ,0.0008571597223446618, ,0.16185303557799727,-0.2331338600070895,0.09965099746000002,1.6093703162437245,0.1468842372478485,-1.33237682260044, ,0.12585801267701696,0.08110849705852202,0.06475126634146343,0.049582895934350626,0.18207785357879588,-0.14470484316871468, ,0.9325399398803711
0.01327455368872973,0.021548130200863776,-0.08955501761817439, ,0.014470947182704618,0.021102943378501104,-0.0912061511428849, ,0.0020870530936355617, ,0.02004853567095666,0.007687003695541405,-0.06223149529813883,0.07257856308761708,0.06213913875027319,-0.016608501972554243, ,0.06583154878481262, ,0.09554049937171909, ,0.0008712964277617986, ,0.16185303557799727,-0.2331338600070895,0.09965099746000002,1.6093703162437245,0.1468842372478485,-1.33237682260044, ,0.12585801267701696,0.08110849705852202,0.06475126634146343,0.049582895934350626,0.18207785357879588,-0.14470484316871468, ,0.9351370334625244
0.01327455368872973,0.021548130200863776,-0.08955501761817439, ,0.014530391413290548,0.021103433041174062,-0.0913403613191481, ,0.0022276301499290063, ,0.02004853567095666,0.007687003695541405,-0.06223149529813883,0.07257856308761708,0.06213913875027319,-0.016608501972554243, ,0.06583154878481262, ,0.09554049937171909, ,0.0008867093109682441, ,0.16185303557799727,-0.2331338600070895,0.09965099746000002,1.6093703162437245,0.1468842372478485,-1.33237682260044, ,0.12585801267701696,0.08110849705852202,0.06475126634146343,0.049582895934350626,0.18207785357879588,-0.14470484316871468, ,0.9374308586120605
0.01327455368872973,0.021548130200863776,-0.08955501761817439, ,0.01458987034277464,0.0211037318901659,-0.09147417069989097, ,0.002368690843065276, ,0.02004853567095666,0.007687003695541405,-0.06223149529813883,0.07257856308761708,0.06213913875027319,-0.016608501972554243, ,0.06583154878481262, ,0.09554049937171909, ,0.0009033607888569748, ,0.16185303557799727,-0.2331338600070895,0.09965099746000002,1.6093703162437245,0.1468842372478485,-1.33237682260044, ,0.12585801267701696,0.08110849705852202,0.06475126634146343,0.049582895934350626,0.18207785357879588,-0.14470484316871468, ,0.9397408962249756
0.013631665522752882,0.021674005803705196,-0.09065367214901737, ,0.01464938306121679,0.021103842156627525,-0.09160757890894546, ,0.002510090739809267, ,0.02004853567095666,0.007687003695541405,-0.06223149529813883,0.07257856308761708,0.06213913875027319,-0.016608501972554243, ,0.06583154878481262, ,0.09554049937171909, ,0.0009212133438675558, ,0.1640076780499059,-0.23162792709661573,0.10079173266000001,1.609580006187209,0.1493436942436264,-1.334300666126835, ,0.1365423619546342,0.09733019647022642,0.06692777949579834,-0.008289861354958749,0.12618918830575804,-0.09503345108402755, ,0.9425170421600342
0.013631665522752882,0.021674005803705196,-0.09065367214901737, ,0.01470892866428332,0.021103766064152304,-0.09174058557651343, ,0.001633110539901269, ,0.022210157844667056,0.006435483800030885,-0.06449995594676217,-0.002212197812062228,-0.01601924424782722,0.022355744583999325, ,0.06851971161906438, ,0.016136717878165268, ,0.0009290363899778164, ,0.1640076780499059,-0.23162792709661573,0.10079173266000001,1.609580006187209,0.1493436942436264,-1.334300666126835, ,0.1365423619546342,0.09733019647022642,0.06692777949579834,-0.008289861354958749,0.12618918830575804,-0.09503345108402755, ,0.9450178146362305
0.013631665522752882,0.021674005803705196,-0.09065367214901737, ,0.014768506253234984,0.021103505828785757,-0.09187319033915323, ,0.001762129871473266, ,0.022210157844667056,0.006435483800030885,-0.06449995594676217,-0.002212197812062228,-0.01601924424782722,0.022355744583999325, ,0.06851971161906438, ,0.016136717878165268, ,0.0009380917539071147, ,0.1640076780499059,-0.23162792709661573,0.10079173266000001,1.609580006187209,0.1493436942436264,-1.334300666126835, ,0.1365423619546342,0.09733019647022642,0.06692777949579834,-0.008289861354958749,0.12618918830575804,-0.09503345108402755, ,0.9472079277038574
0.013631665522752882,0.021674005803705196,-0.09065367214901737, ,0.01482811493491523,0.021103063659035477,-0.09200539283976651, ,0.0018933079396186495, ,0.022210157844667056,0.006435483800030885,-0.06449995594676217,-0.002212197812062228,-0.01601924424782722,0.022355744583999325, ,0.06851971161906438, ,0.016136717878165268, ,0.0009483628956889592, ,0.1640076780499059,-0.23162792709661573,0.10079173266000001,1.609580006187209,0.1493436942436264,-1.334300666126835, ,0.1365423619546342,0.09733019647022642,0.06692777949579834,-0.008289861354958749,0.12618918830575804,-0.09503345108402755, ,0.9494450092315674
0.013631665522752882,0.021674005803705196,-0.09065367214901737, ,0.014887753821738292,0.021102441755880618,-0.09213719272758526, ,0.0020261482133960697, ,0.022210157844667056,0.006435483800030885,-0.06449995594676217,-0.002212197812062228,-0.01601924424782722,0.022355744583999325, ,0.06851971161906438, ,0.016136717878165268, ,0.0009598286969411625, ,0.1640076780499059,-0.23162792709661573,0.10079173266000001,1.609580006187209,0.1493436942436264,-1.334300666126835, ,0.1365423619546342,0.09733019647022642,0.06692777949579834,-0.008289861354958749,0.12618918830575804,-0.09503345108402755, ,0.9516949653625488
0.013858522164836108,0.021722642376866993,-0.09128198146761143, ,0.014947422031677484,0.021101642312781835,-0.09226858965815843, ,0.001595224034816223, ,0.02165004171092222,0.0032863434453127907,-0.05701191890561302,0.030462373211316857,0.01548526545076004,0.02165129888644931, ,0.061072770173174695, ,0.03416353767316872, ,0.0009665170689187947, ,0.16546727456313434,-0.23053902176135008,0.10144247024000001,1.6093703162437245,0.15084669574104626,-1.335444584327355, ,0.14577103157983223,0.11047373871766097,0.05899559822222222,0.0,0.16616021653417437,-0.1393634847936939, ,0.9539530277252197
0.013858522164836108,0.021722642376866993,-0.09128198146761143, ,0.015007118688253357,0.021100667515691136,-0.09239958329333908, ,0.001719058039279271, ,0.02165004171092222,0.0032863434453127907,-0.05701191890561302,0.030462373211316857,0.01548526545076004,0.02165129888644931, ,0.061072770173174695, ,0.03416353767316872, ,0.0009743560373600496, ,0.16546727456313434,-0.23053902176135008,0.10144247024000001,1.6093703162437245,0.15084669574104626,-1.335444584327355, ,0.14577103157983223,0.11047373871766097,0.05899559822222222,0.0,0.16616021653417437,-0.1393634847936939, ,0.9561970233917236
0.013858522164836108,0.021722642376866993,-0.09128198146761143, ,0.01506684292052173,0.021099519543061364,-0.0925301733012706, ,0.0018456175032340965, ,0.02165004171092222,0.0032863434453127907,-0.05701191890561302,0.030462373211316857,0.01548526545076004,0.02165129888644931, ,0.061072770173174695, ,0.03416353767316872, ,0.0009833381143278233, ,0.16546727456313434,-0.23053902176135008,0.10144247024000001,1.6093703162437245,0.15084669574104626,-1.335444584327355, ,0.14577103157983223,0.11047373871766097,0.05899559822222222,0.0,0.16616021653417437,-0.1393634847936939, ,0.9585378170013428
0.013858522164836108,0.021722642376866993,-0.09128198146761143, ,0.015126593863062029,0.021098200565856137,-0.09266035935637447, ,0.0019742996255408983, ,0.02165004171092222,0.0032863434453127907,-0.05701191890561302,0.030462373211316857,0.01548526545076004,0.02165129888644931, ,0.061072770173174695, ,0.03416353767316872, ,0.000993449966483059, ,0.16546727456313434,-0.23053902176135008,0.10144247024000001,1.6093703162437245,0.15084669574104626,-1.335444584327355, ,0.14577103157983223,0.11047373871766097,0.05899559822222222,0.0,0.16616021653417437,-0.1393634847936939, ,0.9608359336853027
0.014081227063504188,0.021744424863209343,-0.09183562728139903, ,0.015186370655965386,0.021096712747559677,-0.09279014113933572, ,0.0015974886696657911, ,0.022892653598159146,0.0010863456422481484,-0.054033940862519926,0.047556090054990556,0.03427704317724738,0.013520442176257105, ,0.058693445125959684, ,0.05861771729135212, ,0.0009995513675253086, ,0.16697320747360814,-0.22940378002883907,0.10199598607000002,1.6097896961306934,0.15275960673776243,-1.337004434979105, ,0.1650381592321231,0.124210656490145,0.05589056673684212,0.014561210519310476,0.2028254782698396,-0.16870379007617833, ,0.9636209011077881
0.014081227063504188,0.021744424863209343,-0.09183562728139903, ,0.015246172444822882,0.021095058244186317,-0.09291951833709158, ,0.0017186025043527276, ,0.022892653598159146,0.0010863456422481484,-0.054033940862519926,0.047556090054990556,0.03427704317724738,0.013520442176257105, ,0.058693445125959684, ,0.05861771729135212, ,0.0010067418788935827, ,0.16697320747360814,-0.22940378002883907,0.10199598607000002,1.6097896961306934,0.15275960673776243,-1.337004434979105, ,0.1650381592321231,0.124210656490145,0.05589056673684212,0.014561210519310476,0.2028254782698396,-0.16870379007617833, ,0.9658808708190918
0.014081227063504188,0.021744424863209343,-0.09183562728139903, ,0.015305998380713563,0.021093239204290647,-0.09304849064281642, ,0.0018425919448724546, ,0.022892653598159146,0.0010863456422481484,-0.054033940862519926,0.047556090054990556,0.03427704317724738,0.013520442176257105, ,0.058693445125959684, ,0.05861771729135212, ,0.0010150176221210964, ,0.16697320747360814,-0.22940378002883907,0.10199598607000002,1.6097896961306934,0.15275960673776243,-1.337004434979105, ,0.1650381592321231,0.124210656490145,0.05589056673684212,0.014561210519310476,0.2028254782698396,-0.16870379007617833, ,0.9681060314178467
0.014081227063504188,0.021744424863209343,-0.09183562728139903, ,0.015365847620192864,0.02109125776897678,-0.09317705775591012, ,0.001968835428775695, ,0.022892653598159146,0.0010863456422481484,-0.054033940862519926,0.047556090054990556,0.03427704317724738,0.013520442176257105, ,0.058693445125959684, ,0.05861771729135212, ,0.0010243687770882983, ,0.16697320747360814,-0.22940378002883907,0.10199598607000002,1.6097896961306934,0.15275960673776243,-1.337004434979105, ,0.1650381592321231,0.124210656490145,0.05589056673684212,0.014561210519310476,0.2028254782698396,-0.16870379007617833, ,0.9703819751739502
0.014326370423818652,0.021748096362778708,-0.09237855699510034, ,0.015425719325280595,0.021089116071908547,-0.0933052193819838, ,0.0015816213864782757, ,0.022892653598159146,0.0010863456422481484,-0.054033940862519926,0.047556090054990556,0.03427704317724738,0.013520442176257105, ,0.058693445125959684, ,0.05861771729135212, ,0.0010297789965969387, ,0.16886527702779314,-0.22802141084435287,0.10257802028000002,1.6102090760176624,0.15494579073400946,-1.338705442698107, ,0.18249411838167456,0.13161850424198443,0.053452387651006725,0.04560356674735973,0.21296160694035163,-0.17615279066270512, ,0.9725968837738037
0.014326370423818652,0.021748096362778708,-0.09237855699510034, ,0.015485612663449085,0.021086816239319087,-0.0934329752328474, ,0.0017008620731616567, ,0.024152888413395898,-0.00015132797559284887,-0.05153823604052752,0.054051770828766575,0.034567639055172364,-0.015486526348183897, ,0.05691726181955067, ,0.06415724417073851, ,0.0010362317184869842, ,0.16886527702779314,-0.22802141084435287,0.10257802028000002,1.6102090760176624,0.15494579073400946,-1.338705442698107, ,0.18249411838167456,0.13161850424198443,0.053452387651006725,0.04560356674735973,0.21296160694035163,-0.17615279066270512, ,0.9751260280609131
0.014326370423818652,0.021748096362778708,-0.09237855699510034, ,0.01554552680761159,0.02108436039002055,-0.09356032502649615, ,0.0018230368646040683, ,0.024152888413395898,-0.00015132797559284887,-0.05153823604052752,0.054051770828766575,0.034567639055172364,-0.015486526348183897, ,0.05691726181955067, ,0.06415724417073851, ,0.0010437251008309563, ,0.16886527702779314,-0.22802141084435287,0.10257802028000002,1.6102090760176624,0.15494579073400946,-1.338705442698107, ,0.18249411838167456,0.13161850424198443,0.053452387651006725,0.04560356674735973,0.21296160694035163,-0.17615279066270512, ,0.9773619174957275
0.014326370423818652,0.021748096362778708,-0.09237855699510034, ,0.015605460936110243,0.02108175063541391,-0.0936872684870973, ,0.001947515067026851, ,0.024152888413395898,-0.00015132797559284887,-0.05153823604052752,0.054051770828766575,0.034567639055172364,-0.015486526348183897, ,0.05691726181955067, ,0.06415724417073851, ,0.0010522514212667668, ,0.16886527702779314,-0.22802141084435287,0.10257802028000002,1.6102090760176624,0.15494579073400946,-1.338705442698107, ,0.18249411838167456,0.13161850424198443,0.053452387651006725,0.04560356674735973,0.21296160694035163,-0.17615279066270512, ,0.9796178340911865
0.014326370423818652,0.021748096362778708,-0.09237855699510034, ,0.015665414232704268,0.021078989079498716,-0.09381380534497744, ,0.002073808261261915, ,0.024152888413395898,-0.00015132797559284887,-0.05153823604052752,0.054051770828766575,0.034567639055172364,-0.015486526348183897, ,0.05691726181955067, ,0.06415724417073851, ,0.0010617986814536373, ,0.16886527702779314,-0.22802141084435287,0.10257802028000002,1.6102090760176624,0.15494579073400946,-1.338705442698107, ,0.18249411838167456,0.13161850424198443,0.053452387651006725,0.04560356674735973,0.21296160694035163,-0.17615279066270512, ,0.9818768501281738
0.014569988329670654,0.021739494125892506,-0.09287734322226883, ,0.015725385886558307,0.02107607781888299,-0.09393993533660865, ,0.0017041615863307275, ,0.025398654211953586,-0.001170228788176672,-0.049601361482278235,0.014919509991726592,-0.010986671643728067,-0.020117587896528285, ,0.05573828246448485, ,0.018520218481178526, ,0.0010677464861284251, ,0.17071101018473278,-0.22668537805711203,0.10309523999,1.6102090760176624,0.15685870173072564,-1.3401836146097166, ,0.19366722767034852,0.1363461804001017,0.0515495518446602,0.04059325287943083,0.17866412551237332,-0.14244933430088025, ,0.9841289520263672
0.014569988329670654,0.021739494125892506,-0.09287734322226883, ,0.015785375092230377,0.021073018942792718,-0.09406565820459581, ,0.0018257728910015258, ,0.025398654211953586,-0.001170228788176672,-0.049601361482278235,0.014919509991726592,-0.010986671643728067,-0.020117587896528285, ,0.05573828246448485, ,0.018520218481178526, ,0.0010747008568153342, ,0.17071101018473278,-0.22668537805711203,0.10309523999,1.6102090760176624,0.15685870173072564,-1.3401836146097166, ,0.19366722767034852,0.1363461804001017,0.0515495518446602,0.04059325287943083,0.17866412551237332,-0.14244933430088025, ,0.9863498210906982
0.014569988329670654,0.021739494125892506,-0.09287734322226883, ,0.015845381049660223,0.021069814533081776,-0.09419097369766337, ,0.0019495441449515368, ,0.025398654211953586,-0.001170228788176672,-0.049601361482278235,0.014919509991726592,-0.010986671643728067,-0.020117587896528285, ,0.05573828246448485, ,0.018520218481178526, ,0.0010826539776165726, ,0.17071101018473278,-0.22668537805711203,0.10309523999,1.6102090760176624,0.15685870173072564,-1.3401836146097166, ,0.19366722767034852,0.1363461804001017,0.0515495518446602,0.04059325287943083,0.17866412551237332,-0.14244933430088025, ,0.9885599613189697
0.014569988329670654,0.021739494125892506,-0.09287734322226883, ,0.015905402964157437,0.021066466664241806,-0.09431588157064202, ,0.0020750158529220276, ,0.025398654211953586,-0.001170228788176672,-0.049601361482278235,0.014919509991726592,-0.010986671643728067,-0.020117587896528285, ,0.05573828246448485, ,0.018520218481178526, ,0.0010915941746913963, ,0.17071101018473278,-0.22668537805711203,0.10309523999,1.6102090760176624,0.15685870173072564,-1.3401836146097166, ,0.19366722767034852,0.1363461804001017,0.0515495518446602,0.04059325287943083,0.17866412551237332,-0.14244933430088025, ,0.9908030033111572
0.014569988329670654,0.021739494125892506,-0.09287734322226883, ,0.01596544004638952,0.0210629774034117,-0.09444038158445581, ,0.0022018286243842768, ,0.02625343357415171,-0.0030750399316834933,-0.05058427551862885,-0.038246171086427735,-0.032464222182046455,-0.019472873577203592, ,0.0570742286391888, ,0.05016337443104877, ,0.0011015069822779401, ,0.17244090234855908,-0.2253802362013681,0.10355542294000002,1.6102090760176624,0.1583617032281455,-1.3411641753299555, ,0.19729093879099954,0.15659561313279005,0.05222561154098361,0.03168839333178255,0.16226874403756292,-0.11065089320312324, ,0.9933550357818604
0.014798778733505505,0.021719670044758017,-0.09332190210082245, ,0.016025491512370274,0.021059348810387377,-0.09456447350610854, ,0.001866770492488444, ,0.02625343357415171,-0.0030750399316834933,-0.05058427551862885,-0.038246171086427735,-0.032464222182046455,-0.019472873577203592, ,0.0570742286391888, ,0.05016337443104877, ,0.0011082792257311304, ,0.17244090234855908,-0.2253802362013681,0.10355542294000002,1.6102090760176624,0.1583617032281455,-1.3411641753299555, ,0.19729093879099954,0.15659561313279005,0.05222561154098361,0.03168839333178255,0.16226874403756292,-0.11065089320312324, ,0.9959559440612793
0.014798778733505505,0.021719670044758017,-0.09332190210082245, ,0.01608555658344781,0.02105558293763207,-0.09468815710867098, ,0.0019908444608819284, ,0.02625343357415171,-0.0030750399316834933,-0.05058427551862885,-0.038246171086427735,-0.032464222182046455,-0.019472873577203592, ,0.0570742286391888, ,0.05016337443104877, ,0.0011160210260394707, ,0.17244090234855908,-0.2253802362013681,0.10355542294000002,1.6102090760176624,0.1583617032281455,-1.3411641753299555, ,0.19729093879099954,0.15659561313279005,0.05222561154098361,0.03168839333178255,0.16226874403756292,-0.11065089320312324, ,0.9982810020446777
0.014798778733505505,0.021719670044758017,-0.09332190210082245, ,0.016145634486292797,0.021051681830285277,-0.09481143217126715, ,0.002116347916636043, ,0.02625343357415171,-0.0030750399316834933,-0.05058427551862885,-0.038246171086427735,-0.032464222182046455,-0.019472873577203592, ,0.0570742286391888, ,0.05016337443104877, ,0.0011247195207403104, ,0.17244090234855908,-0.2253802362013681,0.10355542294000002,1.6102090760176624,0.1583617032281455,-1.3411641753299555, ,0.19729093879099954,0.15659561313279005,0.05222561154098361,0.03168839333178255,0.16226874403756292,-0.11065089320312324, ,1.0006868839263916
0.014798778733505505,0.021719670044758017,-0.09332190210082245, ,0.016205724452886552,0.021047647526173136,-0.09493429847906214, ,0.002242974053200414, ,0.02625343357415171,-0.0030750399316834933,-0.05058427551862885,-0.038246171086427735,-0.032464222182046455,-0.019472873577203592, ,0.0570742286391888, ,0.05016337443104877, ,0.001134359646020139, ,0.17244090234855908,-0.2253802362013681,0.10355542294000002,1.6102090760176624,0.1583617032281455,-1.3411641753299555, ,0.19729093879099954,0.15659561313279005,0.05222561154098361,0.03168839333178255,0.16226874403756292,-0.11065089320312324, ,1.0031428337097168
0.014798778733505505,0.021719670044758017,-0.09332190210082245, ,0.016265825720509372,0.02104348205581782,-0.09505675582324796, ,0.0023704798030520706, ,0.02625343357415171,-0.0030750399316834933,-0.05058427551862885,-0.038246171086427735,-0.032464222182046455,-0.019472873577203592, ,0.0570742286391888, ,0.05016337443104877, ,0.0011449247755674205, ,0.17244090234855908,-0.2253802362013681,0.10355542294000002,1.6102090760176624,0.1583617032281455,-1.3411641753299555, ,0.19729093879099954,0.15659561313279005,0.05222561154098361,0.03168839333178255,0.16226874403756292,-0.11065089320312324, ,1.0055358409881592
0.014798778733505505,0.021719670044758017,-0.09332190210082245, ,0.016325937531728577,0.02103918744244767,-0.09517880400103086, ,0.0024986706933957555, ,0.02625343357415171,-0.0030750399316834933,-0.05058427551862885,-0.038246171086427735,-0.032464222182046455,-0.019472873577203592, ,0.0570742286391888, ,0.05016337443104877, ,0.0011563971985998642, ,0.17244090234855908,-0.2253802362013681,0.10355542294000002,1.6102090760176624,0.1583617032281455,-1.3411641753299555, ,0.19729093879099954,0.15659561313279005,0.05222561154098361,0.03168839333178255,0.16226874403756292,-0.11065089320312324, ,1.00803804397583
0.01509056635699635,0.02168516416632945,-0.09389319492419564, ,0.016386059134386708,0.02103476570200658,-0.09530044281561811, ,0.002020313422857241, ,0.027199414782191716,-0.002884337921101176,-0.05330235031784971,-0.0637495897004543,-0.027996386782492763,0.011439964305082739, ,0.05991050090880216, ,0.06962311109850972, ,0.0011636569988037076, ,0.17462643575196463,-0.22362717583891914,0.10414523489000001,1.6104187659611469,0.16041125072462709,-1.3425087289248394, ,0.2010528422848957,0.15895635101921404,0.055116994878892746,0.001836310846185998,0.1774540984497731,-0.09239232890621227, ,1.0103669166564941
0.01509056635699635,0.02168516416632945,-0.09389319492419564, ,0.016446189781589748,0.021030218843163896,-0.0954216720762047, ,0.002145439500395312, ,0.027199414782191716,-0.002884337921101176,-0.05330235031784971,-0.0637495897004543,-0.027996386782492763,0.011439964305082739, ,0.05991050090880216, ,0.06962311109850972, ,0.0011718385196503043, ,0.17462643575196463,-0.22362717583891914,0.10414523489000001,1.6104187659611469,0.16041125072462709,-1.3425087289248394, ,0.2010528422848957,0.15895635101921404,0.055116994878892746,0.001836310846185998,0.1774540984497731,-0.09239232890621227, ,1.012678861618042
0.015369413981231487,0.021653189493073922,-0.0944217706056338, ,0.016506328731695274,0.021025548867324384,-0.09554249159796001, ,0.0017153785143676189, ,0.027331727657005693,-0.003203434628371298,-0.050554056873630224,-0.09300438373684945,-0.08718310704796148,-0.011577089367419503, ,0.05755864832079726, ,0.12747697575064557, ,0.0011763305857223482, ,0.1766652372307599,-0.22202084740108044,0.10469226927000001,1.6106284559046316,0.1617776157222815,-1.3434595504815225, ,0.19894537014354458,0.1543039700137736,0.05239740631578948,0.010598463999226327,0.11243897953609566,-0.05702424874287283, ,1.0158169269561768
0.015369413981231487,0.021653189493073922,-0.0944217706056338, ,0.016566475248300593,0.02102075776863752,-0.09566290120201514, ,0.0018366629305522, ,0.027331727657005693,-0.003203434628371298,-0.050554056873630224,-0.09300438373684945,-0.08718310704796148,-0.011577089367419503, ,0.05755864832079726, ,0.12747697575064557, ,0.0011817431459258717, ,0.1766652372307599,-0.22202084740108044,0.10469226927000001,1.6106284559046316,0.1617776157222815,-1.3434595504815225, ,0.19894537014354458,0.1543039700137736,0.05239740631578948,0.010598463999226327,0.11243897953609566,-0.05702424874287283, ,1.018070936203003
0.015369413981231487,0.021653189493073922,-0.0944217706056338, ,0.016626628600231,0.02101584753400776,-0.09578290071544955, ,0.0019594561865118186, ,0.027331727657005693,-0.003203434628371298,-0.050554056873630224,-0.09300438373684945,-0.08718310704796148,-0.011577089367419503, ,0.05755864832079726, ,0.12747697575064557, ,0.001188066016174538, ,0.1766652372307599,-0.22202084740108044,0.10469226927000001,1.6106284559046316,0.1617776157222815,-1.3434595504815225, ,0.19894537014354458,0.1543039700137736,0.05239740631578948,0.010598463999226327,0.11243897953609566,-0.05702424874287283, ,1.020270824432373
0.015369413981231487,0.021653189493073922,-0.0944217706056338, ,0.016686788061527832,0.02101082014310387,-0.0959024899712776, ,0.002083420910188377, ,0.027331727657005693,-0.003203434628371298,-0.050554056873630224,-0.09300438373684945,-0.08718310704796148,-0.011577089367419503, ,0.05755864832079726, ,0.12747697575064557, ,0.0011952866201585205, ,0.1766652372307599,-0.22202084740108044,0.10469226927000001,1.6106284559046316,0.1617776157222815,-1.3434595504815225, ,0.19894537014354458,0.1543039700137736,0.05239740631578948,0.010598463999226327,0.11243897953609566,-0.05702424874287283, ,1.0225019454956055
0.01565862269465045,0.021609379792512567,-0.09493336072982353, ,0.016746952911436817,0.021005677568369106,-0.09602166880843535, ,0.0016532796225012215, ,0.029469130889944187,-0.005344715003394338,-0.05112954703425324,-0.06362196812229581,-0.08309309589735148,-0.014724702992060556, ,0.05925560086442534, ,0.10465117287413724, ,0.0011989505641772623, ,0.17880443423692008,-0.22034501436737372,0.10522245188000001,1.6110478357916007,0.16300734422017046,-1.3442172753943686, ,0.21966884620016383,0.1760611160639532,0.052919639601328915,0.015612943066179443,0.13693238006558275,-0.1068258090211862, ,1.0247838497161865
0.01565862269465045,0.021609379792512567,-0.09493336072982353, ,0.016807122434396103,0.0210004217750306,-0.09614043707176823, ,0.0017739545694673222, ,0.029469130889944187,-0.005344715003394338,-0.05112954703425324,-0.06362196812229581,-0.08309309589735148,-0.014724702992060556, ,0.05925560086442534, ,0.10465117287413724, ,0.0012035140880287706, ,0.17880443423692008,-0.22034501436737372,0.10522245188000001,1.6110478357916007,0.16300734422017046,-1.3442172753943686, ,0.21966884620016383,0.1760611160639532,0.052919639601328915,0.015612943066179443,0.13693238006558275,-0.1068258090211862, ,1.0271778106689453
0.01565862269465045,0.021609379792512567,-0.09493336072982353, ,0.01686729592002446,0.02099505472110938,-0.0962587946120166, ,0.0018960646706154144, ,0.029469130889944187,-0.005344715003394338,-0.05112954703425324,-0.06362196812229581,-0.08309309589735148,-0.014724702992060556, ,0.05925560086442534, ,0.10465117287413724, ,0.0012089672422223663, ,0.17880443423692008,-0.22034501436737372,0.10522245188000001,1.6110478357916007,0.16300734422017046,-1.3442172753943686, ,0.21966884620016383,0.1760611160639532,0.052919639601328915,0.015612943066179443,0.13693238006558275,-0.1068258090211862, ,1.0294508934020996
0.01565862269465045,0.021609379792512567,-0.09493336072982353, ,0.016927472663109417,0.020989578357429896,-0.09637674128580365, ,0.0020192774675042396, ,0.029469130889944187,-0.005344715003394338,-0.05112954703425324,-0.06362196812229581,-0.08309309589735148,-0.014724702992060556, ,0.05925560086442534, ,0.10465117287413724, ,0.001215297790857381, ,0.17880443423692008,-0.22034501436737372,0.10522245188000001,1.6110478357916007,0.16300734422017046,-1.3442172753943686, ,0.21966884620016383,0.1760611160639532,0.052919639601328915,0.015612943066179443,0.13693238006558275,-0.1068258090211862, ,1.0316848754882812
0.015962475664073144,0.021562119369405604,-0.09547833082139565, ,0.016987651963595696,0.02098399462763003,-0.0964942769556216, ,0.0015547865479880146, ,0.030046755622408397,-0.004027217948367959,-0.054302981759896965,-0.013177939364626579,-0.039384092415224496,-0.031155001653346073, ,0.06219195957559217, ,0.041524602701631406, ,0.0012179294866490914, ,0.18104402677044518,-0.2185765085391763,0.10578763432,1.6112575257350852,0.16464698221735574,-1.3456359689788662, ,0.22069056176388552,0.16885576789763485,0.056485147234042556,0.043114990735746456,0.17680085027019457,-0.14521278533419194, ,1.0338988304138184
0.015962475664073144,0.021562119369405604,-0.09547833082139565, ,0.01704783312657299,0.020978305468170658,-0.09661140148981877, ,0.0016741232428707554, ,0.030046755622408397,-0.004027217948367959,-0.054302981759896965,-0.013177939364626579,-0.039384092415224496,-0.031155001653346073, ,0.06219195957559217, ,0.041524602701631406, ,0.001221438669389258, ,0.18104402677044518,-0.2185765085391763,0.10578763432,1.6112575257350852,0.16464698221735574,-1.3456359689788662, ,0.22069056176388552,0.16885576789763485,0.056485147234042556,0.043114990735746456,0.17680085027019457,-0.14521278533419194, ,1.0360808372497559
0.015962475664073144,0.021562119369405604,-0.09547833082139565, ,0.0171080154622644,0.020972512808345476,-0.09672811476258644, ,0.0017949532656154636, ,0.030046755622408397,-0.004027217948367959,-0.054302981759896965,-0.013177939364626579,-0.039384092415224496,-0.031155001653346073, ,0.06219195957559217, ,0.041524602701631406, ,0.001225816643406252, ,0.18104402677044518,-0.2185765085391763,0.10578763432,1.6112575257350852,0.16464698221735574,-1.3456359689788662, ,0.22069056176388552,0.16885576789763485,0.056485147234042556,0.043114990735746456,0.17680085027019457,-0.14521278533419194, ,1.0383620262145996
0.015962475664073144,0.021562119369405604,-0.09547833082139565, ,0.01716819828601457,0.0209666185702909,-0.0968444166539455, ,0.001916919076200395, ,0.030046755622408397,-0.004027217948367959,-0.054302981759896965,-0.013177939364626579,-0.039384092415224496,-0.031155001653346073, ,0.06219195957559217, ,0.041524602701631406, ,0.0012310522678971167, ,0.18104402677044518,-0.2185765085391763,0.10578763432,1.6112575257350852,0.16464698221735574,-1.3456359689788662, ,0.22069056176388552,0.16885576789763485,0.056485147234042556,0.043114990735746456,0.17680085027019457,-0.14521278533419194, ,1.040846824645996
0.01615645684583353,0.021536284950205077,-0.09582566400267709, ,0.017228380918277775,0.020960624668995564,-0.09696030704973348, ,0.001663676897922514, ,0.03058243864202329,-0.0042374548526307515,-0.05340864207051925,-0.023835795988390824,-0.05680757723504761,-0.031467007494847855, ,0.061690555393334255, ,0.06160204082479061, ,0.001234305084664225, ,0.18104402677044518,-0.2185765085391763,0.10578763432,1.6112575257350852,0.16464698221735574,-1.3456359689788662, ,0.22069056176388552,0.16885576789763485,0.056485147234042556,0.043114990735746456,0.17680085027019457,-0.14521278533419194, ,1.0435988903045654
0.01615645684583353,0.021536284950205077,-0.09582566400267709, ,0.01728856268460626,0.020954533012310293,-0.0970757858415912, ,0.0017840693819349187, ,0.03058243864202329,-0.0042374548526307515,-0.05340864207051925,-0.023835795988390824,-0.05680757723504761,-0.031467007494847855, ,0.061690555393334255, ,0.06160204082479061, ,0.0012384078033005734, ,0.18246500961930248,-0.21750304866965908,0.10614929923000001,1.6112575257350852,0.16574007421547926,-1.3465273122084378, ,0.2248742690959023,0.16795918859906334,0.055695145174825184,0.04013209837052442,0.16384767573960313,-0.13412770352417092, ,1.0464539527893066
0.01615645684583353,0.021536284950205077,-0.09582566400267709, ,0.0173487429156382,0.020948345500957657,-0.09719085292694957, ,0.0019055077190050635, ,0.03058243864202329,-0.0042374548526307515,-0.05340864207051925,-0.023835795988390824,-0.05680757723504761,-0.031467007494847855, ,0.061690555393334255, ,0.06160204082479061, ,0.0012433492841576437, ,0.18246500961930248,-0.21750304866965908,0.10614929923000001,1.6112575257350852,0.16574007421547926,-1.3465273122084378, ,0.2248742690959023,0.16795918859906334,0.055695145174825184,0.04013209837052442,0.16384767573960313,-0.13412770352417092, ,1.048820972442627
0.01615645684583353,0.021536284950205077,-0.09582566400267709, ,0.017408920947086074,0.020942064028542113,-0.09730550820901682, ,0.002027733637267378, ,0.03058243864202329,-0.0042374548526307515,-0.05340864207051925,-0.023835795988390824,-0.05680757723504761,-0.031467007494847855, ,0.061690555393334255, ,0.06160204082479061, ,0.0012491168161658035, ,0.18246500961930248,-0.21750304866965908,0.10614929923000001,1.6112575257350852,0.16574007421547926,-1.3465273122084378, ,0.2248742690959023,0.16795918859906334,0.055695145174825184,0.04013209837052442,0.16384767573960313,-0.13412770352417092, ,1.0511088371276855
0.01615645684583353,0.021536284950205077,-0.09582566400267709, ,0.01746909611972469,0.02093569048155919,-0.09741975159676461, ,0.002150546636730598, ,0.03058243864202329,-0.0042374548526307515,-0.05340864207051925,-0.023835795988390824,-0.05680757723504761,-0.031467007494847855, ,0.061690555393334255, ,0.06160204082479061, ,0.0012556965958779552, ,0.1854614299745016,-0.21523256520463707,0.10686485131000001,1.6112575257350852,0.16765298521219543,-1.3480871628601876, ,0.21373185035691616,0.16389799923742793,0.05089077162939297,0.02869437268887224,0.110169776548301,-0.08984469378884362, ,1.0535948276519775
0.016563988732464677,0.021468502399872174,-0.09651193253400829, ,0.017529267779379416,0.020929226739405827,-0.09753358300491585, ,0.0015054406534598713, ,0.029441997425288097,-0.005132436920337973,-0.048785604880548374,-0.06603695828512941,-0.100362375283245,-0.03267074071643393, ,0.05721195997947374, ,0.12013829482176881, ,0.0012575063354256502, ,0.1854614299745016,-0.21523256520463707,0.10686485131000001,1.6112575257350852,0.16765298521219543,-1.3480871628601876, ,0.21373185035691616,0.16389799923742793,0.05089077162939297,0.02869437268887224,0.110169776548301,-0.08984469378884362, ,1.056041955947876
0.016563988732464677,0.021468502399872174,-0.09651193253400829, ,0.017589435276914474,0.02092267467438973,-0.09764700235393026, ,0.001624146550508005, ,0.029441997425288097,-0.005132436920337973,-0.048785604880548374,-0.06603695828512941,-0.100362375283245,-0.03267074071643393, ,0.05721195997947374, ,0.12013829482176881, ,0.0012601440348147318, ,0.1854614299745016,-0.21523256520463707,0.10686485131000001,1.6112575257350852,0.16765298521219543,-1.3480871628601876, ,0.21373185035691616,0.16389799923742793,0.05089077162939297,0.02869437268887224,0.110169776548301,-0.08984469378884362, ,1.058326005935669
0.016563988732464677,0.021468502399872174,-0.09651193253400829, ,0.017649597968220854,0.020916036151739426,-0.09776000956999245, ,0.0017439789723032763, ,0.029441997425288097,-0.005132436920337973,-0.048785604880548374,-0.06603695828512941,-0.100362375283245,-0.03267074071643393, ,0.05721195997947374, ,0.12013829482176881, ,0.0012635999986539356, ,0.1854614299745016,-0.21523256520463707,0.10686485131000001,1.6112575257350852,0.16765298521219543,-1.3480871628601876, ,0.21373185035691616,0.16389799923742793,0.05089077162939297,0.02869437268887224,0.110169776548301,-0.08984469378884362, ,1.060572862625122
0.016563988732464677,0.021468502399872174,-0.09651193253400829, ,0.01770975521420479,0.020909313029613755,-0.09787260458499772, ,0.0018646452780174839, ,0.029441997425288097,-0.005132436920337973,-0.048785604880548374,-0.06603695828512941,-0.100362375283245,-0.03267074071643393, ,0.05721195997947374, ,0.12013829482176881, ,0.0012678627311316915, ,0.1854614299745016,-0.21523256520463707,0.10686485131000001,1.6112575257350852,0.16765298521219543,-1.3480871628601876, ,0.21373185035691616,0.16389799923742793,0.05089077162939297,0.02869437268887224,0.110169776548301,-0.08984469378884362, ,1.0628459453582764
0.016864048698661285,0.02141058090885599,-0.0970139289964829, ,0.01776990638077563,0.02090250715911169,-0.09798478733653977, ,0.001421718323678357, ,0.02897667597718085,-0.006091381414045874,-0.04816149769748227,-0.0635745985214751,-0.08939274531537651,-0.02770672091930579, ,0.05653567492019976, ,0.10969290484253044, ,0.001268946221220048, ,0.18761607244641024,-0.21351039577368502,0.10738725618000002,1.6112575257350852,0.16874607721031895,-1.3488968273496185, ,0.20856470672191377,0.17006620350980425,0.05009060226415095,0.023608267013176497,0.11726163340466236,-0.09918491329604485, ,1.0659608840942383
0.016864048698661285,0.02141058090885599,-0.0970139289964829, ,0.017830050838834276,0.020895620384282353,-0.09809655776789697, ,0.0015396199314705891, ,0.02897667597718085,-0.006091381414045874,-0.04816149769748227,-0.0635745985214751,-0.08939274531537651,-0.02770672091930579, ,0.05653567492019976, ,0.10969290484253044, ,0.0012708390443686535, ,0.18761607244641024,-0.21351039577368502,0.10738725618000002,1.6112575257350852,0.16874607721031895,-1.3488968273496185, ,0.20856470672191377,0.17006620350980425,0.05009060226415095,0.023608267013176497,0.11726163340466236,-0.09918491329604485, ,1.0682458877563477
0.016864048698661285,0.02141058090885599,-0.0970139289964829, ,0.01789018796426118,0.020888654542134486,-0.098207915828019, ,0.0016586058840383424, ,0.02897667597718085,-0.006091381414045874,-0.04816149769748227,-0.0635745985214751,-0.08939274531537651,-0.02770672091930579, ,0.05653567492019976, ,0.10969290484253044, ,0.0012735318696441374, ,0.18761607244641024,-0.21351039577368502,0.10738725618000002,1.6112575257350852,0.16874607721031895,-1.3488968273496185, ,0.20856470672191377,0.17006620350980425,0.05009060226415095,0.023608267013176497,0.11726163340466236,-0.09918491329604485, ,1.0705149173736572
0.016864048698661285,0.02141058090885599,-0.0970139289964829, ,0.01795031713790465,0.020881611462646207,-0.0983188614715145, ,0.0017783803197043689, ,0.02897667597718085,-0.006091381414045874,-0.04816149769748227,-0.0635745985214751,-0.08939274531537651,-0.02770672091930579, ,0.05653567492019976, ,0.10969290484253044, ,0.0012770135830928286, ,0.18761607244641024,-0.21351039577368502,0.10738725618000002,1.6112575257350852,0.16874607721031895,-1.3488968273496185, ,0.20856470672191377,0.17006620350980425,0.05009060226415095,0.023608267013176497,0.11726163340466236,-0.09918491329604485, ,1.0727248191833496
0.017135349303270642,0.021356147748948034,-0.09747192986727539, ,0.01801043774556893,0.02087449296877505,-0.09842939465863672, ,0.0013836581715886774, ,0.02808550089379409,-0.005334287607364576,-0.048345579866681115,-0.024858353583032077,-0.04223411513183875,0.006610527259513148, ,0.05616533697378691, ,0.04900402141072391, ,0.0012777440254797864, ,0.18956992386358903,-0.2119349582673432,0.1078642909,1.6114672156785694,0.17011244220797336,-1.350092685126723, ,0.20147970606894008,0.16111535069349878,0.05040763139240506,0.0,0.16351171982509788,-0.13333284359584363, ,1.075002908706665
0.017135349303270642,0.021356147748948034,-0.09747192986727539, ,0.01807054917800235,0.020867300876467505,-0.09853951535527193, ,0.001501102543003979, ,0.02808550089379409,-0.005334287607364576,-0.048345579866681115,-0.024858353583032077,-0.04223411513183875,0.006610527259513148, ,0.05616533697378691, ,0.04900402141072391, ,0.00127926347117723, ,0.18956992386358903,-0.2119349582673432,0.1078642909,1.6114672156785694,0.17011244220797336,-1.350092685126723, ,0.20147970606894008,0.16111535069349878,0.05040763139240506,0.0,0.16351171982509788,-0.13333284359584363, ,1.077280044555664
0.017135349303270642,0.021356147748948034,-0.09747192986727539, ,0.018130650830885678,0.02086003699466863,-0.09864922353292462, ,0.001619497263524176, ,0.02808550089379409,-0.005334287607364576,-0.048345579866681115,-0.024858353583032077,-0.04223411513183875,0.006610527259513148, ,0.05616533697378691, ,0.04900402141072391, ,0.0012815623481525471, ,0.18956992386358903,-0.2119349582673432,0.1078642909,1.6114672156785694,0.17011244220797336,-1.350092685126723, ,0.20147970606894008,0.16111535069349878,0.05040763139240506,0.0,0.16351171982509788,-0.13333284359584363, ,1.079813003540039
0.017135349303270642,0.021356147748948034,-0.09747192986727539, ,0.018190742104820027,0.02085270312533242,-0.09875851916870525, ,0.0017385690912826842, ,0.02808550089379409,-0.005334287607364576,-0.048345579866681115,-0.024858353583032077,-0.04223411513183875,0.006610527259513148, ,0.05616533697378691, ,0.04900402141072391, ,0.0012846295075024138, ,0.18956992386358903,-0.2119349582673432,0.1078642909,1.6114672156785694,0.17011244220797336,-1.350092685126723, ,0.20147970606894008,0.16111535069349878,0.05040763139240506,0.0,0.16351171982509788,-0.13333284359584363, ,1.0823259353637695
0.01741923533503582,0.021305039201208454,-0.09796342691174412, ,0.018250822405315288,0.020845301063430594,-0.09886740224531672, ,0.0013115134823901502, ,0.027528057993079075,-0.005109252865809564,-0.04703279273801324,-0.014484947041481911,-0.03254816993908885,-0.006162429897297808, ,0.054735564621679195, ,0.03562256182482649, ,0.0012848087340016654, ,0.19160100260951007,-0.2103286298295045,0.10837762174000001,1.6118865955655386,0.17188871670492406,-1.3515411178747767, ,0.19647399908586083,0.1548074087413879,0.049162998518518526,0.014400680820443646,0.16521821514076052,-0.13472437610044738, ,1.084712028503418
0.01741923533503582,0.021305039201208454,-0.09796342691174412, ,0.018310891142778157,0.020837832596963358,-0.09897587275104158, ,0.0014277179931770916, ,0.027528057993079075,-0.005109252865809564,-0.04703279273801324,-0.014484947041481911,-0.03254816993908885,-0.006162429897297808, ,0.054735564621679195, ,0.03562256182482649, ,0.001285755152936602, ,0.19160100260951007,-0.2103286298295045,0.10837762174000001,1.6118865955655386,0.17188871670492406,-1.3515411178747767, ,0.19647399908586083,0.1548074087413879,0.049162998518518526,0.014400680820443646,0.16521821514076052,-0.13472437610044738, ,1.087061882019043
0.01741923533503582,0.021305039201208454,-0.09796342691174412, ,0.018370947732500316,0.020830299506968575,-0.0990839306797286, ,0.0015448828301337294, ,0.027528057993079075,-0.005109252865809564,-0.04703279273801324,-0.014484947041481911,-0.03254816993908885,-0.006162429897297808, ,0.054735564621679195, ,0.03562256182482649, ,0.001287459940286583, ,0.19160100260951007,-0.2103286298295045,0.10837762174000001,1.6118865955655386,0.17188871670492406,-1.3515411178747767, ,0.19647399908586083,0.1548074087413879,0.049162998518518526,0.014400680820443646,0.16521821514076052,-0.13472437610044738, ,1.0895018577575684
0.01741923533503582,0.021305039201208454,-0.09796342691174412, ,0.018430991594646704,0.020822703567531613,-0.09919157603077945, ,0.0016627232634938128, ,0.027528057993079075,-0.005109252865809564,-0.04703279273801324,-0.014484947041481911,-0.03254816993908885,-0.006162429897297808, ,0.054735564621679195, ,0.03562256182482649, ,0.0012899126417454537, ,0.19160100260951007,-0.2103286298295045,0.10837762174000001,1.6118865955655386,0.17188871670492406,-1.3515411178747767, ,0.19647399908586083,0.1548074087413879,0.049162998518518526,0.014400680820443646,0.16521821514076052,-0.13472437610044738, ,1.0919978618621826
0.01756633171331938,0.021276821663185945,-0.09821002361380456, ,0.01849102215424352,0.020815046545795142,-0.09929880880913541, ,0.0015012467725691947, ,0.027387683867093403,-0.005453593093835243,-0.04529598836357775,-0.024842709162524027,-0.04579165571490515,-0.010798887735436883, ,0.05321234318342264, ,0.05209457989536055, ,0.0012912849412962573, ,0.19265129428040462,-0.2095022974119625,0.10863558345000002,1.6120962855090233,0.1727085357035167,-1.352209625296955, ,0.19606806107122063,0.15380379507045505,0.04740717714285715,0.015821884138442103,0.15090918360868302,-0.12305632034691943, ,1.0942888259887695
0.01756633171331938,0.021276821663185945,-0.09821002361380456, ,0.018551038841166632,0.020807330201969083,-0.0994056290252652, ,0.0016185001265686413, ,0.027387683867093403,-0.005453593093835243,-0.04529598836357775,-0.024842709162524027,-0.04579165571490515,-0.010798887735436883, ,0.05321234318342264, ,0.05209457989536055, ,0.001293396007007692, ,0.19265129428040462,-0.2095022974119625,0.10863558345000002,1.6120962855090233,0.1727085357035167,-1.352209625296955, ,0.19606806107122063,0.15380379507045505,0.04740717714285715,0.015821884138442103,0.15090918360868302,-0.12305632034691943, ,1.0965659618377686
0.01756633171331938,0.021276821663185945,-0.09821002361380456, ,0.018611041090129524,0.020799556289340076,-0.09951203669515044, ,0.0017362136916471618, ,0.027387683867093403,-0.005453593093835243,-0.04529598836357775,-0.024842709162524027,-0.04579165571490515,-0.010798887735436883, ,0.05321234318342264, ,0.05209457989536055, ,0.001296234581909227, ,0.19265129428040462,-0.2095022974119625,0.10863558345000002,1.6120962855090233,0.1727085357035167,-1.352209625296955, ,0.19606806107122063,0.15380379507045505,0.04740717714285715,0.015821884138442103,0.15090918360868302,-0.12305632034691943, ,1.0988619327545166
0.01756633171331938,0.021276821663185945,-0.09821002361380456, ,0.01867102834067158,0.020791726554281343,-0.09961803184027328, ,0.001854227350938953, ,0.027387683867093403,-0.005453593093835243,-0.04529598836357775,-0.024842709162524027,-0.04579165571490515,-0.010798887735436883, ,0.05321234318342264, ,0.05209457989536055, ,0.0012997886759794801, ,0.19265129428040462,-0.2095022974119625,0.10863558345000002,1.6120962855090233,0.1727085357035167,-1.352209625296955, ,0.19606806107122063,0.15380379507045505,0.04740717714285715,0.015821884138442103,0.15090918360868302,-0.12305632034691943, ,1.101181983947754
0.01756633171331938,0.021276821663185945,-0.09821002361380456, ,0.018731000037146287,0.02078384273626254,-0.09972361448760322, ,0.001972419291165786, ,0.027387683867093403,-0.005453593093835243,-0.04529598836357775,-0.024842709162524027,-0.04579165571490515,-0.010798887735436883, ,0.05321234318342264, ,0.05209457989536055, ,0.0013040458317717986, ,0.19555504184111303,-0.2072395366798147,0.10935502440000001,1.6125156653959922,0.1746214467002329,-1.3537694759487051, ,0.18717345475043548,0.14356572096591644,0.047691052455089825,0.04063936667264352,0.11350193673984778,-0.09255321878668522, ,1.103503942489624
0.01798014211497543,0.021199798861741122,-0.09889636370740465, ,0.018790955628709333,0.02077590656785947,-0.09982878466958381, ,0.001306335363364582, ,0.027138293427086044,-0.0045486305573619575,-0.045404306488950996,-0.04045168955421426,-0.0682463647876214,-0.041606559599208726, ,0.053091694810248675, ,0.07933292208499239, ,0.0013040602313415645, ,0.19555504184111303,-0.2072395366798147,0.10935502440000001,1.6125156653959922,0.1746214467002329,-1.3537694759487051, ,0.18717345475043548,0.14356572096591644,0.047691052455089825,0.04063936667264352,0.11350193673984778,-0.09255321878668522, ,1.106539011001587
0.01798014211497543,0.021199798861741122,-0.09889636370740465, ,0.018850894569306807,0.02076791977476369,-0.09993354242411877, ,0.0014214320500457705, ,0.027138293427086044,-0.0045486305573619575,-0.045404306488950996,-0.04045168955421426,-0.0682463647876214,-0.041606559599208726, ,0.053091694810248675, ,0.07933292208499239, ,0.0013047938052084657, ,0.19555504184111303,-0.2072395366798147,0.10935502440000001,1.6125156653959922,0.1746214467002329,-1.3537694759487051, ,0.18717345475043548,0.14356572096591644,0.047691052455089825,0.04063936667264352,0.11350193673984778,-0.09255321878668522, ,1.10878586769104
0.01798014211497543,0.021199798861741122,-0.09889636370740465, ,0.01891081631766345,0.020759884075792427,-0.10003788779456024, ,0.0015371261275515687, ,0.027138293427086044,-0.0045486305573619575,-0.045404306488950996,-0.04045168955421426,-0.0682463647876214,-0.041606559599208726, ,0.053091694810248675, ,0.07933292208499239, ,0.001306236863111218, ,0.19555504184111303,-0.2072395366798147,0.10935502440000001,1.6125156653959922,0.1746214467002329,-1.3537694759487051, ,0.18717345475043548,0.14356572096591644,0.047691052455089825,0.04063936667264352,0.11350193673984778,-0.09255321878668522, ,1.1110248565673828
0.01798014211497543,0.021199798861741122,-0.09889636370740465, ,0.0189707203372707,0.020751801182898558,-0.10014182082969444, ,0.0016532121999901772, ,0.027138293427086044,-0.0045486305573619575,-0.045404306488950996,-0.04045168955421426,-0.0682463647876214,-0.041606559599208726, ,0.053091694810248675, ,0.07933292208499239, ,0.0013083786861783722, ,0.19555504184111303,-0.2072395366798147,0.10935502440000001,1.6125156653959922,0.1746214467002329,-1.3537694759487051, ,0.18717345475043548,0.14356572096591644,0.047691052455089825,0.04063936667264352,0.11350193673984778,-0.09255321878668522, ,1.11329984664917
0.01824105984406573,0.02115267318610726,-0.09932928071311148, ,0.019030606096374945,0.0207436728011798,-0.10024534158372936, ,0.0012766487841546401, ,0.025364315776912665,-0.004762879020103876,-0.04258419805775223,-0.005438931365683249,-0.02315293335871423,0.026061644005325735, ,0.04979405040376767, ,0.02378024938164672, ,0.0013081840242027665, ,0.19737760679943,-0.2058417220295801,0.10981002219000001,1.612725355339477,0.1759878116978873,-1.3550470124659504, ,0.17804304232358495,0.1375317993601026,0.04474385258426967,-0.017626108874276507,0.1626791070576289,-0.13265390371300467, ,1.115501880645752
