NicholasDascanio/dvrk_moveit_final/test/execution/third_experiment_notsharpbends/thirdexp_500vel5.0/thirdexp_500vel5.0_7.csv
Current Position (x),Current Position (y),Current Position (z), ,Planned Position (x),Planned Position (y),Planned Position (z), ,Position Error,,Cartesian linear Velocity(x),Cartesian linear Velocity(y),Cartesian linear Velocity(z),Cartesian Angular Velocity(x),Cartesian Angular Velocity(y),Cartesian Angular Velocity(z), ,Total Linear Velocity, ,Total Angular Velocity, ,MSE, ,Joint 1 Position,Joint 2 Position,Joint 3 Position,Joint 4 Position,Joint 5 Position,Joint 6 Position, ,Joint 1 Velocity,Joint 2 Velocity,Joint 3 Velocity,Joint 4 Velocity,Joint 5 Velocity,Joint 6 Velocity, ,Time Stamp
0.009908515149492208,0.020014514689034438,-0.07925101952407071, ,0.010084305360610769,0.019968321563344514,-0.07934773131458485, ,0.00020588631234388547, ,-1.237722950504801e-05,-1.117465916488473e-05,-4.369601150113528e-06,-0.004926712418485394,-0.00025576545592204667,0.0016297533984285218, ,1.723839412135152e-05, ,0.004933346858158385, ,1.715719269532379e-05, ,0.1394262193112493,-0.24506548229776637,0.08890864223000002,1.6047571374870648,0.13253740477247725,-1.3054040183060305, ,-0.00016020658646446489,0.00011473648209793027,0.0,-0.0017255984166831017,0.0,0.0045804507066777855, ,0.02292490005493164
0.009916507886330743,0.02002331942933755,-0.07928580594573642, ,0.010119438892445817,0.02000350550136654,-0.07949001776471906, ,0.0002885759033542397, ,0.0005422421488187113,0.000847263013828165,-0.0033897239404899224,0.25731960360990364,-0.0013984381947638625,0.002336930293555973, ,0.0035358322295164467, ,0.2573234035817476, ,2.247555525900569e-05, ,0.13943394204412352,-0.24506548229776637,0.08894493835,1.6047571374870648,0.13226413177294635,-1.3097551919465094, ,0.0008251168565334563,0.00010372535617347568,0.003534238189483027,-0.0016663294415573298,0.0,-0.25764814756699517, ,0.04931187629699707
0.009955382183055465,0.020045636307851833,-0.0793766108198346, ,0.010154719906258313,0.020038138343706848,-0.07963159912452258, ,0.0003237449349189343, ,0.0019835653385349983,0.0012142031675612145,-0.004785801781361103,0.08725183537539896,-0.13270002096573205,-0.031075645509272547, ,0.005320969787062529, ,0.15881491850002905, ,2.5568973456783108e-05, ,0.13944938750987196,-0.24505775956489215,0.08903956752000002,1.6047571374870648,0.12953140177763753,-1.3129993094619985, ,0.0009839562860369166,-5.875567787950737e-05,0.0049996269679849345,-0.0016256668307259646,-0.13532460893110335,-0.08740349664070446, ,0.07156085968017578
0.010006409818363052,0.020082089628549227,-0.07952270465606, ,0.010190147678199821,0.020072223924709764,-0.07977247996191039, ,0.0003102331972279922, ,0.002099503307562507,0.0013869279986734762,-0.0053348924894241825,0.23273196307076083,-0.11574184028500872,-0.024586761843863093, ,0.005898521957718296, ,0.25992372000840747, ,2.686762732964409e-05, ,0.13953433757148845,-0.24505003683201793,0.08919252974000001,1.6047571374870648,0.12693530828209418,-1.3198670307072282, ,0.003783560956146517,-0.0003745069801476809,0.005608736450704225,-0.0015804677201618235,-0.11460640693587645,-0.2325711597363589, ,0.09755897521972656
0.010057858891404437,0.020119451254588232,-0.07966710077473049, ,0.0102257214865058,0.020105766067037165,-0.07991266482791229, ,0.00029776977584627956, ,0.0007706568439770098,0.0014054550917448258,-0.005829482825155288,-0.1593891369021374,0.0274425274505295,0.007307705135124161, ,0.006045832117654322, ,0.1617343169168166, ,2.7427117763294833e-05, ,0.13962701036597913,-0.24505775956489215,0.08934419567000002,1.6047571374870648,0.1243392147865508,-1.3178317692771366, ,0.0029155817210903276,0.0008477876544468075,0.006077379442960704,-0.0015380163703508183,0.0312717806788401,0.15834783224678795, ,0.11959981918334961
0.010066305681999335,0.020143695182120676,-0.07976232738483333, ,0.010261440611492735,0.02013876858168302,-0.080052158256698, ,0.0003494336079802579, ,0.00014640949990786067,0.0015150128595305418,-0.006182934173767896,-0.0035177330310356054,0.11191072502885238,0.030852955411939678, ,0.006367525006103476, ,0.11196599846884371, ,2.8639415026961116e-05, ,0.13970423769472137,-0.24505775956489215,0.08944401,1.6047571374870648,0.12556894328443977,-1.3156490595449226, ,0.004626907528463022,0.0006591235244899624,0.0064593720681265215,-0.0015097232589108326,0.12056755399108719,0.002644055559354652, ,0.14556384086608887
0.01009836799176322,0.020189635415399095,-0.07994514190642107, ,0.010297304335555526,0.02017123526798812,-0.08019096476560342, ,0.0003167698098032356, ,0.0011261273396189675,0.0014018239418852913,-0.00550052117285921,0.055825668190280675,0.005444885852103775,0.004831606544394615, ,0.005786968664348596, ,0.056090569669049774, ,2.906129918715034e-05, ,0.13987413781795432,-0.24505003683201793,0.08963586092,1.6047571374870648,0.12638876228303242,-1.3155824583058364, ,0.00565963855282582,0.0,0.0057838821786492375,-0.0014588423405748063,0.011939294061381993,-0.05602758666074675, ,0.16785097122192383
0.010121384732077859,0.02021739423503305,-0.08005494809365744, ,0.010333311943164681,0.020203169913655006,-0.08032908885515574, ,0.00034679768054670263, ,0.0013596700951982665,0.0015448939555810569,-0.006050133605794176,0.03513234831903577,-0.006079608361166221,-0.0005114512612200842, ,0.006390580314003368, ,0.035654502214010474, ,3.0113718790389223e-05, ,0.13998225607819345,-0.24505003683201793,0.08975123073,1.6045474475435806,0.12652539878279787,-1.3166740210912193, ,0.006223856466035998,0.0,0.006363887942469038,0.0008632502857057112,0.0,-0.03501700116511748, ,0.19049978256225586
0.01015326936245078,0.020252378904246384,-0.08019158280083141, ,0.010369462720863665,0.020234576294762253,-0.08046653500909919, ,0.0003502216697430517, ,0.001519416043757363,0.0017612757871331842,-0.007025171817134397,-0.011121112190844941,-0.006133599907627241,-0.0013871498541167468, ,0.007400253818121936, ,0.0127004002723078, ,3.099369879738421e-05, ,0.14013671073567796,-0.2450423140991437,0.08989511892,1.605176517374034,0.12652539878279787,-1.3167556998313599, ,0.006473087434877001,0.00036136360902438297,0.007374449777777778,0.0012881101798649934,0.0,0.010938326134567937, ,0.2101459503173828
0.010189295181248129,0.020290675220774074,-0.08034840433821672, ,0.010405755957266161,0.020265458175779467,-0.08060330769442026, ,0.00033536083241251884, ,0.001389112556745929,0.001309291076104369,-0.0054553877166206325,-0.006360046142422665,-0.012717664836003267,0.020270804981417465, ,0.00577971729031196, ,0.014219324209773341, ,3.156357297148584e-05, ,0.14030661085891089,-0.245019145900521,0.09005974775,1.6053862073175185,0.12652539878279787,-1.3165923423510788, ,0.007573944811112094,0.0007284667501298873,0.005738044495677235,-0.021234736666512308,0.0,0.0027578784748974227, ,0.23234081268310547
0.01022124196726964,0.02032024125720679,-0.08047157761355002, ,0.010442190943053282,0.0202958193095819,-0.08073941136137369, ,0.00034806579535902115, ,0.0016095450422585792,0.0015818025644783343,-0.006620643922408089,-0.003054083568378501,-0.012045936942115342,0.014975442404872842, ,0.0069946880233051545, ,0.012427067656355918, ,3.215610666237147e-05, ,0.14048423371501806,-0.24499597770189835,0.09018937675000001,1.6053862073175185,0.12652539878279787,-1.3165106636109383, ,0.008226469400505922,0.0010739204334926234,0.00695277674378001,-0.015745112092612718,0.0,-0.00014815321705391343, ,0.2527599334716797
0.010228752816844908,0.020328101829688004,-0.08050231244122695, ,0.01047876697097096,0.02032566343746548,-0.08087485044350846, ,0.000448661995453033, ,0.0016704023744767535,0.0015850899813686788,-0.006621520542751082,-0.002792440436874711,-0.012538662946905962,0.014018859076051377, ,0.007010512723030143, ,0.012845846774766178, ,3.3517277905890186e-05, ,0.14052284737938917,-0.24499597770189835,0.09022178400000001,1.6053862073175185,0.12652539878279787,-1.3165106636109383, ,0.00896067605485492,0.0010739204334926234,0.006961893146853148,-0.01474814736318559,0.0,-0.0002749113337657769, ,0.2742769718170166
0.010283278861123926,0.02038092392522957,-0.08072194588146972, ,0.01051548333582708,0.020354994289160946,-0.08100962935769218, ,0.00037061171944537683, ,0.0018009341699179765,0.0017242470502943474,-0.007217127172486571,-0.0021779352968427025,-0.01200063711154565,0.009834383584186288, ,0.007635660835754226, ,0.012196666497852175, ,3.406454947963912e-05, ,0.1407854202971128,-0.24495736403752721,0.09044993104000001,1.6053862073175185,0.12638876228303242,-1.3163992457072418, ,0.009385259509486871,0.0012745355624724595,0.007621440918660288,-0.01045226979763854,0.0,-0.0005023783351562557, ,0.29413580894470215
0.010316573631947453,0.020413306515324615,-0.08085351062505382, ,0.010552339334488901,0.020383815582848762,-0.08114375250413768, ,0.00037509402816798674, ,0.0018012192348132912,0.0016469761961331497,-0.006730623890621192,-0.001510091517780765,-0.012443775763273117,0.008443167224385805, ,0.0071594845680042745, ,0.012535067523793375, ,3.457205379705567e-05, ,0.14098621135184264,-0.24494191857177877,0.09059122665000001,1.6053862073175185,0.12652539878279787,-1.3164289848707975, ,0.01028036284955444,0.0007914058606343812,0.007098400855614974,-0.008901829286758221,-3.4874415053593435e-06,-0.0004870624822795061, ,0.31623291969299316
0.010356271368494764,0.020446308441088915,-0.0809896308767318, ,0.010589334265880268,0.020412131025174206,-0.08127722426642815, ,0.00037174772049518724, ,0.001488627746707553,0.0010929796550223597,-0.004551188442144401,-0.0013868390879736194,-0.012014098512040305,0.007220822949132262, ,0.004911612090797601, ,0.012093877945485144, ,3.499288182706738e-05, ,0.14123333880381783,-0.2449187503731561,0.09073511484,1.6053862073175185,0.12652539878279787,-1.3164289848707975, ,0.010214400605793315,0.0008491242425927326,0.00482837572597757,-0.007623822804445943,5.184128437198711e-05,-0.000495012280289928, ,0.3371307849884033
0.010384131687795473,0.02046861845494889,-0.08108670757919965, ,0.010626467430978859,0.020439944311261445,-0.08141004901154299, ,0.00040509073157786533, ,0.0019361012730156825,0.0016365853776649805,-0.006988185892742677,-0.002207366578820253,-0.01302710949520836,0.0062250780084103915, ,0.007433817451974963, ,0.013212798051426916, ,3.581622180707611e-05, ,0.14141868439279923,-0.2448878594416592,0.09083752175000001,1.6053862073175185,0.12666203528256328,-1.316540402774494, ,0.011537907309234976,0.0018295089460157855,0.006898575799047208,-0.006876653989348881,0.0,-0.00042172224198262597, ,0.3565537929534912
0.010430491468884933,0.020510715739442555,-0.08126397630848609, ,0.010663738132813442,0.020467259124728684,-0.08154223108988302, ,0.00036567500183417895, ,0.0019718024180446583,0.001690708078390977,-0.007668282071425576,-0.0005527272583792254,-0.009011481784409739,0.006342498361011296, ,0.00809623668806009, ,0.00902841541235112, ,3.631087947818592e-05, ,0.14168898004339708,-0.2448492457772881,0.09102418751000001,1.6053862073175185,0.12679867178232873,-1.3166518206781905, ,0.011007941989172397,0.0030612255715074346,0.008036736387487387,-0.006102486964773784,0.003593771110617735,-0.0033140058692245735, ,0.3749558925628662
0.010465418650177905,0.020542196498700597,-0.08140093121535939, ,0.010701145676461198,0.02049407913770272,-0.08167377483529638, ,0.00036376661788856135, ,0.00197986568736813,0.001834810826064159,-0.007581270503370446,0.004557788038462639,-0.005099399351623666,0.0015155822289297013, ,0.008047487890810069, ,0.006839391822854681, ,3.6747067466656596e-05, ,0.14188977109812692,-0.24481063211291695,0.0911680757,1.605176517374034,0.12693530828209418,-1.316763238581887, ,0.011552237388629106,0.0012490052313747066,0.007992379086803815,0.0,0.006669424677404608,-0.005796094099252287, ,0.3968038558959961
0.01051111142081683,0.020577259669423496,-0.0815545981164325, ,0.010738689369045044,0.0205204080108338,-0.08180468456510401, ,0.0003428805410245566, ,0.0018463028868286851,0.0014536407421350999,-0.00605799412463057,0.004584492411538608,-0.00589535569602782,0.00038643035205226104, ,0.006497784127775063, ,0.007468117654068226, ,3.702493111035719e-05, ,0.14217551221447322,-0.24475657298279738,0.09133011195000001,1.6053862073175185,0.12693530828209418,-1.316763238581887, ,0.012506186288675643,0.0012522418423718022,0.0064177322804190185,0.0011436067562835856,0.006547422186289352,-0.0056677629436088645, ,0.4154019355773926
0.010546994213336798,0.020603500053754692,-0.08167926996867679, ,0.010776368519730746,0.02054624939330984,-0.08193496458012527, ,0.00034823834492896317, ,0.0018528620344600932,0.0014724734545234995,-0.0066045946241256375,0.0013199715040128322,-0.006923139850855567,-0.0014030112703130929, ,0.007015835370221371, ,0.007047849147004563, ,3.730775119756428e-05, ,0.14240719420069997,-0.24468706838692936,0.09146103724000001,1.6055958972610032,0.12707194478185962,-1.3169563352257239, ,0.011328301798522305,0.002585429891666892,0.0069467123942433505,0.0021421723114119304,0.0040182388777645775,-0.0035841538809826623, ,0.4362809658050537
0.010565383419469254,0.020617832433210897,-0.08174468154656554, ,0.01081418243972436,0.02057160692287177,-0.08206461916470346, ,0.0004079189009910917, ,0.0019161327952602906,0.001500131022650068,-0.007211757790981142,-0.0011939587773444709,-0.008220997085557345,0.004745903084601302, ,0.007611268515166598, ,0.008307244497127704, ,3.787783917366104e-05, ,0.1425153124609391,-0.24465617745543247,0.09152974061000001,1.6058055872044876,0.12707194478185962,-1.3168746564855833, ,0.011026886998772039,0.003915951441946174,0.007545623647560399,-0.004460466942880068,0.0040182388777645775,-0.003296122676826622, ,0.4543027877807617
0.010604200645222979,0.0206463078689823,-0.0818844222549344, ,0.010852130442269334,0.020596484225827792,-0.08219365258673134, ,0.0003994683689403635, ,0.0018397211827562742,0.0011843308199807091,-0.006334900395961438,-0.0038188075194488,-0.007403076067942031,0.004960969477750202, ,0.0067021023976205196, ,0.008329994954140996, ,3.836006745141641e-05, ,0.1427701626457885,-0.244571227393816,0.09167622138,1.6058055872044876,0.1273452177813905,-1.316934134812695, ,0.011753398756312953,0.005005526559815573,0.006617703165766515,-0.004460466942880068,0.005605689180528589,-0.0017504944181345166, ,0.4723777770996094
0.010644227394683726,0.02067413883199138,-0.08201891992629891, ,0.010890211842643912,0.020620884917068247,-0.08232206909767677, ,0.0003940098326184261, ,0.0020624705696947383,0.0014517542355741645,-0.00677652561330022,0.012684087488589076,-0.0058464776718434594,0.006349466637723256, ,0.007230675943442521, ,0.01396665179258941, ,3.8778958283181296e-05, ,0.14303273556351215,-0.24449400006507374,0.09181751699000001,1.6058055872044876,0.12748185428115594,-1.3170455527163916, ,0.014056723679228377,0.003286778111596668,0.007139763119677276,-0.004460466942880068,0.009630307085847323,-0.01655374630734926, ,0.4918699264526367
0.010686600135019405,0.020704131913418498,-0.08216468634531879, ,0.010928425958158376,0.020644812600080296,-0.08244987293260836, ,0.00037858935436912213, ,0.002165263519566203,0.0015817183201687175,-0.007677771764995423,0.006000966413224996,-0.007708572948097562,0.005495186678247688, ,0.008132550536509596, ,0.00976901571855631, ,3.927726826637596e-05, ,0.14330303121411,-0.24440905000345728,0.09197047921000001,1.6058055872044876,0.12761849078092136,-1.3169936131398068, ,0.013397845765702498,0.004359599249379069,0.008048919413845378,-0.004460466942880068,0.00701282008640861,-0.010933948905879391, ,0.5074458122253418
0.010722039183255217,0.020730991204048872,-0.08229327627939974, ,0.010966772108152226,0.020668270866962542,-0.08257706831022094, ,0.0003799552104794557, ,0.0021173666780649157,0.001589561017932743,-0.0074938506917387425,0.006940730971477178,-0.005898965743307293,0.006017645185661052, ,0.007947813791803647, ,0.009108870381435413, ,3.9750305800676974e-05, ,0.14351926773458829,-0.24433954540758926,0.09210529337000001,1.6058055872044876,0.12775512728068683,-1.3171050310435033, ,0.0132927499031336,0.0037303604087242626,0.007869966166007906,-0.004460466942880068,0.008770823124117066,-0.01125197160935712, ,0.5299348831176758
0.010744809827039846,0.020746589121567294,-0.08236976384823518, ,0.011005249613991571,0.02069126329843981,-0.08270365943286154, ,0.00042705513785127783, ,0.001972800367192298,0.0012823735966683038,-0.006424954135108,0.008534649745444167,-0.003336622701375453,0.006731552156634214, ,0.0068422554007043215, ,0.009163693926597327, ,4.040010054847846e-05, ,0.14367372239207277,-0.2442932090103439,0.09218566335,1.6058055872044876,0.12789176378045228,-1.3172164489471996, ,0.013721362284336434,0.0041672914424268955,0.006752357575243748,-0.004460466942880068,0.011860501051944293,-0.013279222459467206, ,0.5456547737121582
0.010788333183430584,0.02077086428851707,-0.08249524490216606, ,0.011043857799066286,0.02071379346387787,-0.08282965048655397, ,0.0004247081387148009, ,0.00206354054672271,0.0010198088097937942,-0.005752316840058854,-0.0015712842078608462,-0.014300988749938211,0.003980720740522473, ,0.00619575327340642, ,0.014387049975223125, ,4.1001403238628675e-05, ,0.14399035443991598,-0.24420053621585322,0.09231788493000001,1.6058055872044876,0.1280284002802177,-1.317327866850896, ,0.014806825020825521,0.005244174950116849,0.0060427964795144165,-0.004460466942880068,0.0016460631107017311,-0.004240035129602544, ,0.5617258548736572
0.010808570424904409,0.020782115160650858,-0.08255833071476579, ,0.011082595988787365,0.02073586492129813,-0.0829550456410257, ,0.0004843674504123511, ,0.0021149412900971372,0.001411329549608366,-0.00693285112683014,0.008303946544308508,-0.0022504366455166373,-0.0028682642630110775, ,0.007384392493966274, ,0.008603486345082526, ,4.181357454620872e-05, ,0.14413708636452624,-0.24414647708573364,0.09238399572000001,1.6055958972610032,0.12816503677998314,-1.3174392847545926, ,0.014391407576352863,0.004290410023500683,0.0072900739221967974,0.005337199619520422,0.011220726577569133,-0.01180978950572363, ,0.5822789669036865
0.010869325171033182,0.020826211129835348,-0.08276547395283027, ,0.011121463510584122,0.020757481217392047,-0.08307984904973209, ,0.00040881443796422025, ,0.0024250890557166145,0.0016999908007696352,-0.008546966163178371,0.0006514785234463905,-0.005685594045482217,-0.006092829108916765, ,0.009045532391483318, ,0.005722792876432835, ,4.2278052210771755e-05, ,0.14451550027536325,-0.24403835882549452,0.09260177244000001,1.6060152771479719,0.1283016732797486,-1.3176323813984294, ,0.014818385627493876,0.005642017507922764,0.008948770516853935,0.0074845728407284,0.007568555838992502,-0.005188569792402767, ,0.598059892654419
0.01091736507092458,0.02085538265154624,-0.0829161988179276, ,0.011160459693901465,0.02077864588753642,-0.08320406484988338, ,0.00038451317145832606, ,0.002427833335939561,0.0013468784738684247,-0.007032509148001691,-0.0005525984994214367,-0.0099432776386521,-0.0058242068994342235, ,0.0075607302059521354, ,0.009958620290982458, ,4.26226701328843e-05, ,0.14482440959033224,-0.24393024056525536,0.09275991982000001,1.6060152771479719,0.1283016732797486,-1.3176323813984294, ,0.017216426262422133,0.005375064256531585,0.007405305216178523,0.0067835528861499295,0.00582203238021981,-0.0038163983584007274, ,0.6136789321899414
0.010940493351481466,0.020869337209711163,-0.08298884237122381, ,0.01119958387019727,0.02079936245580741,-0.08332769716246916, ,0.000432257946858403, ,0.002514479858693912,0.0015447516330817023,-0.007818533540035288,0.004926378241621064,-0.003864814374344133,-0.0037773857968823343, ,0.008356933246373498, ,0.006261466562337202, ,4.312986428412753e-05, ,0.1450020324464394,-0.24387618143513579,0.09283640093000001,1.6060152771479719,0.12857494627927946,-1.3178552172058224, ,0.0175800188140924,0.005371618826873554,0.008227691900826447,0.006432082390280837,0.012568891111779487,-0.00934074070610874, ,0.6294357776641846
0.01098994024814134,0.020901594912281826,-0.08315176716698236, ,0.011238835372939468,0.020819634434995873,-0.0834507500922843, ,0.00039756394782137903, ,0.0024626852987626197,0.0015379359758373634,-0.007747914345069745,0.008366115921686934,8.5363871884741e-05,-0.002403389992657904, ,0.008274070500367632, ,0.008366549747964885, ,4.364388192159647e-05, ,0.14517193256967234,-0.2438221223050162,0.09292065978000001,1.6060152771479719,0.12884821927881035,-1.3180780530132152, ,0.017495748812402432,0.0052329814537596915,0.008156073486943164,0.006096101373752166,0.016648250489053502,-0.012690181110403383, ,0.6426689624786377
0.011005443227339894,0.020910847254612005,-0.08320398390559693, ,0.011278213537603391,0.020839465326621523,-0.08357322772795478, ,0.0004645858609065941, ,0.0024367526544160057,0.0016858060186655446,-0.008998407650129164,0.00524343077159399,0.002494391787838666,-0.0022262745457647844, ,0.00947370284890103, ,0.005806504770596015, ,4.437838398455667e-05, ,0.14542678275452176,-0.2437217267776513,0.09306195539,1.6060152771479719,0.12884821927881035,-1.3179146955329342, ,0.014977421331829352,0.007000483676723986,0.009391987924528302,0.005629041005199788,0.016648250489053502,-0.011381058580864082, ,0.6564328670501709
0.0110441502071633,0.02093679081036348,-0.08333382118905582, ,0.011317717701669077,0.0208588586209479,-0.0836951341419631, ,0.0004598474204949453, ,0.0027754497675446578,0.001845711542851489,-0.009132576109509564,0.005311668075146734,-0.004051579801486673,0.002957160435231624, ,0.009721816646469103, ,0.006680497967977759, ,4.506482766039924e-05, ,0.14565846474074848,-0.24363677671603484,0.09319806584000001,1.6062249670914566,0.12884821927881035,-1.3178330167927936, ,0.018502035788354607,0.005602758822873968,0.009601453598553349,0.0,0.014934200498601235,-0.010855146946310254, ,0.669644832611084
0.011073103132458063,0.020954712000101086,-0.08342773699888514, ,0.011357347204618517,0.020877817796997027,-0.08381647339067318, ,0.0004876713989252855, ,0.002863212943588132,0.0016002592110623873,-0.008853357104307609,-0.005184771085315298,-0.012045492513596694,0.0007159956251259095, ,0.009441437915874607, ,0.013113950080339032, ,4.5819280552631504e-05, ,0.14605232411733393,-0.24348232205855033,0.09338732418000001,1.6062249670914566,0.12966803827740297,-1.3184198454748315, ,0.01961085793727439,0.00809085666490883,0.00833969189528796,0.0,0.07590706263039745,-0.05832145841423155, ,0.6827859878540039
0.011132722618958882,0.02098727198605469,-0.0836155545369538, ,0.011397101387932825,0.020896346322564034,-0.08393724951435748, ,0.0004262056642656802, ,0.002450158761459814,0.0012439747776384527,-0.007197255600772302,0.01296726796880324,0.0074027367274151195,0.005932249680643649, ,0.007703975557243624, ,0.014931528063726199, ,4.6333872324569904e-05, ,0.14631489703505757,-0.24338964926405965,0.09349361996000001,1.6062249670914566,0.12980467477716842,-1.3184495846383872, ,0.019241066820452308,0.006881346828559225,0.007567131363420429,0.0,0.02752921273813196,-0.01977852989940164, ,0.6999948024749756
0.011161393030371525,0.020999784990970785,-0.08369333508528132, ,0.011436979595089677,0.020914447654232095,-0.08405746653722129, ,0.00046456660446777626, ,0.0026987383044119137,0.0011270446443299035,-0.006945698146750166,-0.016584855378379847,-0.019584479440929125,-0.001201804030395015, ,0.0075363214376631725, ,0.025663383384285254, ,4.695575022630443e-05, ,0.14653113355553585,-0.2433046992024432,0.09357528623000001,1.6062249670914566,0.12994131127693384,-1.3183976450618027, ,0.01961085793727439,0.007481778904526073,0.0073000969385884525,0.0,0.0,0.009183948192897586, ,0.7132987976074219
0.011190922800826831,0.02101165281661364,-0.0837687631576154, ,0.011476981171560317,0.02093212523738681,-0.08417712846742832, ,0.0005048923187997393, ,0.0029188254504984253,0.0013347483779241782,-0.008172656393426665,-0.016094661304700043,-0.02000676574644704,-0.0013500841448119008, ,0.008780285175771133, ,0.025677008425559516, ,4.768502413951329e-05, ,0.14673192461026568,-0.2432197491408267,0.09365435992000001,1.6062249670914566,0.12980467477716842,-1.318122869677825, ,0.020028902819432415,0.008598361799051617,0.008559275400322409,0.0,0.0,0.007589301799477917, ,0.7265839576721191
0.01124888691949009,0.02104440268282959,-0.08394908096123768, ,0.011517105464807121,0.02094938250623095,-0.08429623929712715, ,0.0004488751855364334, ,0.003021339242219493,0.001697631439125552,-0.009873037625079044,0.012919293218553715,-0.00040367184905109384,-0.002589999375014512, ,0.010463618650634655, ,0.012925594547936363, ,4.820670696226763e-05, ,0.14714122945259958,-0.24306529448334221,0.09384361826000001,1.606434657034941,0.13021458427646476,-1.3182120871684926, ,0.0202080369587885,0.009365400360749756,0.010316587772020727,0.006328018728330663,0.018913664635618794,-0.021285032644784634, ,0.7406167984008789
0.011277711390830123,0.02106057238592956,-0.08404477149797639, ,0.011557351824280658,0.020966222883799353,-0.0844148030024761, ,0.00047331164669268586, ,0.002963037508017287,0.0017834093921268983,-0.010178759657545004,0.01726764566536876,0.008231027312505922,-0.0002139032655479604, ,0.010750222718618875, ,0.019129069192740416, ,4.893944548555264e-05, ,0.14732657504158098,-0.24297262168885153,0.09394343259000001,1.606434657034941,0.13035122077623018,-1.318323505072189, ,0.019869543877401755,0.009230688022238049,0.010633385527369827,0.006108004584607669,0.027533850596363298,-0.0255314751615136, ,0.7523159980773926
0.011311301115241163,0.02107921803015576,-0.08414997765278637, ,0.011597719601416947,0.02098264978197356,-0.0845328235436688, ,0.00048778268926415164, ,0.0030537015719476635,0.001775281415450473,-0.009798096644281036,0.01692800028911954,0.0058666580516005176,6.173156932763307e-05, ,0.010415345181280877, ,0.017915769036759385, ,4.969436928007558e-05, ,0.14755053429493348,-0.24287994889436082,0.09405361724000001,1.606434657034941,0.13048785727599563,-1.3184349229758854, ,0.021455333836416634,0.008287925469153929,0.01027665259354839,0.005764663761048873,0.026811949754665162,-0.024307667303932082, ,0.7633638381958008
0.011345811886171578,0.021097457493847237,-0.08425261197160963, ,0.011638208149634828,0.020998666601496165,-0.08465030486496047, ,0.0005034032704706598, ,0.0031765200375081437,0.0016948657180910942,-0.010121575804799743,0.008358785925505091,-0.002266465626881627,0.0014064041419741841, ,0.010742864893656568, ,0.008660604041165547, ,5.0473976081513754e-05, ,0.147774493548286,-0.24278727609987014,0.09416120931000001,1.6066443469784255,0.13048785727599563,-1.3184349229758854, ,0.021479615563257306,0.010010757899673584,0.010576900079681276,0.002127070118165299,0.0193387068943428,-0.017956499383644783, ,0.7747039794921875
0.011379802033882423,0.02111478327780824,-0.08435538856918581, ,0.011678816824333155,0.021014276731986158,-0.08476725089469252, ,0.0005187889607857632, ,0.0036149719946245757,0.001753792107144335,-0.010368517419092357,-0.007574364425466552,-0.02354780709854593,-0.0034675011284043752, ,0.011119800481439556, ,0.024736008080634312, ,5.127644319108663e-05, ,0.14800617553451273,-0.2426868805725052,0.09426880138,1.6066443469784255,0.13062449377576107,-1.318546340879582, ,0.024042802523048083,0.010101499944584905,0.010865492169167804,0.0020879141248732443,0.0,-0.0021179889723428216, ,0.786024808883667
0.011411269165185244,0.021132749907050448,-0.0844581886451255, ,0.01171954498288807,0.021029483551953023,-0.08488366554531897, ,0.0005354703656353887, ,0.0032140782806369768,0.0019532496510452453,-0.010341337566549239,0.006204615143859964,-0.00684193589153745,0.0005092538673874677, ,0.011004033172373359, ,0.009236298910000695, ,5.2104597937911425e-05, ,0.148222412054991,-0.24259420777801452,0.09437639345000001,1.6066443469784255,0.13089776677529194,-1.318769176686975, ,0.020861055519558316,0.007698742616111135,0.010850689046321525,0.0020019558790186093,0.013999349477090063,-0.013533177485900551, ,0.7971959114074707
0.011479349687852579,0.02116784437924951,-0.08467167496728668, ,0.011760391984650283,0.021044290428811556,-0.08499955271343114, ,0.00044917053295482506, ,0.003183893477104263,0.0016155711679976602,-0.010451550342120558,0.013460505692897534,0.0060680053256843315,0.0036607948837416027, ,0.011044553065936744, ,0.01476501870741783, ,5.265619894161104e-05, ,0.14867033056169604,-0.24237797125753624,0.09459935533000001,1.6066443469784255,0.1311710397748228,-1.3189920124943675, ,0.021715547267384616,0.01171133426613239,0.010887772740943269,0.0018482778976632093,0.028260511659170724,-0.024781403926027176, ,0.8086438179016113
0.01152197344351732,0.021188242064743488,-0.08479944015679211, ,0.011801357190942262,0.02105870071889698,-0.08511491627978439, ,0.0004408644040826699, ,0.0035840551767161353,0.0016294286639596499,-0.010189581650335027,-0.009202963821054892,-0.023686895383761057,-0.0018552168406086142, ,0.01079698208210316, ,0.02541187608515973, ,5.316796669197015e-05, ,0.14895607167804234,-0.2422389620658002,0.09473287320000001,1.6068540369219102,0.13130767627458828,-1.319103430398064, ,0.023747983372990687,0.010850245040943807,0.010661855100401608,0.0002750585897338127,0.0,-0.0014876272407970425, ,0.8246088027954102
0.01156933363491303,0.021207167478499243,-0.0849346996400899, ,0.01184243996505558,0.021072717767479203,-0.08522976010932272, ,0.0004239392325100326, ,0.003197854601930803,0.0009851759000229308,-0.008321129990072822,0.0016636084745814835,-0.007888143837058293,-0.005770181164603491, ,0.008968726215063392, ,0.008061660279152012, ,5.361711271199908e-05, ,0.14931131739025666,-0.24206133920969303,0.09487416881,1.6070637268653947,0.1317175857738846,-1.3194376841091533, ,0.023994169799866186,0.012881750894888038,0.008675823267973858,0.00789926321784395,0.014695631850486713,-0.013259107099919034, ,0.8360037803649902
0.01156933363491303,0.021207167478499243,-0.0849346996400899, ,0.011883639672248111,0.021086344908777335,-0.0853440880512043, ,0.000530080418063394, ,0.003197854601930803,0.0009851759000229308,-0.008321129990072822,0.0016636084745814835,-0.007888143837058293,-0.005770181164603491, ,0.008968726215063392, ,0.008061660279152012, ,5.450366318170526e-05, ,0.1495429993764834,-0.24193777548370543,0.09495583508000001,1.6070637268653947,0.13199085877341546,-1.319660519916546, ,0.024757876743665738,0.013244586353104815,0.008586960388140163,0.00789926321784395,0.04286472046676422,-0.03611408341999044, ,0.8447868824005127
0.011598727987884663,0.021216151292070936,-0.08501304225764808, ,0.011924955679741375,0.021099585465975023,-0.08545790393882835, ,0.0005638386419270293, ,0.002998683167542013,0.0009315409231308884,-0.008237192199372464,0.02416462518545687,0.018602022219241506,0.0012831816273743512, ,0.008815395882214815, ,0.03049531608421784, ,5.5464285373928064e-05, ,0.1495429993764834,-0.24193777548370543,0.09495583508000001,1.6070637268653947,0.13199085877341546,-1.319660519916546, ,0.024757876743665738,0.013244586353104815,0.008586960388140163,0.00789926321784395,0.04286472046676422,-0.03611408341999044, ,0.8544449806213379
0.011634687642362654,0.02122462669954036,-0.08510034708077575, ,0.011966387356717652,0.021112442751234705,-0.08557121158985899, ,0.000586790699206139, ,0.0033695110135964178,0.001011220820756739,-0.009213675629919682,0.009783083285272434,0.0028594654677741287,-0.0028597885014383703, ,0.009862453580750346, ,0.01019240869120261, ,5.646685009291275e-05, ,0.14980557229420705,-0.24178332082622095,0.09504657538000001,1.6070637268653947,0.13199085877341546,-1.319660519916546, ,0.025668634449140054,0.015046288498251273,0.009578359302465424,0.00789926321784395,0.027534894488997163,-0.02351442390423391, ,0.864008903503418
0.011670527709119811,0.021235996914217303,-0.08519098062216426, ,0.012007934074317383,0.02112492006571224,-0.08568401480625186, ,0.000607670822262, ,0.0036969142275963076,0.0013663152172080793,-0.01006805427433953,0.004995145944308851,-0.005955983417912654,-0.004562892420831159, ,0.010812016877068998, ,0.007773359507320618, ,5.7504359391527826e-05, ,0.15006042247905646,-0.24165203436735913,0.09514120455000001,1.6070637268653947,0.13199085877341546,-1.319660519916546, ,0.027090191709526344,0.013506538792836717,0.010521011571994717,0.00789926321784395,0.019893148368422583,-0.017202912202622975, ,0.8762619495391846
0.011719743252759896,0.021255676269639118,-0.08533653459664267, ,0.012049595205636327,0.02113702069957202,-0.08579631737427944, ,0.0005781709589176225, ,0.0038587129034825265,0.0017707500278475359,-0.012081697780588605,-1.3173330251260445e-05,-0.008431608693694746,-0.005948393676029951, ,0.012805961197587014, ,0.008431603719439682, ,5.84402559543007e-05, ,0.15041566819127078,-0.24145896604550351,0.09529287048000001,1.6070637268653947,0.1324007682727118,-1.3199947736276354, ,0.024842131298029,0.01445718183401444,0.012572069076558801,0.00789926321784395,0.015010438565904737,-0.013131990982684949, ,0.8850209712982178
0.011758358347906808,0.02127522583154721,-0.08546858777904504, ,0.012091370125722945,0.02114874793200114,-0.085908123064557, ,0.0005657603471859232, ,0.0039147856203059,0.0017530483996803193,-0.012402175977444066,0.016875372383954174,0.010659823582321263,-0.0005466230681425906, ,0.013122983430610063, ,0.019960203868786393, ,5.9323232878153686e-05, ,0.15068596384186864,-0.24130451138801903,0.09543027722000001,1.6070637268653947,0.13294731427177356,-1.3204404452424212, ,0.027159971825549738,0.01555687566532308,0.012908275137763372,0.00789926321784395,0.037131865467104584,-0.03110733910186487, ,0.8937878608703613
0.011804620669259717,0.021294311596324802,-0.08560435231356556, ,0.012133258211575525,0.02116010503122444,-0.08601943563206699, ,0.0005461759768001258, ,0.004314981451883578,0.002056722853297574,-0.013771239020663698,0.0054757290258733516,-0.003101368664735509,-0.003659980073632334, ,0.01457724932864998, ,0.006292980268767602, ,6.013608299733135e-05, ,0.15097942769108916,-0.24113461126478608,0.09557157283,1.6070637268653947,0.13294731427177356,-1.3204404452424212, ,0.027869880046540608,0.015932998918480656,0.014337364104410442,0.007560573081591087,0.023730035579382903,-0.020126209900390525, ,0.9030308723449707
0.01184711668443332,0.021314008520574013,-0.0857362772708732, ,0.012175258842139434,0.02117109525451912,-0.08613025881618616, ,0.0005322808801053176, ,0.004787432204906459,0.001926309392198714,-0.013461925647309931,-0.01445386514215489,-0.030283767717419058,-0.006366106628475289, ,0.014417129295554972, ,0.03355622688256969, ,6.089581359138341e-05, ,0.15124972334168701,-0.2409801566073016,0.09570897957,1.6072734168088794,0.133083950771539,-1.320470184405977, ,0.03124693498797194,0.016532568215761462,0.014046571005291006,0.004054426288999465,0.0,-0.0012968165553435074, ,0.9141860008239746
0.011893299793431482,0.021333308501435347,-0.0858689743657948, ,0.012217371398304549,0.021181721848229317,-0.0862405963407101, ,0.0005158525087223683, ,0.004422567820715966,0.0016556109141495172,-0.01209057296316005,-0.0006422546642906754,-0.014144144870417307,-0.006625261723366007, ,0.012980065801273127, ,0.014158709927239865, ,6.175670523982842e-05, ,0.15157407812240445,-0.2408179792169429,0.09584768260000001,1.6074831067523636,0.13335722377106987,-1.3206930202133695, ,0.030961481748277578,0.01577671513856538,0.012631888596352102,0.008454062011467547,0.015301878720364483,-0.01371104907533565, ,0.9211277961730957
0.011893299793431482,0.021333308501435347,-0.0858689743657948, ,0.01225959526290233,0.021191988047781142,-0.08635045191387927, ,0.0006212603889556593, ,0.004422567820715966,0.0016556109141495172,-0.01209057296316005,-0.0006422546642906754,-0.014144144870417307,-0.006625261723366007, ,0.012980065801273127, ,0.014158709927239865, ,6.287462901735706e-05, ,0.15157407812240445,-0.2408179792169429,0.09584768260000001,1.6074831067523636,0.13335722377106987,-1.3206930202133695, ,0.030961481748277578,0.01577671513856538,0.012631888596352102,0.008454062011467547,0.015301878720364483,-0.01371104907533565, ,0.9277708530426025
0.011936084413987687,0.021348205787165966,-0.08599078614743542, ,0.012301929820703175,0.02120189707769667,-0.08645982922840434, ,0.0006125769436456154, ,0.004120451120426937,0.001120161596534881,-0.011054577915977902,0.02692468448245653,0.020040785115658363,0.0023580995292597734, ,0.011850593754686113, ,0.03356443858379891, ,6.395338997561036e-05, ,0.1519061556359961,-0.24064035636083572,0.09597471902000002,1.6074831067523636,0.13390376977013163,-1.3211386918281554, ,0.033134406968739795,0.018828758245728328,0.011509256878612718,0.008454062011467547,0.05287283019237569,-0.04428687347915892, ,0.9343109130859375
0.011983422341710476,0.02136103126809899,-0.08611293186986808, ,0.01234437445841363,0.021211452151609557,-0.08656873196149177, ,0.0006003449559764852, ,0.0046708390155486045,0.0015353803968947593,-0.012901368887010937,0.003653466009241244,-0.0058674922721226284,-0.004419848204362399, ,0.013806500252818366, ,0.006911940539675173, ,6.498491721310949e-05, ,0.15222278768383932,-0.24045501077185433,0.09609268141,1.6074831067523636,0.13404040626989708,-1.3213317884719924, ,0.03340265454363632,0.0193469809497392,0.013285080500417015,0.008454062011467547,0.02735340807571351,-0.022304870162662128, ,0.9410288333892822
0.011983422341710476,0.02136103126809899,-0.08611293186986808, ,0.012386928564673697,0.021220656472278963,-0.08667716377486967, ,0.0007077287601145491, ,0.0046708390155486045,0.0015353803968947593,-0.012901368887010937,0.003653466009241244,-0.0058674922721226284,-0.004419848204362399, ,0.013806500252818366, ,0.006911940539675173, ,6.627006510402482e-05, ,0.15222278768383932,-0.24045501077185433,0.09609268141,1.6074831067523636,0.13404040626989708,-1.3213317884719924, ,0.03340265454363632,0.0193469809497392,0.013285080500417015,0.008454062011467547,0.02735340807571351,-0.022304870162662128, ,0.9477429389953613
0.012030417462383444,0.021377623023311945,-0.08624480252003666, ,0.012429591530054027,0.021229513231604623,-0.08678512831481297, ,0.0006879159913833338, ,0.005142154404978414,0.0017645329398168956,-0.013931501291489146,-0.01183796599638129,-0.02544215929471385,-0.009165752434153577, ,0.014954666718289027, ,0.028061368172528293, ,6.74867461887792e-05, ,0.15257803339605364,-0.2402542197171245,0.09623916218,1.6074831067523636,0.13431367926942794,-1.3215546242793852, ,0.034837350058175766,0.019534158410553885,0.014520338669097542,0.008454062011467547,0.0076290425468008745,-0.0062209726481178155, ,0.9584009647369385
0.012053807172263113,0.021386208399725198,-0.08631202380680042, ,0.012472362747053215,0.021238025610641448,-0.08689262921216945, ,0.0007309237613542502, ,0.005223210205114922,0.001849736409562781,-0.014531327373198967,-0.003405925969315321,-0.015598545683565519,-0.006463871170011642, ,0.01555194280013788, ,0.01596603617756155, ,6.87915943931938e-05, ,0.15274021078641234,-0.2401615469226338,0.09630916184,1.6074831067523636,0.1344503157691934,-1.3215843634429412, ,0.035810166625838025,0.02022526461177979,0.015141455817490494,0.008454062011467547,0.01880518975745026,-0.015334371306242083, ,0.9652578830718994
0.012053807172263113,0.021386208399725198,-0.08631202380680042, ,0.01251524161009511,0.021246196779614177,-0.08699967008238463, ,0.0008398704629335862, ,0.005600701397044193,0.0022833970415414157,-0.01689765466375565,0.014208109230532428,0.004843642932948257,-0.0005183343023621672, ,0.017947492619408315, ,0.0150109915441998, ,7.034427988278695e-05, ,0.15345842494371523,-0.2397522420802999,0.09663323434000001,1.6074831067523636,0.1354067712675515,-1.322364288768816, ,0.038111221509426016,0.02180536340957509,0.017600896707182324,0.008143408357964302,0.04237304397821644,-0.034552376132246786, ,0.9721829891204834
0.012156549528729015,0.021427524645332076,-0.08662321011865734, ,0.012558227515525978,0.021254029897932177,-0.08710625452552827, ,0.0006517495926058583, ,0.005600701397044193,0.0022833970415414157,-0.01689765466375565,0.014208109230532428,0.004843642932948257,-0.0005183343023621672, ,0.017947492619408315, ,0.0150109915441998, ,7.159077020678764e-05, ,0.15345842494371523,-0.2397522420802999,0.09663323434000001,1.6074831067523636,0.1354067712675515,-1.322364288768816, ,0.038111221509426016,0.02180536340957509,0.017600896707182324,0.008143408357964302,0.04237304397821644,-0.034552376132246786, ,0.976658821105957
0.012156549528729015,0.021427524645332076,-0.08662321011865734, ,0.012601319861611771,0.021261528114203943,-0.08721238612631925, ,0.0007566398518209557, ,0.005600701397044193,0.0022833970415414157,-0.01689765466375565,0.014208109230532428,0.004843642932948257,-0.0005183343023621672, ,0.017947492619408315, ,0.0150109915441998, ,7.307974669078614e-05, ,0.15345842494371523,-0.2397522420802999,0.09663323434000001,1.6074831067523636,0.1354067712675515,-1.322364288768816, ,0.038111221509426016,0.02180536340957509,0.017600896707182324,0.008143408357964302,0.04237304397821644,-0.034552376132246786, ,0.9811878204345703
0.012218047813840647,0.0214477971764122,-0.08678608564008389, ,0.012644518048535405,0.021268694566252154,-0.08731806845415134, ,0.000704954126528719, ,0.0059793229988939845,0.0017239003949434146,-0.015849501860142105,-0.0069327412466749965,-0.02014804401629796,-0.0029032768746530676, ,0.01702735579329441, ,0.021307406662853492, ,7.442949218147974e-05, ,0.15386772978604912,-0.23952056009407316,0.09680304833000002,1.607692796695848,0.1354067712675515,-1.3222826100286755, ,0.04189710444082595,0.025038770859754825,0.01648945291925466,0.00460304204791629,0.021340003784856676,-0.017124060796078276, ,0.9855849742889404
0.012218047813840647,0.0214477971764122,-0.08678608564008389, ,0.012687821478394088,0.021275532381127775,-0.08742330506311859, ,0.0008101919826158663, ,0.0059793229988939845,0.0017239003949434146,-0.015849501860142105,-0.0069327412466749965,-0.02014804401629796,-0.0029032768746530676, ,0.01702735579329441, ,0.021307406662853492, ,7.601923496574153e-05, ,0.15386772978604912,-0.23952056009407316,0.09680304833000002,1.607692796695848,0.1354067712675515,-1.3222826100286755, ,0.04189710444082595,0.025038770859754825,0.01648945291925466,0.00460304204791629,0.021340003784856676,-0.017124060796078276, ,0.9901328086853027
0.0122729116891389,0.021462958489598425,-0.08693465280212045, ,0.012731229555196445,0.021282044675125435,-0.08752809949204146, ,0.0007713391267094576, ,0.006696973903057269,0.0018199152930995343,-0.017688860325647936,-0.017729566241945296,-0.03144733288936731,-0.006426946758091565, ,0.01900150864412006, ,0.036100838399905834, ,7.750081548434913e-05, ,0.15425386642976036,-0.239273432642098,0.09695730684000001,1.6079024866393328,0.13568004426708236,-1.3224237670959278, ,0.04579968221933918,0.02894964660111982,0.018372331626297582,0.005566336755464131,0.013462360504767115,-0.01004284617609844, ,0.9987080097198486
0.01229344604045144,0.021468897903507214,-0.08699076940646125, ,0.012774741684859887,0.021288234553797594,-0.08763245526449191, ,0.0008222198511659705, ,0.006979816591563215,0.001989080618908764,-0.01852229687713696,-0.008754429318664488,-0.025323867910125922,-0.012771449217965273, ,0.019893460306472006, ,0.02679433034311728, ,7.908943029434263e-05, ,0.15440059835437062,-0.23918075984760728,0.09701563989,1.6081121765828172,0.1358166807668478,-1.3224535062594835, ,0.048146596427433165,0.029498583014756222,0.019260957097944377,0.013879787602954713,0.02019321130264886,-0.01831206602218295, ,1.0049068927764893
0.01229344604045144,0.021468897903507214,-0.08699076940646125, ,0.012818357275207746,0.021294105111969344,-0.08773637588881872, ,0.0009284467410037422, ,0.006979816591563215,0.001989080618908764,-0.01852229687713696,-0.008754429318664488,-0.025323867910125922,-0.012771449217965273, ,0.019893460306472006, ,0.02679433034311728, ,8.091470963181906e-05, ,0.15440059835437062,-0.23918075984760728,0.09701563989,1.6081121765828172,0.1358166807668478,-1.3224535062594835, ,0.048146596427433165,0.029498583014756222,0.019260957097944377,0.013879787602954713,0.02019321130264886,-0.01831206602218295, ,1.0097367763519287
0.012421565369302074,0.02151243191515556,-0.08734822977666534, ,0.012862075735966691,0.021299659433753355,-0.087839864858174, ,0.0006935607870627243, ,0.0073331229725165665,0.0021936176570790753,-0.019100143524176008,0.003998271511534213,-0.014953667893044089,-0.007813315257211073, ,0.020576737681168557, ,0.015478882921285929, ,8.216879304643956e-05, ,0.1553659399636487,-0.23867105947790848,0.09738897141000001,1.6081121765828172,0.13731968226426766,-1.3237607819402848, ,0.052227265579785784,0.028747937460912077,0.019935934317897377,0.01274184674943411,0.03539668697508683,-0.03047631414669266, ,1.0142958164215088
0.012421565369302074,0.02151243191515556,-0.08734822977666534, ,0.012905896478763822,0.021304900592564246,-0.08794292565053795, ,0.0007945495930714772, ,0.0073331229725165665,0.0021936176570790753,-0.019100143524176008,0.003998271511534213,-0.014953667893044089,-0.007813315257211073, ,0.020576737681168557, ,0.015478882921285929, ,8.364816395484003e-05, ,0.1553659399636487,-0.23867105947790848,0.09738897141000001,1.6081121765828172,0.13731968226426766,-1.3237607819402848, ,0.052227265579785784,0.028747937460912077,0.019935934317897377,0.01274184674943411,0.03539668697508683,-0.03047631414669266, ,1.0186858177185059
0.012421565369302074,0.02151243191515556,-0.08734822977666534, ,0.012949818917124071,0.021309831651133513,-0.0880455617287446, ,0.0008979813634808905, ,0.0073331229725165665,0.0021936176570790753,-0.019100143524176008,0.003998271511534213,-0.014953667893044089,-0.007813315257211073, ,0.020576737681168557, ,0.015478882921285929, ,8.535537198187556e-05, ,0.1553659399636487,-0.23867105947790848,0.09738897141000001,1.6081121765828172,0.13731968226426766,-1.3237607819402848, ,0.052227265579785784,0.028747937460912077,0.019935934317897377,0.01274184674943411,0.03539668697508683,-0.03047631414669266, ,1.023056983947754
0.012503828277770343,0.02153233772598596,-0.0875512606155018, ,0.01299384246646731,0.021314455661523967,-0.0881477765405076, ,0.0008021332482350372, ,0.008020784068354653,0.0018044181959831593,-0.020064522690643568,-0.021079309892587075,-0.0366165815603106,-0.01240011216427703, ,0.0216834954031982, ,0.042250539626829786, ,8.682379641041344e-05, ,0.15592969946346708,-0.2383312592314426,0.09760026668,1.6081121765828172,0.13731968226426766,-1.3235974244600037, ,0.05611883001683665,0.03542252391133661,0.0208492297382199,0.011663193894353717,0.01729295299671425,-0.012150808035777064, ,1.0274739265441895
0.012503828277770343,0.02153233772598596,-0.0875512606155018, ,0.013037966544105738,0.0213187756651447,-0.08824957351844563, ,0.0009047393833653955, ,0.008020784068354653,0.0018044181959831593,-0.020064522690643568,-0.021079309892587075,-0.0366165815603106,-0.01240011216427703, ,0.0216834954031982, ,0.042250539626829786, ,8.85161385181555e-05, ,0.15592969946346708,-0.2383312592314426,0.09760026668,1.6081121765828172,0.13731968226426766,-1.3235974244600037, ,0.05611883001683665,0.03542252391133661,0.0208492297382199,0.011663193894353717,0.01729295299671425,-0.012150808035777064, ,1.0320148468017578
0.0125716219212405,0.021547750263205465,-0.08772864887511048, ,0.013082190569241075,0.021322794692765597,-0.08835095608010797, ,0.0008357939999694025, ,0.008193375713585364,0.001847095409427739,-0.02106100521120396,-0.022252692176941296,-0.03279106107713962,-0.01091185415944477, ,0.02267397423350966, ,0.03962867461722597, ,9.02419534406757e-05, ,0.1564162316345432,-0.2380146271835994,0.09778433986000001,1.6081121765828172,0.13772959176356397,-1.3238499994309523, ,0.056519917545247635,0.03744946391415579,0.02185022156378601,0.010903908727836515,0.02183467066460808,-0.013086925230701983, ,1.0351738929748535
0.0125716219212405,0.021547750263205465,-0.08772864887511048, ,0.013126513962961777,0.02132651576453213,-0.08845192762799992, ,0.0009380735769384788, ,0.008193375713585364,0.001847095409427739,-0.02106100521120396,-0.022252692176941296,-0.03279106107713962,-0.01091185415944477, ,0.02267397423350966, ,0.03962867461722597, ,9.219548252707618e-05, ,0.1564162316345432,-0.2380146271835994,0.09778433986000001,1.6081121765828172,0.13772959176356397,-1.3238499994309523, ,0.056519917545247635,0.03744946391415579,0.02185022156378601,0.010903908727836515,0.02183467066460808,-0.013086925230701983, ,1.0375118255615234
0.0125716219212405,0.021547750263205465,-0.08772864887511048, ,0.013170936148240395,0.021329941889979862,-0.08855249154960923, ,0.0010417940211274609, ,0.008193375713585364,0.001847095409427739,-0.02106100521120396,-0.022252692176941296,-0.03279106107713962,-0.01091185415944477, ,0.02267397423350966, ,0.03962867461722597, ,9.437846767328395e-05, ,0.1564162316345432,-0.2380146271835994,0.09778433986000001,1.6081121765828172,0.13772959176356397,-1.3238499994309523, ,0.056519917545247635,0.03744946391415579,0.02185022156378601,0.010903908727836515,0.02183467066460808,-0.013086925230701983, ,1.0413968563079834
0.01263581216393718,0.02156443172990583,-0.08790573084895881, ,0.013215456549930766,0.021333076068049402,-0.08865265121743018, ,0.0009733463378080406, ,0.007863267707672273,0.0023369283264379837,-0.02187783338426757,0.08098404779602132,0.05758607268597087,0.014930933772557694, ,0.0233651836422315, ,0.09937085464411143, ,0.000525349747196082, ,0.15690276380561935,-0.23771344060150462,0.09796841304000001,1.6081121765828172,0.13854941076215663,-1.3244368281129901, ,0.06114493657117962,0.03438294984002565,0.022820646876790834,0.010266391895767788,0.1201581313120285,-0.11338720723529562, ,1.0449788570404053
0.01263581216393718,0.02156443172990583,-0.08790573084895881, ,0.013260074594765222,0.021335921287100938,-0.08875240998899037, ,0.0010764693080523955, ,0.007863267707672273,0.0023369283264379837,-0.02187783338426757,0.08098404779602132,0.05758607268597087,0.014930933772557694, ,0.0233651836422315, ,0.09937085464411143, ,0.0005321536923918389, ,0.15690276380561935,-0.23771344060150462,0.09796841304000001,1.6081121765828172,0.13854941076215663,-1.3244368281129901, ,0.06114493657117962,0.03438294984002565,0.022820646876790834,0.010266391895767788,0.1201581313120285,-0.11338720723529562, ,1.047257900238037
0.01263581216393718,0.02156443172990583,-0.08790573084895881, ,0.013304789711352032,0.021338480524928972,-0.0888517712068761, ,0.0011804987356130272, ,0.007863267707672273,0.0023369283264379837,-0.02187783338426757,0.08098404779602132,0.05758607268597087,0.014930933772557694, ,0.0233651836422315, ,0.09937085464411143, ,0.0005400603392603899, ,0.15690276380561935,-0.23771344060150462,0.09796841304000001,1.6081121765828172,0.13854941076215663,-1.3244368281129901, ,0.06114493657117962,0.03438294984002565,0.022820646876790834,0.010266391895767788,0.1201581313120285,-0.11338720723529562, ,1.0495078563690186
0.01263581216393718,0.02156443172990583,-0.08790573084895881, ,0.013349601330172309,0.021340756748776828,-0.08895073819875741, ,0.001285132612671085, ,0.007863267707672273,0.0023369283264379837,-0.02187783338426757,0.08098404779602132,0.05758607268597087,0.014930933772557694, ,0.0233651836422315, ,0.09937085464411143, ,0.000549037113638832, ,0.15690276380561935,-0.23771344060150462,0.09796841304000001,1.6081121765828172,0.13854941076215663,-1.3244368281129901, ,0.06114493657117962,0.03438294984002565,0.022820646876790834,0.010266391895767788,0.1201581313120285,-0.11338720723529562, ,1.0517618656158447
0.01263581216393718,0.02156443172990583,-0.08790573084895881, ,0.013394508883577665,0.021342752915351593,-0.08904931427741408, ,0.0013901601587777309, ,0.007863267707672273,0.0023369283264379837,-0.02187783338426757,0.08098404779602132,0.05758607268597087,0.014930933772557694, ,0.0233651836422315, ,0.09937085464411143, ,0.0005590504832238189, ,0.15690276380561935,-0.23771344060150462,0.09796841304000001,1.6081121765828172,0.13854941076215663,-1.3244368281129901, ,0.06114493657117962,0.03438294984002565,0.022820646876790834,0.010266391895767788,0.1201581313120285,-0.11338720723529562, ,1.0539908409118652
0.012758914770839715,0.02159460706907938,-0.08822695927087244, ,0.013439511805787254,0.0213444719708389,-0.08914750274076111, ,0.001171827705469461, ,0.010452893036397615,0.002204771134279204,-0.026945374647228737,-0.018316338487476637,-0.02940274151389997,0.003362543163115323, ,0.02898581038136484, ,0.03464094773210825, ,0.000566259627014944, ,0.15781404628477785,-0.2371651265674347,0.09830285586000001,1.608321866526302,0.13964250276028015,-1.3254098500827023, ,0.07282957909322392,0.048941176667597105,0.02794528336842106,0.0,0.04481432322081609,-0.030012701259391792, ,1.0562729835510254
0.012758914770839715,0.02159460706907938,-0.08822695927087244, ,0.013484609532884963,0.021345916850917072,-0.08924530687187454, ,0.0012749555085320643, ,0.010452893036397615,0.002204771134279204,-0.026945374647228737,-0.018316338487476637,-0.02940274151389997,0.003362543163115323, ,0.02898581038136484, ,0.03464094773210825, ,0.0005745002768000268, ,0.15781404628477785,-0.2371651265674347,0.09830285586000001,1.608321866526302,0.13964250276028015,-1.3254098500827023, ,0.07282957909322392,0.048941176667597105,0.02794528336842106,0.0,0.04481432322081609,-0.030012701259391792, ,1.058527946472168
0.012758914770839715,0.02159460706907938,-0.08822695927087244, ,0.013529801502816862,0.02134709048077253,-0.08934272993901633, ,0.0013785771646577245, ,0.010452893036397615,0.002204771134279204,-0.026945374647228737,-0.018316338487476637,-0.02940274151389997,0.003362543163115323, ,0.02898581038136484, ,0.03464094773210825, ,0.000583742539878851, ,0.15781404628477785,-0.2371651265674347,0.09830285586000001,1.608321866526302,0.13964250276028015,-1.3254098500827023, ,0.07282957909322392,0.048941176667597105,0.02794528336842106,0.0,0.04481432322081609,-0.030012701259391792, ,1.0607569217681885
0.012758914770839715,0.02159460706907938,-0.08822695927087244, ,0.013575087155388244,0.02134799577511391,-0.08943977519566061, ,0.0014825238477106316, ,0.010452893036397615,0.002204771134279204,-0.026945374647228737,-0.018316338487476637,-0.02940274151389997,0.003362543163115323, ,0.02898581038136484, ,0.03464094773210825, ,0.0005939559638314849, ,0.15781404628477785,-0.2371651265674347,0.09830285586000001,1.608321866526302,0.13964250276028015,-1.3254098500827023, ,0.07282957909322392,0.048941176667597105,0.02794528336842106,0.0,0.04481432322081609,-0.030012701259391792, ,1.0630769729614258
0.012872350244085671,0.02162724085634901,-0.08855276790090032, ,0.013620465932261093,0.021348635638186966,-0.08953644588051934, ,0.0012668544975918412, ,0.011900738408993899,0.004285690459127064,-0.03729575832729101,0.10487642940975705,0.09404805814654298,0.01994125515100735, ,0.03938233495615074, ,0.14086884157528018, ,0.0006015166215141855, ,0.1586172105036972,-0.2366322579991132,0.09864118755000001,1.6089509363567556,0.1408722312581691,-1.3263309324758294, ,0.08353604010428767,0.05394936984563433,0.03875623240875913,0.016765453732013963,0.1793700294764029,-0.1554689451894338, ,1.0652649402618408
0.012872350244085671,0.02162724085634901,-0.08855276790090032, ,0.01366593727695122,0.021349012963789337,-0.08963274521756681, ,0.001368773956299836, ,0.011900738408993899,0.004285690459127064,-0.03729575832729101,0.10487642940975705,0.09404805814654298,0.01994125515100735, ,0.03938233495615074, ,0.14086884157528018, ,0.0006100417030118038, ,0.1586172105036972,-0.2366322579991132,0.09864118755000001,1.6089509363567556,0.1408722312581691,-1.3263309324758294, ,0.08353604010428767,0.05394936984563433,0.03875623240875913,0.016765453732013963,0.1793700294764029,-0.1554689451894338, ,1.067478895187378
0.012872350244085671,0.02162724085634901,-0.08855276790090032, ,0.01371150063482546,0.021349130635285138,-0.0897286764160668, ,0.0014711490439041099, ,0.011900738408993899,0.004285690459127064,-0.03729575832729101,0.10487642940975705,0.09404805814654298,0.01994125515100735, ,0.03938233495615074, ,0.14086884157528018, ,0.0006195044210435874, ,0.1586172105036972,-0.2366322579991132,0.09864118755000001,1.6089509363567556,0.1408722312581691,-1.3263309324758294, ,0.08353604010428767,0.05394936984563433,0.03875623240875913,0.016765453732013963,0.1793700294764029,-0.1554689451894338, ,1.0697009563446045
0.012872350244085671,0.02162724085634901,-0.08855276790090032, ,0.01375715545309906,0.021348991525619677,-0.08982424267059688, ,0.001573833230658027, ,0.011900738408993899,0.004285690459127064,-0.03729575832729101,0.10487642940975705,0.09404805814654298,0.01994125515100735, ,0.03938233495615074, ,0.14086884157528018, ,0.0006298775602785268, ,0.1586172105036972,-0.2366322579991132,0.09864118755000001,1.6089509363567556,0.1408722312581691,-1.3263309324758294, ,0.08353604010428767,0.05394936984563433,0.03875623240875913,0.016765453732013963,0.1793700294764029,-0.1554689451894338, ,1.0719428062438965
0.012872350244085671,0.02162724085634901,-0.08855276790090032, ,0.01380290118083283,0.021348598497334136,-0.08991944716107428, ,0.0016767166756217454, ,0.011900738408993899,0.004285690459127064,-0.03729575832729101,0.10487642940975705,0.09404805814654298,0.01994125515100735, ,0.03938233495615074, ,0.14086884157528018, ,0.0006411338948521098, ,0.1586172105036972,-0.2366322579991132,0.09864118755000001,1.6089509363567556,0.1408722312581691,-1.3263309324758294, ,0.08353604010428767,0.05394936984563433,0.03875623240875913,0.016765453732013963,0.1793700294764029,-0.1554689451894338, ,1.0742418766021729
0.013006886036877384,0.021680464245426297,-0.08897617597003771, ,0.01384873726893052,0.021347954402580242,-0.0900142930527821, ,0.0013773029332665367, ,0.014027076270504327,0.005684447490675475,-0.043938648578383484,0.10022806784530933,0.08651089765676583,-0.03232560101319696, ,0.04647232134149824, ,0.13239953635761936, ,0.000648965480367157, ,0.1595284929828557,-0.23606849849929482,0.09908192615000001,1.6093703162437245,0.1426485057551198,-1.327779365223883, ,0.09331066033281296,0.05685856294695672,0.04577244689655173,0.06784979416108008,0.16933477886914397,-0.14573596307656922, ,1.0773038864135742
0.013006886036877384,0.021680464245426297,-0.08897617597003771, ,0.013894663170135912,0.02134706208313492,-0.09010878349639401, ,0.0014771949935320772, ,0.014027076270504327,0.005684447490675475,-0.043938648578383484,0.10022806784530933,0.08651089765676583,-0.03232560101319696, ,0.04647232134149824, ,0.13239953635761936, ,0.000657683685768893, ,0.1595284929828557,-0.23606849849929482,0.09908192615000001,1.6093703162437245,0.1426485057551198,-1.327779365223883, ,0.09331066033281296,0.05685856294695672,0.04577244689655173,0.06784979416108008,0.16933477886914397,-0.14573596307656922, ,1.0847809314727783
0.01301815381128297,0.02168470662965887,-0.0890135869963205, ,0.013940678339030203,0.021345924370415152,-0.09020292162800014, ,0.001542835632718559, ,0.01427009629351171,0.00563405804619306,-0.044193582222398865,0.09077378417962972,0.08046488487640581,-0.030100743068235562, ,0.046780882504949585, ,0.12130255156571439, ,0.0006669040185496187, ,0.15961344304447217,-0.23601443936917524,0.09912081485000002,1.6093703162437245,0.14292177875465073,-1.3280838797714165, ,0.09508711579005087,0.058005465500287755,0.04603702751445087,0.06432218187363425,0.16575170436152048,-0.13795712406266245, ,1.0882987976074219
0.01301815381128297,0.02168470662965887,-0.0890135869963205, ,0.013986782232029192,0.021344544085492557,-0.09029671056913323, ,0.001643276506568116, ,0.01427009629351171,0.00563405804619306,-0.044193582222398865,0.09077378417962972,0.08046488487640581,-0.030100743068235562, ,0.046780882504949585, ,0.12130255156571439, ,0.0006769697143023868, ,0.15961344304447217,-0.23601443936917524,0.09912081485000002,1.6093703162437245,0.14292177875465073,-1.3280838797714165, ,0.09508711579005087,0.058005465500287755,0.04603702751445087,0.06432218187363425,0.16575170436152048,-0.13795712406266245, ,1.0905449390411377
0.01301815381128297,0.02168470662965887,-0.0890135869963205, ,0.014032974307380581,0.021342924039108,-0.09039015342679305, ,0.001744021535419612, ,0.01427009629351171,0.00563405804619306,-0.044193582222398865,0.09077378417962972,0.08046488487640581,-0.030100743068235562, ,0.046780882504949585, ,0.12130255156571439, ,0.000687857998191338, ,0.15961344304447217,-0.23601443936917524,0.09912081485000002,1.6093703162437245,0.14292177875465073,-1.3280838797714165, ,0.09508711579005087,0.058005465500287755,0.04603702751445087,0.06432218187363425,0.16575170436152048,-0.13795712406266245, ,1.092768907546997
0.01301815381128297,0.02168470662965887,-0.0890135869963205, ,0.014079254025161116,0.02134106703168625,-0.09048325329347298, ,0.0018449771982799422, ,0.016176222251456738,0.004900772539765217,-0.0456018089784428,-0.011983148016242789,-0.03325811336467006,0.019133766937378744, ,0.048633452683532835, ,0.03534827774294447, ,0.0006995460709195057, ,0.16156729446165097,-0.23479424757504777,0.10009432864000001,1.609580006187209,0.14565450874995953,-1.3302305591052042, ,0.10225963530007626,0.06725509678134002,0.04740717714285715,-0.012354802648184764,0.07416452335468965,-0.056268046700175565, ,1.0955288410186768
0.013323739330720837,0.02180177766541779,-0.08994874147176579, ,0.01412562084727405,0.021338975853351042,-0.0905760132471852, ,0.0011183332974027747, ,0.016176222251456738,0.004900772539765217,-0.0456018089784428,-0.011983148016242789,-0.03325811336467006,0.019133766937378744, ,0.048633452683532835, ,0.03534827774294447, ,0.0007037339431843384, ,0.16156729446165097,-0.23479424757504777,0.10009432864000001,1.609580006187209,0.14565450874995953,-1.3302305591052042, ,0.10225963530007626,0.06725509678134002,0.04740717714285715,-0.012354802648184764,0.07416452335468965,-0.056268046700175565, ,1.0979177951812744
0.013323739330720837,0.02180177766541779,-0.08994874147176579, ,0.014172074237446215,0.0213366532839393,-0.09066843635148623, ,0.001205808245166008, ,0.016176222251456738,0.004900772539765217,-0.0456018089784428,-0.011983148016242789,-0.03325811336467006,0.019133766937378744, ,0.048633452683532835, ,0.03534827774294447, ,0.0007087049758772261, ,0.16156729446165097,-0.23479424757504777,0.10009432864000001,1.609580006187209,0.14565450874995953,-1.3302305591052042, ,0.10225963530007626,0.06725509678134002,0.04740717714285715,-0.012354802648184764,0.07416452335468965,-0.056268046700175565, ,1.1002099514007568
0.013323739330720837,0.02180177766541779,-0.08994874147176579, ,0.014218613661225324,0.02133410209301615,-0.0907605256555025, ,0.0012955748026965176, ,0.016176222251456738,0.004900772539765217,-0.0456018089784428,-0.011983148016242789,-0.03325811336467006,0.019133766937378744, ,0.048633452683532835, ,0.03534827774294447, ,0.0007144586016303564, ,0.16156729446165097,-0.23479424757504777,0.10009432864000001,1.609580006187209,0.14565450874995953,-1.3302305591052042, ,0.10225963530007626,0.06725509678134002,0.04740717714285715,-0.012354802648184764,0.07416452335468965,-0.056268046700175565, ,1.102470874786377
0.013323739330720837,0.02180177766541779,-0.08994874147176579, ,0.014265238585977232,0.0213313250398893,-0.09085228419395584, ,0.001387132283287216, ,0.016176222251456738,0.004900772539765217,-0.0456018089784428,-0.011983148016242789,-0.03325811336467006,0.019133766937378744, ,0.048633452683532835, ,0.03534827774294447, ,0.0007209894140736268, ,0.16156729446165097,-0.23479424757504777,0.10009432864000001,1.609580006187209,0.14565450874995953,-1.3302305591052042, ,0.10225963530007626,0.06725509678134002,0.04740717714285715,-0.012354802648184764,0.07416452335468965,-0.056268046700175565, ,1.1051738262176514
0.013486231792945091,0.021833301325976127,-0.09035031494719596, ,0.014311948480883251,0.021328324873624106,-0.0909437149871897, ,0.0011353117957786612, ,0.01625531532543923,0.0012396822601585407,-0.035046381631302775,-0.09071894467327597,-0.09547128444618785,0.0020643018542275964, ,0.03865256723534063, ,0.13169905165046583, ,0.000724973283128483, ,0.16265619979691662,-0.23407603341774488,0.10051173402000001,1.609580006187209,0.14606441824925584,-1.3303197765958719, ,0.11572797751033022,0.07842722442848825,0.03645036961098399,-0.009961093578723023,0.02374557450583226,0.0014062503011296155, ,1.1077687740325928
0.013486231792945091,0.021833301325976127,-0.09035031494719596, ,0.014358742816937286,0.021325104333058016,-0.0910348210411936, ,0.0012198722323746988, ,0.01625531532543923,0.0012396822601585407,-0.035046381631302775,-0.09071894467327597,-0.09547128444618785,0.0020643018542275964, ,0.03865256723534063, ,0.13169905165046583, ,0.0007296866064546375, ,0.16265619979691662,-0.23407603341774488,0.10051173402000001,1.609580006187209,0.14606441824925584,-1.3303197765958719, ,0.11572797751033022,0.07842722442848825,0.03645036961098399,-0.009961093578723023,0.02374557450583226,0.0014062503011296155, ,1.1099779605865479
0.013486231792945091,0.021833301325976127,-0.09035031494719596, ,0.014405621066943193,0.02132166614681524,-0.09112560534762973, ,0.0013069515670836853, ,0.01625531532543923,0.0012396822601585407,-0.035046381631302775,-0.09071894467327597,-0.09547128444618785,0.0020643018542275964, ,0.03865256723534063, ,0.13169905165046583, ,0.0007351325023096285, ,0.16265619979691662,-0.23407603341774488,0.10051173402000001,1.609580006187209,0.14606441824925584,-1.3303197765958719, ,0.11572797751033022,0.07842722442848825,0.03645036961098399,-0.009961093578723023,0.02374557450583226,0.0014062503011296155, ,1.1122210025787354
0.013486231792945091,0.021833301325976127,-0.09035031494719596, ,0.014452582705511946,0.02131801303332161,-0.09121607088385766, ,0.0013960263080008853, ,0.01625531532543923,0.0012396822601585407,-0.035046381631302775,-0.09071894467327597,-0.09547128444618785,0.0020643018542275964, ,0.03865256723534063, ,0.13169905165046583, ,0.0007413090799329112, ,0.16265619979691662,-0.23407603341774488,0.10051173402000001,1.609580006187209,0.14606441824925584,-1.3303197765958719, ,0.11572797751033022,0.07842722442848825,0.03645036961098399,-0.009961093578723023,0.02374557450583226,0.0014062503011296155, ,1.1145248413085938
0.013647196974205517,0.021836354121487905,-0.09068788969283019, ,0.014499627209058957,0.021314147700819044,-0.09130622061296083, ,0.0011754445873241653, ,0.015776762333443623,-0.0004672920429860676,-0.03188708708771393,0.05574198955296649,0.02695862104490824,0.024877517179965846, ,0.03557964185484244, ,0.061918524541205444, ,0.0007453288531494969, ,0.16389955978966678,-0.2332265328015802,0.10086173232000001,1.6093703162437245,0.14715751024737936,-1.330884404864881, ,0.1287611147333389,0.08844076566493084,0.03304732680497926,0.0,0.16064682846921802,-0.14294985100136037, ,1.1179029941558838
0.013647196974205517,0.021836354121487905,-0.09068788969283019, ,0.014546754055801334,0.02131007284738047,-0.09139605748377154, ,0.0012600303737021897, ,0.015776762333443623,-0.0004672920429860676,-0.03188708708771393,0.05574198955296649,0.02695862104490824,0.024877517179965846, ,0.03557964185484244, ,0.061918524541205444, ,0.0007500508854481454, ,0.16389955978966678,-0.2332265328015802,0.10086173232000001,1.6093703162437245,0.14715751024737936,-1.330884404864881, ,0.1287611147333389,0.08844076566493084,0.03304732680497926,0.0,0.16064682846921802,-0.14294985100136037, ,1.1216769218444824
0.013647196974205517,0.021836354121487905,-0.09068788969283019, ,0.014593962725755074,0.02130579116092441,-0.09148558443089615, ,0.0013469147480695337, ,0.015776762333443623,-0.0004672920429860676,-0.03188708708771393,0.05574198955296649,0.02695862104490824,0.024877517179965846, ,0.03557964185484244, ,0.061918524541205444, ,0.0007554769205628853, ,0.16389955978966678,-0.2332265328015802,0.10086173232000001,1.6093703162437245,0.14715751024737936,-1.330884404864881, ,0.1287611147333389,0.08844076566493084,0.03304732680497926,0.0,0.16064682846921802,-0.14294985100136037, ,1.124229907989502
0.01375204960617651,0.021827111853194102,-0.09088814886582483, ,0.0146412527007323,0.021301305319229587,-0.09157480437474204, ,0.0012404234931884031, ,0.01562602964785744,-0.001962443576139442,-0.02784249012075517,0.08171443703170372,0.06080271816506535,0.028896255569257415, ,0.03198793903129116, ,0.10185383166065477, ,0.0007598458086045566, ,0.16480311953595103,-0.232600991438768,0.10106913872,1.609580006187209,0.14852387524503374,-1.3319985839018451, ,0.13793160110242844,0.09386443279769613,0.028856542608695655,0.005467059704717471,0.20366339567747196,-0.1733529235749842, ,1.126619815826416
0.01375204960617651,0.021827111853194102,-0.09088814886582483, ,0.014688623464338753,0.021296617989949695,-0.09166372022154118, ,0.0013266895863541617, ,0.01562602964785744,-0.001962443576139442,-0.02784249012075517,0.08171443703170372,0.06080271816506535,0.028896255569257415, ,0.03198793903129116, ,0.10185383166065477, ,0.0007649069137630352, ,0.16480311953595103,-0.232600991438768,0.10106913872,1.609580006187209,0.14852387524503374,-1.3319985839018451, ,0.13793160110242844,0.09386443279769613,0.028856542608695655,0.005467059704717471,0.20366339567747196,-0.1733529235749842, ,1.1299519538879395
0.01375204960617651,0.021827111853194102,-0.09088814886582483, ,0.014736074501970618,0.02129173183062822,-0.09175233486337768, ,0.0014148336306688714, ,0.01562602964785744,-0.001962443576139442,-0.02784249012075517,0.08171443703170372,0.06080271816506535,0.028896255569257415, ,0.03198793903129116, ,0.10185383166065477, ,0.0007706584776294585, ,0.16480311953595103,-0.232600991438768,0.10106913872,1.609580006187209,0.14852387524503374,-1.3319985839018451, ,0.13793160110242844,0.09386443279769613,0.028856542608695655,0.005467059704717471,0.20366339567747196,-0.1733529235749842, ,1.132368803024292
0.01375204960617651,0.021827111853194102,-0.09088814886582483, ,0.0147836053008121,0.021286649488712714,-0.09184065117821198, ,0.0015044824271684917, ,0.01562602964785744,-0.001962443576139442,-0.02784249012075517,0.08171443703170372,0.06080271816506535,0.028896255569257415, ,0.03198793903129116, ,0.10185383166065477, ,0.0007770955298183974, ,0.16480311953595103,-0.232600991438768,0.10106913872,1.609580006187209,0.14852387524503374,-1.3319985839018451, ,0.13793160110242844,0.09386443279769613,0.028856542608695655,0.005467059704717471,0.20366339567747196,-0.1733529235749842, ,1.1346838474273682
0.01395514092036005,0.021790570014594026,-0.09118252957162723, ,0.014831215349832737,0.021281373601570043,-0.09192867202990726, ,0.0012583783060195182, ,0.015290245911050493,-0.004055598367932223,-0.018174641707934553,0.0006774981088870498,-0.024689591768167346,-0.03330155121782567, ,0.02409475252734846, ,0.02469884536443509, ,0.0007812805974375377, ,0.16666429815863915,-0.2314271360418859,0.10137635945000001,1.6102090760176624,0.1507100592412808,-1.3338629491011285, ,0.141426142412028,0.09177653922482666,0.018940322853745546,0.04629528193883633,0.1094084364040171,-0.083621061540003, ,1.1377379894256592
0.01395514092036005,0.021790570014594026,-0.09118252957162723, ,0.014878904139784287,0.021275906796500727,-0.09201640026825415, ,0.0013466837239353015, ,0.015290245911050493,-0.004055598367932223,-0.018174641707934553,0.0006774981088870498,-0.024689591768167346,-0.03330155121782567, ,0.02409475252734846, ,0.02469884536443509, ,0.000786154762321139, ,0.16666429815863915,-0.2314271360418859,0.10137635945000001,1.6102090760176624,0.1507100592412808,-1.3338629491011285, ,0.141426142412028,0.09177653922482666,0.018940322853745546,0.04629528193883633,0.1094084364040171,-0.083621061540003, ,1.139936923980713
0.01395514092036005,0.021790570014594026,-0.09118252957162723, ,0.014926671163198332,0.021270251690753608,-0.09210383872899736, ,0.001436458399790111, ,0.015290245911050493,-0.004055598367932223,-0.018174641707934553,0.0006774981088870498,-0.024689591768167346,-0.03330155121782567, ,0.02409475252734846, ,0.02469884536443509, ,0.000791712913068737, ,0.16666429815863915,-0.2314271360418859,0.10137635945000001,1.6102090760176624,0.1507100592412808,-1.3338629491011285, ,0.141426142412028,0.09177653922482666,0.018940322853745546,0.04629528193883633,0.1094084364040171,-0.083621061540003, ,1.1421399116516113
0.01395514092036005,0.021790570014594026,-0.09118252957162723, ,0.014974515914383436,0.02126441089154056,-0.09219099023386035, ,0.0015274035840223202, ,0.015290245911050493,-0.004055598367932223,-0.018174641707934553,0.0006774981088870498,-0.024689591768167346,-0.03330155121782567, ,0.02409475252734846, ,0.02469884536443509, ,0.0007979475797717336, ,0.16666429815863915,-0.2314271360418859,0.10137635945000001,1.6102090760176624,0.1507100592412808,-1.3338629491011285, ,0.141426142412028,0.09177653922482666,0.018940322853745546,0.04629528193883633,0.1094084364040171,-0.083621061540003, ,1.1444079875946045
0.014125572056833164,0.02174349661485244,-0.09139939454871002, ,0.015022437889422263,0.02125838699605146,-0.09227785759057165, ,0.001345881488035171, ,0.017813271344856385,-0.004333585362692479,-0.0261700387928927,-0.04287117839937978,-0.0512211422514046,-0.037585941752744136, ,0.031952519908807396, ,0.06679469347096902, ,0.0008025520663957961, ,0.16818567653486138,-0.2303613989052429,0.10160061762000001,1.6102090760176624,0.1516665147396389,-1.3343978382065818, ,0.15159255840011304,0.11405882398854661,0.02695230375634518,0.042552110279618534,0.09340784967524797,-0.06258674482253267, ,1.1466598510742188
0.014125572056833164,0.02174349661485244,-0.09139939454871002, ,0.015070436586168948,0.021252182591468567,-0.09236444359288966, ,0.0014371771310602679, ,0.017813271344856385,-0.004333585362692479,-0.0261700387928927,-0.04287117839937978,-0.0512211422514046,-0.037585941752744136, ,0.031952519908807396, ,0.06679469347096902, ,0.0008078406086013334, ,0.16818567653486138,-0.2303613989052429,0.10160061762000001,1.6102090760176624,0.1516665147396389,-1.3343978382065818, ,0.15159255840011304,0.11405882398854661,0.02695230375634518,0.042552110279618534,0.09340784967524797,-0.06258674482253267, ,1.1489768028259277
0.014125572056833164,0.02174349661485244,-0.09139939454871002, ,0.015118511504246427,0.021245800254981313,-0.09245075102062845, ,0.0015293726962068836, ,0.017813271344856385,-0.004333585362692479,-0.0261700387928927,-0.04287117839937978,-0.0512211422514046,-0.037585941752744136, ,0.031952519908807396, ,0.06679469347096902, ,0.0008138036837055115, ,0.16818567653486138,-0.2303613989052429,0.10160061762000001,1.6102090760176624,0.1516665147396389,-1.3343978382065818, ,0.15159255840011304,0.11405882398854661,0.02695230375634518,0.042552110279618534,0.09340784967524797,-0.06258674482253267, ,1.1512339115142822
0.014125572056833164,0.02174349661485244,-0.09139939454871002, ,0.015166662145043535,0.021239242553800934,-0.09253678263968411, ,0.0016222800002917207, ,0.017813271344856385,-0.004333585362692479,-0.0261700387928927,-0.04287117839937978,-0.0512211422514046,-0.037585941752744136, ,0.031952519908807396, ,0.06679469347096902, ,0.0008204305387594968, ,0.16818567653486138,-0.2303613989052429,0.10160061762000001,1.6102090760176624,0.1516665147396389,-1.3343978382065818, ,0.15159255840011304,0.11405882398854661,0.02695230375634518,0.042552110279618534,0.09340784967524797,-0.06258674482253267, ,1.1534309387207031
0.014305071200871882,0.021710543248941942,-0.09170360777690696, ,0.01521488801171232,0.021232512045175168,-0.0926225412020595, ,0.0013786656958541998, ,0.01818798492393975,-0.002336066023987376,-0.033629336775179805,0.027013363284225402,0.03105936024378342,-0.0072331292867762655, ,0.038303946167468815, ,0.0411626364861747, ,0.0008249690359716488, ,0.16962210484946713,-0.22928021630285148,0.1019013569,1.6102090760176624,0.15289624323752785,-1.335318920599709, ,0.14897479051565274,0.11047373871766097,0.03470329307189543,0.03267388535791313,0.17337606965846272,-0.1268835330757696, ,1.1557397842407227
0.014305071200871882,0.021710543248941942,-0.09170360777690696, ,0.015263188609165286,0.0212256112764032,-0.09270802944588928, ,0.0014703778001542366, ,0.01818798492393975,-0.002336066023987376,-0.033629336775179805,0.027013363284225402,0.03105936024378342,-0.0072331292867762655, ,0.038303946167468815, ,0.0411626364861747, ,0.0008301739453602181, ,0.16962210484946713,-0.22928021630285148,0.1019013569,1.6102090760176624,0.15289624323752785,-1.335318920599709, ,0.14897479051565274,0.11047373871766097,0.03470329307189543,0.03267388535791313,0.17337606965846272,-0.1268835330757696, ,1.1579689979553223
0.014305071200871882,0.021710543248941942,-0.09170360777690696, ,0.015311563444072706,0.021218542784849907,-0.09279325009546721, ,0.001562821638795534, ,0.01818798492393975,-0.002336066023987376,-0.033629336775179805,0.027013363284225402,0.03105936024378342,-0.0072331292867762655, ,0.038303946167468815, ,0.0411626364861747, ,0.0008360351269077007, ,0.16962210484946713,-0.22928021630285148,0.1019013569,1.6102090760176624,0.15289624323752785,-1.335318920599709, ,0.14897479051565274,0.11047373871766097,0.03470329307189543,0.03267388535791313,0.17337606965846272,-0.1268835330757696, ,1.1602067947387695
0.014305071200871882,0.021710543248941942,-0.09170360777690696, ,0.015360012024859803,0.021211309097960766,-0.09287820586127038, ,0.0016558428486460966, ,0.01818798492393975,-0.002336066023987376,-0.033629336775179805,0.027013363284225402,0.03105936024378342,-0.0072331292867762655, ,0.038303946167468815, ,0.0411626364861747, ,0.000842541537397688, ,0.16962210484946713,-0.22928021630285148,0.1019013569,1.6102090760176624,0.15289624323752785,-1.335318920599709, ,0.14897479051565274,0.11047373871766097,0.03470329307189543,0.03267388535791313,0.17337606965846272,-0.1268835330757696, ,1.1625568866729736
0.014305071200871882,0.021710543248941942,-0.09170360777690696, ,0.015408533861703988,0.021203912733276802,-0.09296289943998483, ,0.00174931981522854, ,0.01818798492393975,-0.002336066023987376,-0.033629336775179805,0.027013363284225402,0.03105936024378342,-0.0072331292867762655, ,0.038303946167468815, ,0.0411626364861747, ,0.0008496815238373009, ,0.16962210484946713,-0.22928021630285148,0.1019013569,1.6102090760176624,0.15289624323752785,-1.335318920599709, ,0.14897479051565274,0.11047373871766097,0.03470329307189543,0.03267388535791313,0.17337606965846272,-0.1268835330757696, ,1.1662318706512451
0.014495188520682994,0.021693282474213035,-0.09206992932127671, ,0.015457128466532265,0.021196356198448944,-0.09304733351453184, ,0.001458623714313595, ,0.019784720034073507,-0.0013049420749540854,-0.03967649848145912,0.05972508639412677,0.06221505729566042,0.00785931882236476, ,0.04435496085439466, ,0.08624210673139358, ,0.000854438884700397, ,0.1712207105544316,-0.22812180637171778,0.10229413277,1.6102090760176624,0.1550824272337749,-1.3371016070588517, ,0.15789840525535903,0.11433366452827805,0.041159719689922485,0.02620262737015884,0.22057137534389548,-0.16797817873200074, ,1.1690878868103027
0.014495188520682994,0.021693282474213035,-0.09206992932127671, ,0.015505795353018261,0.02118864199125246,-0.09313151075409294, ,0.0015501430015019816, ,0.019784720034073507,-0.0013049420749540854,-0.03967649848145912,0.05972508639412677,0.06221505729566042,0.00785931882236476, ,0.04435496085439466, ,0.08624210673139358, ,0.0008598319398694016, ,0.1712207105544316,-0.22812180637171778,0.10229413277,1.6102090760176624,0.1550824272337749,-1.3371016070588517, ,0.15789840525535903,0.11433366452827805,0.041159719689922485,0.02620262737015884,0.22057137534389548,-0.16797817873200074, ,1.173170804977417
0.014711256792332887,0.021681809201289273,-0.0925033533623219, ,0.015554534036579623,0.021180772599602368,-0.09321543381413545, ,0.0012121108681755637, ,0.0216316408825021,-0.0009972486783803426,-0.04322663779681117,0.0030388276541270325,-0.01950771530664176,0.014481239385784645, ,0.04834733299172532, ,0.019739161743891315, ,0.000862541777779449, ,0.1728888208552641,-0.22690933731046453,0.10274394540000001,1.6104187659611469,0.15699533823049108,-1.3384981002303205, ,0.16221699411704404,0.11847308559109959,0.0448698916056338,0.0,0.14694134015759563,-0.11970207925656187, ,1.1758649349212646
0.014711256792332887,0.021681809201289273,-0.0925033533623219, ,0.015603344034375296,0.021172750501567632,-0.09329910533643843, ,0.0012993004315736446, ,0.0216316408825021,-0.0009972486783803426,-0.04322663779681117,0.0030388276541270325,-0.01950771530664176,0.014481239385784645, ,0.04834733299172532, ,0.019739161743891315, ,0.0008658758133045954, ,0.1728888208552641,-0.22690933731046453,0.10274394540000001,1.6104187659611469,0.15699533823049108,-1.3384981002303205, ,0.16221699411704404,0.11847308559109959,0.0448698916056338,0.0,0.14694134015759563,-0.11970207925656187, ,1.1781368255615234
0.014711256792332887,0.021681809201289273,-0.0925033533623219, ,0.01565222486530258,0.02116457816538599,-0.09338252794911818, ,0.0013877668438604083, ,0.0216316408825021,-0.0009972486783803426,-0.04322663779681117,0.0030388276541270325,-0.01950771530664176,0.014481239385784645, ,0.04834733299172532, ,0.019739161743891315, ,0.0008698295332330487, ,0.1728888208552641,-0.22690933731046453,0.10274394540000001,1.6104187659611469,0.15699533823049108,-1.3384981002303205, ,0.16221699411704404,0.11847308559109959,0.0448698916056338,0.0,0.14694134015759563,-0.11970207925656187, ,1.1803719997406006
0.014711256792332887,0.021681809201289273,-0.0925033533623219, ,0.015701176049994704,0.02115625804947837,-0.09346570426665307, ,0.0014772485955066945, ,0.0216316408825021,-0.0009972486783803426,-0.04322663779681117,0.0030388276541270325,-0.01950771530664176,0.014481239385784645, ,0.04834733299172532, ,0.019739161743891315, ,0.0008743965938516475, ,0.1728888208552641,-0.22690933731046453,0.10274394540000001,1.6104187659611469,0.15699533823049108,-1.3384981002303205, ,0.16221699411704404,0.11847308559109959,0.0448698916056338,0.0,0.14694134015759563,-0.11970207925656187, ,1.1825668811798096
0.014711256792332887,0.021681809201289273,-0.0925033533623219, ,0.015750197110817755,0.021147792602464136,-0.09354863688991034, ,0.0015675421417754409, ,0.0216316408825021,-0.0009972486783803426,-0.04322663779681117,0.0030388276541270325,-0.01950771530664176,0.014481239385784645, ,0.04834733299172532, ,0.019739161743891315, ,0.000879569321821228, ,0.1728888208552641,-0.22690933731046453,0.10274394540000001,1.6104187659611469,0.15699533823049108,-1.3384981002303205, ,0.16221699411704404,0.11847308559109959,0.0448698916056338,0.0,0.14694134015759563,-0.11970207925656187, ,1.1848368644714355
0.014923324230712237,0.021666333011521433,-0.09289748210784801, ,0.0157992875718681,0.02113918426317534,-0.09363132840617103, ,0.0012584625411565437, ,0.023040971838369645,-0.0022822733270944947,-0.040302815934997335,-0.08605994600782636,-0.10561062607796716,-0.01834428359209034, ,0.046480233724524075, ,0.13623440208799634, ,0.0008823759382607488, ,0.17447970382735434,-0.22575865011220508,0.10315357304000002,1.610838145848116,0.15795179372884915,-1.3388696318554927, ,0.17316960138407075,0.124210656490145,0.04191792505263159,0.012812150374100505,0.06654469884582537,-0.03405993487814181, ,1.1870698928833008
0.014923324230712237,0.021666333011521433,-0.09289748210784801, ,0.01584844695896967,0.021130435460671355,-0.09371378138915507, ,0.0013451329911975242, ,0.023040971838369645,-0.0022822733270944947,-0.040302815934997335,-0.08605994600782636,-0.10561062607796716,-0.01834428359209034, ,0.046480233724524075, ,0.13623440208799634, ,0.0008857785636499899, ,0.17447970382735434,-0.22575865011220508,0.10315357304000002,1.610838145848116,0.15795179372884915,-1.3388696318554927, ,0.17316960138407075,0.124210656490145,0.04191792505263159,0.012812150374100505,0.06654469884582537,-0.03405993487814181, ,1.1892929077148438
0.014923324230712237,0.021666333011521433,-0.09289748210784801, ,0.01589767479967111,0.021121548614254082,-0.0937959983990478, ,0.001432997067787598, ,0.023040971838369645,-0.0022822733270944947,-0.040302815934997335,-0.08605994600782636,-0.10561062607796716,-0.01834428359209034, ,0.046480233724524075, ,0.13623440208799634, ,0.0008897728593006294, ,0.17447970382735434,-0.22575865011220508,0.10315357304000002,1.610838145848116,0.15795179372884915,-1.3388696318554927, ,0.17316960138407075,0.124210656490145,0.04191792505263159,0.012812150374100505,0.06654469884582537,-0.03405993487814181, ,1.1915369033813477
0.014923324230712237,0.021666333011521433,-0.09289748210784801, ,0.015946970623243045,0.02111252613348199,-0.09387798198252519, ,0.0015218193057479213, ,0.023040971838369645,-0.0022822733270944947,-0.040302815934997335,-0.08605994600782636,-0.10561062607796716,-0.01834428359209034, ,0.046480233724524075, ,0.13623440208799634, ,0.0008943529060140155, ,0.17447970382735434,-0.22575865011220508,0.10315357304000002,1.610838145848116,0.15795179372884915,-1.3388696318554927, ,0.17316960138407075,0.124210656490145,0.04191792505263159,0.012812150374100505,0.06654469884582537,-0.03405993487814181, ,1.1937668323516846
0.015155078032046623,0.02163794474850222,-0.09329605686454664, ,0.015996333960675437,0.02110337041818534,-0.09395973467277881, ,0.001197476298398727, ,0.022432708802246928,-0.0031669689807229673,-0.037323803063578735,-0.018281474353129913,0.000708830134949424,-0.027986729151053165, ,0.04366145201273175, ,0.018293231339932912, ,0.0008965336498441214, ,0.17627910058704865,-0.2244689537222096,0.10356838584000001,1.6112575257350852,0.15918152222673815,-1.3395456780281982, ,0.18110103350853202,0.12602515479212587,0.03894574943765281,0.048780653814840064,0.17585965175918966,-0.09731427584147292, ,1.196098804473877
0.015155078032046623,0.02163794474850222,-0.09329605686454664, ,0.016045764344674692,0.021094083858480387,-0.09404125898954199, ,0.0012823544682715113, ,0.022432708802246928,-0.0031669689807229673,-0.037323803063578735,-0.018281474353129913,0.000708830134949424,-0.027986729151053165, ,0.04366145201273175, ,0.018293231339932912, ,0.0008992895128328884, ,0.17627910058704865,-0.2244689537222096,0.10356838584000001,1.6112575257350852,0.15918152222673815,-1.3395456780281982, ,0.18110103350853202,0.12602515479212587,0.03894574943765281,0.048780653814840064,0.17585965175918966,-0.09731427584147292, ,1.198396921157837
0.015155078032046623,0.02163794474850222,-0.09329605686454664, ,0.01609526130966104,0.021084668834784475,-0.0941225574391158, ,0.0013686350981796168, ,0.022432708802246928,-0.0031669689807229673,-0.037323803063578735,-0.018281474353129913,0.000708830134949424,-0.027986729151053165, ,0.04366145201273175, ,0.018293231339932912, ,0.000902618204927546, ,0.17627910058704865,-0.2244689537222096,0.10356838584000001,1.6112575257350852,0.15918152222673815,-1.3395456780281982, ,0.18110103350853202,0.12602515479212587,0.03894574943765281,0.048780653814840064,0.17585965175918966,-0.09731427584147292, ,1.2006700038909912
0.015155078032046623,0.02163794474850222,-0.09329605686454664, ,0.016144824391765684,0.02107512771783068,-0.09420363251439362, ,0.001456040667971271, ,0.022432708802246928,-0.0031669689807229673,-0.037323803063578735,-0.018281474353129913,0.000708830134949424,-0.027986729151053165, ,0.04366145201273175, ,0.018293231339932912, ,0.0009065155462165864, ,0.17627910058704865,-0.2244689537222096,0.10356838584000001,1.6112575257350852,0.15918152222673815,-1.3395456780281982, ,0.18110103350853202,0.12602515479212587,0.03894574943765281,0.048780653814840064,0.17585965175918966,-0.09731427584147292, ,1.2029919624328613
0.015378037394167382,0.021597246376911856,-0.09366075877188088, ,0.01619445312882815,0.021065462868682164,-0.09428448669488763, ,0.0011568772075570887, ,0.022432708802246928,-0.0031669689807229673,-0.037323803063578735,-0.018281474353129913,0.000708830134949424,-0.008617156813650528, ,0.04366145201273175, ,0.018293231339932912, ,0.0009082663270651213, ,0.17812483374398833,-0.2231483664007172,0.10394819881000002,1.6112575257350852,0.16136770622298516,-1.3411650070070598, ,0.181447306995164,0.12999581035406957,0.03462785113043479,0.042773561370697044,0.23664401819841185,-0.19195694830005672, ,1.206697940826416
0.015378037394167382,0.021597246376911856,-0.09366075877188088, ,0.016244147060393482,0.021055676638747307,-0.09436512244675352, ,0.001240794874951537, ,0.02132220411657945,-0.004605550940698604,-0.033219189670389934,0.07154354713943391,0.057957565130122755,-0.008617156813650528, ,0.039741188334192885, ,0.0920734383012983, ,0.0009105755530921104, ,0.17812483374398833,-0.2231483664007172,0.10394819881000002,1.6112575257350852,0.16136770622298516,-1.3411650070070598, ,0.181447306995164,0.12999581035406957,0.03462785113043479,0.042773561370697044,0.23664401819841185,-0.19195694830005672, ,1.2093539237976074
0.015378037394167382,0.021597246376911856,-0.09366075877188088, ,0.01629390572770941,0.021045771369793968,-0.09444554222281679, ,0.0013262068287878805, ,0.02132220411657945,-0.004605550940698604,-0.033219189670389934,0.07154354713943391,0.057957565130122755,-0.008617156813650528, ,0.039741188334192885, ,0.0920734383012983, ,0.0009134419756831157, ,0.17812483374398833,-0.2231483664007172,0.10394819881000002,1.6112575257350852,0.16136770622298516,-1.3411650070070598, ,0.181447306995164,0.12999581035406957,0.03462785113043479,0.042773561370697044,0.23664401819841185,-0.19195694830005672, ,1.2118167877197266
0.015378037394167382,0.021597246376911856,-0.09366075877188088, ,0.01634372867372387,0.02103574939396458,-0.09452574846259787, ,0.0014128148053856966, ,0.02132220411657945,-0.004605550940698604,-0.033219189670389934,0.07154354713943391,0.057957565130122755,-0.008617156813650528, ,0.039741188334192885, ,0.0920734383012983, ,0.0009168623375303935, ,0.17812483374398833,-0.2231483664007172,0.10394819881000002,1.6112575257350852,0.16136770622298516,-1.3411650070070598, ,0.181447306995164,0.12999581035406957,0.03462785113043479,0.042773561370697044,0.23664401819841185,-0.19195694830005672, ,1.2145137786865234
0.015590804789680482,0.021546003056498494,-0.09398039168096131, ,0.016393615443081926,0.02102561303379046,-0.09460574359233817, ,0.00114296794968696, ,0.02132220411657945,-0.004605550940698604,-0.033219189670389934,0.07154354713943391,0.057957565130122755,-0.008617156813650528, ,0.039741188334192885, ,0.0920734383012983, ,0.0009184004709464245, ,0.17980838951056927,-0.22192817460658973,0.10425671583000001,1.6112575257350852,0.1635538902192322,-1.343029372206343, ,0.177046532758341,0.12502890850918416,0.03129432518664047,0.032959347309759884,0.17395469887213016,-0.12778782702542607, ,1.2173469066619873
0.015590804789680482,0.021546003056498494,-0.09398039168096131, ,0.01644356558212326,0.021015364602206876,-0.09468553002502497, ,0.0012271911923451345, ,0.02103062208798308,-0.004805967435694391,-0.03003822327653315,6.941933961185453e-05,-0.013979757361948697,-0.01629996941755048, ,0.0369821476662913, ,0.013979055037606188, ,0.0009204868947396591, ,0.17980838951056927,-0.22192817460658973,0.10425671583000001,1.6112575257350852,0.1635538902192322,-1.343029372206343, ,0.177046532758341,0.12502890850918416,0.03129432518664047,0.032959347309759884,0.17395469887213016,-0.12778782702542607, ,1.219749927520752
0.015590804789680482,0.021546003056498494,-0.09398039168096131, ,0.016493578638879364,0.021005006402567385,-0.09476511016041747, ,0.0013128065715717638, ,0.02103062208798308,-0.004805967435694391,-0.03003822327653315,6.941933961185453e-05,-0.013979757361948697,-0.01629996941755048, ,0.0369821476662913, ,0.013979055037606188, ,0.0009231199127049752, ,0.17980838951056927,-0.22192817460658973,0.10425671583000001,1.6112575257350852,0.1635538902192322,-1.343029372206343, ,0.177046532758341,0.12502890850918416,0.03129432518664047,0.032959347309759884,0.17395469887213016,-0.12778782702542607, ,1.2224018573760986
0.015590804789680482,0.021546003056498494,-0.09398039168096131, ,0.01654365416307065,0.020994540728658827,-0.09484448638507242, ,0.0013995328810246827, ,0.02103062208798308,-0.004805967435694391,-0.03003822327653315,6.941933961185453e-05,-0.013979757361948697,-0.01629996941755048, ,0.0369821476662913, ,0.013979055037606188, ,0.0009262959991604399, ,0.17980838951056927,-0.22192817460658973,0.10425671583000001,1.6112575257350852,0.1635538902192322,-1.343029372206343, ,0.177046532758341,0.12502890850918416,0.03129432518664047,0.032959347309759884,0.17395469887213016,-0.12778782702542607, ,1.224660873413086
0.015802157990107993,0.021496446437950706,-0.09427188205204196, ,0.016593791706103967,0.020983969864715707,-0.0949236610723693, ,0.0011463559960828713, ,0.0215823829740187,-0.005191744355577952,-0.030081757378215834,-0.09552849754895525,-0.1169020725505475,-0.03707065820828234, ,0.037385366003995876, ,0.15096941338445732, ,0.0009277533501334362, ,0.1816541226675089,-0.22061531001797158,0.10458597349000001,1.6112575257350852,0.1645103457175903,-1.3434825825716559, ,0.16976197058760426,0.12652925541129437,0.03135592818897638,0.02633071785044252,0.04838443319495261,-0.02426546471976347, ,1.2269389629364014
0.015802157990107993,0.021496446437950706,-0.09427188205204196, ,0.016643990821069612,0.02097329608543516,-0.09500263658253612, ,0.001231410163373576, ,0.0215823829740187,-0.005191744355577952,-0.030081757378215834,-0.09552849754895525,-0.1169020725505475,-0.03707065820828234, ,0.037385366003995876, ,0.15096941338445732, ,0.0009297510923258055, ,0.1816541226675089,-0.22061531001797158,0.10458597349000001,1.6112575257350852,0.1645103457175903,-1.3434825825716559, ,0.16976197058760426,0.12652925541129437,0.03135592818897638,0.02633071785044252,0.04838443319495261,-0.02426546471976347, ,1.229233980178833
0.015802157990107993,0.021496446437950706,-0.09427188205204196, ,0.016694251062738752,0.02096252165599145,-0.09508141526267534, ,0.0013176682974650438, ,0.0215823829740187,-0.005191744355577952,-0.030081757378215834,-0.09552849754895525,-0.1169020725505475,-0.03707065820828234, ,0.037385366003995876, ,0.15096941338445732, ,0.0009322864988953431, ,0.1816541226675089,-0.22061531001797158,0.10458597349000001,1.6112575257350852,0.1645103457175903,-1.3434825825716559, ,0.16976197058760426,0.12652925541129437,0.03135592818897638,0.02633071785044252,0.04838443319495261,-0.02426546471976347, ,1.2316789627075195
0.015802157990107993,0.021496446437950706,-0.09427188205204196, ,0.016744571987560602,0.020951648832050834,-0.0951599994467885, ,0.0014048847215484394, ,0.0215823829740187,-0.005191744355577952,-0.030081757378215834,-0.09552849754895525,-0.1169020725505475,-0.03707065820828234, ,0.037385366003995876, ,0.15096941338445732, ,0.0009353553185229604, ,0.1816541226675089,-0.22061531001797158,0.10458597349000001,1.6112575257350852,0.1645103457175903,-1.3434825825716559, ,0.16976197058760426,0.12652925541129437,0.03135592818897638,0.02633071785044252,0.04838443319495261,-0.02426546471976347, ,1.2339308261871338
0.016007885986445532,0.021443473850173582,-0.09456486355958825, ,0.016794953153659618,0.02094067985978594,-0.09523839145580272, ,0.0011514844112950134, ,0.021169079887050943,-0.005592694226071746,-0.03087115595547866,-0.08925527166253311,-0.08480799911424156,-0.004874510181663534, ,0.03784754208661596, ,0.12312137180111607, ,0.000936749699766651, ,0.18327589657109605,-0.2193642272923472,0.10489060164000001,1.6114672156785694,0.1651935282164175,-1.3437946358697164, ,0.1661942934474094,0.13107312369954527,0.03204992257545272,0.0,0.083590062944795,-0.03959694124040227, ,1.236212968826294
0.016007885986445532,0.021443473850173582,-0.09456486355958825, ,0.016845394120832833,0.020929616975890894,-0.09531659359759599, ,0.0012371607868242479, ,0.021169079887050943,-0.005592694226071746,-0.03087115595547866,-0.08925527166253311,-0.08480799911424156,-0.004874510181663534, ,0.03784754208661596, ,0.12312137180111607, ,0.0009386754118631742, ,0.18327589657109605,-0.2193642272923472,0.10489060164000001,1.6114672156785694,0.1651935282164175,-1.3437946358697164, ,0.1661942934474094,0.13107312369954527,0.03204992257545272,0.0,0.083590062944795,-0.03959694124040227, ,1.238459825515747
0.016007885986445532,0.021443473850173582,-0.09456486355958825, ,0.016895894450547188,0.020918462407595633,-0.09539460816702242, ,0.001323885252097038, ,0.021169079887050943,-0.005592694226071746,-0.03087115595547866,-0.08925527166253311,-0.08480799911424156,-0.004874510181663534, ,0.03784754208661596, ,0.12312137180111607, ,0.0009411289777245364, ,0.18327589657109605,-0.2193642272923472,0.10489060164000001,1.6114672156785694,0.1651935282164175,-1.3437946358697164, ,0.1661942934474094,0.13107312369954527,0.03204992257545272,0.0,0.083590062944795,-0.03959694124040227, ,1.2406659126281738
0.016007885986445532,0.021443473850173582,-0.09456486355958825, ,0.016946453705936476,0.020907218372680798,-0.09547243744593815, ,0.0014114424042077362, ,0.021169079887050943,-0.005592694226071746,-0.03087115595547866,-0.08925527166253311,-0.08480799911424156,-0.004874510181663534, ,0.03784754208661596, ,0.12312137180111607, ,0.0009441056449807591, ,0.18327589657109605,-0.2193642272923472,0.10489060164000001,1.6114672156785694,0.1651935282164175,-1.3437946358697164, ,0.1661942934474094,0.13107312369954527,0.03204992257545272,0.0,0.083590062944795,-0.03959694124040227, ,1.2428538799285889
0.016007885986445532,0.021443473850173582,-0.09456486355958825, ,0.01699707145179907,0.02089588707949238,-0.09555008370322716, ,0.0014996659253725963, ,0.021169079887050943,-0.005592694226071746,-0.03087115595547866,-0.08925527166253311,-0.08480799911424156,-0.004874510181663534, ,0.03784754208661596, ,0.12312137180111607, ,0.0009475997347945443, ,0.18327589657109605,-0.2193642272923472,0.10489060164000001,1.6114672156785694,0.1651935282164175,-1.3437946358697164, ,0.1661942934474094,0.13107312369954527,0.03204992257545272,0.0,0.083590062944795,-0.03959694124040227, ,1.2450358867645264
0.016183797525843337,0.02139449163638402,-0.0948244783061632, ,0.017047747254594712,0.020884470726956258,-0.09562754919482586, ,0.00128508883509294, ,0.020340770754407066,-0.005735606027648284,-0.03062609223314393,0.009848002692714922,-0.004617661844899196,0.014002632524279083, ,0.03721023591514539, ,0.010875615578272477, ,0.0009497090416714091, ,0.18469687941995339,-0.21824443102558463,0.10516022996,1.6114672156785694,0.16642325671430647,-1.344634039522703, ,0.16475163465012285,0.13125441432706886,0.031794034970059885,0.0,0.16462750293226447,-0.13884430497874106, ,1.247363805770874
0.016183797525843337,0.02139449163638402,-0.0948244783061632, ,0.01709848068244202,0.020872971504593132,-0.09570483616374964, ,0.0013724643828685347, ,0.020340770754407066,-0.005735606027648284,-0.03062609223314393,0.009848002692714922,-0.004617661844899196,0.014002632524279083, ,0.03721023591514539, ,0.010875615578272477, ,0.0009523348512440621, ,0.18469687941995339,-0.21824443102558463,0.10516022996,1.6114672156785694,0.16642325671430647,-1.344634039522703, ,0.16475163465012285,0.13125441432706886,0.031794034970059885,0.0,0.16462750293226447,-0.13884430497874106, ,1.2496578693389893
0.016183797525843337,0.02139449163638402,-0.0948244783061632, ,0.017149271305115683,0.02086139159253321,-0.09578194684011852, ,0.0014605071957134366, ,0.020340770754407066,-0.005735606027648284,-0.03062609223314393,0.009848002692714922,-0.004617661844899196,0.014002632524279083, ,0.03721023591514539, ,0.010875615578272477, ,0.0009554717175679472, ,0.18469687941995339,-0.21824443102558463,0.10516022996,1.6114672156785694,0.16642325671430647,-1.344634039522703, ,0.16475163465012285,0.13125441432706886,0.031794034970059885,0.0,0.16462750293226447,-0.13884430497874106, ,1.2520108222961426
0.016183797525843337,0.02139449163638402,-0.0948244783061632, ,0.017200118694043816,0.020849733161530517,-0.09585888344118174, ,0.0015490850513157192, ,0.020340770754407066,-0.005735606027648284,-0.03062609223314393,0.009848002692714922,-0.004617661844899196,0.014002632524279083, ,0.03721023591514539, ,0.010875615578272477, ,0.0009591135171614917, ,0.18469687941995339,-0.21824443102558463,0.10516022996,1.6114672156785694,0.16642325671430647,-1.344634039522703, ,0.16475163465012285,0.13125441432706886,0.031794034970059885,0.0,0.16462750293226447,-0.13884430497874106, ,1.254525899887085
