NicholasDascanio/dvrk_moveit_final/test/execution/third_experiment_notsharpbends/thirdexp_500vel5.0/thirdexp_500vel5.0_26.csv
Current Position (x),Current Position (y),Current Position (z), ,Planned Position (x),Planned Position (y),Planned Position (z), ,Position Error,,Cartesian linear Velocity(x),Cartesian linear Velocity(y),Cartesian linear Velocity(z),Cartesian Angular Velocity(x),Cartesian Angular Velocity(y),Cartesian Angular Velocity(z), ,Total Linear Velocity, ,Total Angular Velocity, ,MSE, ,Joint 1 Position,Joint 2 Position,Joint 3 Position,Joint 4 Position,Joint 5 Position,Joint 6 Position, ,Joint 1 Velocity,Joint 2 Velocity,Joint 3 Velocity,Joint 4 Velocity,Joint 5 Velocity,Joint 6 Velocity, ,Time Stamp
0.010004513789780418,0.020294627368816803,-0.07962976213359804, ,0.010024936831153073,0.020225177840043886,-0.07971456419846293, ,0.00011149765858993539, ,-2.612067442828561e-05,-7.024916905326814e-06,6.148873831649934e-07,-0.40526389019622555,0.002869922750292964,0.2729759169586483, ,2.70558159479476e-05, ,0.40527405191249416, ,9.291471549161282e-06, ,0.2014938234213917,-0.23056218995997274,0.09158288850000001,1.8060594832322083,0.7659842176850592,-1.2283780152411745, ,-0.0003182955746301769,7.308778510954271e-05,-9.479588256582585e-06,0.006314222168114091,0.0,0.11340307882490785, ,0.0228879451751709
0.009953541169734934,0.020299383246556266,-0.07960863879299121, ,0.010046355028907076,0.02026087669557195,-0.07982472594398733, ,0.0002383082536312049, ,-0.0027487013968355875,0.0005353220496281609,-1.612126985004505e-05,-0.1548756571307712,0.4004060625002516,0.27047915343232243, ,0.002800390858634841, ,0.42931513374052355, ,1.590026873732456e-05, ,0.2014938234213917,-0.23055446722709852,0.09159974027000001,1.8062691731756926,0.7732259521726275,-1.2175390224082694, ,-0.00031809635678332454,-2.430871841266625e-05,0.0022846832358003446,0.0,0.42175064283288927,0.2816859308613462, ,0.044898033142089844
0.009923469650336775,0.020316720790560166,-0.07964558985198092, ,0.010068210554223552,0.02029592762570824,-0.07993458557790023, ,0.00032388395230722696, ,-3.677404530437195e-05,0.001243062904405642,-0.004436244108207274,0.03025334761707955,0.13633978425074392,0.03542948935621048, ,0.004607257264612124, ,0.13965601243720602, ,2.1052808266511474e-05, ,0.20148610068851747,-0.23056991269284696,0.09166973993000001,1.8062691731756926,0.7789646851627761,-1.2133972704283384, ,-0.00022953875756690905,-1.2644133589181434e-05,0.005429042781186094,-1.521989632079486e-05,0.14378683524513192,-0.004585608537724939, ,0.06914901733398438
0.009951955842931855,0.020343102583556108,-0.07975803168251297, ,0.01009050028161227,0.020330335493477802,-0.0800441451531806, ,0.0003181485159101302, ,0.002544570759736011,0.0011526840098931295,-0.0059112045623297225,0.42195082364348085,-0.20111151280021045,-0.37430660716040487, ,0.006538031825838303, ,0.4674273613589428, ,2.361519953424994e-05, ,0.20147837795564325,-0.23057763542572118,0.09178251716000001,1.8062691731756926,0.7780082296644178,-1.2198867529749735, ,-0.0003275062002349433,-2.03399170211865e-05,0.005045553221412734,9.771664032075547e-05,-0.2119935996360773,-0.5600836735732607, ,0.09095501899719238
0.010016725247534327,0.020361917624318233,-0.07987099259351324, ,0.010113221096492719,0.020364105146121775,-0.08015340671381785, ,0.0002984526251606232, ,0.003483942140107609,0.00099080369734553,-0.005779605070938372,0.031700538384898,-0.3333705711230935,-0.15823140544123143, ,0.006820804906923207, ,0.3348743970780402, ,2.4813288569213858e-05, ,0.201470655222769,-0.23057763542572118,0.09186547972,1.8062691731756926,0.7714496776756767,-1.222053137690477, ,0.0003420229791447756,-0.0005486734378260859,0.004187384731861199,0.00015696836146747347,-0.3514000228375329,-0.11594698290328811, ,0.11934804916381836
0.010056032053170346,0.02039423107320721,-0.08000800531367955, ,0.010136369895178505,0.02039724141511911,-0.08026237229482801, ,0.0002667691738479832, ,0.00015811101714921597,0.0007542919276104415,-0.002726932767038073,0.03112773351397684,0.05309846847227166,0.000891545667144731, ,0.0028337462345362115, ,0.06154984279157173, ,2.5113873862050062e-05, ,0.20148610068851747,-0.23057763542572118,0.09200159017000001,1.8064788631191775,0.7699466761782569,-1.2216443281512221, ,-0.0004586648524116284,-0.00037182616000633117,0.0031604784761904764,0.0,0.05571599539808582,-0.024773636927185504, ,0.1414170265197754
0.010063737535537198,0.02042039297821725,-0.08010517127511163, ,0.010159943584861778,0.02042974911620654,-0.08037104392226865, ,0.00028289822507573465, ,0.0009392138666147088,0.0012519774792923535,-0.004921396382974862,-0.024803590064685247,0.018065495050377786,0.02507710861880549, ,0.005164272713001768, ,0.03068517864743842, ,2.5554977840594977e-05, ,0.20147837795564325,-0.2305853581585954,0.09211307111000001,1.8064788631191775,0.7717229506752076,-1.2208057561753396, ,0.000752480545902978,-0.0005399117860237483,0.005284940783012609,0.0,0.019747905721823254,0.03506180289402604, ,0.1658639907836914
0.010089762627278382,0.020453147374963183,-0.08022792227545106, ,0.010183939083597705,0.02046163304940037,-0.08047942361325416, ,0.0002686896620867115, ,0.0009852959344242502,0.0013736547688760798,-0.005421451444752347,0.015544767867528966,0.009699473886205963,-0.010476847990575721, ,0.005678897011767009, ,0.01832265256563507, ,2.603269218036481e-05, ,0.20148610068851747,-0.2306085263572181,0.09224270011,1.8066885530626617,0.7717229506752076,-1.220560719954918, ,-0.0009088488652747052,-0.00045323285100435154,0.005735978221101909,0.004285496462473394,0.00831173773436455,-0.015408729041496847, ,0.1862490177154541
0.010111135068592228,0.02048020306808296,-0.08033255502191373, ,0.01020835332028887,0.02049289799901671,-0.08058751337597116, ,0.00027315986535000723, ,0.0011309005007543653,0.0014258606330940834,-0.0055070544605107545,0.012986208476047228,0.005629713146009701,-0.009222984296854635, ,0.005799970975672666, ,0.014153984443417773, ,2.6464532577328412e-05, ,0.20148610068851747,-0.23063169455584076,0.09235288476,1.8066885530626617,0.7717229506752076,-1.220724077435199, ,0.00043194090556638676,-0.0008493316338442208,0.005832593013548151,0.0039625203946890815,0.005495332125559548,-0.012547714588659793, ,0.20709490776062012
0.010131865640250995,0.02050578194011282,-0.08043092619371457, ,0.01023318323466969,0.020523548733692942,-0.0806953152096934, ,0.0002836943172909275, ,0.0007692458449630104,0.0011131215402908803,-0.003993666819876158,0.009943362644900833,0.004917393026328557,-0.0069205081953082025, ,0.004216651918481314, ,0.01109284516467596, ,2.6924265143944288e-05, ,0.2014938234213917,-0.23065486275446342,0.09245658796,1.8066885530626617,0.7717229506752076,-1.220724077435199, ,-0.0003167942785439798,-0.0014960711916792821,0.00424315703782632,0.003661537798842768,0.004008650818498978,-0.008501232102640938, ,0.22788286209106445
0.010150285726874271,0.020528605852600114,-0.08052543071878554, ,0.010258425777290863,0.020553590006408363,-0.08080283110479725, ,0.0002987799400981612, ,0.0010702799552065152,0.0013697364448221766,-0.0053180028759639624,0.0038986345253255194,0.0010281186862852933,-0.004718591283181571, ,0.005594893359086653, ,0.004031919510814219, ,2.7447057308783756e-05, ,0.2014938234213917,-0.23065486275446342,0.09255640229,1.8066885530626617,0.771859587174973,-1.220917174079036, ,-0.0002567030632157235,-0.0008604392476274595,0.005596911988756149,0.003419677995174161,0.0,-0.0028918435035368527, ,0.2521848678588867
0.010171597476746525,0.020555978024923545,-0.08063133434722286, ,0.010284077909503746,0.020583026554505036,-0.0809100630427768, ,0.00030178329382352044, ,0.0009016308972626942,0.001047697390723611,-0.004333156326635963,0.001960169118351168,-0.0002083087746839876,-0.001249922707637847, ,0.0045482800978494135, ,0.001971206227289588, ,2.7915089599762105e-05, ,0.20148610068851747,-0.23066258548733765,0.09266788323000001,1.8068982430061464,0.771859587174973,-1.220917174079036, ,0.00019990453216243135,-9.983689373151176e-05,0.0045471914130745085,0.0,0.0,-0.0022541249060155206, ,0.27353405952453613
0.01019087809683623,0.02057853563511772,-0.0807225955292699, ,0.010310136603444885,0.020611863099709,-0.08101701299625971, ,0.0003193978023770783, ,0.001011867287404669,0.0011616535743427174,-0.00482846475090572,0.0015022163512933553,-0.0003152570948866253,-0.0009889994343052597, ,0.00506827251485572, ,0.0015349392097008384, ,2.84560578218194e-05, ,0.2014938234213917,-0.23067030822021187,0.09276380869,1.8068982430061464,0.771859587174973,-1.220917174079036, ,0.0003086677301570781,-4.06777227507439e-05,0.0050664158778625954,0.0,0.0,-0.0017699814098504716, ,0.29528093338012695
0.010224353206720452,0.020619318309595205,-0.08087864308476744, ,0.010336598842020343,0.02064010434815088,-0.08112368292902172, ,0.00027032511410314064, ,0.0010518827594958244,0.0013378612662117199,-0.00523221840477463,0.002408524335325366,0.0010021565308290454,-0.003671106077625552, ,0.005502039580248088, ,0.002608697618514757, ,2.8561395552980632e-05, ,0.20150926888714013,-0.23069347641883456,0.09292843752,1.807107932949631,0.771859587174973,-1.220917174079036, ,-0.0002641061624059522,-0.0007356525046824972,0.0055040813821700075,0.003249257250986488,0.0,-0.0012765244338651702, ,0.31600093841552734
0.010246004980973507,0.02064702949919396,-0.08098307340937932, ,0.010363461618890134,0.020667754990387123,-0.08123007479600236, ,0.0002742905262118581, ,0.0010990352705797601,0.0013656758768227882,-0.0055311025950698,0.0006261417196156252,-0.0010882330633379153,0.005198268375342261, ,0.0058022448279697655, ,0.001255507656853833, ,2.8681103651835025e-05, ,0.20150926888714013,-0.230708921884583,0.09303862217000002,1.8073176228931154,0.771859587174973,-1.220917174079036, ,-0.0002641061624059522,-0.0009049557232273663,0.005804960466472304,-0.005895190829227985,0.0,-0.0010750618578583972, ,0.337446928024292
0.010263653654389691,0.020668408475561662,-0.08106946555228914, ,0.010390721938452635,0.020694819701420602,-0.08133619054331974, ,0.00029662454805080965, ,0.0011871458276597588,0.0013388174680376722,-0.005562097434974888,0.00011142302402322607,-0.0020714096434924756,0.005178784537560063, ,0.005842831103583862, ,0.00207440296904646, ,2.912304917049377e-05, ,0.20150926888714013,-0.23071664461745722,0.09312936247,1.8073176228931154,0.771859587174973,-1.220917174079036, ,0.0007194970652692139,-0.00047827117086239005,0.00583900715542522,-0.005895190829227985,0.0,-0.0009580495985269192, ,0.3560030460357666
0.010277040385621465,0.020684119480702774,-0.08113499503263003, ,0.01041837681582914,0.020721303140721913,-0.08144203210828661, ,0.00034004466898338167, ,0.0011651981296787722,0.0013136240868872658,-0.005485970984878836,-2.7584456158239388e-05,-0.001993675979132775,0.00520538257847368, ,0.005760136506194083, ,0.001993865552892005, ,2.9792175893115216e-05, ,0.20151699162001435,-0.23071664461745722,0.09326158405000001,1.8073176228931154,0.771859587174973,-1.220917174079036, ,-0.00027382291080448447,-0.00033706913139005574,0.006358806994011978,-0.005895190829227985,0.0,-0.0008261139059165109, ,0.3742339611053467
0.010313495457529902,0.020725362071671888,-0.0813039868187077, ,0.010446423276848037,0.020747209952249816,-0.08154760141942449, ,0.00027837961260988143, ,0.0010735086705708147,0.0010938565134808822,-0.004691718350180612,-0.0004734310648036248,-0.002770329703566553,0.004956181563250589, ,0.00493570299099295, ,0.00281049130336121, ,3.0030522354216168e-05, ,0.2015324370857628,-0.23072436735033144,0.09337565757,1.8073176228931154,0.771859587174973,-1.220917174079036, ,0.001480463789595304,-1.570285686421429e-05,0.004925421001855288,-0.005627560698953309,0.0,-0.0007357180005389763, ,0.39594197273254395
0.010332687759636475,0.020746409581819017,-0.08139161143603768, ,0.010474858358029474,0.020772544764472604,-0.08165290039648038, ,0.00029860918885557503, ,0.0009492711951167922,0.0010826444697261373,-0.004421322723930202,0.0001466064597807047,-0.0018358575006675827,0.004712907394869936, ,0.0046498741358071876, ,0.0018417015304591645, ,3.0362141729340295e-05, ,0.20154788255151126,-0.23072436735033144,0.09346510158000002,1.8073176228931154,0.771859587174973,-1.220917174079036, ,0.000643984663854582,-0.0006264304664397759,0.004618385479849232,-0.005214027218045455,0.0,-0.0006635923991082635, ,0.41624903678894043
0.010355038570698425,0.020770421530015043,-0.08149151940701232, ,0.010503679106569595,0.02079731219038881,-0.08175793095044023, ,0.00030625516647241426, ,0.0012120349309121521,0.001345819348129577,-0.005543815151428026,6.206528761898794e-05,-0.0021442710408744294,0.00438303633118794, ,0.00583216467743788, ,0.0021451678629255608, ,3.0706478863240795e-05, ,0.20157105075013393,-0.23072436735033144,0.09357269365000001,1.8073176228931154,0.771859587174973,-1.220917174079036, ,0.001034635155562905,-0.0005210685884667789,0.0057775885092491855,-0.004847157237324911,0.0,-0.0006025146804826409, ,0.4351339340209961
0.010381030827004468,0.02079766118856027,-0.08160761413500395, ,0.010532882580325049,0.020821516827548184,-0.08186269498354602, ,0.00029781585886416647, ,0.0012793291285100434,0.001373276916475287,-0.005703302074520241,0.0006756819833069077,-0.0009749617489450217,-0.0018158598453437264, ,0.006004184129555407, ,0.0011862084640156495, ,3.097816650885662e-05, ,0.20160194168163081,-0.23073209008320567,0.09369454491000001,1.807107932949631,0.771859587174973,-1.220917174079036, ,0.0013294170027322331,8.675543938261001e-05,0.005995036326684231,0.001559147229343445,0.0,-0.0005528046630430412, ,0.45546698570251465
0.01040834364379735,0.020825560077724417,-0.08172068390583502, ,0.010562465847797407,0.02084516325807251,-0.0819671943893096, ,0.00029138523797280646, ,0.001379135757870469,0.0014690452405155198,-0.005807313837457402,0.0019255512420940251,-0.0008789946105900752,-0.005665813781472977, ,0.006146950737076267, ,0.002116689043369515, ,3.119596603836639e-05, ,0.20164827807887617,-0.23072436735033144,0.09381380359000001,1.8073176228931154,0.771859587174973,-1.220917174079036, ,0.002185581058343372,-0.0003962944587472889,0.006131182263279446,0.0057222974404842475,0.0,-0.0005102077649036278, ,0.474315881729126
0.010423248359615726,0.02084104889913061,-0.08177935525282637, ,0.010592425988117512,0.02086825604867681,-0.0820714310525288, ,0.00033862895880850617, ,0.0014722042515644275,0.0014299457665295887,-0.005574291089454084,0.0017510516417004322,-0.0020625790008895325,-0.007165443895567084, ,0.005940105336061598, ,0.0027056253629717765, ,3.162414503116243e-05, ,0.20167916901037308,-0.23072436735033144,0.09387602551,1.8075273128366,0.771859587174973,-1.2209988528191766, ,0.0038228786024422316,-0.0003962944587472889,0.00590831287833828,0.007694445358124108,0.0,0.000166666448799065, ,0.49237895011901855
0.010450403774088542,0.020868136478211077,-0.08188407115794627, ,0.010622760091029984,0.020890799750689797,-0.08217540684930179, ,0.00033925920616346034, ,0.001291588206239708,0.0011972634230687177,-0.005180778674220383,-0.0011997363991358726,-0.003727622044012874,0.0037648164415990913, ,0.00547193818221409, ,0.0039159328132813784, ,3.2172471500675556e-05, ,0.20173322814049263,-0.23073209008320567,0.09398621016000001,1.8077370027800843,0.7717229506752076,-1.2208874349154801, ,0.002832344893632734,0.0003094189200980166,0.005449473664043792,-0.0039177474900827566,0.0,0.00016022325672161088, ,0.5090839862823486
0.010483412776702988,0.020900153461664475,-0.08201686788482508, ,0.010653465256877546,0.020912798900075368,-0.08227912364704379, ,0.00031281917770980357, ,0.001754007833088167,0.0015686746251023231,-0.006691187924343121,-0.0011424346289219621,-0.00554118708421092,0.003772028558406512, ,0.007092903453230543, ,0.005657729029468296, ,3.256711959619391e-05, ,0.20180273273636065,-0.23073209008320567,0.09412620948000001,1.8077370027800843,0.7717229506752076,-1.2208874349154801, ,0.0046458836679394025,0.0002558253557589455,0.007054389512843226,-0.0039177474900827566,0.0,0.00015410287698048512, ,0.5247659683227539
0.010499466719343133,0.020916463715556267,-0.08208376019325445, ,0.010684538596585505,0.020934258017452887,-0.08238258330450053, ,0.00035194245089331617, ,0.0017641803351988877,0.0016624408996655684,-0.007083794223775474,-0.0011262061404419966,-0.004706652870854711,0.0037756208408401674, ,0.007487067690676911, ,0.0048395148186745765, ,3.310848472160858e-05, ,0.20184134640073179,-0.23073209008320567,0.09419750543000001,1.8077370027800843,0.771859587174973,-1.2209988528191766, ,0.003805292843635871,0.0002359252786031306,0.007457308764044945,-0.0039177474900827566,-6.403688320020091e-06,0.00015645787590461756, ,0.5407459735870361
0.010535185605185425,0.020949922715945278,-0.08222441878085043, ,0.010715977231646134,0.020955181608118725,-0.08248578767176476, ,0.000317847393072502, ,0.0018294828296130051,0.0016543831338600228,-0.006948546383660132,-0.0003054538392948516,-0.005203691702429843,0.003687248745818943, ,0.007373349837307709, ,0.005212647425595126, ,3.347326438271553e-05, ,0.20193401919522247,-0.23072436735033144,0.09434657878000001,1.8077370027800843,0.7719962236747385,-1.2211919494630137, ,0.004944760204045043,0.0,0.007337084993090743,-0.0039177474900827566,0.0006749511050745575,-0.0004046875006172243, ,0.5571720600128174
0.010555709597525359,0.02096800578804351,-0.08229918082127198, ,0.010747778294103104,0.020975574162066895,-0.0825887385902912, ,0.00034755052307516285, ,0.0019080425790875739,0.0017094613843864764,-0.007174113774035858,-0.0002842247197046549,-0.005577041766895218,0.0036726046410773643, ,0.007617794507016496, ,0.005584277890394407, ,3.393926303455156e-05, ,0.20199580105821627,-0.23072436735033144,0.09442565247000001,1.8077370027800843,0.7719962236747385,-1.2211919494630137, ,0.0053180009780253445,0.0,0.007577931265461467,-0.0039177474900827566,0.0006749511050745575,-0.0004306549567446957, ,0.572458028793335
0.01059031573522263,0.020998835943751966,-0.08242669113760231, ,0.01077993892653587,0.020995440154009788,-0.08269143789291171, ,0.00032566751529534375, ,0.0016994941353801775,0.0014231566862279391,-0.00597535354949408,-0.00028741219971903495,-0.00599787333535363,0.0036744969702891886, ,0.006373264886319915, ,0.00600475500764983, ,3.429163373076549e-05, ,0.2020961965855812,-0.23072436735033144,0.09456046663,1.8077370027800843,0.7719962236747385,-1.2211919494630137, ,0.005738846902851086,0.0,0.006325977569499604,-0.0039177474900827566,0.0006749511050745575,-0.00042724387902338116, ,0.5881099700927734
0.010607589122555633,0.021013615706499563,-0.08248977990025053, ,0.01081245628204407,0.021014784043399442,-0.08279388740385021, ,0.0003666787310352299, ,0.0018616883877609998,0.0015009050661223507,-0.0063456022754826685,0.0006022642632746373,-0.005936385026221226,0.003399582930937538, ,0.006781243832015386, ,0.00596685672138797, ,3.4784385851076273e-05, ,0.202157978448575,-0.23071664461745722,0.09462787371,1.8077370027800843,0.772132860174504,-1.2213033673667102, ,0.0068436670104142314,0.00017521951769340968,0.0067295359188846654,-0.0039177474900827566,0.0019118298720084417,-0.0014345687252693136, ,0.6044209003448486
0.010642765185332106,0.021043813587230495,-0.08261571086288647, ,0.01084532752423203,0.02103361027444825,-0.08289608893873852, ,0.00034604547988789354, ,0.0017174042123078177,0.001376232655595762,-0.005834958924297176,0.008186360049864918,0.002364267080752509,0.00161537119573008, ,0.006236203909351911, ,0.008520929698770049, ,3.517285092278218e-05, ,0.20228926490743682,-0.230708921884583,0.09476268787000001,1.8077370027800843,0.7724061331740348,-1.221526203174103, ,0.007043665758725651,0.00033618892547138823,0.0062416973040752355,-0.0039177474900827566,0.010926408675374607,-0.008783677796881663, ,0.6202569007873535
0.01066007580820469,0.021057399963450192,-0.08267454981528981, ,0.010878549827193018,0.021051923276149898,-0.08299804430463098, ,0.00039039669018935515, ,0.0016420282933049101,0.001358123856638895,-0.005737981277645975,0.007452432479217385,0.002194898357630054,0.0018217142258007135, ,0.006120881183996408, ,0.0077689331595493915, ,3.5837145680755e-05, ,0.20235104677043061,-0.23070119915170878,0.09482490979000001,1.8077370027800843,0.7724061331740348,-1.221526203174103, ,0.006307020969183359,0.00024231148823673012,0.006128823208926511,-0.0039177474900827566,0.009965597401321946,-0.007999688941352615, ,0.6365220546722412
0.010696980306544208,0.021086398453589134,-0.08279684283308385, ,0.010912120375493776,0.02106972746230042,-0.08309975530002062, ,0.00037191280408705, ,0.0019310879543975293,0.0015501111340618416,-0.006577079120561731,0.005880857147610818,-0.0005865982771071091,0.0017806508328549698, ,0.007027795883041197, ,0.005910039426428403, ,3.640558745612645e-05, ,0.20249005596216665,-0.23069347641883456,0.09495453879000001,1.8077370027800843,0.7724061331740348,-1.221526203174103, ,0.007521637695067067,0.0003840360417596843,0.007010920563380283,-0.003546463640070716,0.008213911545227213,-0.006570860460944397, ,0.6498470306396484
0.010718011084905613,0.021102057214886602,-0.08286408127789045, ,0.010946036364158923,0.021087027231518906,-0.08320122371485317, ,0.00040729160460257585, ,0.001973528328721017,0.0015099767436592805,-0.0065004269670795945,0.005068032565754026,-0.0018048960465063622,0.001692973620565087, ,0.006959194966732278, ,0.005379831988038295, ,3.707529695919672e-05, ,0.20257500602378312,-0.23068575368596034,0.09502583474000001,1.8077370027800843,0.7724061331740348,-1.221526203174103, ,0.008137458637340571,0.0006511070495439952,0.006928582653327534,-0.0033716539621772294,0.007532600596459906,-0.00601529189162054, ,0.6641290187835693
0.01075950005512259,0.02113763968544762,-0.08300849086466691, ,0.01098029499865531,0.021103826967268632,-0.08330245133054323, ,0.00036919705104251693, ,0.001991323320847704,0.0015659124546040497,-0.006703074359300752,0.007899451636766962,0.0013274185713974265,0.0009263478907818773, ,0.007165797670179587, ,0.008010203661147176, ,3.75848291442222e-05, ,0.20274490614701604,-0.23068575368596034,0.09518138954000001,1.8077370027800843,0.7728160426733313,-1.2218604568851923, ,0.008413250540546017,0.0005415632767568224,0.008370368638991068,-0.003059293087425956,0.007093468693164307,-0.005657586855164687, ,0.6785039901733398
0.010781826804766189,0.021155968610155017,-0.08308614537335195, ,0.011014893494876419,0.021120131037877743,-0.08340343991998918, ,0.00039532296031396017, ,0.002296726469533636,0.0018570118076988655,-0.007760203092269141,0.003313877644311054,-0.004756037745801605,0.0019013742157787106, ,0.008303264259497766, ,0.005796693189938141, ,3.816242773418351e-05, ,0.20282985620863253,-0.23067803095308612,0.0952643521,1.8077370027800843,0.7729526791730965,-1.2219718747888886, ,0.008632510426555716,0.00015030788521675365,0.008253270217616581,-0.0029336089247285614,0.004821013639371626,-0.003804874410712768, ,0.6941590309143066
0.010827215727972291,0.02118959552136152,-0.08323303423226308, ,0.01104982907912688,0.021135943796560537,-0.08350419124758852, ,0.00035491032479571355, ,0.0023666811570348958,0.0017177073552212844,-0.00743733859393813,0.0026149837363677545,-0.006263730487842036,0.0015327077912430293, ,0.007991602068304385, ,0.006787667994990405, ,3.8582213595485555e-05, ,0.20300747906473968,-0.23065486275446342,0.0954199069,1.8077370027800843,0.7729526791730965,-1.2219718747888886, ,0.010191917254695605,0.0009095788504985655,0.007916904333996026,-0.0027075124485088833,0.004821013639371626,-0.003805753065172682, ,0.7079389095306396
0.010849893311164165,0.021204897479091704,-0.08330148460617219, ,0.011085098988106657,0.021151269581437888,-0.08360470706925295, ,0.00038748099823024493, ,0.002406400650558872,0.0015873420748495203,-0.007312928677392886,0.0014973908483000569,-0.006986467935606155,0.0012087325121806775, ,0.007860619873409032, ,0.007145130695297498, ,3.9091977375411475e-05, ,0.2031078745921046,-0.23063941728871498,0.09549249914,1.8077370027800843,0.7729526791730965,-1.2219718747888886, ,0.01093621174428511,0.0020697993206276093,0.00777015196097561,-0.0026132708335923622,0.004821013639371626,-0.0038062522461666227, ,0.7226259708404541
0.010876194859408146,0.021223115175775936,-0.08338318813096839, ,0.011120700468895815,0.021166112715558624,-0.08370498913242375, ,0.00040815212614837094, ,0.0024039591507628655,0.0016344248859495021,-0.007296533219824202,0.005418420237177428,-0.003506907773061313,0.00043806034128714166, ,0.007854282993013793, ,0.006454274499420855, ,3.964838847123168e-05, ,0.20334727931120555,-0.23059308089146963,0.09565712797,1.8077370027800843,0.7733625886723929,-1.2223061284999779, ,0.011078326121698666,0.002658395833363294,0.007621440918660288,-0.0024207526068390503,0.009219031955764945,-0.0073938433967438285, ,0.7367868423461914
0.010919994939920075,0.021252771269748196,-0.08351751161681358, ,0.011156630778938484,0.021180477506920224,-0.08380503917608687, ,0.00037933495197968367, ,0.002446649279072996,0.0015734182552204076,-0.007473885448477135,0.006801676889053618,-0.0009267038860868411,-0.0005361955686418598, ,0.008020018790352522, ,0.006864514933728319, ,4.021965979496519e-05, ,0.20344767483857049,-0.23057763542572118,0.09572453505,1.8077370027800843,0.7734992251721584,-1.2224175464036744, ,0.011475679829686747,0.002785418600074606,0.007968389954977489,-0.0023495379911455177,0.011752899396992544,-0.009460641691892228, ,0.7477378845214844
0.010945365225340242,0.021268245778039586,-0.08359228091672345, ,0.011192887186027674,0.02119436824848963,-0.0839048589307883, ,0.00040549972289963894, ,0.002568135587000134,0.0016061852064727029,-0.007657099488055063,0.006665532071423119,-0.0018620890241507516,-0.0006364167764298788, ,0.008234459537861692, ,0.006920741795998275, ,4.08544468257876e-05, ,0.20356351583168386,-0.2305467444942243,0.09580360874,1.8077370027800843,0.7734992251721584,-1.2224175464036744, ,0.012427572231334571,0.002939692596569591,0.008168621292307693,-0.0022770324638037723,0.011752899396992544,-0.009461301859192795, ,0.759505033493042
0.010986517626197276,0.021292135855110802,-0.08370906865099464, ,0.011229466968289357,0.021207789218224433,-0.08400445011864949, ,0.0003916490130345602, ,0.002557020108991176,0.0015349028874314249,-0.007059308181228496,0.010083380019378375,-0.00038183791240285634,-0.0012068946702842756, ,0.007663426825460666, ,0.010090606288790825, ,4.1427464498281854e-05, ,0.20377202961928792,-0.23049268536410472,0.09592805258,1.8077370027800843,0.7736358616719238,-1.2225289643073707, ,0.013930848731425539,0.002222627170501447,0.007592379180171592,-0.0021658640448397872,0.014888787367207914,-0.012019576283213382, ,0.7768650054931641
0.011017248504842113,0.021309315639088663,-0.08379345064777906, ,0.011266367414167078,0.021220744679093698,-0.08410381445338201, ,0.00040771403920644917, ,0.002683959518120971,0.0014634429030707709,-0.007598518325242897,0.005434326718855115,-0.0030468407565877225,-0.0011578400133460548, ,0.008190408082904813, ,0.006230178179853221, ,4.203161123537535e-05, ,0.2039264842767724,-0.2304540716997336,0.09601749659000001,1.8077370027800843,0.7736358616719238,-1.2225289643073707, ,0.013861662512192634,0.004428006302104549,0.008093908292682929,-0.0020916206040681885,0.011972108967867504,-0.009642106677195311, ,0.7878179550170898
0.011042319900668575,0.02132448528392611,-0.08386531355737196, ,0.011303585822406297,0.021233238879098653,-0.08420295364030334, ,0.0004365622680183211, ,0.0026559935256906466,0.0014828520491034674,-0.007072251608407339,0.0045191412661392365,-0.006515916147156196,-0.0003079121094250849, ,0.007698694345190046, ,0.007929677378533218, ,4.2703433822441946e-05, ,0.20406549346850844,-0.2304231807682367,0.09609527399000001,1.8077370027800843,0.7739091346714547,-1.2227518001147635, ,0.01455251365718,0.0027776813688773633,0.007570727908745247,-0.0020316727831144778,0.00901143664887359,-0.007228658917919814, ,0.7991180419921875
0.011068741925563026,0.02133899803222328,-0.08393716200065285, ,0.011341119502038777,0.021245276051294018,-0.08430186937635208, ,0.00046474167422937926, ,0.0026914049723841633,0.0014612414111236191,-0.007478037076396553,0.0128691274025414,0.004005404926471029,-0.0028857255625805932, ,0.008080836943220563, ,0.013478044566731589, ,4.343800839880794e-05, ,0.20421994812599292,-0.23038456710386557,0.09617305139000001,1.8077370027800843,0.7741824076709856,-1.2229746359221563, ,0.014816072062212455,0.004274805937161182,0.00802863483870968,-0.0019737134673549627,0.02042965721263986,-0.01654026937563726, ,0.8108780384063721
0.011125827868064372,0.02136905718594283,-0.08409245212332826, ,0.011378965772366979,0.021256860413808424,-0.08440056335010254, ,0.00041424563043736213, ,0.0026459098838669697,0.001436139994674736,-0.007929165210353242,0.029491857337286386,0.02421935812147591,-0.007433231656057305, ,0.008481450237484475, ,0.03816211374749028, ,4.400589193899043e-05, ,0.20452885744096191,-0.23029189430937488,0.09633897651000001,1.8077370027800843,0.7744556806705164,-1.2230341142492682, ,0.015402847193389187,0.003183558584497863,0.007384706314325453,-0.0018688480393023023,0.025199099172816222,-0.020548175704831296, ,0.8228659629821777
0.011125827868064372,0.02136905718594283,-0.08409245212332826, ,0.011417121962948522,0.021267996169865938,-0.08449903724178105, ,0.0005102715328451507, ,0.002577680327282857,0.001405943609719994,-0.006809160273613689,0.018150663710107956,0.007942381380513642,-0.0037583409568811644, ,0.007415239506255505, ,0.01981231941175566, ,4.495816534380294e-05, ,0.20452885744096191,-0.23029189430937488,0.09633897651000001,1.8077370027800843,0.7744556806705164,-1.2230341142492682, ,0.015402847193389187,0.003183558584497863,0.007384706314325453,-0.0018688480393023023,0.025199099172816222,-0.020548175704831296, ,0.831758975982666
0.011155315859185461,0.02138318334402903,-0.08416699571487596, ,0.011455585413580518,0.021278687507806336,-0.0845972927232802, ,0.0005350109349593982, ,0.002983887352639861,0.0014237731095745334,-0.008077452946516281,0.00932353705216739,0.00048355806784886756,-0.00313172598716252, ,0.008727884033600366, ,0.009336066472710553, ,4.595866752291332e-05, ,0.20469103483132062,-0.23024555791212953,0.09641805020000001,1.8077370027800843,0.7744556806705164,-1.2230341142492682, ,0.016523932014360226,0.006307496703912901,0.008624153502977802,-0.0018201133919893895,0.018469289593793355,-0.015060467245832283, ,0.8404819965362549
0.011186502122687864,0.02139883390260592,-0.08425808074397904, ,0.011494353474284017,0.021288938601106543,-0.08469533145817455, ,0.0005459282178415942, ,0.003537695001097349,0.0017274195149827559,-0.010033967550665072,-0.0002606354496157567,-0.0096665440026265,-0.0019558233888744394, ,0.010778671945528914, ,0.009670051813840298, ,4.696728464756496e-05, ,0.20485321222167935,-0.2301683305833873,0.09651527195000001,1.8077370027800843,0.7747289536700473,-1.22309359257638, ,0.017460338833205295,0.008022280878262246,0.010598011656686628,-0.001775155319091262,0.008693100947399543,-0.00767108235772739, ,0.8501498699188232
0.01121324317686153,0.021414293927490446,-0.08434409379684527, ,0.011533423505288437,0.021298753608401267,-0.0847931551017358, ,0.0005634900740889559, ,0.003223237417353169,0.002115604871288713,-0.010493402419309508,0.06575779869359374,0.06014409283234438,-0.017691115675757974, ,0.011179290574701808, ,0.08911453228528536, ,4.8002053064916744e-05, ,0.2049999441462896,-0.2301142714532677,0.09660860483000001,1.8075273128366,0.7752754996691091,-1.2235392641911655, ,0.018196920720703887,0.006100905428917484,0.01153425888486604,-2.4600788412831506e-05,0.08302504887517571,-0.06828184655834454, ,0.8602879047393799
0.011255283475831945,0.02143843611498723,-0.08447075158873303, ,0.011572792877015903,0.02130813667350386,-0.08489076530094825, ,0.0005424036160829672, ,0.0034268360676983486,0.0016810428300921604,-0.010001048276780325,0.02388858853396717,0.017134567069451535,-0.00943763989517411, ,0.010704675476910695, ,0.029398264417313753, ,4.8956808933645075e-05, ,0.2052239033996421,-0.23003704412452547,0.09674212270000002,1.8075273128366,0.7759586821679364,-1.2240963537096476, ,0.018334030440199146,0.00846644089969815,0.010697657165883145,-2.4600788412831506e-05,0.03883984527418847,-0.03224378367335409, ,0.8697659969329834
0.011292630850977222,0.02145472431544516,-0.0845737763276735, ,0.011612458970065577,0.021317091925427568,-0.0849881636945234, ,0.0005412481781459807, ,0.003983453653925923,0.0015853967972937367,-0.010762229925309844,-0.012018693262336065,-0.020040492156580696,-0.0018251255810468182, ,0.011584773583591513, ,0.023368144325783925, ,4.988786268677554e-05, ,0.20542469445437195,-0.22992892586428632,0.09685489993000002,1.8075273128366,0.7760953186677017,-1.2242894503534847, ,0.020028902819432415,0.011556930280957648,0.011273044246284503,-6.303835391043273e-05,0.0,0.0008379862835422699, ,0.8785698413848877
0.011335406639599154,0.02147196142806082,-0.08469095033204876, ,0.011652419175198351,0.021325623478406185,-0.08508535191291593, ,0.0005267488492884174, ,0.004232862841232832,0.0018262069532368412,-0.011666549444944285,-0.010752782915855914,-0.019662736860578345,-0.001951184211352464, ,0.012544342773540192, ,0.02241083097868805, ,5.076038908288572e-05, ,0.20562548550910179,-0.22980536213829875,0.09697675119000002,1.8075273128366,0.7759586821679364,-1.2241780324497884, ,0.020760652277066454,0.011289514667241379,0.012243513850883937,-0.00011491628934444709,0.0011880169167770205,-0.00012429842344968797, ,0.887645959854126
0.011335406639599154,0.02147196142806082,-0.08469095033204876, ,0.011692670893320944,0.021333735431914778,-0.0851823315783384, ,0.0006230567407573033, ,0.004232862841232832,0.0018262069532368412,-0.011666549444944285,-0.010752782915855914,-0.019662736860578345,-0.001951184211352464, ,0.012544342773540192, ,0.02241083097868805, ,5.1868608566858696e-05, ,0.20584944476245431,-0.2296972438780596,0.09709989874000001,1.8075273128366,0.7759586821679364,-1.2240963537096476, ,0.023276169133792195,0.011479005873771717,0.01287696970088925,-0.00015758922817560544,0.0022765961309911343,-0.0008716857393304721, ,0.8990788459777832
0.011379358600061309,0.021490786341125116,-0.08480806284243146, ,0.01173321153547038,0.021341431870691235,-0.0852791043047768, ,0.0006077818004717087, ,0.00457007579532569,0.0019513737130299985,-0.012239235820992607,-0.010128011036726515,-0.021160150107524,-0.0020845717762486204, ,0.013209555088071466, ,0.02345907682514634, ,5.3052315307097265e-05, ,0.20584944476245431,-0.2296972438780596,0.09709989874000001,1.8075273128366,0.7759586821679364,-1.2240963537096476, ,0.023276169133792195,0.011479005873771717,0.01287696970088925,-0.00015758922817560544,0.0022765961309911343,-0.0008716857393304721, ,0.9059288501739502
0.011447268016692783,0.021519010375443612,-0.08499825836370072, ,0.011774038522798461,0.021348716864756503,-0.08537567169800565, ,0.0005274653243141892, ,0.004242792378986517,0.001452668361784999,-0.011123065638230718,0.01632365273781171,0.004908680542747486,-0.01145892545029915, ,0.011993086413968096, ,0.017045721255246008, ,5.400896044578011e-05, ,0.20621241320754286,-0.22948873009045553,0.09730211998,1.8075273128366,0.7765052281669981,-1.224460346584293, ,0.024208403458793566,0.014415455196486524,0.011807866212008898,-0.0002139776465060434,0.030921187868357777,-0.029986907038362806, ,0.9127938747406006
0.011488826216056245,0.021531675939396627,-0.08510715033067018, ,0.011815149286556213,0.021355594469435885,-0.08547203535560316, ,0.0005202235210218832, ,0.004240940062680948,0.0011844949165530142,-0.011058584685502176,0.0229701405699713,0.014505845666000265,-0.01420839920539217, ,0.011902978453690297, ,0.02716701586307267, ,5.493214766146192e-05, ,0.20645181792664383,-0.22933427543297105,0.09740971205000001,1.8075273128366,0.7769151376662944,-1.224794600295382, ,0.025178281124561098,0.017213303384449624,0.011790386025166546,-0.00024151590944194334,0.0516394373487076,-0.04687595490074861, ,0.9193868637084961
0.011488826216056245,0.021531675939396627,-0.08510715033067018, ,0.01185654126807803,0.021362068725379907,-0.08556819686696687, ,0.0006136325245300129, ,0.004240940062680948,0.0011844949165530142,-0.011058584685502176,0.0229701405699713,0.014505845666000265,-0.01420839920539217, ,0.011902978453690297, ,0.02716701586307267, ,5.6080066028586283e-05, ,0.20645181792664383,-0.22933427543297105,0.09740971205000001,1.8075273128366,0.7769151376662944,-1.224794600295382, ,0.025178281124561098,0.017213303384449624,0.011790386025166546,-0.00024151590944194334,0.0516394373487076,-0.04687595490074861, ,0.9265449047088623
0.011534578817596033,0.021541936392919007,-0.08521993039536174, ,0.011898211918766447,0.02136814365858502,-0.08566415781332791, ,0.0005998090910006157, ,0.00455034636105496,0.0010766780052920133,-0.011280267434852248,0.003105668387963299,-0.006699026517634405,-0.01011897530089165, ,0.012211032754621282, ,0.007383898007117138, ,5.717541854867476e-05, ,0.2067298363101159,-0.22913348437824121,0.09753674847,1.8075273128366,0.7771884106658253,-1.2250991148429156, ,0.026477941283055466,0.018821289480061638,0.011851794285714288,-0.00026917271049732805,0.021037061407542537,-0.02142836295435407, ,0.9338998794555664
0.011582608420819707,0.021552136593527657,-0.08533509242635269, ,0.011940158700076184,0.021373823280414938,-0.08575991976776762, ,0.0005831947443550003, ,0.0052194052407023486,0.0013667786517268692,-0.012488117826481114,-0.011102697822216226,-0.025781073361290912,-0.006466238325072965, ,0.013603799535334343, ,0.028070150317795473, ,5.821236688295429e-05, ,0.2070155774264622,-0.22894813878925982,0.09765730344000001,1.8073176228931154,0.7773250471655907,-1.2252105327466118, ,0.02992650317201854,0.018607243442837408,0.013077841970443352,-0.0005336255540292193,0.004534728165095135,-0.007720513658530265, ,0.9420218467712402
0.011582608420819707,0.021552136593527657,-0.08533509242635269, ,0.011982379083498803,0.021379111587621066,-0.08585548429523178, ,0.0006786471340861394, ,0.0052194052407023486,0.0013667786517268692,-0.012488117826481114,-0.011102697822216226,-0.025781073361290912,-0.006466238325072965, ,0.013603799535334343, ,0.028070150317795473, ,5.947239196654748e-05, ,0.20729359580993428,-0.22877051593315265,0.09778563615000001,1.807107932949631,0.777734956664887,-1.2255447864577012, ,0.030780714096163075,0.019948905099531383,0.014735255800185015,-0.0017043301548441273,0.028858948301861604,-0.02725531736450428, ,0.949207067489624
0.011629516303052033,0.021564728827366538,-0.0854561799392725, ,0.012024870550546919,0.021384012562363733,-0.08595085295254618, ,0.000658532261556007, ,0.005453670564008917,0.0016162819662164732,-0.013962063208841928,0.007960128497142166,-0.003932337873816682,-0.010214477483161264, ,0.015076276034311368, ,0.008878423073293026, ,6.0663744536414385e-05, ,0.20729359580993428,-0.22877051593315265,0.09778563615000001,1.807107932949631,0.777734956664887,-1.2255447864577012, ,0.030780714096163075,0.019948905099531383,0.014735255800185015,-0.0017043301548441273,0.028858948301861604,-0.02725531736450428, ,0.9565770626068115
0.01168868360655107,0.021580551666699234,-0.08561024066362821, ,0.012067630592738798,0.021388530172233026,-0.08604602728843139, ,0.0006085910408765, ,0.005266342461921456,0.0013296179362288947,-0.013456253447003665,0.03173367600786673,0.023639403770332336,-0.015647137452329967, ,0.014511133781086044, ,0.039570786729657074, ,6.18668644174111e-05, ,0.20764111878927438,-0.22853883394692592,0.09794896869000001,1.8068982430061464,0.7782815026639488,-1.225990458072487, ,0.032005713847713585,0.022099893236718855,0.014337364104410442,-0.0026062041535257438,0.05955940650218992,-0.05198735652860546, ,0.9616219997406006
0.01168868360655107,0.021580551666699234,-0.08561024066362821, ,0.012110656711582544,0.02139266837026974,-0.08614100884351918, ,0.0007036165825447009, ,0.005266342461921456,0.0013296179362288947,-0.013456253447003665,0.03173367600786673,0.023639403770332336,-0.015647137452329967, ,0.014511133781086044, ,0.039570786729657074, ,6.329163801374987e-05, ,0.20764111878927438,-0.22853883394692592,0.09794896869000001,1.8068982430061464,0.7782815026639488,-1.225990458072487, ,0.032005713847713585,0.022099893236718855,0.014337364104410442,-0.0026062041535257438,0.05955940650218992,-0.05198735652860546, ,0.9660649299621582
0.011745112652936894,0.02159300354457818,-0.08575154559774953, ,0.012153946418560706,0.02139643109498613,-0.08623579915036642, ,0.0006635414674870297, ,0.005819483978130282,0.0012161564384404867,-0.014490088288205291,0.0015999638931479324,-0.006813886862556699,-0.010107937736313044, ,0.01566231428794798, ,0.00699916422506572, ,6.460449422758734e-05, ,0.20797319630286604,-0.22829170649495073,0.09809804204000001,1.8068982430061464,0.7786914121632451,-1.2262430330434355, ,0.033449750284973837,0.025585586831617897,0.015199247633587787,-0.0026062041535257438,0.028838902876509493,-0.026467955863074974, ,0.9705550670623779
0.011745112652936894,0.02159300354457818,-0.08575154559774953, ,0.01219749723511447,0.02139982227038708,-0.08633039973347087, ,0.0007596334150968986, ,0.005819483978130282,0.0012161564384404867,-0.014490088288205291,0.0015999638931479324,-0.006813886862556699,-0.010107937736313044, ,0.01566231428794798, ,0.00699916422506572, ,6.613837361114385e-05, ,0.20797319630286604,-0.22829170649495073,0.09809804204000001,1.8068982430061464,0.7786914121632451,-1.2262430330434355, ,0.033449750284973837,0.025585586831617897,0.015199247633587787,-0.0026062041535257438,0.028838902876509493,-0.026467955863074974, ,0.9749488830566406
0.011745112652936894,0.02159300354457818,-0.08575154559774953, ,0.012241306692628245,0.02140284580599071,-0.086424812109287, ,0.0008577040784138541, ,0.00684159177527703,0.001638563096838574,-0.017246684705899566,0.00931415780007752,0.001219494747343992,-0.012122712828268753, ,0.018626336204057136, ,0.00939357104919923, ,6.789485625325418e-05, ,0.2083129965493319,-0.22804457904297554,0.09825100426000001,1.8068982430061464,0.7791013216625415,-1.2264956080143845, ,0.03937632429812066,0.028420767163363513,0.01818357479452055,-0.0026062041535257438,0.04361044610880179,-0.03588469971788004, ,0.9796779155731201
0.011803086781014868,0.021606262358032247,-0.08589644758635248, ,0.012285372332413929,0.021405505596849582,-0.08651903778624002, ,0.0008127245457378908, ,0.00684159177527703,0.001638563096838574,-0.017246684705899566,0.00931415780007752,0.001219494747343992,-0.012122712828268753, ,0.018626336204057136, ,0.00939357104919923, ,6.952602452610087e-05, ,0.2083129965493319,-0.22804457904297554,0.09825100426000001,1.8068982430061464,0.7791013216625415,-1.2264956080143845, ,0.03937632429812066,0.028420767163363513,0.01818357479452055,-0.0026062041535257438,0.04361044610880179,-0.03588469971788004, ,0.984389066696167
0.011880089457117292,0.02162912142929066,-0.08609883062817238, ,0.012329691705695379,0.021407805523571483,-0.08661307826474184, ,0.0007180345004023457, ,0.007288611204926702,0.002459478424888484,-0.01936808960753549,0.05977335417026189,0.050240970670825925,-0.02250358093566211, ,0.020839764453193785, ,0.07808332906124892, ,7.091447165164079e-05, ,0.20876863778891117,-0.2277433924608808,0.09846748469000001,1.8068982430061464,0.7800577771608995,-1.2272755333402592, ,0.043213543514786325,0.025710360758187695,0.020821975843137257,-0.0026062041535257438,0.09956459081611056,-0.08135979832851471, ,0.9901890754699707
0.011880089457117292,0.02162912142929066,-0.08609883062817238, ,0.01237426237359279,0.021409749452340383,-0.08670693503720664, ,0.0008137087365488241, ,0.007288611204926702,0.002459478424888484,-0.01936808960753549,0.05977335417026189,0.050240970670825925,-0.02250358093566211, ,0.020839764453193785, ,0.07808332906124892, ,7.251800337776381e-05, ,0.20876863778891117,-0.2277433924608808,0.09846748469000001,1.8068982430061464,0.7800577771608995,-1.2272755333402592, ,0.043213543514786325,0.025710360758187695,0.020821975843137257,-0.0026062041535257438,0.09956459081611056,-0.08135979832851471, ,0.9946770668029785
0.011960706966408075,0.021653755406280898,-0.08630729010511831, ,0.012419081907107114,0.021411341234937112,-0.08680060958806544, ,0.0007157068736461654, ,0.008014881304284311,0.002154824570028508,-0.01992273266203989,0.01680318264334206,0.008848835367441733,-0.008094790932498831, ,0.02158232767734926, ,0.018990673912310015, ,7.387351612572258e-05, ,0.20923200176136464,-0.22746537407740872,0.09868915028000001,1.8066885530626617,0.7807409596597268,-1.2278326228587413, ,0.047118640297155304,0.02962751843848604,0.02115380015936255,-0.006988034233403179,0.0608869789403485,-0.043654225343571246, ,0.9996988773345947
0.011960706966408075,0.021653755406280898,-0.08630729010511831, ,0.012464147887104395,0.021412584708760788,-0.08689410339378119, ,0.0008099172190571306, ,0.008014881304284311,0.002154824570028508,-0.01992273266203989,0.01680318264334206,0.008848835367441733,-0.008094790932498831, ,0.02158232767734926, ,0.018990673912310015, ,7.54389302789275e-05, ,0.20923200176136464,-0.22746537407740872,0.09868915028000001,1.8066885530626617,0.7807409596597268,-1.2278326228587413, ,0.047118640297155304,0.02962751843848604,0.02115380015936255,-0.006988034233403179,0.0608869789403485,-0.043654225343571246, ,1.0047249794006348
0.012042957101125046,0.021671988130616673,-0.08651658240970388, ,0.012509457904300232,0.02141348369684917,-0.08698741792286527, ,0.000711430686781574, ,0.008540508346098876,0.0019326723493797507,-0.021542876016480896,-0.002772593779980332,-0.006567422447485579,0.002547313810600743, ,0.02325448370274665, ,0.007128371052907861, ,7.675787810533627e-05, ,0.20970308846669233,-0.22713329656381706,0.09890951958000001,1.8062691731756926,0.7812875056587885,-1.228114936993246, ,0.04812218131768295,0.0352776734418107,0.02265833786628734,-0.016022923941096074,0.04776352243968473,-0.03179636202383632, ,1.0098729133605957
0.012042957101125046,0.021671988130616673,-0.08651658240970388, ,0.012555009559244214,0.02141404200789984,-0.08708055463589087, ,0.0008042378963968592, ,0.008540508346098876,0.0019326723493797507,-0.021542876016480896,-0.002772593779980332,-0.006567422447485579,0.002547313810600743, ,0.02325448370274665, ,0.007128371052907861, ,7.82818175437114e-05, ,0.20970308846669233,-0.22713329656381706,0.09890951958000001,1.8062691731756926,0.7812875056587885,-1.228114936993246, ,0.04812218131768295,0.0352776734418107,0.02265833786628734,-0.016022923941096074,0.04776352243968473,-0.03179636202383632, ,1.0145299434661865
0.012042957101125046,0.021671988130616673,-0.08651658240970388, ,0.01260080046230411,0.021414263436291145,-0.08717351498550982, ,0.0008995396838560127, ,0.008540508346098876,0.0019326723493797507,-0.021542876016480896,-0.002772593779980332,-0.006567422447485579,0.002547313810600743, ,0.02325448370274665, ,0.007128371052907861, ,8.02006443341607e-05, ,0.20970308846669233,-0.22713329656381706,0.09890951958000001,1.8062691731756926,0.7812875056587885,-1.228114936993246, ,0.04812218131768295,0.0352776734418107,0.02265833786628734,-0.016022923941096074,0.04776352243968473,-0.03179636202383632, ,1.0168190002441406
0.012042957101125046,0.021671988130616673,-0.08651658240970388, ,0.012646828233650598,0.021414151762103078,-0.08726630041646723, ,0.0009966027429679201, ,0.008540508346098876,0.0019326723493797507,-0.021542876016480896,-0.002772593779980332,-0.006567422447485579,0.002547313810600743, ,0.02325448370274665, ,0.007128371052907861, ,8.233677976221143e-05, ,0.20970308846669233,-0.22713329656381706,0.09890951958000001,1.8062691731756926,0.7812875056587885,-1.228114936993246, ,0.04812218131768295,0.0352776734418107,0.02265833786628734,-0.016022923941096074,0.04776352243968473,-0.03179636202383632, ,1.0192689895629883
0.012121122093360475,0.021688524456827545,-0.08671068297698428, ,0.012693090503241364,0.021413710751138182,-0.0873589123656164, ,0.0009071228004094898, ,0.008451954091717877,0.0016882228417069369,-0.020323112019929344,9.837918046823685e-05,0.003590022985754404,0.005853425048060881, ,0.02207520116570547, ,0.0035908879853932484, ,8.425488678697255e-05, ,0.21015872970627159,-0.22680894178309963,0.0991143334,1.8060594832322083,0.7818340516578502,-1.228478929867891, ,0.05077417953904269,0.03493996375495979,0.02149637182186235,-0.01578406476778186,0.06121152349394069,-0.03186451887493061, ,1.0219199657440186
0.012121122093360475,0.021688524456827545,-0.08671068297698428, ,0.012739584910805657,0.021412944154942316,-0.08745135226193444, ,0.0010035097154576867, ,0.008451954091717877,0.0016882228417069369,-0.020323112019929344,9.837918046823685e-05,0.003590022985754404,0.005853425048060881, ,0.02207520116570547, ,0.0035908879853932484, ,0.00047130520296020104, ,0.21015872970627159,-0.22680894178309963,0.0991143334,1.8060594832322083,0.7818340516578502,-1.228478929867891, ,0.05077417953904269,0.03493996375495979,0.02149637182186235,-0.01578406476778186,0.06121152349394069,-0.03186451887493061, ,1.0244338512420654
0.012121122093360475,0.021688524456827545,-0.08671068297698428, ,0.012786309105828677,0.021411855710825878,-0.08754362152653783, ,0.0011012747086457913, ,0.008451954091717877,0.0016882228417069369,-0.020323112019929344,9.837918046823685e-05,0.003590022985754404,0.005853425048060881, ,0.02207520116570547, ,0.0035908879853932484, ,0.00047917982178127095, ,0.21015872970627159,-0.22680894178309963,0.0991143334,1.8060594832322083,0.7818340516578502,-1.228478929867891, ,0.05077417953904269,0.03493996375495979,0.02149637182186235,-0.01578406476778186,0.06121152349394069,-0.03186451887493061, ,1.0275299549102783
0.012121122093360475,0.021688524456827545,-0.08671068297698428, ,0.012833260747535916,0.021410449141884422,-0.0876357215726966, ,0.0012000682260225614, ,0.008451954091717877,0.0016882228417069369,-0.020323112019929344,9.837918046823685e-05,0.003590022985754404,0.005853425048060881, ,0.02207520116570547, ,0.0035908879853932484, ,0.000488079678623756, ,0.21015872970627159,-0.22680894178309963,0.0991143334,1.8060594832322083,0.7818340516578502,-1.228478929867891, ,0.05077417953904269,0.03493996375495979,0.02149637182186235,-0.01578406476778186,0.06121152349394069,-0.03186451887493061, ,1.0299890041351318
0.012222023069486495,0.021706842223298998,-0.08694749019415238, ,0.012880437504877575,0.02140872815701972,-0.08772765380585082, ,0.0010635021515085334, ,0.009276291491633025,0.001468116198699691,-0.02217846855401689,0.06480197085242141,0.05101733581406749,-0.022430562121300603, ,0.024085045493254603, ,0.08247459374762411, ,0.0004950970258540582, ,0.2107997165348322,-0.22636874600926882,0.09936710995,1.8060594832322083,0.7829271436559737,-1.229125236877041, ,0.05949651508368074,0.042920371577779635,0.023703588571428576,-0.01578406476778186,0.12066232153412,-0.10657932273167595, ,1.0331909656524658
0.012222023069486495,0.021706842223298998,-0.08694749019415238, ,0.012927837056513009,0.02140669645096056,-0.08781941962362483, ,0.00116125871317078, ,0.009276291491633025,0.001468116198699691,-0.02217846855401689,0.06480197085242141,0.05101733581406749,-0.022430562121300603, ,0.024085045493254603, ,0.08247459374762411, ,0.0005031230702795609, ,0.2107997165348322,-0.22636874600926882,0.09936710995,1.8060594832322083,0.7829271436559737,-1.229125236877041, ,0.05949651508368074,0.042920371577779635,0.023703588571428576,-0.01578406476778186,0.12066232153412,-0.10657932273167595, ,1.0354158878326416
0.012222023069486495,0.021706842223298998,-0.08694749019415238, ,0.012975457090795074,0.021404357704283963,-0.08791102041584327, ,0.0012599802366786046, ,0.009276291491633025,0.001468116198699691,-0.02217846855401689,0.06480197085242141,0.05101733581406749,-0.022430562121300603, ,0.024085045493254603, ,0.08247459374762411, ,0.0005121332746414542, ,0.2107997165348322,-0.22636874600926882,0.09936710995,1.8060594832322083,0.7829271436559737,-1.229125236877041, ,0.05949651508368074,0.042920371577779635,0.023703588571428576,-0.01578406476778186,0.12066232153412,-0.10657932273167595, ,1.037665843963623
0.012222023069486495,0.021706842223298998,-0.08694749019415238, ,0.013023295305754561,0.0214017155834355,-0.08800245756454539, ,0.0013594468049770699, ,0.009276291491633025,0.001468116198699691,-0.02217846855401689,0.06480197085242141,0.05101733581406749,-0.022430562121300603, ,0.024085045493254603, ,0.08247459374762411, ,0.0005221016691159909, ,0.2107997165348322,-0.22636874600926882,0.09936710995,1.8060594832322083,0.7829271436559737,-1.229125236877041, ,0.05949651508368074,0.042920371577779635,0.023703588571428576,-0.01578406476778186,0.12066232153412,-0.10657932273167595, ,1.039902925491333
0.012324182370223955,0.021724735457733343,-0.08719909284522528, ,0.013071349409084537,0.021398773740751026,-0.08809373244400165, ,0.0012103262521305914, ,0.011399250677032633,0.0022386429035332446,-0.028415065152847658,0.0795747521173647,0.06990962847932639,-0.017800750122925427, ,0.03069805149660066, ,0.10592204116374722, ,0.0005301042805463932, ,0.21144842609626707,-0.22589765930394112,0.09963673827000001,1.8058497932887239,0.7844301451533936,-1.2302691550775608, ,0.07045058764548684,0.050263210571223925,0.030398495267175574,-0.02597742233521383,0.15455915373143503,-0.12833011339917075, ,1.0421059131622314
0.012324182370223955,0.021724735457733343,-0.08719909284522528, ,0.013119617118124857,0.021395535814476837,-0.08818484642072744, ,0.0013087394526427555, ,0.011399250677032633,0.0022386429035332446,-0.028415065152847658,0.0795747521173647,0.06990962847932639,-0.017800750122925427, ,0.03069805149660066, ,0.10592204116374722, ,0.0005390541101107191, ,0.21144842609626707,-0.22589765930394112,0.09963673827000001,1.8058497932887239,0.7844301451533936,-1.2302691550775608, ,0.07045058764548684,0.050263210571223925,0.030398495267175574,-0.02597742233521383,0.15455915373143503,-0.12833011339917075, ,1.0443899631500244
0.012324182370223955,0.021724735457733343,-0.08719909284522528, ,0.013168096159846404,0.021392005428790897,-0.08827580085349934, ,0.0014079062083663285, ,0.011399250677032633,0.0022386429035332446,-0.028415065152847658,0.0795747521173647,0.06990962847932639,-0.017800750122925427, ,0.03069805149660066, ,0.10592204116374722, ,0.0005489274294090784, ,0.21144842609626707,-0.22589765930394112,0.09963673827000001,1.8058497932887239,0.7844301451533936,-1.2302691550775608, ,0.07045058764548684,0.050263210571223925,0.030398495267175574,-0.02597742233521383,0.15455915373143503,-0.12833011339917075, ,1.0468080043792725
0.012324182370223955,0.021724735457733343,-0.08719909284522528, ,0.013216784270835561,0.021388186193823853,-0.08836659709337004, ,0.0015076702986560155, ,0.011399250677032633,0.0022386429035332446,-0.028415065152847658,0.0795747521173647,0.06990962847932639,-0.017800750122925427, ,0.03069805149660066, ,0.10592204116374722, ,0.0005596998211983698, ,0.21144842609626707,-0.22589765930394112,0.09963673827000001,1.8058497932887239,0.7844301451533936,-1.2302691550775608, ,0.07045058764548684,0.050263210571223925,0.030398495267175574,-0.02597742233521383,0.15455915373143503,-0.12833011339917075, ,1.049088954925537
0.012454649014717444,0.021752913447983493,-0.08752925768408797, ,0.013265679197278737,0.021384081705679698,-0.0884572364836834, ,0.001286449168702296, ,0.014169995430558479,0.0038515985242821133,-0.03658671542772974,0.07896799285190248,0.07100187263806976,-0.011834904300549502, ,0.03942348700310486, ,0.10619389933732784, ,0.0005677748139484134, ,0.21223614484943798,-0.22536479073561963,0.09998932915000001,1.80522072345827,0.7860697831505788,-1.2316878486620584, ,0.08216185416317816,0.053463065666744095,0.039137129041769046,-0.029851569595748955,0.16884774163043953,-0.12941186553372688, ,1.051321029663086
0.012454649014717444,0.021752913447983493,-0.08752925768408797, ,0.013314778694946568,0.02137969554645704,-0.08854772036009018, ,0.0013843340966834732, ,0.014169995430558479,0.0038515985242821133,-0.03658671542772974,0.07896799285190248,0.07100187263806976,-0.011834904300549502, ,0.03942348700310486, ,0.10619389933732784, ,0.0005767479928795679, ,0.21223614484943798,-0.22536479073561963,0.09998932915000001,1.80522072345827,0.7860697831505788,-1.2316878486620584, ,0.08216185416317816,0.053463065666744095,0.039137129041769046,-0.029851569595748955,0.16884774163043953,-0.12941186553372688, ,1.0535690784454346
0.012454649014717444,0.021752913447983493,-0.08752925768408797, ,0.013364080529178316,0.021375031284269447,-0.0886380500505626, ,0.0014829973435917662, ,0.014169995430558479,0.0038515985242821133,-0.03658671542772974,0.07896799285190248,0.07100187263806976,-0.011834904300549502, ,0.03942348700310486, ,0.10619389933732784, ,0.0005865985293003527, ,0.21223614484943798,-0.22536479073561963,0.09998932915000001,1.80522072345827,0.7860697831505788,-1.2316878486620584, ,0.08216185416317816,0.053463065666744095,0.039137129041769046,-0.029851569595748955,0.16884774163043953,-0.12941186553372688, ,1.0558059215545654
0.012454649014717444,0.021752913447983493,-0.08752925768408797, ,0.013413582474866494,0.021370092473267037,-0.0887282268754104, ,0.0015822870793306338, ,0.014169995430558479,0.0038515985242821133,-0.03658671542772974,0.07896799285190248,0.07100187263806976,-0.011834904300549502, ,0.03942348700310486, ,0.10619389933732784, ,0.000597304857795302, ,0.21223614484943798,-0.22536479073561963,0.09998932915000001,1.80522072345827,0.7860697831505788,-1.2316878486620584, ,0.08216185416317816,0.053463065666744095,0.039137129041769046,-0.029851569595748955,0.16884774163043953,-0.12941186553372688, ,1.0580370426177979
0.012454649014717444,0.021752913447983493,-0.08752925768408797, ,0.013463282316441033,0.021364882653656724,-0.08881825214729505, ,0.00168208672810596, ,0.014169995430558479,0.0038515985242821133,-0.03658671542772974,0.07896799285190248,0.07100187263806976,-0.011834904300549502, ,0.03942348700310486, ,0.10619389933732784, ,0.0006088450904581813, ,0.21223614484943798,-0.22536479073561963,0.09998932915000001,1.80522072345827,0.7860697831505788,-1.2316878486620584, ,0.08216185416317816,0.053463065666744095,0.039137129041769046,-0.029851569595748955,0.16884774163043953,-0.12941186553372688, ,1.0603480339050293
0.01260441988382085,0.021788692935266387,-0.08792238785468595, ,0.0135131778478538,0.021359405351723804,-0.0889081271712463, ,0.0014077680443844443, ,0.016084631162439984,0.0036765251168846534,-0.04234232623200767,0.06565463690582826,0.06154125797138707,0.03843947262412763, ,0.04544342402707551, ,0.08998734174925324, ,0.0006172548057626683, ,0.2130933681984769,-0.22477014030430437,0.10040803082000001,1.8043819636843321,0.7878460576475296,-1.2330546026699714, ,0.0906370024436206,0.06562720716353443,0.04499664271186441,-0.08827436209213138,0.18138242187370116,-0.13981250269337991, ,1.063730001449585
0.01260441988382085,0.021788692935266387,-0.08792238785468595, ,0.013563266872562896,0.021353664079852216,-0.08899785324467574, ,0.0015050792198181926, ,0.016084631162439984,0.0036765251168846534,-0.04234232623200767,0.06565463690582826,0.06154125797138707,0.03843947262412763, ,0.04544342402707551, ,0.08998734174925324, ,0.0006265029767424133, ,0.2130933681984769,-0.22477014030430437,0.10040803082000001,1.8043819636843321,0.7878460576475296,-1.2330546026699714, ,0.0906370024436206,0.06562720716353443,0.04499664271186441,-0.08827436209213138,0.18138242187370116,-0.13981250269337991, ,1.0687270164489746
0.01260441988382085,0.021788692935266387,-0.08792238785468595, ,0.01361354720351724,0.021347662336545954,-0.08908743165739424, ,0.0016031759100592557, ,0.016084631162439984,0.0036765251168846534,-0.04234232623200767,0.06565463690582826,0.06154125797138707,0.03843947262412763, ,0.04544342402707551, ,0.08998734174925324, ,0.0006365717698693911, ,0.21373435502703753,-0.22429905359897667,0.10072432558000001,1.8041722737408477,0.7888025131458877,-1.2335894917754247, ,0.09854303380941928,0.07178286048295822,0.04726650302670624,-0.04849338543219124,0.13064155590592885,-0.09605122650788225, ,1.0712158679962158
0.012720938095771682,0.021816032686371598,-0.08822109547989462, ,0.013664016663140665,0.021341403606449604,-0.08917686369162477, ,0.0014241358159572308, ,0.017764019503190124,0.0038352751453866,-0.04471935654346335,0.022536165416578477,0.014483590268606884,0.010647923070024011, ,0.048271011735947056, ,0.026785710619108356, ,0.0006446081376866138, ,0.21373435502703753,-0.22429905359897667,0.10072432558000001,1.8041722737408477,0.7888025131458877,-1.2335894917754247, ,0.09854303380941928,0.07178286048295822,0.04726650302670624,-0.04849338543219124,0.13064155590592885,-0.09605122650788225, ,1.074491024017334
0.012720938095771682,0.021816032686371598,-0.08822109547989462, ,0.013714673083316715,0.02133489136036966,-0.08926615062201937, ,0.0015202455233084566, ,0.017764019503190124,0.0038352751453866,-0.04471935654346335,0.022536165416578477,0.014483590268606884,0.010647923070024011, ,0.048271011735947056, ,0.026785710619108356, ,0.0006534529597636021, ,0.21373435502703753,-0.22429905359897667,0.10072432558000001,1.8041722737408477,0.7888025131458877,-1.2335894917754247, ,0.09854303380941928,0.07178286048295822,0.04726650302670624,-0.04849338543219124,0.13064155590592885,-0.09605122650788225, ,1.0767738819122314
0.012720938095771682,0.021816032686371598,-0.08822109547989462, ,0.013765514305372597,0.021328129055294826,-0.08935529371567362, ,0.0016172801392851832, ,0.017764019503190124,0.0038352751453866,-0.04471935654346335,0.022536165416578477,0.014483590268606884,0.010647923070024011, ,0.048271011735947056, ,0.026785710619108356, ,0.0006630912315588179, ,0.21373435502703753,-0.22429905359897667,0.10072432558000001,1.8041722737408477,0.7888025131458877,-1.2335894917754247, ,0.09854303380941928,0.07178286048295822,0.04726650302670624,-0.04849338543219124,0.13064155590592885,-0.09605122650788225, ,1.0790879726409912
0.012959467997855963,0.02186514767346273,-0.0888005723078527, ,0.013816538180063995,0.021321120134417733,-0.08944429423214266, ,0.001202045413568489, ,0.018159262443959635,0.0025499903633674098,-0.041037539622216755,-0.08137479849051524,-0.09004583492587534,0.015518989532822805, ,0.04494820265157306, ,0.12136718596600488, ,0.0006684274115787156, ,0.21503177414990723,-0.2233337119896986,0.10133358188000001,1.8041722737408477,0.7897589686442458,-1.2341243808808777, ,0.10203972210588257,0.07579627920005652,0.042819385806451615,-0.024266510968039334,0.018296708314353077,0.0067513731350631176, ,1.0813889503479004
0.012959467997855963,0.02186514767346273,-0.0888005723078527, ,0.013867742567559177,0.021313868027155153,-0.089533153423455, ,0.0012905607437620596, ,0.018159262443959635,0.0025499903633674098,-0.041037539622216755,-0.08137479849051524,-0.09004583492587534,0.015518989532822805, ,0.04494820265157306, ,0.12136718596600488, ,0.0006745267579726699, ,0.21503177414990723,-0.2233337119896986,0.10133358188000001,1.8041722737408477,0.7897589686442458,-1.2341243808808777, ,0.10203972210588257,0.07579627920005652,0.042819385806451615,-0.024266510968039334,0.018296708314353077,0.0067513731350631176, ,1.0836479663848877
0.012959467997855963,0.02186514767346273,-0.0888005723078527, ,0.013919125337423533,0.021306376149169165,-0.08962187253412891, ,0.0013811958179159919, ,0.018159262443959635,0.0025499903633674098,-0.041037539622216755,-0.08137479849051524,-0.09004583492587534,0.015518989532822805, ,0.04494820265157306, ,0.12136718596600488, ,0.0006813876226323139, ,0.21503177414990723,-0.2233337119896986,0.10133358188000001,1.8041722737408477,0.7897589686442458,-1.2341243808808777, ,0.10203972210588257,0.07579627920005652,0.042819385806451615,-0.024266510968039334,0.018296708314353077,0.0067513731350631176, ,1.0858650207519531
0.012959467997855963,0.02186514767346273,-0.0888005723078527, ,0.013970684368603955,0.021298647902388244,-0.08971045280118801, ,0.0014735545633767042, ,0.018159262443959635,0.0025499903633674098,-0.041037539622216755,-0.08137479849051524,-0.09004583492587534,0.015518989532822805, ,0.04494820265157306, ,0.12136718596600488, ,0.0006890046124471637, ,0.21503177414990723,-0.2233337119896986,0.10133358188000001,1.8041722737408477,0.7897589686442458,-1.2341243808808777, ,0.10203972210588257,0.07579627920005652,0.042819385806451615,-0.024266510968039334,0.018296708314353077,0.0067513731350631176, ,1.0880639553070068
0.013137891310538705,0.021871934731947422,-0.08917247774576685, ,0.014022417549413177,0.02129068667502777,-0.08979889545417499, ,0.0012298923190009765, ,0.017876229774567997,-2.4370677518855755e-05,-0.03560528986474568,0.024546429821111843,0.0037382171429316212,-0.02887537909572972, ,0.03984089420727948, ,0.024828295573924356, ,0.0006941559239381525, ,0.2161515704166698,-0.22247648864065966,0.10172376517000001,1.8037528938538785,0.7905787876428384,-1.2346295308227753, ,0.11891847313091576,0.09124705919083728,0.03765676482269504,-0.021297997870528846,0.13438680067288664,-0.11397027849470898, ,1.090919017791748
0.013137891310538705,0.021871934731947422,-0.08917247774576685, ,0.014074322777514204,0.02128249584161134,-0.08988720171516792, ,0.0013172594468133234, ,0.017876229774567997,-2.4370677518855755e-05,-0.03560528986474568,0.024546429821111843,0.0037382171429316212,-0.02887537909572972, ,0.03984089420727948, ,0.024828295573924356, ,0.0007000342590596163, ,0.2161515704166698,-0.22247648864065966,0.10172376517000001,1.8037528938538785,0.7905787876428384,-1.2346295308227753, ,0.11891847313091576,0.09124705919083728,0.03765676482269504,-0.021297997870528846,0.13438680067288664,-0.11397027849470898, ,1.0934150218963623
0.013137891310538705,0.021871934731947422,-0.08917247774576685, ,0.014126397959904877,0.0212740787629915,-0.0899753727987962, ,0.0014068466944327479, ,0.017876229774567997,-2.4370677518855755e-05,-0.03560528986474568,0.024546429821111843,0.0037382171429316212,-0.02887537909572972, ,0.03984089420727948, ,0.024828295573924356, ,0.0007066399827546923, ,0.2161515704166698,-0.22247648864065966,0.10172376517000001,1.8037528938538785,0.7905787876428384,-1.2346295308227753, ,0.11891847313091576,0.09124705919083728,0.03765676482269504,-0.021297997870528846,0.13438680067288664,-0.11397027849470898, ,1.095689058303833
0.013137891310538705,0.021871934731947422,-0.08917247774576685, ,0.014178641012901854,0.021265438786370605,-0.09006340991225327, ,0.0014982514476049355, ,0.017876229774567997,-2.4370677518855755e-05,-0.03560528986474568,0.024546429821111843,0.0037382171429316212,-0.02887537909572972, ,0.03984089420727948, ,0.024828295573924356, ,0.0007139697185403427, ,0.2161515704166698,-0.22247648864065966,0.10172376517000001,1.8037528938538785,0.7905787876428384,-1.2346295308227753, ,0.11891847313091576,0.09124705919083728,0.03765676482269504,-0.021297997870528846,0.13438680067288664,-0.11397027849470898, ,1.0979199409484863
0.013137891310538705,0.021871934731947422,-0.08917247774576685, ,0.014231049862125497,0.021256579245321643,-0.09015131425531513, ,0.0015911564681867192, ,0.017876229774567997,-2.4370677518855755e-05,-0.03560528986474568,0.024546429821111843,0.0037382171429316212,-0.02887537909572972, ,0.03984089420727948, ,0.024828295573924356, ,0.0007220173033994838, ,0.2161515704166698,-0.22247648864065966,0.10172376517000001,1.8037528938538785,0.7905787876428384,-1.2346295308227753, ,0.11891847313091576,0.09124705919083728,0.03765676482269504,-0.021297997870528846,0.13438680067288664,-0.11397027849470898, ,1.100255012512207
0.013320762677733345,0.021857889885254153,-0.08952190963304305, ,0.014283622442483965,0.02124750345980966,-0.09023908702035298, ,0.0013468533401269896, ,0.018071233326006013,-0.002320305109088631,-0.03309860853221558,0.029018610256203708,-0.009448200241094233,0.07957947585171946, ,0.037781889530449204, ,0.030517347613935517, ,0.0007276976310060975, ,0.21743354407379106,-0.2215034242985074,0.10209320782,1.8024947541929712,0.7922184256400236,-1.2358848669269917, ,0.13017413108157858,0.10010225902792276,0.034931604210526324,-0.1557657230170858,0.16334162078566367,-0.15815093232306335, ,1.1028990745544434
0.013320762677733345,0.021857889885254153,-0.08952190963304305, ,0.014336356698157684,0.021238214736211885,-0.09032672939234968, ,0.0014363715917660763, ,0.018071233326006013,-0.002320305109088631,-0.03309860853221558,0.029018610256203708,-0.009448200241094233,0.07957947585171946, ,0.037781889530449204, ,0.030517347613935517, ,0.0007340820811030342, ,0.21743354407379106,-0.2215034242985074,0.10209320782,1.8024947541929712,0.7922184256400236,-1.2358848669269917, ,0.13017413108157858,0.10010225902792276,0.034931604210526324,-0.1557657230170858,0.16334162078566367,-0.15815093232306335, ,1.1052758693695068
0.013320762677733345,0.021857889885254153,-0.08952190963304305, ,0.014389250582583805,0.021228716367339306,-0.09041424254891464, ,0.0015276726583941258, ,0.018071233326006013,-0.002320305109088631,-0.03309860853221558,0.029018610256203708,-0.009448200241094233,0.07957947585171946, ,0.037781889530449204, ,0.030517347613935517, ,0.000741167711257419, ,0.21743354407379106,-0.2215034242985074,0.10209320782,1.8024947541929712,0.7922184256400236,-1.2358848669269917, ,0.13017413108157858,0.10010225902792276,0.034931604210526324,-0.1557657230170858,0.16334162078566367,-0.15815093232306335, ,1.1076579093933105
0.013320762677733345,0.021857889885254153,-0.08952190963304305, ,0.014442302058440475,0.021219011632457218,-0.0905016276602994, ,0.001620451609059919, ,0.018071233326006013,-0.002320305109088631,-0.03309860853221558,0.029018610256203708,-0.009448200241094233,0.07957947585171946, ,0.037781889530449204, ,0.030517347613935517, ,0.0007489489846892995, ,0.21743354407379106,-0.2215034242985074,0.10209320782,1.8024947541929712,0.7922184256400236,-1.2358848669269917, ,0.13017413108157858,0.10010225902792276,0.034931604210526324,-0.1557657230170858,0.16334162078566367,-0.15815093232306335, ,1.1109380722045898
0.01341497576224537,0.021845817999639507,-0.08968270984919356, ,0.014495509097631414,0.021209103797306252,-0.09058888588941222, ,0.001547291918223489, ,0.019086787593939725,-0.003036002839852063,-0.030953938428741033,0.02088470346462431,-0.02285392057581596,0.02511917986737196, ,0.03649204129875516, ,0.030958748479274947, ,0.0007559519928781959, ,0.21812086729959707,-0.22098600119593434,0.10226302181000001,1.8020753743060025,0.7929016081388509,-1.2364419564454738, ,0.1437832447855618,0.10650610724856428,0.03277533234567902,-0.09529118311548945,0.14944846867657297,-0.14357341827021297, ,1.1149919033050537
0.01341497576224537,0.021845817999639507,-0.08968270984919356, ,0.014548869681270067,0.021198996114123323,-0.09067601839183416, ,0.0016403523499744451, ,0.019086787593939725,-0.003036002839852063,-0.030953938428741033,0.02088470346462431,-0.02285392057581596,0.02511917986737196, ,0.03649204129875516, ,0.030958748479274947, ,0.0007636424307659894, ,0.21812086729959707,-0.22098600119593434,0.10226302181000001,1.8020753743060025,0.7929016081388509,-1.2364419564454738, ,0.1437832447855618,0.10650610724856428,0.03277533234567902,-0.09529118311548945,0.14944846867657297,-0.14357341827021297, ,1.1173038482666016
0.01341497576224537,0.021845817999639507,-0.08968270984919356, ,0.014602381799664402,0.021188691821662355,-0.09076302631583381, ,0.0017345983914370798, ,0.019086787593939725,-0.003036002839852063,-0.030953938428741033,0.02088470346462431,-0.02285392057581596,0.02511917986737196, ,0.03649204129875516, ,0.030958748479274947, ,0.0007720127407717747, ,0.21812086729959707,-0.22098600119593434,0.10226302181000001,1.8020753743060025,0.7929016081388509,-1.2364419564454738, ,0.1437832447855618,0.10650610724856428,0.03277533234567902,-0.09529118311548945,0.14944846867657297,-0.14357341827021297, ,1.1195800304412842
0.013712373205155892,0.02179472717161799,-0.09011875711634056, ,0.01465604345230078,0.021178194145215434,-0.09084991080238229, ,0.0013435818622637055, ,0.019212250661689318,-0.004262950079913551,-0.026917040468188685,-0.04287048523001574,-0.08570301753686461,-0.02281960296574555, ,0.033343820813420945, ,0.09582730085400569, ,0.0007768979469383724, ,0.22039135076461905,-0.21932561362797606,0.10272450105000001,1.8018656843625176,0.7945412461360363,-1.2377789712898308, ,0.14667224352159317,0.11257051193175657,0.02819258676106195,-0.026104012575104932,0.07025342400643882,-0.07281438136829775, ,1.1218218803405762
0.013712373205155892,0.02179472717161799,-0.09011875711634056, ,0.014709852647828862,0.02116750629663364,-0.09093667298516937, ,0.001434349201921663, ,0.019212250661689318,-0.004262950079913551,-0.026917040468188685,-0.04287048523001574,-0.08570301753686461,-0.02281960296574555, ,0.033343820813420945, ,0.09582730085400569, ,0.0007824695677433155, ,0.22039135076461905,-0.21932561362797606,0.10272450105000001,1.8018656843625176,0.7945412461360363,-1.2377789712898308, ,0.14667224352159317,0.11257051193175657,0.02819258676106195,-0.026104012575104932,0.07025342400643882,-0.07281438136829775, ,1.1240589618682861
0.013712373205155892,0.02179472717161799,-0.09011875711634056, ,0.014763807404045638,0.021156631474347733,-0.09102331399061747, ,0.001526729554397687, ,0.019212250661689318,-0.004262950079913551,-0.026917040468188685,-0.04287048523001574,-0.08570301753686461,-0.02281960296574555, ,0.033343820813420945, ,0.09582730085400569, ,0.0007887238533454531, ,0.22039135076461905,-0.21932561362797606,0.10272450105000001,1.8018656843625176,0.7945412461360363,-1.2377789712898308, ,0.14667224352159317,0.11257051193175657,0.02819258676106195,-0.026104012575104932,0.07025342400643882,-0.07281438136829775, ,1.1262938976287842
0.013712373205155892,0.02179472717161799,-0.09011875711634056, ,0.014817905747880026,0.021145572863389448,-0.0911098349378983, ,0.0016204440031353793, ,0.019212250661689318,-0.004262950079913551,-0.026917040468188685,-0.04287048523001574,-0.08570301753686461,-0.02281960296574555, ,0.033343820813420945, ,0.09582730085400569, ,0.0007956548545937025, ,0.22039135076461905,-0.21932561362797606,0.10272450105000001,1.8018656843625176,0.7945412461360363,-1.2377789712898308, ,0.14667224352159317,0.11257051193175657,0.02819258676106195,-0.026104012575104932,0.07025342400643882,-0.07281438136829775, ,1.1286098957061768
0.013712373205155892,0.02179472717161799,-0.09011875711634056, ,0.014872145715377271,0.02113433363541201,-0.09119623693894678, ,0.0017152710183091714, ,0.020963433686061305,-0.00472288177777872,-0.03185808648657691,-0.004414275081228741,-0.01891632473920578,-0.058682836877657636, ,0.038427969485558024, ,0.01942370585561044, ,0.0008032549881781279, ,0.22195906553808664,-0.21805136270372902,0.10303690694,1.8016559944190333,0.7957709746339252,-1.2389450899033798, ,0.1571141416530973,0.13143620714469637,0.03360508759493671,0.0,0.1456286847057412,-0.11875042756390011, ,1.1312768459320068
0.013917396415376981,0.021745144494514534,-0.09041573332073598, ,0.014926525351683113,0.02112291694871145,-0.09128252109847751, ,0.0014686147828782655, ,0.020963433686061305,-0.00472288177777872,-0.03185808648657691,-0.004414275081228741,-0.01891632473920578,-0.058682836877657636, ,0.038427969485558024, ,0.01942370585561044, ,0.0008087087569871454, ,0.22195906553808664,-0.21805136270372902,0.10303690694,1.8016559944190333,0.7957709746339252,-1.2389450899033798, ,0.1571141416530973,0.13143620714469637,0.03360508759493671,0.0,0.1456286847057412,-0.11875042756390011, ,1.1336970329284668
0.013917396415376981,0.021745144494514534,-0.09041573332073598, ,0.014981042711028575,0.021111325948247137,-0.09136868851399889, ,0.001562431756017723, ,0.020963433686061305,-0.00472288177777872,-0.03185808648657691,-0.004414275081228741,-0.01891632473920578,-0.058682836877657636, ,0.038427969485558024, ,0.01942370585561044, ,0.0008148365862475566, ,0.22195906553808664,-0.21805136270372902,0.10303690694,1.8016559944190333,0.7957709746339252,-1.2389450899033798, ,0.1571141416530973,0.13143620714469637,0.03360508759493671,0.0,0.1456286847057412,-0.11875042756390011, ,1.1359648704528809
0.013917396415376981,0.021745144494514534,-0.09041573332073598, ,0.015035695856714023,0.021099563765662868,-0.0914547402758291, ,0.001657378523660565, ,0.020963433686061305,-0.00472288177777872,-0.03185808648657691,-0.004414275081228741,-0.01891632473920578,-0.058682836877657636, ,0.038427969485558024, ,0.01942370585561044, ,0.0008216312792912099, ,0.22195906553808664,-0.21805136270372902,0.10303690694,1.8016559944190333,0.7957709746339252,-1.2389450899033798, ,0.1571141416530973,0.13143620714469637,0.03360508759493671,0.0,0.1456286847057412,-0.11875042756390011, ,1.1381499767303467
0.013917396415376981,0.021745144494514534,-0.09041573332073598, ,0.015090482861093726,0.021087633519307834,-0.09154067746711146, ,0.0017532688966915707, ,0.020963433686061305,-0.00472288177777872,-0.03185808648657691,-0.004414275081228741,-0.01891632473920578,-0.058682836877657636, ,0.038427969485558024, ,0.01942370585561044, ,0.0008290843802304128, ,0.22195906553808664,-0.21805136270372902,0.10303690694,1.8016559944190333,0.7957709746339252,-1.2389450899033798, ,0.1571141416530973,0.13143620714469637,0.03360508759493671,0.0,0.1456286847057412,-0.11875042756390011, ,1.1403708457946777
0.01412319534881016,0.021696233395754706,-0.09074522128085828, ,0.015145401805560298,0.021075538314257423,-0.09162650116382848, ,0.0014855378341006847, ,0.022073021001434136,-0.004831975353844741,-0.03560062852154715,-0.006743047473308723,-0.03567300191724466,0.09386322947518475, ,0.0421659933249427, ,0.036303919474327276, ,0.0008342943282770022, ,0.22348044391430885,-0.21678483451235622,0.10338301637000001,1.8003978547581263,0.797273976131345,-1.2404974018046029, ,0.16333380646896864,0.12928738631944245,0.03756795169811321,-0.1727744473694492,0.17354710788399608,-0.1528929859840109, ,1.1426060199737549
0.01412319534881016,0.021696233395754706,-0.09074522128085828, ,0.015200450780528806,0.021063281242334055,-0.09171221243481886, ,0.0015799302470442106, ,0.022073021001434136,-0.004831975353844741,-0.03560062852154715,-0.006743047473308723,-0.03567300191724466,0.09386322947518475, ,0.0421659933249427, ,0.036303919474327276, ,0.0008401654772436732, ,0.22348044391430885,-0.21678483451235622,0.10338301637000001,1.8003978547581263,0.797273976131345,-1.2404974018046029, ,0.16333380646896864,0.12928738631944245,0.03756795169811321,-0.1727744473694492,0.17354710788399608,-0.1528929859840109, ,1.1450250148773193
0.01412319534881016,0.021696233395754706,-0.09074522128085828, ,0.015255627885421686,0.0210508653821284,-0.09179781234179135, ,0.0016753660091289263, ,0.022073021001434136,-0.004831975353844741,-0.03560062852154715,-0.006743047473308723,-0.03567300191724466,0.09386322947518475, ,0.0421659933249427, ,0.036303919474327276, ,0.0008466904813990267, ,0.22348044391430885,-0.21678483451235622,0.10338301637000001,1.8003978547581263,0.797273976131345,-1.2404974018046029, ,0.16333380646896864,0.12928738631944245,0.03756795169811321,-0.1727744473694492,0.17354710788399608,-0.1528929859840109, ,1.1476569175720215
0.01412319534881016,0.021696233395754706,-0.09074522128085828, ,0.015310931228652656,0.021038293799019947,-0.09188330193934063, ,0.0017716739594034645, ,0.022073021001434136,-0.004831975353844741,-0.03560062852154715,-0.006743047473308723,-0.03567300191724466,0.09386322947518475, ,0.0421659933249427, ,0.036303919474327276, ,0.0008538608959572007, ,0.22348044391430885,-0.21678483451235622,0.10338301637000001,1.8003978547581263,0.797273976131345,-1.2404974018046029, ,0.16333380646896864,0.12928738631944245,0.03756795169811321,-0.1727744473694492,0.17354710788399608,-0.1528929859840109, ,1.1502008438110352
0.014262614136912908,0.02166743523863124,-0.09097220982858745, ,0.015366358927611335,0.021025569545197895,-0.09196868227496219, ,0.0016196300404057228, ,0.022921989608133377,-0.004853904477888408,-0.03704507038191178,-0.0020704399667213803,-0.041441521263120534,0.048247049795640436, ,0.04383281003856172, ,0.041492368441974, ,0.0008597514278375738, ,0.2244998446537065,-0.2159662248276884,0.10362283002000001,1.799559094984188,0.7983670681294684,-1.2415521025144551, ,0.16648586238328208,0.13498853706752598,0.03904120470588236,-0.1324472412771958,0.1614603777524249,-0.15756417289407756, ,1.152716875076294
0.014262614136912908,0.02166743523863124,-0.09097220982858745, ,0.015421909108647663,0.021012695659682546,-0.0920539543890682, ,0.0017154649637521305, ,0.022921989608133377,-0.004853904477888408,-0.03704507038191178,-0.0020704399667213803,-0.041441521263120534,0.048247049795640436, ,0.04383281003856172, ,0.041492368441974, ,0.0008662835922338682, ,0.2244998446537065,-0.2159662248276884,0.10362283002000001,1.799559094984188,0.7983670681294684,-1.2415521025144551, ,0.16648586238328208,0.13498853706752598,0.03904120470588236,-0.1324472412771958,0.1614603777524249,-0.15756417289407756, ,1.155210018157959
0.014262614136912908,0.02166743523863124,-0.09097220982858745, ,0.01547757990705618,0.020999675168345715,-0.09213911931500199, ,0.0018121046006154863, ,0.022921989608133377,-0.004853904477888408,-0.03704507038191178,-0.0020704399667213803,-0.041441521263120534,0.048247049795640436, ,0.04383281003856172, ,0.041492368441974, ,0.0008734489029034259, ,0.2244998446537065,-0.2159662248276884,0.10362283002000001,1.799559094984188,0.7983670681294684,-1.2415521025144551, ,0.16648586238328208,0.13498853706752598,0.03904120470588236,-0.1324472412771958,0.1614603777524249,-0.15756417289407756, ,1.1575300693511963
0.014262614136912908,0.02166743523863124,-0.09097220982858745, ,0.01553336946706054,0.020986511083931653,-0.09222417807905385, ,0.00190942434092788, ,0.022921989608133377,-0.004853904477888408,-0.03704507038191178,-0.0020704399667213803,-0.041441521263120534,0.048247049795640436, ,0.04383281003856172, ,0.041492368441974, ,0.0008812381919111285, ,0.2244998446537065,-0.2159662248276884,0.10362283002000001,1.799559094984188,0.7983670681294684,-1.2415521025144551, ,0.16648586238328208,0.13498853706752598,0.03904120470588236,-0.1324472412771958,0.1614603777524249,-0.15756417289407756, ,1.1598849296569824
0.014565703958657247,0.021611885739201767,-0.09145927510598023, ,0.015589275941797914,0.020973206406078377,-0.09230913170047605, ,0.0014757598471423102, ,0.02583933665876841,-0.003974862099242057,-0.04155909987857305,0.009331904513440075,-0.06170980384303326,-0.08830276968965982, ,0.04909816320790804, ,0.06241041866691387, ,0.0008856749206815104, ,0.22666220985848937,-0.21421316446523944,0.10413745715000002,1.7989300251537346,0.8002799791261846,-1.2435203468669078, ,0.17972905598195224,0.14400142876854444,0.043881023471074386,0.0,0.12421785684117499,-0.15499355959072497, ,1.1621670722961426
0.014565703958657247,0.021611885739201767,-0.09145927510598023, ,0.015645297493303317,0.020959764121338192,-0.09239398119149803, ,0.0015698599526195328, ,0.02583933665876841,-0.003974862099242057,-0.04155909987857305,0.009331904513440075,-0.06170980384303326,-0.08830276968965982, ,0.04909816320790804, ,0.06241041866691387, ,0.0008907429579551254, ,0.22666220985848937,-0.21421316446523944,0.10413745715000002,1.7989300251537346,0.8002799791261846,-1.2435203468669078, ,0.17972905598195224,0.14400142876854444,0.043881023471074386,0.0,0.12421785684117499,-0.15499355959072497, ,1.1644809246063232
0.014565703958657247,0.021611885739201767,-0.09145927510598023, ,0.015701432292493985,0.020946187203198526,-0.09247872755734166, ,0.0016650275342177528, ,0.02583933665876841,-0.003974862099242057,-0.04155909987857305,0.009331904513440075,-0.06170980384303326,-0.08830276968965982, ,0.04909816320790804, ,0.06241041866691387, ,0.000896436226898233, ,0.22666220985848937,-0.21421316446523944,0.10413745715000002,1.7989300251537346,0.8002799791261846,-1.2435203468669078, ,0.17972905598195224,0.14400142876854444,0.043881023471074386,0.0,0.12421785684117499,-0.15499355959072497, ,1.1667208671569824
0.014565703958657247,0.021611885739201767,-0.09145927510598023, ,0.015757678519153894,0.020932478612103296,-0.09256337179623686, ,0.001761086851537713, ,0.02583933665876841,-0.003974862099242057,-0.04155909987857305,0.009331904513440075,-0.06170980384303326,-0.08830276968965982, ,0.04909816320790804, ,0.06241041866691387, ,0.0009027475453262584, ,0.22666220985848937,-0.21421316446523944,0.10413745715000002,1.7989300251537346,0.8002799791261846,-1.2435203468669078, ,0.17972905598195224,0.14400142876854444,0.043881023471074386,0.0,0.12421785684117499,-0.15499355959072497, ,1.1689438819885254
0.014565703958657247,0.021611885739201767,-0.09145927510598023, ,0.015814034361918142,0.020918641295473554,-0.0926479148994364, ,0.0018578969866634345, ,0.026392776449465704,-0.004873797071328083,-0.0405799852747376,0.02149785259078343,-0.029568824931714602,-0.07813806027247014, ,0.04865252050512777, ,0.03655629947924988, ,0.0009096689180895714, ,0.2287550704674042,-0.21254505416440694,0.10463782509000001,1.7991397150972188,0.8017829806236045,-1.2449909800279901, ,0.18903773218818878,0.1499161793972682,0.04316751089430895,-0.008867432622116892,0.16985933092572347,-0.16930676051611157, ,1.1714909076690674
0.014865071373186725,0.021564625431530246,-0.09193190882089425, ,0.015870498018257153,0.020904678187728124,-0.09273235785123088, ,0.001444690885063807, ,0.026392776449465704,-0.004873797071328083,-0.0405799852747376,0.02149785259078343,-0.029568824931714602,-0.07813806027247014, ,0.04865252050512777, ,0.03655629947924988, ,0.0009135179969886665, ,0.2287550704674042,-0.21254505416440694,0.10463782509000001,1.7991397150972188,0.8017829806236045,-1.2449909800279901, ,0.18903773218818878,0.1499161793972682,0.04316751089430895,-0.008867432622116892,0.16985933092572347,-0.16930676051611157, ,1.1738669872283936
0.014865071373186725,0.021564625431530246,-0.09193190882089425, ,0.015927067694461377,0.020890592210304933,-0.09281670162896491, ,0.0015378606188240311, ,0.026392776449465704,-0.004873797071328083,-0.0405799852747376,0.02149785259078343,-0.029568824931714602,-0.07813806027247014, ,0.04865252050512777, ,0.03655629947924988, ,0.0009179775871446333, ,0.2287550704674042,-0.21254505416440694,0.10463782509000001,1.7991397150972188,0.8017829806236045,-1.2449909800279901, ,0.18903773218818878,0.1499161793972682,0.04316751089430895,-0.008867432622116892,0.16985933092572347,-0.16930676051611157, ,1.1760740280151367
0.014865071373186725,0.021564625431530246,-0.09193190882089425, ,0.015983741605625542,0.020876386271681886,-0.09290094720305177, ,0.001632216779777722, ,0.026392776449465704,-0.004873797071328083,-0.0405799852747376,0.02149785259078343,-0.029568824931714602,-0.07813806027247014, ,0.04865252050512777, ,0.03655629947924988, ,0.0009230431133335205, ,0.2287550704674042,-0.21254505416440694,0.10463782509000001,1.7991397150972188,0.8017829806236045,-1.2449909800279901, ,0.18903773218818878,0.1499161793972682,0.04316751089430895,-0.008867432622116892,0.16985933092572347,-0.16930676051611157, ,1.1783440113067627
0.014865071373186725,0.021564625431530246,-0.09193190882089425, ,0.016040517975632926,0.02086206326739737,-0.09298509553698851, ,0.0017275620303279448, ,0.026392776449465704,-0.004873797071328083,-0.0405799852747376,0.02149785259078343,-0.029568824931714602,-0.07813806027247014, ,0.04865252050512777, ,0.03655629947924988, ,0.0009287087395095377, ,0.2287550704674042,-0.21254505416440694,0.10463782509000001,1.7991397150972188,0.8017829806236045,-1.2449909800279901, ,0.18903773218818878,0.1499161793972682,0.04316751089430895,-0.008867432622116892,0.16985933092572347,-0.16930676051611157, ,1.1806230545043945
0.015133425893855607,0.02150125960969301,-0.09232918517371688, ,0.016097395037140017,0.020847626080071693,-0.09306914758737145, ,0.0013798614690870934, ,0.026084896188442067,-0.006996015868730261,-0.037280111575530184,-0.05293483498872249,-0.10994362253081331,0.07603795776598896, ,0.04603447367225246, ,0.12202305061588838, ,0.0009318636537023876, ,0.230708921884583,-0.21100050758956204,0.10505782305000001,1.7978815754363118,0.8032859821210243,-1.246543291929213, ,0.1913244789485298,0.1520784319847288,0.03923352591133005,-0.16348723360914422,0.12166008852304602,-0.13383669491172384, ,1.182844877243042
0.015133425893855607,0.02150125960969301,-0.09232918517371688, ,0.016154371031560737,0.020833077579427536,-0.09315310430391129, ,0.001472290369755145, ,0.026084896188442067,-0.006996015868730261,-0.037280111575530184,-0.05293483498872249,-0.10994362253081331,0.07603795776598896, ,0.04603447367225246, ,0.12202305061588838, ,0.0009356166170083097, ,0.230708921884583,-0.21100050758956204,0.10505782305000001,1.7978815754363118,0.8032859821210243,-1.246543291929213, ,0.1913244789485298,0.1520784319847288,0.03923352591133005,-0.16348723360914422,0.12166008852304602,-0.13383669491172384, ,1.1851310729980469
0.015133425893855607,0.02150125960969301,-0.09232918517371688, ,0.016211444209050935,0.020818420622311207,-0.0932369666294487, ,0.001566033122879516, ,0.026084896188442067,-0.006996015868730261,-0.037280111575530184,-0.05293483498872249,-0.10994362253081331,0.07603795776598896, ,0.04603447367225246, ,0.12202305061588838, ,0.0009399643170488007, ,0.230708921884583,-0.21100050758956204,0.10505782305000001,1.7978815754363118,0.8032859821210243,-1.246543291929213, ,0.1913244789485298,0.1520784319847288,0.03923352591133005,-0.16348723360914422,0.12166008852304602,-0.13383669491172384, ,1.1892108917236328
0.015133425893855607,0.02150125960969301,-0.09232918517371688, ,0.016268612828492682,0.020803658052713322,-0.09332073549996889, ,0.0016608640396979105, ,0.026084896188442067,-0.006996015868730261,-0.037280111575530184,-0.05293483498872249,-0.10994362253081331,0.07603795776598896, ,0.04603447367225246, ,0.12202305061588838, ,0.0009449019863820138, ,0.230708921884583,-0.21100050758956204,0.10505782305000001,1.7978815754363118,0.8032859821210243,-1.246543291929213, ,0.1913244789485298,0.1520784319847288,0.03923352591133005,-0.16348723360914422,0.12166008852304602,-0.13383669491172384, ,1.19166898727417
0.015133425893855607,0.02150125960969301,-0.09232918517371688, ,0.016325875157478766,0.020788792701789852,-0.09340441184461805, ,0.0017566037501353876, ,0.026084896188442067,-0.006996015868730261,-0.037280111575530184,-0.05293483498872249,-0.10994362253081331,0.07603795776598896, ,0.04603447367225246, ,0.12202305061588838, ,0.0009504237670878191, ,0.230708921884583,-0.21100050758956204,0.10505782305000001,1.7978815754363118,0.8032859821210243,-1.246543291929213, ,0.1913244789485298,0.1520784319847288,0.03923352591133005,-0.16348723360914422,0.12166008852304602,-0.13383669491172384, ,1.1940369606018066
0.01550605424386048,0.021395818861815876,-0.09284686011216257, ,0.016383229472297093,0.020773827387882898,-0.09348799658571662, ,0.0012519447882192959, ,0.025224150262774206,-0.007191420143726418,-0.03357539418156017,0.016458467259589483,-0.026566001548426796,-0.04288775313725748, ,0.04260611898084301, ,0.031250454628379554, ,0.0009524610712846535, ,0.23347366025355537,-0.20873774685741428,0.10560615372000001,1.796623435775405,0.8054721661172715,-1.2484076571284963, ,0.1913244789485298,0.15281311040011397,0.03595668514672686,-0.047156216666310875,0.18347373699459638,-0.17450126417501427, ,1.1968560218811035
0.01550605424386048,0.021395818861815876,-0.09284686011216257, ,0.016440674057915074,0.020758764916541748,-0.093571490638777, ,0.0013432949512725309, ,0.025224150262774206,-0.007191420143726418,-0.03357539418156017,0.016458467259589483,-0.026566001548426796,-0.04288775313725748, ,0.04260611898084301, ,0.031250454628379554, ,0.0009550841174590688, ,0.23347366025355537,-0.20873774685741428,0.10560615372000001,1.796623435775405,0.8054721661172715,-1.2484076571284963, ,0.1913244789485298,0.15281311040011397,0.03595668514672686,-0.047156216666310875,0.18347373699459638,-0.17450126417501427, ,1.1992230415344238
0.01550605424386048,0.021395818861815876,-0.09284686011216257, ,0.016498207207963946,0.02074360808054371,-0.09365489491251648, ,0.0014361986791422412, ,0.025224150262774206,-0.007191420143726418,-0.03357539418156017,0.016458467259589483,-0.026566001548426796,-0.04288775313725748, ,0.04260611898084301, ,0.031250454628379554, ,0.0009582915478702898, ,0.23347366025355537,-0.20873774685741428,0.10560615372000001,1.796623435775405,0.8054721661172715,-1.2484076571284963, ,0.1913244789485298,0.15281311040011397,0.03595668514672686,-0.047156216666310875,0.18347373699459638,-0.17450126417501427, ,1.2015268802642822
0.01550605424386048,0.021395818861815876,-0.09284686011216257, ,0.016555827224723246,0.020728359659914965,-0.09373821030887408, ,0.00153036932494393, ,0.025224150262774206,-0.007191420143726418,-0.03357539418156017,0.016458467259589483,-0.026566001548426796,-0.04288775313725748, ,0.04260611898084301, ,0.031250454628379554, ,0.0009620801424204465, ,0.23347366025355537,-0.20873774685741428,0.10560615372000001,1.796623435775405,0.8054721661172715,-1.2484076571284963, ,0.1913244789485298,0.15281311040011397,0.03595668514672686,-0.047156216666310875,0.18347373699459638,-0.17450126417501427, ,1.2038419246673584
0.015754966076029747,0.02132445880390955,-0.09317719441036462, ,0.01661353241910535,0.020713022421951638,-0.09382143772302565, ,0.0012353299399563058, ,0.024937590986343225,-0.007028369909323194,-0.0330083485384921,0.023512536744902317,-0.022517560031458165,-0.08877115444656158, ,0.04196227473604118, ,0.03255519480864943, ,0.0009638778384568667, ,0.23535028434199193,-0.20721636848119204,0.10596004089000001,1.79641374583192,0.8072484406142222,-1.2499377686166906, ,0.18680500306785586,0.15183510649355325,0.03539735893333334,0.0,0.17273942257386224,-0.1711597734288469, ,1.2066800594329834
0.015754966076029747,0.02132445880390955,-0.09317719441036462, ,0.016671321110639507,0.020697599121240473,-0.09390457804339761, ,0.0013273080127893812, ,0.024937590986343225,-0.007028369909323194,-0.0330083485384921,0.023512536744902317,-0.022517560031458165,-0.08877115444656158, ,0.04196227473604118, ,0.03255519480864943, ,0.000966253199073419, ,0.23535028434199193,-0.20721636848119204,0.10596004089000001,1.79641374583192,0.8072484406142222,-1.2499377686166906, ,0.18680500306785586,0.15183510649355325,0.03539735893333334,0.0,0.17273942257386224,-0.1711597734288469, ,1.2089879512786865
0.015754966076029747,0.02132445880390955,-0.09317719441036462, ,0.016729191627456636,0.020682092499679814,-0.09398763215168411, ,0.0014207600875650443, ,0.024937590986343225,-0.007028369909323194,-0.0330083485384921,0.023512536744902317,-0.022517560031458165,-0.08877115444656158, ,0.04196227473604118, ,0.03255519480864943, ,0.0009692045425051828, ,0.23535028434199193,-0.20721636848119204,0.10596004089000001,1.79641374583192,0.8072484406142222,-1.2499377686166906, ,0.18680500306785586,0.15183510649355325,0.03539735893333334,0.0,0.17273942257386224,-0.1711597734288469, ,1.2112810611724854
0.015754966076029747,0.02132445880390955,-0.09317719441036462, ,0.016787142306273546,0.02066650528650089,-0.09407060092286164, ,0.0015154094489354386, ,0.024937590986343225,-0.007028369909323194,-0.0330083485384921,0.023512536744902317,-0.022517560031458165,-0.08877115444656158, ,0.04196227473604118, ,0.03255519480864943, ,0.0009727284451273134, ,0.23535028434199193,-0.20721636848119204,0.10596004089000001,1.79641374583192,0.8072484406142222,-1.2499377686166906, ,0.18680500306785586,0.15183510649355325,0.03539735893333334,0.0,0.17273942257386224,-0.1711597734288469, ,1.2135820388793945
0.015754966076029747,0.02132445880390955,-0.09317719441036462, ,0.01684517149237725,0.020650840198288042,-0.09415348522520321, ,0.0016110411635992092, ,0.024937590986343225,-0.007028369909323194,-0.0330083485384921,0.023512536744902317,-0.022517560031458165,-0.08877115444656158, ,0.04196227473604118, ,0.03255519480864943, ,0.000976820193322646, ,0.23535028434199193,-0.20721636848119204,0.10596004089000001,1.79641374583192,0.8072484406142222,-1.2499377686166906, ,0.18680500306785586,0.15183510649355325,0.03539735893333334,0.0,0.17273942257386224,-0.1711597734288469, ,1.2158010005950928
0.01601772987955753,0.021242333992895407,-0.09352893651272018, ,0.01690327753960962,0.02063509993900014,-0.09423628592029551, ,0.0012857958775913789, ,0.025016422294694203,-0.008169484335866308,-0.03384262358848698,-0.011247928739246694,-0.04247759289178016,0.01635997478428448, ,0.04287056134566532, ,0.04394106741111561, ,0.0009787881913116189, ,0.2373195812249192,-0.20558687184473068,0.10633596499,1.7955749860579822,0.8091613516109384,-1.2514976192684404, ,0.18570830050581366,0.1568544488569765,0.03603803511312218,-0.10836486569113248,0.17375973644728324,-0.16505246367044238, ,1.2189679145812988
0.01601772987955753,0.021242333992895407,-0.09352893651272018, ,0.016961458810351476,0.02061928719999134,-0.09431900386305224, ,0.0013794991913829643, ,0.025016422294694203,-0.008169484335866308,-0.03384262358848698,-0.011247928739246694,-0.04247759289178016,0.01635997478428448, ,0.04287056134566532, ,0.04394106741111561, ,0.0009813243368816907, ,0.2373195812249192,-0.20558687184473068,0.10633596499,1.7955749860579822,0.8091613516109384,-1.2514976192684404, ,0.18570830050581366,0.1568544488569765,0.03603803511312218,-0.10836486569113248,0.17375973644728324,-0.16505246367044238, ,1.2212209701538086
0.01601772987955753,0.021242333992895407,-0.09352893651272018, ,0.01701971367550725,0.020603404660031976,-0.09440163990173125, ,0.0014743857788687932, ,0.025016422294694203,-0.008169484335866308,-0.03384262358848698,-0.011247928739246694,-0.04247759289178016,0.01635997478428448, ,0.04287056134566532, ,0.04394106741111561, ,0.0009844253522401, ,0.2373195812249192,-0.20558687184473068,0.10633596499,1.7955749860579822,0.8091613516109384,-1.2514976192684404, ,0.18570830050581366,0.1568544488569765,0.03603803511312218,-0.10836486569113248,0.17375973644728324,-0.16505246367044238, ,1.223505973815918
0.01601772987955753,0.021242333992895407,-0.09352893651272018, ,0.017078040514489242,0.020587454985329504,-0.09448419487794792, ,0.001570236829728995, ,0.025016422294694203,-0.008169484335866308,-0.03384262358848698,-0.011247928739246694,-0.04247759289178016,0.01635997478428448, ,0.04287056134566532, ,0.04394106741111561, ,0.0009880866739744056, ,0.2373195812249192,-0.20558687184473068,0.10633596499,1.7955749860579822,0.8091613516109384,-1.2514976192684404, ,0.18570830050581366,0.1568544488569765,0.03603803511312218,-0.10836486569113248,0.17375973644728324,-0.16505246367044238, ,1.22576904296875
0.016270972894327176,0.021154252359561247,-0.09386585412671021, ,0.017136437715202187,0.020571440829549332,-0.0945666696266918, ,0.001256917260881356, ,0.024460429910462062,-0.008651989828655341,-0.031582396661001794,-0.03247535363801516,-0.047501902223477305,0.025981431758358868, ,0.040873186054583996, ,0.05754170563487913, ,0.0009897564291725855, ,0.23920392804622997,-0.2039882661397662,0.10669374103000001,1.7941071564535904,0.8108009896081236,-1.252916312852938, ,0.18355307844965332,0.1558242061715448,0.03367613429175476,-0.10591569954849,0.16531344045630442,-0.13965042576035994, ,1.2280290126800537
0.016270972894327176,0.021154252359561247,-0.09386585412671021, ,0.017194903674027328,0.02055536483383578,-0.09464906497634079, ,0.0013511970948481041, ,0.024460429910462062,-0.008651989828655341,-0.031582396661001794,-0.03247535363801516,-0.047501902223477305,0.025981431758358868, ,0.040873186054583996, ,0.05754170563487913, ,0.0009919875443928047, ,0.23920392804622997,-0.2039882661397662,0.10669374103000001,1.7941071564535904,0.8108009896081236,-1.252916312852938, ,0.18355307844965332,0.1558242061715448,0.03367613429175476,-0.10591569954849,0.16531344045630442,-0.13965042576035994, ,1.2303540706634521
0.016270972894327176,0.021154252359561247,-0.09386585412671021, ,0.017253436795807223,0.02053922962683312,-0.09473138174867768, ,0.0014465912843206366, ,0.024460429910462062,-0.008651989828655341,-0.031582396661001794,-0.03247535363801516,-0.047501902223477305,0.025981431758358868, ,0.040873186054583996, ,0.05754170563487913, ,0.0009947765243923622, ,0.23920392804622997,-0.2039882661397662,0.10669374103000001,1.7941071564535904,0.8108009896081236,-1.252916312852938, ,0.18355307844965332,0.1558242061715448,0.03367613429175476,-0.10591569954849,0.16531344045630442,-0.13965042576035994, ,1.2326390743255615
