NicholasDascanio/dvrk_moveit_final/test/execution/third_experiment_notsharpbends/thirdexp_500vel5.0/thirdexp_500vel5.0_5.csv
Current Position (x),Current Position (y),Current Position (z), ,Planned Position (x),Planned Position (y),Planned Position (z), ,Position Error,,Cartesian linear Velocity(x),Cartesian linear Velocity(y),Cartesian linear Velocity(z),Cartesian Angular Velocity(x),Cartesian Angular Velocity(y),Cartesian Angular Velocity(z), ,Total Linear Velocity, ,Total Angular Velocity, ,MSE, ,Joint 1 Position,Joint 2 Position,Joint 3 Position,Joint 4 Position,Joint 5 Position,Joint 6 Position, ,Joint 1 Velocity,Joint 2 Velocity,Joint 3 Velocity,Joint 4 Velocity,Joint 5 Velocity,Joint 6 Velocity, ,Time Stamp
0.010231919204019356,0.019611512385070817,-0.07957036304057595, ,0.010393485291724113,0.019584171879483206,-0.07963290876096696, ,0.0001753940451704033, ,-7.766725207128856e-06,2.9639402375474017e-05,-1.9704695749026235e-05,0.0014309066183326128,-0.00011379312128263549,0.0010350186922241991, ,3.6429263349400826e-05, ,0.0014354241968280031, ,1.4616170430866941e-05, ,0.14326441754973887,-0.23926570990922377,0.08916271507000001,1.6049668274305493,0.1360899537663787,-1.311731390888041, ,-0.00013036385005895236,-0.0003107827331074246,2.5063578966628156e-05,-0.0010263215120062225,0.0,-0.0012656759339300105, ,0.022398948669433594
0.01024268773050584,0.019620441597916385,-0.07959327070712063, ,0.010409971727537356,0.019649688615925524,-0.07974513412738378, ,0.0002278197141146652, ,0.0010610596912744752,0.0003353066921074512,-0.0010222940111181257,0.16632044798024287,-0.09881176141521197,-0.022576707915417594, ,0.0015110801737126698, ,0.19345866641307216, ,1.8327898149321296e-05, ,0.14326441754973887,-0.23930432357359488,0.08918734458000001,1.6049668274305493,0.13527013476778604,-1.3161269653545773, ,-0.00013036385005895236,-0.0009981601189723208,0.0010852748042951223,-0.000987765543188087,-0.1015055974406836,-0.16546984084596783, ,0.04908299446105957
0.0102716782911996,0.01964106433381871,-0.07964760590118437, ,0.010426843305878645,0.019714227019608947,-0.07985712327200903, ,0.0002707886427634391, ,0.0015549665157852583,0.001636161562390555,-0.005388499486001534,0.18228958913753146,-0.08438994578578939,-0.018193596581267797, ,0.005842163317992441, ,0.20087597480314945, ,2.1062575064015862e-05, ,0.14326441754973887,-0.23938927363521134,0.08924567763,1.6049668274305493,0.13294731427177356,-1.3180717617783446, ,-0.000130095643072822,-0.003629858934409799,0.0056807459058487875,-0.0009670285885319408,-0.08654561092831663,-0.17883268294662047, ,0.0713648796081543
0.010300306143889012,0.01966506089916779,-0.07972098691939171, ,0.010444097780556653,0.01977779389713743,-0.07996887754833722, ,0.00030795215135761054, ,0.0026156580012430364,0.002014125674044865,-0.00587545349795488,0.29245161263576197,-0.18779699932934754,-0.04192733697152318, ,0.006739385937675897, ,0.3475566985160306, ,2.337987031919329e-05, ,0.14325669481686465,-0.23945877823107936,0.08932345503000001,1.6049668274305493,0.13089776677529194,-1.323424864874987, ,0.00018612721307350845,-0.006638541303604321,0.006261325283018869,-0.0009529531773034105,-0.19242757374006825,-0.2860174419992413, ,0.09450793266296387
0.010356752533735122,0.01971526179576935,-0.07985762581422315, ,0.010461732912828198,0.01984039603311098,-0.080080398303004, ,0.000276237287684354, ,0.0010404562547559509,0.0017012195876441962,-0.004365662708598175,-0.1320655549504581,-0.03953577602004497,-0.009392906634317614, ,0.004799552915500549, ,0.13785640495926849, ,2.419599694404754e-05, ,0.14326441754973887,-0.23965184655293498,0.08946993580000001,1.6049668274305493,0.12693530828209418,-1.3242776826748188, ,0.0005259421063263861,-0.007302391365198073,0.004698764460176992,-0.0009273301150271421,-0.04036595927332482,0.13917721313231024, ,0.11662983894348145
0.010367219404178136,0.019753055160844323,-0.07994742058934215, ,0.010479746471387639,0.019902040190156012,-0.08019168687580008, ,0.0003074490177472132, ,0.00019396767669000714,0.002256836034887663,-0.005344009247268427,-0.22864236359734075,0.04920931555200226,0.00953872889182237, ,0.005804254231411512, ,0.23387793218710612, ,2.525227191673686e-05, ,0.14327986301548734,-0.23983719214191637,0.08956715755000001,1.6047571374870648,0.1273452177813905,-1.3205279993788799, ,-0.001702169503725718,-0.011001251744857483,0.005758789414316704,0.0008352304359533609,0.04810211632928342,0.23964929889071374, ,0.14377999305725098
0.010364172892473848,0.019811492459018594,-0.0800643827140001, ,0.010498136232356481,0.019962733108955005,-0.08030274459968538, ,0.0003124680770465057, ,0.00018697964231109362,0.0018927128484855947,-0.003327470324005595,0.03684161883049003,0.02646250465994208,0.006337900628303617, ,0.003832672966820824, ,0.04536043463769563, ,2.6084846331724876e-05, ,0.14326441754973887,-0.24017699238838225,0.08969549026000001,1.605176517374034,0.1293947652778721,-1.3186054033681414, ,-0.0006746917250945665,-0.012487288254881483,0.003706961023970212,0.002028099805512455,0.02612881971412116,-0.0242001337850703, ,0.16625499725341797
0.010384445439777115,0.019881606889705052,-0.08020065703824082, ,0.010516899979272527,0.020022481508276704,-0.08041357280080205, ,0.00028761603769205974, ,0.000883190742749612,0.002613091539176217,-0.005538697662513354,0.022829680918773597,-0.0028648313958825173,-0.0003970540521118989, ,0.006187523339505382, ,0.02300872844308096, ,2.673734535279322e-05, ,0.14325669481686465,-0.2406017426964646,0.0898458599,1.605176517374034,0.12925812877810666,-1.3191474153855696, ,0.0007335599522243319,-0.014413265728807835,0.006065807890327494,0.001970622140136274,-0.002659159456642134,-0.008291281846479162, ,0.1887679100036621
0.010399868458904761,0.019932241907548345,-0.08030319722705959, ,0.01053603550307924,0.020081292085005815,-0.08052417279848839, ,0.0002993119150444984, ,0.0007341593511455614,0.0025523873166111767,-0.004942058850812299,0.01916939740216967,-0.0018029926858079187,-0.00017336356166977016, ,0.005610491658648488, ,0.019254001569525857, ,2.738929876245277e-05, ,0.14326441754973887,-0.24089520654568514,0.08995863713,1.605176517374034,0.12925812877810666,-1.3190657366454288, ,0.0,-0.015412853915619746,0.005458811350239891,0.00192424776877485,-0.0023218737116259924,-0.0036477711957184776, ,0.2087419033050537
0.01041955311689181,0.019993199423839675,-0.08043088061200164, ,0.010555540602115193,0.02013917151417293,-0.08063454590529298, ,0.0002850964731193427, ,0.0009055806620114451,0.0029321266931134587,-0.005852668243123904,0.01569655568218885,-0.0018970368528710142,0.0001815241573149097, ,0.006608416515622225, ,0.015810774877853602, ,2.7779124866061534e-05, ,0.14327986301548734,-0.241235006792151,0.09009863645,1.605176517374034,0.12925812877810666,-1.3190657366454288, ,0.0005386956760379265,-0.017132504343468274,0.006448911546558706,0.0018734567961209872,-0.001864486600506978,0.0015203638036335127, ,0.23085403442382812
0.010436988186115995,0.020047942483916573,-0.08054303977380625, ,0.010575413082103373,0.02019612644898471,-0.08074469342698824, ,0.0002859792565450745, ,0.0007774547815370543,0.002532062266097564,-0.005151818248938638,0.013963387253425762,-0.0003452304800646574,0.001782697380055465, ,0.005792840971995272, ,0.013967654206929936, ,2.8112153873010804e-05, ,0.14327986301548734,-0.24154391610711998,0.09022178400000001,1.6053862073175185,0.12912149227834124,-1.318872640001592, ,0.00041656416647508585,-0.014490294939451944,0.005664584466571835,0.00029383068769265344,0.0,0.000419177868591569, ,0.2506558895111084
0.010451738531177155,0.020100276605931177,-0.08064521977839922, ,0.010595650756140435,0.020252163520853246,-0.08085461666258362, ,0.00029601928741985323, ,0.0007885112223616946,0.002555832266306908,-0.005274524025704453,0.0032253587775880384,-0.002093297127275401,0.009117159429257385, ,0.0059139354256720926, ,0.0038451044231354696, ,2.8479759877820683e-05, ,0.14327986301548734,-0.24185282542208897,0.09033456123000001,1.6055958972610032,0.12912149227834124,-1.318464246300889, ,0.0003390052172661174,-0.014481449955512097,0.005790189574700111,-0.007436567157720173,0.0,0.010077203986739428, ,0.27234792709350586
0.010468968331265515,0.02015524284990119,-0.08075583817906246, ,0.010616251444686108,0.020307289339426528,-0.08096431690433961, ,0.00029710912030604013, ,0.0007504777006500862,0.0026166361247469396,-0.005526264362749139,-0.025569256088749326,-0.0010282271954343799,0.008485109168966333, ,0.006160324601471491, ,0.025589921901860324, ,2.8803500206436986e-05, ,0.14329530848123578,-0.24216945746993218,0.09045641249000001,1.6055958972610032,0.12912149227834124,-1.3178924951199051, ,-0.0005665056464788537,-0.014437386514296482,0.0060427964795144165,-0.007074340392875164,0.0,0.038879798064181716, ,0.292464017868042
0.010484189087951594,0.020208711389782745,-0.08086573607216749, ,0.010637212975552493,0.020361510492617797,-0.0810737954377819, ,0.00030008761324579896, ,0.000826906192255887,0.0026351912822560847,-0.00556659732874817,-0.013688414886404869,-0.0017511265154374087,0.007923971838214118, ,0.006214097904386111, ,0.013799968870631632, ,2.910613806856933e-05, ,0.14328758574836156,-0.24247064405202692,0.09057696746,1.6055958972610032,0.12912149227834124,-1.317565780159343, ,0.00029157436297102597,-0.01445718183401444,0.006095986039035591,-0.00636991919640042,0.0,0.0271157502251574, ,0.3150029182434082
0.010501100955335421,0.020261936966122884,-0.08097412097591555, ,0.01065853318389328,0.02041483354663581,-0.08118305354171425, ,0.0003030100459926458, ,0.0007473472463151697,0.0024011107536289484,-0.004652320516673574,0.012323018212801223,-0.002312399826613128,0.007592507659770121, ,0.005288473026085064, ,0.012538100679596367, ,2.9596774022723813e-05, ,0.14330303121411,-0.2427718306341217,0.09069622614,1.6055958972610032,0.12912149227834124,-1.316994028978359, ,0.0009246634919385803,-0.014326229100010687,0.005149955227934046,-0.005783802459366779,0.0,0.0010546072407797208, ,0.33295488357543945
0.010516058264937516,0.02031092880791419,-0.08106899781919184, ,0.010680209912193156,0.02046726504601449,-0.08129209248823241, ,0.0003180534766268295, ,0.0008458427064747552,0.0026060124208440684,-0.0053598328750428985,0.026841623741733055,-0.0008340982507226153,0.0019141258694876924, ,0.006019514853381518, ,0.02685458025293313, ,3.0135047429644602e-05, ,0.14331847667985845,-0.24306529448334221,0.09080122563000001,1.6053862073175185,0.12912149227834124,-1.3165856352776562, ,0.0008759844760249958,-0.014525783186663215,0.005893012031076582,0.00029260166743322,0.0,-0.012424826614642842, ,0.35398292541503906
0.010533779568598444,0.020354459428059465,-0.0811609862539149, ,0.010702241010257038,0.020518811513642845,-0.08140091354273815, ,0.0003360892281573115, ,0.0010187579371313483,0.0027135458165368016,-0.005841899483753085,0.01575166426130193,-0.0017181848650691686,0.00043215753403793363, ,0.006521425320525188, ,0.01584509638428349, ,3.073258735870217e-05, ,0.14335709034422958,-0.24329697646956897,0.09090233625000001,1.6055958972610032,0.1289848557785758,-1.3163925386338193, ,0.002121443386650191,-0.01428095433536054,0.0064048297225572995,0.0016882743613021313,0.0,-0.0013831828231923651, ,0.3719329833984375
0.01054723257480812,0.020388905554134383,-0.08124083933512591, ,0.010724624335199363,0.02056947945079475,-0.0815095179639521, ,0.00036913815082938406, ,0.0010498110455466703,0.0026268978465052583,-0.006295650430377361,0.013754782657138162,0.0006368004048610144,-0.007607906166700155, ,0.006902022157950264, ,0.013769515271446068, ,3.14707756937906e-05, ,0.14338025854285225,-0.24345915385992767,0.09098918768000001,1.6058055872044876,0.1289848557785758,-1.3163925386338193, ,0.0016973328470702832,-0.011850267427381466,0.006824683598971724,0.009690186529701567,0.0,-0.0006823302418214917, ,0.3935699462890625
0.010570999498893043,0.020449235204405534,-0.08137885109443724, ,0.010747357751433338,0.020619275337159106,-0.0816179070039288, ,0.0003422916999413796, ,0.0010975964737639258,0.0025368686298521573,-0.005835557806209186,0.01322685640637673,-0.0008277866668079733,-0.007194517139149996, ,0.006457101158720989, ,0.013252733846018699, ,3.198806423316806e-05, ,0.1434265949400976,-0.2437526177091482,0.09113955732000001,1.6058055872044876,0.1289848557785758,-1.3163925386338193, ,0.003068905107044991,-0.012062659407457835,0.006366431462829738,0.009285777681124591,0.0,0.0, ,0.41151905059814453
0.01058132744432166,0.020475349063702217,-0.08143680242802662, ,0.01077043913066024,0.020668205630869085,-0.08172608190806839, ,0.0003957770874904814, ,0.0011148618331429003,0.002466462617721059,-0.0054306081032856005,0.012972221636625963,-0.002392923819437929,-0.00676374869316476, ,0.006067772171323293, ,0.013191080845484768, ,3.275239523658411e-05, ,0.1434883768030914,-0.24398429969537494,0.09125103826000001,1.6058055872044876,0.12912149227834124,-1.3163405990572343, ,0.002577163818161269,-0.011611547725427291,0.005395938861788619,0.008314585491759821,-0.0006093623737061757,0.004681685394099155, ,0.42986202239990234
0.01060893196732605,0.0205443120623715,-0.08159233817224225, ,0.010793866351858647,0.02071627676853256,-0.08183404391513185, ,0.00034956294553817747, ,0.0008686666542305915,0.002297332807277834,-0.005390970113166004,-0.017454338052853017,0.00028469569366370174,-0.006013387917368962, ,0.005924093056714783, ,0.017456659587328727, ,3.321073965357628e-05, ,0.1435269904674625,-0.24422370441447588,0.09137288952000001,1.6058055872044876,0.12912149227834124,-1.3157688478762504, ,0.001009110836532613,-0.010622109866662783,0.005811313943816127,0.0074118281068064375,-0.0005872297890967341,0.029248500132820328, ,0.44823384284973145
0.010619815940314067,0.020570785160125813,-0.08165431127754712, ,0.010817637301273763,0.0207634951652616,-0.08194179425725387, ,0.00039864382668298467, ,0.0012009432751753145,0.0028319477631634357,-0.0066526001639500626,-0.01043398732710115,-0.0015993384160403177,-0.005295733145654368, ,0.0073293438877476335, ,0.010555849652242535, ,3.404997525513159e-05, ,0.1435501586660852,-0.24434726814046348,0.09144029660000001,1.6058055872044876,0.12912149227834124,-1.3157688478762504, ,0.002810189627977739,-0.013033503853656198,0.007237079291231259,0.007060900731782239,-0.0005763315863723347,0.024314781584697368, ,0.46410393714904785
0.010652486391235214,0.020641320339220524,-0.08183572399962374, ,0.010841749872406603,0.020809867214702342,-0.08204933415995638, ,0.00033144835968387587, ,0.0012772219366643,0.002756522593436832,-0.007068404586705017,-0.001937748355374012,-0.0032965772520178478,0.0005258659812309983, ,0.007693637376753388, ,0.0038239080301272874, ,3.450411443999966e-05, ,0.14362738599482744,-0.24462528652393556,0.09163603639000001,1.6060152771479719,0.12912149227834124,-1.3156054903959693, ,0.0029972391991960777,-0.011003095144693163,0.007628741149425289,0.0008198372406161996,-0.0005494532557362281,0.012941961042266912, ,0.4813668727874756
0.01066653286110582,0.020672247789524444,-0.08191502030414259, ,0.010866201966003231,0.02085539928906505,-0.08215666484216319, ,0.0003630486275827181, ,0.0012429490448948868,0.002718843131138005,-0.006839259976501564,0.003373261069644647,-0.0032806281625878016,0.0006089798822757267, ,0.007464081144127359, ,0.004705464527676091, ,3.5077321168786075e-05, ,0.14365827692632432,-0.24474885024992316,0.09172159153000001,1.6060152771479719,0.12912149227834124,-1.3153604541755477, ,0.0029795023536449564,-0.011210868673732898,0.007394991420612815,0.0008198372406161996,-0.0005370967922345549,0.007836308533678725, ,0.4967470169067383
0.01068971510680002,0.02071996452912391,-0.08203065691113197, ,0.010890991490044001,0.020900097739153432,-0.08226378751621201, ,0.0003568053178307525, ,0.0012054649972130904,0.0025571170213610347,-0.005812895476174989,0.0012586798012264788,-0.004574256110764402,0.0007306737070432502, ,0.00646388019206544, ,0.004744268876446858, ,3.558537628133973e-05, ,0.14373550425506657,-0.24495736403752721,0.09184733166,1.6060152771479719,0.12912149227834124,-1.3151970966952666, ,0.00429977315400403,-0.012244766652705907,0.006363887942469038,0.0008198372406161996,-0.0005181667795192455,0.01097425646311826, ,0.5142040252685547
0.010698797741951259,0.020740219758143216,-0.08207556176639326, ,0.010916116359732896,0.020943968894395006,-0.08237070338786896, ,0.000419344332124782, ,0.0011680993944770033,0.0023693833842691444,-0.005292853695156546,-0.0003586214154840303,-0.005013511683822657,0.0006273359405188163, ,0.005915465666822904, ,0.0050263211765299185, ,3.6338680255478686e-05, ,0.14376639518656348,-0.24505775956489215,0.09189659068000001,1.6060152771479719,0.12912149227834124,-1.315115417955126, ,0.004749551962065455,-0.011575801188711182,0.005813434861313869,0.0008198372406161996,-0.0005098539758197551,0.01192952725675197, ,0.5305929183959961
0.010728528226252238,0.020801584352895912,-0.08221383782851531, ,0.010941574497486607,0.020987019062870687,-0.0824774136563422, ,0.00038632494401077505, ,0.001248541846661472,0.002576368022841156,-0.005890256746603862,0.006803828122511907,-0.0039803434204242075,-0.0029302234720281492, ,0.0065491719684930855, ,0.007882588646808344, ,3.690500721780669e-05, ,0.14388223617967685,-0.24535122341411267,0.09204825661,1.6062249670914566,0.12912149227834124,-1.314952060474845, ,0.00466160785574051,-0.01211811282830683,0.006448911546558706,0.0046768831179588004,-0.0004859462279558921,0.0058397907067040955, ,0.5463700294494629
0.01075493996970592,0.020854828222267457,-0.08234246505652087, ,0.0109673638329239,0.021029254531344427,-0.08258391951429539, ,0.00036585337246204446, ,0.0014219329513882552,0.0026609881982492833,-0.006459173510225496,0.0041807752558384115,-0.005082283964565051,-0.0028354748768467685, ,0.00712907244630495, ,0.006580917929380362, ,3.735300022587918e-05, ,0.14397490897416754,-0.24558290540033942,0.09218825593,1.6062249670914566,0.12912149227834124,-1.314788702994564, ,0.005733185269651336,-0.01137648271802539,0.00703880314626602,0.004453258691254933,-0.00046741451895419606,0.007698119005359039, ,0.565377950668335
0.010768429182527559,0.020880842720932706,-0.08240419775449907, ,0.01099348230285469,0.021070681565293223,-0.08269022214786138, ,0.00041048464940286457, ,0.0014409513017692977,0.002744540034405973,-0.006286446921268497,-0.001670596315699068,-0.0056218946811160036,-0.00250301837328997, ,0.007009155123725964, ,0.005864859933324454, ,3.811058822607263e-05, ,0.14402896810428711,-0.24569874639345277,0.09225566301,1.6062249670914566,0.12912149227834124,-1.3146253455142827, ,0.006250452194843196,-0.012785898889581081,0.006895589402597403,0.004243536784830886,-0.0004587395106468523,0.014915660567449845, ,0.5790090560913086
0.010801182061677513,0.02093702730565367,-0.08254082509293041, ,0.011019927851269404,0.021111306408936856,-0.08279632273665533, ,0.0003788165416852263, ,0.0016027719331696418,0.0028787099989071602,-0.007131889532351987,-0.004960716170026706,-0.0057548068558566385,-0.002192977631943984, ,0.00785618847974234, ,0.007597794970690249, ,3.870643351309164e-05, ,0.14416797729602315,-0.24593815111255374,0.09240473636,1.6062249670914566,0.1289848557785758,-1.314187212650024, ,0.006743753844376395,-0.011826183599082515,0.007762578713450294,0.0038672866258503405,0.0,0.01720411790007138, ,0.5929930210113525
0.010817232725135404,0.020965536680023204,-0.08261102025414008, ,0.011046698429328091,0.021151135285267735,-0.08290222245378848, ,0.00041460833656527794, ,0.0018478184819465616,0.0030187056436213238,-0.007709868076647744,-0.005383539900495371,-0.008251478956790806,0.00014371382744516096, ,0.008483459357147088, ,0.009852379387379174, ,3.941329295296268e-05, ,0.14423748189189117,-0.2460539921056671,0.09248121747000002,1.606434657034941,0.1289848557785758,-1.314187212650024, ,0.008646734875831723,-0.011703641170356082,0.008383585010526317,0.0014155089618586932,0.0,0.017163998611153197, ,0.6067888736724854
0.010837620021984065,0.020999839422540592,-0.08270209108602401, ,0.011073791995349712,0.021190174396080612,-0.08300792246588239, ,0.00043074056700290094, ,0.0019843173369927117,0.0033658273402982003,-0.00911681366220063,-0.002205478637078417,-0.007446874330905397,0.00020089406069322802, ,0.009918800347314023, ,0.00776659580106111, ,4.014912935176997e-05, ,0.14432243195350763,-0.24617755583165468,0.09257973551000001,1.606434657034941,0.1289848557785758,-1.3141055339098835, ,0.00782242959692681,-0.011589343147278863,0.009838672958616432,0.0013746878273614596,0.0,0.0138669160809646, ,0.6209609508514404
0.01087559923891959,0.02106373250774457,-0.08287365742676386, ,0.011101206514801244,0.021228429922002565,-0.0831134239330817, ,0.0003681193539409079, ,0.001776820719527671,0.003052079692622191,-0.00796030308455522,0.0013684470362536505,-0.006978230447242501,0.0002762008636275782, ,0.00870854221540201, ,0.007111140239287797, ,4.062033149188214e-05, ,0.14447688661099212,-0.2464015150850072,0.09276510498000001,1.606434657034941,0.1289848557785758,-1.3140238551697427, ,0.007324367967463759,-0.011331086395508155,0.008624153502977802,0.001300114783471143,0.0,0.010026731873433344, ,0.6349198818206787
0.01089544780256842,0.021094594979574874,-0.08295623022453807, ,0.011128939960287035,0.021265908022522425,-0.08321872800906785, ,0.00039086037568815266, ,0.001955542681696439,0.002808548696200986,-0.007850510537235915,0.001718422947800441,-0.009281889896008732,-2.101206930655993e-05, ,0.008564029930711411, ,0.009439620100957523, ,4.1153441588754824e-05, ,0.14456955940548283,-0.24650963334524634,0.09285454899000001,1.606434657034941,0.1289848557785758,-1.3139421764296024, ,0.009611043486645274,-0.008813618729975953,0.008481795271565496,0.0012641346325360614,0.0,0.00718031557702354, ,0.6497490406036377
0.010933836939550962,0.0211477066104716,-0.08309407109592372, ,0.011156990311537829,0.021302614836020823,-0.08332383584107315, ,0.0003557890159708465, ,0.0019719953169446878,0.0026129783122455343,-0.007091068387041106,0.0016423696783164623,-0.01097732574807722,0.0008762508678887373, ,0.007810228681671943, ,0.01109950633184005, ,4.1539499625770135e-05, ,0.1447857959259611,-0.24670270166710195,0.09300491863,1.6066443469784255,0.1289848557785758,-1.3137788189493214, ,0.011076313288290672,-0.008718927657405284,0.00770624650217707,0.0003173883957054634,0.0,0.007030189948161288, ,0.6634318828582764
0.0109532936262866,0.021172861651451876,-0.08316465893651652, ,0.011185355555400168,0.021338556479800097,-0.08342874856989352, ,0.00038865260779062644, ,0.0020622284489114416,0.002572995091266379,-0.007279749856977266,-0.004488279223397061,-0.011682522483424758,0.0006717379432856184, ,0.007991736225335588, ,0.012515029425380117, ,4.202358160506182e-05, ,0.14489391418620026,-0.2467799289958442,0.09308139974000001,1.6066443469784255,0.1289848557785758,-1.31361546146904, ,0.011797041122451979,-0.007694205668365677,0.007889455928677564,0.0003173883957054634,0.0,0.012147097666713654, ,0.6770849227905273
0.010973049262949192,0.02120026393655679,-0.08324122628616785, ,0.011214033685825313,0.02137373905011372,-0.08353346732990265, ,0.00041661965236379305, ,0.001976514540870574,0.002764848195295765,-0.0075929807920002285,0.0013239741673957653,-0.009448075889509605,0.0011030345724999105, ,0.008318915348829286, ,0.009540388900431795, ,4.2728365715432074e-05, ,0.1450097551793136,-0.24686487905746068,0.09316436230000001,1.6066443469784255,0.12912149227834124,-1.3135635218924553, ,0.010310755048234938,-0.008979722402027835,0.008227691900826447,0.0003173883957054634,0.0007866409412686968,0.007606608146117866, ,0.6909208297729492
0.011013518486239047,0.021252756997657746,-0.0833924195529689, ,0.01124302270385871,0.021408168622196314,-0.08363799324906539, ,0.0003703125695428373, ,0.0020842107075693984,0.0026669135182661096,-0.008001415975057203,-0.0010445607795809108,-0.00888614067237549,-0.0035719956003209367, ,0.008687866227869653, ,0.008947321972214655, ,4.3254106456927634e-05, ,0.14522599169979192,-0.24701161098207094,0.09332769484,1.6068540369219102,0.12912149227834124,-1.3134818431523148, ,0.011722908160404048,-0.007009425926827574,0.008052988634984834,0.004827784539514572,0.0007866409412686968,0.007916675387414335, ,0.7026619911193848
0.011035078153512736,0.021278576666060693,-0.08346794725225633, ,0.011272320617629013,0.021441851250293617,-0.08374232744895145, ,0.0003977776627399427, ,0.0021449214234810885,0.002507405272130557,-0.0072515388646913195,-0.005247918435144119,-0.010831801041510412,-0.003584436191683548, ,0.007966968370575155, ,0.012036134830297706, ,4.385313989077353e-05, ,0.1453495554257795,-0.24708111557793896,0.09340936111,1.6068540369219102,0.12912149227834124,-1.3134001644121742, ,0.012815252067315432,-0.006888628298415546,0.007858318460779478,0.004827784539514572,0.0007866409412686968,0.012743030227605763, ,0.7136428356170654
0.011057582109584052,0.021303772975652228,-0.08354080972189629, ,0.011301925442337345,0.02147479296769165,-0.08384647104474849, ,0.0004270601201539522, ,0.002357410628131745,0.002744284525680436,-0.008092635765817376,0.010094387394230906,-0.011903673326872059,-0.0033813877502400043, ,0.008864492995411762, ,0.015607500146662318, ,4.452779710083874e-05, ,0.14548856461751553,-0.24715062017380698,0.0934884348,1.6068540369219102,0.12912149227834124,-1.3132368069318932, ,0.013839425631977653,-0.007092439927858155,0.008752094241758242,0.004827784539514572,0.0007866409412686968,-0.0023982156143910675, ,0.7269349098205566
0.01107102481036194,0.02131939663019515,-0.08358764168462612, ,0.011331835200246408,0.02150699978674707,-0.08395042514527636, ,0.00048459141876563446, ,0.0024691794648550136,0.002838122612523287,-0.008645172199172109,-0.00867892170501863,-0.012191369092812468,-0.0036706249716259593, ,0.009428191212884686, ,0.014965063114728235, ,4.536470583330341e-05, ,0.1455657919462578,-0.24718923383817812,0.09353899011000001,1.6068540369219102,0.12912149227834124,-1.3132368069318932, ,0.014184894104405198,-0.006547760166793802,0.009320545067290815,0.004827784539514572,0.0007866409412686968,0.015837737425218892, ,0.7388849258422852
0.011117694167879744,0.021374209325028502,-0.08376153109675377, ,0.011362047920669811,0.02153847769891669,-0.08405419085299978, ,0.0004151416482219447, ,0.0024759590090866644,0.0028590480586663737,-0.009144909317569278,-0.006390109021126854,-0.010448029432491832,-0.003540297896994183, ,0.009896155578961296, ,0.012247234314970337, ,4.5956901176245e-05, ,0.14582836486398143,-0.24729735209841724,0.09372565587000001,1.6068540369219102,0.12925812877810666,-1.3131848673553086, ,0.013460559086307911,-0.005356202226700005,0.009808381477832513,0.004827784539514572,0.001849717459462539,0.012370793269308945, ,0.7498469352722168
0.011144160123655399,0.021405040456239845,-0.08386074514948158, ,0.011392561639961,0.02156923267478741,-0.08415776926404288, ,0.0004205778436454024, ,0.002647811582220766,0.002998152669937863,-0.00984230692008105,-0.007132309830056336,-0.011492948618870302,-0.0025571163900797943, ,0.010624068482284614, ,0.013526182724914834, ,4.6547592624431306e-05, ,0.14596737405571747,-0.24735141122853682,0.09383195165000001,1.6070637268653947,0.12925812877810666,-1.3130215098750273, ,0.014240237328702096,-0.004899874387442349,0.010534928253968255,0.0037319207055577955,0.001849717459462539,0.012507837045299116, ,0.7607369422912598
0.01117205794563484,0.02143649837696462,-0.08396500161705528, ,0.011423374401502706,0.02159927066410569,-0.08426116146820173, ,0.00042114776015337744, ,0.00274659060561142,0.0030998165104671837,-0.010359059610238235,-0.0069249361737965635,-0.010748114361865117,-0.0064174997428343905, ,0.011156286943327829, ,0.012785796183951176, ,4.726611675181862e-05, ,0.14611410598032773,-0.24739774762578218,0.09394343259000001,1.6072734168088794,0.12925812877810666,-1.3130215098750273, ,0.014468202707496687,-0.004489994663416401,0.011069361723419043,0.007694627292638031,0.001849717459462539,0.012455085348246499, ,0.7695879936218262
0.01117205794563484,0.02143649837696462,-0.08396500161705528, ,0.01145448425569588,0.02162859759580774,-0.08436436854895903, ,0.0005255099207370331, ,0.00274659060561142,0.0030998165104671837,-0.010359059610238235,-0.0069249361737965635,-0.010748114361865117,-0.0064174997428343905, ,0.011156286943327829, ,0.012785796183951176, ,4.82825682736608e-05, ,0.14611410598032773,-0.24739774762578218,0.09394343259000001,1.6072734168088794,0.12925812877810666,-1.3130215098750273, ,0.014468202707496687,-0.004489994663416401,0.011069361723419043,0.007694627292638031,0.001849717459462539,0.012455085348246499, ,0.7793178558349609
0.011230952182726885,0.021501829853227652,-0.08418446729812333, ,0.011485889259949113,0.0216572193780488,-0.08446739158349637, ,0.0004113210048375805, ,0.0030880174177777536,0.0034171606268219553,-0.011683155351281413,-0.003862206973025884,-0.012463393886882198,-0.006445347862964226, ,0.012558222696073538, ,0.01304808845045777, ,4.893388389080389e-05, ,0.14643846076104516,-0.24749042042027286,0.09417806108000001,1.6072734168088794,0.1293947652778721,-1.3131329277787236, ,0.016081501704536653,-0.0041804805397929,0.012463858779342725,0.007694627292638031,0.0017563860073919414,0.009087866084915908, ,0.78849196434021
0.011262575625497677,0.021535281698596597,-0.08429984962690741, ,0.011517587478667613,0.02168514189823335,-0.08457023164270842, ,0.00040074375748219975, ,0.0030880174177777536,0.0034171606268219553,-0.011683155351281413,-0.003862206973025884,-0.012463393886882198,-0.006445347862964226, ,0.012558222696073538, ,0.01304808845045777, ,4.9538627908264025e-05, ,0.14643846076104516,-0.24749042042027286,0.09417806108000001,1.6072734168088794,0.1293947652778721,-1.3131329277787236, ,0.016081501704536653,-0.0041804805397929,0.012463858779342725,0.007694627292638031,0.0017563860073919414,0.009087866084915908, ,0.7973370552062988
0.011262575625497677,0.021535281698596597,-0.08429984962690741, ,0.011549576983242339,0.021712371023044543,-0.08467288979121702, ,0.0005028810717941691, ,0.0031722342537517695,0.00326918343047808,-0.011470321695360575,-0.001924886971739118,-0.0137724524875182,-0.006568100231313572, ,0.012341754747921705, ,0.013906309317040741, ,5.0427043535555894e-05, ,0.1466083608842781,-0.247529034084644,0.09430120863000001,1.6072734168088794,0.1293947652778721,-1.313051249038583, ,0.01738039222682615,-0.003091026731414065,0.01223411023041475,0.007694627292638031,0.0017563860073919414,0.006073610936678162, ,0.8096239566802979
0.011301603622933155,0.02157573542241026,-0.08444197728817567, ,0.011581855852039432,0.02173891259847417,-0.0847753670873832, ,0.00046509876469720963, ,0.003191158029940329,0.0031448966109763523,-0.011295083373857873,0.0037398044872159176,-0.012700031315064307,-0.006173967683924939, ,0.012151245725775762, ,0.013239212558274349, ,5.118609422879793e-05, ,0.14682459740475637,-0.24755992501614088,0.09444898569000001,1.6072734168088794,0.12953140177763753,-1.313080988202139, ,0.018003593541732265,-0.0025813603348114507,0.012094769567198179,0.007694627292638031,0.0035578064058198384,-0.0004848950080705446, ,0.8205318450927734
0.011327711108809844,0.021601834061819623,-0.08453688680890371, ,0.011614422170389063,0.02176477244985255,-0.0848776645833226, ,0.00047421687302809433, ,0.0030926237205822775,0.0028719196021442825,-0.010445828564325138,0.005692649395375329,-0.011068569380585997,-0.0054781527433637525, ,0.011266214007978, ,0.012446660632549055, ,5.1953822137951497e-05, ,0.1469867747951151,-0.24758309321476354,0.09455398518000001,1.6072734168088794,0.12966803827740297,-1.313110727365695, ,0.01854542535830971,-0.0015419171846392016,0.011146824016794963,0.007493336677004362,0.005832581839509328,-0.0031023864984088224, ,0.8303108215332031
0.011363630664292964,0.02163232468288255,-0.08464434510849088, ,0.0116472740305748,0.02178995638187756,-0.0849797833249177, ,0.0004667120191331564, ,0.003141536723204774,0.00268715936443768,-0.009370719068263275,0.005494223110052292,-0.014234609595460933,-0.0021904647547897702, ,0.01024209228084976, ,0.015258129821959593, ,5.283193104393823e-05, ,0.14721845678134182,-0.24760626141338624,0.09466935499000001,1.6074831067523636,0.12966803827740297,-1.3130290486255545, ,0.020907015104311696,-0.0024929248745902493,0.010075149601518027,0.0042033557795536775,0.005832581839509328,-0.00242861985435452, ,0.8370578289031982
0.011395261427809172,0.02165779067013788,-0.08473612010367128, ,0.011680409531822727,0.02181447017864548,-0.08508172435183109, ,0.00047465798840303663, ,0.003062060812338084,0.002486818309669826,-0.009085862382428568,0.002920426112982556,-0.013753193635574618,-0.0024092274080313803, ,0.009905219682379398, ,0.014059842173332726, ,5.3717539434053694e-05, ,0.14742697056894588,-0.24762170687913468,0.09476787303,1.6074831067523636,0.12966803827740297,-1.3129473698854137, ,0.020429912068562064,-0.001098980385167325,0.00974239236697248,0.0042033557795536775,0.005832581839509328,-0.001233099233075597, ,0.8436918258666992
0.011395261427809172,0.02165779067013788,-0.08473612010367128, ,0.011713826780290553,0.02183831960367984,-0.08518348869752015, ,0.0005781117871222704, ,0.003062060812338084,0.002486818309669826,-0.009085862382428568,0.002920426112982556,-0.013753193635574618,-0.0024092274080313803, ,0.009905219682379398, ,0.014059842173332726, ,5.487575934744289e-05, ,0.14742697056894588,-0.24762170687913468,0.09476787303,1.6074831067523636,0.12966803827740297,-1.3129473698854137, ,0.020429912068562064,-0.001098980385167325,0.00974239236697248,0.0042033557795536775,0.005832581839509328,-0.001233099233075597, ,0.8504610061645508
0.011425493780235193,0.021683242900479727,-0.08483048027007632, ,0.011747523889056803,0.021861510399961877,-0.08528507738925029, ,0.0005849283999948569, ,0.0033318010709029768,0.0026088722027137537,-0.009924540856742704,0.004044503246278159,-0.010687460951319113,-0.0011924911732731774, ,0.010789051105788587, ,0.011427148892509006, ,5.6033613677890626e-05, ,0.1477127116852922,-0.2476294296120089,0.09490398348000001,1.607692796695848,0.12994131127693384,-1.3130068482125254, ,0.02263223027867178,-9.787294202269967e-06,0.010619207680000001,0.0042033557795536775,0.011277887484031617,-0.003432856032935211, ,0.860191822052002
0.011436384072035085,0.021692061249811108,-0.08486318734083409, ,0.011781498978109954,0.021884048289959483,-0.0853864914481074, ,0.0006555993522488475, ,0.0034123167910514477,0.0027956049040367336,-0.010646834167596039,0.004463301520181383,-0.009889446403947984,-0.0030261897019303596, ,0.011524512590745706, ,0.010849980360879122, ,5.7365576823287286e-05, ,0.1477127116852922,-0.2476294296120089,0.09490398348000001,1.607692796695848,0.12994131127693384,-1.3130068482125254, ,0.022302453950286905,-1.6730941554629562e-05,0.011369601370449681,0.006118897092836674,0.011277887484031617,-0.003569046158596037, ,0.8675439357757568
0.0114918852828744,0.021742621797950466,-0.0850541514319539, ,0.011815750174337648,0.021905938975657877,-0.08548773188901292, ,0.0005652901743355561, ,0.003688818459754189,0.0033582721362204315,-0.012903759280444892,0.014250147115698358,0.0063561552931120455,0.0015138475956717624, ,0.013834463377290985, ,0.015603430557985227, ,5.84311417118122e-05, ,0.14806795739750653,-0.24763715234488312,0.09510750101000001,1.607692796695848,0.13035122077623018,-1.3132594231834742, ,0.023396681843804435,0.0001815926917490036,0.01373173406896552,0.006118897092836674,0.029212183636115947,-0.013545615390986598, ,0.8741748332977295
0.011536902373460695,0.02178072253801973,-0.08520293655102217, ,0.011850275611515804,0.021927188138588564,-0.08558879972073588, ,0.0005182136086795189, ,0.004379942219775992,0.004092981411100316,-0.015732956385013985,0.012829396515119407,-0.0017461700848603596,4.0231538431358616e-05, ,0.016836338892198068, ,0.012947646927672432, ,5.935297016219952e-05, ,0.14833053031523016,-0.2476294296120089,0.09526564839000001,1.607692796695848,0.13035122077623018,-1.3131777444433337, ,0.025794221679388635,0.00013556729832251823,0.01652366340248963,0.006118897092836674,0.023790336047027495,-0.012483725807315067, ,0.8809809684753418
0.011536902373460695,0.02178072253801973,-0.08520293655102217, ,0.011885073430297738,0.02194780143985955,-0.08568969594590795, ,0.0006213478516649073, ,0.004379942219775992,0.004092981411100316,-0.015732956385013985,0.012829396515119407,-0.0017461700848603596,4.0231538431358616e-05, ,0.016836338892198068, ,0.012947646927672432, ,6.069693249198697e-05, ,0.14833053031523016,-0.2476294296120089,0.09526564839000001,1.607692796695848,0.13035122077623018,-1.3131777444433337, ,0.025794221679388635,0.00013556729832251823,0.01652366340248963,0.006118897092836674,0.023790336047027495,-0.012483725807315067, ,0.8854458332061768
0.011536902373460695,0.02178072253801973,-0.08520293655102217, ,0.011920141778203358,0.02196778452018514,-0.08579042156103543, ,0.0007259499042698824, ,0.004379942219775992,0.004092981411100316,-0.015732956385013985,0.012829396515119407,-0.0017461700848603596,4.0231538431358616e-05, ,0.016836338892198068, ,0.012947646927672432, ,6.230479429859843e-05, ,0.14833053031523016,-0.2476294296120089,0.09526564839000001,1.607692796695848,0.13035122077623018,-1.3131777444433337, ,0.025794221679388635,0.00013556729832251823,0.01652366340248963,0.006118897092836674,0.023790336047027495,-0.012483725807315067, ,0.8900158405303955
0.011586826648854822,0.021825815290810503,-0.08537879617905024, ,0.011955478809608292,0.02198714299991514,-0.08589097755651381, ,0.0006513530600017461, ,0.005024350846905722,0.004533604718719517,-0.017593813744575113,-0.008985158923391504,-0.022840335359534215,-0.005198032536430442, ,0.018850462998483572, ,0.024544089195532727, ,6.369829554570042e-05, ,0.14861627143157646,-0.24762170687913468,0.09545231415000001,1.607692796695848,0.13048785727599563,-1.3132074836068894, ,0.027804553635649217,0.0005866424741879714,0.01867387048065651,0.006118897092836674,0.0035417055754062322,0.009285002007730601, ,0.8969829082489014
0.011610802723611915,0.021846999724831173,-0.08546173181535975, ,0.011991082685733057,0.022005882479065403,-0.08599136491664097, ,0.0006710944800523069, ,0.0053808386851998385,0.004705494545634611,-0.018321765784716844,-0.0006371886429954472,-0.016718245504801412,-0.00398876005566509, ,0.01966677923161698, ,0.01673032209857864, ,6.512907946401858e-05, ,0.14861627143157646,-0.24762170687913468,0.09545231415000001,1.607692796695848,0.13048785727599563,-1.3132074836068894, ,0.027804553635649217,0.0005866424741879714,0.01867387048065651,0.006118897092836674,0.0035417055754062322,0.009285002007730601, ,0.9032340049743652
0.011610802723611915,0.021846999724831173,-0.08546173181535975, ,0.012026951574632211,0.02202400853734683,-0.08609158461963062, ,0.0007753879938208984, ,0.0053808386851998385,0.004705494545634611,-0.018321765784716844,-0.0006371886429954472,-0.016718245504801412,-0.00398876005566509, ,0.01966677923161698, ,0.01673032209857864, ,6.681790102132975e-05, ,0.14876300335618672,-0.24761398414626046,0.09554046187000001,1.6079024866393328,0.13062449377576107,-1.313318901510586, ,0.03162177326173635,0.0008844654027610935,0.019472874718826406,0.00749564730951006,0.013483482683918462,0.0008448728270936644, ,0.9079158306121826
0.011705541699853392,0.021935522406979796,-0.08580598816721116, ,0.012063083651183483,0.022041526734195595,-0.08619163763762609, ,0.0005364687114648158, ,0.00562136423933674,0.005097912197508405,-0.019963789009696236,0.025819708624093003,0.007630647198689432,0.005252457390244412, ,0.021357465118980463, ,0.02692361340845639, ,6.786694505628327e-05, ,0.14932676285600513,-0.24759853868051201,0.09590601565000001,1.6081121765828172,0.13130767627458828,-1.3137943122889273, ,0.03425882366731797,0.0012481181690857076,0.02121013517976032,0.005519202680873836,0.04194322335706668,-0.026241127209184065, ,0.9126648902893066
0.011705541699853392,0.021935522406979796,-0.08580598816721116, ,0.012099477097076851,0.02205844260880261,-0.08629152493671333, ,0.0006372130159847366, ,0.00562136423933674,0.005097912197508405,-0.019963789009696236,0.025819708624093003,0.007630647198689432,0.005252457390244412, ,0.021357465118980463, ,0.02692361340845639, ,6.916611377615936e-05, ,0.14932676285600513,-0.24759853868051201,0.09590601565000001,1.6081121765828172,0.13130767627458828,-1.3137943122889273, ,0.03425882366731797,0.0012481181690857076,0.02121013517976032,0.005519202680873836,0.04194322335706668,-0.026241127209184065, ,0.9173698425292969
0.011705541699853392,0.021935522406979796,-0.08580598816721116, ,0.012136130100803876,0.022074761680143593,-0.08639124747693486, ,0.0007398124126037179, ,0.00562136423933674,0.005097912197508405,-0.019963789009696236,0.025819708624093003,0.007630647198689432,0.005252457390244412, ,0.021357465118980463, ,0.02692361340845639, ,7.071632043866297e-05, ,0.14932676285600513,-0.24759853868051201,0.09590601565000001,1.6081121765828172,0.13130767627458828,-1.3137943122889273, ,0.03425882366731797,0.0012481181690857076,0.02121013517976032,0.005519202680873836,0.04194322335706668,-0.026241127209184065, ,0.9218659400939941
0.011764756996757346,0.02198307671874676,-0.0859961153943245, ,0.012173040857646556,0.02209048944700856,-0.08649080621230311, ,0.0006503477613151184, ,0.006250921680881088,0.004849052263222979,-0.01944207985895355,-0.011395549911863432,-0.0364190820165544,-0.005807021957504466, ,0.020990040470516117, ,0.03816025831727872, ,7.202123100388808e-05, ,0.14968973130109367,-0.24757537048188932,0.09610823689,1.6081121765828172,0.13144431277435373,-1.313660693972202, ,0.037807546437637764,0.0026129333559671945,0.02068676820779221,0.005519202680873836,0.0,0.00961074253565042, ,0.9263119697570801
0.011764756996757346,0.02198307671874676,-0.0859961153943245, ,0.012210207569666785,0.0221056313880316,-0.08659020209081418, ,0.0007525854521679805, ,0.006250921680881088,0.004849052263222979,-0.01944207985895355,-0.011395549911863432,-0.0364190820165544,-0.005807021957504466, ,0.020990040470516117, ,0.03816025831727872, ,7.357363659103146e-05, ,0.14968973130109367,-0.24757537048188932,0.09610823689,1.6081121765828172,0.13144431277435373,-1.313660693972202, ,0.037807546437637764,0.0026129333559671945,0.02068676820779221,0.005519202680873836,0.0,0.00961074253565042, ,0.9307370185852051
0.01182519056446946,0.022031113845725682,-0.08619253451357961, ,0.012247628445695278,0.022120192961720603,-0.08668943605446099, ,0.0006582552648716754, ,0.006282950945341563,0.004770862362174741,-0.019922190048546503,0.0010096786109205361,-0.019060169943543172,-0.005546136742912565, ,0.02142732499848708, ,0.019086811963750984, ,7.487086499633504e-05, ,0.15006814521193068,-0.24753675681751822,0.09631693958000001,1.608321866526302,0.1317175857738846,-1.3138018510394545, ,0.039052239324473575,0.004876477098845152,0.02115380015936255,0.009782954883916813,0.01817866383118975,-0.004404832706010315, ,0.9352459907531738
0.01182519056446946,0.022031113845725682,-0.08619253451357961, ,0.012285301701320745,0.02213417960648722,-0.08678850903924695, ,0.0007599410796504879, ,0.006282950945341563,0.004770862362174741,-0.019922190048546503,0.0010096786109205361,-0.019060169943543172,-0.005546136742912565, ,0.02142732499848708, ,0.019086811963750984, ,7.660521997014303e-05, ,0.15006814521193068,-0.24753675681751822,0.09631693958000001,1.608321866526302,0.1317175857738846,-1.3138018510394545, ,0.039052239324473575,0.004876477098845152,0.02115380015936255,0.009782954883916813,0.01817866383118975,-0.004404832706010315, ,0.9377708435058594
0.01182519056446946,0.022031113845725682,-0.08619253451357961, ,0.012323225558879117,0.022147596740676293,-0.08688742197519927, ,0.000862830055566519, ,0.006282950945341563,0.004770862362174741,-0.019922190048546503,0.0010096786109205361,-0.019060169943543172,-0.005546136742912565, ,0.02142732499848708, ,0.019086811963750984, ,7.859063622164902e-05, ,0.15006814521193068,-0.24753675681751822,0.09631693958000001,1.608321866526302,0.1317175857738846,-1.3138018510394545, ,0.039052239324473575,0.004876477098845152,0.02115380015936255,0.009782954883916813,0.01817866383118975,-0.004404832706010315, ,0.940471887588501
0.01182519056446946,0.022031113845725682,-0.08619253451357961, ,0.012361398247442578,0.022160449762595708,-0.08698617578638324, ,0.0009664951777269077, ,0.006282950945341563,0.004770862362174741,-0.019922190048546503,0.0010096786109205361,-0.019060169943543172,-0.005546136742912565, ,0.02142732499848708, ,0.019086811963750984, ,8.082717159067991e-05, ,0.15006814521193068,-0.24753675681751822,0.09631693958000001,1.608321866526302,0.1317175857738846,-1.3138018510394545, ,0.039052239324473575,0.004876477098845152,0.02115380015936255,0.009782954883916813,0.01817866383118975,-0.004404832706010315, ,0.9429030418395996
0.011878640099168735,0.022072906515720806,-0.08636284681210825, ,0.012399818002808793,0.022172744050546218,-0.0870847713909143, ,0.0008959737931920578, ,0.006446065853558645,0.0050357421223390705,-0.020614086678789327,0.05109781719941111,0.03204326761409591,0.010024319283276855, ,0.02142732499848708, ,0.060313797754368445, ,0.0004518405604752326, ,0.15006814521193068,-0.24753675681751822,0.09631693958000001,1.608321866526302,0.1317175857738846,-1.3138018510394545, ,0.039052239324473575,0.004876477098845152,0.02115380015936255,0.009782954883916813,0.01817866383118975,-0.004404832706010315, ,0.9463498592376709
0.011878640099168735,0.022072906515720806,-0.08636284681210825, ,0.012438483067489932,0.02218448496285139,-0.08718320970097324, ,0.000999434424296896, ,0.006446065853558645,0.0050357421223390705,-0.020614086678789327,0.05109781719941111,0.03204326761409591,0.010024319283276855, ,0.02217771479011655, ,0.060313797754368445, ,0.00045924047755390373, ,0.15043883638989344,-0.2475058658860213,0.09649842018000002,1.608321866526302,0.13226413177294635,-1.3142475226542403, ,0.045733465811311214,0.004140481881590459,0.02197077451034483,0.009782954883916813,0.07801203689108004,-0.05374367112747136, ,0.948930025100708
0.011878640099168735,0.022072906515720806,-0.08636284681210825, ,0.012477391690702,0.022195677837886705,-0.08728149162281829, ,0.0011033968253327813, ,0.006446065853558645,0.0050357421223390705,-0.020614086678789327,0.05109781719941111,0.03204326761409591,0.010024319283276855, ,0.02217771479011655, ,0.060313797754368445, ,0.0004678292288576221, ,0.15043883638989344,-0.2475058658860213,0.09649842018000002,1.608321866526302,0.13226413177294635,-1.3142475226542403, ,0.045733465811311214,0.004140481881590459,0.02197077451034483,0.009782954883916813,0.07801203689108004,-0.05374367112747136, ,0.9519469738006592
0.011941299861338054,0.022119929032004576,-0.08655768786146226, ,0.012516542128353743,0.022206327994109955,-0.08737961805679986, ,0.0010069447315627362, ,0.007355953246695632,0.005536940500617584,-0.02315459067953507,0.022878771222529494,-0.0022324922789310744,-0.0008630458713040635, ,0.024917921819681586, ,0.022987290811532488, ,0.0004749228538932157, ,0.15085586396510156,-0.24745952948877598,0.09670582658000001,1.6085315564697864,0.1326740412722427,-1.3145817763653294, ,0.04797620907910555,0.005823705489030253,0.024619492302936634,0.01180782430841666,0.044336320477331465,-0.02689560806400216, ,0.9542398452758789
0.011941299861338054,0.022119929032004576,-0.08655768786146226, ,0.0125559326430359,0.02221644073009058,-0.08747758989737248, ,0.0011105438847145313, ,0.007355953246695632,0.005536940500617584,-0.02315459067953507,0.022878771222529494,-0.0022324922789310744,-0.0008630458713040635, ,0.024917921819681586, ,0.022987290811532488, ,0.0004831776724753107, ,0.15085586396510156,-0.24745952948877598,0.09670582658000001,1.6085315564697864,0.1326740412722427,-1.3145817763653294, ,0.04797620907910555,0.005823705489030253,0.024619492302936634,0.01180782430841666,0.044336320477331465,-0.02689560806400216, ,0.9564969539642334
0.011941299861338054,0.022119929032004576,-0.08655768786146226, ,0.012595561504010335,0.02222602132453953,-0.08757540803311017, ,0.0012145238653013869, ,0.007355953246695632,0.005536940500617584,-0.02315459067953507,0.022878771222529494,-0.0022324922789310744,-0.0008630458713040635, ,0.024917921819681586, ,0.022987290811532488, ,0.0004925539057166707, ,0.15085586396510156,-0.24745952948877598,0.09670582658000001,1.6085315564697864,0.1326740412722427,-1.3145817763653294, ,0.04797620907910555,0.005823705489030253,0.024619492302936634,0.01180782430841666,0.044336320477331465,-0.02689560806400216, ,0.9587328433990479
0.011941299861338054,0.022119929032004576,-0.08655768786146226, ,0.01263542698719924,0.022235075036339213,-0.08767307334671831, ,0.0013187705827362194, ,0.007355953246695632,0.005536940500617584,-0.02315459067953507,0.022878771222529494,-0.0022324922789310744,-0.0008630458713040635, ,0.024917921819681586, ,0.022987290811532488, ,0.0005030123446662852, ,0.15085586396510156,-0.24745952948877598,0.09670582658000001,1.6085315564697864,0.1326740412722427,-1.3145817763653294, ,0.04797620907910555,0.005823705489030253,0.024619492302936634,0.01180782430841666,0.044336320477331465,-0.02689560806400216, ,0.9609839916229248
0.012050486946483526,0.02219766285405728,-0.08689479840674998, ,0.012675527375174031,0.022243607104572783,-0.0877705867150482, ,0.0010769361970910368, ,0.010078854199251142,0.007157020950281843,-0.03180342758606218,0.00667417349508875,-0.026457790916472324,-0.00865271660085221, ,0.034121316754698025, ,0.027286017584316705, ,0.0005101863928215946, ,0.15155090992378178,-0.2473436884956626,0.09706360262000001,1.6087412464132707,0.133083950771539,-1.3148343513362781, ,0.06222750266129232,0.01262767020072798,0.03367613429175476,0.015794904607168942,0.032996674363776256,-0.016828042801200375, ,0.9631919860839844
0.012050486946483526,0.02219766285405728,-0.08689479840674998, ,0.012715860957144748,0.02225162274855442,-0.08786794900910999, ,0.0011801086132857443, ,0.010078854199251142,0.007157020950281843,-0.03180342758606218,0.00667417349508875,-0.026457790916472324,-0.00865271660085221, ,0.034121316754698025, ,0.027286017584316705, ,0.0005184570375186829, ,0.15155090992378178,-0.2473436884956626,0.09706360262000001,1.6087412464132707,0.133083950771539,-1.3148343513362781, ,0.06222750266129232,0.01262767020072798,0.03367613429175476,0.015794904607168942,0.032996674363776256,-0.016828042801200375, ,0.9654459953308105
0.012050486946483526,0.02219766285405728,-0.08689479840674998, ,0.012756426028949053,0.022259127167858533,-0.0879651610940865, ,0.0012836682330203545, ,0.010078854199251142,0.007157020950281843,-0.03180342758606218,0.00667417349508875,-0.026457790916472324,-0.00865271660085221, ,0.034121316754698025, ,0.027286017584316705, ,0.0005277888813662642, ,0.15155090992378178,-0.2473436884956626,0.09706360262000001,1.6087412464132707,0.133083950771539,-1.3148343513362781, ,0.06222750266129232,0.01262767020072798,0.03367613429175476,0.015794904607168942,0.032996674363776256,-0.016828042801200375, ,0.9677059650421143
0.012050486946483526,0.02219766285405728,-0.08689479840674998, ,0.012797220893041387,0.022266125542349854,-0.08806222382934689, ,0.0013875088626584377, ,0.010078854199251142,0.007157020950281843,-0.03180342758606218,0.00667417349508875,-0.026457790916472324,-0.00865271660085221, ,0.034121316754698025, ,0.027286017584316705, ,0.0005381469534300254, ,0.15155090992378178,-0.2473436884956626,0.09706360262000001,1.6087412464132707,0.133083950771539,-1.3148343513362781, ,0.06222750266129232,0.01262767020072798,0.03367613429175476,0.015794904607168942,0.032996674363776256,-0.016828042801200375, ,0.970012903213501
0.012050486946483526,0.02219766285405728,-0.08689479840674998, ,0.012838243858482066,0.022272623032212984,-0.08815913806845917, ,0.0014915544780132975, ,0.010078854199251142,0.007157020950281843,-0.03180342758606218,0.00667417349508875,-0.026457790916472324,-0.00865271660085221, ,0.034121316754698025, ,0.027286017584316705, ,0.0005494970430083977, ,0.15155090992378178,-0.2473436884956626,0.09706360262000001,1.6087412464132707,0.133083950771539,-1.3148343513362781, ,0.06222750266129232,0.01262767020072798,0.03367613429175476,0.015794904607168942,0.032996674363776256,-0.016828042801200375, ,0.9722428321838379
0.012158872073887945,0.02228168682003375,-0.08727668005377301, ,0.012879493240926448,0.02227862477798246,-0.08825590465920523, ,0.0012158063457513872, ,0.011383046832546234,0.009240603321105281,-0.041730521977694876,0.0909516563689866,0.057701414230126945,0.0170636413769311, ,0.04423119905067958, ,0.10771040083667828, ,0.0005573359759818446, ,0.15223823314958776,-0.24717378837242965,0.09746674881,1.6089509363567556,0.13431367926942794,-1.3156737549892648, ,0.06891571645495335,0.017547511382853324,0.04400224176795581,0.013778714318326774,0.1276281410338617,-0.10619957206208601, ,0.9744918346405029
0.012158872073887945,0.02228168682003375,-0.08727668005377301, ,0.012920967362614062,0.022284135900571888,-0.08835252444359294, ,0.001318421927230069, ,0.011383046832546234,0.009240603321105281,-0.041730521977694876,0.0909516563689866,0.057701414230126945,0.0170636413769311, ,0.04423119905067958, ,0.10771040083667828, ,0.0005661858126242658, ,0.15223823314958776,-0.24717378837242965,0.09746674881,1.6089509363567556,0.13431367926942794,-1.3156737549892648, ,0.06891571645495335,0.017547511382853324,0.04400224176795581,0.013778714318326774,0.1276281410338617,-0.10619957206208601, ,0.9767169952392578
0.012158872073887945,0.02228168682003375,-0.08727668005377301, ,0.012962664552357743,0.022289161501304368,-0.08844899825787045, ,0.0014214317398183291, ,0.011383046832546234,0.009240603321105281,-0.041730521977694876,0.0909516563689866,0.057701414230126945,0.0170636413769311, ,0.04423119905067958, ,0.10771040083667828, ,0.0005760162255805195, ,0.15223823314958776,-0.24717378837242965,0.09746674881,1.6089509363567556,0.13431367926942794,-1.3156737549892648, ,0.06891571645495335,0.017547511382853324,0.04400224176795581,0.013778714318326774,0.1276281410338617,-0.10619957206208601, ,0.9789869785308838
0.012158872073887945,0.02228168682003375,-0.08727668005377301, ,0.013004583145532739,0.022293706661941623,-0.08854532693253972, ,0.001524741485074303, ,0.011383046832546234,0.009240603321105281,-0.041730521977694876,0.0909516563689866,0.057701414230126945,0.0170636413769311, ,0.04423119905067958, ,0.10771040083667828, ,0.0005867971944384033, ,0.15223823314958776,-0.24717378837242965,0.09746674881,1.6089509363567556,0.13431367926942794,-1.3156737549892648, ,0.06891571645495335,0.017547511382853324,0.04400224176795581,0.013778714318326774,0.1276281410338617,-0.10619957206208601, ,0.9813618659973145
0.012253095250296178,0.022354257725435922,-0.08760973228612438, ,0.013046721484065769,0.022297776444714312,-0.08864151129236934, ,0.0013029200480946998, ,0.01298027014345749,0.00979929540983912,-0.04536582504164142,0.06662132318718315,0.03879191507871482,-0.0001819646502107471, ,0.04819306677557725, ,0.07709099316429655, ,0.0005948435186367887, ,0.15223823314958776,-0.24717378837242965,0.09746674881,1.6089509363567556,0.13431367926942794,-1.3156737549892648, ,0.06891571645495335,0.017547511382853324,0.04400224176795581,0.013778714318326774,0.1276281410338617,-0.10619957206208601, ,0.9840049743652344
0.012253095250296178,0.022354257725435922,-0.08760973228612438, ,0.013089077916424377,0.02230137589235128,-0.08873755215640909, ,0.0014048633976818591, ,0.01298027014345749,0.00979929540983912,-0.04536582504164142,0.06662132318718315,0.03879191507871482,-0.0001819646502107471, ,0.04819306677557725, ,0.07709099316429655, ,0.0006038437395150673, ,0.1528174381151546,-0.24701933371494517,0.09781804340000001,1.6091606263002398,0.13527013476778604,-1.3165353590552802, ,0.07862215539227074,0.021860617728281684,0.04783426882882884,0.0273751692858828,0.11460710765383603,-0.08411171378045718, ,0.9868290424346924
0.012253095250296178,0.022354257725435922,-0.08760973228612438, ,0.01313165079760576,0.022304510028109348,-0.08883345033800205, ,0.0015072559681716332, ,0.01298027014345749,0.00979929540983912,-0.04536582504164142,0.06662132318718315,0.03879191507871482,-0.0001819646502107471, ,0.04819306677557725, ,0.07709099316429655, ,0.0006137713464233812, ,0.1528174381151546,-0.24701933371494517,0.09781804340000001,1.6091606263002398,0.13527013476778604,-1.3165353590552802, ,0.07862215539227074,0.021860617728281684,0.04783426882882884,0.0273751692858828,0.11460710765383603,-0.08411171378045718, ,0.9892749786376953
0.012253095250296178,0.022354257725435922,-0.08760973228612438, ,0.013174438489126097,0.0223071838558034,-0.08892920664479963, ,0.0016100005888636283, ,0.01298027014345749,0.00979929540983912,-0.04536582504164142,0.06662132318718315,0.03879191507871482,-0.0001819646502107471, ,0.04819306677557725, ,0.07709099316429655, ,0.0006245999251455578, ,0.1528174381151546,-0.24701933371494517,0.09781804340000001,1.6091606263002398,0.13527013476778604,-1.3165353590552802, ,0.07862215539227074,0.021860617728281684,0.04783426882882884,0.0273751692858828,0.11460710765383603,-0.08411171378045718, ,0.9917628765106201
0.012349483230955312,0.022424076494449736,-0.08793806323228147, ,0.013217439359009653,0.022309402359835806,-0.08902482187877357, ,0.0013955437481863065, ,0.014271567284246266,0.01003012004949696,-0.04749502381906658,0.04079044627485674,0.010486549804112885,-0.0062326362303187855, ,0.050597017980606236, ,0.042113971009475434, ,0.0006328896436728777, ,0.15339664308072143,-0.24684943359171221,0.09816415283,1.6093703162437245,0.13595331726661325,-1.317010769833622, ,0.08658480069203538,0.025292361822620145,0.05009060226415095,0.02737956015497406,0.09352614474650499,-0.06165905782777686, ,0.9948978424072266
0.012349483230955312,0.022424076494449736,-0.08793806323228147, ,0.013260651781777847,0.022311170505226265,-0.08912029683623106, ,0.0014968808184749396, ,0.014271567284246266,0.01003012004949696,-0.04749502381906658,0.04079044627485674,0.010486549804112885,-0.0062326362303187855, ,0.050597017980606236, ,0.042113971009475434, ,0.0006420810391494954, ,0.15339664308072143,-0.24684943359171221,0.09816415283,1.6093703162437245,0.13595331726661325,-1.317010769833622, ,0.08658480069203538,0.025292361822620145,0.05009060226415095,0.02737956015497406,0.09352614474650499,-0.06165905782777686, ,0.9972188472747803
0.012349483230955312,0.022424076494449736,-0.08793806323228147, ,0.013304074138438343,0.02231249323764156,-0.08921563230782684, ,0.0015987111579766505, ,0.014271567284246266,0.01003012004949696,-0.04749502381906658,0.04079044627485674,0.010486549804112885,-0.0062326362303187855, ,0.050597017980606236, ,0.042113971009475434, ,0.0006521508298739917, ,0.15339664308072143,-0.24684943359171221,0.09816415283,1.6093703162437245,0.13595331726661325,-1.317010769833622, ,0.08658480069203538,0.025292361822620145,0.05009060226415095,0.02737956015497406,0.09352614474650499,-0.06165905782777686, ,0.9998419284820557
0.012349483230955312,0.022424076494449736,-0.08793806323228147, ,0.013347704816474331,0.02231337548342515,-0.08931082907857725, ,0.0017009371288775324, ,0.014271567284246266,0.01003012004949696,-0.04749502381906658,0.04079044627485674,0.010486549804112885,-0.0062326362303187855, ,0.050597017980606236, ,0.042113971009475434, ,0.0006630756871552785, ,0.15339664308072143,-0.24684943359171221,0.09816415283,1.6093703162437245,0.13595331726661325,-1.317010769833622, ,0.08658480069203538,0.025292361822620145,0.05009060226415095,0.02737956015497406,0.09352614474650499,-0.06165905782777686, ,1.00221586227417
0.012587440243412212,0.02256605244325724,-0.088663543692605, ,0.01339154220983347,0.02231382214962697,-0.08940588792787366, ,0.0011230650279765424, ,0.015351962682693277,0.006770303961299016,-0.04086801057323199,-0.0050681391467728085,-0.04322826496177046,-0.01545136525192082, ,0.044178208000698604, ,0.043523038987410737, ,0.0006678178453080751, ,0.154894853258321,-0.24634745595488763,0.09892896393000002,1.6093703162437245,0.1370464092647368,-1.3176570768427713, ,0.10474276110206487,0.041989797149765834,0.04305084194594595,0.024579159927933913,0.05741753583045023,-0.03271506311182465, ,1.0047509670257568
0.012587440243412212,0.02256605244325724,-0.088663543692605, ,0.013435584718917166,0.022313838124033446,-0.08950080962949644, ,0.0012181852745907743, ,0.015351962682693277,0.006770303961299016,-0.04086801057323199,-0.0050681391467728085,-0.04322826496177046,-0.01545136525192082, ,0.044178208000698604, ,0.043523038987410737, ,0.0006734338394844292, ,0.154894853258321,-0.24634745595488763,0.09892896393000002,1.6093703162437245,0.1370464092647368,-1.3176570768427713, ,0.10474276110206487,0.041989797149765834,0.04305084194594595,0.024579159927933913,0.05741753583045023,-0.03271506311182465, ,1.0071308612823486
0.012587440243412212,0.02256605244325724,-0.088663543692605, ,0.01347983075056955,0.022313428275196615,-0.08959559495162744, ,0.0013148761679330026, ,0.015351962682693277,0.006770303961299016,-0.04086801057323199,-0.0050681391467728085,-0.04322826496177046,-0.01545136525192082, ,0.044178208000698604, ,0.043523038987410737, ,0.0006799130549233037, ,0.154894853258321,-0.24634745595488763,0.09892896393000002,1.6093703162437245,0.1370464092647368,-1.3176570768427713, ,0.10474276110206487,0.041989797149765834,0.04305084194594595,0.024579159927933913,0.05741753583045023,-0.03271506311182465, ,1.0094029903411865
0.012587440243412212,0.02256605244325724,-0.088663543692605, ,0.013524278718066737,0.022312597452464653,-0.08969024465686477, ,0.0014128059420750743, ,0.015351962682693277,0.006770303961299016,-0.04086801057323199,-0.0050681391467728085,-0.04322826496177046,-0.01545136525192082, ,0.044178208000698604, ,0.043523038987410737, ,0.0006872419837948214, ,0.154894853258321,-0.24634745595488763,0.09892896393000002,1.6093703162437245,0.1370464092647368,-1.3176570768427713, ,0.10474276110206487,0.041989797149765834,0.04305084194594595,0.024579159927933913,0.05741753583045023,-0.03271506311182465, ,1.011641025543213
0.012587440243412212,0.02256605244325724,-0.088663543692605, ,0.013568927041105825,0.022311350486010673,-0.0897847595022352, ,0.001511725607653985, ,0.015895281139328216,0.006036150034978507,-0.042334543171747285,0.09325308410240601,0.047778549841788656,0.025402517798892285, ,0.04562136139248355, ,0.10477972866827671, ,0.0006954051879914468, ,0.154894853258321,-0.24634745595488763,0.09892896393000002,1.6093703162437245,0.1370464092647368,-1.3176570768427713, ,0.10474276110206487,0.041989797149765834,0.04305084194594595,0.024579159927933913,0.05741753583045023,-0.03271506311182465, ,1.0143468379974365
0.012745806648319147,0.02262961435268055,-0.0890862954924533, ,0.013613774145794157,0.02230969218686339,-0.0898791402392078, ,0.0012183269517294579, ,0.015895281139328216,0.006036150034978507,-0.042334543171747285,0.09325308410240601,0.047778549841788656,0.025402517798892285, ,0.04562136139248355, ,0.10477972866827671, ,0.0007005318719496627, ,0.15604554045658045,-0.24584547831806305,0.09937359140000002,1.609580006187209,0.13841277426239118,-1.3186078983994545, ,0.11832536353924038,0.053463065666744095,0.044493886927374306,0.010214508990207585,0.16936416760460257,-0.14445311890774476, ,1.0172040462493896
0.012745806648319147,0.02262961435268055,-0.0890862954924533, ,0.013658818464638272,0.02230762734693615,-0.0899733876137085, ,0.0013130874457551007, ,0.015895281139328216,0.006036150034978507,-0.042334543171747285,0.09325308410240601,0.047778549841788656,0.025402517798892285, ,0.04562136139248355, ,0.10477972866827671, ,0.0007064790134429194, ,0.15604554045658045,-0.24584547831806305,0.09937359140000002,1.609580006187209,0.13841277426239118,-1.3186078983994545, ,0.11832536353924038,0.053463065666744095,0.044493886927374306,0.010214508990207585,0.16936416760460257,-0.14445311890774476, ,1.0195119380950928
0.012745806648319147,0.02262961435268055,-0.0890862954924533, ,0.013704058436533209,0.022305160739057157,-0.09006750236613228, ,0.0014093557272610846, ,0.015895281139328216,0.006036150034978507,-0.042334543171747285,0.09325308410240601,0.047778549841788656,0.025402517798892285, ,0.04562136139248355, ,0.10477972866827671, ,0.0007132374433834787, ,0.15604554045658045,-0.24584547831806305,0.09937359140000002,1.609580006187209,0.13841277426239118,-1.3186078983994545, ,0.11832536353924038,0.053463065666744095,0.044493886927374306,0.010214508990207585,0.16936416760460257,-0.14445311890774476, ,1.0218088626861572
0.012905603043846013,0.02268290464531783,-0.08948261902986265, ,0.013749492506751518,0.02230229711699875,-0.09016148523135709, ,0.001506836039466637, ,0.016646869953604145,0.004417592175648806,-0.03718210791789901,0.06418485416079439,0.005111482103926471,0.003916965941824406, ,0.04088525674324845, ,0.06438751187618087, ,0.0007207955252509373, ,0.15727345498358214,-0.2453048870168673,0.09979099678000002,1.6099993860741781,0.14005241225957646,-1.3199449132438117, ,0.13089233318409763,0.05689265081443092,0.03923352591133005,0.022719202730635664,0.13506839602924273,-0.11683790281261114, ,1.0264849662780762
0.012905603043846013,0.02268290464531783,-0.08948261902986265, ,0.013795119126932374,0.022299041215507572,-0.09025533693875801, ,0.001239226759532978, ,0.016646869953604145,0.004417592175648806,-0.03718210791789901,0.06418485416079439,0.005111482103926471,0.003916965941824406, ,0.040977341898918364, ,0.06438751187618087, ,0.0007256863859517113, ,0.15727345498358214,-0.2453048870168673,0.09979099678000002,1.6099993860741781,0.14005241225957646,-1.3199449132438117, ,0.13089233318409763,0.05689265081443092,0.03923352591133005,0.022719202730635664,0.13506839602924273,-0.11683790281261114, ,1.0295569896697998
0.012905603043846013,0.02268290464531783,-0.08948261902986265, ,0.013840936755070699,0.022295397750333977,-0.09034905821221949, ,0.0013325642955356975, ,0.016646869953604145,0.004417592175648806,-0.03718210791789901,0.06418485416079439,0.005111482103926471,0.003916965941824406, ,0.040977341898918364, ,0.06438751187618087, ,0.0007313581421160476, ,0.15727345498358214,-0.2453048870168673,0.09979099678000002,1.6099993860741781,0.14005241225957646,-1.3199449132438117, ,0.13089233318409763,0.05689265081443092,0.03923352591133005,0.022719202730635664,0.13506839602924273,-0.11683790281261114, ,1.03193998336792
0.012905603043846013,0.02268290464531783,-0.08948261902986265, ,0.013886943855506439,0.022291371418261825,-0.09044264977015015, ,0.0014275808484342295, ,0.016646869953604145,0.004417592175648806,-0.03718210791789901,0.06418485416079439,0.005111482103926471,0.003916965941824406, ,0.040977341898918364, ,0.06438751187618087, ,0.0007378046486560307, ,0.15727345498358214,-0.2453048870168673,0.09979099678000002,1.6099993860741781,0.14005241225957646,-1.3199449132438117, ,0.13089233318409763,0.05689265081443092,0.03923352591133005,0.022719202730635664,0.13506839602924273,-0.11683790281261114, ,1.0347979068756104
0.012905603043846013,0.02268290464531783,-0.08948261902986265, ,0.01393313889891343,0.022286966897138456,-0.0905361123254954, ,0.001523956940935543, ,0.016646869953604145,0.004417592175648806,-0.03718210791789901,0.06418485416079439,0.005111482103926471,0.003916965941824406, ,0.040977341898918364, ,0.06438751187618087, ,0.0007450170550072189, ,0.15727345498358214,-0.2453048870168673,0.09979099678000002,1.6099993860741781,0.14005241225957646,-1.3199449132438117, ,0.13089233318409763,0.05689265081443092,0.03923352591133005,0.022719202730635664,0.13506839602924273,-0.11683790281261114, ,1.0373129844665527
0.013008407760925206,0.022704630867047364,-0.08969636077095099, ,0.01397952036228867,0.02228218884590405,-0.09062944658575123, ,0.001411441137113409, ,0.017013639600685207,0.0030617051532070183,-0.03416215355160649,0.026132104321433827,-0.01363268712543107,-0.04912181532746522, ,0.03828695216638063, ,0.029473556033504704, ,0.0007510754557536387, ,0.15809206466824993,-0.24493419583890455,0.10001655124000002,1.6104187659611469,0.14073559475840366,-1.3205020027622938, ,0.13693642360529693,0.06364650674612392,0.03603803511312218,0.06998514526528263,0.1100156384612131,-0.07819496034305289, ,1.0398650169372559
0.013008407760925206,0.022704630867047364,-0.08969636077095099, ,0.014026086728941518,0.022277041904621615,-0.09072265325297789, ,0.001507242203959276, ,0.017013639600685207,0.0030617051532070183,-0.03416215355160649,0.026132104321433827,-0.01363268712543107,-0.04912181532746522, ,0.03828695216638063, ,0.029473556033504704, ,0.0007578877688005364, ,0.15809206466824993,-0.24493419583890455,0.10001655124000002,1.6104187659611469,0.14073559475840366,-1.3205020027622938, ,0.13693642360529693,0.06364650674612392,0.03603803511312218,0.06998514526528263,0.1100156384612131,-0.07819496034305289, ,1.0421030521392822
0.013258803927121329,0.022729025135747295,-0.09016269441310715, ,0.014072836488482541,0.02227153069450664,-0.0908157330238128, ,0.0016042376744052147, ,0.01743251675547949,0.0003104467837238569,-0.030155610238741175,-0.03658428626435199,-0.09585219522175292,0.003156349497553551, ,0.03483317164006845, ,0.10259643460426729, ,0.0007654444643862924, ,0.16000730242105762,-0.2439456860310038,0.10048451193,1.610838145848116,0.14182868675652718,-1.3213116672517247, ,0.13934940023270306,0.078687347892596,0.03160478476190477,-0.003922636772407896,0.047521388964869786,-0.04316484479126177, ,1.045069932937622
0.013258803927121329,0.022729025135747295,-0.09016269441310715, ,0.014119768136812982,0.02226565981795682,-0.09090868658948487, ,0.0012298256442755643, ,0.01743251675547949,0.0003104467837238569,-0.030155610238741175,-0.03658428626435199,-0.09585219522175292,0.003156349497553551, ,0.03483317164006845, ,0.10259643460426729, ,0.0007695540323499144, ,0.16000730242105762,-0.2439456860310038,0.10048451193,1.610838145848116,0.14182868675652718,-1.3213116672517247, ,0.13934940023270306,0.078687347892596,0.03160478476190477,-0.003922636772407896,0.047521388964869786,-0.04316484479126177, ,1.0473339557647705
0.013258803927121329,0.022729025135747295,-0.09016269441310715, ,0.014166880176113537,0.022259433858581847,-0.09100151463582729, ,0.001322398505601809, ,0.01743251675547949,0.0003104467837238569,-0.030155610238741175,-0.03658428626435199,-0.09585219522175292,0.003156349497553551, ,0.03483317164006845, ,0.10259643460426729, ,0.0007744035452731767, ,0.16000730242105762,-0.2439456860310038,0.10048451193,1.610838145848116,0.14182868675652718,-1.3213116672517247, ,0.13934940023270306,0.078687347892596,0.03160478476190477,-0.003922636772407896,0.047521388964869786,-0.04316484479126177, ,1.049574851989746
0.013258803927121329,0.022729025135747295,-0.09016269441310715, ,0.014214171114833784,0.02225285738123305,-0.09109421784329148, ,0.0014167561874857426, ,0.01743251675547949,0.0003104467837238569,-0.030155610238741175,-0.03658428626435199,-0.09585219522175292,0.003156349497553551, ,0.03483317164006845, ,0.10259643460426729, ,0.0007799892204228511, ,0.16000730242105762,-0.2439456860310038,0.10048451193,1.610838145848116,0.14182868675652718,-1.3213116672517247, ,0.13934940023270306,0.078687347892596,0.03160478476190477,-0.003922636772407896,0.047521388964869786,-0.04316484479126177, ,1.0518219470977783
0.013258803927121329,0.022729025135747295,-0.09016269441310715, ,0.014261639467681093,0.022245934932032987,-0.0911867968869604, ,0.0015125611205127768, ,0.01743251675547949,0.0003104467837238569,-0.030155610238741175,-0.03658428626435199,-0.09585219522175292,0.003156349497553551, ,0.03483317164006845, ,0.10259643460426729, ,0.0007863044954236263, ,0.16000730242105762,-0.2439456860310038,0.10048451193,1.610838145848116,0.14182868675652718,-1.3213116672517247, ,0.13934940023270306,0.078687347892596,0.03160478476190477,-0.003922636772407896,0.047521388964869786,-0.04316484479126177, ,1.0541129112243652
0.013430188072834194,0.02272400412900019,-0.09046287711223235, ,0.01430928375560972,0.022238671038405624,-0.09127925243656204, ,0.0012941507247902224, ,0.01767463274926128,-0.0007928921365863841,-0.032038341885829096,0.02955034694548861,-0.011788535534051084,0.027354157395472325, ,0.03659886161555836, ,0.03181444355477755, ,0.0007906450614865887, ,0.16152868079727983,-0.24301123535322264,0.10081895475000001,1.610838145848116,0.14278514225488526,-1.322009913837459, ,0.14850851574095583,0.09614685061648508,0.03325430379958247,-0.0065307891630588776,0.14313750118484045,-0.12535703627299313, ,1.0563278198242188
0.013430188072834194,0.02272400412900019,-0.09046287711223235, ,0.014357102505810244,0.02223107020910567,-0.09137158515648257, ,0.001388490016214361, ,0.01767463274926128,-0.0007928921365863841,-0.032038341885829096,0.02955034694548861,-0.011788535534051084,0.027354157395472325, ,0.03659886161555836, ,0.03181444355477755, ,0.0007957115441537732, ,0.16152868079727983,-0.24301123535322264,0.10081895475000001,1.610838145848116,0.14278514225488526,-1.322009913837459, ,0.14850851574095583,0.09614685061648508,0.03325430379958247,-0.0065307891630588776,0.14313750118484045,-0.12535703627299313, ,1.0585529804229736
0.013430188072834194,0.02272400412900019,-0.09046287711223235, ,0.014405094251698225,0.022223136934248395,-0.09146379570578114, ,0.0014843005205407362, ,0.01767463274926128,-0.0007928921365863841,-0.032038341885829096,0.02955034694548861,-0.011788535534051084,0.027354157395472325, ,0.03659886161555836, ,0.03181444355477755, ,0.0008014980061402182, ,0.16152868079727983,-0.24301123535322264,0.10081895475000001,1.610838145848116,0.14278514225488526,-1.322009913837459, ,0.14850851574095583,0.09614685061648508,0.03325430379958247,-0.0065307891630588776,0.14313750118484045,-0.12535703627299313, ,1.0607860088348389
0.013430188072834194,0.02272400412900019,-0.09046287711223235, ,0.014453257532903689,0.022214875685339423,-0.09155588473820125, ,0.0015813122913256297, ,0.01767463274926128,-0.0007928921365863841,-0.032038341885829096,0.02955034694548861,-0.011788535534051084,0.027354157395472325, ,0.03659886161555836, ,0.03181444355477755, ,0.0008079964585167632, ,0.16152868079727983,-0.24301123535322264,0.10081895475000001,1.610838145848116,0.14278514225488526,-1.322009913837459, ,0.14850851574095583,0.09614685061648508,0.03325430379958247,-0.0065307891630588776,0.14313750118484045,-0.12535703627299313, ,1.0630388259887695
0.013607281730455677,0.022714894463560953,-0.09078727536959096, ,0.014501590895260041,0.022206290915304492,-0.09164785290218655, ,0.0013412904760567196, ,0.01819222090449421,-0.0010889669855583825,-0.0334042934731759,0.09646263876852972,0.06565987588903731,0.04017137431862799, ,0.03805245817257558, ,0.11668855294241073, ,0.0008124038470914736, ,0.1630655046392505,-0.24203044827819614,0.10115599015000001,1.6106284559046316,0.14483468975136687,-1.3236811823929053, ,0.15922305630615904,0.10259128817131975,0.03470329307189543,0.002148451655464915,0.23203279562157714,-0.19727628542385253, ,1.0652940273284912
0.013607281730455677,0.022714894463560953,-0.09078727536959096, ,0.014550092890793313,0.022197387058518907,-0.09173970084089259, ,0.0014366005278833366, ,0.01819222090449421,-0.0010889669855583825,-0.0334042934731759,0.09646263876852972,0.06565987588903731,0.04017137431862799, ,0.03805245817257558, ,0.11668855294241073, ,0.0008175202133274725, ,0.1630655046392505,-0.24203044827819614,0.10115599015000001,1.6106284559046316,0.14483468975136687,-1.3236811823929053, ,0.15922305630615904,0.10259128817131975,0.03470329307189543,0.002148451655464915,0.23203279562157714,-0.19727628542385253, ,1.0686469078063965
0.013607281730455677,0.022714894463560953,-0.09078727536959096, ,0.014598762077711247,0.02218816853083778,-0.09183142919220111, ,0.001533209278757637, ,0.01819222090449421,-0.0010889669855583825,-0.0334042934731759,0.09646263876852972,0.06565987588903731,0.04017137431862799, ,0.03805245817257558, ,0.11668855294241073, ,0.0008233388236155225, ,0.1630655046392505,-0.24203044827819614,0.10115599015000001,1.6106284559046316,0.14483468975136687,-1.3236811823929053, ,0.15922305630615904,0.10259128817131975,0.03470329307189543,0.002148451655464915,0.23203279562157714,-0.19727628542385253, ,1.0710899829864502
0.013607281730455677,0.022714894463560953,-0.09078727536959096, ,0.014647597020392242,0.022178639729625145,-0.09192303858873323, ,0.0016308841565545905, ,0.01819222090449421,-0.0010889669855583825,-0.0334042934731759,0.09646263876852972,0.06565987588903731,0.04017137431862799, ,0.03805245817257558, ,0.11668855294241073, ,0.0008298512859779344, ,0.1630655046392505,-0.24203044827819614,0.10115599015000001,1.6106284559046316,0.14483468975136687,-1.3236811823929053, ,0.15922305630615904,0.10259128817131975,0.03470329307189543,0.002148451655464915,0.23203279562157714,-0.19727628542385253, ,1.073415994644165
0.013607281730455677,0.022714894463560953,-0.09078727536959096, ,0.01469659628937478,0.02216880503378421,-0.09201452965786378, ,0.0017294429628267683, ,0.01819222090449421,-0.0010889669855583825,-0.0334042934731759,0.09646263876852972,0.06565987588903731,0.04017137431862799, ,0.03805245817257558, ,0.11668855294241073, ,0.0008370480193927251, ,0.1630655046392505,-0.24203044827819614,0.10115599015000001,1.6106284559046316,0.14483468975136687,-1.3236811823929053, ,0.15922305630615904,0.10259128817131975,0.03470329307189543,0.002148451655464915,0.23203279562157714,-0.19727628542385253, ,1.0757410526275635
0.013607281730455677,0.022714894463560953,-0.09078727536959096, ,0.014745758461346294,0.022158668803786863,-0.09210590302173297, ,0.0018287414077348542, ,0.01819222090449421,-0.0010889669855583825,-0.0334042934731759,0.09646263876852972,0.06565987588903731,0.04017137431862799, ,0.03805245817257558, ,0.11668855294241073, ,0.0008449186018398848, ,0.1630655046392505,-0.24203044827819614,0.10115599015000001,1.6106284559046316,0.14483468975136687,-1.3236811823929053, ,0.15922305630615904,0.10259128817131975,0.03470329307189543,0.002148451655464915,0.23203279562157714,-0.19727628542385253, ,1.0781118869781494
0.013607281730455677,0.022714894463560953,-0.09078727536959096, ,0.01479508211913244,0.022148235381703425,-0.09219715929726216, ,0.0019286640370727779, ,0.01819222090449421,-0.0010889669855583825,-0.0334042934731759,0.09646263876852972,0.06565987588903731,0.04017137431862799, ,0.03805245817257558, ,0.11668855294241073, ,0.0008534520304637658, ,0.1630655046392505,-0.24203044827819614,0.10115599015000001,1.6106284559046316,0.14483468975136687,-1.3236811823929053, ,0.15922305630615904,0.10259128817131975,0.03470329307189543,0.002148451655464915,0.23203279562157714,-0.19727628542385253, ,1.0813870429992676
0.013792057033268959,0.02270242970180024,-0.09112201081339795, ,0.014844565851686076,0.02213750909123218,-0.0922882990961655, ,0.0016694725117866595, ,0.020629573293827898,-0.001500318763219689,-0.03710593996364618,0.027978838467215026,-0.007284848995171992,0.01940204323977869, ,0.04248153753411476, ,0.0289104493990668, ,0.000859827190474101, ,0.1649575741934355,-0.24077164281969754,0.10157339553000001,1.610838145848116,0.1470208737476139,-1.3255455475921887, ,0.17098548028553293,0.11586928151217434,0.03847539014492755,0.004173740124214468,0.1681870815966636,-0.14156101829512982, ,1.0856389999389648
0.01383039105589063,0.022699203580252885,-0.09118956894832775, ,0.014894208254076492,0.02212649423772945,-0.09237932302496464, ,0.0016956467158708933, ,0.020629573293827898,-0.001500318763219689,-0.03710593996364618,0.027978838467215026,-0.007284848995171992,0.01940204323977869, ,0.04248153753411476, ,0.0289104493990668, ,0.0008663064116012079, ,0.1649575741934355,-0.24077164281969754,0.10157339553000001,1.610838145848116,0.1470208737476139,-1.3255455475921887, ,0.17098548028553293,0.11586928151217434,0.03847539014492755,0.004173740124214468,0.1681870815966636,-0.14156101829512982, ,1.0879290103912354
0.01383039105589063,0.022699203580252885,-0.09118956894832775, ,0.014944007927478482,0.022115195108239206,-0.09247023168500133, ,0.0017947995646236219, ,0.020629573293827898,-0.001500318763219689,-0.03710593996364618,0.027978838467215026,-0.007284848995171992,0.01940204323977869, ,0.04248153753411476, ,0.0289104493990668, ,0.0008734486666244573, ,0.1649575741934355,-0.24077164281969754,0.10157339553000001,1.610838145848116,0.1470208737476139,-1.3255455475921887, ,0.17098548028553293,0.11586928151217434,0.03847539014492755,0.004173740124214468,0.1681870815966636,-0.14156101829512982, ,1.090221881866455
0.01383039105589063,0.022699203580252885,-0.09118956894832775, ,0.014993963479161466,0.022103615971522633,-0.09256102567245168, ,0.001894602578382638, ,0.020629573293827898,-0.001500318763219689,-0.03710593996364618,0.027978838467215026,-0.007284848995171992,0.01940204323977869, ,0.04248153753411476, ,0.0289104493990668, ,0.0008812437346531457, ,0.1649575741934355,-0.24077164281969754,0.10157339553000001,1.610838145848116,0.1470208737476139,-1.3255455475921887, ,0.17098548028553293,0.11586928151217434,0.03847539014492755,0.004173740124214468,0.1681870815966636,-0.14156101829512982, ,1.0925159454345703
0.01383039105589063,0.022699203580252885,-0.09118956894832775, ,0.015044073522478614,0.02209176107808801,-0.09265170557833934, ,0.0019949574050493056, ,0.022231026900221527,-0.0033562633329364605,-0.03469977570905403,-0.09604548489468194,-0.1281658889453006,-0.06605314027429054, ,0.04134679546055586, ,0.16015985748689943, ,0.0008896809594288742, ,0.16823973566498093,-0.23853205028617244,0.10230579938,1.6116769056220543,0.14907042124409553,-1.3271351374074944, ,0.17671683716661224,0.12806604798714005,0.035875701621621625,0.05599052628003083,0.03647192312556594,-0.021076604779913275, ,1.095099925994873
0.014238609619840716,0.02266682588271786,-0.09189520033701687, ,0.015094336676855946,0.02207963466022053,-0.0927422719885487, ,0.001339624093062947, ,0.022231026900221527,-0.0033562633329364605,-0.03469977570905403,-0.09604548489468194,-0.1281658889453006,-0.06605314027429054, ,0.04134679546055586, ,0.16015985748689943, ,0.0008930639905088296, ,0.16823973566498093,-0.23853205028617244,0.10230579938,1.6116769056220543,0.14907042124409553,-1.3271351374074944, ,0.17671683716661224,0.12806604798714005,0.035875701621621625,0.05599052628003083,0.03647192312556594,-0.021076604779913275, ,1.0976388454437256
0.014238609619840716,0.02266682588271786,-0.09189520033701687, ,0.0151447515677814,0.022067240932011584,-0.09283272548383849, ,0.001435112798303353, ,0.022231026900221527,-0.0033562633329364605,-0.03469977570905403,-0.09604548489468194,-0.1281658889453006,-0.06605314027429054, ,0.04134679546055586, ,0.16015985748689943, ,0.0008971091308655052, ,0.16823973566498093,-0.23853205028617244,0.10230579938,1.6116769056220543,0.14907042124409553,-1.3271351374074944, ,0.17671683716661224,0.12806604798714005,0.035875701621621625,0.05599052628003083,0.03647192312556594,-0.021076604779913275, ,1.0998718738555908
0.014238609619840716,0.02266682588271786,-0.09189520033701687, ,0.0151953168267942,0.022054584089389245,-0.09292306663985629, ,0.0015318739601702732, ,0.022231026900221527,-0.0033562633329364605,-0.03469977570905403,-0.09604548489468194,-0.1281658889453006,-0.06605314027429054, ,0.04134679546055586, ,0.16015985748689943, ,0.000901811092564059, ,0.16823973566498093,-0.23853205028617244,0.10230579938,1.6116769056220543,0.14907042124409553,-1.3271351374074944, ,0.17671683716661224,0.12806604798714005,0.035875701621621625,0.05599052628003083,0.03647192312556594,-0.021076604779913275, ,1.1021299362182617
0.014238609619840716,0.02266682588271786,-0.09189520033701687, ,0.015246031091473492,0.022041668310147217,-0.09301329602715024, ,0.001629680331949789, ,0.022231026900221527,-0.0033562633329364605,-0.03469977570905403,-0.09604548489468194,-0.1281658889453006,-0.06605314027429054, ,0.04134679546055586, ,0.16015985748689943, ,0.0009071630722654248, ,0.16823973566498093,-0.23853205028617244,0.10230579938,1.6116769056220543,0.14907042124409553,-1.3271351374074944, ,0.17671683716661224,0.12806604798714005,0.035875701621621625,0.05599052628003083,0.03647192312556594,-0.021076604779913275, ,1.1043879985809326
0.01445209522879665,0.022618851101268336,-0.09224070410220017, ,0.01529689300542801,0.022028497753975057,-0.09310341421118405, ,0.0013440495118129563, ,0.02124863395043042,-0.004943016065437022,-0.03694141430123409,0.010495262856176987,0.004441759041449296,0.052073639546965235, ,0.04290228365900789, ,0.011393461682250026, ,0.0009103520243789104, ,0.16999279602742992,-0.23711879017018936,0.10265968655,1.6118865955655386,0.1503001497419845,-1.3280562198006216, ,0.1760611160639532,0.14758466805360929,0.03774599886255925,-0.02982511007947082,0.19378253180283528,-0.16072409090833079, ,1.1066229343414307
0.01445209522879665,0.022618851101268336,-0.09224070410220017, ,0.01534790121828478,0.02201507656248769,-0.0931934217523498, ,0.0014403759875078557, ,0.02124863395043042,-0.004943016065437022,-0.03694141430123409,0.010495262856176987,0.004441759041449296,0.052073639546965235, ,0.04290228365900789, ,0.011393461682250026, ,0.0009141927777349172, ,0.16999279602742992,-0.23711879017018936,0.10265968655,1.6118865955655386,0.1503001497419845,-1.3280562198006216, ,0.1760611160639532,0.14758466805360929,0.03774599886255925,-0.02982511007947082,0.19378253180283528,-0.16072409090833079, ,1.108896017074585
0.01445209522879665,0.022618851101268336,-0.09224070410220017, ,0.015399054385678446,0.022001408859255316,-0.09328331920598149, ,0.0015378598185976729, ,0.02124863395043042,-0.004943016065437022,-0.03694141430123409,0.010495262856176987,0.004441759041449296,0.052073639546965235, ,0.04290228365900789, ,0.011393461682250026, ,0.0009186795909785341, ,0.16999279602742992,-0.23711879017018936,0.10265968655,1.6118865955655386,0.1503001497419845,-1.3280562198006216, ,0.1760611160639532,0.14758466805360929,0.03774599886255925,-0.02982511007947082,0.19378253180283528,-0.16072409090833079, ,1.1111559867858887
0.01445209522879665,0.022618851101268336,-0.09224070410220017, ,0.01545035116924028,0.021987498749832756,-0.09337310712236858, ,0.0016362937738623761, ,0.02124863395043042,-0.004943016065437022,-0.03694141430123409,0.010495262856176987,0.004441759041449296,0.052073639546965235, ,0.04290228365900789, ,0.011393461682250026, ,0.0009238054065705615, ,0.16999279602742992,-0.23711879017018936,0.10265968655,1.6118865955655386,0.1503001497419845,-1.3280562198006216, ,0.1760611160639532,0.14758466805360929,0.03774599886255925,-0.02982511007947082,0.19378253180283528,-0.16072409090833079, ,1.1135399341583252
0.014636864200018376,0.022578599496587463,-0.09257211921556438, ,0.015501790236587381,0.021973350321789736,-0.09346278604676972, ,0.0013811991226965275, ,0.02124863395043042,-0.004943016065437022,-0.03694141430123409,0.010495262856176987,0.004441759041449296,0.052073639546965235, ,0.04290228365900789, ,0.011393461682250026, ,0.0009270493336352846, ,0.1715605108008975,-0.23583681651306806,0.10299931453000001,1.6118865955655386,0.15262297023799698,-1.3299503241634607, ,0.17804304232358495,0.14422027592472764,0.03866216388349515,-0.021761562578861783,0.2783470340049291,-0.22977760406535144, ,1.116529941558838
0.014636864200018376,0.022578599496587463,-0.09257211921556438, ,0.015553370261311737,0.021958967644740188,-0.09355235651942585, ,0.001478104246693298, ,0.020922861817258026,-0.004500578099128459,-0.0376841192768453,0.08421121444120476,0.08637695366155271,0.06533354020195202, ,0.043337214902689956, ,0.12063345624376992, ,0.0009309300020371016, ,0.1715605108008975,-0.23583681651306806,0.10299931453000001,1.6118865955655386,0.15262297023799698,-1.3299503241634607, ,0.17804304232358495,0.14422027592472764,0.03866216388349515,-0.021761562578861783,0.2783470340049291,-0.22977760406535144, ,1.118973970413208
0.014636864200018376,0.022578599496587463,-0.09257211921556438, ,0.015605089922969351,0.02194435477037201,-0.09364181907557388, ,0.0015760663735453536, ,0.020922861817258026,-0.004500578099128459,-0.0376841192768453,0.08421121444120476,0.08637695366155271,0.06533354020195202, ,0.043337214902689956, ,0.12063345624376992, ,0.0009354414451945019, ,0.1715605108008975,-0.23583681651306806,0.10299931453000001,1.6118865955655386,0.15262297023799698,-1.3299503241634607, ,0.17804304232358495,0.14422027592472764,0.03866216388349515,-0.021761562578861783,0.2783470340049291,-0.22977760406535144, ,1.1213710308074951
0.014636864200018376,0.022578599496587463,-0.09257211921556438, ,0.015656947907069438,0.021929515732477103,-0.09373117424546047, ,0.0016748997177592872, ,0.020922861817258026,-0.004500578099128459,-0.0376841192768453,0.08421121444120476,0.08637695366155271,0.06533354020195202, ,0.043337214902689956, ,0.12063345624376992, ,0.0009405765720873128, ,0.1715605108008975,-0.23583681651306806,0.10299931453000001,1.6118865955655386,0.15262297023799698,-1.3299503241634607, ,0.17804304232358495,0.14422027592472764,0.03866216388349515,-0.021761562578861783,0.2783470340049291,-0.22977760406535144, ,1.1237578392028809
0.014636864200018376,0.022578599496587463,-0.09257211921556438, ,0.01570894290506333,0.021914454546980777,-0.09382042255435531, ,0.0017744583651175144, ,0.021805714027361048,-0.004660157966475855,-0.03774534308257996,0.08077723342536504,0.07643718358184161,0.05985252432268487, ,0.043839675648175425, ,0.11120938745554126, ,0.0009463274810047626, ,0.1728810981223899,-0.2347710793764251,0.10328190575000001,1.6118865955655386,0.1546725177344786,-1.331621592718907, ,0.18570830050581366,0.14554745637802266,0.03885075980487805,-0.017820747046311397,0.27488364589353836,-0.2270241868051343, ,1.1266908645629883
0.014791861393750869,0.022544524267272378,-0.09284736244430769, ,0.015761073614333834,0.021899175211971475,-0.0939095645225638, ,0.0015761094463128903, ,0.021805714027361048,-0.004660157966475855,-0.03774534308257996,0.08077723342536504,0.07643718358184161,0.05985252432268487, ,0.043839675648175425, ,0.11120938745554126, ,0.0009506410561096127, ,0.1728810981223899,-0.2347710793764251,0.10328190575000001,1.6118865955655386,0.1546725177344786,-1.331621592718907, ,0.18570830050581366,0.14554745637802266,0.03885075980487805,-0.017820747046311397,0.27488364589353836,-0.2270241868051343, ,1.1292648315429688
0.014791861393750869,0.022544524267272378,-0.09284736244430769, ,0.015813338738184215,0.021883681707730862,-0.09399860066544222, ,0.0016749562070373573, ,0.021805714027361048,-0.004660157966475855,-0.03774534308257996,0.08077723342536504,0.07643718358184161,0.05985252432268487, ,0.043839675648175425, ,0.11120938745554126, ,0.0009555683700615022, ,0.1728810981223899,-0.2347710793764251,0.10328190575000001,1.6118865955655386,0.1546725177344786,-1.331621592718907, ,0.18570830050581366,0.14554745637802266,0.03885075980487805,-0.017820747046311397,0.27488364589353836,-0.2270241868051343, ,1.1318109035491943
0.014791861393750869,0.022544524267272378,-0.09284736244430769, ,0.01586573698582732,0.021867977996762985,-0.09408753149340987, ,0.0017745261096272225, ,0.021805714027361048,-0.004660157966475855,-0.03774534308257996,0.08077723342536504,0.07643718358184161,0.05985252432268487, ,0.043839675648175425, ,0.11120938745554126, ,0.0009611018683018111, ,0.1728810981223899,-0.2347710793764251,0.10328190575000001,1.6118865955655386,0.1546725177344786,-1.331621592718907, ,0.18570830050581366,0.14554745637802266,0.03885075980487805,-0.017820747046311397,0.27488364589353836,-0.2270241868051343, ,1.1342289447784424
0.015112940043722765,0.022483500208913577,-0.09341424794662978, ,0.01591826707237472,0.02185206802382464,-0.094176357511963, ,0.0012759581564518372, ,0.02341471300155051,-0.004839491082148448,-0.04191424427392945,-0.0688765773373097,-0.061503322920743037,0.0019242449528508202, ,0.048254257137933444, ,0.09233911562038591, ,0.0009632149977524825, ,0.17545276816950664,-0.2326936642332587,0.10386523625,1.6116769056220543,0.1574052477297874,-1.3336865933125543, ,0.17770962838664942,0.1558242061715448,0.04293480194070081,0.0,0.11979702180776283,-0.08456009138023897, ,1.1365180015563965
0.015112940043722765,0.022483500208913577,-0.09341424794662978, ,0.015970927718825828,0.02183595571595458,-0.09426507922168864, ,0.0013709013748656649, ,0.02341471300155051,-0.004839491082148448,-0.04191424427392945,-0.0688765773373097,-0.061503322920743037,0.0019242449528508202, ,0.048254257137933444, ,0.09233911562038591, ,0.0009659329069332371, ,0.17545276816950664,-0.2326936642332587,0.10386523625,1.6116769056220543,0.1574052477297874,-1.3336865933125543, ,0.17770962838664942,0.1558242061715448,0.04293480194070081,0.0,0.11979702180776283,-0.08456009138023897, ,1.1388380527496338
0.015112940043722765,0.022483500208913577,-0.09341424794662978, ,0.016023717652056978,0.021819644982503494,-0.09435369711827751, ,0.0014672369813989088, ,0.02341471300155051,-0.004839491082148448,-0.04191424427392945,-0.0688765773373097,-0.061503322920743037,0.0019242449528508202, ,0.048254257137933444, ,0.09233911562038591, ,0.0009692528014661224, ,0.17545276816950664,-0.2326936642332587,0.10386523625,1.6116769056220543,0.1574052477297874,-1.3336865933125543, ,0.17770962838664942,0.1558242061715448,0.04293480194070081,0.0,0.11979702180776283,-0.08456009138023897, ,1.1410338878631592
0.015112940043722765,0.022483500208913577,-0.09341424794662978, ,0.01607663560481061,0.021803139715163625,-0.09444221169253789, ,0.0015647073204971978, ,0.02341471300155051,-0.004839491082148448,-0.04191424427392945,-0.0688765773373097,-0.061503322920743037,0.0019242449528508202, ,0.048254257137933444, ,0.09233911562038591, ,0.0009731702654071164, ,0.17545276816950664,-0.2326936642332587,0.10386523625,1.6116769056220543,0.1574052477297874,-1.3336865933125543, ,0.17770962838664942,0.1558242061715448,0.04293480194070081,0.0,0.11979702180776283,-0.08456009138023897, ,1.1432838439941406
0.015349733679690157,0.022428594657405387,-0.09382753490645061, ,0.01612968031568429,0.021786443787998697,-0.09453062343040912, ,0.001230856598715092, ,0.022430564137877702,-0.006245556197876704,-0.037836283621811705,-0.08770036786293571,-0.0732022932964872,-0.005922793357592108, ,0.044426585937639394, ,0.11423595197748215, ,0.0009748544898078221, ,0.17723671946345249,-0.23108733579542,0.10428782679000001,1.6118865955655386,0.1583617032281455,-1.3343848398982887, ,0.1716038726192962,0.15869053772319527,0.038568550895883784,0.002424166354738538,0.10083908072960207,-0.06808615055716066, ,1.14556884765625
0.015349733679690157,0.022428594657405387,-0.09382753490645061, ,0.016182850529119927,0.021769561057473193,-0.09461893281297441, ,0.001324658302013627, ,0.022430564137877702,-0.006245556197876704,-0.037836283621811705,-0.08770036786293571,-0.0732022932964872,-0.005922793357592108, ,0.044426585937639394, ,0.11423595197748215, ,0.0009771259431338337, ,0.17723671946345249,-0.23108733579542,0.10428782679000001,1.6118865955655386,0.1583617032281455,-1.3343848398982887, ,0.1716038726192962,0.15869053772319527,0.038568550895883784,0.002424166354738538,0.10083908072960207,-0.06808615055716066, ,1.1480770111083984
0.015349733679690157,0.022428594657405387,-0.09382753490645061, ,0.016236144995392724,0.021752495362482662,-0.09470714031647559, ,0.0014200496310149762, ,0.022430564137877702,-0.006245556197876704,-0.037836283621811705,-0.08770036786293571,-0.0732022932964872,-0.005922793357592108, ,0.044426585937639394, ,0.11423595197748215, ,0.000979983515313712, ,0.17723671946345249,-0.23108733579542,0.10428782679000001,1.6118865955655386,0.1583617032281455,-1.3343848398982887, ,0.1716038726192962,0.15869053772319527,0.038568550895883784,0.002424166354738538,0.10083908072960207,-0.06808615055716066, ,1.1503479480743408
0.015349733679690157,0.022428594657405387,-0.09382753490645061, ,0.016289562470600552,0.02173525052438318,-0.09479524641232616, ,0.0015167299699103745, ,0.022430564137877702,-0.006245556197876704,-0.037836283621811705,-0.08770036786293571,-0.0732022932964872,-0.005922793357592108, ,0.044426585937639394, ,0.11423595197748215, ,0.0009834241977149725, ,0.17723671946345249,-0.23108733579542,0.10428782679000001,1.6118865955655386,0.1583617032281455,-1.3343848398982887, ,0.1716038726192962,0.15869053772319527,0.038568550895883784,0.002424166354738538,0.10083908072960207,-0.06808615055716066, ,1.152616024017334
0.015349733679690157,0.022428594657405387,-0.09382753490645061, ,0.016343101716652868,0.02171783034702079,-0.0948832515671234, ,0.0016144669799651372, ,0.022430564137877702,-0.006245556197876704,-0.037836283621811705,-0.08770036786293571,-0.0732022932964872,-0.005922793357592108, ,0.044426585937639394, ,0.11423595197748215, ,0.0009874435784936362, ,0.17723671946345249,-0.23108733579542,0.10428782679000001,1.6118865955655386,0.1583617032281455,-1.3343848398982887, ,0.1716038726192962,0.15869053772319527,0.038568550895883784,0.002424166354738538,0.10083908072960207,-0.06808615055716066, ,1.1548800468444824
0.0155617946530489,0.02235980756057808,-0.09418329005045942, ,0.016396761501259835,0.021700238616761746,-0.09497115624266442, ,0.0013239841260671906, ,0.020888776578285,-0.0075665181316119995,-0.03451919817037257,0.014675592333177874,0.026935715205261723,-0.018049083083639804, ,0.041050800551255685, ,0.030673388333011767, ,0.0009895735819592914, ,0.17892027523003345,-0.22948873009045553,0.10464949170000001,1.6125156653959922,0.16000134122533075,-1.3356401760025052, ,0.16915675857124915,0.16333380646896864,0.03500837696703297,0.0375544776527861,0.1934352725833356,-0.16879617446911466, ,1.1570899486541748
0.0155617946530489,0.02235980756057808,-0.09418329005045942, ,0.016450540597921497,0.02168247910252183,-0.09505896089595713, ,0.0014196628558481815, ,0.020888776578285,-0.0075665181316119995,-0.03451919817037257,0.014675592333177874,0.026935715205261723,-0.018049083083639804, ,0.041050800551255685, ,0.030673388333011767, ,0.0009922785459460142, ,0.17892027523003345,-0.22948873009045553,0.10464949170000001,1.6125156653959922,0.16000134122533075,-1.3356401760025052, ,0.16915675857124915,0.16333380646896864,0.03500837696703297,0.0375544776527861,0.1934352725833356,-0.16879617446911466, ,1.1594219207763672
0.0155617946530489,0.02235980756057808,-0.09418329005045942, ,0.01650443778591691,0.0216645555557964,-0.09514666597923561, ,0.001516589794981347, ,0.020888776578285,-0.0075665181316119995,-0.03451919817037257,0.014675592333177874,0.026935715205261723,-0.018049083083639804, ,0.041050800551255685, ,0.030673388333011767, ,0.0009955554912524848, ,0.17892027523003345,-0.22948873009045553,0.10464949170000001,1.6125156653959922,0.16000134122533075,-1.3356401760025052, ,0.16915675857124915,0.16333380646896864,0.03500837696703297,0.0375544776527861,0.1934352725833356,-0.16879617446911466, ,1.1618750095367432
0.0155617946530489,0.02235980756057808,-0.09418329005045942, ,0.016558451850293227,0.021646471710689803,-0.09523427193997257, ,0.001614539109355787, ,0.020888776578285,-0.0075665181316119995,-0.03451919817037257,0.014675592333177874,0.026935715205261723,-0.018049083083639804, ,0.041050800551255685, ,0.030673388333011767, ,0.0009994001099984683, ,0.17892027523003345,-0.22948873009045553,0.10464949170000001,1.6125156653959922,0.16000134122533075,-1.3356401760025052, ,0.16915675857124915,0.16333380646896864,0.03500837696703297,0.0375544776527861,0.1934352725833356,-0.16879617446911466, ,1.1644108295440674
0.01573700560839015,0.022291793729048402,-0.0944687436926658, ,0.016612581581854795,0.021628231283945348,-0.09532177922089331, ,0.0013909054663341104, ,0.020423566570353036,-0.008518675150656796,-0.032832609566610146,0.02850016526407463,0.0581865917826589,-0.011719905557616317, ,0.0395938145261292, ,0.06479120874400371, ,0.0010018168097289352, ,0.1803567035446392,-0.2280909154402209,0.10493856437000001,1.6125156653959922,0.1617776157222815,-1.3371702874906992, ,0.16945882421155498,0.16795918859906334,0.033185024,0.0375544776527861,0.22588313051496467,-0.18707702902970874, ,1.1669199466705322
