NicholasDascanio/dvrk_moveit_final/test/execution/third_experiment_notsharpbends/thirdexp_500vel5.0/thirdexp_500vel5.0_3.csv
Current Position (x),Current Position (y),Current Position (z), ,Planned Position (x),Planned Position (y),Planned Position (z), ,Position Error,,Cartesian linear Velocity(x),Cartesian linear Velocity(y),Cartesian linear Velocity(z),Cartesian Angular Velocity(x),Cartesian Angular Velocity(y),Cartesian Angular Velocity(z), ,Total Linear Velocity, ,Total Angular Velocity, ,MSE, ,Joint 1 Position,Joint 2 Position,Joint 3 Position,Joint 4 Position,Joint 5 Position,Joint 6 Position, ,Joint 1 Velocity,Joint 2 Velocity,Joint 3 Velocity,Joint 4 Velocity,Joint 5 Velocity,Joint 6 Velocity, ,Time Stamp
0.008746927046959346,0.01978085369518935,-0.0797183283806925, ,0.008886438297517372,0.019734159606446505,-0.07980961465438886, ,0.00017313841492042463, ,2.0675412181812788e-05,3.5241347217895244e-06,3.143025204410462e-06,-0.3966311843301128,0.0006869192795041997,-0.0034837138431946008, ,2.1207800495589698e-05, ,0.39663177916198855, ,1.442820124336872e-05, ,0.12130096525544437,-0.24149757970987465,0.0891458633,1.6001439587304052,0.10616656031774722,-1.3174703250903923, ,0.0002610258232782496,-5.553847715625987e-05,0.0,-0.0009932333910391972,0.0,0.3965963271110411, ,0.02263498306274414
0.008715248309308051,0.019786226777907284,-0.079739072800865, ,0.008962604391912979,0.01976838110321881,-0.0799251351252366, ,0.0003100365918037817, ,-0.0019010037284206281,0.0006645903007600365,-0.0026219089352573265,-0.21384693546281183,0.2718526816620184,0.06807185883237774, ,0.0033060402157438513, ,0.34588204974173326, ,2.1962500305645742e-05, ,0.12140136078280929,-0.24149757970987465,0.08916790023000001,1.6001439587304052,0.11081220130977221,-1.3070464330316127, ,0.0046005097132362895,-5.423551912310821e-05,0.002744454086836665,-0.0009932333910391972,0.2846709578022605,0.21383937130884823, ,0.04895901679992676
0.00871138956684956,0.019801866204553507,-0.07979885139598057, ,0.009038579802923793,0.01980219775781451,-0.08004021742369945, ,0.000406584701933885, ,0.001114679459657208,0.0011011303275632344,-0.004286253359766259,0.2515011280959336,0.022110060779062555,-0.0026931611720941904, ,0.004563657103701892, ,0.2524711314581022, ,2.7804990895565355e-05, ,0.12157126090604223,-0.24150530244274887,0.08923141844000002,1.599934268786921,0.11354493130508102,-1.3056809265393565, ,0.010828551114904592,-1.917120355317895e-05,0.0045471914130745085,0.011753311719815916,0.03130127515199371,-0.25010291716493627, ,0.07055902481079102
0.008817768700584143,0.019845919210107987,-0.07996457679060204, ,0.009114365214073375,0.019835611889492785,-0.08015486466130543, ,0.00035254107052805177, ,0.005149682769488725,0.0017043835941122742,-0.0066779923045299635,0.14506233006766053,-0.2904122007930493,-0.07594202695968215, ,0.008603472396748277, ,0.3246264406372967, ,2.9578589980622455e-05, ,0.12211185220723794,-0.2415207479084973,0.08940901017000001,1.6003536486738899,0.10889929031305604,-1.318718538282634, ,0.022099893236718855,0.00013477170920843466,0.007155800323450135,0.01051849357853318,-0.2786704247498311,-0.14401731456016142, ,0.09573698043823242
0.008886681478328625,0.019871504779257358,-0.08006210785687579, ,0.009189961307456527,0.019868625811554116,-0.08026907993832111, ,0.0003671844028668631, ,0.0029492078553226887,0.001231054074944467,-0.004727549060813093,-0.2660834515826161,-0.023889109471403127,-0.005136052371403237, ,0.005706403528644744, ,0.2671536875191762, ,3.0951638116403964e-05, ,0.12264472077555943,-0.2415207479084973,0.08951530595000001,1.6005633386173743,0.10739628881563619,-1.3193715523652063, ,0.029636771254987752,0.0001284431799050726,0.005176734325641859,0.003266685432256502,0.0042676087176205905,0.2663634369820362, ,0.11769795417785645
0.008950457013242255,0.019902041085998884,-0.08017574053791005, ,0.00926536876374216,0.01990124183134673,-0.08038286634376923, ,0.0003769232665460318, ,0.0024866612275973544,0.0011647610346254419,-0.004347329244052055,-0.043794767162070744,0.07204654980357064,0.010759903617775526, ,0.005141928031858082, ,0.0843130296444481, ,3.2038845945145775e-05, ,0.12350194412459836,-0.2415207479084973,0.08964104608000001,1.6009827185043435,0.10958247281188324,-1.3160901569356342, ,0.03598670517954902,0.00012161183583124319,0.004837173252353478,0.01521449751951437,0.107424349225856,0.04555011860816572, ,0.141679048538208
0.00900823607732782,0.019920972146000804,-0.08024589025581937, ,0.009340588262175766,0.01993346225027351,-0.08049622695544423, ,0.00041627207527891437, ,0.003687716938447004,0.001127572995766837,-0.00417226695472012,-0.03441991933454835,-0.029842337002092843,-0.010925241506356823, ,0.0056814160752704105, ,0.045555415962089126, ,3.337056283163822e-05, ,0.12418154461753012,-0.2415207479084973,0.08972011977000001,1.6009827185043435,0.11026565531071043,-1.3150953503914455, ,0.03968922691696812,0.00011716064127937896,0.004701538229043684,0.012685003091681968,0.006916016983173836,0.035833526762990786, ,0.16709399223327637
0.009097683439635141,0.019948879251255117,-0.08035222790245533, ,0.009415620480582223,0.019965289363798575,-0.08060916483993077, ,0.00040910859638870376, ,0.004279244484347041,0.0014153119233647259,-0.005244033697319483,0.03785848121008951,-0.032791742253307186,-0.006620358964185576, ,0.006914834098939409, ,0.05008555635686064, ,3.42901112227641e-05, ,0.12514688622680817,-0.2415130251756231,0.08983937845000001,1.6009827185043435,0.11053892831024133,-1.3158082586396818, ,0.04562352959541864,0.0,0.005875622102545187,0.00999278456058033,0.010862370910973817,-0.03664841148330365, ,0.1889939308166504
0.009186997267560565,0.01997595523954403,-0.08045077744544435, ,0.009490466095368216,0.019996725461453806,-0.08072168305261898, ,0.0004073261341576151, ,0.004111289350574614,0.0010882493312777948,-0.003918070908320271,0.014285729766064762,-0.04099722158928266,-0.013245579533490651, ,0.005782583019187916, ,0.04341490817756538, ,3.499038320026381e-05, ,0.12662965093865927,-0.2415130251756231,0.09001178502000001,1.601611788334797,0.11081220130977221,-1.3160310944470748, ,0.04242152058939239,0.0,0.0054087645229202045,0.013129958321976035,0.004263601398818476,-0.013008074525391006, ,0.2129220962524414
0.009274978774658542,0.020004901021696265,-0.08055674987389808, ,0.00956512578152485,0.02002777282684573,-0.08083378463772198, ,0.000401816706261995, ,0.004041600742483826,0.0014946495645780525,-0.005673393815170839,0.015051124567480367,-0.034286244660618796,0.012209220176768386, ,0.0071243183017435366, ,0.03744439768237465, ,3.5850811491943226e-05, ,0.12706212397961586,-0.2415130251756231,0.09007011807000001,1.6018214782782818,0.11108547430930309,-1.3162539302544676, ,0.041712941344382755,0.0,0.006288516194236085,-0.009934602163656731,0.010158036662695174,-0.016269938361494575, ,0.23287200927734375
0.009401633389407438,0.02005463548159333,-0.08074048222268077, ,0.009639600212629959,0.020058433737662047,-0.0809454726282923, ,0.0003141077873860541, ,0.003408388835177879,0.0013326977433918829,-0.005040873403990359,0.019155719887437198,-0.012681627466644183,-0.012330581075605349, ,0.0062292537596460446, ,0.022973142500621598, ,3.577308861883927e-05, ,0.12835182036961135,-0.24152847064137153,0.09027363560000001,1.601611788334797,0.11135874730883397,-1.3163950873217198, ,0.035810166625838025,0.00025076520910177037,0.005581223377715488,0.017877446091335066,0.019481033163437116,-0.01718487142513519, ,0.25882601737976074
0.009468879878860095,0.020080902693445386,-0.08083849893628356, ,0.009713890060850692,0.02008871046567801,-0.0810567500462387, ,0.00032821410326638086, ,0.0033345899669711106,0.0012662654993016366,-0.004835826916751009,0.011894082587686474,-0.018828316890903744,0.0013985383092304574, ,0.006009004953510987, ,0.022270489776887167, ,3.5825662616291605e-05, ,0.12907775725978846,-0.24152847064137153,0.09038252396,1.6018214782782818,0.11190529330789573,-1.316922437676646, ,0.03473533732008447,0.0002252279626919454,0.0053578242583249246,0.0026281757590254245,0.015781845913606415,-0.011790206950336786, ,0.2802309989929199
0.00956330438621403,0.020114811739736987,-0.08096389196230383, ,0.009787995996945782,0.020118605276763422,-0.08116761990234228, ,0.000303324552927571, ,0.002802504144605594,0.000977877953260753,-0.0036464377826578606,0.015804022903582116,-0.007641459602657827,-0.010186361281552597, ,0.0047017851157618576, ,0.01755445938077615, ,3.5676393783330246e-05, ,0.13005854433481498,-0.24152847064137153,0.09052252328,1.6022408581652505,0.1121785663074266,-1.3168185585234766, ,0.030464507723425613,0.00019564452740504322,0.004087454842186297,0.01568694842190819,0.019702148774573637,-0.014020639754645244, ,0.3068099021911621
0.009618763977085729,0.020136213156309084,-0.08104694349067929, ,0.009861918690267844,0.020148120430889208,-0.08127808519627355, ,0.0003356970148744699, ,0.0028018858626563665,0.001342126999200238,-0.005055531986582428,0.015361790051651175,0.010401591050419033,-0.0030366917051046264, ,0.005933824478082742, ,0.018552026484153453, ,3.578303225650176e-05, ,0.1306609174990045,-0.2415207479084973,0.09061455987000001,1.6022408581652505,0.11272511230648836,-1.3171825513981217, ,0.0301547319855325,0.0,0.005517426920678906,0.013102780337369087,0.01277721392855831,0.007443746241902627, ,0.32703495025634766
0.00970967311659441,0.020176341724236768,-0.08119516077541636, ,0.009935658808765725,0.020177258182133596,-0.0813881489166085, ,0.00029717805370185855, ,0.002698475327232409,0.000986952553928568,-0.0037241952125498497,-0.007266971366946329,-0.009354106544172023,-0.007247467308294935, ,0.004703772360198504, ,0.011845175447047154, ,3.5612695019469864e-05, ,0.13155675451241453,-0.24152847064137153,0.09077529983,1.6024505481087352,0.11313502180578469,-1.3170267326683676, ,0.02841225795163796,0.0002286164269538023,0.004211742866208356,0.004926171947343368,0.017306698738950823,0.008229642501016501, ,0.35695505142211914
0.009758588063168368,0.020196208287154797,-0.08126976603727416, ,0.010009217018986698,0.02020602077868928,-0.08149781404084568, ,0.000338994174607254, ,0.0024885274616308125,0.0011343392886050071,-0.00431448502367369,0.04394982838940778,0.02701046708094195,0.004246529119418025, ,0.005108255628731609, ,0.0515863620145289, ,3.573192030612809e-05, ,0.1321205140122329,-0.24152847064137153,0.09086085497000002,1.6026602380522197,0.11381820430461188,-1.3171754284861468, ,0.029343519343992198,0.0002286164269538023,0.004770533548966757,0.010144233066233906,0.0557256486910094,-0.042878536414430665, ,0.37853002548217773
0.009823701380365821,0.020225268094481035,-0.08137936937396541, ,0.010082593986078725,0.020234410462869234,-0.08160708353542144, ,0.00034490970343002345, ,0.0029826220929895886,0.0013052024522674586,-0.005034953093841066,-0.020755657904124893,-0.0114292840358919,0.0038942176794699935, ,0.005995860292583067, ,0.02369442688419345, ,3.587413018829194e-05, ,0.132776946306542,-0.24152847064137153,0.09098140994000001,1.602869927995704,0.11422811380390821,-1.3170196097563927, ,0.030030677708376828,0.0002286164269538023,0.005530837333333334,0.0003792137788785182,0.018995993571077403,0.020582592558173907, ,0.401914119720459
0.009880356835882953,0.02024999750211903,-0.08147194914750717, ,0.010155790373792477,0.020262429471114136,-0.08171596035572794, ,0.00036818427097828205, ,0.0026457081201803376,0.0012910480615923633,-0.004944464062301781,0.025683930568844198,0.03335034180313995,0.012803751124709564, ,0.005754502708134161, ,0.04209405640819391, ,3.6136078739064504e-05, ,0.13338704220360573,-0.24152847064137153,0.09108381685000001,1.6030796179391889,0.11491129630273542,-1.3170049480938908, ,0.03117507935560801,0.00021080901686977826,0.00544574752820513,0.003513355904645542,0.06572033110192237,-0.025428978292312308, ,0.42296695709228516
0.00994278375768633,0.020276865150024255,-0.08157819224342543, ,0.010228806844483686,0.020290080033998275,-0.08182444744612792, ,0.00037765786659035855, ,0.0032935382099037406,0.0014419085302157593,-0.005327017464391034,0.003479645825261836,-0.009183775148724456,-0.00953026560120179, ,0.006426788406002798, ,0.009820878614561603, ,3.6625411538389605e-05, ,0.13402802903216637,-0.2415130251756231,0.09120048295000001,1.603289307882673,0.11545784230179718,-1.317042226007974, ,0.03337915636949376,-0.0002160211421642108,0.005886478758314857,0.015261634940694064,0.021175454512059436,-0.0012801408613073604, ,0.4422640800476074
0.010012799859318923,0.020306049131540854,-0.08168316386388069, ,0.010301644059115047,0.02031736437623652,-0.08193254773997204, ,0.00038177391761712694, ,0.003644192512818005,0.001365739305875563,-0.005261001484750748,-0.012021422935572698,-0.02604585512336997,-0.010566845376654366, ,0.006543968180289529, ,0.028686254103196307, ,3.709509738659071e-05, ,0.1347307977237208,-0.24152847064137153,0.09131714905,1.603289307882673,0.11573111530132807,-1.3171017043350859, ,0.036082487284589654,0.0005211054247142622,0.005834729494505496,0.012517098724044625,0.007206744686448587,0.013139689986581955, ,0.4601459503173828
0.010085519432810271,0.020339993287754876,-0.08181025675897062, ,0.010374302677258366,0.020344284716690527,-0.08204026415961484, ,0.0003692121111060508, ,0.0039032740449657065,0.0018371685256856913,-0.007109578463047252,0.01519565728776294,-0.0006354937213710304,-0.005926658196265195, ,0.00831605930619175, ,0.015208939296108727, ,3.74628706455416e-05, ,0.13548762554539479,-0.24152847064137153,0.09145714837,1.6037086877696423,0.11655093429992071,-1.3175251755368427, ,0.039213612214244124,0.0005211054247142622,0.007789149887530563,0.015330303392473762,0.03602972654539484,-0.013691578111309267, ,0.47880101203918457
0.010128944295895288,0.020359432361139167,-0.08188346405949622, ,0.010446783357096617,0.02037084326837544,-0.08214759961643067, ,0.0004134240801723722, ,0.004128209409192336,0.0018878506221430586,-0.007301792836406949,0.0005971481680010037,-0.015590231661787725,-0.010385928409200414, ,0.008597806204112412, ,0.015601663002595918, ,3.801760779192228e-05, ,0.13588920765485446,-0.24152847064137153,0.09153751835000001,1.6039183777131267,0.11655093429992071,-1.3172801393164209, ,0.03988942478287969,0.0005211054247142622,0.008000407594173784,0.01599846415201306,0.021091862058776986,0.0010000928469145898, ,0.496614933013916
0.010241624013342738,0.02040252884046969,-0.0820501865678579, ,0.010519086755425922,0.020397042238466313,-0.08225455701083073, ,0.0003446490301840054, ,0.0039059617884299722,0.0014694260871135512,-0.005481720973036294,0.009909983834615811,0.0051125379858121345,0.0002507542262397809, ,0.006889485854865433, ,0.01115104565989007, ,3.8207786983699876e-05, ,0.13707078578461082,-0.2415130251756231,0.09172288782000002,1.6039183777131267,0.1175073897982788,-1.3175699922014523, ,0.04282352958414746,0.00017609232301956163,0.006147746630644541,0.01153666047972184,0.046587000701946775,-0.00854821153184206, ,0.5193989276885986
0.010331352543115449,0.020428997793924143,-0.08214780432950959, ,0.010591213527657413,0.020422883828305118,-0.08236113923227877, ,0.0003362690776777471, ,0.004224239996245813,0.0011726262868903617,-0.0040559868439294065,-0.04363537033581091,-0.03951359112620701,-0.01708913402502375, ,0.005972460567698838, ,0.05886738848407269, ,3.834627920907611e-05, ,0.1380129591952662,-0.24150530244274887,0.09183436876,1.6043377576000957,0.11778066279780966,-1.3173027555680017, ,0.043791851203724405,-0.00037189274772361,0.004700150935379168,0.017068831096748047,0.0,0.046289968887677536, ,0.5390880107879639
0.01036594553084463,0.020441658012009836,-0.0821908885748778, ,0.01066316432781947,0.020448370233406333,-0.08246734915930697, ,0.0004059735483183134, ,0.003651832688066458,0.0013173987362328499,-0.0048600848246011024,0.02388306306445327,0.02295635876294513,0.007379575866817765, ,0.006220276996579535, ,0.03312695437679322, ,3.877948145643726e-05, ,0.13841454130472589,-0.2415130251756231,0.09188362778,1.6045474475435806,0.11832720879687143,-1.3176667484426468, ,0.04270789449076092,0.00013419126682904966,0.0055040813821700075,0.00912035672821002,0.06551866050109646,-0.02276819792698794, ,0.5572960376739502
0.010446396333107724,0.020469283010264145,-0.0822927859253608, ,0.010734939808559354,0.020473503643464185,-0.08257318965953275, ,0.0004023697368191259, ,0.003942470880697564,0.0013370483254612356,-0.004953003666071771,-0.013255689760279216,-0.014067076655716599,-0.0012448556022386864, ,0.006470163845366463, ,0.019328630413914655, ,3.916823202676481e-05, ,0.13927948738663903,-0.2415130251756231,0.09199770130000001,1.6045474475435806,0.11914702779546407,-1.3177635046838416, ,0.041804820069810913,0.00013419126682904966,0.005581223377715488,0.007724072404563241,0.02717861639983958,0.013594716626310593, ,0.5750799179077148
0.010527629129705235,0.02049907681861902,-0.08240340485334116, ,0.010806540621145241,0.020498286242359005,-0.08267866358967423, ,0.00039186683579474693, ,0.0033821591654310647,0.0016104562643391336,-0.006066468194767862,0.03863532196546722,0.05375180388467001,0.017671280111910857, ,0.007129839153710871, ,0.06619625756804516, ,3.948872582097145e-05, ,0.14016760166717485,-0.2415130251756231,0.09212344143000001,1.6045474475435806,0.11996684679405671,-1.3178602609250363, ,0.040519616378510155,0.00013419126682904966,0.006738075939086295,0.006260123419089667,0.0957543829782054,-0.037922267166140666, ,0.5929949283599854
0.01059131123604679,0.02052673119448196,-0.08250718961502757, ,0.010877967415468072,0.020522720208163772,-0.08278377379556709, ,0.00039835494491266283, ,0.004119995812966223,0.001693152411667686,-0.0064088896902344825,-0.028728120516497768,-0.01645921828309502,-0.010817360762592685, ,0.007804806060985062, ,0.03310907374253758, ,3.997259036131217e-05, ,0.14085492489298082,-0.24150530244274887,0.09223881124000001,1.605176517374034,0.1209233022924148,-1.3181501138100677, ,0.04160321857013186,0.0002954091013348399,0.00703880314626602,0.01590600271333771,0.026662853913534474,0.038299047715868936, ,0.6136600971221924
0.010688896135398392,0.020564565567276455,-0.0826491479272955, ,0.010949220840043388,0.020546807713149973,-0.08288852311217983, ,0.0003540971227927291, ,0.004036776035447618,0.0015479027889236314,-0.005834708296433404,-0.01966028083424956,-0.026417496295232122,-0.011008630250528378, ,0.007261913295323109, ,0.032930392439627004, ,4.0259420439549795e-05, ,0.14180482103651046,-0.24150530244274887,0.09239695862000001,1.605176517374034,0.12119657529194568,-1.317147768515352, ,0.039100511560968595,0.00026198190775444637,0.00650155572244898,0.013487098037463447,0.00965340068255912,0.021257047273949708, ,0.6297988891601562
0.010721329783546998,0.02057883876271076,-0.08270503322424658, ,0.011020301542013245,0.020570550923795256,-0.08299291436363078, ,0.0004151245006590621, ,0.003169109484301463,0.0014781538285573725,-0.005524220756952022,0.07656968732569489,0.05930148714822952,0.013374567883881373, ,0.006537982000274081, ,0.09684824928723115, ,4.076058043046037e-05, ,0.14219868041309588,-0.24149757970987465,0.09245918054,1.605176517374034,0.12215303079030376,-1.3178460151010865, ,0.038892189163307694,0.00015835650827796693,0.006166787270615564,0.012018906854923555,0.09853448864346709,-0.07506704599377738, ,0.646014928817749
0.010793633174333914,0.020609147010386436,-0.08282038678263769, ,0.011091210167147836,0.02059395200078883,-0.08309695036320318, ,0.00040653458532338157, ,0.003981701485532292,0.001434856156236099,-0.005377916206044491,-0.016836869204964876,-0.027022658393286637,0.000981908886958744, ,0.006843591281499405, ,0.031838722128358636, ,4.120457501767707e-05, ,0.14296323096764413,-0.24148985697700043,0.09258751325,1.6053862073175185,0.12310948628866183,-1.3180541892459776, ,0.039020123996081735,0.00012507501988938267,0.006095986039035591,0.0017517722735012294,0.012243903027101107,0.017992179664091907, ,0.6643381118774414
0.010873353981097641,0.020638174113443288,-0.08293277560701019, ,0.011161947359847543,0.020617013099038517,-0.08320063391336191, ,0.00039431205798267646, ,0.0039559842173701645,0.001685289632070421,-0.00651441985868902,0.033339471673387355,-0.004435381264666218,-0.004079525376987122, ,0.007805618384684698, ,0.03363321225650874, ,4.158271799217328e-05, ,0.1437741179194377,-0.24147441151125196,0.09271325338000001,1.6055958972610032,0.12365603228772361,-1.31800978841992, ,0.0391812310315734,0.0006405727227714325,0.007207607022624436,0.012899127320284585,0.03276065396624058,-0.032176695461718995, ,0.6802799701690674
0.010911472995572555,0.020657337826061127,-0.08300442420723805, ,0.011232513763144391,0.02063973636767714,-0.08330396780576932, ,0.00043943526622406705, ,0.0038731655542480065,0.0019385497316026252,-0.0075403510761359385,0.04777046886290637,0.031854176191628975,0.011686382117845291, ,0.008695762233633938, ,0.05741695056212501, ,4.209963869000901e-05, ,0.14417570002889737,-0.24147441151125196,0.09279232707000001,1.6058055872044876,0.1243392147865508,-1.3183218417179803, ,0.04074578856095783,0.0006405727227714325,0.008287623059313217,0.006915143446947409,0.07330984023281212,-0.04742341681548971, ,0.6963698863983154
0.010999353734080555,0.02069723446524558,-0.08315753476994524, ,0.01130291001870405,0.020662123950068844,-0.08340695482130067, ,0.0003944483847457654, ,0.004611570470356935,0.0019247294810976643,-0.007404299054528399,-0.056376948527409335,-0.0356864490281619,-0.003133719031808159, ,0.008932794090729099, ,0.06672243211429842, ,4.243892751285153e-05, ,0.14499430971356517,-0.24146668877837774,0.09296084477000001,1.6060152771479719,0.12474912428584713,-1.3180843442480854, ,0.042251532305641486,0.0004283118390108541,0.008181207765793529,0.0036986822690615356,0.005611191692296986,0.0564810462644832, ,0.7125399112701416
0.011045364449470636,0.020717036908551353,-0.08323751008508332, ,0.01137313676682755,0.02068417798381574,-0.08350959773006117, ,0.0004272541252110931, ,0.004163804657954297,0.0018249710761580223,-0.0071053497420246895,0.010929128812046544,-1.5309537370712224e-05,0.0065792832891003895, ,0.008435270215879608, ,0.01092913870631494, ,4.287142463119416e-05, ,0.14545767368601864,-0.2414512433126293,0.09304899249000001,1.6060152771479719,0.1252956702849089,-1.3182849796424496, ,0.0412774865413096,0.0006888636020111,0.007850572459339577,0.0036986822690615356,0.04165603211159614,-0.011083150374223569, ,0.7323880195617676
0.011119272285512018,0.02074764615101551,-0.08335568641741815, ,0.011443194646452765,0.020705900600764188,-0.08361189929140103, ,0.00041510652088082073, ,0.0036748047593578876,0.0013455162485595817,-0.005315990780977311,0.013169876950301685,0.03359392878022955,0.007794849395702419, ,0.006601087938966803, ,0.036083205311221986, ,4.324482251581255e-05, ,0.14629945156930912,-0.24143579784688085,0.09318121407,1.6062249670914566,0.12693530828209418,-1.3187235283452603, ,0.042101571232684466,0.0012018302919911243,0.005988275007518798,0.010853769663979402,0.07538206180875145,-0.012808247376288745, ,0.7483949661254883
0.011205306968983567,0.02077163495878459,-0.08345239775065433, ,0.011513084295156354,0.02072729392701146,-0.08371386225393182, ,0.00040627170228668577, ,0.004360853861886342,0.0011297886583504762,-0.004624010116621041,-0.028147735056146456,-0.030303867370508726,-0.010756047506851652, ,0.006455612935723464, ,0.04135963447960407, ,4.37123472520922e-05, ,0.1471721203840965,-0.24140490691538394,0.09329139872000002,1.606434657034941,0.12720858128162504,-1.3179662192709665, ,0.04436509656777502,0.0017991298566225437,0.00529548255319149,0.013270394091049513,0.011104785678624147,0.028263458655826745, ,0.7627129554748535
0.011211594282267525,0.020772844125563773,-0.08345933448510207, ,0.01158280634915539,0.020748360082911883,-0.08381548935554221, ,0.0005150186003301029, ,0.0042897404882216205,0.0010414469387072826,-0.004330592594874388,-0.024712944054733954,-0.030512166133026288,-0.010643675352038888, ,0.006183891768555747, ,0.03926476645109045, ,4.450217386714704e-05, ,0.14723390224709026,-0.24139718418250972,0.09329917646000001,1.606434657034941,0.12720858128162504,-1.3179662192709665, ,0.04397448635703002,0.0019556348038955885,0.0049824246230841425,0.013047319111686394,0.010557498405938255,0.024642203775183162, ,0.7769520282745361
0.01128361456850444,0.0207929009857695,-0.08354179824017452, ,0.011652361443308876,0.020769101183083786,-0.08391678332341404, ,0.000526454652309263, ,0.004830926852256934,0.0016407140432278054,-0.007215303717747957,0.0057684745778809705,-0.012152672324575798,-0.0042982934185437, ,0.008836877534675328, ,0.01345223862516876, ,4.529800702391508e-05, ,0.14853132136996,-0.24133540231951592,0.09346639787000001,1.6068540369219102,0.1287115827790449,-1.3187834225109243, ,0.047543557895025436,0.0033993145644796796,0.008000407594173784,0.012474609789109012,0.0334289230050052,-0.007328401492335091, ,0.7900629043579102
0.011382164040346426,0.02082803764556085,-0.08368750455075655, ,0.01172175021111959,0.020789519336415367,-0.0840177468740382, ,0.00047524984966464384, ,0.005241440157684212,0.002158058234409871,-0.008644094860834726,-0.00388720531621036,-0.030264187539478418,-0.01809315091860433, ,0.01033684121154999, ,0.03051280656271969, ,4.5910843793557106e-05, ,0.14901013080816192,-0.24131223412089325,0.09355584188,1.6072734168088794,0.12884821927881035,-1.31881316167448, ,0.047495966745981374,0.0017175551009798147,0.009532502405745064,0.021614510961443394,0.012410505993080008,0.005312876447163623, ,0.8036949634552002
0.011421211326023969,0.020843433062354838,-0.0837536565702639, ,0.01179097328473562,0.020809616646071612,-0.08411838271323063, ,0.0005204734531980531, ,0.005462147389448697,0.002200208836373711,-0.00919671917663992,-0.01211616151299862,-0.04026223938507615,-0.02074265152108754, ,0.010920421999249601, ,0.04204579912808803, ,4.6635720688340274e-05, ,0.14936537652037624,-0.2412890659222706,0.09362843412,1.6072734168088794,0.1289848557785758,-1.318842900838036, ,0.04797620907910555,0.002798834898130742,0.010094303878326997,0.021614510961443394,0.0025704615183008627,0.012474811353343917, ,0.8178379535675049
0.011531804506463897,0.020890564822233067,-0.08395570446453383, ,0.01186003129495197,0.02082939520950056,-0.08421869353614746, ,0.00042501505619358255, ,0.005132379631056795,0.0019585118032630494,-0.008307860686254736,0.02905113895913705,-0.006070161107436033,-0.011252635414135698, ,0.009959801119652157, ,0.02967853586543703, ,4.705781583968777e-05, ,0.15044655912276766,-0.24121956132640257,0.09385009971000001,1.6072734168088794,0.13035122077623018,-1.3197937223947191, ,0.04937405908349156,0.003079911549422037,0.009180871193083574,0.021614510961443394,0.03942491700235411,-0.028943131637357167, ,0.8315079212188721
0.011586291193908747,0.020908347207755022,-0.08403541505855484, ,0.01192892487121226,0.020848857118439423,-0.08431868202730208, ,0.00044852768379728344, ,0.00523145084253553,0.0016734849341822496,-0.007596768532696174,0.0017017473702922485,-0.025260278709807512,-0.014489649435831599, ,0.009374407815012288, ,0.025317535411411123, ,4.753261809328537e-05, ,0.15094081402671805,-0.24118094766203144,0.09393824743000001,1.6072734168088794,0.13035122077623018,-1.3195486861742975, ,0.04965826350521757,0.004264549545640221,0.008423485732416712,0.019589272899356375,0.02033311089711148,-0.0030545088791392215, ,0.8450210094451904
0.011685684953108134,0.02093987279929727,-0.08417448197280754, ,0.011997654641610164,0.020868004458921813,-0.08441835086058022, ,0.0004024452500848552, ,0.004253730063426259,0.0014949444883865612,-0.006365885248618365,0.050427927332514576,0.04250000845449887,0.014881423588588625, ,0.007800870045990424, ,0.06594866612170082, ,4.7861970738018914e-05, ,0.15195249203324146,-0.24111144306616342,0.09409380223000001,1.6074831067523636,0.13130767627458828,-1.3199202177994696, ,0.04783111973713245,0.0026357096551845004,0.00714616936742934,0.00790732954396301,0.09135528472902982,-0.05186545752850397, ,0.8629229068756104
0.01173226882387671,0.02095223083010924,-0.08423290565751146, ,0.012066221232891234,0.020886839311283396,-0.08451770269925553, ,0.00044374499119103093, ,0.00472694223801851,0.0009924564425206357,-0.0053302953124705656,0.0007775665543779391,-0.0025280422180435024,0.0004092863672349616, ,0.007193121772221699, ,0.0026449202067068173, ,4.8294493298137475e-05, ,0.15246219240294026,-0.24106510666891806,0.09415991302000001,1.6079024866393328,0.13199085877341546,-1.32023227109753, ,0.05036992651723502,0.0054725252650308824,0.0060473847835990895,0.010536552125927912,0.04672865230464982,-0.00461297938645997, ,0.8759510517120361
0.011782035740728523,0.020962734648027986,-0.08428789300992019, ,0.012134625270454212,0.020905363750168538,-0.08461674019600635, ,0.00048554224140661854, ,0.0049572405071847455,0.0010907042373355155,-0.005784551248764534,-0.02187381570255329,-0.02942730602338276,-0.006248742113667041, ,0.007695771717573115, ,0.036666471696994066, ,4.8959533556763994e-05, ,0.15293327910826796,-0.2410110475387985,0.09421954236,1.6081121765828172,0.1321274952731809,-1.3200986527808047, ,0.0489159492569437,0.005583719892899946,0.006506867450980393,0.009802071566439814,0.0181024371483272,0.01431371796992554, ,0.8883669376373291
0.011852005595218906,0.02098065953269777,-0.08437680971229913, ,0.012202867378352715,0.020923579844537,-0.08471546599293045, ,0.0004909685917402492, ,0.005332550651643749,0.0014974588899118318,-0.0070397353075698586,0.0037052722694339906,-0.01692458232164232,-0.0016459999908140595, ,0.008957474687654319, ,0.017325429635746858, ,4.962128335234579e-05, ,0.15366693873131929,-0.24094154294293046,0.09432194927000001,1.6081121765828172,0.1326740412722427,-1.3200542519547471, ,0.05286737691279709,0.004660012062415006,0.007885550257425744,0.009802071566439814,0.034658156793319024,-0.006841517946860894, ,0.9010269641876221
0.011892464659652734,0.020993753014176875,-0.08444108082697967, ,0.012270948179296871,0.020941489657670124,-0.084813882721562, ,0.0005338187760651935, ,0.004100488915038286,0.001456184985671008,-0.00720410923267737,0.08074973195221624,0.06725803811419924,0.01894262832204084, ,0.008416274347429083, ,0.10509121220121782, ,5.03791410693311e-05, ,0.1541071345051501,-0.24089520654568514,0.09439324522,1.6081121765828172,0.1334938602708353,-1.3203960444163632, ,0.04674726185146343,0.005370440177165443,0.007956449310689312,0.009802071566439814,0.11542932207726823,-0.08457532395154654, ,0.9131700992584229
0.01194677139788114,0.021010776765138447,-0.08452531897549971, ,0.012338868294654652,0.020959095247177272,-0.08491199300288615, ,0.0005531073668045314, ,0.005565708747521202,0.0015762880717221821,-0.0077869956094127075,-0.01756036468576375,-0.023106947251063506,-0.0035743593112782376, ,0.009700468987028433, ,0.02902236018191119, ,5.1167653272100416e-05, ,0.15467089400496847,-0.24083342468269134,0.09448657810000001,1.6081121765828172,0.13431367926942794,-1.3208195156181202, ,0.05340289339249904,0.005858243767276761,0.008652260467137426,0.009802071566439814,0.0287548233062055,0.013244318563804416, ,0.924144983291626
0.012042557920658734,0.02104010474918127,-0.08466742328402475, ,0.01240662834445355,0.020976398665002373,-0.08500979944735576, ,0.0005038126396397833, ,0.005921098203986117,0.0019305235270521183,-0.009163722856940441,-0.04576582531391738,-0.04847842898508708,-0.014186929381602377, ,0.011079717578916985, ,0.06666834915390665, ,5.1808413926568845e-05, ,0.1552114853061642,-0.24077164281969754,0.09458250356,1.608321866526302,0.13431367926942794,-1.3204928006575578, ,0.05237138055103244,0.006026541879290491,0.009613042558841281,0.013870911338628196,0.015767383461607557,0.04444037570246664, ,0.9355440139770508
0.012129661355226178,0.021074060771175775,-0.08483059429715739, ,0.012474228947382126,0.02099340195743009,-0.08510730465490672, ,0.0004492229868169827, ,0.004769693859603489,0.002195057580666504,-0.010103364213831727,0.10942688375997138,0.08999624131264833,0.0292723950515086, ,0.0113862296540214, ,0.1416812134142934, ,5.2293569327548785e-05, ,0.15643167710029166,-0.24062491089508728,0.09482231721,1.6089509363567556,0.13622659026614414,-1.3215625788684644, ,0.05185625221774359,0.005289291675382668,0.011053998278972936,0.006861311192082956,0.1449899820433077,-0.11354358377179002, ,0.9481151103973389
0.012183888240497,0.021094826115168584,-0.08492475041347917, ,0.01254167072079135,0.021010107165092752,-0.08520451121497373, ,0.0004620083438211959, ,0.005761335601863983,0.0018631192527547703,-0.008807778461131835,-0.019272085242215263,-0.020863972663551764,6.587103924490627e-05, ,0.010688365763187036, ,0.02840279162127918, ,5.279870911894288e-05, ,0.15695682293573893,-0.24057857449784192,0.09492602041,1.6089509363567556,0.13690977276497132,-1.321874632166525, ,0.05364439884594165,0.005451647032579553,0.00974239236697248,0.006861311192082956,0.032028167636167885,0.014945576424903156, ,0.9591410160064697
0.012243223739485925,0.021110746293299988,-0.08501054729189103, ,0.012608954280696246,0.021026516322976033,-0.0853014217065064, ,0.00047482780221107614, ,0.006011624655666294,0.001454729222373864,-0.008177337615298973,-0.08904407693630186,-0.05222057727070568,-0.009129623469309206, ,0.01025303460374668, ,0.10322711025384411, ,5.33231724438592e-05, ,0.15749741423693464,-0.24050134716909968,0.09502064958,1.6089509363567556,0.1370464092647368,-1.3214142988892372, ,0.054195854687875945,0.008230913914681701,0.009040188149829742,0.006861311192082956,0.0,0.08197062031863284, ,0.9700949192047119
0.012304024596182213,0.02112479495051864,-0.0850886380052425, ,0.012676080241777419,0.0210426314604259,-0.08539803869798462, ,0.0004908207729841858, ,0.006003245383284543,0.001357527867101253,-0.007324734367948403,-0.02036590099915476,-0.04803981272533447,-0.00630038296552143, ,0.009567317837455184, ,0.05217847745103598, ,5.387404446048055e-05, ,0.15805345100387883,-0.24042411984035744,0.09510750101000001,1.6089509363567556,0.1370464092647368,-1.3210059051885346, ,0.05625189185445807,0.007039188397460828,0.00820649743431221,0.006861311192082956,0.006715864048050935,0.014466774928524138, ,0.9827930927276611
0.012358689506573421,0.021138433217651315,-0.0851630101656626, ,0.012743049217382335,0.021058454601154946,-0.08549436474743448, ,0.000513736143609731, ,0.005434369466388898,0.0014387336170239395,-0.00794598858241806,0.05119086075731304,0.02205580501360839,0.0041442847882100856, ,0.009733501963316847, ,0.055740135703066275, ,5.4599689146047e-05, ,0.15860176503794876,-0.2403468925116152,0.09519046357000001,1.6093703162437245,0.13759295526379853,-1.3212065405828985, ,0.05582173032851222,0.00793525801287597,0.008824826326869806,0.014632717668781338,0.0769135039656056,-0.05675015851063726, ,0.9925589561462402
0.01241564204289678,0.021153977902400062,-0.08524567170161435, ,0.01280986181952704,0.021073987763248758,-0.08559040240244377, ,0.0005297611827438885, ,0.00567962144335225,0.0014953705482261478,-0.008353649518050944,0.043094997653117174,0.027380664165992438,0.007655455811477737, ,0.010211644974572982, ,0.05105761013025392, ,5.534996005245592e-05, ,0.15918869273638983,-0.24026966518287293,0.09528250016,1.609580006187209,0.13841277426239118,-1.3216300117846553, ,0.058687038687984396,0.008493062363431295,0.009277117949912638,0.012953635072987963,0.08573148987319155,-0.04944220431748095, ,1.0012578964233398
0.012476595354745778,0.021168175336739252,-0.0853322607803236, ,0.012876518658897409,0.021089232959172217,-0.08568615420017849, ,0.0005398250649942787, ,0.006360951629573267,0.0015991197951109486,-0.00912107885800605,0.01126386007045791,-0.012182058682347448,-0.0022645001056750356, ,0.01123445456116368, ,0.016591474747523243, ,5.6109924789411656e-05, ,0.15979878863345356,-0.24016926965550803,0.09537842562000001,1.609580006187209,0.13909595676121836,-1.3221871013031374, ,0.060909461847542215,0.00950582781191558,0.010094303878326997,0.01291989127327598,0.04712154945684345,-0.018632573545943658, ,1.0104150772094727
0.012476595354745778,0.021168175336739252,-0.0853322607803236, ,0.012943020344850804,0.021104192195775986,-0.08578162266739732, ,0.0006508242614381005, ,0.006360951629573267,0.0015991197951109486,-0.00912107885800605,0.01126386007045791,-0.012182058682347448,-0.0022645001056750356, ,0.01123445456116368, ,0.016591474747523243, ,5.711792611867987e-05, ,0.15979878863345356,-0.24016926965550803,0.09537842562000001,1.609580006187209,0.13909595676121836,-1.3221871013031374, ,0.060909461847542215,0.00950582781191558,0.010094303878326997,0.01291989127327598,0.04712154945684345,-0.018632573545943658, ,1.0206298828125
0.012539446008563417,0.021185828303201343,-0.08542761024032718, ,0.013009367485417346,0.021118867474303058,-0.08587681032046854, ,0.0006535217356862204, ,0.006780692927124959,0.0021356531686876996,-0.010969941326607056,-0.023415260936239423,-0.02977427070442418,-0.005472802054284674, ,0.013072047419516564, ,0.03787850949852652, ,5.8113359447044046e-05, ,0.16037027086614616,-0.24008431959389157,0.09548342511,1.609580006187209,0.13936922976074928,-1.3221649008901086, ,0.06021379540512105,0.008595816157554488,0.012039918004535148,0.011170171733889088,0.02855210016788425,0.016674070425260555, ,1.0300838947296143
0.012662404205296482,0.02122840252895392,-0.0856456937222128, ,0.013075560687301594,0.021133260790394875,-0.08597171966538503, ,0.0005348300147338586, ,0.006803737556404843,0.002447083260733981,-0.0124428935543405,0.020536388458570736,0.02378456154314243,-0.00037470865912337466, ,0.014391131339336966, ,0.03142369043337627, ,5.881492923114076e-05, ,0.16149778986578295,-0.2399144194706586,0.09572194247000002,1.6099993860741781,0.14059895825863825,-1.3225959108423926, ,0.06326462770564718,0.009403573723980182,0.013602742544833478,0.020528190152667207,0.08477960903391403,-0.02657210785966719, ,1.0394680500030518
0.012730754861624378,0.021251814921580597,-0.08576267359644149, ,0.013141600555883566,0.021147374134097955,-0.08606635319778017, ,0.0005214627147270696, ,0.00707395980035804,0.0021556776366317538,-0.011291951721709366,0.0060402859028370155,-0.009165580428696144,-0.00017897563562230498, ,0.01349800085255483, ,0.01097691827402312, ,5.947286715712353e-05, ,0.1621156084957209,-0.23982946940904215,0.09585027518000001,1.6102090760176624,0.14114550425769998,-1.3227148674966158, ,0.06517647085059805,0.009411155317105993,0.012434669414519907,0.012548171071234238,0.054696703318167054,-0.013330972294227368, ,1.0482831001281738
0.012801069881629363,0.021269548835026006,-0.08586589276194292, ,0.01320748769522078,0.021161209489870304,-0.08616071340294384, ,0.0005136458539435394, ,0.0071058784169350814,0.0016603257672896938,-0.009726423020732114,-0.038952945498366004,-0.017695882036577397,-0.0014554304696983659, ,0.012159502231095546, ,0.04278406382055984, ,6.010100926490268e-05, ,0.16277976352290421,-0.239721351148803,0.09596434870000001,1.6102090760176624,0.14169205025676176,-1.322752145410699, ,0.06744629819365372,0.010637228167758825,0.010821203478260872,0.011461282293726165,0.04852934951886311,0.030357408919640907, ,1.0578129291534424
0.012870383516838944,0.02128568022037503,-0.0859613595053334, ,0.013273222708049103,0.021174768836587612,-0.08625480275583748, ,0.000510577800432897, ,0.006712421710220873,0.0014981266087242973,-0.009023032413528753,0.02400014519403873,0.010629305751238896,0.009995968807122139, ,0.011345311916699461, ,0.026248600920426315, ,6.071088231992138e-05, ,0.16345936401583597,-0.23961323288856387,0.09607064448000001,1.6104187659611469,0.14237523275558894,-1.3228191624883376, ,0.06744629819365372,0.010445169261761296,0.010081526278481015,0.00806083783591917,0.0786142647091703,-0.03299751065896861, ,1.068202018737793
0.012938937652199252,0.02129933615472887,-0.08604655220261638, ,0.013338806195784496,0.021188054147549852,-0.08634862372111007, ,0.0006155682164203377, ,0.0067367412361061295,0.0012597046745267343,-0.00802913495012594,-0.006171285592125616,0.010267187420634613,-0.00047986995717185535, ,0.010556398362917682, ,0.011979143125489783, ,6.16827109509989e-05, ,0.1641621327073904,-0.23950511462832472,0.09616656994000002,1.6106284559046316,0.1431950517541816,-1.3230792762098134, ,0.06931843795359444,0.010567840193061033,0.009076245880341883,0.01817044094895104,0.07755460835368394,-0.0013273811433028148, ,1.0756349563598633
0.012938937652199252,0.02129933615472887,-0.08604655220261638, ,0.01340423875852437,0.021201067390487726,-0.08644217875311447, ,0.0006186131562065883, ,0.0067367412361061295,0.0012597046745267343,-0.00802913495012594,-0.006171285592125616,0.010267187420634613,-0.00047986995717185535, ,0.010556398362917682, ,0.011979143125489783, ,6.264833461102918e-05, ,0.1641621327073904,-0.23950511462832472,0.09616656994000002,1.6106284559046316,0.1431950517541816,-1.3230792762098134, ,0.06931843795359444,0.010567840193061033,0.009076245880341883,0.01817044094895104,0.07755460835368394,-0.0013273811433028148, ,1.0821890830993652
0.013008861579308643,0.021312702336790272,-0.08613173456343852, ,0.013469520995048948,0.02121381052756858,-0.08653547029592183, ,0.000620475002659395, ,0.007302135213689836,0.0014296538053608229,-0.008971435102968373,0.0004397140601992964,-0.018361466703929075,-0.0071792822342095, ,0.011655545310665002, ,0.018366729427319796, ,6.360525938719357e-05, ,0.16486490139894483,-0.23939699636808556,0.09626249540000001,1.6106284559046316,0.14387823425300877,-1.3232279720275926, ,0.07092447052202598,0.011301239189564183,0.010075149601518027,0.01817044094895104,0.04974876492190167,-0.008672040282966514, ,1.0887510776519775
0.013083709060978723,0.02132900942298415,-0.0862305814185824, ,0.013534653502822661,0.02122628551540353,-0.0866285007833384, ,0.0006101171294648195, ,0.007964872973321886,0.0018895130505474688,-0.011420797259181758,-0.01609631865385918,-0.025592308047392657,-0.007689204275509123, ,0.014051479320152601, ,0.030233384049673448, ,6.452680081862926e-05, ,0.16556767009049927,-0.23928115537497222,0.09637268005,1.610838145848116,0.14428814375230511,-1.3230721532978384, ,0.0731101244672348,0.012930500280483823,0.012631888596352102,0.016926056631204695,0.04479049374752056,0.006073939530705001, ,1.0954430103302002
0.013083709060978723,0.02132900942298415,-0.0862305814185824, ,0.013599636877995603,0.021238494305053354,-0.0867212726389203, ,0.0007177411599333815, ,0.007964872973321886,0.0018895130505474688,-0.011420797259181758,-0.01609631865385918,-0.025592308047392657,-0.007689204275509123, ,0.014051479320152601, ,0.030233384049673448, ,6.567125662098187e-05, ,0.16556767009049927,-0.23928115537497222,0.09637268005,1.610838145848116,0.14428814375230511,-1.3230721532978384, ,0.0731101244672348,0.012930500280483823,0.012631888596352102,0.016926056631204695,0.04479049374752056,0.006073939530705001, ,1.1047239303588867
0.013151674461818764,0.02134745347564779,-0.08633901696779005, ,0.013664471715404927,0.021250438842035063,-0.0868137882759903, ,0.0007055357237664906, ,0.007983937872105103,0.002358994319575691,-0.013189990641872066,0.0277955425331024,0.009641210857023892,0.0048656746267298654, ,0.015597562991637419, ,0.029420141608594824, ,6.677434111968805e-05, ,0.16620093418618567,-0.23916531438185884,0.09649193873,1.6110478357916007,0.1449713262511323,-1.323384206595899, ,0.07367774965719781,0.012549185606780056,0.014493914030937218,0.014072501576034518,0.08256958056284892,-0.03787163113586107, ,1.1119511127471924
0.013248521299284083,0.021377600840132297,-0.08650337640049924, ,0.013729158608576202,0.021262121066328132,-0.08690605009765213, ,0.0006375687473678521, ,0.008399632250186865,0.0026668726648101555,-0.01466617657279261,-0.011731283188474648,-0.009321267272850186,-0.007451979859114865, ,0.01711031171583445, ,0.014983602713162474, ,6.771668104212077e-05, ,0.16706588026809882,-0.23901858245724858,0.09667212304000002,1.6112575257350852,0.14579114524972495,-1.3235626415772341, ,0.07299764735266984,0.013211324176315016,0.01602496128772636,0.02062005253631238,0.06055497027758478,0.0020689125147856802, ,1.118577003479004
0.013248521299284083,0.021377600840132297,-0.08650337640049924, ,0.013793698149724707,0.021273542912381326,-0.08699806049680717, ,0.0007434771050437109, ,0.008399632250186865,0.0026668726648101555,-0.01466617657279261,-0.011731283188474648,-0.009321267272850186,-0.007451979859114865, ,0.01711031171583445, ,0.014983602713162474, ,6.887369830532709e-05, ,0.16706588026809882,-0.23901858245724858,0.09667212304000002,1.6112575257350852,0.14579114524972495,-1.3235626415772341, ,0.07299764735266984,0.013211324176315016,0.01602496128772636,0.02062005253631238,0.06055497027758478,0.0020689125147856802, ,1.1251850128173828
0.01333720065877685,0.021402715934615676,-0.08665161143522912, ,0.013858090929757087,0.02128470630911841,-0.08708982185616991, ,0.0006908554980116867, ,0.008902195571646794,0.002468066433143885,-0.014552178111419201,0.02152344418300316,-0.01786630067203845,-0.004495801860623376, ,0.017236772485031165, ,0.027972534683384433, ,6.990398426936049e-05, ,0.16783815355552126,-0.2388641277997641,0.09683415929000001,1.6114672156785694,0.14633769124878673,-1.3235182407511765, ,0.0783624620631468,0.015161677833275409,0.01594475627627628,0.01720737462342051,0.05828069752367549,-0.03364910701401367, ,1.1319100856781006
0.013425589988419947,0.02142635700670259,-0.08679193055082751, ,0.013922337538272378,0.02129561317994506,-0.08718133654828311, ,0.0006445844454949152, ,0.009114901500242963,0.002423433954843902,-0.014289326925197021,-0.0014199164302003979,-0.016302840730249096,-0.003594159454826971, ,0.01712131202530292, ,0.016364540409120536, ,7.097342595782701e-05, ,0.1686335950415664,-0.2387173958751538,0.0969884178,1.6114672156785694,0.1470208737476139,-1.3237486153090963, ,0.08145660219611225,0.015024848251816146,0.0157243943928924,0.017067119353824035,0.06300237015322938,-0.010582999731044714, ,1.1363160610198975
0.013425589988419947,0.02142635700670259,-0.08679193055082751, ,0.013986438563563644,0.02130626544275526,-0.0872726069355337, ,0.0007483467744209483, ,0.009114901500242963,0.002423433954843902,-0.014289326925197021,-0.0014199164302003979,-0.016302840730249096,-0.003594159454826971, ,0.01712131202530292, ,0.016364540409120536, ,7.225275068885083e-05, ,0.1686335950415664,-0.2387173958751538,0.0969884178,1.6114672156785694,0.1470208737476139,-1.3237486153090963, ,0.08145660219611225,0.015024848251816146,0.0157243943928924,0.017067119353824035,0.06300237015322938,-0.010582999731044714, ,1.1410040855407715
0.013518753033618646,0.021451595842409025,-0.08694168645004367, ,0.014050394592619229,0.021316665009937372,-0.08736363537016902, ,0.0006920187627535876, ,0.009656477215484028,0.0024864016023457146,-0.015196494959131678,0.012520268035733436,0.00566057829275565,-0.0005027323353410948, ,0.018175896241567402, ,0.013740394749131465, ,7.340298863291781e-05, ,0.16947537292485687,-0.2385552184847951,0.09715304663,1.6118865955655386,0.14784069274620656,-1.324008729030572, ,0.08844076566493084,0.01703409469726634,0.016731944873949585,0.020967142986840135,0.09194677784876432,-0.025816289585506566, ,1.1462419033050537
0.013518753033618646,0.021451595842409025,-0.08694168645004367, ,0.014114206211124063,0.02132681378838075,-0.08745442419431171, ,0.0007956349929495855, ,0.009656477215484028,0.0024864016023457146,-0.015196494959131678,0.012520268035733436,0.00566057829275565,-0.0005027323353410948, ,0.018175896241567402, ,0.013740394749131465, ,7.47603715109173e-05, ,0.16947537292485687,-0.2385552184847951,0.09715304663,1.6118865955655386,0.14784069274620656,-1.324008729030572, ,0.08844076566493084,0.01703409469726634,0.016731944873949585,0.020967142986840135,0.09194677784876432,-0.025816289585506566, ,1.1511509418487549
0.013518753033618646,0.021451595842409025,-0.08694168645004367, ,0.01417787400346123,0.021336713679481895,-0.08754497573997548, ,0.0009008864143672435, ,0.00995688882436924,0.0027746922473154195,-0.01707299769229004,0.05118555264156844,0.024275316597093744,-0.011453173621148177, ,0.019958101170429576, ,0.0566502457585824, ,7.632571665955357e-05, ,0.17037893267114113,-0.2383698728958137,0.09733452723000001,1.6123059754525078,0.14879714824456466,-1.3242985819156035, ,0.08952541656459506,0.01914402694340746,0.01867387048065651,0.036799659371736446,0.10858430384978397,-0.06390091453050521, ,1.1556470394134521
0.013619177974300805,0.02147873032365838,-0.08710715712097214, ,0.014241398552713076,0.02134636657915126,-0.0876352923290805, ,0.0008268043342310868, ,0.00995688882436924,0.0027746922473154195,-0.01707299769229004,0.05118555264156844,0.024275316597093744,-0.011453173621148177, ,0.019958101170429576, ,0.0566502457585824, ,7.772437413032532e-05, ,0.17037893267114113,-0.2383698728958137,0.09733452723000001,1.6123059754525078,0.14879714824456466,-1.3242985819156035, ,0.08952541656459506,0.01914402694340746,0.01867387048065651,0.036799659371736446,0.10858430384978397,-0.06390091453050521, ,1.1604111194610596
0.013619177974300805,0.02147873032365838,-0.08710715712097214, ,0.014304780440662749,0.021355774377819412,-0.08772537627347042, ,0.0009313236961521106, ,0.00995688882436924,0.0027746922473154195,-0.01707299769229004,0.05118555264156844,0.024275316597093744,-0.011453173621148177, ,0.019958101170429576, ,0.0566502457585824, ,7.93274215433242e-05, ,0.17037893267114113,-0.2383698728958137,0.09733452723000001,1.6123059754525078,0.14879714824456466,-1.3242985819156035, ,0.08952541656459506,0.01914402694340746,0.01867387048065651,0.036799659371736446,0.10858430384978397,-0.06390091453050521, ,1.1648130416870117
0.013725216264795833,0.02150851574364252,-0.08728722317002821, ,0.014368020247795446,0.021364938960443215,-0.08781522987492585, ,0.0008441577658535688, ,0.010862970443653914,0.002954526904074911,-0.01814055150243864,0.005989076730269328,0.002186668777997617,-0.0264838838683253, ,0.021349776694364504, ,0.006375625139852857, ,8.07379213844084e-05, ,0.1713133833489223,-0.2381768045739581,0.09753156331000001,1.6125156653959922,0.1497536037429227,-1.3246701135407757, ,0.09518248902554742,0.02033796432886215,0.01986136099750624,0.046604689050356876,0.08905172149740365,-0.01822999379569433, ,1.1692299842834473
0.013725216264795833,0.02150851574364252,-0.08728722317002821, ,0.014431118553299815,0.02137386220651234,-0.08790485542518144, ,0.0009475754421588221, ,0.010862970443653914,0.002954526904074911,-0.01814055150243864,0.005989076730269328,0.002186668777997617,-0.0264838838683253, ,0.021349776694364504, ,0.006375625139852857, ,8.234878121922397e-05, ,0.1713133833489223,-0.2381768045739581,0.09753156331000001,1.6125156653959922,0.1497536037429227,-1.3246701135407757, ,0.09518248902554742,0.02033796432886215,0.01986136099750624,0.046604689050356876,0.08905172149740365,-0.01822999379569433, ,1.1736619472503662
0.013838471893372027,0.02153888760562966,-0.08748195495475213, ,0.014494075935069165,0.02138254599005606,-0.08799425520594156, ,0.0008465878026634605, ,0.011198117618358924,0.0031827685884385877,-0.019667820778170423,0.02443157435927145,0.018066987233716178,-0.010236019513097773, ,0.022855000070977557, ,0.030386097321591157, ,8.374039395437706e-05, ,0.17230961588969726,-0.2379528453206056,0.09774415487000002,1.6125156653959922,0.15084669574104626,-1.3249080268492224, ,0.09773114475640657,0.02178034004096185,0.021467400970350405,0.035162496168848235,0.11091471198698871,-0.03995716513611154, ,1.1782970428466797
0.013838471893372027,0.02153888760562966,-0.08748195495475213, ,0.01455689296970307,0.021390992179649036,-0.08808343148889525, ,0.0009485651907314892, ,0.011198117618358924,0.0031827685884385877,-0.019667820778170423,0.02443157435927145,0.018066987233716178,-0.010236019513097773, ,0.022855000070977557, ,0.030386097321591157, ,8.532796387881352e-05, ,0.17230961588969726,-0.2379528453206056,0.09774415487000002,1.6125156653959922,0.15084669574104626,-1.3249080268492224, ,0.09773114475640657,0.02178034004096185,0.021467400970350405,0.035162496168848235,0.11091471198698871,-0.03995716513611154, ,1.1830239295959473
0.013977597085447557,0.021578016233687602,-0.08773192087981131, ,0.014619570232508398,0.021399202638417863,-0.08817238653573152, ,0.0007988202660459423, ,0.01191303482490136,0.0032533130198126015,-0.02115418063329382,0.02590630565336264,0.020201665471741063,0.027147637445985588, ,0.02449497504816484, ,0.03285178418583759, ,8.659955160814209e-05, ,0.1735220849509505,-0.2376671042042593,0.09801637577000001,1.612725355339477,0.15234969723846611,-1.3252351576483372, ,0.1039396950257073,0.024533852522872487,0.023051825643994214,0.0,0.1280779715249269,-0.04999214738253558, ,1.1908810138702393
0.013977597085447557,0.021578016233687602,-0.08773192087981131, ,0.014682108297500922,0.021407179224047723,-0.08826112259815655, ,0.0008975387403734453, ,0.01191303482490136,0.0032533130198126015,-0.02115418063329382,0.02590630565336264,0.020201665471741063,0.027147637445985588, ,0.02449497504816484, ,0.03285178418583759, ,8.805991377982991e-05, ,0.1735220849509505,-0.2376671042042593,0.09801637577000001,1.612725355339477,0.15234969723846611,-1.3252351576483372, ,0.1039396950257073,0.024533852522872487,0.023051825643994214,0.0,0.1280779715249269,-0.04999214738253558, ,1.1954870223999023
0.014110823906607239,0.021610327166560583,-0.08795113773918925, ,0.014744507737406407,0.021414923788788363,-0.08834964191790752, ,0.0007736557748230315, ,0.012259127851540954,0.002598930795355867,-0.01893891817368244,-0.02478253341667451,-0.0291598505854505,-0.0077338940491750744, ,0.022709541575049796, ,0.03826837352385809, ,8.925978515987685e-05, ,0.17468049488208418,-0.23738908582078722,0.09825618942000001,1.613144735226446,0.15344278923658963,-1.3253913922166434, ,0.10603010229996734,0.026020548823271393,0.02076768125162973,0.021735993598746648,0.07388137747619106,0.002893339819632572, ,1.199915885925293
0.014110823906607239,0.021610327166560583,-0.08795113773918925, ,0.014806769123662116,0.021422438179461135,-0.08843794672676916, ,0.0008698419436905741, ,0.012259127851540954,0.002598930795355867,-0.01893891817368244,-0.02478253341667451,-0.0291598505854505,-0.0077338940491750744, ,0.022709541575049796, ,0.03826837352385809, ,9.082407806274397e-05, ,0.17468049488208418,-0.23738908582078722,0.09825618942000001,1.613144735226446,0.15344278923658963,-1.3253913922166434, ,0.10603010229996734,0.026020548823271393,0.02076768125162973,0.021735993598746648,0.07388137747619106,0.002893339819632572, ,1.2022030353546143
0.014110823906607239,0.021610327166560583,-0.08795113773918925, ,0.014868893026418084,0.021429724237464417,-0.08852603924658942, ,0.0009683996858838236, ,0.012259127851540954,0.002598930795355867,-0.01893891817368244,-0.02478253341667451,-0.0291598505854505,-0.0077338940491750744, ,0.022709541575049796, ,0.03826837352385809, ,9.257922927838614e-05, ,0.17468049488208418,-0.23738908582078722,0.09825618942000001,1.613144735226446,0.15344278923658963,-1.3253913922166434, ,0.10603010229996734,0.026020548823271393,0.02076768125162973,0.021735993598746648,0.07388137747619106,0.002893339819632572, ,1.2044329643249512
0.014110823906607239,0.021610327166560583,-0.08795113773918925, ,0.014930880014538338,0.021436783798780782,-0.08861392168929455, ,0.0010685934143408536, ,0.012259127851540954,0.002598930795355867,-0.01893891817368244,-0.02478253341667451,-0.0291598505854505,-0.0077338940491750744, ,0.022709541575049796, ,0.03826837352385809, ,9.452736138429923e-05, ,0.17468049488208418,-0.23738908582078722,0.09825618942000001,1.613144735226446,0.15344278923658963,-1.3253913922166434, ,0.10603010229996734,0.026020548823271393,0.02076768125162973,0.021735993598746648,0.07388137747619106,0.002893339819632572, ,1.2066969871520996
0.014239446457429096,0.02163356384255816,-0.08813591423013836, ,0.014992730655602386,0.021443618693983063,-0.08870159625690502, ,0.0009609955244909439, ,0.01352738186666389,0.0022779736160156517,-0.019453137143174704,-0.00869822091834291,-0.01967638429100763,-0.04771614702733798, ,0.02380344026969576, ,0.02151316713370114, ,9.625339358172284e-05, ,0.17580801388172096,-0.2371033447044409,0.09845970695,1.6137738050568995,0.1541259717354168,-1.3253767305541415, ,0.11981937065463481,0.03186599783696131,0.021409692903225808,0.06596720314583623,0.08722570482203501,-0.011353302152242548, ,1.2089869976043701
0.014239446457429096,0.02163356384255816,-0.08813591423013836, ,0.015054445515906473,0.02145023074824074,-0.08878906514155116, ,0.0010603964361833645, ,0.01352738186666389,0.0022779736160156517,-0.019453137143174704,-0.00869822091834291,-0.01967638429100763,-0.04771614702733798, ,0.02380344026969576, ,0.02151316713370114, ,0.0005367347827631329, ,0.17580801388172096,-0.2371033447044409,0.09845970695,1.6137738050568995,0.1541259717354168,-1.3253767305541415, ,0.11981937065463481,0.03186599783696131,0.021409692903225808,0.06596720314583623,0.08722570482203501,-0.011353302152242548, ,1.2111940383911133
0.014239446457429096,0.02163356384255816,-0.08813591423013836, ,0.015116025160464836,0.021456621781326582,-0.08887633052548893, ,0.001160997418631654, ,0.01352738186666389,0.0022779736160156517,-0.019453137143174704,-0.00869822091834291,-0.01967638429100763,-0.04771614702733798, ,0.02380344026969576, ,0.02151316713370114, ,0.0005434472842240848, ,0.17580801388172096,-0.2371033447044409,0.09845970695,1.6137738050568995,0.1541259717354168,-1.3253767305541415, ,0.11981937065463481,0.03186599783696131,0.021409692903225808,0.06596720314583623,0.08722570482203501,-0.011353302152242548, ,1.213407039642334
0.014239446457429096,0.02163356384255816,-0.08813591423013836, ,0.015177470153011003,0.02146279360762246,-0.08896339458111469, ,0.001262447883227277, ,0.01352738186666389,0.0022779736160156517,-0.019453137143174704,-0.00869822091834291,-0.01967638429100763,-0.04771614702733798, ,0.02380344026969576, ,0.02151316713370114, ,0.0005510962267666719, ,0.17580801388172096,-0.2371033447044409,0.09845970695,1.6137738050568995,0.1541259717354168,-1.3253767305541415, ,0.11981937065463481,0.03186599783696131,0.021409692903225808,0.06596720314583623,0.08722570482203501,-0.011353302152242548, ,1.215620994567871
0.014239446457429096,0.02163356384255816,-0.08813591423013836, ,0.01523878105599931,0.021468748036126237,-0.08905025947098172, ,0.001364500314914654, ,0.01352738186666389,0.0022779736160156517,-0.019453137143174704,-0.00869822091834291,-0.01967638429100763,-0.04771614702733798, ,0.02380344026969576, ,0.02151316713370114, ,0.0005596583750629665, ,0.17580801388172096,-0.2371033447044409,0.09845970695,1.6137738050568995,0.1541259717354168,-1.3253767305541415, ,0.11981937065463481,0.03186599783696131,0.021409692903225808,0.06596720314583623,0.08722570482203501,-0.011353302152242548, ,1.217911958694458
0.01437730099163014,0.02165733838747334,-0.08834892764714916, ,0.015299958430605996,0.021474486870458016,-0.0891369273478156, ,0.0012270594750144299, ,0.01536250577898467,0.0031359381599586483,-0.025053611413111587,0.0849615526458213,0.05671634580321967,-0.0045497317047185635, ,0.029555441745837897, ,0.1021528239378345, ,0.0005666104698541276, ,0.17705909660734534,-0.2367558217251008,0.09869303915000001,1.6137738050568995,0.15562897323283667,-1.3260305763138183, ,0.13873821865273506,0.03762765327457208,0.027416198829604135,0.047113946105868505,0.19044563424251898,-0.11375564915472458, ,1.2210040092468262
0.01437730099163014,0.02165733838747334,-0.08834892764714916, ,0.01536100283673046,0.021480011908866427,-0.08922340035452911, ,0.0013280875407974116, ,0.01536250577898467,0.0031359381599586483,-0.025053611413111587,0.0849615526458213,0.05671634580321967,-0.0045497317047185635, ,0.029555441745837897, ,0.1021528239378345, ,0.0005744607489360171, ,0.17705909660734534,-0.2367558217251008,0.09869303915000001,1.6137738050568995,0.15562897323283667,-1.3260305763138183, ,0.13873821865273506,0.03762765327457208,0.027416198829604135,0.047113946105868505,0.19044563424251898,-0.11375564915472458, ,1.2237420082092285
0.01437730099163014,0.02165733838747334,-0.08834892764714916, ,0.015421914832996882,0.021485324944235072,-0.08930968062423918, ,0.001429633864042466, ,0.01536250577898467,0.0031359381599586483,-0.025053611413111587,0.0849615526458213,0.05671634580321967,-0.0045497317047185635, ,0.029555441745837897, ,0.1021528239378345, ,0.0005831870052126135, ,0.17705909660734534,-0.2367558217251008,0.09869303915000001,1.6137738050568995,0.15562897323283667,-1.3260305763138183, ,0.13873821865273506,0.03762765327457208,0.027416198829604135,0.047113946105868505,0.19044563424251898,-0.11375564915472458, ,1.2261600494384766
0.01437730099163014,0.02165733838747334,-0.08834892764714916, ,0.015482694976755234,0.021490427764088885,-0.0893957702802809, ,0.0015315464462730165, ,0.01536250577898467,0.0031359381599586483,-0.025053611413111587,0.0849615526458213,0.05671634580321967,-0.0045497317047185635, ,0.029555441745837897, ,0.1021528239378345, ,0.0005927663935061529, ,0.17705909660734534,-0.2367558217251008,0.09869303915000001,1.6137738050568995,0.15562897323283667,-1.3260305763138183, ,0.13873821865273506,0.03762765327457208,0.027416198829604135,0.047113946105868505,0.19044563424251898,-0.11375564915472458, ,1.228600025177002
0.01437730099163014,0.02165733838747334,-0.08834892764714916, ,0.015543343824082664,0.021495322150600484,-0.08948167143622435, ,0.0016337116146409548, ,0.01536250577898467,0.0031359381599586483,-0.025053611413111587,0.0849615526458213,0.05671634580321967,-0.0045497317047185635, ,0.029555441745837897, ,0.1021528239378345, ,0.0006031758457175009, ,0.17705909660734534,-0.2367558217251008,0.09869303915000001,1.6137738050568995,0.15562897323283667,-1.3260305763138183, ,0.13873821865273506,0.03762765327457208,0.027416198829604135,0.047113946105868505,0.19044563424251898,-0.11375564915472458, ,1.2310481071472168
0.01437730099163014,0.02165733838747334,-0.08834892764714916, ,0.015603861929784796,0.02150000988059662,-0.08956738619588947, ,0.0017360429801941044, ,0.01536250577898467,0.0031359381599586483,-0.025053611413111587,0.0849615526458213,0.05671634580321967,-0.0045497317047185635, ,0.029555441745837897, ,0.1021528239378345, ,0.0006143923519994476, ,0.17705909660734534,-0.2367558217251008,0.09869303915000001,1.6137738050568995,0.15562897323283667,-1.3260305763138183, ,0.13873821865273506,0.03762765327457208,0.027416198829604135,0.047113946105868505,0.19044563424251898,-0.11375564915472458, ,1.2336161136627197
0.014541244891332017,0.021698011888773502,-0.08863623606472955, ,0.015664249847397116,0.021504492725564497,-0.08965291665336222, ,0.0015271637820411972, ,0.01686258177116805,0.004407264763964513,-0.02987552026802709,0.07404303317116442,0.07267611187818442,0.04025806081935216, ,0.03458782094862742, ,0.10375049011398967, ,0.0006233410915096608, ,0.17851097038769953,-0.23638513054713803,0.09900674133000001,1.613983495000384,0.1578151572290837,-1.3273231903321174, ,0.1482764711851106,0.0362894613990328,0.03264100721311476,0.009038762044598839,0.22582236840857198,-0.10799624103770997, ,1.2360570430755615
0.014541244891332017,0.021698011888773502,-0.08863623606472955, ,0.01572450812918615,0.02150877245165814,-0.08973826489300926, ,0.0016280021477185903, ,0.01686258177116805,0.004407264763964513,-0.02987552026802709,0.07404303317116442,0.07267611187818442,0.04025806081935216, ,0.03458782094862742, ,0.10375049011398967, ,0.0006330950823466407, ,0.1794685892641034,-0.23614572582803706,0.09922192547000001,1.6141931849438687,0.15890824922720723,-1.3277244611208454, ,0.14100585669906504,0.03513400279839718,0.03173070023904383,0.008657112918965787,0.11059241352581689,-0.027277971172732562, ,1.2387309074401855
0.014654445679629887,0.021727193613139687,-0.08883331248477602, ,0.015784637326150833,0.021512850819704755,-0.08982343298949445, ,0.001517766320889713, ,0.017163081065589444,0.004277650695916108,-0.029051267514130744,-0.005686203295485416,-0.031684831016611424,0.012143101609146811, ,0.03401243583335152, ,0.032190693241602494, ,0.0006416015365634009, ,0.1794685892641034,-0.23614572582803706,0.09922192547000001,1.6141931849438687,0.15890824922720723,-1.3277244611208454, ,0.14100585669906504,0.03513400279839718,0.03173070023904383,0.008657112918965787,0.11059241352581689,-0.027277971172732562, ,1.2413010597229004
0.014654445679629887,0.021727193613139687,-0.08883331248477602, ,0.0158446379880237,0.021516729585211176,-0.08990842300779403, ,0.0016176264941931862, ,0.017163081065589444,0.004277650695916108,-0.029051267514130744,-0.005686203295485416,-0.031684831016611424,0.012143101609146811, ,0.03401243583335152, ,0.032190693241602494, ,0.0006508970123503512, ,0.1794685892641034,-0.23614572582803706,0.09922192547000001,1.6141931849438687,0.15890824922720723,-1.3277244611208454, ,0.14100585669906504,0.03513400279839718,0.03173070023904383,0.008657112918965787,0.11059241352581689,-0.027277971172732562, ,1.2435638904571533
0.014654445679629887,0.021727193613139687,-0.08883331248477602, ,0.015904510663272316,0.021520410498370324,-0.08999323700321235, ,0.001717802843271722, ,0.017163081065589444,0.004277650695916108,-0.029051267514130744,-0.005686203295485416,-0.031684831016611424,0.012143101609146811, ,0.03401243583335152, ,0.032190693241602494, ,0.000660962161698666, ,0.1794685892641034,-0.23614572582803706,0.09922192547000001,1.6141931849438687,0.15890824922720723,-1.3277244611208454, ,0.14100585669906504,0.03513400279839718,0.03173070023904383,0.008657112918965787,0.11059241352581689,-0.027277971172732562, ,1.245805025100708
0.014654445679629887,0.021727193613139687,-0.08883331248477602, ,0.015964255899100544,0.021523895304067224,-0.09007787702139713, ,0.0018182062312390242, ,0.017163081065589444,0.004277650695916108,-0.029051267514130744,-0.005686203295485416,-0.031684831016611424,0.012143101609146811, ,0.03401243583335152, ,0.032190693241602494, ,0.0006717775268345572, ,0.1794685892641034,-0.23614572582803706,0.09922192547000001,1.6141931849438687,0.15890824922720723,-1.3277244611208454, ,0.14100585669906504,0.03513400279839718,0.03173070023904383,0.008657112918965787,0.11059241352581689,-0.027277971172732562, ,1.2480289936065674
0.01489539108871313,0.021777269069179653,-0.0892124516097517, ,0.01602387424144969,0.021527185741885765,-0.09016234509835513, ,0.0014960994406428413, ,0.020901328065819055,0.0035339476260715583,-0.0329621101890051,-0.06411076422649174,-0.08609342799898191,-0.05972093061836045, ,0.0391899860787284, ,0.10734164859496045, ,0.000679410137147597, ,0.1814224406812822,-0.23561285725971556,0.09963673827000001,1.6150319447178065,0.15972806822579988,-1.3271677874409156, ,0.16825698857884888,0.05463266641247599,0.035875701621621625,0.06863116417013615,0.06796473168262453,0.022515286592510855, ,1.2502880096435547
0.01489539108871313,0.021777269069179653,-0.0892124516097517, ,0.016083366234999962,0.021530283546114953,-0.09024664326046827, ,0.0015943146387117644, ,0.020901328065819055,0.0035339476260715583,-0.0329621101890051,-0.06411076422649174,-0.08609342799898191,-0.05972093061836045, ,0.0391899860787284, ,0.10734164859496045, ,0.0006878037564280021, ,0.1814224406812822,-0.23561285725971556,0.09963673827000001,1.6150319447178065,0.15972806822579988,-1.3271677874409156, ,0.16825698857884888,0.05463266641247599,0.035875701621621625,0.06863116417013615,0.06796473168262453,0.022515286592510855, ,1.2525219917297363
0.01489539108871313,0.021777269069179653,-0.0892124516097517, ,0.016142732423171664,0.021533190445755086,-0.09033077352450841, ,0.001692949699219305, ,0.020901328065819055,0.0035339476260715583,-0.0329621101890051,-0.06411076422649174,-0.08609342799898191,-0.05972093061836045, ,0.0391899860787284, ,0.10734164859496045, ,0.000696941446817014, ,0.1814224406812822,-0.23561285725971556,0.09963673827000001,1.6150319447178065,0.15972806822579988,-1.3271677874409156, ,0.16825698857884888,0.05463266641247599,0.035875701621621625,0.06863116417013615,0.06796473168262453,0.022515286592510855, ,1.2547380924224854
0.01489539108871313,0.021777269069179653,-0.0892124516097517, ,0.01620197334812657,0.02153590816452448,-0.09041473789765332, ,0.0017918997195675163, ,0.020901328065819055,0.0035339476260715583,-0.0329621101890051,-0.06411076422649174,-0.08609342799898191,-0.05972093061836045, ,0.0391899860787284, ,0.10734164859496045, ,0.0007068059357607122, ,0.1814224406812822,-0.23561285725971556,0.09963673827000001,1.6150319447178065,0.15972806822579988,-1.3271677874409156, ,0.16825698857884888,0.05463266641247599,0.035875701621621625,0.06863116417013615,0.06796473168262453,0.022515286592510855, ,1.2569799423217773
0.01511243496970751,0.02182615655300809,-0.08962785750196284, ,0.016261089550769058,0.021538438420865627,-0.09049853837750235, ,0.0014697871468983136, ,0.022089478866966574,0.006590310973028241,-0.04676924308924911,0.21070530195055753,0.16323591872490179,0.006561595651933727, ,0.052141532145465914, ,0.26653792537295373, ,0.0007136182680030122, ,0.1831600555779827,-0.23501048409552605,0.10006710655,1.6156610145482602,0.16246079822110868,-1.3291511092944224, ,0.17804304232358495,0.05872335492479627,0.0502486167823344,0.06935585595095768,0.3347267362674905,-0.25302931979510374, ,1.2592430114746094
0.01511243496970751,0.02182615655300809,-0.08962785750196284, ,0.016320081570747526,0.021540782927951443,-0.09058217695209161, ,0.001565430941234894, ,0.022089478866966574,0.006590310973028241,-0.04676924308924911,0.21070530195055753,0.16323591872490179,0.006561595651933727, ,0.052141532145465914, ,0.26653792537295373, ,0.0007211564332528518, ,0.1831600555779827,-0.23501048409552605,0.10006710655,1.6156610145482602,0.16246079822110868,-1.3291511092944224, ,0.17804304232358495,0.05872335492479627,0.0502486167823344,0.06935585595095768,0.3347267362674905,-0.25302931979510374, ,1.2614939212799072
0.01511243496970751,0.02182615655300809,-0.08962785750196284, ,0.016378949946455636,0.021542943393692084,-0.09066565559991004, ,0.0016617144074839948, ,0.022089478866966574,0.006590310973028241,-0.04676924308924911,0.21070530195055753,0.16323591872490179,0.006561595651933727, ,0.052141532145465914, ,0.26653792537295373, ,0.0007294069417987391, ,0.1831600555779827,-0.23501048409552605,0.10006710655,1.6156610145482602,0.16246079822110868,-1.3291511092944224, ,0.17804304232358495,0.05872335492479627,0.0502486167823344,0.06935585595095768,0.3347267362674905,-0.25302931979510374, ,1.263700008392334
0.01511243496970751,0.02182615655300809,-0.08962785750196284, ,0.01643769521503361,0.021544921520740747,-0.09074897628991462, ,0.0017584979948565976, ,0.022089478866966574,0.006590310973028241,-0.04676924308924911,0.21070530195055753,0.16323591872490179,0.006561595651933727, ,0.052141532145465914, ,0.26653792537295373, ,0.0007383555596514161, ,0.1831600555779827,-0.23501048409552605,0.10006710655,1.6156610145482602,0.16246079822110868,-1.3291511092944224, ,0.17804304232358495,0.05872335492479627,0.0502486167823344,0.06935585595095768,0.3347267362674905,-0.25302931979510374, ,1.2661330699920654
0.01511243496970751,0.02182615655300809,-0.08962785750196284, ,0.016496317912369406,0.021546719006500445,-0.09083214098154592, ,0.001855671318037086, ,0.022089478866966574,0.006590310973028241,-0.04676924308924911,0.21070530195055753,0.16323591872490179,0.006561595651933727, ,0.052141532145465914, ,0.26653792537295373, ,0.0007479875920512926, ,0.1831600555779827,-0.23501048409552605,0.10006710655,1.6156610145482602,0.16246079822110868,-1.3291511092944224, ,0.17804304232358495,0.05872335492479627,0.0502486167823344,0.06935585595095768,0.3347267362674905,-0.25302931979510374, ,1.268723964691162
0.015340098171951269,0.021892607085002506,-0.09008261799885658, ,0.01655481857310015,0.021548337543130354,-0.09091515162474408, ,0.0015123423582845028, ,0.024465190025757325,0.00662114802540506,-0.04575055134481591,0.10602519092723356,0.07693551409286682,0.02590818957075008, ,0.05230198918325553, ,0.13099699997004324, ,0.0007545205387712345, ,0.18506757059791615,-0.2344544473285819,0.10057784481000001,1.6158707044917449,0.1656034377157138,-1.3310602911583156, ,0.19811470053960498,0.05475876604643438,0.049777536000000004,0.03279292942477711,0.2760133666147842,-0.15355856241441984, ,1.271083116531372
0.015340098171951269,0.021892607085002506,-0.09008261799885658, ,0.01661319773061334,0.021549778817551903,-0.09099801015996366, ,0.0016050721216957886, ,0.024465190025757325,0.00662114802540506,-0.04575055134481591,0.10602519092723356,0.07693551409286682,0.02590818957075008, ,0.05230198918325553, ,0.13099699997004324, ,0.000761728603033307, ,0.18506757059791615,-0.2344544473285819,0.10057784481000001,1.6158707044917449,0.1656034377157138,-1.3310602911583156, ,0.19811470053960498,0.05475876604643438,0.049777536000000004,0.03279292942477711,0.2760133666147842,-0.15355856241441984, ,1.2734789848327637
0.015340098171951269,0.021892607085002506,-0.09008261799885658, ,0.016671455917048106,0.021551044511455706,-0.09108071851819016, ,0.0016986415406939762, ,0.024465190025757325,0.00662114802540506,-0.04575055134481591,0.10602519092723356,0.07693551409286682,0.02590818957075008, ,0.05230198918325553, ,0.13099699997004324, ,0.0007696018209968421, ,0.18506757059791615,-0.2344544473285819,0.10057784481000001,1.6158707044917449,0.1656034377157138,-1.3310602911583156, ,0.19811470053960498,0.05475876604643438,0.049777536000000004,0.03279292942477711,0.2760133666147842,-0.15355856241441984, ,1.275860071182251
0.015340098171951269,0.021892607085002506,-0.09008261799885658, ,0.016729593663296516,0.021552136301307125,-0.0911632786209543, ,0.0017928874630526988, ,0.024465190025757325,0.00662114802540506,-0.04575055134481591,0.10602519092723356,0.07693551409286682,0.02590818957075008, ,0.05230198918325553, ,0.13099699997004324, ,0.0007781292013473076, ,0.18506757059791615,-0.2344544473285819,0.10057784481000001,1.6158707044917449,0.1656034377157138,-1.3310602911583156, ,0.19811470053960498,0.05475876604643438,0.049777536000000004,0.03279292942477711,0.2760133666147842,-0.15355856241441984, ,1.2783019542694092
0.015447104105869408,0.021918308854665017,-0.09027037354948576, ,0.016787611499004852,0.021553055858353223,-0.09124569238034924, ,0.001697532516390313, ,0.025756651297522894,0.005683045974878258,-0.04337403046498721,-0.03852430838831624,-0.006679854101399867,0.011313195931917425, ,0.05076424545280277, ,0.0390971773059307, ,0.0007857275758517951, ,0.1859325166798293,-0.23421504260948092,0.10078265863000001,1.6158707044917449,0.1665598932140719,-1.3312684653032065, ,0.20856470672191377,0.05861454080202025,0.04740717714285715,0.026794861557339636,0.2014314455239574,-0.013976778710838411, ,1.2806038856506348
0.015447104105869408,0.021918308854665017,-0.09027037354948576, ,0.016845509952574878,0.021553804848629086,-0.09132796169904445, ,0.001790780493696322, ,0.025756651297522894,0.005683045974878258,-0.04337403046498721,-0.03852430838831624,-0.006679854101399867,0.011313195931917425, ,0.05076424545280277, ,0.0390971773059307, ,0.000793965714522652, ,0.1859325166798293,-0.23421504260948092,0.10078265863000001,1.6158707044917449,0.1665598932140719,-1.3312684653032065, ,0.20856470672191377,0.05861454080202025,0.04740717714285715,0.026794861557339636,0.2014314455239574,-0.013976778710838411, ,1.2828950881958008
0.015447104105869408,0.021918308854665017,-0.09027037354948576, ,0.016903289551165032,0.021554384932964202,-0.0914100884703024, ,0.0018846396930471817, ,0.025756651297522894,0.005683045974878258,-0.04337403046498721,-0.03852430838831624,-0.006679854101399867,0.011313195931917425, ,0.05076424545280277, ,0.0390971773059307, ,0.0008028329826407376, ,0.1859325166798293,-0.23421504260948092,0.10078265863000001,1.6158707044917449,0.1665598932140719,-1.3312684653032065, ,0.20856470672191377,0.05861454080202025,0.04740717714285715,0.026794861557339636,0.2014314455239574,-0.013976778710838411, ,1.2851390838623047
0.015447104105869408,0.021918308854665017,-0.09027037354948576, ,0.016960950820691906,0.02155479776698854,-0.0914920745779939, ,0.0019789961065905183, ,0.025756651297522894,0.005683045974878258,-0.04337403046498721,-0.03852430838831624,-0.006679854101399867,0.011313195931917425, ,0.05076424545280277, ,0.0390971773059307, ,0.0008123181691242036, ,0.1859325166798293,-0.23421504260948092,0.10078265863000001,1.6158707044917449,0.1665598932140719,-1.3312684653032065, ,0.20856470672191377,0.05861454080202025,0.04740717714285715,0.026794861557339636,0.2014314455239574,-0.013976778710838411, ,1.2873659133911133
0.015447104105869408,0.021918308854665017,-0.09027037354948576, ,0.017018494285831284,0.02155504500113905,-0.09157392189661305, ,0.0020737564992682803, ,0.025756651297522894,0.005683045974878258,-0.04337403046498721,-0.03852430838831624,-0.006679854101399867,0.011313195931917425, ,0.05076424545280277, ,0.0390971773059307, ,0.0008224096757653562, ,0.1859325166798293,-0.23421504260948092,0.10078265863000001,1.6158707044917449,0.1665598932140719,-1.3312684653032065, ,0.20856470672191377,0.05861454080202025,0.04740717714285715,0.026794861557339636,0.2014314455239574,-0.013976778710838411, ,1.2900021076202393
0.015871928046699395,0.02199175994551815,-0.09096518184008806, ,0.017075920470019573,0.02155512828066629,-0.09165563229129377, ,0.0014549799970219068, ,0.026225412264341243,0.0035221148609704874,-0.04180861041307112,-0.1033249521015966,-0.04345972610467941,0.025681754302450517, ,0.049478656471255246, ,0.11209221997701276, ,0.0008274300751404081, ,0.18931507367873962,-0.2331029690755926,0.10153969199000001,1.616080394435229,0.16915598670961526,-1.3303632920882378, ,0.21041450456423677,0.07579627920005652,0.04551089005714286,0.0,0.1716365703076599,0.02906339884210099, ,1.2928500175476074
0.015871928046699395,0.02199175994551815,-0.09096518184008806, ,0.017133229895454963,0.02155504924564066,-0.09173720761782485, ,0.0015419540818558098, ,0.026225412264341243,0.0035221148609704874,-0.04180861041307112,-0.1033249521015966,-0.04345972610467941,0.025681754302450517, ,0.049478656471255246, ,0.11209221997701276, ,0.0008330562484216318, ,0.18931507367873962,-0.2331029690755926,0.10153969199000001,1.616080394435229,0.16915598670961526,-1.3303632920882378, ,0.21041450456423677,0.07579627920005652,0.04551089005714286,0.0,0.1716365703076599,0.02906339884210099, ,1.2950561046600342
0.015871928046699395,0.02199175994551815,-0.09096518184008806, ,0.017190423083098837,0.021554809530958466,-0.09181864972266521, ,0.0016302644731406505, ,0.026225412264341243,0.0035221148609704874,-0.04180861041307112,-0.1033249521015966,-0.04345972610467941,0.025681754302450517, ,0.049478656471255246, ,0.11209221997701276, ,0.0008392844376772491, ,0.18931507367873962,-0.2331029690755926,0.10153969199000001,1.616080394435229,0.16915598670961526,-1.3303632920882378, ,0.21041450456423677,0.07579627920005652,0.04551089005714286,0.0,0.1716365703076599,0.02906339884210099, ,1.297295093536377
0.01613579702109077,0.02201972676682153,-0.09136801220067306, ,0.017247500552676813,0.02155441076634874,-0.09189996044295964, ,0.0013173354375058245, ,0.02564998564268383,0.0020633800798575018,-0.03597566479807554,0.10380582342995118,0.09031460749163481,-0.028756812836120915, ,0.044231524487488905, ,0.13759475659433798, ,0.0008429902593813465, ,0.19155466621226475,-0.23229208212379904,0.10198043059,1.6169191542091674,0.17188871670492406,-1.3312847903199172, ,0.22702617597720282,0.0779761228911017,0.03972272199501248,0.09189952599353686,0.3054929601742599,-0.16289409423579781, ,1.2995030879974365
0.01613579702109077,0.02201972676682153,-0.09136801220067306, ,0.01730446282268036,0.021553854576379324,-0.09198114160655516, ,0.0013995514717186346, ,0.02564998564268383,0.0020633800798575018,-0.03597566479807554,0.10380582342995118,0.09031460749163481,-0.028756812836120915, ,0.044231524487488905, ,0.13759475659433798, ,0.0008472714994762488, ,0.19155466621226475,-0.23229208212379904,0.10198043059,1.6169191542091674,0.17188871670492406,-1.3312847903199172, ,0.22702617597720282,0.0779761228911017,0.03972272199501248,0.09189952599353686,0.3054929601742599,-0.16289409423579781, ,1.3022079467773438
0.01613579702109077,0.02201972676682153,-0.09136801220067306, ,0.01736131041036764,0.02155314258046345,-0.09206219503201547, ,0.0014837363895203513, ,0.02564998564268383,0.0020633800798575018,-0.03597566479807554,0.10380582342995118,0.09031460749163481,-0.028756812836120915, ,0.044231524487488905, ,0.13759475659433798, ,0.0008521300100872725, ,0.19155466621226475,-0.23229208212379904,0.10198043059,1.6169191542091674,0.17188871670492406,-1.3312847903199172, ,0.22702617597720282,0.0779761228911017,0.03972272199501248,0.09189952599353686,0.3054929601742599,-0.16289409423579781, ,1.304460048675537
0.01613579702109077,0.02201972676682153,-0.09136801220067306, ,0.017418043831765085,0.021552276392865784,-0.09214312252863682, ,0.0015695422122746223, ,0.02564998564268383,0.0020633800798575018,-0.03597566479807554,0.10380582342995118,0.09031460749163481,-0.028756812836120915, ,0.044231524487488905, ,0.13759475659433798, ,0.0008575649510129342, ,0.19155466621226475,-0.23229208212379904,0.10198043059,1.6169191542091674,0.17188871670492406,-1.3312847903199172, ,0.22702617597720282,0.0779761228911017,0.03972272199501248,0.09189952599353686,0.3054929601742599,-0.16289409423579781, ,1.306670904159546
0.01613579702109077,0.02201972676682153,-0.09136801220067306, ,0.0174746636016686,0.021551257622709204,-0.09222392589646404, ,0.001656688055795683, ,0.02564998564268383,0.0020633800798575018,-0.03597566479807554,0.10380582342995118,0.09031460749163481,-0.028756812836120915, ,0.044231524487488905, ,0.13759475659433798, ,0.0008635733954097969, ,0.19155466621226475,-0.23229208212379904,0.10198043059,1.6169191542091674,0.17188871670492406,-1.3312847903199172, ,0.22702617597720282,0.0779761228911017,0.03972272199501248,0.09189952599353686,0.3054929601742599,-0.16289409423579781, ,1.3089709281921387
0.01639478065664747,0.02202821560214517,-0.09169969694633633, ,0.017531170233644765,0.02155008787398086,-0.09230460692630528, ,0.0013732820100087592, ,0.02571624953760253,-0.0004868446028529187,-0.029678485926600495,0.04909293595336571,0.03641721355956649,0.007554249537732358, ,0.039273082828357044, ,0.06112533663288576, ,0.0008673771910411325, ,0.19389465427315478,-0.23145802697338277,0.10234857695,1.6177579139831053,0.17489471969976378,-1.3328375180596923, ,0.23547628178280589,0.08762413809646424,0.03311603226611227,0.04233071852330046,0.2703251181963826,-0.12663164625515091, ,1.312269926071167
0.01639478065664747,0.02202821560214517,-0.09169969694633633, ,0.017587564240032133,0.021548768745538724,-0.09238516739974864, ,0.0014568705184754905, ,0.02571624953760253,-0.0004868446028529187,-0.029678485926600495,0.04909293595336571,0.03641721355956649,0.007554249537732358, ,0.039273082828357044, ,0.06112533663288576, ,0.0008717438082813869, ,0.19389465427315478,-0.23145802697338277,0.10234857695,1.6177579139831053,0.17489471969976378,-1.3328375180596923, ,0.23547628178280589,0.08762413809646424,0.03311603226611227,0.04233071852330046,0.2703251181963826,-0.12663164625515091, ,1.3147320747375488
0.01639478065664747,0.02202821560214517,-0.09169969694633633, ,0.017643846131942496,0.02154730183111767,-0.09246560908917645, ,0.0015420972820441095, ,0.02571624953760253,-0.0004868446028529187,-0.029678485926600495,0.04909293595336571,0.03641721355956649,0.007554249537732358, ,0.039273082828357044, ,0.06112533663288576, ,0.000876672877941407, ,0.19389465427315478,-0.23145802697338277,0.10234857695,1.6177579139831053,0.17489471969976378,-1.3328375180596923, ,0.23547628178280589,0.08762413809646424,0.03311603226611227,0.04233071852330046,0.2703251181963826,-0.12663164625515091, ,1.3194749355316162
0.016634484974947197,0.022016719698415836,-0.09195684980195515, ,0.017700016419262093,0.021545688719336507,-0.09254593375778203, ,0.0013054682489776854, ,0.02749824702348647,-0.0016610164534138776,-0.028282038524322924,-0.06224766529032188,-0.08189966645813908,0.04590977689609172, ,0.03948146740072461, ,0.10287035095332553, ,0.0008798027711606499, ,0.19606474221081185,-0.23062397182296654,0.10263635333000001,1.61796760392659,0.17680763069647995,-1.333335545089615, ,0.24648556248953452,0.09508711579005087,0.03173070023904383,-0.024231080984835656,0.17512730696478074,-0.03530715979205181, ,1.3218040466308594
0.016634484974947197,0.022016719698415836,-0.09195684980195515, ,0.01775607561065308,0.021543930993703383,-0.09262614315958409, ,0.0013890458278879886, ,0.02749824702348647,-0.0016610164534138776,-0.028282038524322924,-0.06224766529032188,-0.08189966645813908,0.04590977689609172, ,0.03948146740072461, ,0.10287035095332553, ,0.0008834929382383843, ,0.19606474221081185,-0.23062397182296654,0.10263635333000001,1.61796760392659,0.17680763069647995,-1.333335545089615, ,0.24648556248953452,0.09508711579005087,0.03173070023904383,-0.024231080984835656,0.17512730696478074,-0.03530715979205181, ,1.324120044708252
0.016634484974947197,0.022016719698415836,-0.09195684980195515, ,0.017812024213554437,0.02154203023262315,-0.0927062390394439, ,0.0014742838860471344, ,0.02749824702348647,-0.0016610164534138776,-0.028282038524322924,-0.06224766529032188,-0.08189966645813908,0.04590977689609172, ,0.03948146740072461, ,0.10287035095332553, ,0.0008877432328269364, ,0.19606474221081185,-0.23062397182296654,0.10263635333000001,1.61796760392659,0.17680763069647995,-1.333335545089615, ,0.24648556248953452,0.09508711579005087,0.03173070023904383,-0.024231080984835656,0.17512730696478074,-0.03530715979205181, ,1.3264141082763672
0.016634484974947197,0.022016719698415836,-0.09195684980195515, ,0.017867862734183556,0.021539988009402898,-0.09278622313307847, ,0.0015608824179503778, ,0.02749824702348647,-0.0016610164534138776,-0.028282038524322924,-0.06224766529032188,-0.08189966645813908,0.04590977689609172, ,0.03948146740072461, ,0.10287035095332553, ,0.0008925513698635324, ,0.19606474221081185,-0.23062397182296654,0.10263635333000001,1.61796760392659,0.17680763069647995,-1.333335545089615, ,0.24648556248953452,0.09508711579005087,0.03173070023904383,-0.024231080984835656,0.17512730696478074,-0.03530715979205181, ,1.3286330699920654
0.01697506645282389,0.021996716445746328,-0.09230125146569396, ,0.01792359167753741,0.0215378058922589,-0.09286609716707868, ,0.0011955541244095865, ,0.02749824702348647,-0.0016610164534138776,-0.028282038524322924,-0.06224766529032188,-0.08189966645813908,0.04590977689609172, ,0.03948146740072461, ,0.10287035095332553, ,0.0008947003255695327, ,0.19909205349750786,-0.22946556189183287,0.10302394404000001,1.61796760392659,0.1787205416931961,-1.3337518933793968, ,0.24457974628471849,0.09303621721418705,0.03160478476190477,-0.015113123476517026,0.15567112907683486,-0.051025660004092484, ,1.3314249515533447
0.01697506645282389,0.021996716445746328,-0.09230125146569396, ,0.017979211547393684,0.02153548544432257,-0.09294586285892278, ,0.0012792831023285488, ,0.02765033795686299,-0.0015582844369795685,-0.028048730082195775,-0.04288936646601264,-0.09683789165704976,0.03288193362349428, ,0.03941701027144429, ,0.10591061162974684, ,0.0008974086549833287, ,0.19909205349750786,-0.22946556189183287,0.10302394404000001,1.61796760392659,0.1787205416931961,-1.3337518933793968, ,0.24457974628471849,0.09303621721418705,0.03160478476190477,-0.015113123476517026,0.15567112907683486,-0.051025660004092484, ,1.3338370323181152
0.01697506645282389,0.021996716445746328,-0.09230125146569396, ,0.018034722846312176,0.021533028223647267,-0.09302552191699319, ,0.0013647146684194413, ,0.02765033795686299,-0.0015582844369795685,-0.028048730082195775,-0.04288936646601264,-0.09683789165704976,0.03288193362349428, ,0.03941701027144429, ,0.10591061162974684, ,0.0009006765292031616, ,0.19909205349750786,-0.22946556189183287,0.10302394404000001,1.61796760392659,0.1787205416931961,-1.3337518933793968, ,0.24457974628471849,0.09303621721418705,0.03160478476190477,-0.015113123476517026,0.15567112907683486,-0.051025660004092484, ,1.3360660076141357
0.01697506645282389,0.021996716445746328,-0.09230125146569396, ,0.01809012607563599,0.021530435783214275,-0.09310507604059148, ,0.0014515197435399836, ,0.02765033795686299,-0.0015582844369795685,-0.028048730082195775,-0.04288936646601264,-0.09683789165704976,0.03288193362349428, ,0.03941701027144429, ,0.10591061162974684, ,0.000904501829302723, ,0.19909205349750786,-0.22946556189183287,0.10302394404000001,1.61796760392659,0.1787205416931961,-1.3337518933793968, ,0.24457974628471849,0.09303621721418705,0.03160478476190477,-0.015113123476517026,0.15567112907683486,-0.051025660004092484, ,1.3382880687713623
0.01697506645282389,0.021996716445746328,-0.09230125146569396, ,0.018145421735492877,0.021527709670939286,-0.09318452691995396, ,0.0015394396287559738, ,0.02765033795686299,-0.0015582844369795685,-0.028048730082195775,-0.04288936646601264,-0.09683789165704976,0.03288193362349428, ,0.03941701027144429, ,0.10591061162974684, ,0.0009088807106782626, ,0.19909205349750786,-0.22946556189183287,0.10302394404000001,1.61796760392659,0.1787205416931961,-1.3337518933793968, ,0.24457974628471849,0.09303621721418705,0.03160478476190477,-0.015113123476517026,0.15567112907683486,-0.051025660004092484, ,1.340522050857544
0.017263663544286777,0.021971533963482007,-0.09258491534228053, ,0.018200610324796432,0.021524851429678964,-0.09326387623626786, ,0.001240315464338083, ,0.027576580078217203,-0.0031168340425980086,-0.026875456210285257,-0.059227408031343215,-0.13304760214561573,0.0050569529630465114, ,0.038632532531150274, ,0.1456349418161783, ,0.0009111508117307272, ,0.20161738714737928,-0.22843071568668677,0.10334283138000001,1.6177579139831053,0.17995027019108506,-1.3342645820718213, ,0.24024542166701462,0.10555833321298196,0.030111174896030254,0.0,0.11038043668553175,-0.04412192406127499, ,1.3427839279174805
0.017263663544286777,0.021971533963482007,-0.09258491534228053, ,0.018255692341247243,0.021521862597237047,-0.09334312566168565, ,0.0013271052558376276, ,0.027576580078217203,-0.0031168340425980086,-0.026875456210285257,-0.059227408031343215,-0.13304760214561573,0.0050569529630465114, ,0.038632532531150274, ,0.1456349418161783, ,0.0009139804337994816, ,0.20161738714737928,-0.22843071568668677,0.10334283138000001,1.6177579139831053,0.17995027019108506,-1.3342645820718213, ,0.24024542166701462,0.10555833321298196,0.030111174896030254,0.0,0.11038043668553175,-0.04412192406127499, ,1.345017910003662
0.017263663544286777,0.021971533963482007,-0.09258491534228053, ,0.018310668281334437,0.021518744706370725,-0.0934222768593417, ,0.0014150658433481475, ,0.027576580078217203,-0.0031168340425980086,-0.026875456210285257,-0.059227408031343215,-0.13304760214561573,0.0050569529630465114, ,0.038632532531150274, ,0.1456349418161783, ,0.0009173661460261616, ,0.20161738714737928,-0.22843071568668677,0.10334283138000001,1.6177579139831053,0.17995027019108506,-1.3342645820718213, ,0.24024542166701462,0.10555833321298196,0.030111174896030254,0.0,0.11038043668553175,-0.04412192406127499, ,1.3472959995269775
0.017263663544286777,0.021971533963482007,-0.09258491534228053, ,0.01836553864033665,0.021515499284797342,-0.09350133148336735, ,0.0015039663889536924, ,0.027576580078217203,-0.0031168340425980086,-0.026875456210285257,-0.059227408031343215,-0.13304760214561573,0.0050569529630465114, ,0.038632532531150274, ,0.1456349418161783, ,0.0009213030604082257, ,0.20161738714737928,-0.22843071568668677,0.10334283138000001,1.6177579139831053,0.17995027019108506,-1.3342645820718213, ,0.24024542166701462,0.10555833321298196,0.030111174896030254,0.0,0.11038043668553175,-0.04412192406127499, ,1.3495171070098877
0.017511515301878743,0.021940214820226865,-0.09283483142107642, ,0.01842030391232341,0.02151212785520036,-0.0935802911789065, ,0.0012509458176290593, ,0.026528070360578204,-0.003493727266116809,-0.027310756306917216,0.0040887148921810975,-0.06669430106396648,0.013988165631209639, ,0.03823378162465249, ,0.06681939980277082, ,0.0009235006787896978, ,0.20378747508503636,-0.22742676041303758,0.10362153373,1.61796760392659,0.1813166351887395,-1.3352154036285042, ,0.23259054303546764,0.10970744688840552,0.030398495267175574,0.004946379704544391,0.1698387886836071,-0.11046562236047616, ,1.3517239093780518
0.017511515301878743,0.021940214820226865,-0.09283483142107642, ,0.018474964590156448,0.021508631935236014,-0.09365915758213127, ,0.00133940730828948, ,0.026528070360578204,-0.003493727266116809,-0.027310756306917216,0.0040887148921810975,-0.06669430106396648,0.013988165631209639, ,0.03823378162465249, ,0.06681939980277082, ,0.0009262550273294315, ,0.20378747508503636,-0.22742676041303758,0.10362153373,1.61796760392659,0.1813166351887395,-1.3352154036285042, ,0.23259054303546764,0.10970744688840552,0.030398495267175574,0.004946379704544391,0.1698387886836071,-0.11046562236047616, ,1.3539860248565674
0.017511515301878743,0.021940214820226865,-0.09283483142107642, ,0.018529521165490868,0.021505013037539353,-0.09373793232025722, ,0.0014287504205088557, ,0.026528070360578204,-0.003493727266116809,-0.027310756306917216,0.0040887148921810975,-0.06669430106396648,0.013988165631209639, ,0.03823378162465249, ,0.06681939980277082, ,0.0009295609180740331, ,0.20378747508503636,-0.22742676041303758,0.10362153373,1.61796760392659,0.1813166351887395,-1.3352154036285042, ,0.23259054303546764,0.10970744688840552,0.030398495267175574,0.004946379704544391,0.1698387886836071,-0.11046562236047616, ,1.3563270568847656
0.017511515301878743,0.021940214820226865,-0.09283483142107642, ,0.01858397412877633,0.021501272669731057,-0.09381661701155951, ,0.0015187959351251458, ,0.026528070360578204,-0.003493727266116809,-0.027310756306917216,0.0040887148921810975,-0.06669430106396648,0.013988165631209639, ,0.03823378162465249, ,0.06681939980277082, ,0.000933412127335805, ,0.20378747508503636,-0.22742676041303758,0.10362153373,1.61796760392659,0.1813166351887395,-1.3352154036285042, ,0.23259054303546764,0.10970744688840552,0.030398495267175574,0.004946379704544391,0.1698387886836071,-0.11046562236047616, ,1.3587439060211182
0.017511515301878743,0.021940214820226865,-0.09283483142107642, ,0.018638323969258578,0.021497412334423427,-0.09389521326538772, ,0.0016094040729602557, ,0.026528070360578204,-0.003493727266116809,-0.027310756306917216,0.0040887148921810975,-0.06669430106396648,0.013988165631209639, ,0.03823378162465249, ,0.06681939980277082, ,0.0009378016854242754, ,0.20378747508503636,-0.22742676041303758,0.10362153373,1.61796760392659,0.1813166351887395,-1.3352154036285042, ,0.23259054303546764,0.10970744688840552,0.030398495267175574,0.004946379704544391,0.1698387886836071,-0.11046562236047616, ,1.361354112625122
0.017511515301878743,0.021940214820226865,-0.09283483142107642, ,0.018692571174980344,0.021493433529226898,-0.09397372268218222, ,0.001700464584164739, ,0.026528070360578204,-0.003493727266116809,-0.027310756306917216,0.0040887148921810975,-0.06669430106396648,0.013988165631209639, ,0.03823378162465249, ,0.06681939980277082, ,0.000942722091222601, ,0.20378747508503636,-0.22742676041303758,0.10362153373,1.61796760392659,0.1813166351887395,-1.3352154036285042, ,0.23259054303546764,0.10970744688840552,0.030398495267175574,0.004946379704544391,0.1698387886836071,-0.11046562236047616, ,1.36366605758667
0.017511515301878743,0.021940214820226865,-0.09283483142107642, ,0.01874671623278291,0.021489337746756508,-0.09405214685348856, ,0.0017918895995781895, ,0.026528070360578204,-0.003493727266116809,-0.027310756306917216,0.0040887148921810975,-0.06669430106396648,0.013988165631209639, ,0.03823378162465249, ,0.06681939980277082, ,0.0009481654726864188, ,0.20378747508503636,-0.22742676041303758,0.10362153373,1.61796760392659,0.1813166351887395,-1.3352154036285042, ,0.23259054303546764,0.10970744688840552,0.030398495267175574,0.004946379704544391,0.1698387886836071,-0.11046562236047616, ,1.366142988204956
0.01785358453451351,0.021906815018669767,-0.09321031374183139, ,0.01880075962830719,0.02148512647463806,-0.0941304873619744, ,0.001386247228194787, ,0.028144718909674318,-0.00196367174535882,-0.03306762723277524,0.03740761208610457,-0.05296781093721056,-0.06910942360096581, ,0.04346779474546504, ,0.06484503758516802, ,0.0009509558023393383, ,0.20672211357724168,-0.22606755942717408,0.10403893911,1.6188063637005279,0.1835028191849865,-1.3369164113475067, ,0.2343134359468414,0.10882676784228298,0.03661795751724139,0.09114136572275795,0.16596390224225044,-0.12553772250073014, ,1.3684170246124268
0.01785358453451351,0.021906815018669767,-0.09321031374183139, ,0.018854701845994977,0.021480801195514602,-0.09420874578144395, ,0.001476682154897273, ,0.028144718909674318,-0.00196367174535882,-0.03306762723277524,0.03740761208610457,-0.05296781093721056,-0.06910942360096581, ,0.04346779474546504, ,0.06484503758516802, ,0.000954283184317553, ,0.20672211357724168,-0.22606755942717408,0.10403893911,1.6188063637005279,0.1835028191849865,-1.3369164113475067, ,0.2343134359468414,0.10882676784228298,0.03661795751724139,0.09114136572275795,0.16596390224225044,-0.12553772250073014, ,1.3706870079040527
0.01785358453451351,0.021906815018669767,-0.09321031374183139, ,0.01890854336909034,0.02147636338705284,-0.09428692367685416, ,0.0015675827576249763, ,0.028144718909674318,-0.00196367174535882,-0.03306762723277524,0.03740761208610457,-0.05296781093721056,-0.06910942360096581, ,0.04346779474546504, ,0.06484503758516802, ,0.0009581404143383544, ,0.20908526983675438,-0.2249709313590342,0.10443171498,1.619225743587497,0.18514245718217182,-1.3379267112313014, ,0.23145595502066044,0.10734948140098505,0.04022427151515152,-0.016352735522970358,0.13463980372560283,-0.0990325993787582, ,1.3731400966644287
0.01814333595258784,0.0218911237943182,-0.09356596588048505, ,0.01896228467964076,0.021471814521949344,-0.09436502260432965, ,0.001218601219167849, ,0.029058045386871217,-0.0012766355392514802,-0.03648418804788416,-0.009155973984485213,-0.10453769397858621,0.025780042804490567, ,0.046659358948863854, ,0.104937584680984, ,0.0009597682943685386, ,0.20908526983675438,-0.2249709313590342,0.10443171498,1.619225743587497,0.18514245718217182,-1.3379267112313014, ,0.23145595502066044,0.10734948140098505,0.04022427151515152,-0.016352735522970358,0.13463980372560283,-0.0990325993787582, ,1.3761730194091797
0.01814333595258784,0.0218911237943182,-0.09356596588048505, ,0.019015926258498336,0.021467156067937188,-0.09444304411117922, ,0.001307833589467439, ,0.029058045386871217,-0.0012766355392514802,-0.03648418804788416,-0.009155973984485213,-0.10453769397858621,0.025780042804490567, ,0.046659358948863854, ,0.104937584680984, ,0.0009619301906113889, ,0.20908526983675438,-0.2249709313590342,0.10443171498,1.619225743587497,0.18514245718217182,-1.3379267112313014, ,0.23145595502066044,0.10734948140098505,0.04022427151515152,-0.016352735522970358,0.13463980372560283,-0.0990325993787582, ,1.3784019947052002
0.01814333595258784,0.0218911237943182,-0.09356596588048505, ,0.01906946858532121,0.021462389487791854,-0.09452098973591026, ,0.0013977143211105472, ,0.029058045386871217,-0.0012766355392514802,-0.03648418804788416,-0.009155973984485213,-0.10453769397858621,0.025780042804490567, ,0.046659358948863854, ,0.104937584680984, ,0.0009646202161082973, ,0.20908526983675438,-0.2249709313590342,0.10443171498,1.619225743587497,0.18514245718217182,-1.3379267112313014, ,0.23145595502066044,0.10734948140098505,0.04022427151515152,-0.016352735522970358,0.13463980372560283,-0.0990325993787582, ,1.3806519508361816
0.01814333595258784,0.0218911237943182,-0.09356596588048505, ,0.01912291213857472,0.021457516239338306,-0.09459886100824529, ,0.0014881052922555876, ,0.029058045386871217,-0.0012766355392514802,-0.03648418804788416,-0.009155973984485213,-0.10453769397858621,0.025780042804490567, ,0.046659358948863854, ,0.104937584680984, ,0.0009678317809926366, ,0.20908526983675438,-0.2249709313590342,0.10443171498,1.619225743587497,0.18514245718217182,-1.3379267112313014, ,0.23145595502066044,0.10734948140098505,0.04022427151515152,-0.016352735522970358,0.13463980372560283,-0.0990325993787582, ,1.3829240798950195
