NicholasDascanio/dvrk_moveit_final/test/execution/third_experiment_notsharpbends/thirdexp_500vel5.0/thirdexp_500vel5.0_9.csv
Current Position (x),Current Position (y),Current Position (z), ,Planned Position (x),Planned Position (y),Planned Position (z), ,Position Error,,Cartesian linear Velocity(x),Cartesian linear Velocity(y),Cartesian linear Velocity(z),Cartesian Angular Velocity(x),Cartesian Angular Velocity(y),Cartesian Angular Velocity(z), ,Total Linear Velocity, ,Total Angular Velocity, ,MSE, ,Joint 1 Position,Joint 2 Position,Joint 3 Position,Joint 4 Position,Joint 5 Position,Joint 6 Position, ,Joint 1 Velocity,Joint 2 Velocity,Joint 3 Velocity,Joint 4 Velocity,Joint 5 Velocity,Joint 6 Velocity, ,Time Stamp
0.009319162603309325,0.020251882469409267,-0.08016982120945866, ,0.009529253807133035,0.020197959625883034,-0.08024808305150825, ,0.00023058816730059213, ,9.15755299556985e-06,-4.099116503067058e-05,-9.290433215487113e-06,0.07481592802185079,-0.00048298087049326416,0.0014700215726018767, ,4.301684015324426e-05, ,0.07481748696856919, ,1.9215680608382676e-05, ,0.1297187440883491,-0.24543617347572913,0.08977586024,1.6024505481087352,0.1246124877860817,-1.3053944003627427, ,9.829322563130646e-05,0.0004875240960387788,0.0,-0.0015015232237538222,0.0,-0.07548782496152162, ,0.024993896484375
0.009328854054882938,0.020255031066139004,-0.0801817806029436, ,0.009579859759399291,0.020221126676047318,-0.08033253719154955, ,0.0002947556960863385, ,0.0004652584837756206,0.00019264712862766137,-0.0008373416269886475,0.25770222363102385,-0.004832439995193619,0.001825199118590321, ,0.000977097422564233, ,0.25774752868006506, ,2.3879266517587753e-05, ,0.12978052595134287,-0.24543617347572913,0.08978752685000001,1.6024505481087352,0.12420257828678537,-1.3083272962572758, ,0.004373799532932081,0.0003198454551175606,0.000905843201896079,-0.0015015232237538222,0.0,-0.25820824503086603, ,0.0474698543548584
0.009366673411729061,0.020263840613739786,-0.0802181888723203, ,0.009630582505246307,0.02024387530102067,-0.08041696575419105, ,0.0003309967856631335, ,0.002239214444910455,0.000707736219324879,-0.0026912787702005315,0.10388518615145634,-0.14597551236851522,-0.03302107850260465, ,0.0035718277261609353, ,0.17916746946036854, ,2.67606452828145e-05, ,0.12988864421158203,-0.2454284507428549,0.08982641555000001,1.6024505481087352,0.12174312129100744,-1.3126110369815636, ,0.006888370140175129,-0.00014426745715533616,0.0028767945674553013,-0.0015015232237538222,-0.14473919744046537,-0.1465239998014315, ,0.07024288177490234
0.009424224160778184,0.020287649328183936,-0.08030910888943837, ,0.009681420700297531,0.020266208641539173,-0.08050136948401378, ,0.0003218289906316913, ,0.00221354409301449,0.0007717318929874058,-0.0029000476412400535,0.2991553410133367,-0.11028961302359636,-0.024476627904783638, ,0.003729024522289343, ,0.31883807300492717, ,2.805165808766084e-05, ,0.13015121712930566,-0.2454284507428549,0.08992363730000001,1.6026602380522197,0.11887375479593319,-1.3187658499785573, ,0.013129073264868675,-0.00012451985214071462,0.004790620006015038,0.002890988711667739,-0.1581749725238017,-0.22589056653908118, ,0.0963289737701416
0.009488890925397949,0.020310381029906725,-0.08039129890559686, ,0.009732373006011173,0.020288129828565028,-0.08058574911961522, ,0.0003123932221938855, ,0.0017558716094523074,0.0010215648353996492,-0.004059317819096471,-0.1510124728098008,-0.00722327645094075,0.022542052700244217, ,0.004539244538272848, ,0.1511851271313264, ,2.86646704206854e-05, ,0.13050646284151998,-0.24543617347572913,0.09001308131,1.6030796179391889,0.11614102480062438,-1.318906175368705, ,0.01636436308992426,0.00024062061409191389,0.003916599832800591,-0.02130186983872246,0.014717898806973483,0.13957514134896842, ,0.12019991874694824
0.009520523842676803,0.02033183394566971,-0.0804723040626574, ,0.00978343808967091,0.020309641983298977,-0.08067010539362313, ,0.00032976014161531774, ,0.0011479538693703946,0.0008594906460312428,-0.0037042937061523545,-0.059092758349219156,0.0925162116576624,0.046100588709923916, ,0.003972192608403778, ,0.10977797369284571, ,2.9360048443402556e-05, ,0.13091576768385388,-0.24543617347572913,0.09010122903000001,1.6030796179391889,0.1175073897982788,-1.3156913811782194, ,0.021690729499079034,0.0012728501273563167,0.004024459706922689,-0.01754526939595604,0.12204426281790814,0.055647800534521674, ,0.14428400993347168
0.009556137056129985,0.020348864359596805,-0.080535501264728, ,0.009834614624376358,0.020330748217193047,-0.08075443903270761, ,0.00035469944584098407, ,0.002072797825421396,0.0006821392485740755,-0.003016927435813103,0.003388970121146894,-0.013331532234073129,0.015437833912953239, ,0.0037233930671470477, ,0.013755539609198321, ,3.020864512961031e-05, ,0.13134824072481047,-0.24543617347572913,0.09016993240000001,1.6030796179391889,0.11846384529663687,-1.3151644466618453, ,0.021670916090082388,0.0013854300048596765,0.0033690379695431477,-0.01316756370529701,0.012221246900878165,-0.00617660814141165, ,0.1669149398803711
0.009594375308484494,0.02036344960969441,-0.08059052219774879, ,0.009885901289033753,0.020351451631962857,-0.08083875075759413, ,0.0003830780165028335, ,0.0023098479479353442,0.0008943358388630129,-0.0036388292148109708,0.04840271117529605,-0.01623058558633463,0.0011155320336545987, ,0.004401853267638275, ,0.05105148731385287, ,3.1581487232528095e-05, ,0.1317343773685217,-0.24543617347572913,0.09023215432000001,1.602869927995704,0.11846384529663687,-1.3158995553231103, ,0.023100521314136025,0.000952617597907451,0.003994185436308927,0.0009459586531475496,0.006959065976480059,-0.04922944467154479, ,0.18753790855407715
0.009656731395546946,0.020391071203885294,-0.08069318827807206, ,0.009937296768346534,0.020371755319600348,-0.08092304128307641, ,0.00036321128246436576, ,0.002765264624544935,0.0011756112614156764,-0.004537552873831831,0.01127200772763774,-0.022709759330606986,-0.0009672110235602067, ,0.005442254713310147, ,0.025353329665794268, ,3.245901942554602e-05, ,0.13258387798468638,-0.24543617347572913,0.09039289428000001,1.6030796179391889,0.11846384529663687,-1.316144591543532, ,0.026799475164775707,0.00045300448508170616,0.005021693417402271,0.0020064561567924616,0.0037198408066466734,-0.01168042783148188, ,0.20831584930419922
0.009736141415292814,0.02042405508174859,-0.08081771718497557, ,0.009988799752805769,0.020391662362386268,-0.08100731131802882, ,0.0003175396968423156, ,0.0026961957563282615,0.000986562851788846,-0.0037102059659205717,0.0067068260742479124,-0.025237063796390385,2.5008801826951598e-05, ,0.004691311770339387, ,0.02611304088669555, ,3.271567116304502e-05, ,0.1331244692858821,-0.2454284507428549,0.09048233829,1.603289307882673,0.11873711829616776,-1.316367427350925, ,0.027183311818525,0.0002087821929544585,0.004156787974947809,0.00044793193615130507,0.001699788647085308,-0.0069078553446697095, ,0.22885894775390625
0.009791206365190663,0.020443586841195484,-0.08089214336418885, ,0.010040408938681064,0.020411175832902567,-0.08109156156541891, ,0.0003208114946111471, ,0.0026632305343224695,0.000988420969089579,-0.0036473805301576743,0.0024932281086548886,-0.02436154791197912,5.325921763747641e-05, ,0.004623111249240797, ,0.024488797488319582, ,3.295984203474633e-05, ,0.1336650605870778,-0.2454207280099807,0.09056270827000001,1.603289307882673,0.11887375479593319,-1.3165605239947618, ,0.02670896187967092,0.0,0.004034653373860182,0.0005418316233519523,0.002274692813356374,-0.002432995952388348, ,0.2493448257446289
0.009841074499496663,0.020463970127655436,-0.08096951558605281, ,0.01009212302801082,0.020430298794045017,-0.08117579272232096, ,0.00032666401596015876, ,0.0025344918509286473,0.0010551410310310917,-0.004063746879178791,0.01144865308174712,-0.011727484836563625,-0.0004856275931399085, ,0.004904182932540796, ,0.016389190244480933, ,3.321646970694669e-05, ,0.1341979291553993,-0.24541300527710647,0.09065085599000001,1.6034989978261578,0.11914702779546407,-1.316701681062014, ,0.02560629831583129,0.0004617835271147837,0.004479418312710912,0.003970597735772009,0.013350858257512508,-0.011392802235410218, ,0.2715129852294922
0.009892505872548177,0.02048223976127133,-0.0810392702412125, ,0.010143940728592996,0.020449034299035863,-0.081260005479928, ,0.00033622334119946904, ,0.0025446355424855608,0.0009153905533211869,-0.0033972541693847846,0.008165858094474695,-0.01587279764417943,-0.0013321899410999622, ,0.004342170632367267, ,0.01785012445389789, ,3.3512303943747876e-05, ,0.13472307499084657,-0.24540528254423224,0.09072863339000001,1.6034989978261578,0.11928366429522952,-1.3168947777058513, ,0.02638958330324549,0.000157373560678073,0.0038025331869181197,0.003970597735772009,0.009873208799055932,-0.007807088713746183, ,0.2923870086669922
0.009943735406427337,0.02050136184151624,-0.08111136688966772, ,0.010195860753975607,0.02046738539143598,-0.08134420052356417, ,0.00034486677298606084, ,0.0025504129792356268,0.0010168218573791271,-0.0038861240438501105,0.007147703811189094,-0.01370499215544622,-0.003958103957402298, ,0.004758202721457695, ,0.01545692333121389, ,3.383271903628365e-05, ,0.13525594355916806,-0.24539755981135802,0.09080900337,1.6037086877696423,0.11955693729476038,-1.3169542560329628, ,0.02568948066011661,0.00043354405348433394,0.004300435075593954,0.00685397090088239,0.010662555203695792,-0.0066826499909773155, ,0.31465601921081543
0.009993781886927651,0.020523726508406403,-0.08119757783808268, ,0.01024788182344736,0.020485355105157796,-0.08142837853269858, ,0.00034541005046432395, ,0.002448420626899997,0.0011729755804100077,-0.004526688461621078,0.0018436832538388753,-0.010339611239578763,-0.0032565254732810356, ,0.005278403518777337, ,0.010502700920499238, ,3.411685500251817e-05, ,0.13575019846311842,-0.2453898370784838,0.09090363254000002,1.6037086877696423,0.11983021029429128,-1.3168503768797937, ,0.023483529215162283,0.0004334469409192384,0.004945300068301771,0.006393326963573343,0.011959100475416597,-0.0014369837446336327, ,0.33447980880737305
0.010044108325382438,0.020546215344716373,-0.08128504975980026, ,0.010300002662028136,0.020502946464477593,-0.081512540180957, ,0.0003451173702416717, ,0.002485494009972189,0.0010599989119201743,-0.004085527416169918,-0.008181684873694901,-0.0038610180823493777,-0.004835587774464616, ,0.004898245852869743, ,0.009046956773767574, ,3.459174006976505e-05, ,0.1362444533670688,-0.24537439161273536,0.09099955800000001,1.6041280676566114,0.12010348329382216,-1.3166648189864836, ,0.025468851733352327,0.0005569305827925337,0.004506028718528997,0.009888731899040005,0.019782145270283834,0.008934268824336802, ,0.3530158996582031
0.01009558702647354,0.02056605493551749,-0.08136615722715387, ,0.01035222200045964,0.02052016248404809,-0.081596686136135, ,0.00034801035164308433, ,0.002652133818601994,0.0010565462639097255,-0.004255851449596139,-0.008241929342862012,-0.007631356328984796,-0.005506520572425549, ,0.005124682952201389, ,0.011232408348903426, ,3.503721776404608e-05, ,0.1367773219353903,-0.24535122341411267,0.09108900201,1.6041280676566114,0.12051339279311848,-1.3169173939574323, ,0.02687537285711435,0.001134924039234744,0.004687702036492054,0.009888731899040005,0.01734652820544851,0.00842469583758037, ,0.3711278438568115
0.010122301038928763,0.020576123054031392,-0.08141132653636185, ,0.010404538575195948,0.020537006168910826,-0.08168081706021053, ,0.0003921903874700959, ,0.0025409736343169308,0.0011236662503305418,-0.00471800650656752,0.0013480209720817087,0.0006695874538260244,-0.003300544012326009, ,0.005475286133933015, ,0.0015051596466064115, ,3.570324541498493e-05, ,0.13703989485311394,-0.24532805521549,0.09113826103000001,1.6041280676566114,0.12065002929288392,-1.3168654543808476, ,0.025537390085702577,0.0016611531245094198,0.005143303687439458,0.009506318029506779,0.024654594263933197,-0.0017375917232710153, ,0.38859987258911133
0.010165014499374283,0.020594688819705675,-0.08148870799566857, ,0.010456951128394022,0.02055348051450885,-0.08176493360935679, ,0.00040401201645252433, ,0.0027957336579870276,0.0012714691100114714,-0.005323438905221844,-0.008986494244421175,-0.0080758968149635,-0.004350521379650869, ,0.006145873588168279, ,0.012082101799591988, ,3.637589344414769e-05, ,0.1374414769625736,-0.2453048870168673,0.09122251988,1.6041280676566114,0.12078666579264935,-1.3165684785838412, ,0.02671648129461452,0.0017438221998976019,0.005785983116600074,0.008523771735414229,0.01706693050178762,0.008388504310361429, ,0.40772485733032227
0.010229422887238906,0.02062178835107179,-0.0816049468740913, ,0.010509458407904312,0.02056958850669921,-0.08184903643395489, ,0.00037513254966913695, ,0.0027407280949570314,0.0010245718404697625,-0.004317752008597239,0.011075313124230598,0.0029471552533318662,-0.006677201446479244, ,0.0052157761027977305, ,0.01146072787332091, ,3.683309671651701e-05, ,0.1381056319897569,-0.24525082788674776,0.09134826001000002,1.6047571374870648,0.121606484791242,-1.3169102710454572, ,0.028844055184945525,0.001806273858769927,0.004760553353257622,0.014324713559873144,0.029403622459380805,-0.011020189438087236, ,0.42522192001342773
0.010296666833840689,0.020644314527840414,-0.08170528196439814, ,0.0105620591672613,0.020585333121765383,-0.08193312617860597, ,0.0003547180328782449, ,0.003093771537980585,0.0011406487263378618,-0.0046916613339164455,-0.02440508352733769,-0.020043691244943294,0.01352933262741708, ,0.005734473639165288, ,0.03158096987785158, ,3.7145874107902994e-05, ,0.13875434155119176,-0.2451967687566282,0.09145974095,1.6049668274305493,0.121606484791242,-1.3166652348250358, ,0.030850761234873465,0.0012857241207480865,0.005181786441119064,-0.011022414599478746,0.013829522523379519,0.021658462932471884, ,0.44550395011901855
0.010358548660261464,0.020667247291789842,-0.08181084281084243, ,0.010614752165674098,0.020600717326429818,-0.08201720348214485, ,0.0003356355153092598, ,0.002707619166145817,0.000986834696409408,-0.004649475315212171,0.035278590903472795,0.012550032307821767,0.02208726464106787, ,0.0054701613297676085, ,0.03744438923108726, ,3.733821672013317e-05, ,0.1393953283797524,-0.2451349868936344,0.09157511076000001,1.6049668274305493,0.12228966729006921,-1.3170589668632364, ,0.029785606264428992,0.00288836222151009,0.005090703585810164,-0.011022414599478746,0.046559402765061784,-0.039621909791498176, ,0.4632878303527832
0.010387376638613874,0.020675403234683906,-0.08185064268928695, ,0.01066753616801693,0.02061574407786633,-0.08210126897765209, ,0.00038060755815828607, ,0.0033060727510042538,0.0007783978039192868,-0.003862096856700003,-0.030609567687438256,-0.05485219266442892,0.004403697083346568, ,0.005143132538308851, ,0.06281487620976621, ,3.7914255566110724e-05, ,0.13970423769472137,-0.24510409596213747,0.09161918462000002,1.6049668274305493,0.12256294028960008,-1.3172818026706297, ,0.030740829788944213,0.0030244810937625956,0.004287701620457605,-0.011022414599478746,-0.02219700777263068,0.0261263924555173, ,0.4808828830718994
0.010460689785732972,0.020696399155241015,-0.081950505708074, ,0.010720409944819783,0.02063041632371284,-0.08218532329246696, ,0.00035629705728885876, ,0.0030715150374999813,0.0009711251753334668,-0.004160803516082238,0.005447025952757839,-0.02450316341889467,-0.007032558442182564, ,0.0052620884286751855, ,0.025101296938923677, ,3.833900915641952e-05, ,0.14041472911915004,-0.24503459136626946,0.09172936927000001,1.6049668274305493,0.12256294028960008,-1.3169550877100673, ,0.030183505584755334,0.00192202844195937,0.004621065134899913,0.008108828884445625,0.003850631717915996,-0.006250134470666149, ,0.4998619556427002
0.010485910007137085,0.020703829377752413,-0.08198688396122208, ,0.01077337227225883,0.020644737002083764,-0.0822693670481998, ,0.00040733666316641464, ,0.0030118398631585287,0.000794950065456217,-0.004085239615420797,0.00964296545499426,-0.010151369696096504,-0.007190763333889921, ,0.005137344419374964, ,0.014001324520743817, ,3.8967803722353815e-05, ,0.1406850247697479,-0.24500370043477257,0.09176955426000001,1.605176517374034,0.12283621328913097,-1.3170962447773196, ,0.031195575791739243,0.0037911215399602416,0.004513689861150468,0.011880014077414843,0.0187737491453354,-0.011780839492887427, ,0.5162248611450195
0.010557054064535231,0.020722487794624135,-0.08208713110362255, ,0.010826421932147015,0.020658709041582422,-0.08235340086074522, ,0.0003840916049582975, ,0.0031336118855630974,0.0009786020149991743,-0.004849922698456008,0.00764038744936795,-0.0039132791626999945,-0.0046786234294775445, ,0.005856529307883771, ,0.008584245540427608, ,3.9456036085958294e-05, ,0.141410961659925,-0.24490330490740767,0.09187973891000001,1.6053862073175185,0.12324612278842728,-1.3174304984884089, ,0.03209230353685181,0.003913541099781748,0.005318467953255426,0.011142817187293543,0.026312574395323193,-0.009989970769133527, ,0.5337798595428467
0.010625541859266487,0.020746262046479665,-0.08220390222213007, ,0.010879557711924816,0.02067233536131364,-0.0824374253402942, ,0.0003528771101934401, ,0.003228628767725346,0.001009777698186854,-0.005275266429005783,-0.005906045539936186,-0.013380901619021633,-0.0075868982517059095, ,0.006266748009656576, ,0.01462634260409807, ,3.978235462890184e-05, ,0.14207511668710832,-0.24481835484579118,0.09200677533000001,1.6053862073175185,0.12365603228772361,-1.3174380372389356, ,0.03124693498797194,0.004749511948540044,0.005738044495677235,0.011142817187293543,0.01563108056631882,0.0027344076742515985, ,0.5498828887939453
0.010652958727349494,0.020755632197165065,-0.0822540050678877, ,0.010932778404650335,0.02068561887089641,-0.08252144109134717, ,0.0003933483752397615, ,0.0027575611196589624,0.0009443677932601675,-0.004819892942945868,0.024919978462504374,0.022313795003973663,0.0016902589541966649, ,0.0056327028892940246, ,0.03345012363878141, ,4.025703187203179e-05, ,0.14237630326920306,-0.24477201844854585,0.09206121951000001,1.6053862073175185,0.12420257828678537,-1.3177203513734403, ,0.03027015679696038,0.004155050340012404,0.005262243647175422,0.011142817187293543,0.05153987188778194,-0.02750852986514152, ,0.5688669681549072
0.010714542315977894,0.02077140461736634,-0.08234428592291285, ,0.010986082808990338,0.020698562470475884,-0.08260544871272675, ,0.00038372675238043175, ,0.0029384665376338886,0.0008100332756220296,-0.004210058555517861,-0.014259293347388761,-0.012597816730958892,-0.004293138119445376, ,0.005197627587784468, ,0.019027149860950696, ,4.066637937916516e-05, ,0.14297095370051835,-0.24467162292118091,0.09215973755000001,1.6055958972610032,0.1243392147865508,-1.3174233755764342, ,0.02948025522164361,0.0038604126538990336,0.004630468465116279,0.0076671216286541685,0.015454812678958598,0.011498492397930053, ,0.5845379829406738
0.010774374026897657,0.02078747555030229,-0.08243815667989916, ,0.01103946972921048,0.020711169050736528,-0.08268944879759006, ,0.0003731569933342865, ,0.0026558482360580487,0.0008163485280834025,-0.004592043162988699,0.023235181118177378,0.03308697603742761,0.00512249344660361, ,0.005367198075628273, ,0.04043045415097309, ,4.101205257322817e-05, ,0.14359649506333053,-0.24456350466094176,0.09226214446000001,1.6058055872044876,0.125022397285378,-1.317653750134354, ,0.030562622080022795,0.004945397122984517,0.005013790217186026,0.01039123178956178,0.0631435373960867,-0.026688855531349927, ,0.6004528999328613
0.010804326222989866,0.020795449722096442,-0.0824870396245703, ,0.011092937975165893,0.020723441492914184,-0.08277344193344202, ,0.00041292639912112215, ,0.0030132815641293015,0.0007424169893920817,-0.004897362684171338,-0.022333573130508433,-0.000778248492503719,7.358826525656945e-05, ,0.00579786253986531, ,0.02234712860021828, ,4.164890022086845e-05, ,0.14391312711117374,-0.244501722797948,0.09231529235000001,1.6060152771479719,0.12543230678467432,-1.3177429676250214, ,0.030562622080022795,0.006593632403232366,0.005300769224625625,0.006116439597454459,0.029127384897638536,0.016665296105941564, ,0.618215799331665
0.010868079193055128,0.020812149095040297,-0.0825902011090246, ,0.011146486362291876,0.02073538266880861,-0.08285742870214699, ,0.0003934643854337918, ,0.003343184760652416,0.0006702344178565336,-0.004632866225738794,-0.012446139402985657,-0.030446492063489126,-0.005959079286787105, ,0.005752351517799417, ,0.0328921763171182, ,4.2184612848139276e-05, ,0.14450777754248903,-0.2443781590719604,0.09242677329000001,1.6060152771479719,0.12556894328443977,-1.3173643130878745, ,0.03170629520830965,0.006668438014184724,0.005042358822412157,0.00510924002110206,0.0,0.006561826688366775, ,0.6320359706878662
0.01089909585518996,0.02082049527947033,-0.08264166672105538, ,0.01120011371159421,0.020746995440796095,-0.08294140967994255, ,0.0004311146223010581, ,0.003473814872347217,0.0009122464642948764,-0.005622544143281724,-0.01889506052076101,-0.016598811833743746,-0.0018241995216067802, ,0.006671775327610398, ,0.02515042466353568, ,4.2834273232125487e-05, ,0.144816686857458,-0.2443163772089666,0.09248251376000001,1.6060152771479719,0.12584221628397066,-1.3175871488952673, ,0.03322722043363823,0.006789001218300956,0.00608666852120749,0.00473969149877553,0.015918818877376246,0.012841490779957679, ,0.6451590061187744
0.010966120796168393,0.02084177462026604,-0.08276417371549481, ,0.011253818849639856,0.02075828266184209,-0.08302538543745205, ,0.00039745772200399163, ,0.0034492444801424767,0.0011398592871370238,-0.006064951193122691,0.009265669624578567,-0.0054055856608970975,0.006506846048912127, ,0.007069667577278739, ,0.010727207545444388, ,4.333588781287991e-05, ,0.14547311915176708,-0.24418509075010478,0.09261473534,1.6062249670914566,0.12652539878279787,-1.3179808809334683, ,0.033485159336087075,0.005412013830749568,0.00657943474597274,0.0,0.02901032963767722,-0.014621461823402026, ,0.6653909683227539
0.011019131927305194,0.0208551633477429,-0.08284540603153376, ,0.011307600608547491,0.020769247175513216,-0.083109356539696, ,0.0004003319116275634, ,0.003477008845095388,0.0007219041188023245,-0.005207526840794471,-0.011428819091706661,-0.016014122466955775,-0.00810554693871644, ,0.006303100178738251, ,0.01967409516059073, ,4.382650524207671e-05, ,0.14593648312422056,-0.24409241795561407,0.09269899419000001,1.6066443469784255,0.12652539878279787,-1.3178175234531873, ,0.03371116929252958,0.0080074574745868,0.00561466743743391,0.011122194540214524,0.01587359930208177,0.0050153913983475695, ,0.6794548034667969
0.011050421569620456,0.020861892469468995,-0.08289316147826889, ,0.011361457825977866,0.020779891815990284,-0.08319332354610649, ,0.0004399601424087345, ,0.0035792412548621066,0.0008129489425038158,-0.005270208064969339,0.008124294556442532,-0.024751060049937074,-0.009669817579083957, ,0.00642237860856029, ,0.026050319222030664, ,4.443267343028313e-05, ,0.14627628337068643,-0.24401519062687183,0.09275473466,1.6066443469784255,0.12679867178232873,-1.3178770017802988, ,0.03373513741858186,0.006987757893742301,0.005690893719185424,0.011023490433948546,0.00674467188286222,-0.013490742200319213, ,0.6926119327545166
0.011108914543037527,0.020876354762223326,-0.08298205560252098, ,0.011415389345124594,0.020790219408080447,-0.08327728701053906, ,0.00043417472039257004, ,0.0034496845502366294,0.0008714363164332045,-0.005419412091931708,0.02592106477707605,0.01581257277772663,0.0034257628276367115, ,0.006483035721937338, ,0.03036344928287129, ,4.499501799340685e-05, ,0.14688637926775017,-0.2439070723666327,0.09285195641,1.6066443469784255,0.12748185428115594,-1.3184340912987809, ,0.03691051791461329,0.006816708145352996,0.005921491271375466,0.009138308023601712,0.05221322199410516,-0.031363171133487945, ,0.7074408531188965
0.011163108626059308,0.020888608008951245,-0.08306051235390738, ,0.011469394014704452,0.020800232767229882,-0.08336124748128536, ,0.0004382494032920818, ,0.003852794776293623,0.0009154640503190436,-0.005705365580680486,0.002137504224521967,-0.018577700108857502,-0.004364320389815781, ,0.0069450196849883405, ,0.01870026362378883, ,4.554856830699777e-05, ,0.14740380237032322,-0.24380667683926777,0.09293751155,1.6066443469784255,0.12761849078092136,-1.3183821517221963, ,0.03734629734689916,0.007121263240705481,0.00622462349355217,0.008001290946722276,0.01739265196049576,-0.00804173964777169, ,0.7209680080413818
0.011204385044732824,0.02089905118076026,-0.08312241956842183, ,0.01152347068894804,0.020809934699536205,-0.08344520550108539, ,0.00046254529929022425, ,0.003964043772283508,0.0010325750666790154,-0.00639420962381727,-0.0040373418469655704,-0.02330453285467093,-0.005194792547932638, ,0.007593798193935907, ,0.023651667384663674, ,4.6308446811060025e-05, ,0.14778221628116023,-0.24373717224339975,0.09300491863,1.6066443469784255,0.12761849078092136,-1.3183004729820558, ,0.03682457957255366,0.007720332807279738,0.006925570226086957,0.007347695926899413,0.01212231184494122,-0.002549967167977933, ,0.7326169013977051
0.011274506029081166,0.020920710773107497,-0.08325054428067669, ,0.011577618227590278,0.020819328001760933,-0.08352916160714133, ,0.0004240083558342234, ,0.003918886342466913,0.0013210792603831625,-0.007625393546092723,0.03837236406028241,0.024081562447994177,0.0008191564899811873, ,0.008674649693802095, ,0.0453029794575347, ,4.6921396243476975e-05, ,0.1485004304384631,-0.2435904403187895,0.09314362166000001,1.6070637268653947,0.1287115827790449,-1.3191918162116272, ,0.039359992351087,0.008116887044968647,0.008227691900826447,0.014334831678570333,0.062029657240532346,-0.04433456982518735, ,0.7452878952026367
0.011323613421252389,0.020936320834619444,-0.08333686616347583, ,0.011631835495860884,0.020828415461342106,-0.08361311633112903, ,0.00042773656844664204, ,0.004434485878770294,0.0015149692690620568,-0.008048872702713636,0.0038094025685786767,-0.016270094371639426,-0.0047851830717147315, ,0.009313653884470063, ,0.016710101286656807, ,4.752681814701697e-05, ,0.1489406262122939,-0.24350549025717302,0.09323695454000001,1.6072734168088794,0.12884821927881035,-1.3189765191547616, ,0.04034733909798928,0.007096113807294123,0.008709027621651176,0.009736237797700347,0.022445220915951133,-0.009418979011398593, ,0.7566080093383789
0.011368350421251575,0.020948553397420036,-0.08341113424489553, ,0.011686121364475019,0.02083719985640662,-0.0836970701992117, ,0.0004417435380671029, ,0.0046227111342163054,0.001110840535387774,-0.007132159721737476,-0.02637319227385798,-0.039462501575304974,-0.010219506794880312, ,0.008571530039721168, ,0.04746403146425935, ,4.815678557705406e-05, ,0.1493499310546278,-0.24342054019555653,0.09331732452000001,1.6072734168088794,0.1289848557785758,-1.318842900838036, ,0.04169461404150737,0.00906500155911532,0.00773243277669903,0.008942839086448957,0.0,0.01870293728707975, ,0.7674980163574219
0.011404601243353218,0.02095674810156208,-0.08346704095356264, ,0.011740474709623635,0.020845683955782637,-0.08378102373205168, ,0.00047300255285772014, ,0.004251382512720573,0.0007546187432588108,-0.006156460833118601,-0.017734327685205026,-0.015274522269643454,-0.0033960988225292853, ,0.00751968833841318, ,0.02340549935737162, ,4.8862617263900415e-05, ,0.14972062223259056,-0.2433433128668143,0.09337825015000001,1.6072734168088794,0.1293947652778721,-1.3190137970688443, ,0.04169461404150737,0.010291624122993408,0.006687158488664989,0.00818645702257926,0.025170325783735716,0.008747709336466056, ,0.7793288230895996
0.01144688521024153,0.020965465831121174,-0.08353500872718275, ,0.011794894412964163,0.02085387051901256,-0.0838649774448239, ,0.0004923852896726317, ,0.00401918468673047,0.0008861967896190117,-0.0060382213214676085,0.010783168750532755,0.011920655777849164,0.005069092455410901, ,0.007307482947158056, ,0.016074164191322203, ,4.960534841166427e-05, ,0.15018398620504403,-0.24323519460657517,0.09345213868,1.6072734168088794,0.13021458427646476,-1.3196006257508823, ,0.04219517188015597,0.008485126858497411,0.006606723981750311,0.0073849206517395604,0.054031812020885917,-0.01810004358493742, ,0.7910230159759521
0.011493733641125563,0.02097482252138924,-0.08360022801325513, ,0.01184937936161097,0.0208617622963647,-0.08394893184722742, ,0.0005107453933313116, ,0.004560642343067872,0.0009944831078054666,-0.006680218340813598,-0.010749119016630452,-0.02297304473093253,-0.0031368069343790357, ,0.008149464541553414, ,0.025363444768800633, ,5.038032968385598e-05, ,0.15063190471174906,-0.24314252181208446,0.09352343463000001,1.6072734168088794,0.13035122077623018,-1.3195486861742975, ,0.043650847083013235,0.009105521506935936,0.007286739030192132,0.0067780354509729785,0.019625494907443662,0.0027333155051911216, ,0.8023757934570312
0.011538461691017712,0.02098437876849366,-0.0836683683412743, ,0.011903928448125805,0.020869362028846837,-0.0840328874434999, ,0.0005288373822239272, ,0.005004453901439155,0.0010591873529074254,-0.007708892779406458,-0.016955575787208653,-0.04482387539720437,-0.0017769316876476142, ,0.009251673609924512, ,0.047923598870236915, ,5.133460392143179e-05, ,0.15104893228695718,-0.24304212628471955,0.09359732316000001,1.6074831067523636,0.13048785727599563,-1.3195784253378533, ,0.04484732587829433,0.011198600608740946,0.008330968368200839,0.0,0.0,0.005885253468643863, ,0.8114199638366699
0.011590633400236349,0.020995926893360682,-0.08375353709153394, ,0.011958540570508491,0.020876672448217427,-0.08411684473242842, ,0.0005306314639713667, ,0.004939163521233343,0.00101582597560569,-0.0077036453058246185,0.00012661638565814991,-0.019511258506603964,-0.007253734713045344, ,0.009207246586257538, ,0.0195116686392699, ,5.227204786461807e-05, ,0.15155090992378178,-0.24291083982585773,0.09368935975,1.6079024866393328,0.13089776677529194,-1.3197493215686615, ,0.04665533016640648,0.011876963899683452,0.008335327849293564,0.012193002287474651,0.025005470248470933,-0.010072389107339059, ,0.8213968276977539
0.01163286832012861,0.021005487219996358,-0.08382797050904749, ,0.012013214632187252,0.020883696276999365,-0.08420080420736305, ,0.0005463527409031321, ,0.004507355581980907,0.0011037493806520385,-0.008324938511176543,0.054499143824799284,0.04353327453290096,0.010370729234879908, ,0.009530955789036823, ,0.0697517213350849, ,5.323291552685356e-05, ,0.1519988284304868,-0.24279499883274436,0.09376972973000001,1.6079024866393328,0.1317175857738846,-1.32041782899084, ,0.04747220688267672,0.012634395094990116,0.008968925405405406,0.011363192437550098,0.09128109681999444,-0.065299320864249, ,0.8306009769439697
0.011688709116181134,0.021018630900931617,-0.0839268662138443, ,0.012067949542009387,0.020890436228491533,-0.08428476635622988, ,0.0005369820169652107, ,0.005402817445130827,0.0013081856714180307,-0.009656339684617108,-0.003652864763401056,-0.009987427377191879,-0.0021301283690206016, ,0.011142113004319451, ,0.010634474252931597, ,5.4145733427861444e-05, ,0.15251625153305984,-0.24265598964100832,0.09387213664,1.6079024866393328,0.13226413177294635,-1.3205367856450634, ,0.049632291610078864,0.01401106475099229,0.010350104951267057,0.009953044706916781,0.03941054339117145,-0.009447475401209127, ,0.840660810470581
0.011745866900926695,0.02103079481142141,-0.08402221270839906, ,0.012122744214231639,0.020896895006781664,-0.08436873166154268, ,0.0005291890511473835, ,0.005825340943316966,0.0012043786670976,-0.00923580591260133,-0.0425568417422705,-0.040958119400724045,-0.008881768696120994, ,0.010985683225675428, ,0.05906481403272082, ,5.501650255720946e-05, ,0.1530413973685071,-0.24250153498352384,0.09397843242000001,1.6079024866393328,0.1324007682727118,-1.320239809848057, ,0.052256025087263645,0.014127875771694326,0.009961733283302064,0.008885166354110057,0.009323760613855862,0.029913644425669537, ,0.8495578765869141
0.011800726445811805,0.02104385011833287,-0.08411701964290332, ,0.012177597568510877,0.020903075306758917,-0.0844527006004166, ,0.0005239571508579448, ,0.005505848607258534,0.001319053565857132,-0.009943051330729178,0.01900444245030158,0.028446145675404915,0.01925447759050905, ,0.01144196403425419, ,0.034210406888085514, ,5.5853668233873673e-05, ,0.15358198866970282,-0.2423625257917878,0.09408083933000001,1.6081121765828172,0.133083950771539,-1.320633541886258, ,0.05533349362009957,0.014776851690823852,0.010712045406859449,0.0,0.08650243574004811,-0.033596270881055254, ,0.8586139678955078
0.011848956369530629,0.02105467287623772,-0.08420639486498825, ,0.012232508529894496,0.020908979814126035,-0.08453667364457965, ,0.0005267094078480563, ,0.005514575296447696,0.0011737331506257078,-0.010113043295428099,0.01965845341259972,0.026900134380664388,-0.0014200357399197768, ,0.011578507455811054, ,0.03331774173757505, ,5.668008440529755e-05, ,0.15406852084077896,-0.2422157938671775,0.09417676479,1.608321866526302,0.13390376977013163,-1.3212203705682959, ,0.054195854687875945,0.017064726048996722,0.010835926204081634,0.019252391766221122,0.0789745907981691,-0.03363405264944373, ,0.8677070140838623
0.011917220612101622,0.02106672322660239,-0.08431480944786222, ,0.012287476028810914,0.02091461120541228,-0.08462065126038687, ,0.0005037522753114591, ,0.006216130764874927,0.0009985130672166985,-0.009314165771003385,-0.023013217933725915,-0.03238737208831305,-0.010890514286223259, ,0.011242374928864369, ,0.03973097029209975, ,5.742680121847887e-05, ,0.15469406220359116,-0.24202272554532192,0.09429343089000002,1.6087412464132707,0.13417704276966252,-1.321034812674986, ,0.05765306291523134,0.016804841784747792,0.010062420416929882,0.014203176685974908,0.02249502614242536,0.008547872924384067, ,0.8798418045043945
0.01197682409638148,0.021075558521798647,-0.08440483543212696, ,0.012342499001060202,0.02091997214798535,-0.08470463390883162, ,0.0004977995402394434, ,0.006036905229859213,0.0007343909985476017,-0.008540665234424875,-0.03498259765379337,-0.03142040330614955,-0.01116136723602296, ,0.010484584757612624, ,0.047021525252656064, ,5.829717324143076e-05, ,0.15526554443628376,-0.24185282542208897,0.09439065264,1.6087412464132707,0.13458695226895884,-1.321205708905794, ,0.05685856294695672,0.017537782583343334,0.00923409363478261,0.014203176685974908,0.02262433079451998,0.01980148919050098, ,0.886650800704956
0.01197682409638148,0.021075558521798647,-0.08440483543212696, ,0.012397576387804454,0.020925065300064348,-0.08478862204555901, ,0.0005890440265169454, ,0.006036905229859213,0.0007343909985476017,-0.008540665234424875,-0.03498259765379337,-0.03142040330614955,-0.01116136723602296, ,0.010484584757612624, ,0.047021525252656064, ,5.9395721004806494e-05, ,0.15526554443628376,-0.24185282542208897,0.09439065264,1.6087412464132707,0.13458695226895884,-1.321205708905794, ,0.05685856294695672,0.017537782583343334,0.00923409363478261,0.014203176685974908,0.02262433079451998,0.01980148919050098, ,0.8931949138641357
0.01203181766212829,0.021081751910352532,-0.08448909184928152, ,0.012452707135558468,0.020929893310732223,-0.08487261612087847, ,0.0005893215166841818, ,0.005725406324218282,0.0004411496210366502,-0.008411716490735254,0.05201715045687099,0.01679828459311231,0.04850945148708587, ,0.010184884137094879, ,0.05466229289748349, ,6.047765351446376e-05, ,0.15582158120322792,-0.24166747983310757,0.09448139294,1.6089509363567556,0.13527013476778604,-1.321599440943995, ,0.06021379540512105,0.019886198985429752,0.009071077175398635,-0.03053907788641883,0.08725546714119455,-0.07622439847429471, ,0.8998408317565918
0.012094952727098207,0.021087607622870975,-0.08458152305695575, ,0.012507890196179974,0.020934458819947745,-0.08495661657977627, ,0.000578504157349261, ,0.006192638154699626,0.0007100157742493337,-0.009388353087941823,0.022571466630825165,0.012695683921684676,-0.0008896649912188657, ,0.011269164273298674, ,0.02589693849027168, ,6.151439293171147e-05, ,0.1564702907646628,-0.24145896604550351,0.09458120727000001,1.6087412464132707,0.1360899537663787,-1.3221045908858926, ,0.06218672448130458,0.0202988110285499,0.010126390031786397,0.016737654312210512,0.07321778687758156,-0.04007741742528357, ,0.9065208435058594
0.012094952727098207,0.021087607622870975,-0.08458152305695575, ,0.012563124526860536,0.02093876445855864,-0.0850406238619277, ,0.0006723932411774401, ,0.006192638154699626,0.0007100157742493337,-0.009388353087941823,0.022571466630825165,0.012695683921684676,-0.0008896649912188657, ,0.011269164273298674, ,0.02589693849027168, ,6.27782531969506e-05, ,0.1564702907646628,-0.24145896604550351,0.09458120727000001,1.6087412464132707,0.1360899537663787,-1.3221045908858926, ,0.06218672448130458,0.0202988110285499,0.010126390031786397,0.016737654312210512,0.07321778687758156,-0.04007741742528357, ,0.9133918285369873
0.012157120965563808,0.02109653552616181,-0.08468019077059358, ,0.012618409090115726,0.020942812848313744,-0.0851246384017111, ,0.0006587496431447852, ,0.006746112906288379,0.0011324998309656124,-0.010815855923982053,0.0008554494793003339,-0.005919547765870633,-0.0020190772773661155, ,0.012797473757733026, ,0.005981027633232383, ,6.398754595672935e-05, ,0.15708038666172652,-0.2412658977236479,0.09468750305000001,1.6087412464132707,0.13677313626520587,-1.3224166441839529, ,0.06407626033657716,0.019546228951281313,0.011660916193265009,0.01349335908418738,0.056685050312484206,-0.018106891091069496, ,0.920313835144043
0.012235182882127977,0.021108819153416985,-0.08480687696144541, ,0.012673742853775755,0.020946606601875417,-0.08520866062821919, ,0.0006165045624287849, ,0.007453574580443361,0.0012267113338582307,-0.012678484667716237,-0.026287644644746342,-0.010753972855138016,0.010741106616954228, ,0.01475820342021221, ,0.02840225106471132, ,6.507056107039923e-05, ,0.15775226442178406,-0.24104966120316962,0.09481453947000001,1.6089509363567556,0.13731968226426766,-1.3225356008381763, ,0.06866638318268507,0.023202186200115105,0.013442035037974686,0.0,0.05997570065103992,0.00347852286472506, ,0.9269449710845947
0.012235182882127977,0.021108819153416985,-0.08480687696144541, ,0.012729124790976066,0.020950148322832218,-0.0852926909652722, ,0.0007107533243743337, ,0.007453574580443361,0.0012267113338582307,-0.012678484667716237,-0.026287644644746342,-0.010753972855138016,0.010741106616954228, ,0.01475820342021221, ,0.02840225106471132, ,6.654419610144882e-05, ,0.15775226442178406,-0.24104966120316962,0.09481453947000001,1.6089509363567556,0.13731968226426766,-1.3225356008381763, ,0.06866638318268507,0.023202186200115105,0.013442035037974686,0.0,0.05997570065103992,0.00347852286472506, ,0.9314010143280029
0.012304995685843489,0.021122630552401767,-0.08493401003613213, ,0.012784553880147632,0.020953440605711315,-0.08537672983143083, ,0.0006742418831062693, ,0.007459148359982506,0.0017174707532589925,-0.014482488401470432,0.042162525636184056,0.03299114857276274,-0.004453587126040295, ,0.016380814092811606, ,0.05353591145259176, ,6.791074532090178e-05, ,0.15846275584621272,-0.24080253375119443,0.09495972395,1.6093703162437245,0.1381395012628603,-1.3230407507800739, ,0.069623581480903,0.023431343594684143,0.015479894577259477,0.02678347621679417,0.09942827751365427,-0.0611560102361335, ,0.9358229637145996
0.012304995685843489,0.021122630552401767,-0.08493401003613213, ,0.012840029105007702,0.020956486035990835,-0.08546077764000823, ,0.0007689921120852525, ,0.007459148359982506,0.0017174707532589925,-0.014482488401470432,0.042162525636184056,0.03299114857276274,-0.004453587126040295, ,0.016380814092811606, ,0.05353591145259176, ,6.95016262793024e-05, ,0.15846275584621272,-0.24080253375119443,0.09495972395,1.6093703162437245,0.1381395012628603,-1.3230407507800739, ,0.069623581480903,0.023431343594684143,0.015479894577259477,0.02678347621679417,0.09942827751365427,-0.0611560102361335, ,0.9402568340301514
0.012304995685843489,0.021122630552401767,-0.08493401003613213, ,0.012895549454550117,0.020959287190112526,-0.08554483479908345, ,0.0008651830435070349, ,0.007459148359982506,0.0017174707532589925,-0.014482488401470432,0.042162525636184056,0.03299114857276274,-0.004453587126040295, ,0.016380814092811606, ,0.05353591145259176, ,7.131707575667347e-05, ,0.15846275584621272,-0.24080253375119443,0.09495972395,1.6093703162437245,0.1381395012628603,-1.3230407507800739, ,0.069623581480903,0.023431343594684143,0.015479894577259477,0.02678347621679417,0.09942827751365427,-0.0611560102361335, ,0.9447388648986816
0.012383817194210571,0.021139919363024156,-0.08508558170144609, ,0.01295111392303593,0.020961846635494167,-0.0856289017115136, ,0.0008054390778734834, ,0.008502056321474796,0.0018761344632069292,-0.016487075045344225,0.02816511670306863,0.03690822252579622,-0.03367137823095718, ,0.018644797820528237, ,0.04642724922621014, ,7.296584423020615e-05, ,0.15920413820213827,-0.24054768356634504,0.09512176020000002,1.6097896961306934,0.1392325932609838,-1.323605379049083, ,0.07816881512229883,0.02782085651083869,0.017600896707182324,0.05755984543618823,0.10466188002988884,-0.04669860296447633, ,0.9497709274291992
0.012383817194210571,0.021139919363024156,-0.08508558170144609, ,0.013006721509983832,0.020964166930542007,-0.0857129787749463, ,0.0009014021255627097, ,0.008502056321474796,0.0018761344632069292,-0.016487075045344225,0.02816511670306863,0.03690822252579622,-0.03367137823095718, ,0.018644797820528237, ,0.04642724922621014, ,7.483582055966728e-05, ,0.15920413820213827,-0.24054768356634504,0.09512176020000002,1.6097896961306934,0.1392325932609838,-1.323605379049083, ,0.07816881512229883,0.02782085651083869,0.017600896707182324,0.05755984543618823,0.10466188002988884,-0.04669860296447633, ,0.9545249938964844
0.012426129642089107,0.02114932878401115,-0.08516696592071082, ,0.013062371220160709,0.02096625062466332,-0.08579706638183315, ,0.0009139734948037627, ,0.008757257813934083,0.002072529594239874,-0.017049634604464958,0.025556779780801526,0.032203988507186886,-0.027308388024601872, ,0.019278874020141286, ,0.04111258235418157, ,7.67183374406634e-05, ,0.15958255211297526,-0.24041639710748322,0.09520861163000001,1.6097896961306934,0.13964250276028015,-1.323776275279891, ,0.07974532904073174,0.027113411873848796,0.018225184805491994,0.05059967114862809,0.10313702497188412,-0.04445137141485638, ,0.9590678215026855
0.012426129642089107,0.02114932878401115,-0.08516696592071082, ,0.013118062063572114,0.020968100258278728,-0.08588116491944162, ,0.0010107890305234572, ,0.008757257813934083,0.002072529594239874,-0.017049634604464958,0.025556779780801526,0.032203988507186886,-0.027308388024601872, ,0.019278874020141286, ,0.04111258235418157, ,7.881969125351177e-05, ,0.15958255211297526,-0.24041639710748322,0.09520861163000001,1.6097896961306934,0.13964250276028015,-1.323776275279891, ,0.07974532904073174,0.027113411873848796,0.018225184805491994,0.05059967114862809,0.10313702497188412,-0.04445137141485638, ,0.9635260105133057
0.012565197735764451,0.021181495446004266,-0.08543627711056959, ,0.013173793055452784,0.020969718362834944,-0.08596527476986789, ,0.0008337123722515639, ,0.009652334158914394,0.0015996129346488237,-0.017061421181928816,-0.031134900731660402,-0.01771628544730812,0.022704130291165702, ,0.019667699636795623, ,0.0358224422384633, ,8.046864976508381e-05, ,0.16080274390710275,-0.23999936953227508,0.09548990656,1.6099993860741781,0.14100886775793453,-1.3243187031358712, ,0.08564705916829492,0.031154609835348256,0.01816284095781072,-0.010587806792010974,0.06767573130982765,0.00346689590066168, ,0.968513011932373
0.012565197735764451,0.021181495446004266,-0.08543627711056959, ,0.013229563216257173,0.020971107460816995,-0.08604939631004997, ,0.0009282024287583793, ,0.009652334158914394,0.0015996129346488237,-0.017061421181928816,-0.031134900731660402,-0.01771628544730812,0.022704130291165702, ,0.019667699636795623, ,0.0358224422384633, ,8.233094376806491e-05, ,0.16080274390710275,-0.23999936953227508,0.09548990656,1.6099993860741781,0.14100886775793453,-1.3243187031358712, ,0.08564705916829492,0.031154609835348256,0.01816284095781072,-0.010587806792010974,0.06767573130982765,0.00346689590066168, ,0.9730098247528076
0.012664601215833715,0.0211980826863038,-0.08561870080785665, ,0.01328537157164984,0.0209722700657608,-0.0861335299117794, ,0.0008374939883381129, ,0.010521894012179251,0.0022708387896200823,-0.021231247008209227,0.06484832796428103,0.03822391554110286,0.019338946274393812, ,0.023804050326269477, ,0.07527528840916121, ,8.395614207918081e-05, ,0.16172947185200967,-0.23965184655293498,0.09569083151,1.6097896961306934,0.14210195975605808,-1.32480165266474, ,0.09451886609409439,0.0359186001356816,0.022594058893617024,0.009113228579958405,0.13491787604747393,-0.09884584345897082, ,0.9774069786071777
0.012664601215833715,0.0211980826863038,-0.08561870080785665, ,0.013341217152496128,0.020973208682265588,-0.08621767594171532, ,0.0009312081692182204, ,0.010521894012179251,0.0022708387896200823,-0.021231247008209227,0.06484832796428103,0.03822391554110286,0.019338946274393812, ,0.023804050326269477, ,0.07527528840916121, ,8.579098795672854e-05, ,0.16172947185200967,-0.23965184655293498,0.09569083151,1.6097896961306934,0.14210195975605808,-1.32480165266474, ,0.09451886609409439,0.0359186001356816,0.022594058893617024,0.009113228579958405,0.13491787604747393,-0.09884584345897082, ,0.9818758964538574
0.012664601215833715,0.0211980826863038,-0.08561870080785665, ,0.013397098994852473,0.02097392580600655,-0.08630183476139544, ,0.001026387500766425, ,0.010521894012179251,0.0022708387896200823,-0.021231247008209227,0.06484832796428103,0.03822391554110286,0.019338946274393812, ,0.023804050326269477, ,0.07527528840916121, ,8.804661508576859e-05, ,0.16172947185200967,-0.23965184655293498,0.09569083151,1.6097896961306934,0.14210195975605808,-1.32480165266474, ,0.09451886609409439,0.0359186001356816,0.022594058893617024,0.009113228579958405,0.13491787604747393,-0.09884584345897082, ,0.9841489791870117
0.01274563762394716,0.021217364562297336,-0.0857854065611234, ,0.013453016139957068,0.020974423923747158,-0.08638600672725032, ,0.0009592315040297734, ,0.010663212570903722,0.0024786212996669764,-0.021618476623655285,0.037966949579231635,0.047682846068996865,0.009596055498629739, ,0.02423233784443779, ,0.06095193473219282, ,9.013078946123272e-05, ,0.16245540874218678,-0.23938155090233712,0.09586842324000001,1.6102090760176624,0.1431950517541816,-1.32552963841403, ,0.09585549652370785,0.0348117907404515,0.023051825643994214,0.020960052941177885,0.14303467320684102,-0.06895369735439832, ,0.9865047931671143
0.01274563762394716,0.021217364562297336,-0.0857854065611234, ,0.013508967634220236,0.02097470551335166,-0.08647019219061475, ,0.0010537966962258735, ,0.010663212570903722,0.0024786212996669764,-0.021618476623655285,0.037966949579231635,0.047682846068996865,0.009596055498629739, ,0.02423233784443779, ,0.06095193473219282, ,9.243070809312922e-05, ,0.16245540874218678,-0.23938155090233712,0.09586842324000001,1.6102090760176624,0.1431950517541816,-1.32552963841403, ,0.09585549652370785,0.0348117907404515,0.023051825643994214,0.020960052941177885,0.14303467320684102,-0.06895369735439832, ,0.988792896270752
0.01274563762394716,0.021217364562297336,-0.0857854065611234, ,0.013564952529214948,0.020974773043797416,-0.08655439149774079, ,0.0011495500822437006, ,0.010663212570903722,0.0024786212996669764,-0.021618476623655285,0.037966949579231635,0.047682846068996865,0.009596055498629739, ,0.02423233784443779, ,0.06095193473219282, ,0.0005178963217307123, ,0.16245540874218678,-0.23938155090233712,0.09586842324000001,1.6102090760176624,0.1431950517541816,-1.32552963841403, ,0.09585549652370785,0.0348117907404515,0.023051825643994214,0.020960052941177885,0.14303467320684102,-0.06895369735439832, ,0.9912149906158447
0.01274563762394716,0.021217364562297336,-0.0857854065611234, ,0.013620969881667508,0.02097462897518781,-0.08663860498981125, ,0.0012462241713955887, ,0.010663212570903722,0.0024786212996669764,-0.021618476623655285,0.037966949579231635,0.047682846068996865,0.009596055498629739, ,0.02423233784443779, ,0.06095193473219282, ,0.0005272338582648774, ,0.16245540874218678,-0.23938155090233712,0.09586842324000001,1.6102090760176624,0.1431950517541816,-1.32552963841403, ,0.09585549652370785,0.0348117907404515,0.023051825643994214,0.020960052941177885,0.14303467320684102,-0.06895369735439832, ,0.9937269687652588
0.012893436126553097,0.02124371631042108,-0.08605804328716235, ,0.01367701875344764,0.02097427575876429,-0.08672283300295124, ,0.0010623301324290554, ,0.01257959070540329,0.0020773800113515475,-0.022961921271750656,0.03727338293307685,0.045270990593065094,-0.03278490703609536, ,0.02626426162139547, ,0.05864095225449525, ,0.0005340072288239176, ,0.16377599606367918,-0.2389027414641352,0.09614971817000001,1.610838145848116,0.14510796275089774,-1.3266810953650772, ,0.11502659582844943,0.04341122669646422,0.024355980917431196,0.06512313889679627,0.14955115792008752,-0.07815790767195795, ,0.9966468811035156
0.012893436126553097,0.02124371631042108,-0.08605804328716235, ,0.013733098211559512,0.020973715836918917,-0.08680707586824103, ,0.0011571441052030229, ,0.01257959070540329,0.0020773800113515475,-0.022961921271750656,0.03727338293307685,0.045270990593065094,-0.03278490703609536, ,0.02626426162139547, ,0.05864095225449525, ,0.0005417964397786564, ,0.16377599606367918,-0.2389027414641352,0.09614971817000001,1.610838145848116,0.14510796275089774,-1.3266810953650772, ,0.11502659582844943,0.04341122669646422,0.024355980917431196,0.06512313889679627,0.14955115792008752,-0.07815790767195795, ,0.9989898204803467
0.012893436126553097,0.02124371631042108,-0.08605804328716235, ,0.013789207328131766,0.02097295164320704,-0.08689133391172915, ,0.001253033445515383, ,0.01257959070540329,0.0020773800113515475,-0.022961921271750656,0.03727338293307685,0.045270990593065094,-0.03278490703609536, ,0.02626426162139547, ,0.05864095225449525, ,0.0005505771435531839, ,0.16377599606367918,-0.2389027414641352,0.09614971817000001,1.610838145848116,0.14510796275089774,-1.3266810953650772, ,0.11502659582844943,0.04341122669646422,0.024355980917431196,0.06512313889679627,0.14955115792008752,-0.07815790767195795, ,1.0014209747314453
0.012893436126553097,0.02124371631042108,-0.08605804328716235, ,0.013845345180408279,0.02097198560235959,-0.08697560745444503, ,0.001349774953685328, ,0.01257959070540329,0.0020773800113515475,-0.022961921271750656,0.03727338293307685,0.045270990593065094,-0.03278490703609536, ,0.02626426162139547, ,0.05864095225449525, ,0.000560323458310893, ,0.16377599606367918,-0.2389027414641352,0.09614971817000001,1.610838145848116,0.14510796275089774,-1.3266810953650772, ,0.11502659582844943,0.04341122669646422,0.024355980917431196,0.06512313889679627,0.14955115792008752,-0.07815790767195795, ,1.0036427974700928
0.013030793710079511,0.021269552241143626,-0.08633371888852583, ,0.013901510850738614,0.020970820130295678,-0.08705989681241097, ,0.001172486072508911, ,0.014173222997214853,0.0031631475184282372,-0.03067800790922825,0.08494406081837617,0.07068799348310136,0.003747266316811681, ,0.03394150735649184, ,0.11050908884836771, ,0.0005676989114940016, ,0.1649575741934355,-0.23841620929305907,0.0964310131,1.6110478357916007,0.14674760074808305,-1.3276097165087313, ,0.12135158767067875,0.052256025087263645,0.031985565301204825,0.037659474016715794,0.1861848251114937,-0.11589543883154543, ,1.0062179565429688
0.013030793710079511,0.021269552241143626,-0.08633371888852583, ,0.0139577034265684,0.020969457634135012,-0.08714420229665544, ,0.0012673206975862747, ,0.014173222997214853,0.0031631475184282372,-0.03067800790922825,0.08494406081837617,0.07068799348310136,0.003747266316811681, ,0.03394150735649184, ,0.11050908884836771, ,0.0005760277422808144, ,0.1649575741934355,-0.23841620929305907,0.0964310131,1.6110478357916007,0.14674760074808305,-1.3276097165087313, ,0.12135158767067875,0.052256025087263645,0.031985565301204825,0.037659474016715794,0.1861848251114937,-0.11589543883154543, ,1.0087509155273438
0.013030793710079511,0.021269552241143626,-0.08633371888852583, ,0.014013922000430026,0.020967900512210046,-0.08722852421322565, ,0.0013631623417507158, ,0.014173222997214853,0.0031631475184282372,-0.03067800790922825,0.08494406081837617,0.07068799348310136,0.003747266316811681, ,0.03394150735649184, ,0.11050908884836771, ,0.0005852881493334015, ,0.1649575741934355,-0.23841620929305907,0.0964310131,1.6110478357916007,0.14674760074808305,-1.3276097165087313, ,0.12135158767067875,0.052256025087263645,0.031985565301204825,0.037659474016715794,0.1861848251114937,-0.11589543883154543, ,1.0109789371490479
0.013030793710079511,0.021269552241143626,-0.08633371888852583, ,0.014070165669933007,0.02096615115407905,-0.08731286286320002, ,0.0014598182125533424, ,0.014173222997214853,0.0031631475184282372,-0.03067800790922825,0.08494406081837617,0.07068799348310136,0.003747266316811681, ,0.03394150735649184, ,0.11050908884836771, ,0.0005954571035568893, ,0.1649575741934355,-0.23841620929305907,0.0964310131,1.6110478357916007,0.14674760074808305,-1.3276097165087313, ,0.12135158767067875,0.052256025087263645,0.031985565301204825,0.037659474016715794,0.1861848251114937,-0.11589543883154543, ,1.0131778717041016
0.013030793710079511,0.021269552241143626,-0.08633371888852583, ,0.014126433537754347,0.020964211940538366,-0.0873972185427007, ,0.0015571418835774525, ,0.014173222997214853,0.0031631475184282372,-0.03067800790922825,0.08494406081837617,0.07068799348310136,0.003747266316811681, ,0.03394150735649184, ,0.11050908884836771, ,0.0006065109516031026, ,0.1649575741934355,-0.23841620929305907,0.0964310131,1.6110478357916007,0.14674760074808305,-1.3276097165087313, ,0.12135158767067875,0.052256025087263645,0.031985565301204825,0.037659474016715794,0.1861848251114937,-0.11589543883154543, ,1.0153868198394775
0.013178863645182394,0.021301591605696907,-0.08664773889244287, ,0.014182724711629366,0.020962085243634725,-0.08748159154290712, ,0.001348447942374862, ,0.016091830753209094,0.0035969267737987385,-0.03416304867869195,0.052906948590767326,0.0750669089120841,0.01942854304812266, ,0.03793413758382642, ,0.0918375712191856, ,0.0006149420537709635, ,0.16631677517929905,-0.23784472706036644,0.09678619656000001,1.6110478357916007,0.14879714824456466,-1.3287909126233344, ,0.13853568110725661,0.056960949314808385,0.03628430870159454,0.024657314259304775,0.21439085969789817,-0.10497102115082615, ,1.0177359580993652
0.013178863645182394,0.021301591605696907,-0.08664773889244287, ,0.014239038304341919,0.02095977342667771,-0.08756598215006717, ,0.0014435998945706847, ,0.016091830753209094,0.0035969267737987385,-0.03416304867869195,0.052906948590767326,0.0750669089120841,0.01942854304812266, ,0.03793413758382642, ,0.0918375712191856, ,0.0006242528160271401, ,0.16631677517929905,-0.23784472706036644,0.09678619656000001,1.6110478357916007,0.14879714824456466,-1.3287909126233344, ,0.13853568110725661,0.056960949314808385,0.03628430870159454,0.024657314259304775,0.21439085969789817,-0.10497102115082615, ,1.0199649333953857
0.013178863645182394,0.021301591605696907,-0.08664773889244287, ,0.014295373433714976,0.020957278844252462,-0.08765039064551089, ,0.0015396285017863684, ,0.016091830753209094,0.0035969267737987385,-0.03416304867869195,0.052906948590767326,0.0750669089120841,0.01942854304812266, ,0.03793413758382642, ,0.0918375712191856, ,0.0006344236569800205, ,0.16631677517929905,-0.23784472706036644,0.09678619656000001,1.6110478357916007,0.14879714824456466,-1.3287909126233344, ,0.13853568110725661,0.056960949314808385,0.03628430870159454,0.024657314259304775,0.21439085969789817,-0.10497102115082615, ,1.0221819877624512
0.013178863645182394,0.021301591605696907,-0.08664773889244287, ,0.014351729222601143,0.020954603842231922,-0.08773481730566293, ,0.001636384321355253, ,0.016091830753209094,0.0035969267737987385,-0.03416304867869195,0.052906948590767326,0.0750669089120841,0.01942854304812266, ,0.03793413758382642, ,0.0918375712191856, ,0.0006454342137313967, ,0.16631677517929905,-0.23784472706036644,0.09678619656000001,1.6110478357916007,0.14879714824456466,-1.3287909126233344, ,0.13853568110725661,0.056960949314808385,0.03628430870159454,0.024657314259304775,0.21439085969789817,-0.10497102115082615, ,1.0243890285491943
0.013348856896393813,0.021342022499179953,-0.08700708927331417, ,0.014408104798873082,0.020951750757789347,-0.08781926240205508, ,0.0013906629146143146, ,0.018384932519450357,0.004264008791316602,-0.038795352459130246,0.08437744200802434,0.07010678357238743,0.024049641755304406, ,0.043142402426676614, ,0.1097015311696742, ,0.0006535345256975154, ,0.16776864895965324,-0.23727324482767384,0.09716860211000002,1.6114672156785694,0.15098333224081167,-1.3298384904212122, ,0.15556875665323078,0.06218672448130458,0.04126635108808291,0.022355103670064068,0.2275053264387171,-0.14187503899899584, ,1.026587963104248
0.013348856896393813,0.021342022499179953,-0.08700708927331417, ,0.014464499295414154,0.020948721919411113,-0.08790372620133952, ,0.0014843520772502364, ,0.018384932519450357,0.004264008791316602,-0.038795352459130246,0.08437744200802434,0.07010678357238743,0.024049641755304406, ,0.043142402426676614, ,0.1097015311696742, ,0.000662468047757222, ,0.16776864895965324,-0.23727324482767384,0.09716860211000002,1.6114672156785694,0.15098333224081167,-1.3298384904212122, ,0.15556875665323078,0.06218672448130458,0.04126635108808291,0.022355103670064068,0.2275053264387171,-0.14187503899899584, ,1.0288469791412354
0.013348856896393813,0.021342022499179953,-0.08700708927331417, ,0.014520911850108694,0.02094551964690843,-0.08798820896529984, ,0.0015790893503500984, ,0.018384932519450357,0.004264008791316602,-0.038795352459130246,0.08437744200802434,0.07010678357238743,0.024049641755304406, ,0.043142402426676614, ,0.1097015311696742, ,0.0006722193382103377, ,0.16776864895965324,-0.23727324482767384,0.09716860211000002,1.6114672156785694,0.15098333224081167,-1.3298384904212122, ,0.15556875665323078,0.06218672448130458,0.04126635108808291,0.022355103670064068,0.2275053264387171,-0.14187503899899584, ,1.0311689376831055
0.013348856896393813,0.021342022499179953,-0.08700708927331417, ,0.014577341605832619,0.02094214625143079,-0.08807271095086577, ,0.0016747015419192716, ,0.018384932519450357,0.004264008791316602,-0.038795352459130246,0.08437744200802434,0.07010678357238743,0.024049641755304406, ,0.043142402426676614, ,0.1097015311696742, ,0.0006827717824599054, ,0.16776864895965324,-0.23727324482767384,0.09716860211000002,1.6114672156785694,0.15098333224081167,-1.3298384904212122, ,0.15556875665323078,0.06218672448130458,0.04126635108808291,0.022355103670064068,0.2275053264387171,-0.14187503899899584, ,1.033545970916748
0.013348856896393813,0.021342022499179953,-0.08700708927331417, ,0.01463378771044397,0.020938604035477683,-0.08815723241012441, ,0.0017710513512891682, ,0.020170163818436216,0.0038193813839944154,-0.04233530056353461,0.07119299266438396,0.0894510806058444,-0.060525694881300336, ,0.04631275301367821, ,0.11432323488295386, ,0.0006941080279685437, ,0.16945220472623418,-0.2365318624717483,0.09761971103000001,1.6123059754525078,0.15344278923658963,-1.331027225286342, ,0.16825698857884888,0.0774668910681394,0.0448698916056338,0.11032377796778722,0.23924042592159195,-0.1291318696029636, ,1.0369558334350586
0.013549564802475983,0.02138368766287602,-0.08743232213537301, ,0.014690249316773277,0.020934895292911315,-0.08824177359033318, ,0.0014689409145480713, ,0.020170163818436216,0.0038193813839944154,-0.04233530056353461,0.07119299266438396,0.0894510806058444,-0.060525694881300336, ,0.04704998253372439, ,0.11432323488295386, ,0.0007020959958714255, ,0.16945220472623418,-0.2365318624717483,0.09761971103000001,1.6123059754525078,0.15344278923658963,-1.331027225286342, ,0.16825698857884888,0.0774668910681394,0.0448698916056338,0.11032377796778722,0.23924042592159195,-0.1291318696029636, ,1.0396449565887451
0.013549564802475983,0.02138368766287602,-0.08743232213537301, ,0.014746725582614204,0.020931022308969115,-0.08832633473393299, ,0.0015612041450472718, ,0.020170163818436216,0.0038193813839944154,-0.04233530056353461,0.07119299266438396,0.0894510806058444,-0.060525694881300336, ,0.04704998253372439, ,0.11432323488295386, ,0.0007108624055568933, ,0.16945220472623418,-0.2365318624717483,0.09761971103000001,1.6123059754525078,0.15344278923658963,-1.331027225286342, ,0.16825698857884888,0.0774668910681394,0.0448698916056338,0.11032377796778722,0.23924042592159195,-0.1291318696029636, ,1.0418798923492432
0.013549564802475983,0.02138368766287602,-0.08743232213537301, ,0.014803215670713844,0.02092698736027629,-0.08841091607856032, ,0.0016546485341217049, ,0.020170163818436216,0.0038193813839944154,-0.04233530056353461,0.07119299266438396,0.0894510806058444,-0.060525694881300336, ,0.04704998253372439, ,0.11432323488295386, ,0.0007203955987747197, ,0.16945220472623418,-0.2365318624717483,0.09761971103000001,1.6123059754525078,0.15344278923658963,-1.331027225286342, ,0.16825698857884888,0.0774668910681394,0.0448698916056338,0.11032377796778722,0.23924042592159195,-0.1291318696029636, ,1.0441029071807861
0.013754531482395761,0.021416995918487922,-0.08784512543560435, ,0.014859718748763422,0.020922792714858043,-0.08849551785705992, ,0.0013742947289814118, ,0.02120255321044213,0.0029940087883234467,-0.039984001141908934,0.033815824669465214,0.05086239854660788,-0.0019421051312889404, ,0.04704998253372439, ,0.061076930085029846, ,0.0007269345900767866, ,0.1711898196229347,-0.23574414371857738,0.09805785705000002,1.612725355339477,0.15590224623236756,-1.3322976388916126, ,0.181447306995164,0.07901493884968425,0.04259040513368984,0.04561034357620341,0.22858942261643733,-0.10377247915539611, ,1.0465619564056396
0.013754531482395761,0.021416995918487922,-0.08784512543560435, ,0.014916233989388603,0.02091844063215219,-0.08858014029749765, ,0.0014623121881085388, ,0.02120255321044213,0.0029940087883234467,-0.039984001141908934,0.033815824669465214,0.05086239854660788,-0.0019421051312889404, ,0.04535672715907049, ,0.061076930085029846, ,0.0007342155563939326, ,0.1711898196229347,-0.23574414371857738,0.09805785705000002,1.612725355339477,0.15590224623236756,-1.3322976388916126, ,0.181447306995164,0.07901493884968425,0.04259040513368984,0.04561034357620341,0.22858942261643733,-0.10377247915539611, ,1.0488078594207764
0.013754531482395761,0.021416995918487922,-0.08784512543560435, ,0.014972760570140053,0.020913933363021754,-0.0886647836231734, ,0.0015520932927460943, ,0.02120255321044213,0.0029940087883234467,-0.039984001141908934,0.033815824669465214,0.05086239854660788,-0.0019421051312889404, ,0.04535672715907049, ,0.061076930085029846, ,0.0007422339655738558, ,0.1711898196229347,-0.23574414371857738,0.09805785705000002,1.612725355339477,0.15590224623236756,-1.3322976388916126, ,0.181447306995164,0.07901493884968425,0.04259040513368984,0.04561034357620341,0.22858942261643733,-0.10377247915539611, ,1.0510368347167969
0.013754531482395761,0.021416995918487922,-0.08784512543560435, ,0.015029297673483969,0.020909273149767284,-0.08874944805263311, ,0.001643353476123939, ,0.02120255321044213,0.0029940087883234467,-0.039984001141908934,0.033815824669465214,0.05086239854660788,-0.0019421051312889404, ,0.04535672715907049, ,0.061076930085029846, ,0.0007509826986859926, ,0.1711898196229347,-0.23574414371857738,0.09805785705000002,1.612725355339477,0.15590224623236756,-1.3322976388916126, ,0.181447306995164,0.07901493884968425,0.04259040513368984,0.04561034357620341,0.22858942261643733,-0.10377247915539611, ,1.0533068180084229
0.013754531482395761,0.021416995918487922,-0.08784512543560435, ,0.015085844486792545,0.020904462226139113,-0.08883413379968155, ,0.0017358636598775123, ,0.02120255321044213,0.0029940087883234467,-0.039984001141908934,0.033815824669465214,0.05086239854660788,-0.0019421051312889404, ,0.04535672715907049, ,0.061076930085029846, ,0.0007604527079282189, ,0.1711898196229347,-0.23574414371857738,0.09805785705000002,1.612725355339477,0.15590224623236756,-1.3322976388916126, ,0.181447306995164,0.07901493884968425,0.04259040513368984,0.04561034357620341,0.22858942261643733,-0.10377247915539611, ,1.0555198192596436
0.013971248864067046,0.02143801939040703,-0.08822455577181647, ,0.015142400202334374,0.02089950281735046,-0.08891884107339541, ,0.0014641132594750011, ,0.023088601092031712,0.001093477770140043,-0.03785799653100061,-0.058410201902698855,-0.052343770240235565,0.029455093689951743, ,0.04435659021342841, ,0.07843178057119246, ,0.0007671542369905691, ,0.17303555277987437,-0.23491781130103537,0.09846229953,1.6129350452829614,0.15767852072931826,-1.3328476054981198, ,0.1968816214906033,0.09276338373262051,0.04032610511392406,-0.009754205835383492,0.1512271611579337,-0.03438299642953578, ,1.0577008724212646
0.013971248864067046,0.02143801939040703,-0.08822455577181647, ,0.015198964017265011,0.02089439714008922,-0.0890035700781358, ,0.0015523121264367815, ,0.023088601092031712,0.001093477770140043,-0.03785799653100061,-0.058410201902698855,-0.052343770240235565,0.029455093689951743, ,0.04435659021342841, ,0.07843178057119246, ,0.0007745613868910051, ,0.17303555277987437,-0.23491781130103537,0.09846229953,1.6129350452829614,0.15767852072931826,-1.3328476054981198, ,0.1968816214906033,0.09276338373262051,0.04032610511392406,-0.009754205835383492,0.1512271611579337,-0.03438299642953578, ,1.0599617958068848
0.013971248864067046,0.02143801939040703,-0.08822455577181647, ,0.01525553513361759,0.020889147402530776,-0.08908832101356041, ,0.0016421760179944963, ,0.023088601092031712,0.001093477770140043,-0.03785799653100061,-0.058410201902698855,-0.052343770240235565,0.029455093689951743, ,0.04435659021342841, ,0.07843178057119246, ,0.0007826699348452433, ,0.17303555277987437,-0.23491781130103537,0.09846229953,1.6129350452829614,0.15767852072931826,-1.3328476054981198, ,0.1968816214906033,0.09276338373262051,0.04032610511392406,-0.009754205835383492,0.1512271611579337,-0.03438299642953578, ,1.062150001525879
0.013971248864067046,0.02143801939040703,-0.08822455577181647, ,0.015312112758292955,0.020883755804350552,-0.08917309407463675, ,0.001733450033195084, ,0.023088601092031712,0.001093477770140043,-0.03785799653100061,-0.058410201902698855,-0.052343770240235565,0.029455093689951743, ,0.04435659021342841, ,0.07843178057119246, ,0.0007914734542744085, ,0.17303555277987437,-0.23491781130103537,0.09846229953,1.6129350452829614,0.15767852072931826,-1.3328476054981198, ,0.1968816214906033,0.09276338373262051,0.04032610511392406,-0.009754205835383492,0.1512271611579337,-0.03438299642953578, ,1.0644099712371826
0.013971248864067046,0.02143801939040703,-0.08822455577181647, ,0.015368696103050554,0.02087822453673608,-0.08925788945165447, ,0.0018259264929965436, ,0.023088601092031712,0.001093477770140043,-0.03785799653100061,-0.058410201902698855,-0.052343770240235565,0.029455093689951743, ,0.04435659021342841, ,0.07843178057119246, ,0.0008009638491250702, ,0.17303555277987437,-0.23491781130103537,0.09846229953,1.6129350452829614,0.15767852072931826,-1.3328476054981198, ,0.1968816214906033,0.09276338373262051,0.04032610511392406,-0.009754205835383492,0.1512271611579337,-0.03438299642953578, ,1.0666539669036865
0.013971248864067046,0.02143801939040703,-0.08822455577181647, ,0.015425284384498647,0.020872555782400094,-0.0893427073302384, ,0.0019194351497923584, ,0.023088601092031712,0.001093477770140043,-0.03785799653100061,-0.058410201902698855,-0.052343770240235565,0.029455093689951743, ,0.04435659021342841, ,0.07843178057119246, ,0.0008111317700402273, ,0.17303555277987437,-0.23491781130103537,0.09846229953,1.6129350452829614,0.15767852072931826,-1.3328476054981198, ,0.1968816214906033,0.09276338373262051,0.04032610511392406,-0.009754205835383492,0.1512271611579337,-0.03438299642953578, ,1.0703449249267578
0.013971248864067046,0.02143801939040703,-0.08822455577181647, ,0.015481876824084917,0.02086675171559229,-0.08942754789136044, ,0.002013835551767048, ,0.023088601092031712,0.001093477770140043,-0.03785799653100061,-0.058410201902698855,-0.052343770240235565,0.029455093689951743, ,0.04435659021342841, ,0.07843178057119246, ,0.0008219669392449735, ,0.17303555277987437,-0.23491781130103537,0.09846229953,1.6129350452829614,0.15767852072931826,-1.3328476054981198, ,0.1968816214906033,0.09276338373262051,0.04032610511392406,-0.009754205835383492,0.1512271611579337,-0.03438299642953578, ,1.0728518962860107
0.014416569043488143,0.021432153268607333,-0.08888859490806986, ,0.01553847264808692,0.020860814502112364,-0.08951241131135286, ,0.001405077431715657, ,0.024759749109184694,-0.0015700714488259908,-0.0329709476151942,0.015948524011845468,-0.04749049752795184,0.022081963567340233, ,0.041262497342599985, ,0.05009654489265623, ,0.0008271732829277475, ,0.17695097834710619,-0.23301801901397612,0.09917137016000001,1.6129350452829614,0.1608211602239234,-1.3344300724014508, ,0.2243426514384652,0.10832984196172464,0.03539735893333334,0.0028941600922022153,0.18167560964709292,-0.12194347742342372, ,1.077143907546997
0.014416569043488143,0.021432153268607333,-0.08888859490806986, ,0.015595071087602538,0.020854746299322248,-0.089597297761921, ,0.0014914843650597075, ,0.024759749109184694,-0.0015700714488259908,-0.0329709476151942,0.015948524011845468,-0.04749049752795184,0.022081963567340233, ,0.041262497342599985, ,0.05009654489265623, ,0.0008330521420616586, ,0.17695097834710619,-0.23301801901397612,0.09917137016000001,1.6129350452829614,0.1608211602239234,-1.3344300724014508, ,0.2243426514384652,0.10832984196172464,0.03539735893333334,0.0028941600922022153,0.18167560964709292,-0.12194347742342372, ,1.0794289112091064
0.014416569043488143,0.021432153268607333,-0.08888859490806986, ,0.015651671378540597,0.02084854925615856,-0.08968220741015542, ,0.001579839303494139, ,0.024759749109184694,-0.0015700714488259908,-0.0329709476151942,0.015948524011845468,-0.04749049752795184,0.022081963567340233, ,0.041262497342599985, ,0.05009654489265623, ,0.0008396029066356276, ,0.17695097834710619,-0.23301801901397612,0.09917137016000001,1.6129350452829614,0.1608211602239234,-1.3344300724014508, ,0.2243426514384652,0.10832984196172464,0.03539735893333334,0.0028941600922022153,0.18167560964709292,-0.12194347742342372, ,1.0816729068756104
0.014416569043488143,0.021432153268607333,-0.08888859490806986, ,0.01570827276161117,0.02084222551314505,-0.0897671404185449, ,0.0016698369579253767, ,0.024759749109184694,-0.0015700714488259908,-0.0329709476151942,0.015948524011845468,-0.04749049752795184,0.022081963567340233, ,0.041262497342599985, ,0.05009654489265623, ,0.0008468223331685819, ,0.17695097834710619,-0.23301801901397612,0.09917137016000001,1.6129350452829614,0.1608211602239234,-1.3344300724014508, ,0.2243426514384652,0.10832984196172464,0.03539735893333334,0.0028941600922022153,0.18167560964709292,-0.12194347742342372, ,1.0839498043060303
0.014706694465742229,0.021405697638874323,-0.08922764138024673, ,0.015764874482316185,0.02083577720240523,-0.08985209694498884, ,0.0017612291571113088, ,0.02507868549811983,-0.003484889923778511,-0.02628368605612642,-0.05525290485878996,-0.14099996092409345,-0.09341227356482239, ,0.041262497342599985, ,0.05009680857843405, ,0.0008547051506163641, ,0.17958443025721674,-0.231774659021226,0.09953822023000002,1.6137738050568995,0.1621875252215778,-1.335217536477853, ,0.22757060325772369,0.11243713454795115,0.028495190554561723,0.09342693666823179,0.06712806177657786,-0.03905108596356498, ,1.0868878364562988
0.014706694465742229,0.021405697638874323,-0.08922764138024673, ,0.015821475790939895,0.020829206447674685,-0.08993707714281024, ,0.0014416582805034993, ,0.02507868549811983,-0.003484889923778511,-0.02628368605612642,-0.05525290485878996,-0.14099996092409345,-0.09341227356482239, ,0.03649543912314898, ,0.15143929454426888, ,0.0008597218440342028, ,0.17958443025721674,-0.231774659021226,0.09953822023000002,1.6137738050568995,0.1621875252215778,-1.335217536477853, ,0.22757060325772369,0.11243713454795115,0.028495190554561723,0.09342693666823179,0.06712806177657786,-0.03905108596356498, ,1.0891788005828857
0.014706694465742229,0.021405697638874323,-0.08922764138024673, ,0.015878075942539246,0.020822515364313746,-0.09002208116076824, ,0.0015308072035432362, ,0.02507868549811983,-0.003484889923778511,-0.02628368605612642,-0.05525290485878996,-0.14099996092409345,-0.09341227356482239, ,0.03649543912314898, ,0.15143929454426888, ,0.0008654090080978386, ,0.17958443025721674,-0.231774659021226,0.09953822023000002,1.6137738050568995,0.1621875252215778,-1.335217536477853, ,0.22757060325772369,0.11243713454795115,0.028495190554561723,0.09342693666823179,0.06712806177657786,-0.03905108596356498, ,1.0914149284362793
0.014706694465742229,0.021405697638874323,-0.08922764138024673, ,0.015934674196934666,0.020815706059319494,-0.09010710914307031, ,0.0016215695575617346, ,0.02507868549811983,-0.003484889923778511,-0.02628368605612642,-0.05525290485878996,-0.14099996092409345,-0.09341227356482239, ,0.03649543912314898, ,0.15143929454426888, ,0.0008717632984294681, ,0.17958443025721674,-0.231774659021226,0.09953822023000002,1.6137738050568995,0.1621875252215778,-1.335217536477853, ,0.22757060325772369,0.11243713454795115,0.028495190554561723,0.09342693666823179,0.06712806177657786,-0.03905108596356498, ,1.0936269760131836
0.014706694465742229,0.021405697638874323,-0.08922764138024673, ,0.01599126981870014,0.020808780631338987,-0.09019216122938592, ,0.0017136925893214818, ,0.02507868549811983,-0.003484889923778511,-0.02628368605612642,-0.05525290485878996,-0.14099996092409345,-0.09341227356482239, ,0.03649543912314898, ,0.15143929454426888, ,0.0008787793758535682, ,0.17958443025721674,-0.231774659021226,0.09953822023000002,1.6137738050568995,0.1621875252215778,-1.335217536477853, ,0.22757060325772369,0.11243713454795115,0.028495190554561723,0.09342693666823179,0.06712806177657786,-0.03905108596356498, ,1.0958278179168701
0.014961958151750257,0.021360029446084772,-0.08950382269895214, ,0.016047862077153984,0.020801741170680947,-0.09027723755485778, ,0.0014453524390252155, ,0.025944445569180408,-0.00464816508029004,-0.029807154368664525,0.0055669452663882875,-0.0782164559032908,-0.039218570407487295, ,0.03978927174582603, ,0.07841416533202655, ,0.0008834617978632513, ,0.18191669558523255,-0.23051585356272739,0.09983507064000001,1.613983495000384,0.16328061721970133,-1.3358638434870023, ,0.23665072707848075,0.13253762787495918,0.03192146597194389,0.05421628023606288,0.15071710402241015,-0.12620496667870376, ,1.0980339050292969
0.014961958151750257,0.021360029446084772,-0.08950382269895214, ,0.016104450246349253,0.020794589759328602,-0.09036233825011575, ,0.0015368992085266569, ,0.025944445569180408,-0.00464816508029004,-0.029807154368664525,0.0055669452663882875,-0.0782164559032908,-0.039218570407487295, ,0.03978927174582603, ,0.07841416533202655, ,0.0008888178422129514, ,0.18191669558523255,-0.23051585356272739,0.09983507064000001,1.613983495000384,0.16328061721970133,-1.3358638434870023, ,0.23665072707848075,0.13253762787495918,0.03192146597194389,0.05421628023606288,0.15071710402241015,-0.12620496667870376, ,1.1003139019012451
0.014961958151750257,0.021360029446084772,-0.08950382269895214, ,0.01616103360506422,0.020787328470952358,-0.09044746344128868, ,0.0016297932998558893, ,0.025944445569180408,-0.00464816508029004,-0.029807154368664525,0.0055669452663882875,-0.0782164559032908,-0.039218570407487295, ,0.03978927174582603, ,0.07841416533202655, ,0.0008948420329254956, ,0.18191669558523255,-0.23051585356272739,0.09983507064000001,1.613983495000384,0.16328061721970133,-1.3358638434870023, ,0.23665072707848075,0.13253762787495918,0.03192146597194389,0.05421628023606288,0.15071710402241015,-0.12620496667870376, ,1.102564811706543
0.014961958151750257,0.021360029446084772,-0.08950382269895214, ,0.016217611436792772,0.020779959370921888,-0.09053261325001788, ,0.0017238203103281022, ,0.025944445569180408,-0.00464816508029004,-0.029807154368664525,0.0055669452663882875,-0.0782164559032908,-0.039218570407487295, ,0.03978927174582603, ,0.07841416533202655, ,0.0009015273416142262, ,0.18191669558523255,-0.23051585356272739,0.09983507064000001,1.613983495000384,0.16328061721970133,-1.3358638434870023, ,0.23665072707848075,0.13253762787495918,0.03192146597194389,0.05421628023606288,0.15071710402241015,-0.12620496667870376, ,1.1048009395599365
0.015233148834809456,0.02131726860567156,-0.08983133678186517, ,0.016274183029735174,0.02077248451631873,-0.09061778779346863, ,0.001413876618615901, ,0.026883679635938202,-0.003867090767419802,-0.0324571170940873,0.04123893923373399,-0.0415235003180844,-0.007386241645075869, ,0.04232199276771494, ,0.05852192039989521, ,0.0009056261358302396, ,0.18439569283785862,-0.2291643753097381,0.10018636523,1.613983495000384,0.16533016471618295,-1.3374534333023083, ,0.24457974628471849,0.13017413108157858,0.034931604210526324,0.03373168391393707,0.20151095884754344,-0.16303257736291826, ,1.1070969104766846
0.015233148834809456,0.02131726860567156,-0.08983133678186517, ,0.016330747676788104,0.02076490595594889,-0.09070298718434375, ,0.0015065198766901773, ,0.026883679635938202,-0.003867090767419802,-0.0324571170940873,0.04123893923373399,-0.0415235003180844,-0.007386241645075869, ,0.04232199276771494, ,0.05852192039989521, ,0.0009103951337735724, ,0.18439569283785862,-0.2291643753097381,0.10018636523,1.613983495000384,0.16533016471618295,-1.3374534333023083, ,0.24457974628471849,0.13017413108157858,0.034931604210526324,0.03373168391393707,0.20151095884754344,-0.16303257736291826, ,1.1093699932098389
0.015233148834809456,0.02131726860567156,-0.08983133678186517, ,0.0163873046755356,0.020757225730354996,-0.09078821153089593, ,0.0016004165121017112, ,0.026883679635938202,-0.003867090767419802,-0.0324571170940873,0.04123893923373399,-0.0415235003180844,-0.007386241645075869, ,0.04232199276771494, ,0.05852192039989521, ,0.0009158283729730067, ,0.18439569283785862,-0.2291643753097381,0.10018636523,1.613983495000384,0.16533016471618295,-1.3374534333023083, ,0.24457974628471849,0.13017413108157858,0.034931604210526324,0.03373168391393707,0.20151095884754344,-0.16303257736291826, ,1.1116669178009033
0.015233148834809456,0.02131726860567156,-0.08983133678186517, ,0.016443853328239263,0.02074944587182914,-0.09087346093694054, ,0.0016953615490717517, ,0.026883679635938202,-0.003867090767419802,-0.0324571170940873,0.04123893923373399,-0.0415235003180844,-0.007386241645075869, ,0.04232199276771494, ,0.05852192039989521, ,0.0009219184759112781, ,0.18439569283785862,-0.2291643753097381,0.10018636523,1.613983495000384,0.16533016471618295,-1.3374534333023083, ,0.24457974628471849,0.13017413108157858,0.034931604210526324,0.03373168391393707,0.20151095884754344,-0.16303257736291826, ,1.114015817642212
0.015233148834809456,0.02131726860567156,-0.08983133678186517, ,0.016500392941828743,0.020741568404425207,-0.09095873550186773, ,0.0017911912858077463, ,0.026883679635938202,-0.003867090767419802,-0.0324571170940873,0.04123893923373399,-0.0415235003180844,-0.007386241645075869, ,0.04232199276771494, ,0.05852192039989521, ,0.0009286570248252042, ,0.18674340363162287,-0.22789012438549106,0.1005272895,1.613983495000384,0.16710643921313365,-1.3389018660503615, ,0.24712745197518432,0.1371343086105069,0.03661795751724139,0.025026510624604655,0.16251749052890926,-0.11715809061711611, ,1.1166908740997314
0.015494532703933419,0.021278255185607,-0.09014852427671712, ,0.01655692282789238,0.020733595343971196,-0.09104403532065573, ,0.0014924031453974877, ,0.027964045434107257,-0.004226434418522134,-0.03410146296531639,-0.012994474043635532,-0.08376165333942674,-0.010399586884784569, ,0.04430305137696194, ,0.08476334590139546, ,0.0009329935334449911, ,0.18674340363162287,-0.22789012438549106,0.1005272895,1.613983495000384,0.16710643921313365,-1.3389018660503615, ,0.24712745197518432,0.1371343086105069,0.03661795751724139,0.025026510624604655,0.16251749052890926,-0.11715809061711611, ,1.1189939975738525
0.015494532703933419,0.021278255185607,-0.09014852427671712, ,0.016613442302667612,0.02072552869808182,-0.09112936048388302, ,0.0015872948451497728, ,0.027964045434107257,-0.004226434418522134,-0.03410146296531639,-0.012994474043635532,-0.08376165333942674,-0.010399586884784569, ,0.04430305137696194, ,0.08476334590139546, ,0.0009379881999465543, ,0.18674340363162287,-0.22789012438549106,0.1005272895,1.613983495000384,0.16710643921313365,-1.3389018660503615, ,0.24712745197518432,0.1371343086105069,0.03661795751724139,0.025026510624604655,0.16251749052890926,-0.11715809061711611, ,1.1212818622589111
0.015494532703933419,0.021278255185607,-0.09014852427671712, ,0.01666995068703133,0.020717370466171066,-0.09121471107774162, ,0.0016831379617148333, ,0.027964045434107257,-0.004226434418522134,-0.03410146296531639,-0.012994474043635532,-0.08376165333942674,-0.010399586884784569, ,0.04430305137696194, ,0.08476334590139546, ,0.0009436332738993443, ,0.18674340363162287,-0.22789012438549106,0.1005272895,1.613983495000384,0.16710643921313365,-1.3389018660503615, ,0.24712745197518432,0.1371343086105069,0.03661795751724139,0.025026510624604655,0.16251749052890926,-0.11715809061711611, ,1.1235129833221436
0.015494532703933419,0.021278255185607,-0.09014852427671712, ,0.01672644730649056,0.020709122639464426,-0.09130008718404846, ,0.0017797816081232183, ,0.027964045434107257,-0.004226434418522134,-0.03410146296531639,-0.012994474043635532,-0.08376165333942674,-0.010399586884784569, ,0.04430305137696194, ,0.08476334590139546, ,0.0009499201034799748, ,0.18674340363162287,-0.22789012438549106,0.1005272895,1.613983495000384,0.16710643921313365,-1.3389018660503615, ,0.24712745197518432,0.1371343086105069,0.03661795751724139,0.025026510624604655,0.16251749052890926,-0.11715809061711611, ,1.125701904296875
0.015787286170014878,0.021240581884871438,-0.09052449524735538, ,0.01678293149117291,0.0207007872010116,-0.09138548888026007, ,0.0014226728162756315, ,0.02951396097545387,-0.003437052744753773,-0.03958432308343029,-0.040269055991364176,-0.1092497659667742,0.007726794681111272, ,0.04949551351389563, ,0.11643457839256531, ,0.0009534481087993456, ,0.18926101454862007,-0.2264845870023822,0.10093043569000001,1.6141931849438687,0.16860944071055353,-1.3398007480304601, ,0.24842131298029,0.14100585669906504,0.04236386042553192,0.0,0.14335628862567845,-0.09817357709569847, ,1.127959966659546
0.015787286170014878,0.021240581884871438,-0.09052449524735538, ,0.016839402575816814,0.020692366125698795,-0.09147091623948275, ,0.001517630437327275, ,0.02951396097545387,-0.003437052744753773,-0.03958432308343029,-0.040269055991364176,-0.1092497659667742,0.007726794681111272, ,0.04949551351389563, ,0.11643457839256531, ,0.0009576272371588118, ,0.18926101454862007,-0.2264845870023822,0.10093043569000001,1.6141931849438687,0.16860944071055353,-1.3398007480304601, ,0.24842131298029,0.14100585669906504,0.04236386042553192,0.0,0.14335628862567845,-0.09817357709569847, ,1.130167007446289
0.015787286170014878,0.021240581884871438,-0.09052449524735538, ,0.016895859899762448,0.020683861380261306,-0.09155636933048755, ,0.0016135791142611053, ,0.02951396097545387,-0.003437052744753773,-0.03958432308343029,-0.040269055991364176,-0.1092497659667742,0.007726794681111272, ,0.04949551351389563, ,0.11643457839256531, ,0.0009624504127257403, ,0.18926101454862007,-0.2264845870023822,0.10093043569000001,1.6141931849438687,0.16860944071055353,-1.3398007480304601, ,0.24842131298029,0.14100585669906504,0.04236386042553192,0.0,0.14335628862567845,-0.09817357709569847, ,1.1323859691619873
0.015787286170014878,0.021240581884871438,-0.09052449524735538, ,0.016952302806941755,0.020675274923295975,-0.09164184821772113, ,0.0017103547542855703, ,0.02951396097545387,-0.003437052744753773,-0.03958432308343029,-0.040269055991364176,-0.1092497659667742,0.007726794681111272, ,0.04949551351389563, ,0.11643457839256531, ,0.0009679095685035493, ,0.18926101454862007,-0.2264845870023822,0.10093043569000001,1.6141931849438687,0.16860944071055353,-1.3398007480304601, ,0.24842131298029,0.14100585669906504,0.04236386042553192,0.0,0.14335628862567845,-0.09817357709569847, ,1.1345949172973633
0.016087444284592363,0.021204660733893065,-0.09093849794928925, ,0.017008730645869274,0.020666608705273433,-0.09172735296131929, ,0.0013268612493329735, ,0.029793151282306085,-0.003566597530059165,-0.04230670958314346,-0.022350037767843174,-0.06563894098881207,-0.002644602635127985, ,0.051867235872217476, ,0.06933872820425743, ,0.0009705106676399946, ,0.19175545726699458,-0.2250095450234053,0.10137247058000001,1.614822254774322,0.17011244220797336,-1.340781308750699, ,0.24712745197518432,0.1480451506372399,0.04512411195467422,0.01865889376867105,0.1826406672021927,-0.11939982707364312, ,1.1370439529418945
0.016087444284592363,0.021204660733893065,-0.09093849794928925, ,0.017065142769632443,0.02065786466855098,-0.09181288361711941, ,0.0014210666982341271, ,0.029793151282306085,-0.003566597530059165,-0.04230670958314346,-0.022350037767843174,-0.06563894098881207,-0.002644602635127985, ,0.051867235872217476, ,0.06933872820425743, ,0.0009737520779320387, ,0.19175545726699458,-0.2250095450234053,0.10137247058000001,1.614822254774322,0.17011244220797336,-1.340781308750699, ,0.24712745197518432,0.1480451506372399,0.04512411195467422,0.01865889376867105,0.1826406672021927,-0.11939982707364312, ,1.1399869918823242
0.016087444284592363,0.021204660733893065,-0.09093849794928925, ,0.0171215385358821,0.020649044747384757,-0.0918984402366737, ,0.0015164264703977518, ,0.029793151282306085,-0.003566597530059165,-0.04230670958314346,-0.022350037767843174,-0.06563894098881207,-0.002644602635127985, ,0.051867235872217476, ,0.06933872820425743, ,0.0009776283235925082, ,0.19175545726699458,-0.2250095450234053,0.10137247058000001,1.614822254774322,0.17011244220797336,-1.340781308750699, ,0.24712745197518432,0.1480451506372399,0.04512411195467422,0.01865889376867105,0.1826406672021927,-0.11939982707364312, ,1.1425650119781494
0.016087444284592363,0.021204660733893065,-0.09093849794928925, ,0.017177917306823005,0.02064015086794233,-0.09198402286726033, ,0.001612738402552312, ,0.029793151282306085,-0.003566597530059165,-0.04230670958314346,-0.022350037767843174,-0.06563894098881207,-0.002644602635127985, ,0.051867235872217476, ,0.06933872820425743, ,0.0009821326503936414, ,0.19175545726699458,-0.2250095450234053,0.10137247058000001,1.614822254774322,0.17011244220797336,-1.340781308750699, ,0.24712745197518432,0.1480451506372399,0.04512411195467422,0.01865889376867105,0.1826406672021927,-0.11939982707364312, ,1.1450209617614746
0.016381414564672438,0.021169768025482188,-0.09135564092782875, ,0.017234278449204332,0.020631184948314944,-0.09206963155189762, ,0.0012358119386897163, ,0.029333886835434864,-0.003473053094478323,-0.04132444849233344,-0.0008818701429689241,-0.020048585736468002,-0.034079506326821794, ,0.050796151998617804, ,0.020064968766079386, ,0.0009839191242548813, ,0.19421900905387218,-0.22354994851017687,0.10181839434,1.6154513246047757,0.1722986262042204,-1.342155601509139, ,0.2452117352932061,0.14422027592472764,0.044246698666666674,0.06022846634155759,0.21807888155834942,-0.12908038079500525, ,1.1474390029907227
0.016381414564672438,0.021169768025482188,-0.09135564092782875, ,0.01729062133431006,0.020622148898530483,-0.09215526632935588, ,0.0013288884230535133, ,0.029333886835434864,-0.003473053094478323,-0.04132444849233344,-0.0008818701429689241,-0.020048585736468002,-0.034079506326821794, ,0.050796151998617804, ,0.020064968766079386, ,0.000986331496973753, ,0.19421900905387218,-0.22354994851017687,0.10181839434,1.6154513246047757,0.1722986262042204,-1.342155601509139, ,0.2452117352932061,0.14422027592472764,0.044246698666666674,0.06022846634155759,0.21807888155834942,-0.12908038079500525, ,1.149688959121704
0.016381414564672438,0.021169768025482188,-0.09135564092782875, ,0.017346945337949615,0.020613044620565193,-0.09224092723417035, ,0.0014233490323611972, ,0.029333886835434864,-0.003473053094478323,-0.04132444849233344,-0.0008818701429689241,-0.020048585736468002,-0.034079506326821794, ,0.050796151998617804, ,0.020064968766079386, ,0.000989366340969499, ,0.19421900905387218,-0.22354994851017687,0.10181839434,1.6154513246047757,0.1722986262042204,-1.342155601509139, ,0.2452117352932061,0.14422027592472764,0.044246698666666674,0.06022846634155759,0.21807888155834942,-0.12908038079500525, ,1.1520957946777344
0.016381414564672438,0.021169768025482188,-0.09135564092782875, ,0.017403249840448123,0.02060387400835706,-0.09232661429665354, ,0.0015189380015012295, ,0.029333886835434864,-0.003473053094478323,-0.04132444849233344,-0.0008818701429689241,-0.020048585736468002,-0.034079506326821794, ,0.050796151998617804, ,0.020064968766079386, ,0.0009930185593179939, ,0.19421900905387218,-0.22354994851017687,0.10181839434,1.6154513246047757,0.1722986262042204,-1.342155601509139, ,0.2452117352932061,0.14422027592472764,0.044246698666666674,0.06022846634155759,0.21807888155834942,-0.12908038079500525, ,1.154561996459961
0.016670304551146473,0.0211270806402592,-0.09175043126626738, ,0.017459534226637173,0.020594638947817365,-0.09241232754290846, ,0.0011595190026717143, ,0.0282533660100905,-0.004900058358488373,-0.03813401798784585,-0.005108646610048829,-0.040510832652832236,0.04225932724753006, ,0.04771233164197784, ,0.04083068931729178, ,0.0009941589733135673, ,0.19665166990925292,-0.22208262926407424,0.10224098488000001,1.6156610145482602,0.17448481020046747,-1.3436115730077196, ,0.23724235389617693,0.14850851574095583,0.04073864838874681,-0.023200001466834524,0.20785218010381726,-0.14477492299308514, ,1.1572349071502686
0.016670304551146473,0.0211270806402592,-0.09175043126626738, ,0.017515797885845008,0.02058534131684388,-0.09249806699484035, ,0.0012519183903885196, ,0.0282533660100905,-0.004900058358488373,-0.03813401798784585,-0.005108646610048829,-0.040510832652832236,0.04225932724753006, ,0.04771233164197784, ,0.04083068931729178, ,0.0009959124387358459, ,0.19665166990925292,-0.22208262926407424,0.10224098488000001,1.6156610145482602,0.17448481020046747,-1.3436115730077196, ,0.23724235389617693,0.14850851574095583,0.04073864838874681,-0.023200001466834524,0.20785218010381726,-0.14477492299308514, ,1.1595168113708496
0.016670304551146473,0.0211270806402592,-0.09175043126626738, ,0.017572040211887296,0.02057598298533292,-0.09258383267017042, ,0.001345880279647676, ,0.0282533660100905,-0.004900058358488373,-0.03813401798784585,-0.005108646610048829,-0.040510832652832236,0.04225932724753006, ,0.04771233164197784, ,0.04083068931729178, ,0.0009982770863095744, ,0.19665166990925292,-0.22208262926407424,0.10224098488000001,1.6156610145482602,0.17448481020046747,-1.3436115730077196, ,0.23724235389617693,0.14850851574095583,0.04073864838874681,-0.023200001466834524,0.20785218010381726,-0.14477492299308514, ,1.1617858409881592
0.016670304551146473,0.0211270806402592,-0.09175043126626738, ,0.017628260603057277,0.020566565815191895,-0.09266962458244728, ,0.0014411013215671444, ,0.0282533660100905,-0.004900058358488373,-0.03813401798784585,-0.005108646610048829,-0.040510832652832236,0.04225932724753006, ,0.04771233164197784, ,0.04083068931729178, ,0.0010012490610428466, ,0.19665166990925292,-0.22208262926407424,0.10224098488000001,1.6156610145482602,0.17448481020046747,-1.3436115730077196, ,0.23724235389617693,0.14850851574095583,0.04073864838874681,-0.023200001466834524,0.20785218010381726,-0.14477492299308514, ,1.164078950881958
0.016959582494508553,0.021074618766722515,-0.09213239513541198, ,0.017684458462116595,0.02055709166035188,-0.09275544274106096, ,0.001086953445713744, ,0.027761244216617104,-0.005214574248800074,-0.03633373099826988,-0.09669957255692281,-0.08112915114442268,0.02199043678394003, ,0.04602193469754985, ,0.12622473282515917, ,0.0010018204236073194, ,0.19905343983313672,-0.220561250887852,0.10264931623000001,1.6156610145482602,0.17626108469741816,-1.344488254574789, ,0.2286673290565561,0.1462202489344696,0.03885075980487805,-0.016117499063819592,0.15521133854112154,-0.04963567353839282, ,1.1668059825897217
0.016959582494508553,0.021074618766722515,-0.09213239513541198, ,0.017740633196285462,0.020547562366779973,-0.09284128715125423, ,0.0011791338081793262, ,0.027761244216617104,-0.005214574248800074,-0.03633373099826988,-0.09669957255692281,-0.08112915114442268,0.02199043678394003, ,0.04602193469754985, ,0.12622473282515917, ,0.0010029946844322996, ,0.19905343983313672,-0.220561250887852,0.10264931623000001,1.6156610145482602,0.17626108469741816,-1.344488254574789, ,0.2286673290565561,0.1462202489344696,0.03885075980487805,-0.016117499063819592,0.15521133854112154,-0.04963567353839282, ,1.1690800189971924
0.016959582494508553,0.021074618766722515,-0.09213239513541198, ,0.017796784217233425,0.020537979772491922,-0.09292715781413612, ,0.0012730026905529623, ,0.027761244216617104,-0.005214574248800074,-0.03633373099826988,-0.09669957255692281,-0.08112915114442268,0.02199043678394003, ,0.04602193469754985, ,0.12622473282515917, ,0.0010047710528936198, ,0.19905343983313672,-0.220561250887852,0.10264931623000001,1.6156610145482602,0.17626108469741816,-1.344488254574789, ,0.2286673290565561,0.1462202489344696,0.03885075980487805,-0.016117499063819592,0.15521133854112154,-0.04963567353839282, ,1.171388864517212
0.016959582494508553,0.021074618766722515,-0.09213239513541198, ,0.017852910941069652,0.02052834570756427,-0.09301305472669409, ,0.001368214633862155, ,0.027761244216617104,-0.005214574248800074,-0.03633373099826988,-0.09669957255692281,-0.08112915114442268,0.02199043678394003, ,0.04602193469754985, ,0.12622473282515917, ,0.0010071465011352442, ,0.19905343983313672,-0.220561250887852,0.10264931623000001,1.6156610145482602,0.17626108469741816,-1.344488254574789, ,0.2286673290565561,0.1462202489344696,0.03885075980487805,-0.016117499063819592,0.15521133854112154,-0.04963567353839282, ,1.1736149787902832
0.016959582494508553,0.021074618766722515,-0.09213239513541198, ,0.017909012788333435,0.02051866199414723,-0.09309897788180725, ,0.0014645094815103647, ,0.027761244216617104,-0.005214574248800074,-0.03633373099826988,-0.09669957255692281,-0.08112915114442268,0.02199043678394003, ,0.04602193469754985, ,0.12622473282515917, ,0.0010101163906181996, ,0.19905343983313672,-0.220561250887852,0.10264931623000001,1.6156610145482602,0.17626108469741816,-1.344488254574789, ,0.2286673290565561,0.1462202489344696,0.03885075980487805,-0.016117499063819592,0.15521133854112154,-0.04963567353839282, ,1.1758179664611816
0.017232929438976717,0.021020062453650352,-0.09248888216134456, ,0.017965089183984692,0.02050893044647681,-0.09318492726825792, ,0.001132162802703493, ,0.026522970416292223,-0.005551346321380183,-0.03483412902520691,-0.0760764914596378,-0.048564656773934976,0.023536307945466458, ,0.044132776375707165, ,0.09025578735634411, ,0.0010109037868252014, ,0.2013084778324103,-0.21909393164174934,0.10303042549000001,1.6156610145482602,0.17790072269460347,-1.3450084820177404, ,0.2191615278486623,0.14488082680682562,0.037216849345794396,-0.012348712432290387,0.17802704336917555,-0.06820643700986113, ,1.1780259609222412
0.017232929438976717,0.021020062453650352,-0.09248888216134456, ,0.018021139557394525,0.020499152870887542,-0.09327090287074578, ,0.0012264494992141899, ,0.026522970416292223,-0.005551346321380183,-0.03483412902520691,-0.0760764914596378,-0.048564656773934976,0.023536307945466458, ,0.044132776375707165, ,0.09025578735634411, ,0.0010122854901097461, ,0.2013084778324103,-0.21909393164174934,0.10303042549000001,1.6156610145482602,0.17790072269460347,-1.3450084820177404, ,0.2191615278486623,0.14488082680682562,0.037216849345794396,-0.012348712432290387,0.17802704336917555,-0.06820643700986113, ,1.180250883102417
0.017232929438976717,0.021020062453650352,-0.09248888216134456, ,0.018077163342335653,0.0204893310658247,-0.09335690466989904, ,0.0013220702571955971, ,0.026522970416292223,-0.005551346321380183,-0.03483412902520691,-0.0760764914596378,-0.048564656773934976,0.023536307945466458, ,0.044132776375707165, ,0.09025578735634411, ,0.0010142586414924586, ,0.2013084778324103,-0.21909393164174934,0.10303042549000001,1.6156610145482602,0.17790072269460347,-1.3450084820177404, ,0.2191615278486623,0.14488082680682562,0.037216849345794396,-0.012348712432290387,0.17802704336917555,-0.06820643700986113, ,1.1824698448181152
0.017232929438976717,0.021020062453650352,-0.09248888216134456, ,0.018133159976972794,0.020479466821857004,-0.09344293264228809, ,0.0014187568427476715, ,0.026522970416292223,-0.005551346321380183,-0.03483412902520691,-0.0760764914596378,-0.048564656773934976,0.023536307945466458, ,0.044132776375707165, ,0.09025578735634411, ,0.0010168187566902765, ,0.2013084778324103,-0.21909393164174934,0.10303042549000001,1.6156610145482602,0.17790072269460347,-1.3450084820177404, ,0.2191615278486623,0.14488082680682562,0.037216849345794396,-0.012348712432290387,0.17802704336917555,-0.06820643700986113, ,1.1867280006408691
0.017232929438976717,0.021020062453650352,-0.09248888216134456, ,0.01818912890385319,0.020469561921688938,-0.09352898676043768, ,0.0015163066409452004, ,0.026522970416292223,-0.005551346321380183,-0.03483412902520691,-0.0760764914596378,-0.048564656773934976,0.023536307945466458, ,0.044132776375707165, ,0.09025578735634411, ,0.0010199601899245842, ,0.2013084778324103,-0.21909393164174934,0.10303042549000001,1.6156610145482602,0.17790072269460347,-1.3450084820177404, ,0.2191615278486623,0.14488082680682562,0.037216849345794396,-0.012348712432290387,0.17802704336917555,-0.06820643700986113, ,1.1891520023345947
0.017232929438976717,0.021020062453650352,-0.09248888216134456, ,0.01824506956989727,0.02045961814017324,-0.0936150669928396, ,0.001614564259426742, ,0.026522970416292223,-0.005551346321380183,-0.03483412902520691,-0.0760764914596378,-0.048564656773934976,0.023536307945466458, ,0.044132776375707165, ,0.09025578735634411, ,0.0010236764653589726, ,0.2013084778324103,-0.21909393164174934,0.10303042549000001,1.6156610145482602,0.17790072269460347,-1.3450084820177404, ,0.2191615278486623,0.14488082680682562,0.037216849345794396,-0.012348712432290387,0.17802704336917555,-0.06820643700986113, ,1.1915879249572754
0.017232929438976717,0.021020062453650352,-0.09248888216134456, ,0.018300981426388856,0.02044963724432354,-0.09370117330396563, ,0.001713408819204588, ,0.026522970416292223,-0.005551346321380183,-0.03483412902520691,-0.0760764914596378,-0.048564656773934976,0.023536307945466458, ,0.044132776375707165, ,0.09025578735634411, ,0.0010279605172462125, ,0.2013084778324103,-0.21909393164174934,0.10303042549000001,1.6156610145482602,0.17790072269460347,-1.3450084820177404, ,0.2191615278486623,0.14488082680682562,0.037216849345794396,-0.012348712432290387,0.17802704336917555,-0.06820643700986113, ,1.1941559314727783
0.0174455950547887,0.02097175488524896,-0.09277207690032432, ,0.01835686392896578,0.02043962099332651,-0.0937873056542796, ,0.0014643315412959216, ,0.025588828437295937,-0.006158019530552307,-0.03348892209336411,-0.03425369314680111,-0.01534137270905728,0.017158975755501984, ,0.04259362919859541, ,0.03753173442698559, ,0.0010306541655428156, ,0.20308470639348195,-0.21788918531337031,0.10333246106,1.6154513246047757,0.1796769971915542,-1.3458851635848101, ,0.21325155406397928,0.14712704117592368,0.03571482403587444,0.0,0.2033840542101766,-0.1098349425416707, ,1.1968309879302979
0.0174455950547887,0.02097175488524896,-0.09277207690032432, ,0.01841271653761042,0.02042957113855455,-0.09387346400025065, ,0.0015627990023029182, ,0.025588828437295937,-0.006158019530552307,-0.03348892209336411,-0.03425369314680111,-0.01534137270905728,0.017158975755501984, ,0.04259362919859541, ,0.03753173442698559, ,0.0010339188577928775, ,0.20308470639348195,-0.21788918531337031,0.10333246106,1.6154513246047757,0.1796769971915542,-1.3458851635848101, ,0.21325155406397928,0.14712704117592368,0.03571482403587444,0.0,0.2033840542101766,-0.1098349425416707, ,1.199138879776001
