NicholasDascanio/dvrk_moveit_final/test/execution/third_experiment_notsharpbends/thirdexp_500vel5.0/thirdexp_500vel5.0_24.csv
Current Position (x),Current Position (y),Current Position (z), ,Planned Position (x),Planned Position (y),Planned Position (z), ,Position Error,,Cartesian linear Velocity(x),Cartesian linear Velocity(y),Cartesian linear Velocity(z),Cartesian Angular Velocity(x),Cartesian Angular Velocity(y),Cartesian Angular Velocity(z), ,Total Linear Velocity, ,Total Angular Velocity, ,MSE, ,Joint 1 Position,Joint 2 Position,Joint 3 Position,Joint 4 Position,Joint 5 Position,Joint 6 Position, ,Joint 1 Velocity,Joint 2 Velocity,Joint 3 Velocity,Joint 4 Velocity,Joint 5 Velocity,Joint 6 Velocity, ,Time Stamp
0.009137437377867298,0.02066290764127167,-0.0794359317135137, ,0.009304812724634301,0.02058928705870661,-0.07956363251287776, ,0.00022302912599213464, ,1.8244728617067678e-05,-8.154783708054274e-06,-2.2552481487771414e-08,0.0007737193118961651,-0.0004817702742562172,0.0006720482869937771, ,1.9984272022018138e-05, ,0.0009114516831725014, ,1.8585760499344552e-05, ,0.16369876873493694,-0.24745180675590173,0.0898977115,1.6903106344287508,0.45008063022736083,-1.277728527343281, ,0.00023145166737875543,5.284568413691937e-05,0.0,-0.0010324121199036947,0.0,-0.0010355209843249114, ,0.022089004516601562
0.00914164773119236,0.020663594120310977,-0.07944553196305461, ,0.00935958824222157,0.02059490234432222,-0.07969817298334489, ,0.00034065247917706005, ,0.00023608530298461166,2.5828870220683513e-06,-0.00017385960280073918,0.1125205137528205,-0.0025182690455021767,-0.03425693665569484, ,0.00029320658771033, ,0.11254869032638365, ,2.5621891144054305e-05, ,0.16374510513218227,-0.24742863855727906,0.08990808182000001,1.6903106344287508,0.4502172667271263,-1.280698701151897, ,0.0025673350045778637,0.0005151157862006876,0.0001942266133794199,-0.001007965084690564,0.0,-0.11851684399343121, ,0.04515194892883301
0.009167152147396848,0.020672030912631666,-0.0795036752787099, ,0.009414432689892518,0.020600287406322967,-0.07983212402917937, ,0.00041734084281241614, ,0.002150629343998674,0.0007232735350925781,-0.004303870430559885,0.20034398731429787,-0.12699753036603603,-0.09874513677797075, ,0.004865350127676447, ,0.23720473429210276, ,3.065695149942534e-05, ,0.16383005519379876,-0.24735913396141104,0.08996511858,1.6903106344287508,0.44912417472900273,-1.2856065484723058, ,0.00481960599089832,0.003530942585797811,0.004111722127000517,-0.0009835621423695709,-0.1271734390389577,-0.22389176548583165, ,0.06748390197753906
0.009247042592545374,0.020710675989778833,-0.07972128527077962, ,0.009469345258253914,0.02060544425520907,-0.0799654892671636, ,0.00034659455418628197, ,0.002929436225755413,0.0007927235085942675,-0.005821825178577656,0.1954360020281783,-0.16306519355550753,-0.10888449483572972, ,0.006565337430152915, ,0.25452993582556305, ,3.1609928623045066e-05, ,0.16403856898140282,-0.24718923383817812,0.09018159901,1.6901009444852664,0.4458448987346322,-1.2932240400413024, ,0.007748308588191596,0.007114525272220713,0.00555979459685864,0.00015902090739147555,-0.1616975291280447,-0.22480789120313732, ,0.09091997146606445
0.00930603362409654,0.020726428529344483,-0.07985212011977177, ,0.009524325140655739,0.020610374895362913,-0.0800982723022648, ,0.0003488703614641409, ,0.0019804659079669714,0.0007238378905080174,-0.005838002382946513,-0.13379511909244726,-0.012328008703290472,0.03534583318593282, ,0.006207129636768005, ,0.13436187586056217, ,3.224014160830834e-05, ,0.16426252823475532,-0.24700388824919672,0.09030993172000001,1.6898912545417817,0.44352207823861967,-1.2922284018200094, ,0.012437344896260914,0.009372237871569537,0.006024512677760969,0.0009057040571023111,0.0,0.13028025701436025, ,0.1164388656616211
0.009336125972459587,0.020735656138857524,-0.07995530005869834, ,0.009579371533187674,0.02061508132505641,-0.08023047672765082, ,0.0003865603286330311, ,0.0012738202145535847,0.0003360214051176559,-0.005178484051564003,-0.12335149030636605,0.06549841257807587,0.053894212618555114, ,0.0053434282437406526, ,0.13966256551891537, ,3.3274962778468786e-05, ,0.16453282388535317,-0.24678765172871844,0.09041882008,1.6898912545417817,0.44461517023674324,-1.2896075592235365, ,0.013375185561447608,0.012570796338385318,0.005502180145077721,0.0009057040571023111,0.0818236279379934,0.1227253280089158, ,0.13972902297973633
0.009378396522102855,0.020735877443756053,-0.08007367527517116, ,0.009634483634675742,0.020619565536457544,-0.08036210612470558, ,0.0004028665088692323, ,0.0020929311732450226,0.00020257606184867654,-0.00545891377571963,-0.0001658109075718741,-0.001700143078422011,-0.003369464371476936, ,0.005849883551620191, ,0.0017082080952059114, ,3.424880834908746e-05, ,0.16493440599481285,-0.24641696055075565,0.09054196763000001,1.6898912545417817,0.4458448987346322,-1.289385139254696, ,0.015978606088309612,0.01447261576307317,0.005594946090621708,0.000892753613598849,0.014584992871063499,-0.013420579496205435, ,0.16234803199768066
0.009433054422304852,0.02074325781596968,-0.08021611501663732, ,0.009689660646678635,0.020623829515638632,-0.0804931640630438, ,0.0003960631861484594, ,0.0024341825223960505,0.0003284911576611652,-0.0065585595562201796,0.011982913514545264,-0.01004018160290213,-0.00996424538151963, ,0.007003417340519342, ,0.015633152298281196, ,3.4902163259545814e-05, ,0.16531281990564986,-0.24606943757141556,0.09068715211,1.6898912545417817,0.4458448987346322,-1.289793532955399, ,0.017092388609234652,0.016194017330797058,0.00669840686291001,0.0008722507766308771,0.007070713187390434,-0.028501976384840047, ,0.184190034866333
0.009471046801902033,0.02074479182776079,-0.08031035141745242, ,0.009744901773484397,0.02062787524258265,-0.08062365410052683, ,0.00043223211885711936, ,0.0024641685786763426,0.000223619431051949,-0.005573665242136275,0.006886870377707418,-0.01847945287389272,-0.009585213869131571, ,0.0060981863423052105, ,0.019721033358795638, ,3.580662506673778e-05, ,0.16559856102199616,-0.2457991419208177,0.09078307757000001,1.6898912545417817,0.4459815352343976,-1.2902316658196575, ,0.018709964818310488,0.014452778184354368,0.005703119054779808,0.0008580031770395464,0.0,-0.021952859616478984, ,0.20967507362365723
0.009528304885304394,0.020751057591698086,-0.08045037146906289, ,0.009800206222106844,0.020631704691190855,-0.08075357978327809, ,0.0004243945494745058, ,0.00244420375784855,0.00022493859677639696,-0.005775566126108208,-0.013687592100934077,-0.015007530296421111,-0.00267191691346834, ,0.006275499458947414, ,0.020311970280922426, ,3.681786193677605e-05, ,0.16603875679582697,-0.24544389620860338,0.09092696576,1.6898912545417817,0.4462548082339285,-1.2906995378474722, ,0.018312802307694092,0.01500109730611299,0.00590831287833828,0.0008383372313510123,0.003219493056995681,-0.0007565420410648007, ,0.2294309139251709
0.00957137411757696,0.020752480808482243,-0.08055426081119536, ,0.009855573202282067,0.02063531982928991,-0.08088294464569758, ,0.00045003208536237283, ,0.002210201288099567,0.00010714854772692725,-0.0052339366356530794,0.00039132286856995396,-0.00023571925463178632,-0.002641498403914208, ,0.005682478618633638, ,0.00045682953793932764, ,3.789669219069777e-05, ,0.16637855704229285,-0.2451427096265086,0.09103326154000001,1.6898912545417817,0.4465280812334594,-1.290922373654865, ,0.018034386461130897,0.014843882615121349,0.005384993752535498,0.0008230207189170293,0.01825836949091057,-0.014095004252658735, ,0.24936199188232422
0.009624480744964678,0.02076075612738125,-0.08068797539021387, ,0.009911001926465024,0.020638722618639267,-0.08101175221047859, ,0.00044924157648748776, ,0.002745530568637213,0.0006002414059649635,-0.007364393726891682,-0.0016750444750163222,-0.004159370026033661,-0.0028509896546172497, ,0.007882418589077704, ,0.0044839838698891455, ,3.8805695104741526e-05, ,0.16676469368600405,-0.24483380031153962,0.09117066828,1.6898912545417817,0.4466647177332248,-1.2910337915585612, ,0.01991123406598212,0.015380379507045508,0.007614154646271511,0.0008071630106230281,0.01613901554081261,-0.012660760046891662, ,0.2695009708404541
0.009702411995013644,0.02077395184507779,-0.08088539759900089, ,0.00996649160982602,0.020641915014937964,-0.08114000598862162, ,0.00038986818225919285, ,0.0023922208052471233,0.00027223902381348614,-0.005907046254014857,0.020133949513170032,0.01872645028528867,-0.0023484499268808102, ,0.006378873718315411, ,0.027496469884227534, ,3.9123014841589334e-05, ,0.1673747895830678,-0.24438588180483461,0.0913754821,1.6898912545417817,0.447347900232052,-1.2915908810770433, ,0.020994898574882917,0.01506061602261082,0.0061787476803723835,0.0007856393266908565,0.041007515514348475,-0.033120279104854, ,0.29200005531311035
0.009732624869379359,0.020777054451384298,-0.08095095849614217, ,0.010022041470247189,0.020644898967832417,-0.08126770947945101, ,0.00044895236508769886, ,0.002675648710057133,0.0003560758565896509,-0.0063112775243481835,0.01047375841962381,0.00441453981972641,-0.00327577065839261, ,0.006864263254320815, ,0.011366079677667208, ,3.98299143416871e-05, ,0.16760647156929454,-0.24422370441447588,0.09144288918000001,1.6898912545417817,0.447347900232052,-1.2915092023369028, ,0.022203308740868222,0.015181081676287116,0.0065740039290136205,0.0007782227834800604,0.027415786719140953,-0.024244752777422468, ,0.31163907051086426
0.009815967207747503,0.020784360834820888,-0.0811330064388476, ,0.010077650728319081,0.02064767642092316,-0.08139486617062928, ,0.00039462819598968564, ,0.002103785749848185,-2.7198969616387245e-05,-0.004462907219422015,0.024283339071522452,0.020197340924776413,-0.0029514056622001275, ,0.00493398369620144, ,0.031585014407527257, ,4.0077578498635743e-05, ,0.16830924026084895,-0.2437526177091482,0.09163214752000001,1.6898912545417817,0.44803108273087927,-1.2919846131152446, ,0.020429912068562064,0.014221031254079244,0.004686322894969109,0.0007566328500027852,0.04195017660699289,-0.03652011728201153, ,0.3383049964904785
0.009866301129566834,0.020781953650121542,-0.08122576591863037, ,0.010133318607337117,0.020650249311772353,-0.08152147953817299, ,0.00041963187552638973, ,0.002457849600652493,-1.866693400658769e-05,-0.0047362058242469045,0.007630605387660753,0.0005689413204120412,-0.003326591816182377, ,0.005336011499564364, ,0.007651786093789573, ,4.045779571824005e-05, ,0.1687262678360571,-0.24344370839417923,0.09172677669000001,1.6898912545417817,0.44803108273087927,-1.2919846131152446, ,0.0222501621473554,0.014797589514809103,0.00492846891089109,0.0007438138127192223,0.023483302424924173,-0.021198632301565143, ,0.35825395584106445
0.00991903861522447,0.02078354328574533,-0.08133316395112965, ,0.010189044333298163,0.020652619571910856,-0.08164755304646779, ,0.0004346085709051712, ,0.0028791870608622276,0.00043767122625703735,-0.006226372645290316,-0.0027697882149893055,-0.01270056089607462,-0.0033417072585108527, ,0.0068737901154857315, ,0.012999075523780716, ,4.088760309288036e-05, ,0.16918190907563632,-0.24313479907921023,0.09183825763,1.6898912545417817,0.44844099223017553,-1.2923188668263337, ,0.0228832750321849,0.01390024045092585,0.006438484850444625,0.000731369714189769,0.010390076331114377,-0.01031078648817784, ,0.37850499153137207
0.009948551269882325,0.020788366777166938,-0.08140268129931906, ,0.01024482713489701,0.020654789126845544,-0.08177309014828427, ,0.000492772860704923, ,0.002716625585024067,0.00040148308820098276,-0.006919564578206614,0.01474485879718495,0.011000926118847914,-0.003289090020274031, ,0.007444569644465046, ,0.018396500225802782, ,4.1608900392701165e-05, ,0.1694213137947373,-0.24298034442172575,0.09191084987,1.6898912545417817,0.4487142652297064,-1.2925417026337265, ,0.02180536340957509,0.016291320439222448,0.007204347137042063,0.000724880069173494,0.03384512682897863,-0.029341017730851807, ,0.3987619876861572
0.009996343207327835,0.02079583184786238,-0.08151957533419604, ,0.010300666243522955,0.020656759896066305,-0.08189809428479283, ,0.0005052030424455914, ,0.0026310176874020036,0.00040435764053399205,-0.0064987016680407425,0.006789997811780965,0.0019285673002263832,-0.0032186600941054256, ,0.007022740386991102, ,0.007058571422332561, ,4.2561010002115436e-05, ,0.1697688367740774,-0.24271777150400212,0.09203140484000001,1.6898912545417817,0.4488509017294719,-1.2926531205374228, ,0.02051382221324487,0.014885794754269925,0.006752357575243748,0.0007150146445848807,0.023098561021618745,-0.020445590254669608, ,0.4185769557952881
0.010073406103614546,0.020798419443231575,-0.08168017420120005, ,0.010356560893256261,0.02065853379305363,-0.08202256888557904, ,0.0004658097786798185, ,0.0027977177743190463,0.0002182717537781629,-0.00637924307371212,-0.005443406188053071,-0.009939935360041837,-0.002670157741488219, ,0.006969190017264716, ,0.01133282733149686, ,4.322408777281858e-05, ,0.17040210086976382,-0.24225440753154864,0.09219732996,1.6901009444852664,0.4492608112287682,-1.2930690529886526, ,0.021577294579006544,0.016526809745466872,0.0065740039290136205,-5.1702794617038856e-05,0.012084964151973365,-0.010366058183292616, ,0.43596506118774414
0.010129749588721029,0.020805753228757676,-0.08181785248610075, ,0.010412510320864684,0.020660112725285635,-0.08214651736865908, ,0.0004573678966883031, ,0.0029063644210578295,0.0005921936256527453,-0.007965169832053004,0.007180131008384229,0.005192102795347959,-0.0023305135973933707, ,0.008499504567426376, ,0.00886070994188154, ,4.379045931853307e-05, ,0.17083457391072038,-0.24193777548370543,0.09233992186000001,1.6898912545417817,0.4496707207280645,-1.293403306699742, ,0.021027463230328114,0.01683764044685429,0.008261831701244815,-0.00016181077520617553,0.027233014774698656,-0.022680722676453074, ,0.45416903495788574
0.01019287370902555,0.02081650422986564,-0.08198037253793751, ,0.010468513765800101,0.020661498594245067,-0.08226994314049556, ,0.0004287835372756825, ,0.003115442858048934,0.0004997507129721503,-0.007500943031944983,-0.01611011117182666,-0.021749291277425777,-0.0026270451750497617, ,0.008137559913473341, ,0.027065981033273696, ,4.4173190356227795e-05, ,0.17126704695167694,-0.2415825297714911,0.09250714327000001,1.6898912545417817,0.44980735722782994,-1.293596403343579, ,0.021710579171464378,0.01632214337091001,0.007721188327678139,-0.00016181077520617553,0.0,0.0, ,0.4716169834136963
0.010250792857829092,0.02082434984432424,-0.0821295963043968, ,0.010524570470194805,0.020662693295427047,-0.0823928495960119, ,0.00041278240803140537, ,0.0028116925740626847,0.00019796282877796768,-0.006650773568460295,0.02239432579562048,0.020916348739830358,-0.0018845083564230124, ,0.007223405946750266, ,0.03064309807173703, ,4.445204897210377e-05, ,0.1717304109241304,-0.2412272840592768,0.09266269807000001,1.6898912545417817,0.45062717622642257,-1.2944282682460386, ,0.02438883103533045,0.017714568146065108,0.006961893146853148,-0.00016181077520617553,0.04702158078166943,-0.03789510539273201, ,0.4932119846343994
0.01031057795433726,0.020823407627749375,-0.08224782588710024, ,0.010580679678858368,0.020663698718345704,-0.08251524011860824, ,0.0004122769076060427, ,0.0030159151928453964,-0.00013049018492796463,-0.006140818067016841,-0.02205989012950309,-0.026576477119015948,-0.003423964109717839, ,0.006842690894012287, ,0.034539077576724246, ,4.470843139667034e-05, ,0.1722246658280808,-0.24086431561418822,0.09278454933000001,1.6898912545417817,0.45090044922595346,-1.2948144615337127, ,0.022795325860790482,0.019530138209193408,0.006234368500978474,-0.00016181077520617553,-0.003881029208461887,0.002606138085288201, ,0.5110900402069092
0.010362349517174562,0.020822227489707613,-0.08234843024216965, ,0.010636840639273847,0.020664516746541933,-0.08263711808017721, ,0.0004284375362111452, ,0.00282437752999531,-6.584333020083822e-05,-0.005378488505230921,-0.017352192767630958,-0.02062231136643571,-0.0018353400005127374, ,0.006075325701308161, ,0.026951406557698027, ,4.501747106932442e-05, ,0.17261852520466625,-0.24055540629921926,0.09288695624000001,1.6898912545417817,0.45076381272618804,-1.2947030436300162, ,0.022626833943364517,0.016636911212915634,0.0055155164542936294,-0.00016181077520617553,0.002118566365859733,0.0011461413424534543, ,0.5317130088806152
0.010401458935175759,0.020820706566385624,-0.08242680147486639, ,0.010693052601594508,0.020665149257590054,-0.08275848684111808, ,0.00046823084563147867, ,0.003276629991223834,-4.4418719045972084e-05,-0.006579953532549793,-0.023132173783225556,-0.025881651252113957,7.379348565785188e-05, ,0.007350786734255299, ,0.03471249520185938, ,4.54735515633197e-05, ,0.17293515725250944,-0.2403160015801183,0.09296732622000001,1.6896815645982974,0.45090044922595346,-1.2948961402738532, ,0.025265426400018845,0.019708606761883858,0.006726694054054055,-0.0025885194996429117,0.0,0.0034304588268166316, ,0.5491340160369873
0.010462196793387158,0.020821769192499073,-0.08256213209698385, ,0.010749314818640252,0.020665598123105623,-0.08287934975035346, ,0.00045547030962517904, ,0.0030016363371258865,0.00022405921688931164,-0.00681938752385022,0.027201474403374927,0.011649060565456603,-0.006828418551148108, ,0.007454131031412823, ,0.02959089060889095, ,4.584776338829366e-05, ,0.17342941215645982,-0.2399375876692813,0.09310732554000001,1.6894718746548125,0.45144699522501525,-1.2954234906287794, ,0.02511165428908991,0.017717875571036365,0.007126985020134229,0.0008611953103905858,0.03789210866833524,-0.04347742229381907, ,0.5672180652618408
0.010547465353677982,0.020827467049214933,-0.08274746087897285, ,0.010805626545894285,0.020665865208752295,-0.08299971014534369, ,0.00039546434528548976, ,0.003045504672122952,0.0001199474713225512,-0.006313807885586495,0.003172443417550088,-0.011235558044688185,-0.006178047914277478, ,0.0070109668462982775, ,0.011674851252993055, ,4.6143517362767606e-05, ,0.17409356718364313,-0.23945877823107936,0.09329917646000001,1.6894718746548125,0.45185690472431156,-1.2957577443398687, ,0.024152950256673654,0.017197705972901555,0.006533556817063167,0.0008611953103905858,0.013177493513756643,-0.019804799315491655, ,0.5885300636291504
0.010575278491054869,0.020826462215335295,-0.08280587091570453, ,0.010861987041499344,0.020665952374248998,-0.08311957135210246, ,0.0004542831339371662, ,0.0026692296358636985,-0.00020197199364326192,-0.005419856694532023,0.020106292268913906,0.023192901217890072,-0.001854169220727382, ,0.006044867750782714, ,0.030694847304215397, ,4.665038420600233e-05, ,0.1743406946356183,-0.239273432642098,0.09336010209000001,1.6894718746548125,0.45226681422360787,-1.296255355531239, ,0.025105010994304438,0.018607243442837408,0.0056807459058487875,0.0008611953103905858,0.04985075278489235,-0.036035937246240685, ,0.6037139892578125
0.010616049441472446,0.020824883259177352,-0.08288395933898016, ,0.010918395566254692,0.020665861473377477,-0.0832389366852121, ,0.0004926560908663284, ,0.0029620951340228645,-8.306002367919763e-05,-0.005785303042129878,-0.0048027221572174384,-0.006119198669331648,-0.002550606271384477, ,0.006500049064415802, ,0.007778864055461344, ,4.727483308353734e-05, ,0.17467277214920995,-0.2390263051901228,0.09344047207,1.6894718746548125,0.45240345072337335,-1.2963667734349356, ,0.024757876743665738,0.01802068772473809,0.005988275007518798,0.0008611953103905858,0.019108229756701695,-0.011852784185645324, ,0.6230499744415283
0.01068164403018612,0.020826796196589968,-0.08301312446966075, ,0.01097485138361219,0.020665594353989312,-0.08335780944783953, ,0.0004803793504544891, ,0.0031170777937978692,9.89465462182163e-05,-0.0067309101964696146,-0.020496783797477915,-0.022471655782868406,-0.0032523937988422594, ,0.0074182960620707864, ,0.030415348852983762, ,4.782228919661326e-05, ,0.175190195251783,-0.23867105947790848,0.09357398994,1.6894718746548125,0.45254008722313877,-1.2964781913386318, ,0.022675493801307234,0.01835530784496533,0.006895589402597403,0.0008611953103905858,0.0,0.0026814950198202924, ,0.6395978927612305
0.010738084992885283,0.02082885205366946,-0.08314756711696505, ,0.011031353759673098,0.020665152858012913,-0.0834761929317504, ,0.0004698924583084737, ,0.0030243188582795835,0.00020028816619354823,-0.00699825567015995,0.008913752277108753,0.008690405042297561,-0.0027227327762083856, ,0.00762641477569825, ,0.012449020149023078, ,4.8304919317799624e-05, ,0.17565355922423648,-0.2383003682999457,0.09371398926,1.6894718746548125,0.4533599062217314,-1.297228377500951, ,0.024239320960018077,0.018196920720703887,0.0072900739221967974,0.0008611953103905858,0.03391780737468085,-0.025185341628198077, ,0.6557860374450684
0.010769650210009722,0.020830829958262225,-0.08321429456262312, ,0.011087901963184559,0.020664538821461312,-0.08359409041732534, ,0.0005226679747472411, ,0.0035127474163150216,0.0002500398738137741,-0.007778147171424569,-0.0023930708774116314,-0.005449224184020656,-0.0032544589413645584, ,0.00853823680683926, ,0.005951537949342972, ,4.8947893323105e-05, ,0.1758852412104632,-0.23813046817671277,0.09378269263000001,1.6894718746548125,0.4533599062217314,-1.297228377500951, ,0.027183311818525,0.019778437173503707,0.008073396614292957,0.0008611953103905858,0.02231506671846317,-0.015919595688722966, ,0.6731410026550293
0.010850621760192008,0.020843233988020144,-0.08339390224291103, ,0.011144495265536049,0.020663754074438673,-0.08371150517357537, ,0.0004684509559057193, ,0.003633168488581595,0.0004490648027113134,-0.007923306748888317,-0.01970427254393724,-0.026990185665346732,0.0013411188036177336, ,0.008728136244378612, ,0.033417487151317905, ,4.937583788992128e-05, ,0.17647216890890427,-0.23774433153300153,0.09396935839000001,1.6896815645982974,0.45349654272149686,-1.2973397954046473, ,0.026041970789920633,0.017453916049010625,0.008198050190427176,-0.004029694640033599,0.0,0.001914535995008461, ,0.6884739398956299
0.01091256131813,0.020843505396205147,-0.08354226465512722, ,0.011201132940756033,0.020662800441148294,-0.08382844045815648, ,0.00044477460854522674, ,0.003074253253807872,2.0552802155728853e-05,-0.007243187351850983,0.01636615468348437,0.0157525793401978,0.004609382033034925, ,0.007868622401681173, ,0.0227155179350258, ,4.970521909695044e-05, ,0.1769818692786031,-0.23733502669066764,0.09412361690000001,1.6892621847113283,0.4544529982198549,-1.2980380419903819, ,0.02511830110070693,0.020438712375289853,0.007531352964539008,-0.007808605257079816,0.04424895402092773,-0.036013023179943135, ,0.7057769298553467
0.010981509988793874,0.02084391342873539,-0.0836752217473223, ,0.011257814265508348,0.02066167973989926,-0.08394489951738565, ,0.0004269417645813968, ,0.0035018909179347366,-0.00014531028165771555,-0.006293666445577698,-0.020738630509826755,-0.02958065898682742,0.004140503026536498, ,0.007203790141811451, ,0.03612625321900282, ,4.996172958689441e-05, ,0.1775224605797988,-0.23695661277983063,0.09426102364000001,1.6892621847113283,0.45458963471962033,-1.2982311386342187, ,0.02774764373054701,0.019390466195028766,0.006472495538399026,-0.007808605257079816,0.0,0.0003262185881668775, ,0.7231950759887695
0.01101790830662539,0.020841494175283193,-0.08374048151320024, ,0.011314538519088974,0.020660393783113743,-0.08406088558625595, ,0.0004727003332141925, ,0.003633428308460292,-0.0002901944761780988,-0.006584669426809175,-0.01926121149398484,-0.02645400897219313,0.0034114302544594704, ,0.007526213228914019, ,0.03272321571206496, ,5.035210490786562e-05, ,0.1778082016961451,-0.23674809899222657,0.09432583814,1.6892621847113283,0.4547262712193858,-1.2983425565379152, ,0.029163165813912345,0.02193641737366407,0.006695591223203027,-0.0074481413460305455,0.004525147708945907,-0.003363735944574602, ,0.7385890483856201
0.011049674555228746,0.020840002451898897,-0.08380591174314818, ,0.01137130498342223,0.020658944377334613,-0.08417640188845188, ,0.0005229637716630156, ,0.0030954158587194226,-2.0112121055461262e-05,-0.006837413608377068,0.030263922358252114,0.028707126442725963,0.004293560040256568, ,0.00750547991056168, ,0.04171335625625478, ,5.104011469669996e-05, ,0.1780939428124914,-0.2365395852046225,0.09439454151000001,1.6892621847113283,0.45527281721844753,-1.2987882281527008, ,0.027514335041597792,0.01996149380699848,0.007139763119677276,-0.007093468364874611,0.05999166367832262,-0.048592960531423514, ,0.7522909641265869
0.01112256363015779,0.02084082746905804,-0.08395781668873967, ,0.011428112943057626,0.020657333323232045,-0.08429145163636467, ,0.0004882036075683111, ,0.0035387903529222543,2.1531007865173432e-05,-0.00783313401705443,-0.005820233617264728,-0.008942028563391255,0.002732914619734455, ,0.008595434210984956, ,0.010669346966794125, ,5.159657622388073e-05, ,0.17866542504518404,-0.23610711216366592,0.09455398518000001,1.6892621847113283,0.4555460902179784,-1.2990110639600938, ,0.02665644425799741,0.021785340119024516,0.008077490628803247,-0.006476961510771444,0.019922444223383406,-0.015911615087742526, ,0.7664620876312256
0.011161562870288397,0.020843837583352287,-0.08404016557438365, ,0.011484961685166228,0.02065556241561128,-0.08440603803110758, ,0.0005233516856201867, ,0.004160276694792222,0.0003444077136953938,-0.008479420816304541,-0.020975155909443367,-0.032002295639704054,0.002487956980374726, ,0.009451301298258509, ,0.03826361258167445, ,5.223853486735491e-05, ,0.17895888889440456,-0.23590632110893608,0.09463954032,1.6892621847113283,0.4556827267177439,-1.29912248186379, ,0.030552782214575268,0.019898708651388295,0.008785886111417542,-0.006202190467345504,0.0,0.0003348470260922472, ,0.7801189422607422
0.011198581621267096,0.020846667430518846,-0.08412882040555907, ,0.01154185049953726,0.020653633443419615,-0.08452016426253188, ,0.0005551987548208672, ,0.003561667345105947,0.00024574635688372247,-0.009129559343352106,0.0517118598310631,0.053710410721606004,0.0029767169821558947, ,0.009802791406171173, ,0.07455819608633105, ,5.295171346799426e-05, ,0.17926779820937355,-0.23568236185558358,0.09473287320000001,1.6892621847113283,0.4563659092165711,-1.2996795713822722, ,0.030671280400281442,0.023373630925731716,0.009636304609800365,-0.005960519603070158,0.08885397822199466,-0.07212042233674418, ,0.793936014175415
0.011272213919871574,0.020848930468617816,-0.08429052353813357, ,0.011598778678574562,0.020651548189753677,-0.08463383350924053, ,0.0005132894328717493, ,0.0043015604646018096,2.0384241841086992e-05,-0.007997547998755348,-0.03797897588211461,-0.049589501994599904,0.0011950652892775138, ,0.009081002804775277, ,0.06246215881963141, ,5.351860956093276e-05, ,0.1798856168393115,-0.2352421660817528,0.09490268719000002,1.6892621847113283,0.4574590012146946,-1.3006525933519841, ,0.031329462383120094,0.02201274450440055,0.008202271637487128,-0.00553188326419674,-0.01757710000142572,0.014661885430849857, ,0.8085050582885742
0.011316038820718445,0.02084942008035345,-0.08437734776842098, ,0.01165574551729322,0.020649308431866548,-0.08474704893860607, ,0.0005404852142234012, ,0.004258027840883415,-0.000124042751048903,-0.008185829180318238,-0.035168678987995104,-0.04364375256394049,0.0006964188801251133, ,0.009227891799711114, ,0.05605009440552592, ,5.4143605449416534e-05, ,0.18020997162002894,-0.23500276136265183,0.09499213120000001,1.6892621847113283,0.4574590012146946,-1.3006525933519841, ,0.03090099041304812,0.024122252556804977,0.008365972436974792,-0.005329722999179987,-0.011913218144013313,0.010039440211961567, ,0.8225898742675781
0.011395037400596887,0.020844994734768765,-0.08452902589829125, ,0.011712750313316053,0.020646915941175195,-0.08485981370678314, ,0.0004995971153107704, ,0.0037953295601623016,-0.00013417480548244526,-0.007821156873068565,0.018066458470314246,0.01527586574683814,-0.003506039397487055, ,0.008694424890803052, ,0.02365901449151205, ,5.463306058278983e-05, ,0.18084323571571534,-0.23453167465732414,0.09514898229,1.6890524947678438,0.45786891071399094,-1.3009868470630734, ,0.03196259399072778,0.02387945182648988,0.008177007967145792,0.0,0.04891818404611735,-0.0395733074621289, ,0.8370699882507324
0.011431738219931454,0.02084446058339444,-0.0846103919242172, ,0.011769792366870183,0.020644372483267493,-0.08497213095872608, ,0.0005340140289939026, ,0.003938443706926608,4.922399518502764e-05,-0.0085744145702041,0.03394062415053523,0.03158145782822047,-0.003304560245799737, ,0.009435801346788737, ,0.046361130270265005, ,5.52011478155644e-05, ,0.18115986776355855,-0.23429226993822316,0.09523453743000002,1.6890524947678438,0.45855209321281815,-1.3015439365815555, ,0.03373513741858186,0.02401846154352589,0.009035060419739083,0.0,0.0676314409582942,-0.05483738250656364, ,0.8508739471435547
0.011519979887329624,0.020842608118729202,-0.08477592134327774, ,0.011826870980783506,0.020641679817909566,-0.08508400382820301, ,0.00047902937574778576, ,0.00430828873686461,-0.00023033289198585587,-0.007957543704569655,-0.012893462748383612,-0.020054105829757456,-0.004095012466829156, ,0.009051900733628335, ,0.023841319392336337, ,5.560175076638932e-05, ,0.1818394682564903,-0.23380573776714703,0.09540564771000001,1.6890524947678438,0.45868872971258356,-1.3015736757451113, ,0.03412331591458856,0.025012372577351286,0.008231943937984496,0.0,0.014568171011573493,-0.011087687040365835, ,0.8648269176483154
0.011562931317708091,0.02084056854052744,-0.0848610041721555, ,0.011883985460481288,0.02063883969905291,-0.0851954354378115, ,0.000505583385331004, ,0.004473932997447291,-8.1094455141896e-05,-0.008721696849666508,-0.01899685424380198,-0.0281230383869691,-0.004837049173082031, ,0.00980258377744282, ,0.033937968542747096, ,5.621023908590552e-05, ,0.18217926850295618,-0.2335431648494234,0.09549379543000001,1.6890524947678438,0.45896200271211446,-1.3017148328123638, ,0.033485159336087075,0.025278886936193606,0.00899424704686618,0.0,0.005552719775489835,-0.005689331813878011, ,0.8769180774688721
0.011604111646586396,0.02084130547584192,-0.0849507970360672, ,0.011941135113982725,0.020635853874841834,-0.08530642889899447, ,0.0005312901277630337, ,0.003978893417492505,0.0001054268487319336,-0.008920299900584077,0.05160982842864034,0.04900313285621752,-0.0036011314138403557, ,0.009768032451039412, ,0.07116797990443076, ,5.687050012108627e-05, ,0.18252679148229628,-0.23329603739744822,0.09558842460000001,1.6890524947678438,0.45964518521094166,-1.3022719223308459, ,0.035004404853733226,0.02432007728305248,0.0094645344741533,0.0,0.08697716482523712,-0.0720906423426914, ,0.8902249336242676
0.011647388905901647,0.020842231889571263,-0.08504427210419775, ,0.011998319251897408,0.020632724087620374,-0.085416987312054, ,0.0005531385477313246, ,0.004343556794820877,4.231196039013089e-05,-0.009201652095108509,0.01938163745350192,0.0135414963795485,-0.00440814019871798, ,0.01017539567836266, ,0.023643602276492526, ,5.7570463785476616e-05, ,0.18288975992738485,-0.2330411872125988,0.09568694264000001,1.6890524947678438,0.46032836770976887,-1.3027473331091872, ,0.03504318373651063,0.02546201812676973,0.009636304609800365,0.0,0.050296694809655096,-0.042471282577868835, ,0.9013850688934326
0.011695303966606719,0.020843705239907726,-0.08514172832213361, ,0.012055537187421889,0.020629452073939823,-0.08552711376616874, ,0.0005693806573640303, ,0.004743116148126534,0.00019967377840993223,-0.009673773803143456,-0.006558459396758147,-0.01711737941547486,-0.004681986862071717, ,0.010775848922789693, ,0.0183307932996223, ,5.829418702053226e-05, ,0.18324500563959917,-0.2327863370277494,0.09578805326,1.6890524947678438,0.4604650042095343,-1.3028587510128837, ,0.0355952518974009,0.024732067124959806,0.010068780986093553,0.0,0.019129500860952595,-0.01705652576087266, ,0.9129559993743896
0.011778738014103318,0.020843398940441887,-0.08530928073638443, ,0.01211278823633626,0.020626039564565813,-0.08563681133940744, ,0.0005158594238469752, ,0.004517029338710413,-5.804595315126623e-05,-0.009068454345538999,0.020167048792538934,0.011216125680121543,-0.0010101729260023843, ,0.010131327040253563, ,0.02307620573109586, ,5.886370095135539e-05, ,0.18390916066678248,-0.23232297305529592,0.09596305241000001,1.6888428048243591,0.4611481867083615,-1.3033341617912253, ,0.037170756583811505,0.025956493861726142,0.009515419068100361,-0.004110629478038607,0.0510591459995255,-0.04451234791285327, ,0.9287559986114502
0.011783039146905651,0.020843225138510023,-0.0853262957929245, ,0.012170071717000689,0.02062248828448542,-0.08574608309874525, ,0.0006121603966014889, ,0.0042306034014433,-9.661025802436911e-05,-0.008960290719135152,0.046988487490985435,0.04200452280041607,-0.0007266260999646541, ,0.00990929606246976, ,0.06302616785608488, ,5.966029717151758e-05, ,0.18398638799552472,-0.23226891392517635,0.09598249676000001,1.6888428048243591,0.4618313692071887,-1.3038912513097074, ,0.03709810068743971,0.026301813070529596,0.00948143542857143,-0.004110629478038607,0.08283678383250796,-0.07042488078549733, ,0.9400410652160645
0.011871940841386798,0.020842454770798963,-0.08549820819400605, ,0.01222738695035185,0.020618799952914758,-0.08585493210007877, ,0.000551013029886764, ,0.0042345518793030145,-0.00015572158142756562,-0.00739219190166425,-0.008248739296021889,-0.014222454946869472,0.0012560813005095507, ,0.008520573920837816, ,0.01644140817011194, ,6.028582079535217e-05, ,0.1846737112213307,-0.2317823817541002,0.09616138478000001,1.6888428048243591,0.46224127870648507,-1.3041438262806562, ,0.03462128477142312,0.02223973319861045,0.007736188207867897,-0.0038937978024848685,0.02203378261129714,-0.01323871583245953, ,0.9509999752044678
0.01191972335128281,0.020837589072180415,-0.08557613396493637, ,0.012284733259899663,0.020614976283305785,-0.08596336138824158, ,0.0005768307936636352, ,0.0047074967949889725,-0.0005323166150459096,-0.008190779031927041,-0.05702500894249112,-0.030793302200017907,0.008778358484022013, ,0.009462174602243453, ,0.06480801700720998, ,6.095917455986776e-05, ,0.1850521251321677,-0.23151208610350235,0.09624175476,1.6888428048243591,0.46224127870648507,-1.303980468800375, ,0.036838874828598905,0.02840375383372367,0.008427942603174603,-0.0037410194036365647,0.007134300591449436,0.030233756343042942, ,0.9631350040435791
0.011956828941062566,0.020834008691648653,-0.0856425890140109, ,0.012342109971723598,0.0206110189833536,-0.08607137399701942, ,0.0006180796423167153, ,0.004852087010346771,-0.0002568814263197607,-0.008925163162024137,-0.016289464524681427,-0.02908049095430569,-0.0024711402939551364, ,0.010162050673555837, ,0.0333319899197429, ,6.17158986408276e-05, ,0.18534558898138823,-0.23128812685014985,0.09631045813000001,1.6888428048243591,0.46237791520625043,-1.3039285292237903, ,0.037040180155531136,0.027300616098524386,0.009228743638470453,-0.003633328769088997,0.009100323543525664,-0.010984860147655182, ,0.9746520519256592
0.012005207557464887,0.020832924220728445,-0.0857443497551987, ,0.012399516414469453,0.020606929755004232,-0.08617897294916532, ,0.0006288483871204265, ,0.004063679094751562,2.0018270836780673e-05,-0.00894819313923363,0.08287898686785757,0.09143236766524017,0.0026959912647961455, ,0.009827718401201571, ,0.12340504148431389, ,6.262973785747142e-05, ,0.18579350748809326,-0.23098694026805508,0.09641934649000002,1.6888428048243591,0.4636076437041394,-1.304931290357058, ,0.039855918336191,0.02524526245237318,0.009683168097264439,-0.0034830930195634303,0.13665820525892314,-0.10256591922811646, ,0.9837870597839355
0.012062343077090391,0.020833543864380827,-0.08586565663916215, ,0.012456951919345633,0.020602710294460994,-0.08628616125641526, ,0.0006211476543617817, ,0.0048799234847562555,1.12268259902246e-05,-0.009980977283223127,-0.03969394105284479,-0.004832625757809788,0.011030391549148559, ,0.011110071412322856, ,0.03998703701162775, ,6.350800492603041e-05, ,0.18627231692629517,-0.23065486275446342,0.09654767920000001,1.6888428048243591,0.4645640992024975,-1.3054661794625115, ,0.037243697628913185,0.027198894112488037,0.010410987921568629,-0.0033317987831996275,0.03431283958957022,0.015551582935707506, ,0.9926719665527344
0.012117834744590137,0.02083178728961549,-0.08597258710604475, ,0.012514415820120056,0.020598362292192293,-0.08639294191950367, ,0.0006232671562729519, ,0.005634267968651065,-6.177736642262305e-05,-0.011368656286373107,-0.0504048269242238,-0.024685007831872805,0.005349388246695274, ,0.012688385939246184, ,0.05612482515795946, ,6.43747540729056e-05, ,0.18667389903575485,-0.23035367617236868,0.09665786385000001,1.6886331148808746,0.4645640992024975,-1.3049761070216679, ,0.041116525805229974,0.03166397783065425,0.011772957516629714,-0.0009378050143990249,0.017215964908104,0.021283950059463288, ,1.0015249252319336
0.012167580565033713,0.020834007086924785,-0.08607209042777055, ,0.012571907453116284,0.020593887432938746,-0.08649931792817789, ,0.0006353432283114516, ,0.005807499595099926,0.00042612455144116677,-0.011538583277768289,-0.02522706942569556,-0.04122150765838544,-0.0043842174171070955, ,0.012924687142767547, ,0.04832822695802772, ,6.525346154271917e-05, ,0.1870368674808434,-0.2301065487203935,0.09676156705000001,1.6886331148808746,0.464700735702263,-1.3050058461852239, ,0.04100991424307294,0.02660413276099545,0.012012678371040725,-0.0009271492248054678,0.0,-0.0011284594224350792, ,1.0123488903045654
0.01221840681999108,0.020837115598529028,-0.08618255003801448, ,0.012629426157210345,0.020589287395720343,-0.08660529226121473, ,0.0006395832244140239, ,0.005199092371662351,0.00023750630159960977,-0.011700803315407881,0.06263239236346722,0.0534812624310479,-0.0056848994732889855, ,0.012806083279373019, ,0.08235934546285469, ,6.612574121609048e-05, ,0.18743844959030306,-0.22983625306979563,0.09687823315,1.6886331148808746,0.4653839182010902,-1.3057262931839873, ,0.04295923112651461,0.029757585938686354,0.012415285674201094,-0.0009123350095936447,0.09995725278604073,-0.08843520186211086, ,1.0215909481048584
0.012288097364977166,0.020840901525530454,-0.08634100414851129, ,0.01268697127382714,0.020584563853843673,-0.08671086788643476, ,0.0006013389906847707, ,0.005977334079640256,0.000523094738050673,-0.013271709294715205,-0.004448243446577524,0.0081950996712661,0.0019058900595080204, ,0.014565040968292368, ,0.009324490153962741, ,6.68947732385115e-05, ,0.18798676362437303,-0.22944239369321018,0.09704545456000001,1.6886331148808746,0.46647701019921367,-1.3067809938938395, ,0.04395411836890726,0.030337896917669686,0.013935968083989503,-0.0008927168194089039,0.05413578495002196,-0.02250342136316924, ,1.0306298732757568
0.012350144554000077,0.020843865688168907,-0.08646808636299723, ,0.012744542146937089,0.020579718474909258,-0.08681604776071838, ,0.0005885578526291253, ,0.006289276258706079,0.00022475647316451777,-0.012727109304518341,-0.025531007900872683,-0.028119895274155468,-0.0025164658921403775, ,0.014198057000157121, ,0.03798105502403724, ,6.762096952736915e-05, ,0.1884269593982038,-0.22914120711111544,0.09717767614000002,1.68842342493739,0.46661364669897915,-1.3068107330573955, ,0.0451245561381221,0.0318981316162927,0.013251923061564062,-0.0005528945328838376,0.01771186724028032,-0.004813321145000364, ,1.0403969287872314
0.012418259881426343,0.020843444546391875,-0.08659829996247273, ,0.012802138123052637,0.020574752920818642,-0.08692083483002061, ,0.0005688465828599227, ,0.0060543735188223575,-0.00024846425393349175,-0.01153640410456418,-0.015272118353642724,-0.03369791607423259,-0.00828984319013199, ,0.01303095517814045, ,0.036997120731405646, ,6.82899442016975e-05, ,0.18891349156927995,-0.2287859613989011,0.09731249030000001,1.68842342493739,0.46661364669897915,-1.306729054317255, ,0.044282287241470264,0.033807246725497245,0.01194063832083958,-0.0005528945328838376,0.011073780941673264,-0.01798397898386716, ,1.0491359233856201
0.012418259881426343,0.020843444546391875,-0.08659829996247273, ,0.01285975855122465,0.020569668847781643,-0.08702523202938643, ,0.0006724174286426558, ,0.0060543735188223575,-0.00024846425393349175,-0.01153640410456418,-0.015272118353642724,-0.03369791607423259,-0.00828984319013199, ,0.01303095517814045, ,0.036997120731405646, ,6.917718342799941e-05, ,0.18891349156927995,-0.2287859613989011,0.09731249030000001,1.68842342493739,0.46661364669897915,-1.306729054317255, ,0.044282287241470264,0.033807246725497245,0.01194063832083958,-0.0005528945328838376,0.011073780941673264,-0.01798397898386716, ,1.0585150718688965
0.012526437843020015,0.02083124746286717,-0.08679636464943359, ,0.012917402783039203,0.020564467906323686,-0.08712924228296716, ,0.0005786470729388108, ,0.005118992648681258,-0.0009197406572979173,-0.00852583633875509,0.05310840372969258,0.04482886938668236,-0.006466155334620686, ,0.00998698622654384, ,0.0694991369166213, ,6.984224584920384e-05, ,0.1898402195141869,-0.22810636090596934,0.09752119299,1.68842342493739,0.468116648196399,-1.3079546512579157, ,0.04785524032197215,0.03390387336851403,0.009076245880341883,-0.0005528945328838376,0.09593885939463377,-0.08302231959198068, ,1.068471908569336
0.012526437843020015,0.02083124746286717,-0.08679636464943359, ,0.012975070172613963,0.02055915174129306,-0.087232868504034, ,0.0006825266763554694, ,0.005118992648681258,-0.0009197406572979173,-0.00852583633875509,0.05310840372969258,0.04482886938668236,-0.006466155334620686, ,0.00998698622654384, ,0.0694991369166213, ,7.087725665622322e-05, ,0.1898402195141869,-0.22810636090596934,0.09752119299,1.68842342493739,0.468116648196399,-1.3079546512579157, ,0.04785524032197215,0.03390387336851403,0.009076245880341883,-0.0005528945328838376,0.09593885939463377,-0.08302231959198068, ,1.075265884399414
0.012582247638804146,0.020819352479127636,-0.08688047290085565, ,0.013032760076594829,0.020553721991867828,-0.08733611359499481, ,0.0006936349576842263, ,0.00630230042109784,-0.0011958057251134722,-0.009047394008330016,-0.020665644135281942,-0.03419718514896455,-0.006472613024966678, ,0.011090729474292935, ,0.03995642950788337, ,7.19229157599527e-05, ,0.19033447441813728,-0.2277433924608808,0.09760934071,1.68842342493739,0.46866319419546076,-1.3084003228727012, ,0.05283794073411513,0.037807546437637764,0.009397528920353984,-0.0005528945328838376,0.01939727507039668,-0.0158171771779614, ,1.0825269222259521
0.012652026027485464,0.02080975318436218,-0.08699261022155086, ,0.01309047185415233,0.020548180291563394,-0.08743898044740886, ,0.0006781603790411515, ,0.006962353749879162,-0.0005969327405516335,-0.012187732908458466,-0.0238464774993269,-0.03647147144668077,-0.006784666795298821, ,0.014048897888557678, ,0.043575479913561414, ,7.292160178967471e-05, ,0.19089823391795566,-0.2273340876185469,0.09772600681000002,1.68842342493739,0.4689364671949916,-1.308623158680094, ,0.053104052355048,0.03924604696380099,0.012651955138999207,-0.0005528945328838376,0.017321394281877407,-0.01412443558857979, ,1.0890939235687256
0.012652026027485464,0.02080975318436218,-0.08699261022155086, ,0.013148204866978356,0.020542528268239733,-0.08754147194200254, ,0.0007866713320913259, ,0.006962353749879162,-0.0005969327405516335,-0.012187732908458466,-0.0238464774993269,-0.03647147144668077,-0.006784666795298821, ,0.014048897888557678, ,0.043575479913561414, ,7.414028532341356e-05, ,0.19089823391795566,-0.2273340876185469,0.09772600681000002,1.68842342493739,0.4689364671949916,-1.308623158680094, ,0.053104052355048,0.03924604696380099,0.012651955138999207,-0.0005528945328838376,0.017321394281877407,-0.01412443558857979, ,1.0960299968719482
0.012652026027485464,0.02080975318436218,-0.08699261022155086, ,0.013205958479282506,0.020536767544108415,-0.08764359094868414, ,0.0008972949504135266, ,0.006962353749879162,-0.0005969327405516335,-0.012187732908458466,-0.0238464774993269,-0.03647147144668077,-0.006784666795298821, ,0.014048897888557678, ,0.043575479913561414, ,7.557924927745041e-05, ,0.19089823391795566,-0.2273340876185469,0.09772600681000002,1.68842342493739,0.4689364671949916,-1.308623158680094, ,0.053104052355048,0.03924604696380099,0.012651955138999207,-0.0005528945328838376,0.017321394281877407,-0.01412443558857979, ,1.1029319763183594
0.012787831196970438,0.020805872809185905,-0.0872755528992111, ,0.01326373205778882,0.02053089973573991,-0.08774534032655922, ,0.0007230435998903332, ,0.0072667449663362015,0.0004736888918495214,-0.01666911982168823,0.04694105696863824,0.046045746443005554,0.0006897429289020852, ,0.018190368858322627, ,0.06575463715869441, ,7.663074472672578e-05, ,0.19197941652034708,-0.226546368865376,0.09802415351,1.6880040450504212,0.4708493781917078,-1.3101013305917033, ,0.05453847216004068,0.0391812310315734,0.017600896707182324,-0.00678404291403118,0.1054802006261703,-0.08254333547335929, ,1.1106479167938232
0.012787831196970438,0.020805872809185905,-0.0872755528992111, ,0.013321524971732196,0.020524926454070867,-0.08784672292394671, ,0.0008306594349240606, ,0.0072667449663362015,0.0004736888918495214,-0.01666911982168823,0.04694105696863824,0.046045746443005554,0.0006897429289020852, ,0.018190368858322627, ,0.06575463715869441, ,7.789551778092343e-05, ,0.19197941652034708,-0.226546368865376,0.09802415351,1.6880040450504212,0.4708493781917078,-1.3101013305917033, ,0.05453847216004068,0.0391812310315734,0.017600896707182324,-0.00678404291403118,0.1054802006261703,-0.08254333547335929, ,1.1172749996185303
0.01286703217604708,0.020808874700728244,-0.08745148755912774, ,0.01337933659285499,0.020518849304411273,-0.08794774157839348, ,0.0007699601272969355, ,0.008354299880431716,0.00016238328906432314,-0.017871461265961727,-0.012424296382300576,-0.014798415921485505,0.004086110244876268, ,0.01972840142042733, ,0.01932238161622979, ,7.901742902350537e-05, ,0.19254317602016546,-0.22612161855729365,0.09820822669000001,1.6877943551069365,0.471532560690535,-1.3104950626299043, ,0.058542221812751864,0.04497485381918047,0.018630188912280705,-0.010791373430352814,0.04767894063875219,-0.031642113892223246, ,1.123910903930664
0.012950700786881014,0.020811690853826524,-0.08762432092243813, ,0.013437166295403492,0.020512669886451864,-0.08804839911668981, ,0.0007112696709065239, ,0.009002910714560684,0.00021397574675647757,-0.017948143875806875,-0.058292216745906976,-0.054168681707646445,0.008414438212145313, ,0.020080688622186624, ,0.07957528981153619, ,8.000332795039937e-05, ,0.1931223809857323,-0.22569686824921129,0.09838841100000001,1.6877943551069365,0.4718058336900659,-1.3103911834767348, ,0.061943173341038375,0.04432365322674954,0.01867387048065651,-0.010791373430352814,0.010531992220497093,0.014128919065941412, ,1.1307618618011475
0.012950700786881014,0.020811690853826524,-0.08762432092243813, ,0.01349501345612462,0.020506389794271013,-0.08814869835488477, ,0.000815142141300613, ,0.009002910714560684,0.00021397574675647757,-0.017948143875806875,-0.058292216745906976,-0.054168681707646445,0.008414438212145313, ,0.020080688622186624, ,0.07957528981153619, ,8.1359716118929e-05, ,0.1931223809857323,-0.22569686824921129,0.09838841100000001,1.6877943551069365,0.4718058336900659,-1.3103911834767348, ,0.061943173341038375,0.04432365322674954,0.01867387048065651,-0.010791373430352814,0.010531992220497093,0.014128919065941412, ,1.1354939937591553
0.013031331814777657,0.020812432802288137,-0.08778487062712743, ,0.013552877454262265,0.02050001061634233,-0.08824864209830176, ,0.0007646577363839074, ,0.008408672695085159,-0.00017183646096899236,-0.01632244475984065,-0.02743129451648799,0.0016116611299960943,0.014584225339041568, ,0.01836184923150276, ,0.027478577326132025, ,8.260082602438477e-05, ,0.1937170314170476,-0.22527984067400317,0.0985569287,1.6877943551069365,0.47235237968912763,-1.3105918188710988, ,0.06407626033657716,0.04469945433748034,0.017164667586206897,-0.010791373430352814,0.07034033599397192,-0.013995680815497647, ,1.140204906463623
0.013031331814777657,0.020812432802288137,-0.08778487062712743, ,0.013610757671554017,0.020493533935541743,-0.08834823314155392, ,0.0008687969459972135, ,0.008408672695085159,-0.00017183646096899236,-0.01632244475984065,-0.02743129451648799,0.0016116611299960943,0.014584225339041568, ,0.01836184923150276, ,0.027478577326132025, ,8.404558022140417e-05, ,0.1937170314170476,-0.22527984067400317,0.0985569287,1.6877943551069365,0.47235237968912763,-1.3105918188710988, ,0.06407626033657716,0.04469945433748034,0.017164667586206897,-0.010791373430352814,0.07034033599397192,-0.013995680815497647, ,1.1451129913330078
0.013031331814777657,0.020812432802288137,-0.08778487062712743, ,0.013668653492227597,0.02048696132915455,-0.08844747426855863, ,0.0009752713396841087, ,0.008408672695085159,-0.00017183646096899236,-0.01632244475984065,-0.02743129451648799,0.0016116611299960943,0.014584225339041568, ,0.01836184923150276, ,0.027478577326132025, ,8.569625543457655e-05, ,0.19421128632099796,-0.22493231769466307,0.09867618738000002,1.6877943551069365,0.47317219868772026,-1.3112603262932774, ,0.06822210032959797,0.04937405908349156,0.016421455175257733,-0.010791373430352814,0.1344791683870674,-0.07182337255458139, ,1.1500780582427979
0.013133115638168769,0.020805342572045558,-0.08797796192123587, ,0.013726564302997426,0.020480294368882896,-0.08854636825255376, ,0.0008836987097695947, ,0.008335718796745486,-0.0006153846308166181,-0.015949318615905633,0.0419158769654905,0.06279784381002718,0.009642242957429333, ,0.018006767350469525, ,0.07550171452954631, ,8.71469808905856e-05, ,0.19421128632099796,-0.22493231769466307,0.09867618738000002,1.6877943551069365,0.47317219868772026,-1.3112603262932774, ,0.06822210032959797,0.04937405908349156,0.016421455175257733,-0.010791373430352814,0.1344791683870674,-0.07182337255458139, ,1.1553170680999756
0.01321422571961246,0.02080127953517831,-0.08812922546839569, ,0.013784489493061242,0.020473534620853023,-0.08864491785611249, ,0.0008357967090885135, ,0.009298966513911709,-0.0003694844265061558,-0.017403015416738544,0.023662602736190322,0.030359888539469082,0.0065700284947135075, ,0.01973505111631387, ,0.03849207715946624, ,8.848877145307515e-05, ,0.19522296432752137,-0.22423727173598287,0.09892248248,1.6877943551069365,0.47494847318467104,-1.3125454015610498, ,0.07460451380382924,0.049788531772545004,0.018457487276940906,-0.010232457842684872,0.11071681446175644,-0.06946261052997545, ,1.1598389148712158
0.01321422571961246,0.02080127953517831,-0.08812922546839569, ,0.013842428454096495,0.020466683645622236,-0.08874312583115937, ,0.0009399291145200363, ,0.009298966513911709,-0.0003694844265061558,-0.017403015416738544,0.023662602736190322,0.030359888539469082,0.0065700284947135075, ,0.01973505111631387, ,0.03849207715946624, ,9.003008775936583e-05, ,0.19522296432752137,-0.22423727173598287,0.09892248248,1.6877943551069365,0.47494847318467104,-1.3125454015610498, ,0.07460451380382924,0.049788531772545004,0.018457487276940906,-0.010232457842684872,0.11071681446175644,-0.06946261052997545, ,1.1642858982086182
0.013308539045714059,0.02079789162245005,-0.08830839426694631, ,0.013900380580257051,0.020459742998186446,-0.08884099491898448, ,0.0008650343048995527, ,0.010071894502292922,-0.000306064418431291,-0.019332309596713015,-0.013224549526826083,-0.004613341863957563,0.005957055861444091, ,0.021800801100801553, ,0.014006032021940246, ,9.140830532351235e-05, ,0.1959566239505727,-0.22372757136628404,0.09911174082000002,1.6877943551069365,0.4759049286830291,-1.3129986119263626, ,0.07537485429584652,0.053523373693440936,0.020317361632653064,-0.009596553543516819,0.0752501758120357,-0.037299094230330024, ,1.169144868850708
0.013308539045714059,0.02079789162245005,-0.08830839426694631, ,0.013958345268169636,0.020452714227987084,-0.08893852785025937, ,0.0009687434609891207, ,0.010071894502292922,-0.000306064418431291,-0.019332309596713015,-0.013224549526826083,-0.004613341863957563,0.005957055861444091, ,0.021800801100801553, ,0.014006032021940246, ,9.298330903161275e-05, ,0.1959566239505727,-0.22372757136628404,0.09911174082000002,1.6877943551069365,0.4759049286830291,-1.3129986119263626, ,0.07537485429584652,0.053523373693440936,0.020317361632653064,-0.009596553543516819,0.0752501758120357,-0.037299094230330024, ,1.1737229824066162
0.013308539045714059,0.02079789162245005,-0.08830839426694631, ,0.014016321916930422,0.020445598878918694,-0.08903572734505283, ,0.0010742812371255632, ,0.010071894502292922,-0.000306064418431291,-0.019332309596713015,-0.013224549526826083,-0.004613341863957563,0.005957055861444091, ,0.021800801100801553, ,0.014006032021940246, ,9.475639210359346e-05, ,0.1959566239505727,-0.22372757136628404,0.09911174082000002,1.6877943551069365,0.4759049286830291,-1.3129986119263626, ,0.07537485429584652,0.053523373693440936,0.020317361632653064,-0.009596553543516819,0.0752501758120357,-0.037299094230330024, ,1.1784579753875732
0.013418076564899462,0.020796535316848233,-0.08852154046278154, ,0.014074309928101589,0.020438398489335846,-0.08913259611284557, ,0.0009655533240973209, ,0.010730351511524277,-0.000152948806910355,-0.021316065783610748,0.003334267714186289,0.015334993533110169,0.005287941228338692, ,0.023865005706884452, ,0.015693150321514138, ,9.62992162385639e-05, ,0.19676751090236627,-0.22315608913359145,0.09933599899000001,1.6877943551069365,0.4767247476816217,-1.31350376186826, ,0.08014944388384355,0.05689265081443092,0.02246658888575459,-0.009004451757439304,0.10062023397771848,-0.05603941014190439, ,1.1830320358276367
0.013418076564899462,0.020796535316848233,-0.08852154046278154, ,0.014132308705707782,0.02043111459206052,-0.08922913685254573, ,0.0010697441319658274, ,0.010730351511524277,-0.000152948806910355,-0.021316065783610748,0.003334267714186289,0.015334993533110169,0.005287941228338692, ,0.023865005706884452, ,0.015693150321514138, ,9.803613841576925e-05, ,0.19676751090236627,-0.22315608913359145,0.09933599899000001,1.6877943551069365,0.4767247476816217,-1.31350376186826, ,0.08014944388384355,0.05689265081443092,0.02246658888575459,-0.009004451757439304,0.10062023397771848,-0.05603941014190439, ,1.1878039836883545
0.013516965545727599,0.02079553177309709,-0.08872508891025026, ,0.014190317656232828,0.02042374871438935,-0.0893253522525042, ,0.0009756750419672506, ,0.0110735914713224,6.132024906034196e-05,-0.022829549205320564,0.008162776125134838,0.04824466441919376,0.007002339514847019, ,0.025373539468604725, ,0.048930280579958456, ,9.957381645351226e-05, ,0.19751661599116607,-0.22262322056526995,0.09955118313000001,1.687584665163452,0.4779544761795107,-1.314261486781106, ,0.08338922808301474,0.058687038687984396,0.024171185918057666,-0.003269378625793132,0.13659628841148672,-0.0591327419243331, ,1.1960499286651611
0.013595452164333464,0.020796950245710648,-0.0888856678792456, ,0.014248336188616071,0.020416302378100746,-0.08942124499053027, ,0.0009262792183847427, ,0.011534687177112618,0.00012157606347709946,-0.022734807963420492,0.0026468315904137657,0.010337496199632298,-0.0005316937659538851, ,0.02549382831484249, ,0.010670682799234355, ,0.00010100236573735847, ,0.1980958209567329,-0.22222163845581028,0.09972099712000002,1.687584665163452,0.4787742951781033,-1.314684957982863, ,0.0849569754328297,0.05744366922425592,0.02402535674208145,-0.003269378625793132,0.09907350334518993,-0.0548937927063292, ,1.202449083328247
0.013595452164333464,0.020796950245710648,-0.0888856678792456, ,0.014306363714249117,0.02040877709946228,-0.08951681773390623, ,0.0010268513827764792, ,0.011534687177112618,0.00012157606347709946,-0.022734807963420492,0.0026468315904137657,0.010337496199632298,-0.0005316937659538851, ,0.02549382831484249, ,0.010670682799234355, ,0.00010281775596684694, ,0.1980958209567329,-0.22222163845581028,0.09972099712000002,1.687584665163452,0.4787742951781033,-1.314684957982863, ,0.0849569754328297,0.05744366922425592,0.02402535674208145,-0.003269378625793132,0.09907350334518993,-0.0548937927063292, ,1.2047560214996338
0.013595452164333464,0.020796950245710648,-0.0888856678792456, ,0.014364399646972163,0.020401174389237817,-0.08961207313940368, ,0.0011294172663849865, ,0.011534687177112618,0.00012157606347709946,-0.022734807963420492,0.0026468315904137657,0.010337496199632298,-0.0005316937659538851, ,0.02549382831484249, ,0.010670682799234355, ,0.00010482675696570827, ,0.1980958209567329,-0.22222163845581028,0.09972099712000002,1.687584665163452,0.4787742951781033,-1.314684957982863, ,0.0849569754328297,0.05744366922425592,0.02402535674208145,-0.003269378625793132,0.09907350334518993,-0.0548937927063292, ,1.2070229053497314
0.013755367548391881,0.020787050423242123,-0.08916807230501649, ,0.014422443403070782,0.02039349575269469,-0.0897070138532979, ,0.0009435748338469294, ,0.012343093791847426,-0.0012750052068817616,-0.019915848622910255,-0.08315395617738855,-0.05761899223914866,0.01400231014238402, ,0.02346526430711136, ,0.10116583198572081, ,0.00010646493680336691, ,0.1992928445522377,-0.22139530603826824,0.10001784753000001,1.6873749752199676,0.479594114176696,-1.3147817142240574, ,0.09414379122864167,0.06455574255678284,0.020903952125984254,-0.011548948984544824,0.04032617157375625,0.021415612341342205, ,1.209251880645752
0.013755367548391881,0.020787050423242123,-0.08916807230501649, ,0.014480494401272337,0.020385742689611058,-0.08980164251138378, ,0.0010432008705118666, ,0.012343093791847426,-0.0012750052068817616,-0.019915848622910255,-0.08315395617738855,-0.05761899223914866,0.01400231014238402, ,0.02346526430711136, ,0.10116583198572081, ,0.00010829093277550824, ,0.1992928445522377,-0.22139530603826824,0.10001784753000001,1.6873749752199676,0.479594114176696,-1.3147817142240574, ,0.09414379122864167,0.06455574255678284,0.020903952125984254,-0.011548948984544824,0.04032617157375625,0.021415612341342205, ,1.2114739418029785
0.013755367548391881,0.020787050423242123,-0.08916807230501649, ,0.014538552062742495,0.020377916694283096,-0.08989596173899093, ,0.0011448106480034894, ,0.012343093791847426,-0.0012750052068817616,-0.019915848622910255,-0.08315395617738855,-0.05761899223914866,0.01400231014238402, ,0.02346526430711136, ,0.10116583198572081, ,0.0006031708421472256, ,0.1992928445522377,-0.22139530603826824,0.10001784753000001,1.6873749752199676,0.479594114176696,-1.3147817142240574, ,0.09414379122864167,0.06455574255678284,0.020903952125984254,-0.011548948984544824,0.04032617157375625,0.021415612341342205, ,1.2137749195098877
0.013755367548391881,0.020787050423242123,-0.08916807230501649, ,0.014596615811081844,0.0203700192555323,-0.08998997415099921, ,0.0012478526670845864, ,0.012343093791847426,-0.0012750052068817616,-0.019915848622910255,-0.08315395617738855,-0.05761899223914866,0.01400231014238402, ,0.02346526430711136, ,0.10116583198572081, ,0.0006099569666202506, ,0.1992928445522377,-0.22139530603826824,0.10001784753000001,1.6873749752199676,0.479594114176696,-1.3147817142240574, ,0.09414379122864167,0.06455574255678284,0.020903952125984254,-0.011548948984544824,0.04032617157375625,0.021415612341342205, ,1.2160649299621582
0.013755367548391881,0.020787050423242123,-0.08916807230501649, ,0.01465468507232242,0.020362051856712474,-0.09008368235185361, ,0.001351938441006061, ,0.012343093791847426,-0.0012750052068817616,-0.019915848622910255,-0.08315395617738855,-0.05761899223914866,0.01400231014238402, ,0.02346526430711136, ,0.10116583198572081, ,0.0006176859403117694, ,0.1992928445522377,-0.22139530603826824,0.10001784753000001,1.6873749752199676,0.479594114176696,-1.3147817142240574, ,0.09414379122864167,0.06455574255678284,0.020903952125984254,-0.011548948984544824,0.04032617157375625,0.021415612341342205, ,1.2183210849761963
0.013889272244030144,0.020770594151814713,-0.08938884821384943, ,0.014712759274924322,0.02035401597571722,-0.09017708893558024, ,0.0012136686954215847, ,0.013379243782162526,-0.0015868932447878539,-0.02281278850731935,0.05528462270918903,0.04102220468404355,-0.004303856959720607, ,0.02649425812949987, ,0.0688418811960529, ,0.0006238300924263035, ,0.20035858168888068,-0.22064620094946846,0.10025117973000001,1.6873749752199676,0.48068720617481947,-1.3155096999733478, ,0.10882676784228298,0.07579627920005652,0.024244766392694066,-0.01056057339258458,0.15693320317811224,-0.12588808906250631, ,1.2212190628051758
0.013889272244030144,0.020770594151814713,-0.08938884821384943, ,0.014770837849772026,0.02034591308498711,-0.09027019648580104, ,0.0013169231952627149, ,0.013379243782162526,-0.0015868932447878539,-0.02281278850731935,0.05528462270918903,0.04102220468404355,-0.004303856959720607, ,0.02649425812949987, ,0.0688418811960529, ,0.000630902471026675, ,0.20035858168888068,-0.22064620094946846,0.10025117973000001,1.6873749752199676,0.48068720617481947,-1.3155096999733478, ,0.10882676784228298,0.07579627920005652,0.024244766392694066,-0.01056057339258458,0.15693320317811224,-0.12588808906250631, ,1.2234909534454346
0.013889272244030144,0.020770594151814713,-0.08938884821384943, ,0.014828920230171284,0.020337744651516873,-0.09036300757574943, ,0.001421014950711146, ,0.013379243782162526,-0.0015868932447878539,-0.02281278850731935,0.05528462270918903,0.04102220468404355,-0.004303856959720607, ,0.02649425812949987, ,0.0688418811960529, ,0.0006388834051649021, ,0.20035858168888068,-0.22064620094946846,0.10025117973000001,1.6873749752199676,0.48068720617481947,-1.3155096999733478, ,0.10882676784228298,0.07579627920005652,0.024244766392694066,-0.01056057339258458,0.15693320317811224,-0.12588808906250631, ,1.2257080078125
0.013889272244030144,0.020770594151814713,-0.08938884821384943, ,0.014887005851845343,0.020329512136862474,-0.09045552476828528, ,0.0015257209993512543, ,0.013379243782162526,-0.0015868932447878539,-0.02281278850731935,0.05528462270918903,0.04102220468404355,-0.004303856959720607, ,0.02649425812949987, ,0.0688418811960529, ,0.0006477517811067655, ,0.20035858168888068,-0.22064620094946846,0.10025117973000001,1.6873749752199676,0.48068720617481947,-1.3155096999733478, ,0.10882676784228298,0.07579627920005652,0.024244766392694066,-0.01056057339258458,0.15693320317811224,-0.12588808906250631, ,1.2284948825836182
0.014030322786297216,0.02076101716154143,-0.08964838095012145, ,0.014945094152931705,0.02032121699714881,-0.0905477506159111, ,0.0013561329704555808, ,0.015385293987282183,-0.00017317166317251588,-0.029734987727324903,0.08913572244992495,0.0613015212766201,-0.008907601764855944, ,0.0334799455591581, ,0.10818054484056701, ,0.0006547654562488331, ,0.201470655222769,-0.21987392766204603,0.1005272895,1.6873749752199676,0.4824634806717702,-1.3170398114615418, ,0.1171567179734207,0.07765707165177642,0.031667617335984104,-0.009792718178265112,0.18620827095443,-0.16087917989779776, ,1.230802059173584
0.014030322786297216,0.02076101716154143,-0.08964838095012145, ,0.015003184573978588,0.02031286068307648,-0.09063968766078634, ,0.0014594496502894282, ,0.015385293987282183,-0.00017317166317251588,-0.029734987727324903,0.08913572244992495,0.0613015212766201,-0.008907601764855944, ,0.0334799455591581, ,0.10818054484056701, ,0.0006626545169747213, ,0.201470655222769,-0.21987392766204603,0.1005272895,1.6873749752199676,0.4824634806717702,-1.3170398114615418, ,0.1171567179734207,0.07765707165177642,0.031667617335984104,-0.009792718178265112,0.18620827095443,-0.16087917989779776, ,1.2331418991088867
0.014030322786297216,0.02076101716154143,-0.08964838095012145, ,0.015061276557941415,0.020304444639929045,-0.09073133843474344, ,0.0015633684979100993, ,0.015385293987282183,-0.00017317166317251588,-0.029734987727324903,0.08913572244992495,0.0613015212766201,-0.008907601764855944, ,0.0334799455591581, ,0.10818054484056701, ,0.0006713993129061328, ,0.201470655222769,-0.21987392766204603,0.1005272895,1.6873749752199676,0.4824634806717702,-1.3170398114615418, ,0.1171567179734207,0.07765707165177642,0.031667617335984104,-0.009792718178265112,0.18620827095443,-0.16087917989779776, ,1.2355868816375732
0.014030322786297216,0.02076101716154143,-0.08964838095012145, ,0.015119369550179583,0.020295970307580683,-0.09082270545930254, ,0.0016677318379058584, ,0.015385293987282183,-0.00017317166317251588,-0.029734987727324903,0.08913572244992495,0.0613015212766201,-0.008907601764855944, ,0.0334799455591581, ,0.10818054484056701, ,0.0006809794333388225, ,0.201470655222769,-0.21987392766204603,0.1005272895,1.6873749752199676,0.4824634806717702,-1.3170398114615418, ,0.1171567179734207,0.07765707165177642,0.031667617335984104,-0.009792718178265112,0.18620827095443,-0.16087917989779776, ,1.237941026687622
0.014030322786297216,0.02076101716154143,-0.08964838095012145, ,0.01517746299845267,0.020287439120503112,-0.09091379124568752, ,0.0017724192628783826, ,0.015385293987282183,-0.00017317166317251588,-0.029734987727324903,0.08913572244992495,0.0613015212766201,-0.008907601764855944, ,0.0334799455591581, ,0.10818054484056701, ,0.0006913740983820563, ,0.201470655222769,-0.21987392766204603,0.1005272895,1.6873749752199676,0.4824634806717702,-1.3170398114615418, ,0.1171567179734207,0.07765707165177642,0.031667617335984104,-0.009792718178265112,0.18620827095443,-0.16087917989779776, ,1.2404069900512695
0.014030322786297216,0.02076101716154143,-0.08964838095012145, ,0.015235556352917316,0.02027885250777252,-0.0910045982948407, ,0.0018773375268100359, ,0.015385293987282183,-0.00017317166317251588,-0.029734987727324903,0.08913572244992495,0.0613015212766201,-0.008907601764855944, ,0.0334799455591581, ,0.10818054484056701, ,0.000702562432612509, ,0.201470655222769,-0.21987392766204603,0.1005272895,1.6873749752199676,0.4824634806717702,-1.3170398114615418, ,0.1171567179734207,0.07765707165177642,0.031667617335984104,-0.009792718178265112,0.18620827095443,-0.16087917989779776, ,1.2430670261383057
0.014030322786297216,0.02076101716154143,-0.08964838095012145, ,0.015293649066123544,0.020270211893077605,-0.09109512909743853, ,0.0019824135044478127, ,0.015385293987282183,-0.00017317166317251588,-0.029734987727324903,0.08913572244992495,0.0613015212766201,-0.008907601764855944, ,0.0334799455591581, ,0.10818054484056701, ,0.0007145236575829324, ,0.201470655222769,-0.21987392766204603,0.1005272895,1.6873749752199676,0.4824634806717702,-1.3170398114615418, ,0.1171567179734207,0.07765707165177642,0.031667617335984104,-0.009792718178265112,0.18620827095443,-0.16087917989779776, ,1.245358943939209
0.014030322786297216,0.02076101716154143,-0.08964838095012145, ,0.015351740593011445,0.020261518694725932,-0.09118538613390657, ,0.002087589201264177, ,0.015385293987282183,-0.00017317166317251588,-0.029734987727324903,0.08913572244992495,0.0613015212766201,-0.008907601764855944, ,0.0334799455591581, ,0.10818054484056701, ,0.0007272372274318329, ,0.20261361968815422,-0.21914799077186892,0.10085654716,1.687165285276483,0.4839664821691901,-1.3183470871423428, ,0.12636077437878931,0.08131700219234857,0.039330398814814815,-0.0010524483823590098,0.1441175126324642,-0.13200241612434138, ,1.2478389739990234
0.01438462575687606,0.020775580484614753,-0.09036204097926048, ,0.015409830390907625,0.02025277432565181,-0.09127537187443574, ,0.0014691984704494553, ,0.01863570541245436,0.0010921476044419925,-0.03863903559289385,-0.018155504901210234,-0.03237563415960646,0.015491854522435579, ,0.04291220542175136, ,0.037117622769070505, ,0.0007340442113127285, ,0.20394965247539507,-0.21826759922420733,0.10128302657,1.6865362154460295,0.4851962106670791,-1.3193498482756107, ,0.12292349942807097,0.08324293119164104,0.04073864838874681,-0.029089348874857143,0.09978433141868108,-0.06496001870310975, ,1.2504119873046875
0.01438462575687606,0.020775580484614753,-0.09036204097926048, ,0.015467917919521809,0.02024398019342316,-0.091365088778996, ,0.0015691480707055528, ,0.01863570541245436,0.0010921476044419925,-0.03863903559289385,-0.018155504901210234,-0.03237563415960646,0.015491854522435579, ,0.04291220542175136, ,0.037117622769070505, ,0.0007416360645799361, ,0.20394965247539507,-0.21826759922420733,0.10128302657,1.6865362154460295,0.4851962106670791,-1.3193498482756107, ,0.12292349942807097,0.08324293119164104,0.04073864838874681,-0.029089348874857143,0.09978433141868108,-0.06496001870310975, ,1.252687931060791
0.01438462575687606,0.020775580484614753,-0.09036204097926048, ,0.01552600264094333,0.020235137700248956,-0.09145453929735362, ,0.0016698419594957151, ,0.01863570541245436,0.0010921476044419925,-0.03863903559289385,-0.018155504901210234,-0.03237563415960646,0.015491854522435579, ,0.04291220542175136, ,0.037117622769070505, ,0.0007499982798494475, ,0.20394965247539507,-0.21826759922420733,0.10128302657,1.6865362154460295,0.4851962106670791,-1.3193498482756107, ,0.12292349942807097,0.08324293119164104,0.04073864838874681,-0.029089348874857143,0.09978433141868108,-0.06496001870310975, ,1.2549309730529785
0.01438462575687606,0.020775580484614753,-0.09036204097926048, ,0.015584084019637847,0.020226248242986303,-0.09154372586908467, ,0.0017711141167747679, ,0.01863570541245436,0.0010921476044419925,-0.03863903559289385,-0.018155504901210234,-0.03237563415960646,0.015491854522435579, ,0.04291220542175136, ,0.037117622769070505, ,0.0007591153855362808, ,0.20394965247539507,-0.21826759922420733,0.10128302657,1.6865362154460295,0.4851962106670791,-1.3193498482756107, ,0.12292349942807097,0.08324293119164104,0.04073864838874681,-0.029089348874857143,0.09978433141868108,-0.06496001870310975, ,1.2571640014648438
0.014592255789061821,0.020782753174945184,-0.0907826514698148, ,0.015642161522443646,0.020217313213147806,-0.09163265092359163, ,0.0014644191581669331, ,0.021177387130441046,0.00012139364937392092,-0.042537382626038914,0.008091110385888528,-0.017440781388612065,0.032806819137522, ,0.04751763233542593, ,0.019222581874626832, ,0.0007653570118427468, ,0.2052779625297617,-0.2173485940121746,0.10171080227000001,1.686326525502545,0.48615266616543706,-1.3200480948613451, ,0.1424879002379441,0.10063302392202628,0.044493886927374306,-0.0563351832425115,0.12267370713926558,-0.09715012157143219, ,1.2594420909881592
0.014592255789061821,0.020782753174945184,-0.0907826514698148, ,0.015700234618568273,0.020208333996908735,-0.09172131688011823, ,0.0015616232680229407, ,0.021177387130441046,0.00012139364937392092,-0.042537382626038914,0.008091110385888528,-0.017440781388612065,0.032806819137522, ,0.04751763233542593, ,0.019222581874626832, ,0.0007723418035636255, ,0.2052779625297617,-0.2173485940121746,0.10171080227000001,1.686326525502545,0.48615266616543706,-1.3200480948613451, ,0.1424879002379441,0.10063302392202628,0.044493886927374306,-0.0563351832425115,0.12267370713926558,-0.09715012157143219, ,1.2617170810699463
0.014592255789061821,0.020782753174945184,-0.0907826514698148, ,0.015758302779585284,0.020199311975114213,-0.09180972614776486, ,0.0016598046908763834, ,0.021177387130441046,0.00012139364937392092,-0.042537382626038914,0.008091110385888528,-0.017440781388612065,0.032806819137522, ,0.04751763233542593, ,0.019222581874626832, ,0.0007800588721489539, ,0.2052779625297617,-0.2173485940121746,0.10171080227000001,1.686326525502545,0.48615266616543706,-1.3200480948613451, ,0.1424879002379441,0.10063302392202628,0.044493886927374306,-0.0563351832425115,0.12267370713926558,-0.09715012157143219, ,1.2639479637145996
0.014592255789061821,0.020782753174945184,-0.0907826514698148, ,0.015816365479430466,0.02019024852328654,-0.09189788112550376, ,0.0017587619171507158, ,0.021177387130441046,0.00012139364937392092,-0.042537382626038914,0.008091110385888528,-0.017440781388612065,0.032806819137522, ,0.04751763233542593, ,0.019222581874626832, ,0.0007884959673644863, ,0.2052779625297617,-0.2173485940121746,0.10171080227000001,1.686326525502545,0.48615266616543706,-1.3200480948613451, ,0.1424879002379441,0.10063302392202628,0.044493886927374306,-0.0563351832425115,0.12267370713926558,-0.09715012157143219, ,1.2661819458007812
0.014592255789061821,0.020782753174945184,-0.0907826514698148, ,0.015874422194398614,0.02018114501163243,-0.09198578420219466, ,0.0018583356652829572, ,0.021177387130441046,0.00012139364937392092,-0.042537382626038914,0.008091110385888528,-0.017440781388612065,0.032806819137522, ,0.04751763233542593, ,0.019222581874626832, ,0.0007976398964065246, ,0.2052779625297617,-0.2173485940121746,0.10171080227000001,1.686326525502545,0.48615266616543706,-1.3200480948613451, ,0.1424879002379441,0.10063302392202628,0.044493886927374306,-0.0563351832425115,0.12267370713926558,-0.09715012157143219, ,1.2684440612792969
0.014815244506719446,0.020786876152164558,-0.09123762017957893, ,0.015932472403139962,0.020172002805050097,-0.0920734377565996, ,0.0015247486440684757, ,0.021965295308418096,0.0004010372228595105,-0.04551820059898517,0.07861688365193038,0.05530933948428141,0.014051061714652913, ,0.05054247337249718, ,0.09612253652988054, ,0.0008038018349460326, ,0.20686884550185194,-0.21622879774541204,0.10220857763,1.686326525502545,0.48833885016168416,-1.3217491025803472, ,0.1508695414284114,0.10603010229996734,0.048269125818181824,-0.03920121894360398,0.2209487181362985,-0.18283420806987674, ,1.2706739902496338
0.014815244506719446,0.020786876152164558,-0.09123762017957893, ,0.015990515586656873,0.020162823263136648,-0.09216084415739882, ,0.0016195822402283117, ,0.021965295308418096,0.0004010372228595105,-0.04551820059898517,0.07861688365193038,0.05530933948428141,0.014051061714652913, ,0.05054247337249718, ,0.09612253652988054, ,0.0008106571324694132, ,0.20686884550185194,-0.21622879774541204,0.10220857763,1.686326525502545,0.48833885016168416,-1.3217491025803472, ,0.1508695414284114,0.10603010229996734,0.048269125818181824,-0.03920121894360398,0.2209487181362985,-0.18283420806987674, ,1.272907018661499
0.014815244506719446,0.020786876152164558,-0.09123762017957893, ,0.016048551228300182,0.02015360774019533,-0.09224800576320535, ,0.0017155038264878247, ,0.021965295308418096,0.0004010372228595105,-0.04551820059898517,0.07861688365193038,0.05530933948428141,0.014051061714652913, ,0.05054247337249718, ,0.09612253652988054, ,0.0008181975215862333, ,0.20686884550185194,-0.21622879774541204,0.10220857763,1.686326525502545,0.48833885016168416,-1.3217491025803472, ,0.1508695414284114,0.10603010229996734,0.048269125818181824,-0.03920121894360398,0.2209487181362985,-0.18283420806987674, ,1.2751429080963135
0.014815244506719446,0.020786876152164558,-0.09123762017957893, ,0.016106578813765843,0.020144357585242575,-0.09233492492258177, ,0.0018123057414274836, ,0.021965295308418096,0.0004010372228595105,-0.04551820059898517,0.07861688365193038,0.05530933948428141,0.014051061714652913, ,0.05054247337249718, ,0.09612253652988054, ,0.0008264132919981444, ,0.20686884550185194,-0.21622879774541204,0.10220857763,1.686326525502545,0.48833885016168416,-1.3217491025803472, ,0.1508695414284114,0.10603010229996734,0.048269125818181824,-0.03920121894360398,0.2209487181362985,-0.18283420806987674, ,1.277508020401001
0.014815244506719446,0.020786876152164558,-0.09123762017957893, ,0.016164597831091577,0.020135074142015437,-0.09242160397405337, ,0.0019098214262089162, ,0.021965295308418096,0.0004010372228595105,-0.04551820059898517,0.07861688365193038,0.05530933948428141,0.014051061714652913, ,0.05054247337249718, ,0.09612253652988054, ,0.0008352936865408557, ,0.2083979466109484,-0.2152093970060144,0.10265190881000001,1.686326525502545,0.4902517611584003,-1.3233906319722377, ,0.17444290727660072,0.10996169357876104,0.04564129375358167,-0.03107108924143201,0.18465560961956004,-0.1479524795992459, ,1.2801129817962646
0.015032056279488693,0.020787397636779892,-0.09165424490437636, ,0.016222607770653256,0.020125758748978758,-0.09250804524612545, ,0.0016075303712638678, ,0.024069194727148732,-0.0005866339291556879,-0.04278130280260731,0.04045407798725718,-0.001707319877661151,0.00677323086007587, ,0.049090835638320694, ,0.040488320033037484, ,0.0008415720335711241, ,0.2083979466109484,-0.2152093970060144,0.10265190881000001,1.686326525502545,0.4902517611584003,-1.3233906319722377, ,0.17444290727660072,0.10996169357876104,0.04564129375358167,-0.03107108924143201,0.18465560961956004,-0.1479524795992459, ,1.2848138809204102
0.015032056279488693,0.020787397636779892,-0.09165424490437636, ,0.01628060812516158,0.02011641273933238,-0.09259425105729782, ,0.0017007980513470808, ,0.024069194727148732,-0.0005866339291556879,-0.04278130280260731,0.04045407798725718,-0.001707319877661151,0.00677323086007587, ,0.049090835638320694, ,0.040488320033037484, ,0.0008485012756499625, ,0.2083979466109484,-0.2152093970060144,0.10265190881000001,1.686326525502545,0.4902517611584003,-1.3233906319722377, ,0.17444290727660072,0.10996169357876104,0.04564129375358167,-0.03107108924143201,0.18465560961956004,-0.1479524795992459, ,1.287203073501587
0.015032056279488693,0.020787397636779892,-0.09165424490437636, ,0.016338598389658485,0.020107037441018355,-0.09268022371607987, ,0.001795153142126919, ,0.024069194727148732,-0.0005866339291556879,-0.04278130280260731,0.04045407798725718,-0.001707319877661151,0.00677323086007587, ,0.049090835638320694, ,0.040488320033037484, ,0.0008560744905817781, ,0.2097494248639377,-0.2143598963898497,0.10298635163000001,1.686326525502545,0.4914814896562893,-1.3243933931055056, ,0.18498429153698007,0.11773814089140294,0.04400224176795581,-0.026735088470318982,0.14946158736273912,-0.11942152094401427, ,1.2896339893341064
0.015216912285885748,0.02077970649900298,-0.09196747367537794, ,0.01639657806151379,0.02009763417672823,-0.09276596552100624, ,0.0015793743136243133, ,0.025164712568292218,-0.0017163159859312006,-0.04126312217210129,0.003974492452128647,-0.04547438668364886,0.0009025090207511941, ,0.048361697143484164, ,0.045646432639141823, ,0.00086181496536783, ,0.2097494248639377,-0.2143598963898497,0.10298635163000001,1.686326525502545,0.4914814896562893,-1.3243933931055056, ,0.18498429153698007,0.11773814089140294,0.04400224176795581,-0.026735088470318982,0.14946158736273912,-0.11942152094401427, ,1.2927019596099854
0.015216912285885748,0.02077970649900298,-0.09196747367537794, ,0.016454546640421824,0.02008820426391033,-0.09285147876065236, ,0.001670742088850668, ,0.025164712568292218,-0.0017163159859312006,-0.04126312217210129,0.003974492452128647,-0.04547438668364886,0.0009025090207511941, ,0.048361697143484164, ,0.045646432639141823, ,0.0008681844702771437, ,0.2097494248639377,-0.2143598963898497,0.10298635163000001,1.686326525502545,0.4914814896562893,-1.3243933931055056, ,0.18498429153698007,0.11773814089140294,0.04400224176795581,-0.026735088470318982,0.14946158736273912,-0.11942152094401427, ,1.294990062713623
0.015216912285885748,0.02077970649900298,-0.09196747367537794, ,0.016512503628397707,0.020078749014776822,-0.09293676571364921, ,0.0017633562819069433, ,0.025164712568292218,-0.0017163159859312006,-0.04126312217210129,0.003974492452128647,-0.04547438668364886,0.0009025090207511941, ,0.048361697143484164, ,0.045646432639141823, ,0.0008751780000555015, ,0.2097494248639377,-0.2143598963898497,0.10298635163000001,1.686326525502545,0.4914814896562893,-1.3243933931055056, ,0.18498429153698007,0.11773814089140294,0.04400224176795581,-0.026735088470318982,0.14946158736273912,-0.11942152094401427, ,1.2973380088806152
0.015536312494455914,0.02073935215195194,-0.09244948602251896, ,0.016570448529774174,0.020069269736311148,-0.09302182864869929, ,0.0013586846083759722, ,0.024141459148885668,-0.004641746469543329,-0.031785577811668665,-0.08348435170733434,-0.13619315991338468,-0.019139153742056863, ,0.040183066295971945, ,0.15974411207296305, ,0.0008789261132982959, ,0.211996740130337,-0.21286940894512438,0.10347505296000001,1.6861168355590603,0.49271121815417823,-1.3254778329789139, ,0.18355307844965332,0.12340304493949386,0.034477947012987016,0.0,0.05486022035002501,-0.041139848348327825, ,1.2997570037841797
0.015536312494455914,0.02073935215195194,-0.09244948602251896, ,0.016628380851198003,0.020059767730275072,-0.09310666982459118, ,0.0014444164329200037, ,0.024141459148885668,-0.004641746469543329,-0.031785577811668665,-0.08348435170733434,-0.13619315991338468,-0.019139153742056863, ,0.040183066295971945, ,0.15974411207296305, ,0.0008832760388338475, ,0.211996740130337,-0.21286940894512438,0.10347505296000001,1.6861168355590603,0.49271121815417823,-1.3254778329789139, ,0.18355307844965332,0.12340304493949386,0.034477947012987016,0.0,0.05486022035002501,-0.041139848348327825, ,1.3021268844604492
0.015536312494455914,0.02073935215195194,-0.09244948602251896, ,0.01668630010162658,0.02005024429321614,-0.09319129149021566, ,0.0015321933590517454, ,0.024141459148885668,-0.004641746469543329,-0.031785577811668665,-0.08348435170733434,-0.13619315991338468,-0.019139153742056863, ,0.040183066295971945, ,0.15974411207296305, ,0.0008882296061637552, ,0.211996740130337,-0.21286940894512438,0.10347505296000001,1.6861168355590603,0.49271121815417823,-1.3254778329789139, ,0.18355307844965332,0.12340304493949386,0.034477947012987016,0.0,0.05486022035002501,-0.041139848348327825, ,1.3043310642242432
0.015536312494455914,0.02073935215195194,-0.09244948602251896, ,0.016744205792324367,0.020040700716474694,-0.0932756958845803, ,0.0016216481688385357, ,0.024141459148885668,-0.004641746469543329,-0.031785577811668665,-0.08348435170733434,-0.13619315991338468,-0.019139153742056863, ,0.040183066295971945, ,0.15974411207296305, ,0.0008937858073961398, ,0.211996740130337,-0.21286940894512438,0.10347505296000001,1.6861168355590603,0.49271121815417823,-1.3254778329789139, ,0.18355307844965332,0.12340304493949386,0.034477947012987016,0.0,0.05486022035002501,-0.041139848348327825, ,1.306575059890747
0.015536312494455914,0.02073935215195194,-0.09244948602251896, ,0.01680209743685963,0.020031138286191276,-0.09335988523682559, ,0.001712485074236205, ,0.024141459148885668,-0.004641746469543329,-0.031785577811668665,-0.08348435170733434,-0.13619315991338468,-0.019139153742056863, ,0.040183066295971945, ,0.15974411207296305, ,0.0008999414409814034, ,0.211996740130337,-0.21286940894512438,0.10347505296000001,1.6861168355590603,0.49271121815417823,-1.3254778329789139, ,0.18355307844965332,0.12340304493949386,0.034477947012987016,0.0,0.05486022035002501,-0.041139848348327825, ,1.308804988861084
0.015769317847243225,0.020683193580389662,-0.09274634139735748, ,0.016859974551100786,0.020021558283313656,-0.09344386176623953, ,0.0014539009515822105, ,0.024156772303285504,-0.006060950730865814,-0.030513504477717952,-0.0007998980467911482,-0.04095247753225213,-0.016643820693523496, ,0.039387291445166395, ,0.04095996583002954, ,0.0009040754671799169, ,0.2139737597461385,-0.21149476249351243,0.10381468094000001,1.6854877657286067,0.4938043101523018,-1.3262874974683447, ,0.19606806107122063,0.13693642360529693,0.03270803186858317,-0.013485313055183086,0.16248352328870863,-0.13035207206743735, ,1.310999870300293
0.015769317847243225,0.020683193580389662,-0.09274634139735748, ,0.016917836653213107,0.02001196198360433,-0.0935276276822731, ,0.0015427428700813131, ,0.024156772303285504,-0.006060950730865814,-0.030513504477717952,-0.0007998980467911482,-0.04095247753225213,-0.016643820693523496, ,0.039387291445166395, ,0.04095996583002954, ,0.0009088063368310384, ,0.2139737597461385,-0.21149476249351243,0.10381468094000001,1.6854877657286067,0.4938043101523018,-1.3262874974683447, ,0.19606806107122063,0.13693642360529693,0.03270803186858317,-0.013485313055183086,0.16248352328870863,-0.13035207206743735, ,1.3132810592651367
0.015769317847243225,0.020683193580389662,-0.09274634139735748, ,0.016975683263655145,0.020002350657647563,-0.09361118518455623, ,0.001633039919787325, ,0.024156772303285504,-0.006060950730865814,-0.030513504477717952,-0.0007998980467911482,-0.04095247753225213,-0.016643820693523496, ,0.039387291445166395, ,0.04095996583002954, ,0.0009141315837645404, ,0.2139737597461385,-0.21149476249351243,0.10381468094000001,1.6854877657286067,0.4938043101523018,-1.3262874974683447, ,0.19606806107122063,0.13693642360529693,0.03270803186858317,-0.013485313055183086,0.16248352328870863,-0.13035207206743735, ,1.315553903579712
0.015769317847243225,0.020683193580389662,-0.09274634139735748, ,0.017033513905175376,0.01999272557085667,-0.09369453646291188, ,0.0017245322923683888, ,0.024156772303285504,-0.006060950730865814,-0.030513504477717952,-0.0007998980467911482,-0.04095247753225213,-0.016643820693523496, ,0.039387291445166395, ,0.04095996583002954, ,0.0009200469174039845, ,0.2139737597461385,-0.21149476249351243,0.10381468094000001,1.6854877657286067,0.4938043101523018,-1.3262874974683447, ,0.19606806107122063,0.13693642360529693,0.03270803186858317,-0.013485313055183086,0.16248352328870863,-0.13035207206743735, ,1.3178038597106934
0.016003610999439703,0.020622802371016578,-0.09305155114255513, ,0.017091328102808744,0.019983087983481324,-0.09377768369737292, ,0.0014558954226685916, ,0.02424650902598653,-0.006316021759075888,-0.03175710107180611,0.04108110515542377,0.00908128933714665,0.0327563374409984, ,0.04045119033221736, ,0.04207249358769933, ,0.0009239298775870613, ,0.21588899749894616,-0.21014328424052314,0.10414264231,1.6850683858416375,0.49585385764878337,-1.327958766023791, ,0.19852916644031546,0.13955432582128055,0.034181998969957085,-0.06688680052261774,0.2278140175193667,-0.1839293706288173, ,1.320378065109253
0.016003610999439703,0.020622802371016578,-0.09305155114255513, ,0.017149125383873046,0.019973439150614586,-0.09386062905819595, ,0.0015454717307450945, ,0.02424650902598653,-0.006316021759075888,-0.03175710107180611,0.04108110515542377,0.00908128933714665,0.0327563374409984, ,0.04045119033221736, ,0.04207249358769933, ,0.0009284014017105004, ,0.21588899749894616,-0.21014328424052314,0.10414264231,1.6850683858416375,0.49585385764878337,-1.327958766023791, ,0.19852916644031546,0.13955432582128055,0.034181998969957085,-0.06688680052261774,0.2278140175193667,-0.1839293706288173, ,1.322835922241211
0.016003610999439703,0.020622802371016578,-0.09305155114255513, ,0.017206905277965777,0.019963780322200496,-0.09394337470587778, ,0.0016363301774571185, ,0.02424650902598653,-0.006316021759075888,-0.03175710107180611,0.04108110515542377,0.00908128933714665,0.0327563374409984, ,0.04045119033221736, ,0.04207249358769933, ,0.0009334580358229763, ,0.21588899749894616,-0.21014328424052314,0.10414264231,1.6850683858416375,0.49585385764878337,-1.327958766023791, ,0.19852916644031546,0.13955432582128055,0.034181998969957085,-0.06688680052261774,0.2278140175193667,-0.1839293706288173, ,1.3257520198822021
0.016003610999439703,0.020622802371016578,-0.09305155114255513, ,0.017264667316960393,0.019954112743040927,-0.09402592279116997, ,0.001728238688418202, ,0.02424650902598653,-0.006316021759075888,-0.03175710107180611,0.04108110515542377,0.00908128933714665,0.0327563374409984, ,0.04045119033221736, ,0.04207249358769933, ,0.0009390947780399636, ,0.21588899749894616,-0.21014328424052314,0.10414264231,1.6850683858416375,0.49585385764878337,-1.327958766023791, ,0.19852916644031546,0.13955432582128055,0.034181998969957085,-0.06688680052261774,0.2278140175193667,-0.1839293706288173, ,1.3281800746917725
0.016003610999439703,0.020622802371016578,-0.09305155114255513, ,0.01732241103500299,0.01994443765280312,-0.09410827545509458, ,0.001821010295805743, ,0.02424650902598653,-0.006316021759075888,-0.03175710107180611,0.04108110515542377,0.00908128933714665,0.0327563374409984, ,0.04045119033221736, ,0.04207249358769933, ,0.0009453054507002861, ,0.21588899749894616,-0.21014328424052314,0.10414264231,1.6850683858416375,0.49585385764878337,-1.327958766023791, ,0.19852916644031546,0.13955432582128055,0.034181998969957085,-0.06688680052261774,0.2278140175193667,-0.1839293706288173, ,1.3306519985198975
0.016003610999439703,0.020622802371016578,-0.09305155114255513, ,0.017380135968508896,0.0199347562860267,-0.09419043482895975, ,0.001914493263686091, ,0.02424650902598653,-0.006316021759075888,-0.03175710107180611,0.04108110515542377,0.00908128933714665,0.0327563374409984, ,0.04045119033221736, ,0.04207249358769933, ,0.000952082987854033, ,0.217225030286187,-0.2092165562956162,0.10436690048000001,1.6848586958981533,0.4973568591462032,-1.3292660417045923, ,0.20902410034905458,0.14121568684296246,0.034329335172413794,0.025403538254932318,0.2276595673379976,-0.18075973122919478, ,1.3331620693206787
0.01616614402853642,0.020581065689524822,-0.0932592001056839, ,0.017437841656159064,0.019925069872130937,-0.09427240303437373, ,0.0017533184374907394, ,0.025380600566401505,-0.006117469597513372,-0.03162924024821973,0.055746184123701144,0.017725588277939578,-0.05527223586916223, ,0.041012280576277683, ,0.05849616969549861, ,0.0009576471229209546, ,0.217225030286187,-0.2092165562956162,0.10436690048000001,1.6848586958981533,0.4973568591462032,-1.3292660417045923, ,0.20902410034905458,0.14121568684296246,0.034329335172413794,0.025403538254932318,0.2276595673379976,-0.18075973122919478, ,1.3359630107879639
0.01616614402853642,0.020581065689524822,-0.0932592001056839, ,0.01749552763889678,0.019915379635422243,-0.09435418218326196, ,0.0018464518559492815, ,0.025380600566401505,-0.006117469597513372,-0.03162924024821973,0.055746184123701144,0.017725588277939578,-0.05527223586916223, ,0.041012280576277683, ,0.05849616969549861, ,0.0009637768107349431, ,0.217225030286187,-0.2092165562956162,0.10436690048000001,1.6848586958981533,0.4973568591462032,-1.3292660417045923, ,0.20902410034905458,0.14121568684296246,0.034329335172413794,0.025403538254932318,0.2276595673379976,-0.18075973122919478, ,1.338296890258789
0.01616614402853642,0.020581065689524822,-0.0932592001056839, ,0.01755319345992412,0.019905686795101057,-0.09443577437788139, ,0.0019401983904083256, ,0.025380600566401505,-0.006117469597513372,-0.03162924024821973,0.055746184123701144,0.017725588277939578,-0.05527223586916223, ,0.041012280576277683, ,0.05849616969549861, ,0.0009704646297738018, ,0.217225030286187,-0.2092165562956162,0.10436690048000001,1.6848586958981533,0.4973568591462032,-1.3292660417045923, ,0.20902410034905458,0.14121568684296246,0.034329335172413794,0.025403538254932318,0.2276595673379976,-0.18075973122919478, ,1.340569019317627
0.01616614402853642,0.020581065689524822,-0.0932592001056839, ,0.017610838664698526,0.019895992565269204,-0.09451718171083558, ,0.0020344496789630566, ,0.025380600566401505,-0.006117469597513372,-0.03162924024821973,0.055746184123701144,0.017725588277939578,-0.05527223586916223, ,0.041012280576277683, ,0.05849616969549861, ,0.0009777026233057015, ,0.217225030286187,-0.2092165562956162,0.10436690048000001,1.6848586958981533,0.4973568591462032,-1.3292660417045923, ,0.20902410034905458,0.14121568684296246,0.034329335172413794,0.025403538254932318,0.2276595673379976,-0.18075973122919478, ,1.3428609371185303
0.016633666433111236,0.020470628411053335,-0.09381002167391708, ,0.01766846280092934,0.019886298154937254,-0.09459840626509092, ,0.0014261120694610782, ,0.027565794518356727,-0.00678974335840256,-0.03162034782043109,-0.10581901434507218,-0.1473032860735392,-0.02327115061244377, ,0.04249494132936624, ,0.18137224229300072, ,0.0009807324168608054, ,0.22097827846306012,-0.20674528177586435,0.10496319388000001,1.6850683858416375,0.49981631614198113,-1.3307814915302845, ,0.21567486717834267,0.14465997188791277,0.03403592205128206,-0.0019706161338271687,0.07071939203044163,-0.03239844255897123, ,1.346040964126587
0.016633666433111236,0.020470628411053335,-0.09381002167391708, ,0.01772606541857441,0.0198766047680317,-0.09467945011399115, ,0.0015172690744621703, ,0.027565794518356727,-0.00678974335840256,-0.03162034782043109,-0.10581901434507218,-0.1473032860735392,-0.02327115061244377, ,0.04249494132936624, ,0.18137224229300072, ,0.0009843333340259152, ,0.22097827846306012,-0.20674528177586435,0.10496319388000001,1.6850683858416375,0.49981631614198113,-1.3307814915302845, ,0.21567486717834267,0.14465997188791277,0.03403592205128206,-0.0019706161338271687,0.07071939203044163,-0.03239844255897123, ,1.3483479022979736
0.016633666433111236,0.020470628411053335,-0.09381002167391708, ,0.01778364606983651,0.019866913603402047,-0.09476031532127313, ,0.0016093423346402972, ,0.027565794518356727,-0.00678974335840256,-0.03162034782043109,-0.10581901434507218,-0.1473032860735392,-0.02327115061244377, ,0.04249494132936624, ,0.18137224229300072, ,0.0009885000606966777, ,0.22097827846306012,-0.20674528177586435,0.10496319388000001,1.6850683858416375,0.49981631614198113,-1.3307814915302845, ,0.21567486717834267,0.14465997188791277,0.03403592205128206,-0.0019706161338271687,0.07071939203044163,-0.03239844255897123, ,1.3506789207458496
0.016893785279901246,0.020404404272725767,-0.09412691308986473, ,0.017841204309159996,0.019857225854828207,-0.09484100394108164, ,0.0013064963764994333, ,0.026991551656908724,-0.006645384683342316,-0.035036381689385,-0.01095030549949439,-0.018840092278168415,-0.022504863475054756, ,0.04472418853731664, ,0.02179003148604195, ,0.0009906059965629212, ,0.22303252540760385,-0.20531657619413282,0.10530541444000001,1.6850683858416375,0.501319317639401,-1.3317620522505234, ,0.2108820923521573,0.15015338854188412,0.03783565681710214,-0.0034569149961281315,0.19816300579466375,-0.1284402262735298, ,1.3537089824676514
0.016893785279901246,0.020404404272725767,-0.09412691308986473, ,0.017898739693227316,0.019847542711027632,-0.09492151801798566, ,0.0013969342015837762, ,0.026991551656908724,-0.006645384683342316,-0.035036381689385,-0.01095030549949439,-0.018840092278168415,-0.022504863475054756, ,0.04472418853731664, ,0.02179003148604195, ,0.0009932792084380584, ,0.22303252540760385,-0.20531657619413282,0.10530541444000001,1.6850683858416375,0.501319317639401,-1.3317620522505234, ,0.2108820923521573,0.15015338854188412,0.03783565681710214,-0.0034569149961281315,0.19816300579466375,-0.1284402262735298, ,1.3561210632324219
0.016893785279901246,0.020404404272725767,-0.09412691308986473, ,0.01795625178095564,0.019837865355662742,-0.09500185958699278, ,0.0014883994031328934, ,0.026991551656908724,-0.006645384683342316,-0.035036381689385,-0.01095030549949439,-0.018840092278168415,-0.022504863475054756, ,0.04472418853731664, ,0.02179003148604195, ,0.0009965152881419462, ,0.22303252540760385,-0.20531657619413282,0.10530541444000001,1.6850683858416375,0.501319317639401,-1.3317620522505234, ,0.2108820923521573,0.15015338854188412,0.03783565681710214,-0.0034569149961281315,0.19816300579466375,-0.1284402262735298, ,1.3583760261535645
0.016893785279901246,0.020404404272725767,-0.09412691308986473, ,0.018013740133493224,0.019828194967347727,-0.09508203067356467, ,0.0015806851794020482, ,0.026991551656908724,-0.006645384683342316,-0.035036381689385,-0.01095030549949439,-0.018840092278168415,-0.022504863475054756, ,0.04472418853731664, ,0.02179003148604195, ,0.0010003085991241547, ,0.22303252540760385,-0.20531657619413282,0.10530541444000001,1.6850683858416375,0.501319317639401,-1.3317620522505234, ,0.2108820923521573,0.15015338854188412,0.03783565681710214,-0.0034569149961281315,0.19816300579466375,-0.1284402262735298, ,1.3606069087982178
0.016893785279901246,0.020404404272725767,-0.09412691308986473, ,0.01807120431421605,0.019818532719656452,-0.09516203329363285, ,0.0016736292586207963, ,0.026991551656908724,-0.006645384683342316,-0.035036381689385,-0.01095030549949439,-0.018840092278168415,-0.022504863475054756, ,0.04472418853731664, ,0.02179003148604195, ,0.0010046526033789718, ,0.22303252540760385,-0.20531657619413282,0.10530541444000001,1.6850683858416375,0.501319317639401,-1.3317620522505234, ,0.2108820923521573,0.15015338854188412,0.03783565681710214,-0.0034569149961281315,0.19816300579466375,-0.1284402262735298, ,1.3628919124603271
0.017163712465638276,0.020338880395250784,-0.09448161648665164, ,0.018128643888724528,0.01980887978112903,-0.09524186945361385, ,0.001337900547874742, ,0.026102486315393882,-0.006029919066059488,-0.034063052932378136,0.05144387815164363,0.04836121909197141,-0.007323843277295205, ,0.0433357968758225, ,0.070606191322389, ,0.0010067888081513804, ,0.2251639996808898,-0.20383381148228172,0.10569041257000002,1.6846490059546686,0.503778774635179,-1.333604217036778, ,0.20810732797910259,0.14058806156810486,0.037216849345794396,-0.017911002170351634,0.2672698677360287,-0.18243313690963756, ,1.3661198616027832
0.017163712465638276,0.020338880395250784,-0.09448161648665164, ,0.018186058424839807,0.01979923731527949,-0.09532154115042403, ,0.0014289434400527423, ,0.026102486315393882,-0.006029919066059488,-0.034063052932378136,0.05144387815164363,0.04836121909197141,-0.007323843277295205, ,0.0433357968758225, ,0.070606191322389, ,0.0010094776911571215, ,0.2251639996808898,-0.20383381148228172,0.10569041257000002,1.6846490059546686,0.503778774635179,-1.333604217036778, ,0.20810732797910259,0.14058806156810486,0.037216849345794396,-0.017911002170351634,0.2672698677360287,-0.18243313690963756, ,1.3685688972473145
0.017163712465638276,0.020338880395250784,-0.09448161648665164, ,0.0182434474926004,0.01978960648060286,-0.0954010503714956, ,0.0015208182765737693, ,0.026102486315393882,-0.006029919066059488,-0.034063052932378136,0.05144387815164363,0.04836121909197141,-0.007323843277295205, ,0.0433357968758225, ,0.070606191322389, ,0.0010127140239762143, ,0.2251639996808898,-0.20383381148228172,0.10569041257000002,1.6846490059546686,0.503778774635179,-1.333604217036778, ,0.20810732797910259,0.14058806156810486,0.037216849345794396,-0.017911002170351634,0.2672698677360287,-0.18243313690963756, ,1.370879888534546
0.01740791070885714,0.020281070948151247,-0.09478427935513307, ,0.018300810664258833,0.019779988430582256,-0.0954803990947916, ,0.0012381182139488446, ,0.026102486315393882,-0.006029919066059488,-0.034063052932378136,0.05144387815164363,0.04836121909197141,-0.007323843277295205, ,0.0433357968758225, ,0.070606191322389, ,0.0010141316603911365, ,0.22707151470082326,-0.20255956055803467,0.10601967023000002,1.6842296260676997,0.5054184126323642,-1.334696195660713, ,0.2146989628019701,0.14291708066034756,0.036533971376146786,-0.04031567412765977,0.12940156455929402,-0.08910553972116585, ,1.3755309581756592
0.01740791070885714,0.020281070948151247,-0.09478427935513307, ,0.018358147514278007,0.019770384313696376,-0.09555958928882101, ,0.0013284789491228267, ,0.027919272101689364,-0.006582047634446396,-0.03365754190205441,-0.05430200455161451,-0.09683353050724798,0.009336345136061484, ,0.04422260997090561, ,0.111019805151875, ,0.0010160963309457096, ,0.22707151470082326,-0.20255956055803467,0.10601967023000002,1.6842296260676997,0.5054184126323642,-1.334696195660713, ,0.2146989628019701,0.14291708066034756,0.036533971376146786,-0.04031567412765977,0.12940156455929402,-0.08910553972116585, ,1.3780770301818848
0.01740791070885714,0.020281070948151247,-0.09478427935513307, ,0.018415457619327925,0.019760795273426703,-0.09563862291265472, ,0.001419767751707318, ,0.027919272101689364,-0.006582047634446396,-0.03365754190205441,-0.05430200455161451,-0.09683353050724798,0.009336345136061484, ,0.04422260997090561, ,0.111019805151875, ,0.0010186036068510612, ,0.22707151470082326,-0.20255956055803467,0.10601967023000002,1.6842296260676997,0.5054184126323642,-1.334696195660713, ,0.2146989628019701,0.14291708066034756,0.036533971376146786,-0.04031567412765977,0.12940156455929402,-0.08910553972116585, ,1.380722999572754
0.01740791070885714,0.020281070948151247,-0.09478427935513307, ,0.018472740558282102,0.019751222448264626,-0.09571750191594024, ,0.0015117891351170546, ,0.027919272101689364,-0.006582047634446396,-0.03365754190205441,-0.05430200455161451,-0.09683353050724798,0.009336345136061484, ,0.04422260997090561, ,0.111019805151875, ,0.0010216479619638143, ,0.22707151470082326,-0.20255956055803467,0.10601967023000002,1.6842296260676997,0.5054184126323642,-1.334696195660713, ,0.2146989628019701,0.14291708066034756,0.036533971376146786,-0.04031567412765977,0.12940156455929402,-0.08910553972116585, ,1.383802890777588
