NicholasDascanio/dvrk_moveit_final/test/execution/third_experiment_notsharpbends/thirdexp_500vel5.0/thirdexp_500vel5.0_21.csv
Current Position (x),Current Position (y),Current Position (z), ,Planned Position (x),Planned Position (y),Planned Position (z), ,Position Error,,Cartesian linear Velocity(x),Cartesian linear Velocity(y),Cartesian linear Velocity(z),Cartesian Angular Velocity(x),Cartesian Angular Velocity(y),Cartesian Angular Velocity(z), ,Total Linear Velocity, ,Total Angular Velocity, ,MSE, ,Joint 1 Position,Joint 2 Position,Joint 3 Position,Joint 4 Position,Joint 5 Position,Joint 6 Position, ,Joint 1 Velocity,Joint 2 Velocity,Joint 3 Velocity,Joint 4 Velocity,Joint 5 Velocity,Joint 6 Velocity, ,Time Stamp
0.009995263392583144,0.019967172407709025,-0.07986565316161275, ,0.010149206510176374,0.019922713582270147,-0.07994893560732722, ,0.0001805852606884385, ,3.63494778243032e-05,4.467813760477035e-06,5.666168055522259e-06,0.08295004618405721,-0.000566696951738871,-0.024555057873257905, ,3.705875548816014e-05, ,0.08295198193757841, ,1.5048771724036543e-05, ,0.1745878220875935,-0.23767482693713352,0.09028400592000001,1.6890524947678438,0.46224127870648507,-1.2880531144729654, ,0.0004653193983728854,-0.00011916210238350605,0.0,-0.0013050728128854326,0.0,-0.08697568644648124, ,0.02332592010498047
0.010004190618024392,0.01997240391719954,-0.07988008888083376, ,0.010180009865619441,0.0199693168554505,-0.08002528711761915, ,0.00022804487659388355, ,0.00101526106771821,0.0005193640481671272,-0.0021401187172862724,0.19110006731347984,-0.06282299368424474,-0.07541919803481639, ,0.002424995293651496, ,0.20116153773179973, ,1.857409714919646e-05, ,0.17461099028621616,-0.23769799513575618,0.09029826511000001,1.6890524947678438,0.4616947327074232,-1.2909562712039426, ,0.0013987920220830928,-0.00042084809865115927,0.0020781228336594917,-0.0013050728128854326,-0.06380195708557189,-0.20493637568543965, ,0.048597097396850586
0.010039378728661062,0.01998962241965868,-0.07993868313096575, ,0.01021103331175885,0.020015160787801377,-0.08010198520608701, ,0.00023829618520819176, ,0.0008070271711610905,0.0009297044710912021,-0.0025622687738152254,0.3137118358375905,-0.03318335737458315,-0.10737654941528328, ,0.00284268614655713, ,0.3154619646663131, ,2.0216447577828557e-05, ,0.17462643575196463,-0.23775205426587576,0.09035270929000001,1.6890524947678438,0.45882536621234904,-1.2958042243586874, ,0.0008105073809790232,-0.0035797111800379682,0.002665463775100402,0.0034453147404780496,-0.03489536102840638,-0.3266511192499497, ,0.07210707664489746
0.010073720924394474,0.020010692998905403,-0.07999481177558242, ,0.01024227555313675,0.020060250931272366,-0.08017902686639247, ,0.00025456207732710734, ,0.002185831280338693,0.0006791437669321097,-0.0028998293350125885,-0.011562628743441338,-0.19172588857038608,-0.003446169435205387, ,0.0036943341503536706, ,0.19207423234613671, ,2.146400951946717e-05, ,0.17467277214920995,-0.23781383612886955,0.09040715347000002,1.6898912545417817,0.4563659092165711,-1.300087965082975, ,0.002104642797347543,-0.0031977870555201706,0.0025555609690357775,-0.0466930390419563,-0.18510667656667754,-0.007640293073533644, ,0.09426307678222656
0.010108193400021653,0.020039223405986618,-0.08008493605902176, ,0.010273735299132078,0.020104592819623915,-0.0802564091011342, ,0.0002471442590303609, ,0.0010301046620034492,0.0013662731855729159,-0.00444579342212555,-0.1878369446411845,-0.00962600084967963,0.084040311614735, ,0.004763706244565424, ,0.18808343271738917, ,2.2089089593230422e-05, ,0.17473455401220375,-0.23789878619048602,0.09049919006000001,1.6898912545417817,0.4547262712193858,-1.2977708053569312, ,0.0031583860462230003,-0.004410984414550092,0.004740717714285715,-0.02763260974271722,0.0,0.19593424722696362, ,0.11649799346923828
0.010114212529409299,0.02005304290633352,-0.08012304841605866, ,0.01030541126395276,0.020148191968452002,-0.08033412892183742, ,0.00030027534036757437, ,0.000524010612274953,0.001266391572012144,-0.0036315828214332144,-0.1679640860272826,0.04740271110352519,0.08959160399447898, ,0.00388158840223548, ,0.1745249300653434, ,2.3369483858315427e-05, ,0.1747808904094491,-0.23794512258773137,0.09054196763000001,1.6898912545417817,0.45527281721844753,-1.2961745084682028, ,0.004670470776194283,-0.004823429216639488,0.004084310646153846,-0.02212290114696001,0.059357565963572015,0.18132402643542908, ,0.14264512062072754
0.010132928604608635,0.020090686574314058,-0.08021723833696773, ,0.010337302166627923,0.02019105387521339,-0.08041218334894455, ,0.00029974273241717224, ,0.0007697235817582193,0.0011019522619055047,-0.0020426305494517117,0.029296249046680333,0.01586704453960862,0.0008081301647650371, ,0.002445222431883603, ,0.03331716240305412, ,2.4628883544122938e-05, ,0.17495851326555625,-0.23810729997809008,0.09064955970000001,1.6896815645982974,0.4567758187158674,-1.2946230282440845, ,0.007403384245373598,-0.006590451091274718,0.002416018735021993,0.0,0.024102938006692082,-0.021927350670642887, ,0.16252613067626953
0.010163667982575654,0.020131700158664306,-0.08029535349235445, ,0.010369406731000043,0.020233184019250637,-0.08049056941180535, ,0.0003012252674823299, ,0.0011973828653438754,0.0015225626933595764,-0.0033279056589704805,0.003982162753957641,-0.0047947525875636715,-0.007467996100833533, ,0.003850568653645488, ,0.006232757990390203, ,2.562344998893823e-05, ,0.17517474978603456,-0.23832353649856836,0.09073900371000002,1.6903106344287508,0.45691245521563284,-1.2948161248879213, ,0.007346575873742929,-0.007447905586312854,0.00372168493457944,0.010813319076875742,0.0,0.0054187837290610545, ,0.1841740608215332
0.01019191353299934,0.020167483422843524,-0.08037963549782416, ,0.010401723685717125,0.020274587861817198,-0.0805692841486679, ,0.0003024206867894077, ,0.001453463667394574,0.0019862964134468005,-0.004587468452262154,0.0027062168356680335,-0.005180036798132639,-0.0062464368168831715, ,0.0052060346594128845, ,0.00584434673508801, ,2.6430299841623216e-05, ,0.17533692717639326,-0.2384934366218013,0.09083233659,1.6903106344287508,0.45691245521563284,-1.294897803628062, ,0.007732430835027925,-0.0091993406557875,0.005079340408163266,0.010813319076875742,0.0,0.008556796925685438, ,0.20462703704833984
0.010221257329970191,0.020205454870804246,-0.08046994811847481, ,0.010434251764224894,0.020315270846102074,-0.08064832460666801, ,0.00029873792694305414, ,0.0014447545036301208,0.0020171278093795864,-0.0043645392741835974,0.009262295568506228,-0.005533027909376865,-0.0077838394162883925, ,0.005020490339700206, ,0.010789092429882309, ,2.7051373600484905e-05, ,0.175499104566752,-0.23867105947790848,0.09093215092000001,1.6903106344287508,0.45691245521563284,-1.294897803628062, ,0.008088557459970464,-0.010165857758939733,0.00487119618348624,0.010813319076875742,0.0,0.0026990725997746504, ,0.2256159782409668
0.01025044167174283,0.020244643623134124,-0.08054786225859835, ,0.01046698970475891,0.02035523839725518,-0.08072768784182063, ,0.000302426015824128, ,0.0013084696648456877,0.0018438438499321043,-0.0035337332234384126,0.009802188732430068,-0.005972331152313367,-0.006539732453285166, ,0.004195130927776423, ,0.011478311843997351, ,2.7602435781978023e-05, ,0.17568445015573336,-0.23888729599838676,0.09102029864000001,1.6905203243722353,0.45691245521563284,-1.2948161248879213, ,0.008213830546331123,-0.010576357713650501,0.004012295093198993,0.009475245571166099,0.0,0.0023211211104093056, ,0.2484440803527832
0.01027832559151705,0.020285749165529506,-0.08062545140577349, ,0.01049993625033676,0.020394495922412242,-0.08080737091900955, ,0.0003066461324247649, ,0.0011022528676963852,0.0017995558019555616,-0.0032166366411147214,-0.004898462726106062,-0.003947490992342969,-0.0025916703737504376, ,0.003847091596213772, ,0.006291074778551072, ,2.8104368630141495e-05, ,0.17585435027896631,-0.2391267007174877,0.09110844636000001,1.69073001431572,0.45691245521563284,-1.2944077311872186, ,0.006375471597828614,-0.010966757336400073,0.003671078939847892,0.010264514668138863,0.0,0.018230712165832608, ,0.27111005783081055
0.010300102192568031,0.020319160121289773,-0.08068287702586965, ,0.01053309014875014,0.020433048810719563,-0.0808873709119775, ,0.0003302601561821197, ,0.0011319489804456984,0.0017001744244816651,-0.003086591141463586,-0.013568229096888068,-0.007068184415233874,0.009178572715004057, ,0.0037012087812706676, ,0.015298891184436926, ,2.8722935338228263e-05, ,0.17599335947070235,-0.2393352145050918,0.09117455715000002,1.6909397042592043,0.45691245521563284,-1.2940810162266563, ,0.007065885995761861,-0.010639914675944336,0.0035256333598937583,0.0,0.0,0.02513209071205227, ,0.29291796684265137
0.010326631706158685,0.020357112320458014,-0.08075199910636051, ,0.010566450152556937,0.020470902433359233,-0.080967684903317, ,0.00034202549617784586, ,0.0013449228707560995,0.0018970865350791837,-0.003647666329380003,0.012409595907324907,-0.00436995407356608,-0.013883330758892901, ,0.004325878465740127, ,0.013156540903383585, ,2.9566860251551716e-05, ,0.17616325959393528,-0.23955145102557007,0.09125363084,1.6913590841461734,0.45691245521563284,-1.293590943785813, ,0.008323282756583545,-0.010455301372501263,0.0041405800675851315,0.01666114633306072,0.0,0.0007530817252881759, ,0.311445951461792
0.010354236119503297,0.020392385948915206,-0.08082485633050693, ,0.01060001501907358,0.02050806214357399,-0.0810483099844607, ,0.0003517382335629882, ,0.0015431268958479697,0.001995151002571039,-0.004569993521891737,0.01902315674733268,-0.01128497376422882,0.00821245616813513, ,0.005219838017590398, ,0.022118569653112687, ,3.0383905298009694e-05, ,0.176325436984294,-0.23973679661455147,0.09133529711,1.691568774089658,0.4567758187158674,-1.2931528109215544, ,0.00887654610095769,-0.01018141667581143,0.005077721236850495,-0.010128378005159587,0.0,-0.011209886091490633, ,0.3316359519958496
0.010389657392197302,0.020438006266665427,-0.08093394936492483, ,0.010633783510366805,0.020544533276692235,-0.08112924325567096, ,0.0003302805916194933, ,0.0017293465244770498,0.002124278776474837,-0.005239662261935856,0.011382932201517888,-0.012067249794683899,0.010306278424902256, ,0.0059124665192334955, ,0.016588841405064572, ,3.0969202943884965e-05, ,0.17651850530614963,-0.23994531040215553,0.09145585208000001,1.691568774089658,0.4567758187158674,-1.2931528109215544, ,0.009659419878006755,-0.009698264819180919,0.0057775885092491855,-0.010128378005159587,0.0,-0.0037237313891236596, ,0.3496079444885254
0.010422526035898709,0.020474457235705783,-0.08102549127643828, ,0.01066775439324611,0.02058032115015297,-0.0812104818260311, ,0.0003249086318767812, ,0.0018257611152631473,0.001984759467610496,-0.004586420541840881,0.011279496845624938,-0.0088011565958466,-0.011688261275884102, ,0.005320519446529299, ,0.014306900589773769, ,3.1460636117934024e-05, ,0.17671929636087946,-0.24010748779251423,0.09155696270000001,1.6913590841461734,0.4567758187158674,-1.2929894534412731, ,0.012064192926324787,-0.008731588496424445,0.005126749765046669,0.01372109152213288,0.0,-0.0003562222407628799, ,0.3691580295562744
0.010460411575100508,0.020514099171571754,-0.08110615056502646, ,0.010701926439255584,0.020615431063530507,-0.08129202281343478, ,0.00032116362599795016, ,0.0016499256982586317,0.0015910061978714643,-0.003356836610607037,0.006162685246219242,-0.00535744757948052,-0.025596167432069463, ,0.004064714942250119, ,0.008165839429269543, ,3.188171816068843e-05, ,0.17699731474435154,-0.2402851106486214,0.09164899929,1.6921978439201113,0.4567758187158674,-1.2929077747011326, ,0.012470031742243202,-0.006917699817927032,0.0038253629971181564,0.029871709161113074,0.0,0.006014564468169485, ,0.38886404037475586
0.010495359441707442,0.020546637835159594,-0.08118172995166925, ,0.01073629842466614,0.020649868298559953,-0.08137386334457726, ,0.0003249974811492669, ,0.0019060318205296326,0.0015328931342683855,-0.004320939306689889,-0.022529766396437494,-0.022377240761931178,0.04241321445168253, ,0.004965202428306057, ,0.03175423241851785, ,3.2286017211924034e-05, ,0.17725988766207518,-0.24042411984035744,0.09173325814000001,1.6924075338635962,0.45691245521563284,-1.2926924776442668, ,0.013835390225757511,-0.006550983205889935,0.004749198425760287,-0.03628443745098694,0.0,0.02385330452550631, ,0.40637803077697754
0.010534250578453003,0.02057927085327656,-0.08126888059483689, ,0.010770869130467587,0.02068363811916148,-0.08145600055494474, ,0.0003192095625393086, ,0.0020442556112409927,0.0014911321572364884,-0.004379024350559717,-0.037440974470505275,-0.02063473355066017,0.03454961977314991, ,0.005057500408030629, ,0.042750658432327594, ,3.262259966962523e-05, ,0.17756107424416992,-0.24053996083347082,0.09183177618,1.6924075338635962,0.45704909171539826,-1.2923955018472604, ,0.015276391107287634,-0.005226131103986261,0.004835704772313298,-0.022898579328218288,7.547114205616681e-05,0.040399276446069755, ,0.42685914039611816
0.010554290579302598,0.02059668420250631,-0.08131520526247163, ,0.010805637342360702,0.020716745771465858,-0.08153843158880522, ,0.0003569593371929164, ,0.002073363228007466,0.0016466270856932317,-0.0046956224620292916,-0.016976635387187827,-0.017149299328230963,0.026173701524359695, ,0.005390648026026755, ,0.024130988670918386, ,3.33066482840164e-05, ,0.17771552890165443,-0.2406017426964646,0.09188362778,1.6924075338635962,0.45718572821516373,-1.2924252410108161, ,0.015164100600586573,-0.005912877660082336,0.005191920312907433,-0.019326062891049888,0.002706478455629062,0.02057245359491453, ,0.4420359134674072
0.010595933071344895,0.020629140366507502,-0.08140792742696275, ,0.010840601850749225,0.020749196483838866,-0.0816211535991987, ,0.0003460371128221439, ,0.0022850709983907153,0.0018644136971030928,-0.005175252948009456,-0.0005540857145476286,-0.0139069673357921,0.003800935219342346, ,0.005956578798061227, ,0.013918000853047369, ,3.388557430880629e-05, ,0.17801671548374917,-0.24070986095670374,0.09198603469000001,1.6921978439201113,0.45718572821516373,-1.2921802047903945, ,0.01651817955761023,-0.006066831104436299,0.0057339134341252715,0.0,0.002706478455629062,0.007035902806462222, ,0.46065497398376465
0.01064430831146896,0.020667648159935808,-0.08151034337466156, ,0.010875761450732092,0.02078099546690666,-0.08170416374792698, ,0.0003224662846950797, ,0.002165757005493792,0.0016755039678620891,-0.004417269323392867,0.019652344684381755,-0.011453767419759743,-0.012274089129935876, ,0.005197122783671242, ,0.022746503863625214, ,3.430768947976389e-05, ,0.1783719611959635,-0.2408179792169429,0.09210010821,1.6928269137505652,0.45718572821516373,-1.2920168473101135, ,0.01661651927131339,-0.005538802853022622,0.0049437652141527,0.010750520377382606,0.002706478455629062,-0.012681469401961059, ,0.4780299663543701
0.010666076189106812,0.0206835123677415,-0.08155598894423739, ,0.010911114942095318,0.020812147913580447,-0.08178745920554492, ,0.00036079021049526986, ,0.0021280865226604214,0.0016578182563889198,-0.0046578938397732125,0.017519937940729202,-0.01046153204304624,-0.012038068602527733, ,0.005382665570304601, ,0.020405682442450775, ,3.488489705936639e-05, ,0.17853413858632222,-0.24086431561418822,0.09215066352000001,1.6928269137505652,0.45718572821516373,-1.291935168569973, ,0.01562604010513268,-0.004670379374214601,0.005166659591307169,0.010750520377382606,0.002706478455629062,-0.011344549676837994, ,0.49375295639038086
0.01068715333415007,0.020701447513636846,-0.08160337437249919, ,0.010946661129304239,0.020842658999081214,-0.08187103715134944, ,0.0003986581775770075, ,0.0021367714062471223,0.0016123405508734348,-0.004755243856973987,0.0015541977179174683,-0.017332404225729504,0.02347649363170231, ,0.005456901889702159, ,0.01740194714274881, ,3.56000076990027e-05, ,0.17869631597668093,-0.2409183747443078,0.09220381141,1.6930366036940496,0.4573223647149292,-1.29212826521381, ,0.015824068960892244,-0.005416596082550444,0.005255299082810954,-0.022427690045668868,0.0039867008670250404,0.0002249345265415546, ,0.509580135345459
0.010731803644573337,0.020736133852362136,-0.08170452645278588, ,0.010982398821495407,0.020872533880965244,-0.08195489477337076, ,0.00037958820641851464, ,0.0021972147808252255,0.00184763213625252,-0.005162849526215005,0.007130637673764004,-0.008203558203741178,-0.011285525894477249, ,0.005907327021109327, ,0.010869423037517659, ,3.618470793454304e-05, ,0.17901294802452414,-0.24102649300454695,0.09231529235000001,1.6928269137505652,0.4573223647149292,-1.2919649077335287, ,0.015407848929772816,-0.005215436194395825,0.005713347030129125,0.014080703108485703,0.0039867008670250404,0.000778792866314259, ,0.5250599384307861
0.010770312653954948,0.02076852600082397,-0.0817984613376101, ,0.011018326832468705,0.020901777699148246,-0.08203902926836217, ,0.00037032415146259464, ,0.002363168106090758,0.001930493978113291,-0.005609368002579974,0.004342409361542373,-0.008991950517007302,-0.007970608315133335, ,0.0063856385652136865, ,0.009985573974989208, ,3.669353922115519e-05, ,0.179283243675122,-0.24111916579903764,0.09241899555000001,1.6928269137505652,0.4574590012146946,-1.2919946468970847, ,0.01649520972683309,-0.00495319885247804,0.006188349463869465,0.011499944626452421,0.004933733827682605,0.003034617196145168, ,0.5416619777679443
0.010798322549443852,0.020792213042429147,-0.08186635321815881, ,0.011054443980679438,0.02093039557593101,-0.08212343784179052, ,0.00038831057648615986, ,0.002297860515292547,0.0019440850585319691,-0.005508072726146965,0.003968280608347311,-0.007656442433444105,-0.005533244707004489, ,0.006276822031814493, ,0.008623708984731639, ,3.7406036429457006e-05, ,0.17948403472985183,-0.24118867039490566,0.09249418037000001,1.6928269137505652,0.4575956377144601,-1.2919427073204997, ,0.016054295645148164,-0.005477173631294259,0.0060913237170172095,0.009632885632199597,0.006323713278049785,0.0037399626064105167, ,0.5558669567108154
0.010848940543535935,0.02083609353035901,-0.08198994120636831, ,0.011090749089230243,0.020958392616023447,-0.082208117707826, ,0.00034789283538680924, ,0.0024252582423959935,0.0021138295740329616,-0.005827289431022226,0.0016398866134912707,-0.0075713643651974995,-0.010324520277966721, ,0.006656384538416438, ,0.007746920661543687, ,3.7916187738589514e-05, ,0.1798161122434435,-0.2412967886551448,0.09263029082,1.6934559835810188,0.4575956377144601,-1.2916976711000783, ,0.01671898195180951,-0.0061742916706299,0.006454137568881686,0.01585087633654995,0.005553146814955839,0.007959367544822887, ,0.569159984588623
0.01087188608926734,0.020855742439474093,-0.0820473944661799, ,0.011127240985863302,0.02098577390657054,-0.0822930660893332, ,0.0003774504630724018, ,0.0025267497241741373,0.002129566796393122,-0.006236518031733723,-0.0031715739482526587,-0.011191370177211012,-0.010402306692315483, ,0.007057880423261223, ,0.011632095181792328, ,3.8520838289560743e-05, ,0.1799782896338022,-0.2413508477852644,0.09269380903,1.6934559835810188,0.45773227421422547,-1.2916457315234935, ,0.016639828433889316,-0.005208583349112122,0.006851101729032258,0.01585087633654995,0.0017107700000204126,0.011681635915209963, ,0.5831100940704346
0.010896549191612655,0.02087849798158074,-0.08211678070971021, ,0.011163918502952237,0.021012544517176227,-0.08237828021786064, ,0.0003972868171916545, ,0.0024606230352541857,0.002299918811128217,-0.006909620207534474,0.0076331602465594265,0.0010472007322454473,-0.01046366253200004, ,0.00768681622466504, ,0.007704657615599892, ,3.917501855512881e-05, ,0.18014818975703514,-0.24140490691538394,0.09277029014,1.6934559835810188,0.45800554721375636,-1.2918685673308863, ,0.015495908157816913,-0.005167418705678803,0.007574327874465051,0.01585087633654995,0.013232786594021185,0.0012937785547079495, ,0.5985679626464844
0.010955649852252173,0.02092557862632875,-0.0822626457378696, ,0.011200780477494145,0.021038709499928945,-0.08246375733363084, ,0.00033665040018199884, ,0.002440367385545614,0.001833908908079776,-0.005585213515808137,0.005886670825195815,-0.004240661700840363,-0.007892873030095868, ,0.006364999990316966, ,0.007255074060972359, ,3.95657888968643e-05, ,0.18053432640074638,-0.2415130251756231,0.09292973381000001,1.6934559835810188,0.45800554721375636,-1.2917052098506052, ,0.01787809750536375,-0.003731913831412342,0.00617635188832881,0.012184683883295841,0.011126613018112956,0.0008082685886050649, ,0.6119539737701416
0.010979703388719512,0.0209436637034269,-0.08231950473825886, ,0.011237825751101715,0.021064273889426215,-0.0825494946855317, ,0.0003661548125794933, ,0.0025600282263213555,0.002056794319647701,-0.006154038825138844,0.004392023802380547,-0.005649054546688873,-0.0063332351083617115, ,0.006975409755291326, ,0.007155535027193056, ,4.004984934497824e-05, ,0.18069650379110508,-0.24155163883999423,0.09299195573,1.6934559835810188,0.45800554721375636,-1.291541852370324, ,0.017935539890090866,-0.004694619010699782,0.006789774731457802,0.011112914834977457,0.00998858021742313,0.003071707470404988, ,0.625669002532959
0.011036399874538114,0.0209864607721573,-0.08244820530353242, ,0.01127505316999516,0.021089242702799545,-0.08263548953110536, ,0.00032030439053601736, ,0.002500784862619406,0.001739392696550595,-0.005360501353668806,0.003097346459460651,-0.005601357735296248,-0.008634082513812844, ,0.006165580803509513, ,0.0064006842714304495, ,4.0343986456986134e-05, ,0.1811135313663132,-0.2416365889016107,0.09313454763000001,1.693875363467988,0.4582788202132873,-1.2915196519572953, ,0.018926394407353563,-0.0031870980129018152,0.005943586388059703,0.013458968745980964,0.010482429898812982,0.003351081581545544, ,0.6443240642547607
0.01106084210021926,0.021002657387299964,-0.08250226960708103, ,0.011312461584994233,0.021113620939739484,-0.08272173913653903, ,0.0003518410855044353, ,0.0024274717764485127,0.0015081873574024367,-0.005047033922769276,-0.0001825484953607022,-0.007106158365220415,-0.008569063781898626, ,0.005799982736876591, ,0.007108502471686857, ,4.08859400787172e-05, ,0.1812988769552946,-0.24165975710023335,0.09319417697000001,1.693875363467988,0.45841545671305267,-1.2914677123807106, ,0.018534558898138823,-0.0014999849577037863,0.005569514517482518,0.013016504167164716,0.008622438495033528,0.004812732934358119, ,0.655224084854126
0.011087034166083884,0.021019477111702475,-0.08255863148089516, ,0.011350049851510379,0.021137413582520366,-0.08280824077665554, ,0.00038130179970639704, ,0.002662932558140763,0.0018683543560004253,-0.006062456046663487,0.00292463558493032,-0.009435631613510468,-0.008288104653690002, ,0.006880067668745602, ,0.009878493258654879, ,4.151314610464915e-05, ,0.18149966801002443,-0.24168292529885604,0.09325639889000001,1.693875363467988,0.45855209321281815,-1.2914974515442665, ,0.01893016987003207,-0.0027482630013704037,0.0066592021404682285,0.011802881262145305,0.0069192025722666,0.002491482557012384, ,0.6663799285888672
0.011113293496441015,0.02103723040420365,-0.08261878476873345, ,0.011387816829538558,0.021160625596025023,-0.082894991734903, ,0.00040850914547927076, ,0.0026983543267377072,0.0017727083088055794,-0.006062857874223088,0.002186670467943209,-0.00245462185946034,-0.00528613547054999, ,0.006868905038196506, ,0.0032873527368343365, ,4.2213297376272936e-05, ,0.18169273633188004,-0.2417060934974787,0.09332250968000001,1.693875363467988,0.45868872971258356,-1.2914455119676818, ,0.020177959081112223,-0.0015998099946536244,0.006673151034771681,0.010834142492091128,0.015699383253720556,0.002620345052291139, ,0.6792540550231934
0.011146352661299447,0.021057446085190452,-0.0826908659450891, ,0.011425761383649289,0.021183261927770106,-0.0829819893033448, ,0.00042267205974759155, ,0.0027943389427489383,0.0017953154960458858,-0.006352618764169128,0.00024287044190867852,-0.005898327538601642,-0.0049513018393428955, ,0.007168490288769278, ,0.005903324780018639, ,4.293797399567782e-05, ,0.1819398637838552,-0.24172153896322715,0.09340158337000001,1.693875363467988,0.45882536621234904,-1.2915569298713783, ,0.02034232402110842,-0.0010931857899229265,0.006958851690694627,0.009865444080976811,0.012535807510240487,0.0036966163273624356, ,0.690669059753418
0.011174664216354315,0.021075660951822877,-0.0827551763868814, ,0.011463882382980793,0.021205327507930388,-0.08306923078265117, ,0.0004461958394941395, ,0.002958265582537314,0.0018545920734797613,-0.0068504504203646234,0.0007710535675574812,-0.009775196993468118,0.003442106652377985, ,0.007688921769514412, ,0.00980555887129353, ,4.371745537451873e-05, ,0.18213293210571083,-0.24172926169610137,0.09347158303000001,1.6940850534114722,0.45882536621234904,-1.2914752511312377, ,0.021149307233891416,-0.0007907923369317777,0.007471299962476548,0.0,0.011803286506014489,0.0009671584102111386, ,0.7016921043395996
0.011208615298950016,0.021097912517878244,-0.08283469232802282, ,0.011502178701230851,0.021226827249364033,-0.08315671348208761, ,0.000454418422621679, ,0.0032164128163418245,0.0021142035336588322,-0.007808465376127875,-0.0035894217297973516,-0.015808213685742395,-0.0018349113956792715, ,0.008705590130315766, ,0.016210599595933434, ,4.449835320812497e-05, ,0.18236461409193758,-0.2417369844289756,0.09355454559000001,1.6942947433549567,0.45896200271211446,-1.2915049902947933, ,0.021387636141192424,-0.0008291632893379209,0.008432404192694549,0.005045798345483668,0.004464972721315352,0.0059053046013174265, ,0.7179241180419922
0.011281561343615987,0.02114829335147205,-0.08301930632005511, ,0.011540649216648834,0.021247766047637517,-0.08324443471950635, ,0.0003573571595401291, ,0.002940416622592833,0.0018238631825826283,-0.007154103018025312,0.0033695276224526482,-0.007529464103258805,0.01190625132899948, ,0.007946931282936802, ,0.008249031903227177, ,4.493765416414941e-05, ,0.18286659172876216,-0.24174470716184981,0.09375935941,1.6947141232419258,0.45937191221141077,-1.2915942077854612, ,0.020598424475465765,0.0,0.00777015196097561,-0.009394650318030322,0.01590455259571651,-0.0039492632648093105, ,0.7295389175415039
0.011281561343615987,0.02114829335147205,-0.08301930632005511, ,0.01157929281202774,0.021268148781049986,-0.083332391821336, ,0.00044836579083850714, ,0.003155118814224557,0.00183573471941111,-0.007172887133258366,0.006586497810579979,-0.009974643359971247,0.010940827751480552, ,0.008048292149169821, ,0.011953051684812427, ,4.580136855058642e-05, ,0.18309055098211469,-0.24174470716184981,0.09383843310000001,1.6947141232419258,0.45937191221141077,-1.2915125290453204, ,0.023038830191422863,0.0,0.00781974055964654,-0.009394650318030322,0.01590455259571651,-0.0073107485907965685, ,0.7384231090545654
0.0113141325248744,0.021167223634806505,-0.08309226864555026, ,0.011618108374696137,0.02128798031065858,-0.08342058212257206, ,0.00046343632921020593, ,0.003155118814224557,0.00183573471941111,-0.007172887133258366,0.006586497810579979,-0.009974643359971247,0.010940827751480552, ,0.008048292149169821, ,0.011953051684812427, ,4.669099031251613e-05, ,0.18309055098211469,-0.24174470716184981,0.09383843310000001,1.6947141232419258,0.45937191221141077,-1.2915125290453204, ,0.023038830191422863,0.0,0.00781974055964654,-0.009394650318030322,0.01590455259571651,-0.0073107485907965685, ,0.7472550868988037
0.011349781215172806,0.02118835310379982,-0.08317098425423114, ,0.011657094796510205,0.02130726548030326,-0.08350900296676668, ,0.0004720576665877783, ,0.003316543301370433,0.001963348291575727,-0.00773909425867949,0.00020942788092527775,-0.011234545297708263,0.012558855953140591, ,0.00864567961056991, ,0.011236495909382608, ,4.758532794680364e-05, ,0.18333767843408985,-0.24175242989472406,0.09392398824,1.6947141232419258,0.45937191221141077,-1.2913491715650394, ,0.023582738955882403,0.00017705880030740334,0.00841458611727417,-0.009394650318030322,0.015152065806667359,-0.0008992506879092303, ,0.7580530643463135
0.011363228258413637,0.021196111659636415,-0.08320086901538726, ,0.011696250973845664,0.021326009116631395,-0.08359765170601952, ,0.0005340542874210987, ,0.00347610748659279,0.0020160010559840662,-0.007935499892739728,-0.0006154142435269546,-0.013623097299858588,0.01249630106586655, ,0.008894927884122925, ,0.013636989523512251, ,4.864945480635126e-05, ,0.18343035122858056,-0.24175242989472406,0.09395639549000001,1.6947141232419258,0.45937191221141077,-1.2913491715650394, ,0.024900798099834892,0.0001739303215442153,0.00863350217886179,-0.009394650318030322,0.014039854371732077,-0.00012694857435203988, ,0.7676351070404053
0.011425082840885056,0.021234884382602934,-0.08335111800818727, ,0.011735575807589804,0.021344216029122898,-0.08368652570096717, ,0.0004699549038788904, ,0.0033522319608097245,0.0022556515287791555,-0.008776645701394484,0.023125211358508698,0.017083220801974663,0.014238418507814413, ,0.009662035639872387, ,0.028750857052757473, ,4.949152540162186e-05, ,0.18389371520103404,-0.24174470716184981,0.09412102432000001,1.6947141232419258,0.460055094710238,-1.2916612248630996, ,0.02456560744459508,8.191270244324857e-05,0.009601453598553349,-0.009394650318030322,0.04559059752868393,-0.02225230262103718, ,0.7767601013183594
0.011461804044496012,0.021257511132205302,-0.08344089513240247, ,0.011775068203133463,0.02136189101011485,-0.08377562232077394, ,0.00047018281831040715, ,0.003842998964501217,0.0024584687281607926,-0.009736443022068832,0.004220449788394268,-0.00622610784522872,0.013061347689564032, ,0.01075225707702782, ,0.007521737021331524, ,5.031393240072736e-05, ,0.1841408426530092,-0.2417369844289756,0.09421824607000001,1.6947141232419258,0.4601917312100034,-1.2916909640266556, ,0.025956493861726142,0.0003984309046241761,0.010555872445328034,-0.009056090850662044,0.022734249651268083,-0.0046442070766593, ,0.7855870723724365
0.011503310524945978,0.021284003024596137,-0.08354706734789244, ,0.011814727070362943,0.02137903883482648,-0.08386493894312169, ,0.0004550323296636885, ,0.004085038974049733,0.0027326290810043377,-0.01055937345377286,-0.0024014174241966395,-0.009692410985032197,-0.0028341705323077864, ,0.01164711006430775, ,0.00998546468975638, ,5.1071474490461034e-05, ,0.18439569283785862,-0.2417369844289756,0.09433231959,1.6945044332984414,0.4601917312100034,-1.2915276065463746, ,0.02607058834023922,0.0003984309046241761,0.011418502881720433,0.008357545527110738,0.014916889300284413,0.004861620926802285, ,0.7944300174713135
0.011503310524945978,0.021284003024596137,-0.08354706734789244, ,0.011854551323652136,0.02139566426138405,-0.08395447295420044, ,0.0005493793393712018, ,0.004085038974049733,0.0027326290810043377,-0.01055937345377286,-0.0024014174241966395,-0.009692410985032197,-0.0028341705323077864, ,0.01164711006430775, ,0.00998546468975638, ,5.2243560040460493e-05, ,0.18439569283785862,-0.2417369844289756,0.09433231959,1.6945044332984414,0.4601917312100034,-1.2915276065463746, ,0.02607058834023922,0.0003984309046241761,0.011418502881720433,0.008357545527110738,0.014916889300284413,0.004861620926802285, ,0.8018131256103516
0.011545946001643768,0.02131097157932494,-0.08365378172866164, ,0.011894539881854318,0.021411772030845575,-0.0840442217486981, ,0.0005330307998540851, ,0.004557943573246475,0.002794758605181244,-0.01083986833715084,-0.012513960463979346,-0.02754287901119423,-0.003687351224762339, ,0.012086698095216028, ,0.03025242537474302, ,5.334707945316637e-05, ,0.1846737112213307,-0.24172926169610137,0.0944476894,1.6945044332984414,0.46032836770976887,-1.29155734570993, ,0.029471099862879126,0.0004760893249396979,0.011712361411764708,0.007996720399199067,0.0,0.014062223541355976, ,0.8086059093475342
0.011597376902159298,0.021347956664392664,-0.08379103519959803, ,0.01193469166829427,0.021427366867225805,-0.0841341827297907, ,0.00048768582022037525, ,0.0044822128917901905,0.0031212820502629097,-0.011952171801066185,0.04706548363377152,0.029743720700233175,-0.007185696802079016, ,0.013141044281442221, ,0.055676282444697675, ,5.42995346329945e-05, ,0.18503667966641926,-0.24172153896322715,0.09459805904000002,1.6949238131854105,0.4610115502085961,-1.2919510777481313, ,0.03191959016430231,0.0006259861587090394,0.013077841970443352,0.011017864244562673,0.06131672455616041,-0.042729586596203566, ,0.8153619766235352
0.011597376902159298,0.021347956664392664,-0.08379103519959803, ,0.011975005610760137,0.02144245347752085,-0.08422435330913332, ,0.0005824926379810774, ,0.0044822128917901905,0.0031212820502629097,-0.011952171801066185,0.04706548363377152,0.029743720700233175,-0.007185696802079016, ,0.013141044281442221, ,0.055676282444697675, ,5.55087393421648e-05, ,0.18537647991288514,-0.24171381623035293,0.09473157691,1.695133503128895,0.4611481867083615,-1.291817459431406, ,0.03289322064418398,0.0008376950706604392,0.01352191130730051,0.011843212650890875,0.03317776835325565,-0.011012869325913948, ,0.8230199813842773
0.01165221675855091,0.02138225592610357,-0.08392248177363824, ,0.01201548064149555,0.021457036551733318,-0.08431473090684886, ,0.0005398260582132697, ,0.004925836349114145,0.003204213484966867,-0.01240715245312764,0.013228949926804963,0.0002853584197844439,-0.006143892351509386, ,0.01372837498725355, ,0.01323201615721037, ,5.657531031412702e-05, ,0.18537647991288514,-0.24171381623035293,0.09473157691,1.695133503128895,0.4611481867083615,-1.291817459431406, ,0.03289322064418398,0.0008376950706604392,0.01352191130730051,0.011843212650890875,0.03317776835325565,-0.011012869325913948, ,0.829571008682251
0.011703311239884447,0.021412598335167777,-0.08404465557143573, ,0.012056115697191373,0.021471120762897058,-0.08440531295151975, ,0.0005079070834828289, ,0.0051875914665658615,0.0030080034717238236,-0.011875894967285108,-0.026308381667404918,-0.0294851320914546,-0.0028475680494692377, ,0.013303987048395577, ,0.039515866739579096, ,5.753333057628127e-05, ,0.18570083469360257,-0.2416983707646045,0.09485731704000001,1.695133503128895,0.46128482320812697,-1.2917655198548212, ,0.03465921897679722,0.0013619079460737776,0.012908275137763372,0.011843212650890875,0.0016346742711922473,0.029925148555042372, ,0.8383030891418457
0.011746309720658661,0.021437285369478996,-0.08414946409292717, ,0.012096909718977887,0.021484710767101643,-0.08449609688017702, ,0.0004953017427363908, ,0.005219140423360156,0.003013992465208502,-0.0126128418608852,0.022638077024163976,-0.00982023397520096,-0.012609285743432872, ,0.01397881815987259, ,0.02467628836511475, ,5.84397961689991e-05, ,0.18604835767294267,-0.24166747983310757,0.09498694604,1.695133503128895,0.4616947327074232,-1.291854737345489, ,0.03509502276570665,0.0035248871472592243,0.013649367197943447,0.011843212650890875,0.023320560993613796,-0.02312913039463321, ,0.8461599349975586
0.011746309720658661,0.021437285369478996,-0.08414946409292717, ,0.01213786165241668,0.021497811203517913,-0.08458708013829115, ,0.0005903254145041951, ,0.005219140423360156,0.003013992465208502,-0.0126128418608852,0.022638077024163976,-0.00982023397520096,-0.012609285743432872, ,0.01397881815987259, ,0.02467628836511475, ,5.976227053259182e-05, ,0.18604835767294267,-0.24166747983310757,0.09498694604,1.695133503128895,0.4616947327074232,-1.291854737345489, ,0.03509502276570665,0.0035248871472592243,0.013649367197943447,0.011843212650890875,0.023320560993613796,-0.02312913039463321, ,0.8506369590759277
0.011805380038003903,0.02147254944912705,-0.08429194619869095, ,0.012178970447492499,0.02151042669442209,-0.0846782601797616, ,0.0005387420270812881, ,0.0053044138410958735,0.0029414507458727147,-0.011573607930247276,0.002968449703515563,-0.009069746118240124,-0.004553010639694995, ,0.013066649884767223, ,0.009543153600144247, ,6.092676354930322e-05, ,0.186473107981025,-0.2416443116344849,0.09514250084,1.695133503128895,0.46224127870648507,-1.292218730220134, ,0.03863881985279755,0.0015899916937520517,0.012662012337042927,0.011843212650890875,0.027749483587836864,-0.00024934053840416914, ,0.8550050258636475
0.011805380038003903,0.02147254944912705,-0.08429194619869095, ,0.012220235058605367,0.02152256184522118,-0.08476963446690781, ,0.0006346589710020246, ,0.0053044138410958735,0.0029414507458727147,-0.011573607930247276,0.002968449703515563,-0.009069746118240124,-0.004553010639694995, ,0.013066649884767223, ,0.009543153600144247, ,6.234335317334582e-05, ,0.186473107981025,-0.2416443116344849,0.09514250084,1.695133503128895,0.46224127870648507,-1.292218730220134, ,0.03863881985279755,0.0015899916937520517,0.012662012337042927,0.011843212650890875,0.027749483587836864,-0.00024934053840416914, ,0.8594861030578613
0.011863896309859305,0.02150179707667297,-0.08442005785653856, ,0.01226165444456253,0.021534221244477493,-0.08486120047045898, ,0.0005948694530709614, ,0.006488109720818212,0.0031903070129800726,-0.014591060992435406,-0.02674761618971436,-0.037592222235256614,-0.005290215422412462, ,0.016284123785804863, ,0.046136856016232984, ,6.363506401599491e-05, ,0.18676657183024553,-0.241613420702988,0.09523972259,1.695133503128895,0.46224127870648507,-1.2921370514799935, ,0.0428622138927149,0.006446657964626924,0.014984770950141113,0.011843212650890875,0.021145856610317898,0.006426473463947993, ,0.8640689849853516
0.011863896309859305,0.02150179707667297,-0.08442005785653856, ,0.01230322756857024,0.02154540946393329,-0.08495295566954345, ,0.0006920217296505019, ,0.006488109720818212,0.0031903070129800726,-0.014591060992435406,-0.02674761618971436,-0.037592222235256614,-0.005290215422412462, ,0.016284123785804863, ,0.046136856016232984, ,6.517810117888701e-05, ,0.18676657183024553,-0.241613420702988,0.09523972259,1.695133503128895,0.46224127870648507,-1.2921370514799935, ,0.0428622138927149,0.006446657964626924,0.014984770950141113,0.011843212650890875,0.021145856610317898,0.006426473463947993, ,0.8685770034790039
0.011930527475664393,0.021538360479322925,-0.0845845548409727, ,0.012344953398226007,0.0215561310585364,-0.08504489755168064, ,0.000619661238160465, ,0.0069414095349215055,0.00401904698233257,-0.017607926646442305,0.009981225906138322,-0.006430549092648595,-0.006492973320859582, ,0.019348772203015587, ,0.011873295232323302, ,6.650773442835084e-05, ,0.18733033133006394,-0.24152847064137153,0.09545879560000001,1.695133503128895,0.4627878247055468,-1.292419365614498, ,0.04493226399548806,0.006665936975350208,0.018985472610250298,0.011843212650890875,0.037033110253901644,-0.012017662120891396, ,0.8753979206085205
0.011930527475664393,0.021538360479322925,-0.0845845548409727, ,0.01238683090551025,0.021566390566464134,-0.08513702361276963, ,0.0007170915211359338, ,0.0069414095349215055,0.00401904698233257,-0.017607926646442305,0.009981225906138322,-0.006430549092648595,-0.006492973320859582, ,0.019348772203015587, ,0.011873295232323302, ,6.808631835342984e-05, ,0.18733033133006394,-0.24152847064137153,0.09545879560000001,1.695133503128895,0.4627878247055468,-1.292419365614498, ,0.04493226399548806,0.006665936975350208,0.018985472610250298,0.011843212650890875,0.037033110253901644,-0.012017662120891396, ,0.8824539184570312
0.011930527475664393,0.021538360479322925,-0.0845845548409727, ,0.012428859066778486,0.021576192509148634,-0.08522933135708001, ,0.0008157833002130628, ,0.0069414095349215055,0.00401904698233257,-0.017607926646442305,0.009981225906138322,-0.006430549092648595,-0.006492973320859582, ,0.019348772203015587, ,0.011873295232323302, ,6.99132287391992e-05, ,0.18733033133006394,-0.24152847064137153,0.09545879560000001,1.695133503128895,0.4627878247055468,-1.292419365614498, ,0.04493226399548806,0.006665936975350208,0.018985472610250298,0.011843212650890875,0.037033110253901644,-0.012017662120891396, ,0.8870511054992676
0.011930527475664393,0.021538360479322925,-0.0845845548409727, ,0.012471036862753117,0.02158554139130154,-0.08532181829724202, ,0.0009153872622755568, ,0.0069414095349215055,0.00401904698233257,-0.017607926646442305,0.009981225906138322,-0.006430549092648595,-0.006492973320859582, ,0.019348772203015587, ,0.011873295232323302, ,7.198692073063545e-05, ,0.18733033133006394,-0.24152847064137153,0.09545879560000001,1.695133503128895,0.4627878247055468,-1.292419365614498, ,0.04493226399548806,0.006665936975350208,0.018985472610250298,0.011843212650890875,0.037033110253901644,-0.012017662120891396, ,0.8918759822845459
0.012089473627443179,0.02163651719003457,-0.08501166047879133, ,0.012513363278515535,0.02159444170093897,-0.08541448195423672, ,0.0005862746149620311, ,0.007986863352656933,0.004737655209117728,-0.02157921937647006,0.01723717785581151,-0.011511695877395343,-0.008710025578064988, ,0.02349251097674141, ,0.020727632839536787, ,7.316325257505238e-05, ,0.1883265638708389,-0.2413894614496355,0.09591897855,1.695133503128895,0.4638809167036703,-1.2932290301039289, ,0.04761512371222819,0.0096447891323158,0.02311873950653121,0.009688454030134557,0.03508471755014446,-0.023208164786717788, ,0.8971350193023682
0.012089473627443179,0.02163651719003457,-0.08501166047879133, ,0.012555837303497927,0.021602897909406126,-0.08550731985738605, ,0.0006813982344871288, ,0.007986863352656933,0.004737655209117728,-0.02157921937647006,0.01723717785581151,-0.011511695877395343,-0.008710025578064988, ,0.02349251097674141, ,0.020727632839536787, ,7.477660796473958e-05, ,0.1883265638708389,-0.2413894614496355,0.09591897855,1.695133503128895,0.4638809167036703,-1.2932290301039289, ,0.04761512371222819,0.0096447891323158,0.02311873950653121,0.009688454030134557,0.03508471755014446,-0.023208164786717788, ,0.8994119167327881
0.012089473627443179,0.02163651719003457,-0.08501166047879133, ,0.012598457931475302,0.021610914471402367,-0.08560032954434303, ,0.0007786217243886401, ,0.007986863352656933,0.004737655209117728,-0.02157921937647006,0.01723717785581151,-0.011511695877395343,-0.008710025578064988, ,0.02349251097674141, ,0.020727632839536787, ,7.663863208226311e-05, ,0.1883265638708389,-0.2413894614496355,0.09591897855,1.695133503128895,0.4638809167036703,-1.2932290301039289, ,0.04761512371222819,0.0096447891323158,0.02311873950653121,0.009688454030134557,0.03508471755014446,-0.023208164786717788, ,0.901724100112915
0.012089473627443179,0.02163651719003457,-0.08501166047879133, ,0.012641224160557482,0.021618495825005694,-0.08569350856108195, ,0.0008773085134163546, ,0.008151641520603391,0.003814589086986601,-0.01918148453850504,0.00037573128429926986,-0.032969973931744,-0.009238586742125446, ,0.021187961168642216, ,0.032972075433946244, ,7.875121752113934e-05, ,0.18884398697341193,-0.24125817499077368,0.09613675527000001,1.695133503128895,0.4638809167036703,-1.2932290301039289, ,0.05292634777382642,0.013154165720430223,0.02055330518709678,0.008862604429864803,0.01852270662460888,-0.010695891276160416, ,0.9046950340270996
0.012173690654162368,0.021677289298940607,-0.0852158927207081, ,0.012684134993180952,0.021625646391698075,-0.08578685446188884, ,0.0007676051869266641, ,0.008151641520603391,0.003814589086986601,-0.01918148453850504,0.00037573128429926986,-0.032969973931744,-0.009238586742125446, ,0.021187961168642216, ,0.032972075433946244, ,0.0004373473803919782, ,0.18884398697341193,-0.24125817499077368,0.09613675527000001,1.695133503128895,0.4638809167036703,-1.2932290301039289, ,0.05292634777382642,0.013154165720430223,0.02055330518709678,0.008862604429864803,0.01852270662460888,-0.010695891276160416, ,0.9070799350738525
0.012173690654162368,0.021677289298940607,-0.0852158927207081, ,0.012727189436100812,0.021632370576389757,-0.0858803648093507, ,0.0008659686771633204, ,0.008151641520603391,0.003814589086986601,-0.01918148453850504,0.00037573128429926986,-0.032969973931744,-0.009238586742125446, ,0.021187961168642216, ,0.032972075433946244, ,0.00044338430006481404, ,0.18884398697341193,-0.24125817499077368,0.09613675527000001,1.695133503128895,0.4638809167036703,-1.2932290301039289, ,0.05292634777382642,0.013154165720430223,0.02055330518709678,0.008862604429864803,0.01852270662460888,-0.010695891276160416, ,0.9093620777130127
0.012173690654162368,0.021677289298940607,-0.0852158927207081, ,0.012770386500382883,0.0216386727674444,-0.08597403717434693, ,0.0009655672850635132, ,0.008151641520603391,0.003814589086986601,-0.01918148453850504,0.00037573128429926986,-0.032969973931744,-0.009238586742125446, ,0.021187961168642216, ,0.032972075433946244, ,0.00045063684152312936, ,0.18884398697341193,-0.24125817499077368,0.09613675527000001,1.695133503128895,0.4638809167036703,-1.2932290301039289, ,0.05292634777382642,0.013154165720430223,0.02055330518709678,0.008862604429864803,0.01852270662460888,-0.010695891276160416, ,0.9116330146789551
0.012173690654162368,0.021677289298940607,-0.0852158927207081, ,0.012813725201395405,0.021644557336703892,-0.08606786913603862, ,0.0010661047862584108, ,0.008151641520603391,0.003814589086986601,-0.01918148453850504,0.00037573128429926986,-0.032969973931744,-0.009238586742125446, ,0.021187961168642216, ,0.032972075433946244, ,0.0004590679092592291, ,0.18884398697341193,-0.24125817499077368,0.09613675527000001,1.695133503128895,0.4638809167036703,-1.2932290301039289, ,0.05292634777382642,0.013154165720430223,0.02055330518709678,0.008862604429864803,0.01852270662460888,-0.010695891276160416, ,0.9140191078186035
0.012259565486717179,0.021717144278585954,-0.08541985518116776, ,0.012857204558801153,0.021650028639513,-0.08616185828185907, ,0.0009551154751783053, ,0.008151641520603391,0.003814589086986601,-0.01918148453850504,0.00037573128429926986,-0.032969973931744,-0.009238586742125446, ,0.021187961168642216, ,0.032972075433946244, ,0.000465771254744622, ,0.18941546920610455,-0.2411037203332892,0.09635582828000001,1.6953431930723792,0.46429082620296663,-1.2934816050748776, ,0.06263824525311602,0.018888722443963134,0.025045301132075475,0.004409813903060457,0.023507509193583232,-0.01342163603585731, ,0.9164879322052002
0.012259565486717179,0.021717144278585954,-0.08541985518116776, ,0.012900823596549354,0.021655091014744283,-0.08625600220750355, ,0.0010555588191233695, ,0.009803532951650405,0.004369571329007374,-0.023454997461553263,-0.0030644761011034694,-0.03894718671893928,-0.005581636908999462, ,0.02579417216843465, ,0.039067470719573616, ,0.0004736350889363387, ,0.18941546920610455,-0.2411037203332892,0.09635582828000001,1.6953431930723792,0.46429082620296663,-1.2934816050748776, ,0.06263824525311602,0.018888722443963134,0.025045301132075475,0.004409813903060457,0.023507509193583232,-0.01342163603585731, ,0.9188659191131592
0.012259565486717179,0.021717144278585954,-0.08541985518116776, ,0.012944581342867589,0.02165974878482306,-0.08635029851692037, ,0.0011568343731616071, ,0.009803532951650405,0.004369571329007374,-0.023454997461553263,-0.0030644761011034694,-0.03894718671893928,-0.005581636908999462, ,0.02579417216843465, ,0.039067470719573616, ,0.00048262455320246064, ,0.18941546920610455,-0.2411037203332892,0.09635582828000001,1.6953431930723792,0.46429082620296663,-1.2934816050748776, ,0.06263824525311602,0.018888722443963134,0.025045301132075475,0.004409813903060457,0.023507509193583232,-0.01342163603585731, ,0.9213509559631348
0.012259565486717179,0.021717144278585954,-0.08541985518116776, ,0.012988476830253715,0.021664006255751985,-0.08644474482230002, ,0.0012587828139544778, ,0.009803532951650405,0.004369571329007374,-0.023454997461553263,-0.0030644761011034694,-0.03894718671893928,-0.005581636908999462, ,0.02579417216843465, ,0.039067470719573616, ,0.0004927045306148246, ,0.18941546920610455,-0.2411037203332892,0.09635582828000001,1.6953431930723792,0.46429082620296663,-1.2934816050748776, ,0.06263824525311602,0.018888722443963134,0.025045301132075475,0.004409813903060457,0.023507509193583232,-0.01342163603585731, ,0.9240329265594482
0.012322052751471448,0.021746310751097894,-0.08558024352339758, ,0.013032509095467968,0.021667867717135914,-0.0865393387440656, ,0.001196145964592239, ,0.010152272878886462,0.004920428516193793,-0.02641571477642254,0.09472052167688264,0.06205886873536516,-0.004760438508071062, ,0.02872401866974144, ,0.11323986733194064, ,0.0005017230105376119, ,0.1898402195141869,-0.24096471114155316,0.09652823485,1.6953431930723792,0.46497400870179384,-1.293957015853219, ,0.07045058764548684,0.02197705918445363,0.028495190554561723,0.004409813903060457,0.1365183935514805,-0.10952444869737137, ,0.9266140460968018
0.012322052751471448,0.021746310751097894,-0.08558024352339758, ,0.013076677179524552,0.021671337442206992,-0.0866340779108636, ,0.0012983242817826404, ,0.010152272878886462,0.004920428516193793,-0.02641571477642254,0.09472052167688264,0.06205886873536516,-0.004760438508071062, ,0.02872401866974144, ,0.11323986733194064, ,0.0005118065709331187, ,0.1898402195141869,-0.24096471114155316,0.09652823485,1.6953431930723792,0.46497400870179384,-1.293957015853219, ,0.07045058764548684,0.02197705918445363,0.028495190554561723,0.004409813903060457,0.1365183935514805,-0.10952444869737137, ,0.9288969039916992
0.012322052751471448,0.021746310751097894,-0.08558024352339758, ,0.013120980127684041,0.021674419687849267,-0.0867289599595535, ,0.0014010719924870834, ,0.010152272878886462,0.004920428516193793,-0.02641571477642254,0.09472052167688264,0.06205886873536516,-0.004760438508071062, ,0.02872401866974144, ,0.11323986733194064, ,0.0005229223887025432, ,0.1898402195141869,-0.24096471114155316,0.09652823485,1.6953431930723792,0.46497400870179384,-1.293957015853219, ,0.07045058764548684,0.02197705918445363,0.028495190554561723,0.004409813903060457,0.1365183935514805,-0.10952444869737137, ,0.9311890602111816
0.012322052751471448,0.021746310751097894,-0.08558024352339758, ,0.013165416989444931,0.021677118694623194,-0.08682398253519767, ,0.0015043063212142908, ,0.010152272878886462,0.004920428516193793,-0.02641571477642254,0.09472052167688264,0.06205886873536516,-0.004760438508071062, ,0.02872401866974144, ,0.11323986733194064, ,0.0005350382397212067, ,0.1898402195141869,-0.24096471114155316,0.09652823485,1.6953431930723792,0.46497400870179384,-1.293957015853219, ,0.07045058764548684,0.02197705918445363,0.028495190554561723,0.004409813903060457,0.1365183935514805,-0.10952444869737137, ,0.9334640502929688
0.012470039479574027,0.02181887098825557,-0.08594849560023929, ,0.013209986818535722,0.021679438686791227,-0.08691914329105238, ,0.0012284626045626806, ,0.012250910552239673,0.005226098218888711,-0.0290575629684444,0.00343218164691034,-0.039248998116823294,-0.00587265456575744, ,0.03196465043790657, ,0.03939851530841084, ,0.0005434946344143954, ,0.19082872932208764,-0.24070986095670374,0.09692489959000002,1.6953431930723792,0.46620373719968283,-1.2948780982463464, ,0.07881805777281627,0.025278886936193606,0.031050314853801175,0.004223552813931715,0.04003312092988199,-0.025454276269969815, ,0.9356689453125
0.012470039479574027,0.02181887098825557,-0.08594849560023929, ,0.01325468867290698,0.021681383872341805,-0.08701443988855705, ,0.0013307194630866384, ,0.012250910552239673,0.005226098218888711,-0.0290575629684444,0.00343218164691034,-0.039248998116823294,-0.00587265456575744, ,0.03196465043790657, ,0.03939851530841084, ,0.0005529792709044225, ,0.19082872932208764,-0.24070986095670374,0.09692489959000002,1.6953431930723792,0.46620373719968283,-1.2948780982463464, ,0.07881805777281627,0.025278886936193606,0.031050314853801175,0.004223552813931715,0.04003312092988199,-0.025454276269969815, ,0.9379220008850098
0.012470039479574027,0.02181887098825557,-0.08594849560023929, ,0.01329952161472294,0.02168295844301487,-0.08710986999732549, ,0.0014336329107175064, ,0.012250910552239673,0.005226098218888711,-0.0290575629684444,0.00343218164691034,-0.039248998116823294,-0.00587265456575744, ,0.03196465043790657, ,0.03939851530841084, ,0.0005634632428069592, ,0.19082872932208764,-0.24070986095670374,0.09692489959000002,1.6953431930723792,0.46620373719968283,-1.2948780982463464, ,0.07881805777281627,0.025278886936193606,0.031050314853801175,0.004223552813931715,0.04003312092988199,-0.025454276269969815, ,0.9401919841766357
0.012470039479574027,0.02181887098825557,-0.08594849560023929, ,0.013344484710353882,0.02168416657432614,-0.0872054312951345, ,0.001537103471425204, ,0.012250910552239673,0.005226098218888711,-0.0290575629684444,0.00343218164691034,-0.039248998116823294,-0.00587265456575744, ,0.03196465043790657, ,0.03939851530841084, ,0.0005749178337318796, ,0.19082872932208764,-0.24070986095670374,0.09692489959000002,1.6953431930723792,0.46620373719968283,-1.2948780982463464, ,0.07881805777281627,0.025278886936193606,0.031050314853801175,0.004223552813931715,0.04003312092988199,-0.025454276269969815, ,0.9424679279327393
0.012470039479574027,0.02181887098825557,-0.08594849560023929, ,0.013389577030367616,0.02168501242559227,-0.08730112146791577, ,0.0016410558064932814, ,0.012250910552239673,0.005226098218888711,-0.0290575629684444,0.00343218164691034,-0.039248998116823294,-0.00587265456575744, ,0.03196465043790657, ,0.03939851530841084, ,0.0005873147869035239, ,0.19082872932208764,-0.24070986095670374,0.09692489959000002,1.6953431930723792,0.46620373719968283,-1.2948780982463464, ,0.07881805777281627,0.025278886936193606,0.031050314853801175,0.004223552813931715,0.04003312092988199,-0.025454276269969815, ,0.9447109699249268
0.01262033116079628,0.021881979448610353,-0.0863435031919367, ,0.013434797649521761,0.021685500139955502,-0.08739693820974474, ,0.0013459885277113343, ,0.015249694308434876,0.007545988335966915,-0.04387974393387361,0.086135523809398,0.05945553772828779,-0.006307076763516419, ,0.047063011422661616, ,0.10466196421635868, ,0.000596035174728901, ,0.1917631799998688,-0.2402851106486214,0.09734489755,1.6953431930723792,0.4672968291978063,-1.2957694414759175, ,0.09003504891695518,0.04115218627860832,0.04671205724340176,0.003963472286957632,0.15419906737870356,-0.11892335361750388, ,0.9476730823516846
0.01262033116079628,0.021881979448610353,-0.0863435031919367, ,0.01348014564675552,0.021685633844408497,-0.08749287922283126, ,0.0014487573319744314, ,0.015249694308434876,0.007545988335966915,-0.04387974393387361,0.086135523809398,0.05945553772828779,-0.006307076763516419, ,0.047063011422661616, ,0.10466196421635868, ,0.0006057251992430548, ,0.1917631799998688,-0.2402851106486214,0.09734489755,1.6953431930723792,0.4672968291978063,-1.2957694414759175, ,0.09003504891695518,0.04115218627860832,0.04671205724340176,0.003963472286957632,0.15419906737870356,-0.11892335361750388, ,0.9500150680541992
0.01262033116079628,0.021881979448610353,-0.0863435031919367, ,0.01352562010518162,0.02168541764981939,-0.08758894221751005, ,0.0015521929583628962, ,0.015249694308434876,0.007545988335966915,-0.04387974393387361,0.086135523809398,0.05945553772828779,-0.006307076763516419, ,0.047063011422661616, ,0.10466196421635868, ,0.0006163596684466484, ,0.1917631799998688,-0.2402851106486214,0.09734489755,1.6953431930723792,0.4672968291978063,-1.2957694414759175, ,0.09003504891695518,0.04115218627860832,0.04671205724340176,0.003963472286957632,0.15419906737870356,-0.11892335361750388, ,0.9522531032562256
0.01262033116079628,0.021881979448610353,-0.0863435031919367, ,0.013571220112078236,0.02168485565095624,-0.08768512491223056, ,0.0016561993930792021, ,0.015249694308434876,0.007545988335966915,-0.04387974393387361,0.086135523809398,0.05945553772828779,-0.006307076763516419, ,0.047063011422661616, ,0.10466196421635868, ,0.000627913443164788, ,0.1917631799998688,-0.2402851106486214,0.09734489755,1.6953431930723792,0.4672968291978063,-1.2957694414759175, ,0.09003504891695518,0.04115218627860832,0.04671205724340176,0.003963472286957632,0.15419906737870356,-0.11892335361750388, ,0.95455002784729
0.012765436917608107,0.021962259488600613,-0.08678639982412843, ,0.013616944758880985,0.02168395192651187,-0.08778142503354616, ,0.0013388785868187494, ,0.015783836401018374,0.008546700545369832,-0.0479560599919788,0.14461261195446154,0.12197826519419676,0.0014029023486794617, ,0.051205070761601405, ,0.18918575812210442, ,0.0006357262469412051, ,0.19261268061603348,-0.2399066967377844,0.09781804340000001,1.695552883015864,0.46934637669428797,-1.2974407100313639, ,0.09258238200826417,0.04122369311836263,0.051218043472668826,-0.0030088171123893717,0.22341840440688385,-0.1758660036243585, ,0.9569330215454102
0.012765436917608107,0.021962259488600613,-0.08678639982412843, ,0.013662793141174825,0.021682710539129152,-0.0878778403161066, ,0.0014403604252596148, ,0.015783836401018374,0.008546700545369832,-0.0479560599919788,0.14461261195446154,0.12197826519419676,0.0014029023486794617, ,0.051205070761601405, ,0.18918575812210442, ,0.0006444722706185791, ,0.19261268061603348,-0.2399066967377844,0.09781804340000001,1.695552883015864,0.46934637669428797,-1.2974407100313639, ,0.09258238200826417,0.04122369311836263,0.051218043472668826,-0.0030088171123893717,0.22341840440688385,-0.1758660036243585, ,0.9594299793243408
0.012765436917608107,0.021962259488600613,-0.08678639982412843, ,0.013708764358685921,0.021681135535425246,-0.08797436850264564, ,0.0015427789599541774, ,0.015783836401018374,0.008546700545369832,-0.0479560599919788,0.14461261195446154,0.12197826519419676,0.0014029023486794617, ,0.051205070761601405, ,0.18918575812210442, ,0.0006541314823318652, ,0.19261268061603348,-0.2399066967377844,0.09781804340000001,1.695552883015864,0.46934637669428797,-1.2974407100313639, ,0.09258238200826417,0.04122369311836263,0.051218043472668826,-0.0030088171123893717,0.22341840440688385,-0.1758660036243585, ,0.9617710113525391
0.012765436917608107,0.021962259488600613,-0.08678639982412843, ,0.013754857515273692,0.02167923094601677,-0.08807100734397309, ,0.0016459874711076956, ,0.015783836401018374,0.008546700545369832,-0.0479560599919788,0.14461261195446154,0.12197826519419676,0.0014029023486794617, ,0.051205070761601405, ,0.18918575812210442, ,0.0006646831417869271, ,0.19261268061603348,-0.2399066967377844,0.09781804340000001,1.695552883015864,0.46934637669428797,-1.2974407100313639, ,0.09258238200826417,0.04122369311836263,0.051218043472668826,-0.0030088171123893717,0.22341840440688385,-0.1758660036243585, ,0.968480110168457
0.012900659949458557,0.02202788912068375,-0.0871749449982255, ,0.013801071718922626,0.021677000785544468,-0.08816775459896418, ,0.0013854728007597719, ,0.017411760290038467,0.0076153394463424305,-0.047524994107329875,0.04231904675976274,0.008015196297847733,-0.0025768826422458008, ,0.051183863240112294, ,0.043068580739933464, ,0.0006722704013550625, ,0.1934003993692044,-0.23953600555982163,0.09823155991000002,1.695552883015864,0.4707127416919423,-1.298391531588047, ,0.10073985303447004,0.04922040537265082,0.05040763139240506,-0.0028798255841030415,0.11354932881539084,-0.08608404743143139, ,0.9709930419921875
0.012900659949458557,0.02202788912068375,-0.0871749449982255, ,0.013847406081734365,0.021674449052698073,-0.08826460803454957, ,0.0014861405227527748, ,0.017411760290038467,0.0076153394463424305,-0.047524994107329875,0.04231904675976274,0.008015196297847733,-0.0025768826422458008, ,0.051183863240112294, ,0.043068580739933464, ,0.0006807482151196219, ,0.1934003993692044,-0.23953600555982163,0.09823155991000002,1.695552883015864,0.4707127416919423,-1.298391531588047, ,0.10073985303447004,0.04922040537265082,0.05040763139240506,-0.0028798255841030415,0.11354932881539084,-0.08608404743143139, ,0.9732921123504639
0.012900659949458557,0.02202788912068375,-0.0871749449982255, ,0.01389385971991935,0.02167157973024109,-0.08836156542570565, ,0.001587913790063604, ,0.017411760290038467,0.0076153394463424305,-0.047524994107329875,0.04231904675976274,0.008015196297847733,-0.0025768826422458008, ,0.051183863240112294, ,0.043068580739933464, ,0.0006901004375417249, ,0.1934003993692044,-0.23953600555982163,0.09823155991000002,1.695552883015864,0.4707127416919423,-1.298391531588047, ,0.10073985303447004,0.04922040537265082,0.05040763139240506,-0.0028798255841030415,0.11354932881539084,-0.08608404743143139, ,0.9756131172180176
0.012900659949458557,0.02202788912068375,-0.0871749449982255, ,0.013940431753789069,0.02166839678503563,-0.0884586245554449, ,0.0016906192209050037, ,0.017411760290038467,0.0076153394463424305,-0.047524994107329875,0.04231904675976274,0.008015196297847733,-0.0025768826422458008, ,0.051183863240112294, ,0.043068580739933464, ,0.0007003098128821665, ,0.1934003993692044,-0.23953600555982163,0.09823155991000002,1.695552883015864,0.4707127416919423,-1.298391531588047, ,0.10073985303447004,0.04922040537265082,0.05040763139240506,-0.0028798255841030415,0.11354932881539084,-0.08608404743143139, ,0.9779419898986816
0.013226460822847938,0.02213571778167179,-0.08799680386786107, ,0.013987121307747789,0.021664904168067316,-0.08855578321480606, ,0.0010548591101916993, ,0.017411760290038467,0.0076153394463424305,-0.047524994107329875,0.04231904675976274,0.008015196297847733,-0.0025768826422458008, ,0.051183863240112294, ,0.043068580739933464, ,0.000703891118915596, ,0.1934003993692044,-0.23953600555982163,0.09823155991000002,1.695552883015864,0.4707127416919423,-1.298391531588047, ,0.10073985303447004,0.04922040537265082,0.05040763139240506,-0.0028798255841030415,0.11354932881539084,-0.08608404743143139, ,0.9804830551147461
0.013226460822847938,0.02213571778167179,-0.08799680386786107, ,0.014033927510284547,0.02166110581446973,-0.088653039202844, ,0.0011436362120934283, ,0.019219043231085923,0.00448859976588907,-0.04351938771630119,-0.07306023800743894,-0.0927983723563767,-0.0029172926008996037, ,0.04778552351683966, ,0.11810664750872343, ,0.0007082885698473744, ,0.19530791438913786,-0.23844710022455595,0.09909748163000001,1.6953431930723792,0.4716691971903004,-1.2985997057329381, ,0.11966827434863908,0.0710306448790949,0.04577244689655173,-0.0022158490685913715,0.028409849700026548,0.005357882038332741, ,0.983191967010498
0.013226460822847938,0.02213571778167179,-0.08799680386786107, ,0.014080849493965032,0.021657005643549807,-0.08875039032661987, ,0.001235733734808261, ,0.019219043231085923,0.00448859976588907,-0.04351938771630119,-0.07306023800743894,-0.0927983723563767,-0.0029172926008996037, ,0.04778552351683966, ,0.11810664750872343, ,0.0007135107992034227, ,0.19530791438913786,-0.23844710022455595,0.09909748163000001,1.6953431930723792,0.4716691971903004,-1.2985997057329381, ,0.11966827434863908,0.0710306448790949,0.04577244689655173,-0.0022158490685913715,0.028409849700026548,0.005357882038332741, ,0.9854609966278076
0.013226460822847938,0.02213571778167179,-0.08799680386786107, ,0.014127886395423575,0.021652607558812192,-0.0888478344011917, ,0.0013304948398944602, ,0.019219043231085923,0.00448859976588907,-0.04351938771630119,-0.07306023800743894,-0.0927983723563767,-0.0029172926008996037, ,0.04778552351683966, ,0.11810664750872343, ,0.0007195596623474525, ,0.19530791438913786,-0.23844710022455595,0.09909748163000001,1.6953431930723792,0.4716691971903004,-1.2985997057329381, ,0.11966827434863908,0.0710306448790949,0.04577244689655173,-0.0022158490685913715,0.028409849700026548,0.005357882038332741, ,0.9877591133117676
0.013226460822847938,0.02213571778167179,-0.08799680386786107, ,0.014175037355355018,0.02164791544798417,-0.08894536924960408, ,0.0014274189427829185, ,0.019219043231085923,0.00448859976588907,-0.04351938771630119,-0.07306023800743894,-0.0927983723563767,-0.0029172926008996037, ,0.04778552351683966, ,0.11810664750872343, ,0.0007264320825458552, ,0.19530791438913786,-0.23844710022455595,0.09909748163000001,1.6953431930723792,0.4716691971903004,-1.2985997057329381, ,0.11966827434863908,0.0710306448790949,0.04577244689655173,-0.0022158490685913715,0.028409849700026548,0.005357882038332741, ,0.9899740219116211
0.013402689884524172,0.02216352338123942,-0.08837832936758024, ,0.014222301518506663,0.021642933183040565,-0.08904299270287845, ,0.0011766710391226257, ,0.017166518262597928,0.0016272728931947566,-0.03466045119879242,0.10650692537380078,0.0647593907050104,-0.012740799476926013, ,0.038712843393800274, ,0.12464932335922187, ,0.0007307613032821702, ,0.196551274381888,-0.23769799513575618,0.09950192411000001,1.695133503128895,0.47317219868772026,-1.299743623933458, ,0.13107312369954527,0.07914674024893309,0.036957799350348035,-0.0019492827136480529,0.20353852698723873,-0.17647463009818784, ,0.9922680854797363
0.013402689884524172,0.02216352338123942,-0.08837832936758024, ,0.014269678033670226,0.02163766462022854,-0.08914070260000351, ,0.0012686247801486088, ,0.017166518262597928,0.0016272728931947566,-0.03466045119879242,0.10650692537380078,0.0647593907050104,-0.012740799476926013, ,0.038712843393800274, ,0.12464932335922187, ,0.0007358838125856601, ,0.196551274381888,-0.23769799513575618,0.09950192411000001,1.695133503128895,0.47317219868772026,-1.299743623933458, ,0.13107312369954527,0.07914674024893309,0.036957799350348035,-0.0019492827136480529,0.20353852698723873,-0.17647463009818784, ,0.9945049285888672
0.013402689884524172,0.02216352338123942,-0.08837832936758024, ,0.014317166053673648,0.021632113600092148,-0.08923849678792477, ,0.0013632868408605212, ,0.017166518262597928,0.0016272728931947566,-0.03466045119879242,0.10650692537380078,0.0647593907050104,-0.012740799476926013, ,0.038712843393800274, ,0.12464932335922187, ,0.0007418027090788193, ,0.196551274381888,-0.23769799513575618,0.09950192411000001,1.695133503128895,0.47317219868772026,-1.299743623933458, ,0.13107312369954527,0.07914674024893309,0.036957799350348035,-0.0019492827136480529,0.20353852698723873,-0.17647463009818784, ,0.9968280792236328
0.013402689884524172,0.02216352338123942,-0.08837832936758024, ,0.01436476473537324,0.021626283947497625,-0.08933637312153563, ,0.001460158231938031, ,0.017166518262597928,0.0016272728931947566,-0.03466045119879242,0.10650692537380078,0.0647593907050104,-0.012740799476926013, ,0.038712843393800274, ,0.12464932335922187, ,0.000748516312096195, ,0.196551274381888,-0.23769799513575618,0.09950192411000001,1.695133503128895,0.47317219868772026,-1.299743623933458, ,0.13107312369954527,0.07914674024893309,0.036957799350348035,-0.0019492827136480529,0.20353852698723873,-0.17647463009818784, ,0.9992129802703857
0.013402689884524172,0.02216352338123942,-0.08837832936758024, ,0.014412473239645283,0.021620179471657633,-0.08943432946366658, ,0.001558852536737727, ,0.017166518262597928,0.0016272728931947566,-0.03466045119879242,0.10650692537380078,0.0647593907050104,-0.012740799476926013, ,0.038712843393800274, ,0.12464932335922187, ,0.0007560194252873203, ,0.19794908903212263,-0.23683304905384303,0.09985192241000002,1.6947141232419258,0.4756316556834982,-1.3017491461999937, ,0.13914507559893075,0.09414379122864167,0.03224455773279353,-0.024537768477614852,0.2409225583466397,-0.2006681080656643, ,1.0039639472961426
0.013647807158680924,0.022159060723757645,-0.08883186606626489, ,0.014460290731378292,0.02161380396615674,-0.0895323636850759, ,0.0012033833144814785, ,0.01688161176114876,-0.0021752279307057118,-0.028087180020197774,0.07016430265072228,0.04531413583143015,0.015330830370187898, ,0.03284220019565796, ,0.08352474359518387, ,0.0007601236811514869, ,0.19794908903212263,-0.23683304905384303,0.09985192241000002,1.6947141232419258,0.4756316556834982,-1.3017491461999937, ,0.13914507559893075,0.09414379122864167,0.03224455773279353,-0.024537768477614852,0.2409225583466397,-0.2006681080656643, ,1.0067501068115234
0.013647807158680924,0.022159060723757645,-0.08883186606626489, ,0.01450821637946465,0.02160716120897534,-0.08963047366443964, ,0.0012971781672110616, ,0.01688161176114876,-0.0021752279307057118,-0.028087180020197774,0.07016430265072228,0.04531413583143015,0.015330830370187898, ,0.03284220019565796, ,0.08352474359518387, ,0.0007650059946611194, ,0.19794908903212263,-0.23683304905384303,0.09985192241000002,1.6947141232419258,0.4756316556834982,-1.3017491461999937, ,0.13914507559893075,0.09414379122864167,0.03224455773279353,-0.024537768477614852,0.2409225583466397,-0.2006681080656643, ,1.009037971496582
0.013741920259435533,0.02214799225951136,-0.08898635379481587, ,0.014556249356792743,0.02160025496251558,-0.08972865728834209, ,0.0012305131051005024, ,0.01745548268726003,-0.002385270461707368,-0.02821852738365616,0.013235654394328696,-0.013446268613532904,0.014675710870092501, ,0.033266630107705246, ,0.018867082295479985, ,0.0007691997524128255, ,0.19932373548373458,-0.23585998471169076,0.10014877282000001,1.6945044332984414,0.47754456668021433,-1.3033089968517437, ,0.1407966491965442,0.10203972210588257,0.029662591284916204,-0.034152342889283094,0.14015664057613259,-0.11417256993939845, ,1.0113201141357422
0.013741920259435533,0.02214799225951136,-0.08898635379481587, ,0.014604388840238793,0.021593088973625094,-0.08982691245126526, ,0.001326012279163417, ,0.01745548268726003,-0.002385270461707368,-0.02821852738365616,0.013235654394328696,-0.013446268613532904,0.014675710870092501, ,0.033266630107705246, ,0.018867082295479985, ,0.0007741712928302415, ,0.19932373548373458,-0.23585998471169076,0.10014877282000001,1.6945044332984414,0.47754456668021433,-1.3033089968517437, ,0.1407966491965442,0.10203972210588257,0.029662591284916204,-0.034152342889283094,0.14015664057613259,-0.11417256993939845, ,1.0135819911956787
0.013741920259435533,0.02214799225951136,-0.08898635379481587, ,0.014652634010658786,0.0215856669736225,-0.08992523705557971, ,0.00142376649811676, ,0.01745548268726003,-0.002385270461707368,-0.02821852738365616,0.013235654394328696,-0.013446268613532904,0.014675710870092501, ,0.033266630107705246, ,0.018867082295479985, ,0.0007799199229655205, ,0.19932373548373458,-0.23585998471169076,0.10014877282000001,1.6945044332984414,0.47754456668021433,-1.3033089968517437, ,0.1407966491965442,0.10203972210588257,0.029662591284916204,-0.034152342889283094,0.14015664057613259,-0.11417256993939845, ,1.0160560607910156
0.013741920259435533,0.02214799225951136,-0.08898635379481587, ,0.01470098405288027,0.02157799267832199,-0.09002362901153434, ,0.001523365602103122, ,0.01745548268726003,-0.002385270461707368,-0.02821852738365616,0.013235654394328696,-0.013446268613532904,0.014675710870092501, ,0.033266630107705246, ,0.018867082295479985, ,0.0007864413762912888, ,0.19932373548373458,-0.23585998471169076,0.10014877282000001,1.6945044332984414,0.47754456668021433,-1.3033089968517437, ,0.1407966491965442,0.10203972210588257,0.029662591284916204,-0.034152342889283094,0.14015664057613259,-0.11417256993939845, ,1.018399953842163
0.013932838182934257,0.022120313269000092,-0.08928363078185325, ,0.014749438155694574,0.021570069788058133,-0.09012208623724659, ,0.0012932946124182684, ,0.019108480165862807,-0.0029126908930275086,-0.03036245891375175,-0.06738865983981397,-0.08780527877290562,0.014298528473420412, ,0.035993008956973306, ,0.11068411201040743, ,0.0007908487957358713, ,0.20082966839420838,-0.23474791117780242,0.10045988242000001,1.6945044332984414,0.47850102217857243,-1.3039255646973376, ,0.14667224352159317,0.1121713257192326,0.03160478476190477,-0.034152342889283094,0.06919688437342296,-0.04591997429667076, ,1.0213110446929932
0.013932838182934257,0.022120313269000092,-0.08928363078185325, ,0.014797995511848492,0.021561901987710665,-0.0902206066586928, ,0.0013922083739959907, ,0.019108480165862807,-0.0029126908930275086,-0.03036245891375175,-0.06738865983981397,-0.08780527877290562,0.014298528473420412, ,0.035993008956973306, ,0.11068411201040743, ,0.0007960329300312172, ,0.20082966839420838,-0.23474791117780242,0.10045988242000001,1.6945044332984414,0.47850102217857243,-1.3039255646973376, ,0.14667224352159317,0.1121713257192326,0.03160478476190477,-0.034152342889283094,0.06919688437342296,-0.04591997429667076, ,1.0235710144042969
0.013932838182934257,0.022120313269000092,-0.08928363078185325, ,0.014846655318036205,0.021553492946729338,-0.09031918820969809, ,0.0014928918984674225, ,0.019108480165862807,-0.0029126908930275086,-0.03036245891375175,-0.06738865983981397,-0.08780527877290562,0.014298528473420412, ,0.035993008956973306, ,0.11068411201040743, ,0.000801988989590501, ,0.20082966839420838,-0.23474791117780242,0.10045988242000001,1.6945044332984414,0.47850102217857243,-1.3039255646973376, ,0.14667224352159317,0.1121713257192326,0.03160478476190477,-0.034152342889283094,0.06919688437342296,-0.04591997429667076, ,1.0258779525756836
0.013932838182934257,0.022120313269000092,-0.08928363078185325, ,0.014895416774891321,0.02154484631915876,-0.09041782883192659, ,0.0015950313391416132, ,0.019108480165862807,-0.0029126908930275086,-0.03036245891375175,-0.06738865983981397,-0.08780527877290562,0.014298528473420412, ,0.035993008956973306, ,0.11068411201040743, ,0.0008087096874680528, ,0.20082966839420838,-0.23474791117780242,0.10045988242000001,1.6945044332984414,0.47850102217857243,-1.3039255646973376, ,0.14667224352159317,0.1121713257192326,0.03160478476190477,-0.034152342889283094,0.06919688437342296,-0.04591997429667076, ,1.0280909538269043
0.013932838182934257,0.022120313269000092,-0.08928363078185325, ,0.01494427908697866,0.021535965743663125,-0.09051652647487161, ,0.001698383502806367, ,0.019108480165862807,-0.0029126908930275086,-0.03036245891375175,-0.06738865983981397,-0.08780527877290562,0.014298528473420412, ,0.035993008956973306, ,0.11068411201040743, ,0.0008161859380171143, ,0.20082966839420838,-0.23474791117780242,0.10045988242000001,1.6945044332984414,0.47850102217857243,-1.3039255646973376, ,0.14667224352159317,0.1121713257192326,0.03160478476190477,-0.034152342889283094,0.06919688437342296,-0.04591997429667076, ,1.0303261280059814
0.014121421572671326,0.02209409424083675,-0.08961239712629407, ,0.014993241462786373,0.021526854843551147,-0.09061527909584596, ,0.0014448538678653404, ,0.02008044653918005,-0.0024153875916072664,-0.03757957090598497,0.004470358416676701,-0.008420653468440342,-0.008439382586307673, ,0.04267648743639183, ,0.00952977236744961, ,0.0008214248374325162, ,0.20224292851019146,-0.23358950124666875,0.10080210298000002,1.6942947433549567,0.479594114176696,-1.304653550446628, ,0.14689929033819007,0.12585801267701696,0.039137129041769046,-0.01687854215675284,0.14742067716612758,-0.12537332397935927, ,1.032958984375
0.014121421572671326,0.02209409424083675,-0.08961239712629407, ,0.015042303114717624,0.021517517226800686,-0.09071408465997216, ,0.0015473135717940403, ,0.02008044653918005,-0.0024153875916072664,-0.03757957090598497,0.004470358416676701,-0.008420653468440342,-0.008439382586307673, ,0.04267648743639183, ,0.00952977236744961, ,0.0008274239178817849, ,0.20224292851019146,-0.23358950124666875,0.10080210298000002,1.6942947433549567,0.479594114176696,-1.304653550446628, ,0.14689929033819007,0.12585801267701696,0.039137129041769046,-0.01687854215675284,0.14742067716612758,-0.12537332397935927, ,1.0365009307861328
0.014121421572671326,0.02209409424083675,-0.08961239712629407, ,0.015091463259082633,0.021507956486083665,-0.09081294114017142, ,0.001651013104181622, ,0.02008044653918005,-0.0024153875916072664,-0.03757957090598497,0.004470358416676701,-0.008420653468440342,-0.008439382586307673, ,0.04267648743639183, ,0.00952977236744961, ,0.0008341746489170295, ,0.20224292851019146,-0.23358950124666875,0.10080210298000002,1.6942947433549567,0.479594114176696,-1.304653550446628, ,0.14689929033819007,0.12585801267701696,0.039137129041769046,-0.01687854215675284,0.14742067716612758,-0.12537332397935927, ,1.040550947189331
0.014258770401525253,0.02207812521282966,-0.08987897948289358, ,0.015140721116090623,0.021498176198790894,-0.0909118465171558, ,0.0014768182800441356, ,0.0205350335746899,-0.002274165656136235,-0.040752973113816204,0.038553732289488434,0.030636041056291172,-0.006195889892081886, ,0.045690964653425925, ,0.04924271395081178, ,0.0008393993938855426, ,0.2032314383180922,-0.23271683243188138,0.10107950904000002,1.6940850534114722,0.48068720617481947,-1.3054632149360585, ,0.14758466805360929,0.13180130772009832,0.042476830720000004,-0.021609362074548062,0.1896284289615985,-0.16477222213681395, ,1.0429120063781738
0.014258770401525253,0.02207812521282966,-0.08987897948289358, ,0.015190075909841706,0.021488179927056875,-0.09101079877941712, ,0.001579993768977944, ,0.0205350335746899,-0.002274165656136235,-0.040752973113816204,0.038553732289488434,0.030636041056291172,-0.006195889892081886, ,0.045690964653425925, ,0.04924271395081178, ,0.0008453719291685457, ,0.2032314383180922,-0.23271683243188138,0.10107950904000002,1.6940850534114722,0.48068720617481947,-1.3054632149360585, ,0.14758466805360929,0.13180130772009832,0.042476830720000004,-0.021609362074548062,0.1896284289615985,-0.16477222213681395, ,1.0453999042510986
0.014258770401525253,0.02207812521282966,-0.08987897948289358, ,0.015239526868318698,0.02147797121778459,-0.09110979592321689, ,0.0016843328574530163, ,0.0205350335746899,-0.002274165656136235,-0.040752973113816204,0.038553732289488434,0.030636041056291172,-0.006195889892081886, ,0.045690964653425925, ,0.04924271395081178, ,0.0008520836165948215, ,0.2032314383180922,-0.23271683243188138,0.10107950904000002,1.6940850534114722,0.48068720617481947,-1.3054632149360585, ,0.14758466805360929,0.13180130772009832,0.042476830720000004,-0.021609362074548062,0.1896284289615985,-0.16477222213681395, ,1.0477449893951416
0.014258770401525253,0.02207812521282966,-0.08987897948289358, ,0.015289073223379237,0.021467553602670338,-0.0912088359525771, ,0.0017896479614192124, ,0.0205350335746899,-0.002274165656136235,-0.040752973113816204,0.038553732289488434,0.030636041056291172,-0.006195889892081886, ,0.045690964653425925, ,0.04924271395081178, ,0.0008595246034585072, ,0.2032314383180922,-0.23271683243188138,0.10107950904000002,1.6940850534114722,0.48068720617481947,-1.3054632149360585, ,0.14758466805360929,0.13180130772009832,0.042476830720000004,-0.021609362074548062,0.1896284289615985,-0.16477222213681395, ,1.0501289367675781
0.014541461166775982,0.022048980524620197,-0.09043900699039113, ,0.01533871421074759,0.02145693059822834,-0.09130791687927028, ,0.0013195226130895128, ,0.02134342054081488,-0.002390180423769929,-0.0413063877767102,-0.011914506429437505,-0.012688140260599797,0.05112877026969244, ,0.04655611918964257, ,0.017401842329241534, ,0.0008631466350304049, ,0.20525479433113902,-0.23097149480230664,0.10166413583000002,1.6930366036940496,0.4832832996703629,-1.307661833846431, ,0.1508695414284114,0.1303529417011961,0.04305084194594595,-0.07732977307854659,0.16117651187608606,-0.12454243124478376, ,1.052412986755371
0.014541461166775982,0.022048980524620197,-0.09043900699039113, ,0.015388449070006477,0.02144610570581589,-0.09140703672280946, ,0.0014205379678885813, ,0.02134342054081488,-0.002390180423769929,-0.0413063877767102,-0.011914506429437505,-0.012688140260599797,0.05112877026969244, ,0.04655611918964257, ,0.017401842329241534, ,0.0008675012548183595, ,0.20525479433113902,-0.23097149480230664,0.10166413583000002,1.6930366036940496,0.4832832996703629,-1.307661833846431, ,0.1508695414284114,0.1303529417011961,0.04305084194594595,-0.07732977307854659,0.16117651187608606,-0.12454243124478376, ,1.0547001361846924
0.014541461166775982,0.022048980524620197,-0.09043900699039113, ,0.015438277044589188,0.02143508241165804,-0.09150619351043823, ,0.0015231666620454279, ,0.02134342054081488,-0.002390180423769929,-0.0413063877767102,-0.011914506429437505,-0.012688140260599797,0.05112877026969244, ,0.04655611918964257, ,0.017401842329241534, ,0.000872583932393763, ,0.20525479433113902,-0.23097149480230664,0.10166413583000002,1.6930366036940496,0.4832832996703629,-1.307661833846431, ,0.1508695414284114,0.1303529417011961,0.04305084194594595,-0.07732977307854659,0.16117651187608606,-0.12454243124478376, ,1.056926965713501
0.014541461166775982,0.022048980524620197,-0.09043900699039113, ,0.015488197381771387,0.021423864186872088,-0.09160538527712127, ,0.0016271196035506916, ,0.02134342054081488,-0.002390180423769929,-0.0413063877767102,-0.011914506429437505,-0.012688140260599797,0.05112877026969244, ,0.04655611918964257, ,0.017401842329241534, ,0.000878388052941124, ,0.20525479433113902,-0.23097149480230664,0.10166413583000002,1.6930366036940496,0.4832832996703629,-1.307661833846431, ,0.1508695414284114,0.1303529417011961,0.04305084194594595,-0.07732977307854659,0.16117651187608606,-0.12454243124478376, ,1.059140920639038
0.014759777271372192,0.022016941092523428,-0.0908484841591849, ,0.015538209332662964,0.021412454487492953,-0.09170461006553421, ,0.0013054930475606158, ,0.022712823863426518,-0.0038938608658387252,-0.041940607360304374,-0.05272445884824586,-0.04258881558621352,-0.03024335607129103, ,0.047854457117856485, ,0.06777570364145488, ,0.0008816483964115019, ,0.2067916181731097,-0.229573680152072,0.10208931895000001,1.6928269137505652,0.48464966466801723,-1.308857691623536, ,0.15842561195070248,0.1499161793972682,0.0434027561852861,0.003461447212589834,0.11893011638300319,-0.0883887058589529, ,1.061495065689087
0.014759777271372192,0.022016941092523428,-0.0908484841591849, ,0.015588312152200119,0.02140085675449752,-0.09180386592605383, ,0.0014066926746005952, ,0.022712823863426518,-0.0038938608658387252,-0.041940607360304374,-0.05272445884824586,-0.04258881558621352,-0.03024335607129103, ,0.047854457117856485, ,0.06777570364145488, ,0.0008856260045796011, ,0.2067916181731097,-0.229573680152072,0.10208931895000001,1.6928269137505652,0.48464966466801723,-1.308857691623536, ,0.15842561195070248,0.1499161793972682,0.0434027561852861,0.003461447212589834,0.11893011638300319,-0.0883887058589529, ,1.0638480186462402
0.014759777271372192,0.022016941092523428,-0.0908484841591849, ,0.015638505099137157,0.021389074413829666,-0.09190315091674808, ,0.0015095367272813603, ,0.022712823863426518,-0.0038938608658387252,-0.041940607360304374,-0.05272445884824586,-0.04258881558621352,-0.03024335607129103, ,0.047854457117856485, ,0.06777570364145488, ,0.0008903170626450279, ,0.2067916181731097,-0.229573680152072,0.10208931895000001,1.6928269137505652,0.48464966466801723,-1.308857691623536, ,0.15842561195070248,0.1499161793972682,0.0434027561852861,0.003461447212589834,0.11893011638300319,-0.0883887058589529, ,1.0662341117858887
0.014759777271372192,0.022016941092523428,-0.0908484841591849, ,0.01568878743603844,0.021377110876425038,-0.0920024631033668, ,0.0016137255017817911, ,0.022712823863426518,-0.0038938608658387252,-0.041940607360304374,-0.05272445884824586,-0.04258881558621352,-0.03024335607129103, ,0.047854457117856485, ,0.06777570364145488, ,0.000895715633086347, ,0.2067916181731097,-0.229573680152072,0.10208931895000001,1.6928269137505652,0.48464966466801723,-1.308857691623536, ,0.15842561195070248,0.1499161793972682,0.0434027561852861,0.003461447212589834,0.11893011638300319,-0.0883887058589529, ,1.0685570240020752
0.015001447524347657,0.0219723580764212,-0.09129175916799483, ,0.015739158429270303,0.021364969538235797,-0.09210180055933102, ,0.0012527191509826422, ,0.02256219781332675,-0.004532415329334298,-0.041772788586750556,-0.014850177564442154,-0.005304598280314756,-0.023645558127076145, ,0.047692362336108164, ,0.015765130586253104, ,0.0008983601035892825, ,0.20848289667256487,-0.22795190624848485,0.10254820561000001,1.6930366036940496,0.4860160296656717,-1.3098901919203594, ,0.15922305630615904,0.1545552794111902,0.043284813913043486,-0.007163999660266777,0.16079592718636637,-0.1316375431007477, ,1.0716350078582764
0.015001447524347657,0.0219723580764212,-0.09129175916799483, ,0.01578961734899298,0.021352653780255356,-0.09220116136572373, ,0.001353609044149014, ,0.02256219781332675,-0.004532415329334298,-0.041772788586750556,-0.014850177564442154,-0.005304598280314756,-0.023645558127076145, ,0.047692362336108164, ,0.015765130586253104, ,0.0009017075222698687, ,0.20848289667256487,-0.22795190624848485,0.10254820561000001,1.6930366036940496,0.4860160296656717,-1.3098901919203594, ,0.15922305630615904,0.1545552794111902,0.043284813913043486,-0.007163999660266777,0.16079592718636637,-0.1316375431007477, ,1.0738990306854248
0.015001447524347657,0.0219723580764212,-0.09129175916799483, ,0.015840163469152478,0.021340166968543496,-0.09230054361128008, ,0.0014562815956963213, ,0.02256219781332675,-0.004532415329334298,-0.041772788586750556,-0.014850177564442154,-0.005304598280314756,-0.023645558127076145, ,0.047692362336108164, ,0.015765130586253104, ,0.000905755508207288, ,0.20848289667256487,-0.22795190624848485,0.10254820561000001,1.6930366036940496,0.4860160296656717,-1.3098901919203594, ,0.15922305630615904,0.1545552794111902,0.043284813913043486,-0.007163999660266777,0.16079592718636637,-0.1316375431007477, ,1.0761620998382568
0.015001447524347657,0.0219723580764212,-0.09129175916799483, ,0.015890796067472512,0.021327512454250967,-0.09239994539237673, ,0.0015603984797160717, ,0.02256219781332675,-0.004532415329334298,-0.041772788586750556,-0.014850177564442154,-0.005304598280314756,-0.023645558127076145, ,0.047692362336108164, ,0.015765130586253104, ,0.0009104992978559024, ,0.20848289667256487,-0.22795190624848485,0.10254820561000001,1.6930366036940496,0.4860160296656717,-1.3098901919203594, ,0.15922305630615904,0.1545552794111902,0.043284813913043486,-0.007163999660266777,0.16079592718636637,-0.1316375431007477, ,1.0784211158752441
0.015001447524347657,0.0219723580764212,-0.09129175916799483, ,0.01594151442544655,0.021314693573644097,-0.09249936481302307, ,0.0016657009847685154, ,0.02256219781332675,-0.004532415329334298,-0.041772788586750556,-0.014850177564442154,-0.005304598280314756,-0.023645558127076145, ,0.047692362336108164, ,0.015765130586253104, ,0.0009159324035171441, ,0.20848289667256487,-0.22795190624848485,0.10254820561000001,1.6930366036940496,0.4860160296656717,-1.3098901919203594, ,0.15922305630615904,0.1545552794111902,0.043284813913043486,-0.007163999660266777,0.16079592718636637,-0.1316375431007477, ,1.080888032913208
0.015001447524347657,0.0219723580764212,-0.09129175916799483, ,0.01599231782832942,0.02130171364812991,-0.09259879998485088, ,0.0017719886019494585, ,0.02256219781332675,-0.004532415329334298,-0.041772788586750556,-0.014850177564442154,-0.005304598280314756,-0.023645558127076145, ,0.047692362336108164, ,0.015765130586253104, ,0.0009220470906488036, ,0.20848289667256487,-0.22795190624848485,0.10254820561000001,1.6930366036940496,0.4860160296656717,-1.3098901919203594, ,0.15922305630615904,0.1545552794111902,0.043284813913043486,-0.007163999660266777,0.16079592718636637,-0.1316375431007477, ,1.0833189487457275
0.015001447524347657,0.0219723580764212,-0.09129175916799483, ,0.016043205565129615,0.021288575984280918,-0.09269824902710382, ,0.0018791039058130951, ,0.02256219781332675,-0.004532415329334298,-0.041772788586750556,-0.014850177564442154,-0.005304598280314756,-0.023645558127076145, ,0.047692362336108164, ,0.015765130586253104, ,0.0009288347276357843, ,0.20848289667256487,-0.22795190624848485,0.10254820561000001,1.6930366036940496,0.4860160296656717,-1.3098901919203594, ,0.15922305630615904,0.1545552794111902,0.043284813913043486,-0.007163999660266777,0.16079592718636637,-0.1316375431007477, ,1.085806131362915
0.015175086093968091,0.021936036608012577,-0.09161373116604721, ,0.01609417692860085,0.021275283873859657,-0.09279771006662924, ,0.0016380256942490033, ,0.02256219781332675,-0.004532415329334298,-0.041772788586750556,-0.014850177564442154,-0.005304598280314756,-0.023645558127076145, ,0.047692362336108164, ,0.015765130586253104, ,0.0009338290302175675, ,0.209726256665315,-0.22675488265298005,0.10288264843000001,1.6928269137505652,0.48751903116309153,-1.3110341101208796, ,0.15949065808146348,0.15183510649355325,0.04293480194070081,-0.012801411747400047,0.1936003232901849,-0.1652823144054407, ,1.0882320404052734
0.015175086093968091,0.021936036608012577,-0.09161373116604721, ,0.016145231215234257,0.02126184059384387,-0.09289718123786656, ,0.001744409902715128, ,0.022323638645119933,-0.00448615474753048,-0.041263096850428886,0.021254292064212005,0.024958562390833536,-0.01977071363377999, ,0.04712869177544139, ,0.03278040796434139, ,0.0009394974279273407, ,0.209726256665315,-0.22675488265298005,0.10288264843000001,1.6928269137505652,0.48751903116309153,-1.3110341101208796, ,0.15949065808146348,0.15183510649355325,0.04293480194070081,-0.012801411747400047,0.1936003232901849,-0.1652823144054407, ,1.0906689167022705
0.015175086093968091,0.021936036608012577,-0.09161373116604721, ,0.01619636772525008,0.021248249406450887,-0.09299666068283866, ,0.0018516375059495541, ,0.022323638645119933,-0.00448615474753048,-0.041263096850428886,0.021254292064212005,0.024958562390833536,-0.01977071363377999, ,0.04712869177544139, ,0.03278040796434139, ,0.0009458317340247172, ,0.209726256665315,-0.22675488265298005,0.10288264843000001,1.6928269137505652,0.48751903116309153,-1.3110341101208796, ,0.15949065808146348,0.15183510649355325,0.04293480194070081,-0.012801411747400047,0.1936003232901849,-0.1652823144054407, ,1.0929100513458252
0.015499657795799397,0.02185547880885522,-0.09221768610548703, ,0.016247585762589795,0.021234513559162803,-0.09309614655114083, ,0.0013102239653628167, ,0.021140772624873228,-0.005755394658227187,-0.03927550016862085,-0.04254525766895973,-0.029302621880942337,0.0714369490487621, ,0.044973567218354785, ,0.05165896962684439, ,0.0009483447838960143, ,0.2120199083289597,-0.22445350825646115,0.10350746021000001,1.6913590841461734,0.4902517611584003,-1.313262468194808, ,0.14577103157983223,0.15305958315882384,0.040428455634517774,-0.1095004887850625,0.14534652240833068,-0.12447780125863082, ,1.095196008682251
0.015499657795799397,0.02185547880885522,-0.09221768610548703, ,0.016298884634907817,0.021220636284751165,-0.09319563699993261, ,0.0014135687187784509, ,0.021140772624873228,-0.005755394658227187,-0.03927550016862085,-0.04254525766895973,-0.029302621880942337,0.0714369490487621, ,0.044973567218354785, ,0.05165896962684439, ,0.0009515312492034284, ,0.2120199083289597,-0.22445350825646115,0.10350746021000001,1.6913590841461734,0.4902517611584003,-1.313262468194808, ,0.14577103157983223,0.15305958315882384,0.040428455634517774,-0.1095004887850625,0.14534652240833068,-0.12447780125863082, ,1.0974249839782715
0.015499657795799397,0.02185547880885522,-0.09221768610548703, ,0.01635026365356361,0.021206620801301607,-0.09329513019392646, ,0.0015183651744367418, ,0.021140772624873228,-0.005755394658227187,-0.03927550016862085,-0.04254525766895973,-0.029302621880942337,0.0714369490487621, ,0.044973567218354785, ,0.05165896962684439, ,0.0009553872623002536, ,0.2120199083289597,-0.22445350825646115,0.10350746021000001,1.6913590841461734,0.4902517611584003,-1.313262468194808, ,0.14577103157983223,0.15305958315882384,0.040428455634517774,-0.1095004887850625,0.14534652240833068,-0.12447780125863082, ,1.0996849536895752
0.015499657795799397,0.02185547880885522,-0.09221768610548703, ,0.01640172213361345,0.021192470312239014,-0.0933946243053782, ,0.0016243410548601761, ,0.021140772624873228,-0.005755394658227187,-0.03927550016862085,-0.04254525766895973,-0.029302621880942337,0.0714369490487621, ,0.044973567218354785, ,0.05165896962684439, ,0.0009599072203580909, ,0.2120199083289597,-0.22445350825646115,0.10350746021000001,1.6913590841461734,0.4902517611584003,-1.313262468194808, ,0.14577103157983223,0.15305958315882384,0.040428455634517774,-0.1095004887850625,0.14534652240833068,-0.12447780125863082, ,1.1019189357757568
0.015499657795799397,0.02185547880885522,-0.09221768610548703, ,0.01645325939380239,0.021178188006351854,-0.093494117514078, ,0.0017312873764072385, ,0.022397287295923232,-0.00639629244592342,-0.04247058394824517,-0.026492129405228947,0.005125758568261141,-0.06647895847479567, ,0.044973567218354785, ,0.0269808847631918, ,0.0009650842683852663, ,0.2120199083289597,-0.22445350825646115,0.10350746021000001,1.6913590841461734,0.4902517611584003,-1.313262468194808, ,0.14577103157983223,0.15305958315882384,0.040428455634517774,-0.1095004887850625,0.14534652240833068,-0.12447780125863082, ,1.1044800281524658
0.01572106317751092,0.02179152777517399,-0.09263075222335847, ,0.016504874756556293,0.02116377705781745,-0.09359360800733954, ,0.0013912306837232482, ,0.022397287295923232,-0.00639629244592342,-0.04247058394824517,-0.026492129405228947,0.005125758568261141,-0.06647895847479567, ,0.048438636811690326, ,0.0269808847631918, ,0.0009679252444875195, ,0.21351811850655925,-0.22278539795562866,0.10393134704000001,1.6909397042592043,0.49161812615605477,-1.3143766472317722, ,0.15015338854188412,0.17222675418960212,0.043640579506849325,0.030770911053777997,0.1531803155823681,-0.13012748188797688, ,1.1071441173553467
0.01572106317751092,0.02179152777517399,-0.09263075222335847, ,0.016556567547973477,0.0211492406262264,-0.09369309397999039, ,0.0014963857599726903, ,0.022397287295923232,-0.00639629244592342,-0.04247058394824517,-0.026492129405228947,0.005125758568261141,-0.06647895847479567, ,0.048438636811690326, ,0.0269808847631918, ,0.0009714249830006664, ,0.21351811850655925,-0.22278539795562866,0.10393134704000001,1.6909397042592043,0.49161812615605477,-1.3143766472317722, ,0.15015338854188412,0.17222675418960212,0.043640579506849325,0.030770911053777997,0.1531803155823681,-0.13012748188797688, ,1.1093950271606445
0.01572106317751092,0.02179152777517399,-0.09263075222335847, ,0.016608337097816957,0.021134581856607795,-0.0937925736343627, ,0.0016027045706067927, ,0.022397287295923232,-0.00639629244592342,-0.04247058394824517,-0.026492129405228947,0.005125758568261141,-0.06647895847479567, ,0.048438636811690326, ,0.0269808847631918, ,0.0009755781381822855, ,0.21351811850655925,-0.22278539795562866,0.10393134704000001,1.6909397042592043,0.49161812615605477,-1.3143766472317722, ,0.15015338854188412,0.17222675418960212,0.043640579506849325,0.030770911053777997,0.1531803155823681,-0.13012748188797688, ,1.1117050647735596
0.01572106317751092,0.02179152777517399,-0.09263075222335847, ,0.016660182739506032,0.021119803879453634,-0.09389204518028268, ,0.0017099761597724858, ,0.022397287295923232,-0.00639629244592342,-0.04247058394824517,-0.026492129405228947,0.005125758568261141,-0.06647895847479567, ,0.048438636811690326, ,0.0269808847631918, ,0.0009803781252515026, ,0.21351811850655925,-0.22278539795562866,0.10393134704000001,1.6909397042592043,0.49161812615605477,-1.3143766472317722, ,0.15015338854188412,0.17222675418960212,0.043640579506849325,0.030770911053777997,0.1531803155823681,-0.13012748188797688, ,1.1140820980072021
0.015945867722637116,0.021735552782092202,-0.09307880796381073, ,0.01671210381010849,0.02110490981074374,-0.09399150683506112, ,0.00134827576134721, ,0.021934656644965387,-0.005132974811672189,-0.04457171635292718,-0.02913337324750917,0.005524992444540424,-0.03417213506273737, ,0.049941110231907955, ,0.02964967227060993, ,0.0009827670709404357, ,0.21497771501978769,-0.22110184218904771,0.10439282628,1.6911493942026892,0.49325776415324,-1.31579534081627, ,0.13894134928033788,0.16111535069349878,0.04590435596541788,0.0,0.1490655829943094,-0.12289840945706074, ,1.117995023727417
0.015945867722637116,0.021735552782092202,-0.09307880796381073, ,0.016764099650332296,0.021089902751970768,-0.09409095682348341, ,0.0014528636422707726, ,0.021934656644965387,-0.005132974811672189,-0.04457171635292718,-0.02913337324750917,0.005524992444540424,-0.03417213506273737, ,0.049941110231907955, ,0.02964967227060993, ,0.0009857999520457928, ,0.21497771501978769,-0.22110184218904771,0.10439282628,1.6911493942026892,0.49325776415324,-1.31579534081627, ,0.13894134928033788,0.16111535069349878,0.04590435596541788,0.0,0.1490655829943094,-0.12289840945706074, ,1.1205310821533203
0.015945867722637116,0.021735552782092202,-0.09307880796381073, ,0.016816169604517688,0.021074785790164762,-0.09419039337779998, ,0.0015587368334069008, ,0.021934656644965387,-0.005132974811672189,-0.04457171635292718,-0.02913337324750917,0.005524992444540424,-0.03417213506273737, ,0.049941110231907955, ,0.02964967227060993, ,0.00098947262436221, ,0.21497771501978769,-0.22110184218904771,0.10439282628,1.6911493942026892,0.49325776415324,-1.31579534081627, ,0.13894134928033788,0.16111535069349878,0.04590435596541788,0.0,0.1490655829943094,-0.12289840945706074, ,1.1229591369628906
0.016140730931731524,0.02168033114235632,-0.09346291937014915, ,0.016868313020628935,0.02105956199791802,-0.09428981473771599, ,0.0012643124517596367, ,0.02113988670773797,-0.0069036730722076825,-0.04036664607827381,-0.06752160718273609,-0.030046500371242242,0.010404702812343226, ,0.04608710912513976, ,0.07390434656501582, ,0.0009912231965112383, ,0.21622879774541204,-0.21963452294294505,0.10478689844000001,1.6905203243722353,0.494487492651129,-1.3167981019495376, ,0.13693642360529693,0.16561420865352666,0.04126635108808291,-0.048250322005629766,0.12107774558981153,-0.10005119866441146, ,1.1258080005645752
0.016140730931731524,0.02168033114235632,-0.09346291937014915, ,0.016920529250246355,0.02104423443341006,-0.09438921915038133, ,0.0013677484138353063, ,0.02113988670773797,-0.0069036730722076825,-0.04036664607827381,-0.06752160718273609,-0.030046500371242242,0.010404702812343226, ,0.04608710912513976, ,0.07390434656501582, ,0.0009936062675069601, ,0.21622879774541204,-0.21963452294294505,0.10478689844000001,1.6905203243722353,0.494487492651129,-1.3167981019495376, ,0.13693642360529693,0.16561420865352666,0.04126635108808291,-0.048250322005629766,0.12107774558981153,-0.10005119866441146, ,1.128087043762207
0.016140730931731524,0.02168033114235632,-0.09346291937014915, ,0.016972817648558205,0.02102880614043217,-0.09448860487038177, ,0.0014727131009939108, ,0.02113988670773797,-0.0069036730722076825,-0.04036664607827381,-0.06752160718273609,-0.030046500371242242,0.010404702812343226, ,0.04608710912513976, ,0.07390434656501582, ,0.0009966195180320355, ,0.21622879774541204,-0.21963452294294505,0.10478689844000001,1.6905203243722353,0.494487492651129,-1.3167981019495376, ,0.13693642360529693,0.16561420865352666,0.04126635108808291,-0.048250322005629766,0.12107774558981153,-0.10005119866441146, ,1.1303460597991943
0.016140730931731524,0.02168033114235632,-0.09346291937014915, ,0.017025177574352516,0.02101328014841245,-0.09458797015972835, ,0.0015789053712296434, ,0.02113988670773797,-0.0069036730722076825,-0.04036664607827381,-0.06752160718273609,-0.030046500371242242,0.010404702812343226, ,0.04608710912513976, ,0.07390434656501582, ,0.0010002588046145206, ,0.21622879774541204,-0.21963452294294505,0.10478689844000001,1.6905203243722353,0.494487492651129,-1.3167981019495376, ,0.13693642360529693,0.16561420865352666,0.04126635108808291,-0.048250322005629766,0.12107774558981153,-0.10005119866441146, ,1.1326210498809814
0.016368036722838028,0.021596809311846148,-0.09388387772192086, ,0.017077608390009123,0.020997659472440415,-0.09468731328784728, ,0.001227998855662086, ,0.020092699658374572,-0.007925976837759344,-0.03677861530280409,-0.09062427325204807,-0.05194931718039706,0.049274993731743516, ,0.04265213045072893, ,0.10445775779658331, ,0.0010016733390930768, ,0.2177192851901374,-0.21781195798462807,0.10521597043000001,1.6896815645982974,0.49571722114901795,-1.317882541822946, ,0.13161850424198443,0.16418155978974183,0.03739157633802818,-0.08930355616400588,0.10200191193354505,-0.0850020235807723, ,1.134871006011963
0.016368036722838028,0.021596809311846148,-0.09388387772192086, ,0.017130109461491603,0.02098194711329197,-0.0947866325315706, ,0.001331832057188735, ,0.020092699658374572,-0.007925976837759344,-0.03677861530280409,-0.09062427325204807,-0.05194931718039706,0.049274993731743516, ,0.04265213045072893, ,0.10445775779658331, ,0.001003711355871445, ,0.2177192851901374,-0.21781195798462807,0.10521597043000001,1.6896815645982974,0.49571722114901795,-1.317882541822946, ,0.13161850424198443,0.16418155978974183,0.03739157633802818,-0.08930355616400588,0.10200191193354505,-0.0850020235807723, ,1.137347936630249
