NicholasDascanio/dvrk_moveit_final/test/execution/third_experiment_notsharpbends/thirdexp_500vel5.0/thirdexp_500vel5.0_25.csv
Current Position (x),Current Position (y),Current Position (z), ,Planned Position (x),Planned Position (y),Planned Position (z), ,Position Error,,Cartesian linear Velocity(x),Cartesian linear Velocity(y),Cartesian linear Velocity(z),Cartesian Angular Velocity(x),Cartesian Angular Velocity(y),Cartesian Angular Velocity(z), ,Total Linear Velocity, ,Total Angular Velocity, ,MSE, ,Joint 1 Position,Joint 2 Position,Joint 3 Position,Joint 4 Position,Joint 5 Position,Joint 6 Position, ,Joint 1 Velocity,Joint 2 Velocity,Joint 3 Velocity,Joint 4 Velocity,Joint 5 Velocity,Joint 6 Velocity, ,Time Stamp
0.009646052314594023,0.02038144658614367,-0.079359736249864, ,0.009816559608252926,0.020325882096249904,-0.07943347760840377, ,0.00019390187644096845, ,2.7132461508466694e-05,-5.889033076709901e-06,-7.710859312632738e-06,0.08936569340393792,-0.0002494304058118821,-0.027188758266247122, ,2.8815074690623743e-05, ,0.08936604149840126, ,1.6158489703414036e-05, ,0.17112031502706668,-0.24405380429124296,0.08984715619000001,1.6909397042592043,0.45978182171070714,-1.2796766504754657, ,0.000323622018510101,5.9563123562598276e-05,9.145708873339754e-06,-0.0008594166173623498,0.0,-0.09384157301680984, ,0.024610042572021484
0.009654750922582195,0.020383653825608278,-0.07936959732187532, ,0.009858578044249298,0.020353808976337495,-0.07953686833605593, ,0.0002653597609663199, ,0.0013557341171798142,3.692274385859868e-05,-0.0005128666852544125,0.02502052617360952,-0.1321869243738534,-0.0450234045985893, ,0.0014499691453073154, ,0.1345340466403322, ,2.087552897305856e-05, ,0.1711512059585636,-0.24405380429124296,0.08985623022000001,1.6909397042592043,0.4592352757116453,-1.2836416308282705, ,0.001939741100607017,5.772669451363615e-05,0.00017087549004345785,-0.0008416688041158574,-0.13509910370826567,-0.03734725628689084, ,0.046894073486328125
0.009682183480489466,0.020389164355377982,-0.0794010198906355, ,0.009900800078998132,0.020381149494183067,-0.0796404051106717, ,0.0003242880489861688, ,0.0012638511656100748,0.0002316604035864303,-0.001213571488868526,0.27709980028770226,-0.11243113940590241,-0.11916980775002699, ,0.0017674111208200382, ,0.2990402321220195, ,2.4485927699795537e-05, ,0.17119754235580892,-0.24405380429124296,0.08990419295,1.6909397042592043,0.455409453718213,-1.2884447673184052, ,0.002136021173105945,5.5224847817600635e-05,0.002929167252666422,0.0008581248521942448,-0.13956159897000073,-0.043296090287777034, ,0.06997394561767578
0.009736960493384562,0.02041496230175134,-0.07950682577413372, ,0.009943223894782173,0.020407908519199276,-0.0797440854629112, ,0.00031446224975852354, ,0.0022900337539034435,0.001239662097363967,-0.00515810065457029,0.36760862770260866,-0.1234839545147637,-0.14887152058301123, ,0.005778150142765104, ,0.3877942626965335, ,2.614314133695192e-05, ,0.1712747696845512,-0.24404608155836874,0.08998456293000001,1.6911493942026892,0.4533599062217314,-1.2937161916749067, ,0.00458572729733479,8.634577800937778e-07,0.0050972196864,0.0017781895282730368,-0.12431649766607106,-0.3941630180431396, ,0.09565401077270508
0.009787936455064952,0.02044535497701539,-0.07962980491143368, ,0.009985847681932867,0.020434090903843363,-0.07984790693228583, ,0.00029472737328687407, ,0.0016259919037609186,0.0013490845794321379,-0.005370720406388483,-0.12773694221066287,-0.03480527577084367,0.02842946851772117, ,0.005771353095865415, ,0.132393857947966, ,2.6783448258439517e-05, ,0.17139061067766453,-0.24405380429124296,0.09010771048,1.6911493942026892,0.45090044922595346,-1.2935076016914635, ,0.005418909259236381,9.680438075326774e-05,0.005587096289021397,0.0017386208844575978,-0.030880653749076125,0.13117633717503785, ,0.11906695365905762
0.009818803772863822,0.020475120153262253,-0.07974758355570383, ,0.010028669638816344,0.020459701483641155,-0.07995186706714703, ,0.00029328001996803855, ,0.0008177567860284605,0.0009125083573215963,-0.002939229231116331,-0.06272794761387039,0.05436310415729726,0.036835331647869285, ,0.00318440985683785, ,0.08300688227638871, ,2.7193860151724083e-05, ,0.1716300153967655,-0.24403835882549452,0.09023604319,1.6911493942026892,0.45199354122407703,-1.2901516504337258, ,0.01056243883333794,-0.0010806016257202337,0.003392718108626198,0.0016867524231258342,0.06702710674920903,0.07238287832816295, ,0.14173507690429688
0.009844126764042699,0.020497033175296307,-0.07982733189450283, ,0.010071687971819336,0.02048474507721159,-0.08005596342467448, ,0.0003228118294423726, ,0.0014020760033207468,0.001158961812805459,-0.004558454735246855,0.023285993617133634,0.012221176097740994,-0.0025277889754219325, ,0.004908005621015899, ,0.026298187047416367, ,2.8293396603510787e-05, ,0.171853974650118,-0.24404608155836874,0.09032419091,1.6911493942026892,0.45281336022266966,-1.2900033704544986, ,0.009743737038410288,0.00045541740049762666,0.004922376860321385,0.0016493416029121839,0.022364501265619192,-0.02271823914747885, ,0.16145110130310059
0.009879975456505187,0.020524775007817984,-0.07993156676930357, ,0.010114900895335085,0.02050922648629064,-0.08016019357086428, ,0.0003281797262522218, ,0.0018652114658769094,0.0014278547261859112,-0.00561363572552313,0.03344024809160053,-0.0017533359375901763,-0.0074962633536850036, ,0.006085284626901171, ,0.03348618183315534, ,2.921263606376859e-05, ,0.1720702111705963,-0.24404608155836874,0.09043567185000001,1.6913590841461734,0.45281336022266966,-1.2903300854150608, ,0.011958473292592297,0.00033128087201282635,0.006017684744994334,0.0001299033504873915,0.010533644961165808,-0.03442078398359562, ,0.1819901466369629
0.009922691474422148,0.020554531685652473,-0.08004654475930693, ,0.010158306631749117,0.020533150495755974,-0.0802645550805186, ,0.0003217144040891132, ,0.0020381630023338614,0.0014066831766062725,-0.005495090288617529,0.0034375474374308086,-0.007283032837035548,0.0006365752784732646, ,0.00602734462790111, ,0.008053526847257965, ,2.9873317856074164e-05, ,0.1723482295540684,-0.24404608155836874,0.0905588194,1.6913590841461734,0.45281336022266966,-1.2903300854150608, ,0.013916548109469244,0.0002592913559753126,0.0059061221802002226,0.0001299033504873915,0.006850869373135809,-0.0032834551027326533, ,0.20210003852844238
0.00993712011549524,0.020564871196728396,-0.08008871565456308, ,0.010201903411425415,0.02055652187365093,-0.08036904553723351, ,0.0003857003346090283, ,0.0020624447977832523,0.0014366284186587948,-0.005548692661127786,-0.0021195014476356345,-0.013364468878679633,0.0005268702483325279, ,0.006091434150087697, ,0.013531493248570843, ,3.106556758979213e-05, ,0.1724486250814333,-0.24403835882549452,0.09060418955,1.6913590841461734,0.4529499967224351,-1.2905231820588978, ,0.01339406373443483,0.0,0.005943586388059703,0.0001299033504873915,0.0,0.0022379281749721307, ,0.2237839698791504
0.009986859097411205,0.02059574757317129,-0.08020655877129329, ,0.010245689472691994,0.020579345371208778,-0.08047366253338822, ,0.00037229909363639316, ,0.0017922701635133616,0.0009679561700251226,-0.003724543354366935,-0.0009497420980186374,-0.012395364291500535,-0.005540468597687402, ,0.004245161326106325, ,0.012431695992703874, ,3.193200670500955e-05, ,0.17280387079364762,-0.2440306360926203,0.09073122597000001,1.691568774089658,0.4529499967224351,-1.2905231820588978, ,0.01390024045092585,0.0003968765578171297,0.004039769596753741,0.006232554095307151,0.0,0.001670822912320661, ,0.2442779541015625
0.010019193073237417,0.02061579447495836,-0.08028574155355758, ,0.010289663061827064,0.020601625722877173,-0.08057840367013298, ,0.00039875541719406823, ,0.001996797750377613,0.0012242498573116802,-0.0049500798029620905,-0.0012919260457833405,-0.012378140611331388,-0.005252007381817688, ,0.005476246800933462, ,0.012445378054907825, ,3.289207012612147e-05, ,0.1730432755127486,-0.24402291335974605,0.09081678111000001,1.691568774089658,0.4530866332222005,-1.2906345999625943, ,0.013759162180436534,0.000991598979941336,0.00530783456181273,0.005719437631259958,0.0,0.0013280409351838526, ,0.26543498039245605
0.010082382570915278,0.0206533819185451,-0.08044222397112138, ,0.010333822433044714,0.02062336764634241,-0.08068326655737781, ,0.0003496060485642593, ,0.0020732764131883422,0.001099545958709094,-0.004852054769964399,-0.0018871365483990887,-0.013393072699593396,-0.0048699086790380385, ,0.005389797017655758, ,0.013525371639983292, ,3.33206894655548e-05, ,0.17350663948520206,-0.24398429969537494,0.09098529881,1.691568774089658,0.4533599062217314,-1.2908574357699871, ,0.014874128770920186,0.0021515967124037614,0.005193613146397131,0.004982332820136758,0.0002884963723987951,0.0006529423252951507, ,0.2857050895690918
0.010102838438205669,0.020666712896476678,-0.08049228415335427, ,0.010378165848480895,0.020644575842553234,-0.0807882488137814, ,0.0004048336846496542, ,0.0022141101454958142,0.0012727399888054916,-0.0053733921219450325,0.006300767233399179,-0.006710620207448,-0.0004984733109707476, ,0.005949411207142522, ,0.009205003357872867, ,3.436029975822559e-05, ,0.17366109414268655,-0.24397657696250072,0.09103974299,1.6917784640331426,0.45349654272149686,-1.2909688536736834, ,0.01644661032209199,0.0015868232099938125,0.005790189574700111,0.0006895188672294355,0.00992987687610754,-0.007293394350943948, ,0.3051431179046631
0.010169073988141115,0.020707417942283757,-0.08065934639978822, ,0.010422691578179356,0.02066525499574562,-0.08089334806673992, ,0.00034764403658592746, ,0.002377187168741067,0.0015661362013796448,-0.006309156671156106,0.007084903827327995,-0.006623036531130552,-0.00043048380521528177, ,0.0069216514891818, ,0.009698477464967322, ,3.4876339747730006e-05, ,0.17410901264939158,-0.2439456860310038,0.09121863101000001,1.6917784640331426,0.45349654272149686,-1.2908054961934023, ,0.016361541648012203,0.0009246975327766758,0.006783991277683136,0.0006998280192445755,0.00992987687610754,-0.007429243467614106, ,0.32299304008483887
0.010213767970412551,0.020733887704276772,-0.08076978921981959, ,0.010467397900077372,0.020685409773466817,-0.08099856195237483, ,0.00034498581732904393, ,0.0022544809912120978,0.001128971434832012,-0.005033513207044572,0.0013102250085081347,-0.010379576701379865,0.00022212468693989996, ,0.005629699480957706, ,0.01046194527043636, ,3.531912564938909e-05, ,0.17444109016298323,-0.2439070723666327,0.09133788969000001,1.691988153976627,0.4537698157210277,-1.290864974520514, ,0.017263405777418733,0.002239015444338497,0.005423497282941777,0.00033724557788990744,0.0070603473245795965,-0.0030422701732997146, ,0.34502100944519043
0.010259192752918547,0.020757667867872948,-0.08087004274105247, ,0.010512283099991766,0.02070504482659947,-0.08110388811552217, ,0.00034857935597993673, ,0.00231981341335962,0.001177529531365393,-0.004970156989762051,0.0013343942020837512,-0.011253241727473233,0.0005558729617125172, ,0.005609863685770037, ,0.011332080754682798, ,3.5739675654387966e-05, ,0.17480405860807177,-0.24387618143513579,0.09144677805000001,1.691988153976627,0.4540430887205586,-1.2911694890680474, ,0.018176008726004746,0.0015180556270507416,0.005384993752535498,0.00033724557788990744,0.0070648215141248345,-0.002326969651641959, ,0.363692045211792
0.01028430751718439,0.020769239833721156,-0.08092179922315278, ,0.010557345471604678,0.020724164789385928,-0.08120932420972049, ,0.00039906403255192266, ,0.0023876299797180554,0.0010271583380604293,-0.005028281561630827,-0.0017532675726928868,-0.011926380039915035,0.0005817602451998017, ,0.005660339798504331, ,0.012054562821751554, ,3.6425412789641415e-05, ,0.1749971269299274,-0.24385301323651312,0.09150251852,1.691988153976627,0.4540430887205586,-1.291087810327907, ,0.01881382663728604,0.0034424909531196556,0.005410601739130436,0.00033724557788990744,0.0070648215141248345,-0.0010796962570803967, ,0.38224101066589355
0.01033497275053822,0.020793935997628927,-0.08103376279788492, ,0.010602583316449461,0.02074277427945275,-0.08131486789720031, ,0.0003914754312280531, ,0.002587361607269867,0.0013238969011203597,-0.005787992137062203,0.0005422408109039601,-0.009387053714817965,0.001491758084774054, ,0.00647672726539138, ,0.009402701529134198, ,3.7003864401843274e-05, ,0.17538326357363862,-0.24379895410639355,0.09162307349000001,1.691988153976627,0.45417972522032407,-1.2911992282316034, ,0.019923775258969302,0.002292109065226335,0.0062539503415783276,0.00033724557788990744,0.010852548890677948,-0.0019890594862345097, ,0.4010279178619385
0.010388735328451885,0.02082159968979602,-0.08116206339744757, ,0.010647994943896625,0.020760877897834488,-0.08142051684887172, ,0.0003710806796003144, ,0.0025319717847971327,0.0013117866483405266,-0.005797944945180718,-0.0005470467691012685,-0.010253858086652707,-0.002312555915213554, ,0.006461256140807288, ,0.010268439963151625, ,3.7418503984083985e-05, ,0.17576940021734985,-0.2437217267776513,0.09176048023000001,1.6921978439201113,0.4543163617200895,-1.2913106461352997, ,0.01886619116470592,0.0025684517026610698,0.006244144068992553,0.0038703137119375304,0.007970626660206748,-0.0007401405431849408, ,0.4191770553588867
0.010431279783617853,0.020839373756708007,-0.0812525652083315, ,0.01069357867113957,0.020778480228998156,-0.08152626874431376, ,0.0003839561872418157, ,0.002404936627921873,0.0009177180403541693,-0.004774357793152847,-0.006094909696549731,-0.015681453611036004,-0.002913793320308886, ,0.005424059266172435, ,0.016824265484218528, ,3.806758195936711e-05, ,0.1761014777309415,-0.24365222218178328,0.09185770198000001,1.6921978439201113,0.4544529982198549,-1.2914220640389962, ,0.01893016987003207,0.004082059190576288,0.005126749765046669,0.0038703137119375304,0.0024041052662428456,0.0030499453465850654, ,0.43743109703063965
0.010486384669348137,0.02086461437765605,-0.08137891014411501, ,0.010739332823180549,0.020795585840867534,-0.0816321212717624, ,0.00036450457141557835, ,0.002583440385433805,0.001281912419623884,-0.0061969919151036446,0.0028022416517142035,-0.0052571936239302315,-0.0025432570757514626, ,0.006835215612732071, ,0.005957401609340182, ,3.857030758859792e-05, ,0.17653395077189807,-0.24355954938729257,0.09199381243000002,1.6921978439201113,0.4548629077191513,-1.291674639009945, ,0.019051785095055365,0.004102401487536703,0.006648084941569284,0.0038703137119375304,0.013348547890594748,-0.005380533386429246, ,0.45416903495788574
0.010512384224487284,0.020876123391920107,-0.08144079612927277, ,0.010785255732816494,0.020812199284847333,-0.08173807212809978, ,0.000408556202989875, ,0.00258073891062149,0.0010931903088468619,-0.006080907022286558,0.0008426205046933348,-0.0058260733449612065,-0.0029226092557663023, ,0.006695723156601269, ,0.0058866910587518015, ,3.9256268231517176e-05, ,0.17672701909375368,-0.24350549025717302,0.09205992322,1.6921978439201113,0.4549995442189167,-1.2917860569136415, ,0.019194365201956064,0.005925437950232734,0.006488314264765784,0.0038537885795180723,0.012910185257883499,-0.0052460342530782165, ,0.46942591667175293
0.01056624440472732,0.020900563673296842,-0.08156497616520084, ,0.010831345740624844,0.020828325095847307,-0.08184411901884192, ,0.00039168592405838636, ,0.0026738771341736044,0.001139647829475441,-0.006223750725425398,0.0007583024417684664,-0.007904913974590129,-0.0020903811787701524, ,0.0068690238896161725, ,0.00794120130715184, ,3.9815560319736156e-05, ,0.17710543300459067,-0.2434050947298081,0.09219214480000001,1.6924075338635962,0.4549995442189167,-1.2916226994333602, ,0.01983217169456025,0.005748804697638717,0.006645311439299125,0.0026816096600723346,0.011709219406696681,-0.005278528071808789, ,0.48671793937683105
0.01059470921626703,0.020911407317005,-0.08162939419503465, ,0.010877601194949484,0.02084396779230656,-0.08195025965812808, ,0.0004330480417928087, ,0.0026641389526107944,0.0009031109371511593,-0.0056477864889648375,-0.004478372610092012,-0.014602901431851138,-0.002804892162773097, ,0.006309575100476573, ,0.015274179052140312, ,4.053009328063734e-05, ,0.17732166952506898,-0.24333559013394007,0.09226084817,1.6924075338635962,0.45513618071868217,-1.2916524385969161, ,0.020277124264630506,0.006749812803537107,0.006008604873632592,0.0026816096600723346,0.005219050855079322,-0.001361372645890536, ,0.5023269653320312
0.010648210504245291,0.020933713679983063,-0.08175477989151876, ,0.01092402045188644,0.020859131876217994,-0.0820564917687089, ,0.0004155281332331902, ,0.0026762042006035955,0.001278166530087696,-0.006778250907119243,0.022002552636756666,0.01618004113853108,-0.0012230484962790613, ,0.007398679879669589, ,0.02731128044360975, ,4.112120305762715e-05, ,0.17774641983315131,-0.24321202640795248,0.09239566233,1.6924075338635962,0.4556827267177439,-1.2919347527314207, ,0.02116817790731001,0.005981309230686839,0.0073101475539238195,0.0026816096600723346,0.03809002599485577,-0.025579929899644062, ,0.5182199478149414
0.01070878555265226,0.020959745884892595,-0.081893796928793, ,0.01097060187526998,0.020873821833152003,-0.08216281308193492, ,0.0003850979357356507, ,0.003005518762596694,0.0013149430833991121,-0.0076028754367231145,0.0009414710386745281,-0.0005045162251031977,-0.0004628483754678758, ,0.008280454893979413, ,0.0010681193448298712, ,4.154402703298481e-05, ,0.17817117014123365,-0.24309618541483913,0.09254343939000001,1.6924075338635962,0.4556827267177439,-1.2916080377708585, ,0.021592023107729414,0.007802497468267269,0.008093908292682929,0.0026816096600723346,0.021216573895065993,-0.006813649672019057, ,0.5348501205444336
0.010740065550155815,0.020972714737554746,-0.08196940136499777, ,0.011017343836658125,0.020888042132281372,-0.0822692213377458, ,0.0004170667983765502, ,0.0033215741333520606,0.0013531167517957807,-0.007512957553120699,0.0034478986380650505,-0.02277817980789906,-0.006772415338331201, ,0.00832516131149044, ,0.02303765301507904, ,4.225505515238583e-05, ,0.17839512939458618,-0.24301895808609686,0.09262380937,1.6924075338635962,0.4558193632175093,-1.2915560981942735, ,0.023425559505917248,0.006995008546347604,0.007980366492985972,0.0026816096600723346,0.0,-0.010307073721636436, ,0.548151969909668
0.010769790400562378,0.0209856854639699,-0.08204147939151836, ,0.011064244715318857,0.02090179722640473,-0.08237571428465776, ,0.00045326983538771155, ,0.0029952852474972188,0.0011634068769481242,-0.006917955111931023,0.015560192386536395,-0.005648732644364461,-0.005940607927081227, ,0.007627801269428644, ,0.016553783608246886, ,4.3080425005581686e-05, ,0.17863453411368713,-0.24294945349022884,0.09270158677000001,1.6924075338635962,0.45622927271680563,-1.291890351905363, ,0.022418365593780007,0.007530640213178198,0.007381284300278036,0.002624608201315854,0.016743778182852394,-0.022171027990977768, ,0.561743974685669
0.010816615539644766,0.021005909237167962,-0.08215442322862657, ,0.011111302898215701,0.020915091551971632,-0.0824822896797532, ,0.00045009432458131143, ,0.003177969170135795,0.001474994053222862,-0.008057814135885959,0.006898961611541652,0.0022526723763867406,-0.0009302473351015062, ,0.008786550184905335, ,0.007257421731137731, ,4.385305312875838e-05, ,0.178974334360153,-0.2428336124971155,0.09282214174,1.6926172238070805,0.4565025457163365,-1.2921131877127559, ,0.02292750460460758,0.0073222638588592015,0.00861016838918919,0.0027655100220138665,0.025443273333661285,-0.012182012534680018, ,0.5764060020446777
0.010851600656182644,0.021020394823184844,-0.08223638185259152, ,0.011158516779993641,0.020927929529105976,-0.08258894528866845, ,0.0004764958699953513, ,0.003202178056242528,0.001348650447822303,-0.007556556059232935,0.0032090405246023804,-0.006519918414270207,-0.002200291202863434, ,0.008317111386209906, ,0.007266859884329723, ,4.469312222806075e-05, ,0.17921373907925398,-0.24275638516837325,0.09290899317000001,1.6926172238070805,0.4565025457163365,-1.292031508972615, ,0.023402451679031017,0.007262763540394662,0.008069306747720365,0.0027655100220138665,0.01683160877268997,-0.00895989305604802, ,0.5900130271911621
0.010921717898308004,0.021047091514984115,-0.08239845999472141, ,0.011205884762965006,0.020940315561630864,-0.08269567888558356, ,0.00042484230047020203, ,0.0034959914723828125,0.0012766190749921168,-0.00810847094578417,-0.005288157170278494,-0.015828868088560266,-0.003059103500138681, ,0.008921827935811871, ,0.016688847658603047, ,4.529575133229858e-05, ,0.17972343944895278,-0.24257876231226608,0.09308139974000001,1.6926172238070805,0.4567758187158674,-1.2922543447800081, ,0.024796692333020846,0.009610015031235585,0.008591591974110033,0.0027655100220138665,0.008617587257077312,-0.003157708891695043, ,0.6037380695343018
0.010952411114832373,0.021059006788292062,-0.08247468489042359, ,0.011253405257095268,0.02095225403709224,-0.08280248825320881, ,0.0004576556218584074, ,0.0033271268834023306,0.0013635739977018429,-0.00809144217272015,0.026108721055168663,0.016829266523463803,-0.002265864392961607, ,0.008854408155260366, ,0.031062670396640842, ,4.599455251224075e-05, ,0.17996284416805375,-0.24248608951777537,0.09316306601,1.6926172238070805,0.45718572821516373,-1.2925885984910974, ,0.02623636758597478,0.008870224732926495,0.008704268590163936,0.0027655100220138665,0.04400077427998731,-0.03234124683755246, ,0.6181659698486328
0.01102401811010564,0.02108275157918401,-0.08263374571670339, ,0.011301076679988914,0.020963749326783566,-0.08290937118277555, ,0.00040852464401752367, ,0.00338133048265547,0.00086430940667526,-0.006821436321437841,-0.00486690989765138,-0.015426698469774871,-0.0029621695154418517, ,0.0076624030219529585, ,0.016176211634967477, ,4.648189563335869e-05, ,0.1804802672706268,-0.24228529846304556,0.09333158371000001,1.6926172238070805,0.4573223647149292,-1.2925366589145126, ,0.02625814652973735,0.01062125829006429,0.007246957015468609,0.0025894086627671607,0.010595487665378961,-0.0045072515148545395, ,0.6318731307983398
0.011057591747586522,0.021089581198536864,-0.08269841948340559, ,0.011348897456875257,0.02097480578576987,-0.08301632547402292, ,0.00044620245462170355, ,0.003262444490560506,0.0007578403909441825,-0.006360372123147273,-0.007632969231410666,-0.018167446571802987,-0.0029947322964639644, ,0.0071883377534061365, ,0.019705794168667534, ,4.7253711432834894e-05, ,0.18075056292122466,-0.24216945746993218,0.09340028708,1.6926172238070805,0.4574590012146946,-1.2926480768182091, ,0.025448361908948988,0.010444853475171002,0.006749496406779663,0.002502475904598497,0.006932847108213381,-0.0017465903711446759, ,0.6432490348815918
0.011090207976089343,0.021097349933669803,-0.08276380401152314, ,0.011396866020594155,0.020985427752911817,-0.08312334893518764, ,0.00048563183888419696, ,0.003509417654508668,0.0007809474411418902,-0.007033256202093729,0.007258439618916742,-0.004280339773061222,-0.0033459538450930294, ,0.007898897643588825, ,0.008426519866721834, ,4.8137978389288874e-05, ,0.1810208585718225,-0.24206133920969303,0.09347028674,1.6926172238070805,0.45773227421422547,-1.2927892338854614, ,0.028583416132069512,0.012302166055002414,0.007499440451977402,0.002424081535503287,0.02461502169401562,-0.01779897213779784, ,0.6550290584564209
0.0111269754720724,0.021106777921667656,-0.0828403274409372, ,0.011444980811582078,0.020995619550890205,-0.08323043938299204, ,0.0005154327373036848, ,0.0035694967535242687,0.0010455503218199174,-0.008161822506248398,0.013855416755843971,0.008162843172885403,-0.0012704933805579698, ,0.008969382875782531, ,0.01608118608574331, ,4.909527053339076e-05, ,0.18131432242104303,-0.2419300527508312,0.09355195301000001,1.6928269137505652,0.45800554721375636,-1.2929303909527137, ,0.028017992783723286,0.012532612461499046,0.008704268590163936,0.0016728805267273567,0.03713121666963249,-0.024051064596403497, ,0.667057991027832
0.011175213012384775,0.021122126385075327,-0.08295203678962176, ,0.011493240277857827,0.021005385486230002,-0.08333759464263252, ,0.0005132490984558507, ,0.003925070539197555,0.0013910052696193731,-0.00957363516940728,-0.0002361830339217037,-0.0074994569859146735,-0.0017106714810451362, ,0.01044009409702314, ,0.007503169802512671, ,5.00123004847226e-05, ,0.1816541226675089,-0.24177559809334673,0.09366991540000001,1.6928269137505652,0.45814218371352183,-1.2929601301162696, ,0.027442724568672867,0.012458571820726112,0.010132831755725191,0.0016728805267273567,0.02028014128542836,-0.010613887544069922, ,0.6779301166534424
0.011215768438014789,0.02113529413052885,-0.0830526776941843, ,0.011541642875008232,0.021014729849324443,-0.08344481254776853, ,0.0005239271304138174, ,0.00415880300768189,0.0013381254769301706,-0.01015360607653904,-0.00491537391884553,-0.013366605839995827,-0.0027850659867541478, ,0.011053593922622815, ,0.014241732497276203, ,5.093440697627211e-05, ,0.1819398637838552,-0.24162886616873647,0.09377621118000001,1.6928269137505652,0.45841545671305267,-1.293101287183522, ,0.028369788208810396,0.014651372789635755,0.010690477530201345,0.0016728805267273567,0.015153346124041206,-0.008390873242148619, ,0.6890289783477783
0.011291072158568737,0.021162890914755105,-0.08324796534238493, ,0.011590187066174236,0.02102365691445959,-0.08355209094051035, ,0.00044871841306690086, ,0.004257300142473117,0.0014603268097372864,-0.01089950957379348,0.018137240767982333,0.014543520849226176,-0.0014137499260209359, ,0.011243753414593844, ,0.014645437842898805, ,5.157694465238317e-05, ,0.18248045508505095,-0.24136629325101283,0.09398361758000001,1.6928269137505652,0.4592352757116453,-1.2936881158655598, ,0.030810695311191814,0.01562604010513268,0.011567764357298475,0.0016728805267273567,0.04664325016875121,-0.030939573631168667, ,0.7036170959472656
0.011343956753938676,0.02117928807941087,-0.0833700239711982, ,0.01163887132203649,0.021032170939838182,-0.08365942767140892, ,0.00043860296046427264, ,0.004203760230751924,0.0012911398272208742,-0.009545261493605819,0.002514699044496993,-0.007904496105410287,-0.0022171966988458434, ,0.010509550852077429, ,0.008294859295118282, ,5.2165603405485306e-05, ,0.18283570079726527,-0.24119639312777988,0.09411195029000001,1.6928269137505652,0.4592352757116453,-1.293606437125419, ,0.030770733319867308,0.013514409164470805,0.010132831755725191,0.0016728805267273567,0.02331087666947918,-0.014326266257573678, ,0.7145121097564697
0.011388315919669436,0.021189794280879137,-0.08346590483574871, ,0.011687694120801324,0.02104027616760391,-0.08376682059944303, ,0.00045003696553736774, ,0.004371309218645616,0.0007524399707199568,-0.008902016964985278,-0.02145246442118716,-0.03140205592949598,-0.0034612568172903433, ,0.009945874332578252, ,0.03803021549291559, ,5.294172736662816e-05, ,0.1831600555779827,-0.24103421573742118,0.09421306091000001,1.6928269137505652,0.45937191221141077,-1.293636176288975, ,0.03180192411476903,0.017576762652059787,0.009320545067290815,0.0016728805267273567,0.0,0.0046616201830260405, ,0.7236881256103516
0.011388315919669436,0.021189794280879137,-0.08346590483574871, ,0.011736653948186465,0.021047976823865874,-0.08387426759200865, ,0.0005551681852601549, ,0.004371309218645616,0.0007524399707199568,-0.008902016964985278,-0.02145246442118716,-0.03140205592949598,-0.0034612568172903433, ,0.009945874332578252, ,0.03803021549291559, ,5.403189014692543e-05, ,0.1831600555779827,-0.24103421573742118,0.09421306091000001,1.6928269137505652,0.45937191221141077,-1.293636176288975, ,0.03180192411476903,0.017576762652059787,0.009320545067290815,0.0016728805267273567,0.0,0.0046616201830260405, ,0.7328770160675049
0.011429368918628896,0.021198380887230174,-0.08355680101134695, ,0.011785749297407022,0.02105527711872257,-0.0839817665249073, ,0.0005727838603301667, ,0.004391880986016379,0.0009464562571973758,-0.009376033981663841,-0.0023147762799056314,-0.019304805014464903,-0.0051947522531214695, ,0.010396846217360117, ,0.019443086519710148, ,5.514993497370432e-05, ,0.18346896489295167,-0.24086431561418822,0.09430898637000001,1.6928269137505652,0.45964518521094166,-1.2937773333562272, ,0.032190278683334725,0.016804841784747792,0.009875270626162431,0.0016377117613378758,0.012964303468566855,-0.013493433221969576, ,0.7425141334533691
0.011472292789647337,0.021209098723978807,-0.0836552804723873, ,0.01183497866916109,0.021062181246286085,-0.08408931528233482, ,0.0005843902879894915, ,0.004347318047221744,0.001052453108482937,-0.010052802326389977,0.031692567519634514,0.0217265337516413,-0.003390914854664999, ,0.011002984429813897, ,0.03842474465991487, ,5.627622150031321e-05, ,0.18380876513941755,-0.2406944154909553,0.09441398586000001,1.6928269137505652,0.4601917312100034,-1.2941413262308725, ,0.034432852524844265,0.0178713637586574,0.010712045406859449,0.0015926623927356835,0.05786829331763014,-0.046514985852741005, ,0.7517881393432617
0.01151888153958279,0.021220020851718233,-0.08376096849953522, ,0.01188434057161573,0.021068693384706225,-0.08419691175686932, ,0.0005886483075502584, ,0.004858270177335578,0.0013070464810404693,-0.011417400816947192,-0.011221625159987262,-0.015080756630670263,-0.0016379321239525372, ,0.012476706337588257, ,0.018797709907575146, ,5.738797508303188e-05, ,0.18414856538588342,-0.2405090699019739,0.09452546680000001,1.6928269137505652,0.4604650042095343,-1.2944458407784059, ,0.03359183771981267,0.018476818839266117,0.012012678371040725,0.0015517448609308007,0.01881942288376426,-0.005459100970519053, ,0.760551929473877
0.011571295284578571,0.021234568637383305,-0.08388430723038981, ,0.011933833520392739,0.021074817696195243,-0.08430455384946049, ,0.0005775478824115452, ,0.0052096510243240775,0.0013866977439457976,-0.01201825604682696,-0.02427292854421956,-0.031122252470647937,-0.0022828705795936155, ,0.013172010963987164, ,0.03946858761380986, ,5.843932246091531e-05, ,0.1844883656323493,-0.2403237243129925,0.09464991064000002,1.6928269137505652,0.46060164070929976,-1.2945572586821021, ,0.034570834811829064,0.01908627143171174,0.0125621541955836,0.001511563960807691,0.0033274017744243218,0.0063817473692956836, ,0.7694399356842041
0.011617911533202217,0.021245601201961,-0.08399884305373874, ,0.011983456038554477,0.021080558327051156,-0.08441223946941775, ,0.0005759848369948573, ,0.00499906757139077,0.001082378151914816,-0.011955888880992254,-0.0032307301071634645,-0.0048434836374763954,-0.0025439338376377703, ,0.013004056981638751, ,0.005822087811067002, ,5.946089722853082e-05, ,0.18483588861168943,-0.24010748779251423,0.09477565077000001,1.6928269137505652,0.4610115502085961,-1.2948915123931917, ,0.0350173216082918,0.02250342460480692,0.012542371275590552,0.0014741459632891995,0.030935966254406637,-0.016980149451686594, ,0.7789289951324463
0.011671362175482617,0.02125673577415336,-0.08412451726593694, ,0.012033206656589633,0.02108591940768282,-0.0845199665343984, ,0.0005625742470896729, ,0.004869865786199162,0.0008255712541642027,-0.010762452676441235,0.01488861569399059,0.008602574546180996,-0.0031998819458455997, ,0.011841771332192347, ,0.017195203450659564, ,6.059755863505177e-05, ,0.18522202525540063,-0.23986808307341326,0.09490787235,1.6928269137505652,0.4614214597078924,-1.2951440873641402, ,0.03758294715186961,0.022198114984437606,0.011377722514285715,0.001435504194917449,0.047553029350274,-0.034265821591719064, ,0.7863900661468506
0.011671362175482617,0.02125673577415336,-0.08412451726593694, ,0.01208308391239913,0.021090905052633505,-0.08462773297039712, ,0.0006709997481852778, ,0.004869865786199162,0.0008255712541642027,-0.010762452676441235,0.01488861569399059,0.008602574546180996,-0.0031998819458455997, ,0.011841771332192347, ,0.017195203450659564, ,6.203218348044802e-05, ,0.18522202525540063,-0.23986808307341326,0.09490787235,1.6928269137505652,0.4614214597078924,-1.2951440873641402, ,0.03758294715186961,0.022198114984437606,0.011377722514285715,0.001435504194917449,0.047553029350274,-0.034265821591719064, ,0.7929520606994629
0.01172200033774586,0.021265468476549327,-0.08423334505259122, ,0.01213308635128184,0.021095519360605466,-0.08473553671173366, ,0.0006708732183112054, ,0.005453255707055456,0.0008144686052263019,-0.01165578669344129,-0.009769189396065275,-0.01727549776620487,-0.003709674915892018, ,0.01289413511478902, ,0.019846401925610775, ,6.344141798006971e-05, ,0.1855849937004892,-0.23965184655293498,0.09502194587000001,1.6928269137505652,0.46155809620765786,-1.2950921477875554, ,0.039973437893205885,0.02463575845235482,0.012224721043745205,0.0014025745650018354,0.023197741818049747,-0.012969446697244782, ,0.7995619773864746
0.01178145924096305,0.02127605135402367,-0.08436501579205527, ,0.012183212525920537,0.021099766414483852,-0.08484337570104201, ,0.0006490841889990046, ,0.0063020994079235546,0.001215950542013749,-0.013798899771476534,-0.0063277122693671285,-0.017494874002973355,-0.00396233485758284, ,0.01521856194163, ,0.01860403339744532, ,6.476349272087315e-05, ,0.18602518947431998,-0.23938927363521134,0.0951606489,1.6928269137505652,0.4619680057069542,-1.295426401498645, ,0.04551412065154474,0.02623636758597478,0.014520338669097542,0.0013697526258642054,0.028724291846914846,-0.01776930932629144, ,0.806473970413208
0.01178145924096305,0.02127605135402367,-0.08436501579205527, ,0.012233460996367518,0.021103650281361335,-0.08495124788925841, ,0.0007600630161605264, ,0.0063020994079235546,0.001215950542013749,-0.013798899771476534,-0.0063277122693671285,-0.017494874002973355,-0.00396233485758284, ,0.01521856194163, ,0.01860403339744532, ,6.637998568658145e-05, ,0.18602518947431998,-0.23938927363521134,0.0951606489,1.6928269137505652,0.4619680057069542,-1.295426401498645, ,0.04551412065154474,0.02623636758597478,0.014520338669097542,0.0013697526258642054,0.028724291846914846,-0.01776930932629144, ,0.814202070236206
0.01184369753342616,0.021291475461062002,-0.08451556562836117, ,0.012283830330030629,0.02110717501256183,-0.08505915123561016, ,0.0007233041174861963, ,0.00619913794772847,0.001663161752390767,-0.015710489300081024,0.03742312577604867,0.03239967014541904,-0.0032119097506043467, ,0.016971001513097068, ,0.04949977789143322, ,6.786486999373854e-05, ,0.18648083071389923,-0.2391267007174877,0.09532009257000001,1.6928269137505652,0.4626511882057813,-1.2959834910171268, ,0.04484732587829433,0.026799475164775707,0.016644526144200627,0.0013383228861395785,0.07978377083569102,-0.05996981160834635, ,0.821303129196167
0.011925482249857539,0.021314134893819718,-0.08472432968935845, ,0.012334319101658863,0.02111034464366485,-0.08516708370760456, ,0.0006361675550686977, ,0.006845004274283904,0.001842325488797534,-0.017394525775537774,0.0008754110831183856,-0.0027771441308420642,-0.0010873574596029115, ,0.018783444137790224, ,0.0029115771754031692, ,6.907996253611911e-05, ,0.18702914474796917,-0.2387791777381476,0.09553398042000001,1.6930366036940496,0.463471007204374,-1.2964886409590242, ,0.04506027614362336,0.028993871542459755,0.01818357479452055,-0.001016692311429483,0.04405691150231125,-0.02728389060480364, ,0.8284339904785156
0.011925482249857539,0.021314134893819718,-0.08472432968935845, ,0.012384925893328319,0.02111316319452991,-0.08527504328101662, ,0.0007448245064967894, ,0.006845004274283904,0.001842325488797534,-0.017394525775537774,0.0008754110831183856,-0.0027771441308420642,-0.0010873574596029115, ,0.018783444137790224, ,0.0029115771754031692, ,7.077455633898098e-05, ,0.18702914474796917,-0.2387791777381476,0.09553398042000001,1.6930366036940496,0.463471007204374,-1.2964886409590242, ,0.04506027614362336,0.028993871542459755,0.01818357479452055,-0.001016692311429483,0.04405691150231125,-0.02728389060480364, ,0.8329319953918457
0.01199395880825538,0.021331312461243243,-0.08489527944959295, ,0.012435649294427996,0.02111563466932049,-0.08538302793987795, ,0.0006924637068319007, ,0.00713583505454259,0.0015919161988157237,-0.017563023270911308,-0.013113806140283842,-0.019662551052070126,-0.0028484677098094013, ,0.019024040725467945, ,0.023634427310250405, ,7.230487465607526e-05, ,0.18748478598754842,-0.23847799115605287,0.09571934989000001,1.6930366036940496,0.4637442802039049,-1.2965481192861361, ,0.04626862094513446,0.031984139386070365,0.01835116534562212,-0.001016692311429483,0.027841342008447553,-0.017093784030424452, ,0.8374631404876709
0.01199395880825538,0.021331312461243243,-0.08489527944959295, ,0.01248648790164557,0.02111776305652846,-0.08549103567646608, ,0.0008019437249258292, ,0.00713583505454259,0.0015919161988157237,-0.017563023270911308,-0.013113806140283842,-0.019662551052070126,-0.0028484677098094013, ,0.019024040725467945, ,0.023634427310250405, ,7.412071436771527e-05, ,0.18748478598754842,-0.23847799115605287,0.09571934989000001,1.6930366036940496,0.4637442802039049,-1.2965481192861361, ,0.04626862094513446,0.031984139386070365,0.01835116534562212,-0.001016692311429483,0.027841342008447553,-0.017093784030424452, ,0.8422260284423828
0.012066860428991992,0.02134767257772937,-0.08508388780359359, ,0.012537440318953135,0.02111955232899779,-0.0855990644912914, ,0.0007340921606068842, ,0.007483114959061468,0.0015370033580386915,-0.01935944976745189,0.0589233638620102,0.04596359255111131,-0.00668096959425681, ,0.02081220036689165, ,0.07473026113743882, ,7.573019440032915e-05, ,0.18798676362437303,-0.23812274544383852,0.09591768226000001,1.6930366036940496,0.4645640992024975,-1.2968899117477521, ,0.05319335289151949,0.038095921942380886,0.020395405275288096,-0.001016692311429483,0.10307644765121232,-0.0925949081642473, ,0.8466489315032959
0.012066860428991992,0.02134767257772937,-0.08508388780359359, ,0.012588505157593143,0.021121006443949313,-0.08570711239308744, ,0.0008437414580485797, ,0.007483114959061468,0.0015370033580386915,-0.01935944976745189,0.0589233638620102,0.04596359255111131,-0.00668096959425681, ,0.02081220036689165, ,0.07473026113743882, ,7.762167273160762e-05, ,0.18798676362437303,-0.23812274544383852,0.09591768226000001,1.6930366036940496,0.4645640992024975,-1.2968899117477521, ,0.05319335289151949,0.038095921942380886,0.020395405275288096,-0.001016692311429483,0.10307644765121232,-0.0925949081642473, ,0.8512649536132812
0.012066860428991992,0.02134767257772937,-0.08508388780359359, ,0.012639681036064176,0.021122129343004697,-0.08581517739879821, ,0.0009559171881868993, ,0.007483114959061468,0.0015370033580386915,-0.01935944976745189,0.0589233638620102,0.04596359255111131,-0.00668096959425681, ,0.02081220036689165, ,0.07473026113743882, ,7.979741686944372e-05, ,0.1885505231241914,-0.23775205426587576,0.09613027382000001,1.6930366036940496,0.4655205547008556,-1.2975881583334867, ,0.05964609777402312,0.03564873837658557,0.021642406956521743,-0.001016692311429483,0.08437577901921928,-0.038335937597929054, ,0.8559830188751221
0.012146697040763745,0.0213659236027128,-0.0852852896586678, ,0.012690966580106645,0.02112292495221068,-0.08592325753356697, ,0.0008730868713969687, ,0.008436492515971407,0.0020258007626475063,-0.020464764799546172,0.0079244682153058,0.021498102294628313,0.004570390411532765, ,0.02222801999735309, ,0.022912049434022565, ,8.172577372797907e-05, ,0.1885505231241914,-0.23775205426587576,0.09613027382000001,1.6930366036940496,0.4655205547008556,-1.2975881583334867, ,0.05964609777402312,0.03564873837658557,0.021642406956521743,-0.001016692311429483,0.08437577901921928,-0.038335937597929054, ,0.8609011173248291
0.012146697040763745,0.0213659236027128,-0.0852852896586678, ,0.012742360422688701,0.0211233971820629,-0.08603135083072533, ,0.0009850082241947926, ,0.008436492515971407,0.0020258007626475063,-0.020464764799546172,0.0079244682153058,0.021498102294628313,0.004570390411532765, ,0.02222801999735309, ,0.022912049434022565, ,8.393425941813723e-05, ,0.1885505231241914,-0.23775205426587576,0.09613027382000001,1.6930366036940496,0.4655205547008556,-1.2975881583334867, ,0.05964609777402312,0.03564873837658557,0.021642406956521743,-0.001016692311429483,0.08437577901921928,-0.038335937597929054, ,0.8655300140380859
0.01222005931448723,0.021381669171015492,-0.08545878229677553, ,0.012793861203992035,0.021123549927530728,-0.08613945533178141, ,0.0009269249877096571, ,0.009090165570476655,0.0017587900937340228,-0.021521394255520628,-0.01170771720748939,-0.005594439800796878,0.0007350019024846511, ,0.023428505359797333, ,0.01297550700276527, ,8.596382216913559e-05, ,0.18906022349389023,-0.23743542221803254,0.09631305071000001,1.6930366036940496,0.46606710069991736,-1.2979521512081318, ,0.06214599971085185,0.04118790866253071,0.022594058893617024,-0.001016692311429483,0.058873978564405405,-0.025542631852483354, ,0.8699920177459717
0.01222005931448723,0.021381669171015492,-0.08545878229677553, ,0.012845467571397633,0.02112338706808103,-0.08624756908640793, ,0.0010392447892611954, ,0.009090165570476655,0.0017587900937340228,-0.021521394255520628,-0.01170771720748939,-0.005594439800796878,0.0007350019024846511, ,0.023428505359797333, ,0.01297550700276527, ,8.827051670350506e-05, ,0.18906022349389023,-0.23743542221803254,0.09631305071000001,1.6930366036940496,0.46606710069991736,-1.2979521512081318, ,0.06214599971085185,0.04118790866253071,0.022594058893617024,-0.001016692311429483,0.058873978564405405,-0.025542631852483354, ,0.8745059967041016
0.01222005931448723,0.021381669171015492,-0.08545878229677553, ,0.012897178179471634,0.021122912467702447,-0.08635569015243155, ,0.001153207999610081, ,0.00993759202971158,0.002055590892340842,-0.024428145452187633,0.005696492640925269,0.01583729791041749,0.0024549653521452066, ,0.026452135632097782, ,0.01683036942104434, ,9.109528456267368e-05, ,0.18986338771280958,-0.2368871081839626,0.09661508628000001,1.6928269137505652,0.46702355619827546,-1.2985687190537256, ,0.06763858984923077,0.04579968221933918,0.02569163148387097,-0.002661568896522594,0.0871647784520644,-0.04653949610568891, ,0.8768589496612549
0.012337911568403439,0.02140443928559819,-0.08574648144850407, ,0.01294899168995102,0.021122129974929554,-0.08646381659582111, ,0.0009837109206556455, ,0.00993759202971158,0.002055590892340842,-0.024428145452187633,0.005696492640925269,0.01583729791041749,0.0024549653521452066, ,0.026452135632097782, ,0.01683036942104434, ,9.345670158937468e-05, ,0.18986338771280958,-0.2368871081839626,0.09661508628000001,1.6928269137505652,0.46702355619827546,-1.2985687190537256, ,0.06763858984923077,0.04579968221933918,0.02569163148387097,-0.002661568896522594,0.0871647784520644,-0.04653949610568891, ,0.8792331218719482
0.012337911568403439,0.02140443928559819,-0.08574648144850407, ,0.013000906771729666,0.021121043422867223,-0.08657194649067598, ,0.0010960239005124378, ,0.00993759202971158,0.002055590892340842,-0.024428145452187633,0.005696492640925269,0.01583729791041749,0.0024549653521452066, ,0.026452135632097782, ,0.01683036942104434, ,9.610199762874952e-05, ,0.18986338771280958,-0.2368871081839626,0.09661508628000001,1.6928269137505652,0.46702355619827546,-1.2985687190537256, ,0.06763858984923077,0.04579968221933918,0.02569163148387097,-0.002661568896522594,0.0871647784520644,-0.04653949610568891, ,0.8814630508422852
0.012337911568403439,0.02140443928559819,-0.08574648144850407, ,0.013052922100843785,0.02111965662921455,-0.08668007791921463, ,0.0012099353672823886, ,0.00993759202971158,0.002055590892340842,-0.024428145452187633,0.005696492640925269,0.01583729791041749,0.0024549653521452066, ,0.026452135632097782, ,0.01683036942104434, ,0.000537608463836835, ,0.18986338771280958,-0.2368871081839626,0.09661508628000001,1.6928269137505652,0.46702355619827546,-1.2985687190537256, ,0.06763858984923077,0.04579968221933918,0.02569163148387097,-0.002661568896522594,0.0871647784520644,-0.04653949610568891, ,0.8837580680847168
0.012337911568403439,0.02140443928559819,-0.08574648144850407, ,0.013105036360458035,0.02111797339628935,-0.08678820897176359, ,0.0013250431634625106, ,0.00993759202971158,0.002055590892340842,-0.024428145452187633,0.005696492640925269,0.01583729791041749,0.0024549653521452066, ,0.026452135632097782, ,0.01683036942104434, ,0.0005486990934090277, ,0.18986338771280958,-0.2368871081839626,0.09661508628000001,1.6928269137505652,0.46702355619827546,-1.2985687190537256, ,0.06763858984923077,0.04579968221933918,0.02569163148387097,-0.002661568896522594,0.0871647784520644,-0.04653949610568891, ,0.886009931564331
0.012439392181870726,0.02142451120717528,-0.08600155071617374, ,0.01315724824085117,0.021115997511052045,-0.08689633774674564, ,0.0011879149179087848, ,0.011084892360392808,0.002180883686168756,-0.028536672834554924,0.03567885774600522,0.04892334441188587,8.076613036473357e-05, ,0.030691575208198697, ,0.06055126418449612, ,0.0005575770909715242, ,0.19055843367148978,-0.23639285328001225,0.09688341831000001,1.6928269137505652,0.468116648196399,-1.299460062283297, ,0.07513613741763323,0.05569069340285844,0.02999776180790961,-0.002661568896522594,0.12920521153707734,-0.08468321118382646, ,0.8882670402526855
0.012439392181870726,0.02142451120717528,-0.08600155071617374, ,0.013209556439401896,0.021113732745130124,-0.08700446235066829, ,0.001302139770782776, ,0.011084892360392808,0.002180883686168756,-0.028536672834554924,0.03567885774600522,0.04892334441188587,8.076613036473357e-05, ,0.030691575208198697, ,0.06055126418449612, ,0.000567776579736062, ,0.19055843367148978,-0.23639285328001225,0.09688341831000001,1.6928269137505652,0.468116648196399,-1.299460062283297, ,0.07513613741763323,0.05569069340285844,0.02999776180790961,-0.002661568896522594,0.12920521153707734,-0.08468321118382646, ,0.8904860019683838
0.012439392181870726,0.02142451120717528,-0.08600155071617374, ,0.0132619596605746,0.021111182854841985,-0.08711258089811247, ,0.0014174554591153644, ,0.011084892360392808,0.002180883686168756,-0.028536672834554924,0.03567885774600522,0.04892334441188587,8.076613036473357e-05, ,0.030691575208198697, ,0.06055126418449612, ,0.0005792587267547012, ,0.19055843367148978,-0.23639285328001225,0.09688341831000001,1.6928269137505652,0.468116648196399,-1.299460062283297, ,0.07513613741763323,0.05569069340285844,0.02999776180790961,-0.002661568896522594,0.12920521153707734,-0.08468321118382646, ,0.892765998840332
0.012439392181870726,0.02142451120717528,-0.08600155071617374, ,0.013314456615905225,0.021108351581221662,-0.08722069151172107, ,0.0015336228193930303, ,0.011084892360392808,0.002180883686168756,-0.028536672834554924,0.03567885774600522,0.04892334441188587,8.076613036473357e-05, ,0.030691575208198697, ,0.06055126418449612, ,0.0005919835813232123, ,0.19055843367148978,-0.23639285328001225,0.09688341831000001,1.6928269137505652,0.468116648196399,-1.299460062283297, ,0.07513613741763323,0.05569069340285844,0.02999776180790961,-0.002661568896522594,0.12920521153707734,-0.08468321118382646, ,0.8951539993286133
0.012439392181870726,0.02142451120717528,-0.08600155071617374, ,0.013367046023987025,0.021105242650042412,-0.08732879232218728, ,0.0016504679164104435, ,0.011084892360392808,0.002180883686168756,-0.028536672834554924,0.03567885774600522,0.04892334441188587,8.076613036473357e-05, ,0.030691575208198697, ,0.06055126418449612, ,0.0006059110067848863, ,0.19055843367148978,-0.23639285328001225,0.09688341831000001,1.6928269137505652,0.468116648196399,-1.299460062283297, ,0.07513613741763323,0.05569069340285844,0.02999776180790961,-0.002661568896522594,0.12920521153707734,-0.08468321118382646, ,0.8975400924682617
0.012549247120016021,0.021449173296805353,-0.08630109719170591, ,0.013419726610456423,0.0211018597718414,-0.08743688146824369, ,0.001472537656812455, ,0.012940117518612938,0.003425084511691091,-0.03622956945111256,0.085521249804398,0.09990082872131031,-0.0015759575419605277, ,0.03862330317205829, ,0.13150664366656994, ,0.0006171658983436859, ,0.1912843705616669,-0.23582909378019384,0.09719841678,1.6928269137505652,0.4696196496938188,-1.3006856592239575, ,0.08450306461128297,0.06301257739606293,0.038198588776978425,-0.002661568896522594,0.19169093999103004,-0.13934998449386088, ,0.8998451232910156
0.012549247120016021,0.021449173296805353,-0.08630109719170591, ,0.013472497107978687,0.021098206641943548,-0.08754495709665006, ,0.0015883184807291045, ,0.012940117518612938,0.003425084511691091,-0.03622956945111256,0.085521249804398,0.09990082872131031,-0.0015759575419605277, ,0.03862330317205829, ,0.13150664366656994, ,0.0006296165724768324, ,0.1912843705616669,-0.23582909378019384,0.09719841678,1.6928269137505652,0.4696196496938188,-1.3006856592239575, ,0.08450306461128297,0.06301257739606293,0.038198588776978425,-0.002661568896522594,0.19169093999103004,-0.13934998449386088, ,0.902198076248169
0.012549247120016021,0.021449173296805353,-0.08630109719170591, ,0.013525356256233884,0.021094286940485863,-0.08765301736218255, ,0.0017048230169291155, ,0.012940117518612938,0.003425084511691091,-0.03622956945111256,0.085521249804398,0.09990082872131031,-0.0015759575419605277, ,0.03862330317205829, ,0.13150664366656994, ,0.0006432267806344563, ,0.1912843705616669,-0.23582909378019384,0.09719841678,1.6928269137505652,0.4696196496938188,-1.3006856592239575, ,0.08450306461128297,0.06301257739606293,0.038198588776978425,-0.002661568896522594,0.19169093999103004,-0.13934998449386088, ,0.904655933380127
0.012661731436519951,0.021481304251994102,-0.08661582577412806, ,0.01357830280190249,0.02109010433244174,-0.08776106042762157, ,0.0015181247829013835, ,0.014554335933887967,0.004490594132522097,-0.040993520706962445,0.09635358372653456,0.09538383038320432,-0.004201830945315885, ,0.0437317146941629, ,0.1355801328765868, ,0.0006541630056627929, ,0.19200258471896975,-0.23531939341049504,0.09753026702,1.6926172238070805,0.47112265119123864,-1.3018295774244777, ,0.09186538389009755,0.06390366434913858,0.043284813913043486,-0.003229417566656607,0.1946909653946017,-0.1515346777436022, ,0.9073810577392578
0.012661731436519951,0.021481304251994102,-0.08661582577412806, ,0.013631335498651379,0.021085662467644917,-0.08786908446374124, ,0.0016331937429208193, ,0.014554335933887967,0.004490594132522097,-0.040993520706962445,0.09635358372653456,0.09538383038320432,-0.004201830945315885, ,0.0437317146941629, ,0.1355801328765868, ,0.0006662498048882006, ,0.19200258471896975,-0.23531939341049504,0.09753026702,1.6926172238070805,0.47112265119123864,-1.3018295774244777, ,0.09186538389009755,0.06390366434913858,0.043284813913043486,-0.003229417566656607,0.1946909653946017,-0.1515346777436022, ,0.9097161293029785
0.012661731436519951,0.021481304251994102,-0.08661582577412806, ,0.013684453107119469,0.021080964980813757,-0.08797708764929699, ,0.0017490754816049245, ,0.014554335933887967,0.004490594132522097,-0.040993520706962445,0.09635358372653456,0.09538383038320432,-0.004201830945315885, ,0.0437317146941629, ,0.1355801328765868, ,0.0006794549960676728, ,0.19200258471896975,-0.23531939341049504,0.09753026702,1.6926172238070805,0.47112265119123864,-1.3018295774244777, ,0.09186538389009755,0.06390366434913858,0.043284813913043486,-0.003229417566656607,0.1946909653946017,-0.1515346777436022, ,0.9120070934295654
0.012661731436519951,0.021481304251994102,-0.08661582577412806, ,0.01373765439490362,0.021076015491575482,-0.08808506817101464, ,0.0018656211867653454, ,0.014554335933887967,0.004490594132522097,-0.040993520706962445,0.09635358372653456,0.09538383038320432,-0.004201830945315885, ,0.0437317146941629, ,0.1355801328765868, ,0.0006937461549917412, ,0.19200258471896975,-0.23531939341049504,0.09753026702,1.6926172238070805,0.47112265119123864,-1.3018295774244777, ,0.09186538389009755,0.06390366434913858,0.043284813913043486,-0.003229417566656607,0.1946909653946017,-0.1515346777436022, ,0.9143729209899902
0.012661731436519951,0.021481304251994102,-0.08661582577412806, ,0.013790938136544336,0.021070817604490345,-0.08819302422357866, ,0.0019827158162752986, ,0.014554335933887967,0.004490594132522097,-0.040993520706962445,0.09635358372653456,0.09538383038320432,-0.004201830945315885, ,0.0437317146941629, ,0.1355801328765868, ,0.0007090910319117836, ,0.19200258471896975,-0.23531939341049504,0.09753026702,1.6926172238070805,0.47112265119123864,-1.3018295774244777, ,0.09186538389009755,0.06390366434913858,0.043284813913043486,-0.003229417566656607,0.1946909653946017,-0.1515346777436022, ,0.9166750907897949
0.012661731436519951,0.021481304251994102,-0.08661582577412806, ,0.013844303113511675,0.02106537490907583,-0.08830095400962128, ,0.002100269068376698, ,0.014554335933887967,0.004490594132522097,-0.040993520706962445,0.09635358372653456,0.09538383038320432,-0.004201830945315885, ,0.0437317146941629, ,0.1355801328765868, ,0.0007254578323407826, ,0.19200258471896975,-0.23531939341049504,0.09753026702,1.6926172238070805,0.47112265119123864,-1.3018295774244777, ,0.09186538389009755,0.06390366434913858,0.043284813913043486,-0.003229417566656607,0.1946909653946017,-0.1515346777436022, ,0.9189350605010986
0.012661731436519951,0.021481304251994102,-0.08661582577412806, ,0.013897748114190912,0.021059690979830795,-0.08840885573970993, ,0.0022182090605304804, ,0.014554335933887967,0.004490594132522097,-0.040993520706962445,0.09635358372653456,0.09538383038320432,-0.004201830945315885, ,0.0437317146941629, ,0.1355801328765868, ,0.000742815404761593, ,0.19200258471896975,-0.23531939341049504,0.09753026702,1.6926172238070805,0.47112265119123864,-1.3018295774244777, ,0.09186538389009755,0.06390366434913858,0.043284813913043486,-0.003229417566656607,0.1946909653946017,-0.1515346777436022, ,0.9212219715118408
0.012661731436519951,0.021481304251994102,-0.08661582577412806, ,0.013951271933868418,0.021053769376259666,-0.08851672763233731, ,0.002336477827588863, ,0.014554335933887967,0.004490594132522097,-0.040993520706962445,0.09635358372653456,0.09538383038320432,-0.004201830945315885, ,0.0437317146941629, ,0.1355801328765868, ,0.000761133363644665, ,0.19200258471896975,-0.23531939341049504,0.09753026702,1.6926172238070805,0.47112265119123864,-1.3018295774244777, ,0.09186538389009755,0.06390366434913858,0.043284813913043486,-0.003229417566656607,0.1946909653946017,-0.1515346777436022, ,0.9236631393432617
0.012661731436519951,0.021481304251994102,-0.08661582577412806, ,0.01400487337471746,0.021047613642896566,-0.08862456791390827, ,0.002455028063931882, ,0.014554335933887967,0.004490594132522097,-0.040993520706962445,0.09635358372653456,0.09538383038320432,-0.004201830945315885, ,0.0437317146941629, ,0.1355801328765868, ,0.0007803821670570198, ,0.19200258471896975,-0.23531939341049504,0.09753026702,1.6926172238070805,0.47112265119123864,-1.3018295774244777, ,0.09186538389009755,0.06390366434913858,0.043284813913043486,-0.003229417566656607,0.1946909653946017,-0.1515346777436022, ,0.9260330200195312
0.013031497782429619,0.021555997504354784,-0.08755323763678606, ,0.014058551245783918,0.02104122730932971,-0.08873237481872982, ,0.0016462659761157948, ,0.01936740430882412,0.0017974162116721733,-0.04781544796125427,0.029289476068517034,0.01896466946297832,-0.0028683421849452187, ,0.05162019099572236, ,0.03488957083589226, ,0.000790111198619478, ,0.1943116818483629,-0.2336049467124172,0.09851155855,1.691988153976627,0.47358210818701657,-1.3028549548093267, ,0.12453666871190391,0.10907694432008136,0.049777536000000004,-0.01984037624542239,0.1532274325687293,-0.1344067254337294, ,0.9282591342926025
0.013031497782429619,0.021555997504354784,-0.08755323763678606, ,0.014112304362972151,0.021034613890225342,-0.08884014658899837, ,0.0017595790374151745, ,0.01936740430882412,0.0017974162116721733,-0.04781544796125427,0.029289476068517034,0.01896466946297832,-0.0028683421849452187, ,0.05162019099572236, ,0.03488957083589226, ,0.0008008830634949857, ,0.1943116818483629,-0.2336049467124172,0.09851155855,1.691988153976627,0.47358210818701657,-1.3028549548093267, ,0.12453666871190391,0.10907694432008136,0.049777536000000004,-0.01984037624542239,0.1532274325687293,-0.1344067254337294, ,0.9304771423339844
0.013031497782429619,0.021555997504354784,-0.08755323763678606, ,0.014166131549030722,0.02102777688535205,-0.08894788147478941, ,0.0018738842657783719, ,0.01936740430882412,0.0017974162116721733,-0.04781544796125427,0.029289476068517034,0.01896466946297832,-0.0028683421849452187, ,0.05162019099572236, ,0.03488957083589226, ,0.0008126742854981, ,0.1943116818483629,-0.2336049467124172,0.09851155855,1.691988153976627,0.47358210818701657,-1.3028549548093267, ,0.12453666871190391,0.10907694432008136,0.049777536000000004,-0.01984037624542239,0.1532274325687293,-0.1344067254337294, ,0.93271803855896
0.013031497782429619,0.021555997504354784,-0.08755323763678606, ,0.01422003163353831,0.021020719779604895,-0.08905557773404538, ,0.0019890099863192757, ,0.01936740430882412,0.0017974162116721733,-0.04781544796125427,0.029289476068517034,0.01896466946297832,-0.0028683421849452187, ,0.05162019099572236, ,0.03488957083589226, ,0.0008254605431157214, ,0.1943116818483629,-0.2336049467124172,0.09851155855,1.691988153976627,0.47358210818701657,-1.3028549548093267, ,0.12453666871190391,0.10907694432008136,0.049777536000000004,-0.01984037624542239,0.1532274325687293,-0.1344067254337294, ,0.9350109100341797
0.013216600326350872,0.021586500070298092,-0.0880573207775559, ,0.014274003452889348,0.021013446043029863,-0.08916323363256443, ,0.001633871333078215, ,0.02002411845647609,0.004615637238321614,-0.05592716414741975,0.23858536323710022,0.2225967679241349,0.00945607824837476, ,0.059582859252029864, ,0.3263000911456957, ,0.000834153132255103, ,0.19553187364249036,-0.23257782324014534,0.09904174116000002,1.6917784640331426,0.4765881111818563,-1.305469506170929, ,0.1327229951866724,0.09999677719543813,0.05921491271375466,-0.03314665412170813,0.37527700248496476,-0.3294307893168749, ,0.9376020431518555
0.013216600326350872,0.021586500070298092,-0.0880573207775559, ,0.014328045850279969,0.021005959130847504,-0.08927084744398882, ,0.0017449887980110304, ,0.02002411845647609,0.004615637238321614,-0.05592716414741975,0.23858536323710022,0.2225967679241349,0.00945607824837476, ,0.059582859252029864, ,0.3263000911456957, ,0.0008438428733801662, ,0.19553187364249036,-0.23257782324014534,0.09904174116000002,1.6917784640331426,0.4765881111818563,-1.305469506170929, ,0.1327229951866724,0.09999677719543813,0.05921491271375466,-0.03314665412170813,0.37527700248496476,-0.3294307893168749, ,0.940587043762207
0.013216600326350872,0.021586500070298092,-0.0880573207775559, ,0.014382157675693579,0.02099826248347763,-0.08937841744979325, ,0.0018573755168386761, ,0.02002411845647609,0.004615637238321614,-0.05592716414741975,0.23858536323710022,0.2225967679241349,0.00945607824837476, ,0.059582859252029864, ,0.3263000911456957, ,0.0008545116380481505, ,0.19553187364249036,-0.23257782324014534,0.09904174116000002,1.6917784640331426,0.4765881111818563,-1.305469506170929, ,0.1327229951866724,0.09999677719543813,0.05921491271375466,-0.03314665412170813,0.37527700248496476,-0.3294307893168749, ,0.9437410831451416
0.013216600326350872,0.021586500070298092,-0.0880573207775559, ,0.014436337785886906,0.020990359526563244,-0.08948594193927432, ,0.001970812381174218, ,0.02002411845647609,0.004615637238321614,-0.05592716414741975,0.23858536323710022,0.2225967679241349,0.00945607824837476, ,0.059582859252029864, ,0.3263000911456957, ,0.000866139770789047, ,0.19553187364249036,-0.23257782324014534,0.09904174116000002,1.6917784640331426,0.4765881111818563,-1.305469506170929, ,0.1327229951866724,0.09999677719543813,0.05921491271375466,-0.03314665412170813,0.37527700248496476,-0.3294307893168749, ,0.9461319446563721
0.013216600326350872,0.021586500070298092,-0.0880573207775559, ,0.014490585044375701,0.020982253670994776,-0.08959341920953813, ,0.00208512569538867, ,0.02002411845647609,0.004615637238321614,-0.05592716414741975,0.23858536323710022,0.2225967679241349,0.00945607824837476, ,0.059582859252029864, ,0.3263000911456957, ,0.000878706635991105, ,0.19648176978601997,-0.2319059454800878,0.09945136880000001,1.6917784640331426,0.47918420467739964,-1.3076681250813014, ,0.1422742752001061,0.09703163758534844,0.055116994878892746,-0.032522198380838654,0.3420226744994362,-0.29948221108231143, ,0.948491096496582
0.013358293635478606,0.021620847775412264,-0.08844304642746219, ,0.014544898321420332,0.020973948312934296,-0.08970084756548895, ,0.001846232189643155, ,0.02002411845647609,0.004615637238321614,-0.05592716414741975,0.23858536323710022,0.2225967679241349,0.00945607824837476, ,0.059582859252029864, ,0.3263000911456957, ,0.0008885793457222484, ,0.19648176978601997,-0.2319059454800878,0.09945136880000001,1.6917784640331426,0.47918420467739964,-1.3076681250813014, ,0.1422742752001061,0.09703163758534844,0.055116994878892746,-0.032522198380838654,0.3420226744994362,-0.29948221108231143, ,0.9536809921264648
0.013358293635478606,0.021620847775412264,-0.08844304642746219, ,0.014599276494011883,0.020965446833839725,-0.08980822531981837, ,0.0019578820846829492, ,0.02047821676454359,0.003860961505600133,-0.0518905005098189,0.2103128148369031,0.1812051552786059,0.009168658440586019, ,0.05591858750686462, ,0.27760837913579023, ,0.0008993803834895282, ,0.19648176978601997,-0.2319059454800878,0.09945136880000001,1.6917784640331426,0.47918420467739964,-1.3076681250813014, ,0.1422742752001061,0.09703163758534844,0.055116994878892746,-0.032522198380838654,0.3420226744994362,-0.29948221108231143, ,0.9560041427612305
0.013514712218132614,0.021640287246064427,-0.08881090663785769, ,0.01465371844585775,0.02095675260048887,-0.08991555079299289, ,0.0017276554945859727, ,0.02211983171611289,0.0019420840638115257,-0.04980687793694102,-0.0014378520729040095,0.0009321471077882289,0.01182134414048268, ,0.05453240995486452, ,0.0016216674869217252, ,0.0009076631346004926, ,0.19753978418978874,-0.2311491176584138,0.09983895951,1.6913590841461734,0.48082384267458494,-1.308923461185518, ,0.14712704117592368,0.11047373871766097,0.05222561154098361,-0.02610676831942395,0.15917183385897263,-0.10479694778218362, ,0.9582531452178955
0.013514712218132614,0.021640287246064427,-0.08881090663785769, ,0.01470822306736743,0.020947868965003863,-0.09002282231324321, ,0.0018364778320015783, ,0.02211983171611289,0.0019420840638115257,-0.04980687793694102,-0.0014378520729040095,0.0009321471077882289,0.01182134414048268, ,0.05453240995486452, ,0.0016216674869217252, ,0.0009168593197232758, ,0.19753978418978874,-0.2311491176584138,0.09983895951,1.6913590841461734,0.48082384267458494,-1.308923461185518, ,0.14712704117592368,0.11047373871766097,0.05222561154098361,-0.02610676831942395,0.15917183385897263,-0.10479694778218362, ,0.9605131149291992
0.013514712218132614,0.021640287246064427,-0.08881090663785769, ,0.014762789255638491,0.020938799264875095,-0.090130038216553, ,0.0019467639305302757, ,0.02211983171611289,0.0019420840638115257,-0.04980687793694102,-0.0014378520729040095,0.0009321471077882289,0.01182134414048268, ,0.05453240995486452, ,0.0016216674869217252, ,0.0009269564237507954, ,0.19753978418978874,-0.2311491176584138,0.09983895951,1.6913590841461734,0.48082384267458494,-1.308923461185518, ,0.14712704117592368,0.11047373871766097,0.05222561154098361,-0.02610676831942395,0.15917183385897263,-0.10479694778218362, ,0.9627389907836914
0.013514712218132614,0.021640287246064427,-0.08881090663785769, ,0.014817415914442111,0.020929546822985513,-0.09023719684664591, ,0.0020582741870465078, ,0.02211983171611289,0.0019420840638115257,-0.04980687793694102,-0.0014378520729040095,0.0009321471077882289,0.01182134414048268, ,0.05453240995486452, ,0.0016216674869217252, ,0.000937940091355608, ,0.19753978418978874,-0.2311491176584138,0.09983895951,1.6913590841461734,0.48082384267458494,-1.308923461185518, ,0.14712704117592368,0.11047373871766097,0.05222561154098361,-0.02610676831942395,0.15917183385897263,-0.10479694778218362, ,0.9649999141693115
0.013877997567211657,0.021637921252442197,-0.0895591834749727, ,0.014872101954209033,0.020920114947634703,-0.09034429655497607, ,0.0014559848803683345, ,0.02333340570597245,-0.0026672123628600245,-0.04459714473949423,-0.17857407427062416,-0.1624726903627451,0.01595111465767173, ,0.050403047155340705, ,0.24142472677920693, ,0.0009429212912499612, ,0.19990294044930143,-0.22917982077548654,0.10061414093000001,1.6909397042592043,0.4813703886736467,-1.3087157028791792, ,0.15506036202364507,0.1427021677570989,0.04577244689655173,-0.036051726894153535,0.0008640440659391294,0.03324150742686645, ,0.9677269458770752
0.013877997567211657,0.021637921252442197,-0.0895591834749727, ,0.01492684629201526,0.020910506932563418,-0.09045133570071547, ,0.0015572895794246549, ,0.02333340570597245,-0.0026672123628600245,-0.04459714473949423,-0.17857407427062416,-0.1624726903627451,0.01595111465767173, ,0.050403047155340705, ,0.24142472677920693, ,0.0009487724178040059, ,0.19990294044930143,-0.22917982077548654,0.10061414093000001,1.6909397042592043,0.4813703886736467,-1.3087157028791792, ,0.15506036202364507,0.1427021677570989,0.04577244689655173,-0.036051726894153535,0.0008640440659391294,0.03324150742686645, ,0.9699671268463135
0.013877997567211657,0.021637921252442197,-0.0895591834749727, ,0.014981647851567997,0.02090072605697735,-0.09055831265074271, ,0.0016612524841971323, ,0.02333340570597245,-0.0026672123628600245,-0.04459714473949423,-0.17857407427062416,-0.1624726903627451,0.01595111465767173, ,0.050403047155340705, ,0.24142472677920693, ,0.0009554939278643184, ,0.19990294044930143,-0.22917982077548654,0.10061414093000001,1.6909397042592043,0.4813703886736467,-1.3087157028791792, ,0.15506036202364507,0.1427021677570989,0.04577244689655173,-0.036051726894153535,0.0008640440659391294,0.03324150742686645, ,0.9721970558166504
0.013877997567211657,0.021637921252442197,-0.0895591834749727, ,0.01503650556319122,0.020890775585571387,-0.09066522577963146, ,0.001767398371609317, ,0.02333340570597245,-0.0026672123628600245,-0.04459714473949423,-0.17857407427062416,-0.1624726903627451,0.01595111465767173, ,0.050403047155340705, ,0.24142472677920693, ,0.0009630818198619352, ,0.19990294044930143,-0.22917982077548654,0.10061414093000001,1.6909397042592043,0.4813703886736467,-1.3087157028791792, ,0.15506036202364507,0.1427021677570989,0.04577244689655173,-0.036051726894153535,0.0008640440659391294,0.03324150742686645, ,0.9744179248809814
0.013877997567211657,0.021637921252442197,-0.0895591834749727, ,0.015091418363811596,0.020880658768554012,-0.09077207346963938, ,0.0018753502708262967, ,0.02333340570597245,-0.0026672123628600245,-0.04459714473949423,-0.17857407427062416,-0.1624726903627451,0.01595111465767173, ,0.050403047155340705, ,0.24142472677920693, ,0.0009715287499634572, ,0.19990294044930143,-0.22917982077548654,0.10061414093000001,1.6909397042592043,0.4813703886736467,-1.3087157028791792, ,0.15506036202364507,0.1427021677570989,0.04577244689655173,-0.036051726894153535,0.0008640440659391294,0.03324150742686645, ,0.9766850471496582
0.014104250126222222,0.021605183922157854,-0.08999326358297374, ,0.015146385196944303,0.020870378841671307,-0.09087885411069621, ,0.0015524994669015237, ,0.022267891266768917,-0.003684258765206511,-0.04259398835922,0.06948679842308426,0.047064078353747624,-0.008779047691860704, ,0.048204570203073206, ,0.08392438518373593, ,0.0009768587565408707, ,0.20152471435288857,-0.22769705606363544,0.10106395356000002,1.6909397042592043,0.48287339017106656,-1.3100229785599804, ,0.1661942934474094,0.14920902760765847,0.044369948523676886,-0.029376372003554786,0.22704385518833434,-0.21417483592766204, ,0.9795329570770264
0.014104250126222222,0.021605183922157854,-0.08999326358297374, ,0.015201405012678717,0.02085993902623131,-0.09098556610039243, ,0.0016564429014775612, ,0.022267891266768917,-0.003684258765206511,-0.04259398835922,0.06948679842308426,0.047064078353747624,-0.008779047691860704, ,0.048204570203073206, ,0.08392438518373593, ,0.0009830367942221133, ,0.20152471435288857,-0.22769705606363544,0.10106395356000002,1.6909397042592043,0.48287339017106656,-1.3100229785599804, ,0.1661942934474094,0.14920902760765847,0.044369948523676886,-0.029376372003554786,0.22704385518833434,-0.21417483592766204, ,0.9817519187927246
0.014104250126222222,0.021605183922157854,-0.08999326358297374, ,0.01525647676766429,0.020849342529127818,-0.09109220784396815, ,0.0017625552284790975, ,0.022267891266768917,-0.003684258765206511,-0.04259398835922,0.06948679842308426,0.047064078353747624,-0.008779047691860704, ,0.048204570203073206, ,0.08392438518373593, ,0.000990059482819023, ,0.20152471435288857,-0.22769705606363544,0.10106395356000002,1.6909397042592043,0.48287339017106656,-1.3100229785599804, ,0.1661942934474094,0.14920902760765847,0.044369948523676886,-0.029376372003554786,0.22704385518833434,-0.21417483592766204, ,0.9841809272766113
0.014278444831878939,0.02157317534091135,-0.09031789966017192, ,0.01531159942509625,0.02083859254286505,-0.09119877775430134, ,0.0015436860164517359, ,0.021632292793294695,-0.00477554198482268,-0.03751675725787592,0.15037774710285784,0.12419141739345045,-0.01367060658171677, ,0.04356912861063461, ,0.19503051211123773, ,0.0009950025768693152, ,0.20289936080450055,-0.22652320066675333,0.10140487783,1.6905203243722353,0.48533284716684444,-1.312191858306797, ,0.177046532758341,0.1482764711851106,0.039525586898263035,-0.025219749835502372,0.31667093721571715,-0.2903608467627785, ,0.9885201454162598
0.014278444831878939,0.02157317534091135,-0.09031789966017192, ,0.015366771954701436,0.020827692245581498,-0.09130527425189586, ,0.00164775894962694, ,0.021632292793294695,-0.00477554198482268,-0.03751675725787592,0.15037774710285784,0.12419141739345045,-0.01367060658171677, ,0.04356912861063461, ,0.19503051211123773, ,0.0010007791819379667, ,0.20289936080450055,-0.22652320066675333,0.10140487783,1.6905203243722353,0.48533284716684444,-1.312191858306797, ,0.177046532758341,0.1482764711851106,0.039525586898263035,-0.025219749835502372,0.31667093721571715,-0.2903608467627785, ,0.9908161163330078
0.014278444831878939,0.02157317534091135,-0.09031789966017192, ,0.015421993332724112,0.02081664480107434,-0.09141169576487106, ,0.0017539759263303237, ,0.021632292793294695,-0.00477554198482268,-0.03751675725787592,0.15037774710285784,0.12419141739345045,-0.01367060658171677, ,0.04356912861063461, ,0.19503051211123773, ,0.0010073861709238646, ,0.20289936080450055,-0.22652320066675333,0.10140487783,1.6905203243722353,0.48533284716684444,-1.312191858306797, ,0.177046532758341,0.1482764711851106,0.039525586898263035,-0.025219749835502372,0.31667093721571715,-0.2903608467627785, ,0.9956269264221191
0.01436353586082393,0.02155278275665642,-0.09045977684291137, ,0.015477262541911709,0.020805453358823375,-0.09151804072894963, ,0.0018619612049224341, ,0.022312032679119232,-0.005853069785839,-0.036257158651757146,0.12549962876731507,0.09445669968759933,-0.010791039537237845, ,0.04248933332310972, ,0.15707374790116022, ,0.001014817258176026, ,0.20359440676318075,-0.22594399570118648,0.10155395118,1.6903106344287508,0.486425939164968,-1.313164880276509, ,0.18462439991920385,0.1558242061715448,0.038107204593301434,-0.03100344960411466,0.29502535742711866,-0.2750057512351233, ,0.9989750385284424
0.01436353586082393,0.02155278275665642,-0.09045977684291137, ,0.015532578571500642,0.020794121054015395,-0.09162430758744644, ,0.0018161388419963764, ,0.022312032679119232,-0.005853069785839,-0.036257158651757146,0.12549962876731507,0.09445669968759933,-0.010791039537237845, ,0.04297286099028867, ,0.15707374790116022, ,0.0010217252028641324, ,0.20359440676318075,-0.22594399570118648,0.10155395118,1.6903106344287508,0.486425939164968,-1.313164880276509, ,0.18462439991920385,0.1558242061715448,0.038107204593301434,-0.03100344960411466,0.29502535742711866,-0.2750057512351233, ,1.0014331340789795
0.01436353586082393,0.02155278275665642,-0.09045977684291137, ,0.015587940417201991,0.020782651007568254,-0.09173049479125633, ,0.0019253554302722882, ,0.022312032679119232,-0.005853069785839,-0.036257158651757146,0.12549962876731507,0.09445669968759933,-0.010791039537237845, ,0.04297286099028867, ,0.15707374790116022, ,0.0010294485381411253, ,0.20359440676318075,-0.22594399570118648,0.10155395118,1.6903106344287508,0.486425939164968,-1.313164880276509, ,0.18462439991920385,0.1558242061715448,0.038107204593301434,-0.03100344960411466,0.29502535742711866,-0.2750057512351233, ,1.0036849975585938
0.01436353586082393,0.02155278275665642,-0.09045977684291137, ,0.01564334708118758,0.020771046326155177,-0.09183660079884413, ,0.0020358469520501445, ,0.022312032679119232,-0.005853069785839,-0.036257158651757146,0.12549962876731507,0.09445669968759933,-0.010791039537237845, ,0.04297286099028867, ,0.15707374790116022, ,0.0010379773382589983, ,0.20359440676318075,-0.22594399570118648,0.10155395118,1.6903106344287508,0.486425939164968,-1.313164880276509, ,0.18462439991920385,0.1558242061715448,0.038107204593301434,-0.03100344960411466,0.29502535742711866,-0.2750057512351233, ,1.0059239864349365
0.014806092154161095,0.021418091908845256,-0.09109949273229163, ,0.015698797572075283,0.020759310102228774,-0.0919426240762317, ,0.0013934801380128844, ,0.02427448332608056,-0.008126012644708186,-0.034804903733827164,-0.18570323753610996,-0.1685195649277212,0.018607544486676276, ,0.04320490650575576, ,0.2507677912343397, ,0.001040964756744325, ,0.20703874562508487,-0.22291668441449047,0.10221376279000001,1.6894718746548125,0.48806557716215326,-1.3141751801603039, ,0.18249411838167456,0.17129411833658983,0.03555538285714287,-0.046770836262197704,0.025127083361354528,0.010938015661219436, ,1.0084631443023682
0.014806092154161095,0.021418091908845256,-0.09109949273229163, ,0.015754290904915296,0.020747445414045555,-0.09204856309698707, ,0.0014998607098867824, ,0.02427448332608056,-0.008126012644708186,-0.034804903733827164,-0.18570323753610996,-0.1685195649277212,0.018607544486676276, ,0.04320490650575576, ,0.2507677912343397, ,0.001044788889687179, ,0.20703874562508487,-0.22291668441449047,0.10221376279000001,1.6894718746548125,0.48806557716215326,-1.3141751801603039, ,0.18249411838167456,0.17129411833658983,0.03555538285714287,-0.046770836262197704,0.025127083361354528,0.010938015661219436, ,1.010857105255127
0.014806092154161095,0.021418091908845256,-0.09109949273229163, ,0.015809826101175675,0.02073545532568953,-0.09215441634221343, ,0.0016082096765728084, ,0.02427448332608056,-0.008126012644708186,-0.034804903733827164,-0.18570323753610996,-0.1685195649277212,0.018607544486676276, ,0.04320490650575576, ,0.2507677912343397, ,0.0010494452598267296, ,0.20703874562508487,-0.22291668441449047,0.10221376279000001,1.6894718746548125,0.48806557716215326,-1.3141751801603039, ,0.18249411838167456,0.17129411833658983,0.03555538285714287,-0.046770836262197704,0.025127083361354528,0.010938015661219436, ,1.0131099224090576
0.014806092154161095,0.021418091908845256,-0.09109949273229163, ,0.015865402188728058,0.02072334288709695,-0.09226018230053659, ,0.0017181426676464192, ,0.02427448332608056,-0.008126012644708186,-0.034804903733827164,-0.18570323753610996,-0.1685195649277212,0.018607544486676276, ,0.04320490650575576, ,0.2507677912343397, ,0.0010549263861203335, ,0.20703874562508487,-0.22291668441449047,0.10221376279000001,1.6894718746548125,0.48806557716215326,-1.3141751801603039, ,0.18249411838167456,0.17129411833658983,0.03555538285714287,-0.046770836262197704,0.025127083361354528,0.010938015661219436, ,1.0153329372406006
0.014806092154161095,0.021418091908845256,-0.09109949273229163, ,0.015921018201833673,0.020711111134080272,-0.09236585946809467, ,0.0018293623526285123, ,0.02427448332608056,-0.008126012644708186,-0.034804903733827164,-0.18570323753610996,-0.1685195649277212,0.018607544486676276, ,0.04320490650575576, ,0.2507677912343397, ,0.0010612226134903188, ,0.20703874562508487,-0.22291668441449047,0.10221376279000001,1.6894718746548125,0.48806557716215326,-1.3141751801603039, ,0.18249411838167456,0.17129411833658983,0.03555538285714287,-0.046770836262197704,0.025127083361354528,0.010938015661219436, ,1.017646074295044
0.015048440905528015,0.021340595058169518,-0.09147277315320146, ,0.015976673181128952,0.02069876308835229,-0.092471446348526, ,0.0015069544074080294, ,0.024167663296703702,-0.0073204977071771446,-0.04047926984265464,-0.002117836343878521,-0.0221726790788514,-0.017414070045533036, ,0.047709924784032874, ,0.02227115275147386, ,0.0010648172247315906, ,0.20885358785052763,-0.2211636240520415,0.10259746463000001,1.6894718746548125,0.48902203266051136,-1.3149551054861788, ,0.1793893035131773,0.17671683716661224,0.04180790425196851,-0.030256952280613213,0.16894310916122868,-0.17229583670364734, ,1.0199320316314697
0.015048440905528015,0.021340595058169518,-0.09147277315320146, ,0.016032366173611392,0.02068630175755041,-0.0925769414529575, ,0.0016172186897863078, ,0.024167663296703702,-0.0073204977071771446,-0.04047926984265464,-0.002117836343878521,-0.0221726790788514,-0.017414070045533036, ,0.047709924784032874, ,0.02227115275147386, ,0.0010692364364520283, ,0.20885358785052763,-0.2211636240520415,0.10259746463000001,1.6894718746548125,0.48902203266051136,-1.3149551054861788, ,0.1793893035131773,0.17671683716661224,0.04180790425196851,-0.030256952280613213,0.16894310916122868,-0.17229583670364734, ,1.0221819877624512
0.015048440905528015,0.021340595058169518,-0.09147277315320146, ,0.016088096232625273,0.020673730135260738,-0.0926823432999939, ,0.0017287718081283427, ,0.024167663296703702,-0.0073204977071771446,-0.04047926984265464,-0.002117836343878521,-0.0221726790788514,-0.017414070045533036, ,0.047709924784032874, ,0.02227115275147386, ,0.001074470844163745, ,0.20885358785052763,-0.2211636240520415,0.10259746463000001,1.6894718746548125,0.48902203266051136,-1.3149551054861788, ,0.1793893035131773,0.17671683716661224,0.04180790425196851,-0.030256952280613213,0.16894310916122868,-0.17229583670364734, ,1.0244450569152832
0.015048440905528015,0.021340595058169518,-0.09147277315320146, ,0.01614386241784744,0.020661051201042457,-0.09278765041570536, ,0.0018413664379642218, ,0.024167663296703702,-0.0073204977071771446,-0.04047926984265464,-0.002117836343878521,-0.0221726790788514,-0.017414070045533036, ,0.047709924784032874, ,0.02227115275147386, ,0.0010805093921464261, ,0.20885358785052763,-0.2211636240520415,0.10259746463000001,1.6894718746548125,0.48902203266051136,-1.3149551054861788, ,0.1793893035131773,0.17671683716661224,0.04180790425196851,-0.030256952280613213,0.16894310916122868,-0.17229583670364734, ,1.02681303024292
0.015048440905528015,0.021340595058169518,-0.09147277315320146, ,0.016199663795273343,0.020648267920451747,-0.09289286133361707, ,0.0019548098239087586, ,0.024167663296703702,-0.0073204977071771446,-0.04047926984265464,-0.002117836343878521,-0.0221726790788514,-0.017414070045533036, ,0.047709924784032874, ,0.02227115275147386, ,0.0010873398642695692, ,0.20885358785052763,-0.2211636240520415,0.10259746463000001,1.6894718746548125,0.48902203266051136,-1.3149551054861788, ,0.1793893035131773,0.17671683716661224,0.04180790425196851,-0.030256952280613213,0.16894310916122868,-0.17229583670364734, ,1.029292106628418
0.015265930152900575,0.021272784020345943,-0.09184203893603171, ,0.016255499437202392,0.020635383245066065,-0.09299797459469679, ,0.0016497619112267284, ,0.024052782818695453,-0.007383201102842356,-0.04062522189813082,0.05531625266384264,0.025014358795013687,-0.05218217535401206, ,0.04778552787320354, ,0.06070828030620569, ,0.0010916997250986944, ,0.21048308448698902,-0.21954185014845437,0.10297987018000002,1.6892621847113283,0.4909349436572275,-1.3170050285787722, ,0.17972905598195224,0.17804304232358495,0.04213971301587302,0.0,0.21104063690907413,-0.22415220429201788, ,1.0320320129394531
0.015265930152900575,0.021272784020345943,-0.09184203893603171, ,0.016311368422224005,0.020622400112508463,-0.09310298874734409, ,0.0017623662585253492, ,0.024052782818695453,-0.007383201102842356,-0.04062522189813082,0.05531625266384264,0.025014358795013687,-0.05218217535401206, ,0.04778552787320354, ,0.06070828030620569, ,0.0010968586984327457, ,0.21048308448698902,-0.21954185014845437,0.10297987018000002,1.6892621847113283,0.4909349436572275,-1.3170050285787722, ,0.17972905598195224,0.17804304232358495,0.04213971301587302,0.0,0.21104063690907413,-0.22415220429201788, ,1.0344769954681396
0.015265930152900575,0.021272784020345943,-0.09184203893603171, ,0.016367269835203428,0.02060932144647169,-0.09320790234737845, ,0.0018758236967270036, ,0.024052782818695453,-0.007383201102842356,-0.04062522189813082,0.05531625266384264,0.025014358795013687,-0.05218217535401206, ,0.04778552787320354, ,0.06070828030620569, ,0.0011028049961296486, ,0.21048308448698902,-0.21954185014845437,0.10297987018000002,1.6892621847113283,0.4909349436572275,-1.3170050285787722, ,0.17972905598195224,0.17804304232358495,0.04213971301587302,0.0,0.21104063690907413,-0.22415220429201788, ,1.0368249416351318
0.015548318396325398,0.021190538371971705,-0.09231625738303567, ,0.0164232027672674,0.020596150156742144,-0.09331271395802782, ,0.001453150273979756, ,0.026755038211571554,-0.0067918449467909165,-0.04577299270727618,-0.06298832661092603,-0.0916765397627859,0.07503813657872387, ,0.05345211023770962, ,0.11122911624799334, ,0.0011054591270224525, ,0.21254505416440694,-0.21756483053265288,0.10347116409000001,1.6882137349939055,0.4928478546539437,-1.3188099154509436, ,0.18791473575934806,0.17638836720905351,0.04740717714285715,-0.1264128759249347,0.12719973448407457,-0.13229227528735069, ,1.039233922958374
0.015548318396325398,0.021190538371971705,-0.09231625738303567, ,0.01647916631578998,0.020582889139224445,-0.09341742214991772, ,0.0015646978248378398, ,0.026755038211571554,-0.0067918449467909165,-0.04577299270727618,-0.06298832661092603,-0.0916765397627859,0.07503813657872387, ,0.05345211023770962, ,0.11122911624799334, ,0.0011089120495624178, ,0.21254505416440694,-0.21756483053265288,0.10347116409000001,1.6882137349939055,0.4928478546539437,-1.3188099154509436, ,0.18791473575934806,0.17638836720905351,0.04740717714285715,-0.1264128759249347,0.12719973448407457,-0.13229227528735069, ,1.04180908203125
0.015548318396325398,0.021190538371971705,-0.09231625738303567, ,0.016535159584378293,0.02056954127596535,-0.09352202550105918, ,0.001677310251005435, ,0.026755038211571554,-0.0067918449467909165,-0.04577299270727618,-0.06298832661092603,-0.0916765397627859,0.07503813657872387, ,0.05345211023770962, ,0.11122911624799334, ,0.0011131538271851268, ,0.21254505416440694,-0.21756483053265288,0.10347116409000001,1.6882137349939055,0.4928478546539437,-1.3188099154509436, ,0.18791473575934806,0.17638836720905351,0.04740717714285715,-0.1264128759249347,0.12719973448407457,-0.13229227528735069, ,1.0440540313720703
0.015548318396325398,0.021190538371971705,-0.09231625738303567, ,0.016591181682858433,0.020556109435178094,-0.09362652259683701, ,0.0017907704600918098, ,0.026755038211571554,-0.0067918449467909165,-0.04577299270727618,-0.06298832661092603,-0.0916765397627859,0.07503813657872387, ,0.05345211023770962, ,0.11122911624799334, ,0.0011181732096511023, ,0.21254505416440694,-0.21756483053265288,0.10347116409000001,1.6882137349939055,0.4928478546539437,-1.3188099154509436, ,0.18791473575934806,0.17638836720905351,0.04740717714285715,-0.1264128759249347,0.12719973448407457,-0.13229227528735069, ,1.046339988708496
0.015825628416873086,0.021129278653832288,-0.09280387696243869, ,0.016647231727261083,0.020542596471266324,-0.09373091202999977, ,0.0013706283228756236, ,0.028415882604303208,-0.00566691236563097,-0.052102722363883545,-0.06717650462548568,-0.10116894398950964,0.017349791618140892, ,0.05961769835937323, ,0.12143909595933226, ,0.0011200294972483415, ,0.21442940098571775,-0.21578087923870704,0.10397671719000001,1.687584665163452,0.4939409466520672,-1.3199462949009368, ,0.18643799913255554,0.18007009783391037,0.0539959712542373,-0.0697908657957691,0.10313321870759141,-0.12133751302191162, ,1.0487189292907715
0.015825628416873086,0.021129278653832288,-0.09280387696243869, ,0.016703308839807397,0.020529005224848594,-0.09383519240064615, ,0.0014813043736622942, ,0.028415882604303208,-0.00566691236563097,-0.052102722363883545,-0.06717650462548568,-0.10116894398950964,0.017349791618140892, ,0.05961769835937323, ,0.12143909595933226, ,0.001122666540141874, ,0.21442940098571775,-0.21578087923870704,0.10397671719000001,1.687584665163452,0.4939409466520672,-1.3199462949009368, ,0.18643799913255554,0.18007009783391037,0.0539959712542373,-0.0697908657957691,0.10313321870759141,-0.12133751302191162, ,1.0511119365692139
0.015825628416873086,0.021129278653832288,-0.09280387696243869, ,0.016759412148894856,0.020515338522782443,-0.09393936231621575, ,0.0015931734153394003, ,0.028415882604303208,-0.00566691236563097,-0.052102722363883545,-0.06717650462548568,-0.10116894398950964,0.017349791618140892, ,0.05961769835937323, ,0.12143909595933226, ,0.001126076010252001, ,0.21442940098571775,-0.21578087923870704,0.10397671719000001,1.687584665163452,0.4939409466520672,-1.3199462949009368, ,0.18643799913255554,0.18007009783391037,0.0539959712542373,-0.0697908657957691,0.10313321870759141,-0.12133751302191162, ,1.0533640384674072
0.015825628416873086,0.021129278653832288,-0.09280387696243869, ,0.016815540789082838,0.020501599178188296,-0.09404342039147541, ,0.0017059823977013248, ,0.028415882604303208,-0.00566691236563097,-0.052102722363883545,-0.06717650462548568,-0.10116894398950964,0.017349791618140892, ,0.05961769835937323, ,0.12143909595933226, ,0.0011302479986509168, ,0.21442940098571775,-0.21578087923870704,0.10397671719000001,1.687584665163452,0.4939409466520672,-1.3199462949009368, ,0.18643799913255554,0.18007009783391037,0.0539959712542373,-0.0697908657957691,0.10313321870759141,-0.12133751302191162, ,1.0556190013885498
0.015825628416873086,0.021129278653832288,-0.09280387696243869, ,0.01687169390107854,0.020487789990474157,-0.09414736524850995, ,0.0018195388089495823, ,0.028415882604303208,-0.00566691236563097,-0.052102722363883545,-0.06717650462548568,-0.10116894398950964,0.017349791618140892, ,0.05961769835937323, ,0.12143909595933226, ,0.0011351715044387646, ,0.21442940098571775,-0.21578087923870704,0.10397671719000001,1.687584665163452,0.4939409466520672,-1.3199462949009368, ,0.18643799913255554,0.18007009783391037,0.0539959712542373,-0.0697908657957691,0.10313321870759141,-0.12133751302191162, ,1.0578579902648926
0.016100910163779243,0.02107771324527759,-0.09331394010851435, ,0.016927870631722935,0.020473913745359312,-0.0942511955167088, ,0.0013881228878715875, ,0.02735227640815148,-0.005600317453929185,-0.0509218683370803,-0.032560804114455874,-0.04898978365718426,-0.011230191443219364, ,0.058073636490507854, ,0.058820595686403465, ,0.0011369654858815505, ,0.21622879774541204,-0.2140355416091323,0.10450689980000001,1.687584665163452,0.49517067514995616,-1.3213574497349072, ,0.17905083312919012,0.17638836720905351,0.052919639601328915,-0.03679605437610597,0.141954038638677,-0.1437648335973412, ,1.061018943786621
0.016100910163779243,0.02107771324527759,-0.09331394010851435, ,0.016984070133976105,0.020459973214898865,-0.0943549098327561, ,0.0014983965579506587, ,0.02735227640815148,-0.005600317453929185,-0.0509218683370803,-0.032560804114455874,-0.04898978365718426,-0.011230191443219364, ,0.058073636490507854, ,0.058820595686403465, ,0.001139510775121474, ,0.21622879774541204,-0.2140355416091323,0.10450689980000001,1.687584665163452,0.49517067514995616,-1.3213574497349072, ,0.17905083312919012,0.17638836720905351,0.052919639601328915,-0.03679605437610597,0.141954038638677,-0.1437648335973412, ,1.0634350776672363
0.016100910163779243,0.02107771324527759,-0.09331394010851435, ,0.017040291566903475,0.020445971157507608,-0.09445850684061781, ,0.0016098349263926482, ,0.02735227640815148,-0.005600317453929185,-0.0509218683370803,-0.032560804114455874,-0.04898978365718426,-0.011230191443219364, ,0.058073636490507854, ,0.058820595686403465, ,0.0011427997552002935, ,0.21622879774541204,-0.2140355416091323,0.10450689980000001,1.687584665163452,0.49517067514995616,-1.3213574497349072, ,0.17905083312919012,0.17638836720905351,0.052919639601328915,-0.03679605437610597,0.141954038638677,-0.1437648335973412, ,1.0656089782714844
0.016100910163779243,0.02107771324527759,-0.09331394010851435, ,0.017096534095661347,0.02043191031798453,-0.09456198519153128, ,0.001722191906809286, ,0.02735227640815148,-0.005600317453929185,-0.0509218683370803,-0.032560804114455874,-0.04898978365718426,-0.011230191443219364, ,0.058073636490507854, ,0.058820595686403465, ,0.001146823311808689, ,0.21622879774541204,-0.2140355416091323,0.10450689980000001,1.687584665163452,0.49517067514995616,-1.3213574497349072, ,0.17905083312919012,0.17638836720905351,0.052919639601328915,-0.03679605437610597,0.141954038638677,-0.1437648335973412, ,1.067884922027588
0.016358542071406534,0.021013471464389352,-0.09378637675547065, ,0.017152796891482764,0.02041779342753674,-0.09466534354399352, ,0.0013259923295890934, ,0.02480976272139244,-0.00707015265746781,-0.04417278681954756,0.0013690236847681545,-0.021363768403826654,-0.05240349885378525, ,0.05115414431203876, ,0.021403659649645655, ,0.0011480589602071748, ,0.21793552171061567,-0.2122747585138091,0.10499689742000001,1.6873749752199676,0.496673676647376,-1.3230731191164113, ,0.1667784561660295,0.17573507696013105,0.04577244689655173,0.0,0.14969552437239134,-0.16986738186278738, ,1.0708730220794678
0.016358542071406534,0.021013471464389352,-0.09378637675547065, ,0.017209079131663186,0.020403623203803716,-0.0947685805637493, ,0.0014352883030271108, ,0.02480976272139244,-0.00707015265746781,-0.04417278681954756,0.0013690236847681545,-0.021363768403826654,-0.05240349885378525, ,0.05115414431203876, ,0.021403659649645655, ,0.0011500262844730646, ,0.21793552171061567,-0.2122747585138091,0.10499689742000001,1.6873749752199676,0.496673676647376,-1.3230731191164113, ,0.1667784561660295,0.17573507696013105,0.04577244689655173,0.0,0.14969552437239134,-0.16986738186278738, ,1.0733349323272705
0.016558689286094885,0.02095041277420938,-0.09413106894314918, ,0.01726537999954655,0.020389402350881644,-0.0948716949237804, ,0.0011673351287214608, ,0.02480976272139244,-0.00707015265746781,-0.04417278681954756,0.0013690236847681545,-0.021363768403826654,-0.05240349885378525, ,0.05115414431203876, ,0.021403659649645655, ,0.0011501440317128499, ,0.21793552171061567,-0.2122747585138091,0.10499689742000001,1.6873749752199676,0.496673676647376,-1.3230731191164113, ,0.1667784561660295,0.17573507696013105,0.04577244689655173,0.0,0.14969552437239134,-0.16986738186278738, ,1.0801279544830322
0.016558689286094885,0.02095041277420938,-0.09413106894314918, ,0.017321698684510674,0.020375133559347346,-0.09497468530429373, ,0.0012746835222571412, ,0.02480976272139244,-0.00707015265746781,-0.04417278681954756,0.0013690236847681545,-0.021363768403826654,-0.05240349885378525, ,0.05115414431203876, ,0.021403659649645655, ,0.0011509855147570681, ,0.21929472269647918,-0.21084605293207756,0.10535337717000001,1.6869555953329984,0.49776676864549957,-1.3244545347868262, ,0.16221699411704404,0.17348618200817328,0.04305084194594595,-0.018687062342397275,0.1304236645046173,-0.19231885985422573, ,1.0825719833374023
0.016558689286094885,0.02095041277420938,-0.09413106894314918, ,0.017378034381953407,0.020360819506282532,-0.09507755039270953, ,0.0013837534975760398, ,0.0240758633391909,-0.007633398936911473,-0.041628962236158036,0.01979745283193938,-0.03938507416855635,-0.045282004375736734, ,0.04869174952409196, ,0.04407945310854069, ,0.001152547715984041, ,0.21929472269647918,-0.21084605293207756,0.10535337717000001,1.6869555953329984,0.49776676864549957,-1.3244545347868262, ,0.16221699411704404,0.17348618200817328,0.04305084194594595,-0.018687062342397275,0.1304236645046173,-0.19231885985422573, ,1.0850410461425781
0.016558689286094885,0.02095041277420938,-0.09413106894314918, ,0.017434386293278106,0.020346462855298206,-0.0951802888836511, ,0.0014941429772579687, ,0.0240758633391909,-0.007633398936911473,-0.041628962236158036,0.01979745283193938,-0.03938507416855635,-0.045282004375736734, ,0.04869174952409196, ,0.04407945310854069, ,0.0011548250177258674, ,0.21929472269647918,-0.21084605293207756,0.10535337717000001,1.6869555953329984,0.49776676864549957,-1.3244545347868262, ,0.16221699411704404,0.17348618200817328,0.04305084194594595,-0.018687062342397275,0.1304236645046173,-0.19231885985422573, ,1.0873560905456543
0.016881103439412123,0.020847247984713446,-0.09467723701847842, ,0.017490753625879613,0.02033206625655857,-0.09528289947893144, ,0.001001954379643351, ,0.023205847545348317,-0.007230446253471397,-0.03823812725084836,-0.09013234886089692,-0.11165636007492727,0.04022288128507423, ,0.04530943708516316, ,0.14349530064516813, ,0.001153812629394195, ,0.2214416424355136,-0.20859873766567824,0.10591726332000001,1.6856974556720912,0.4989964971433885,-1.326192404581359, ,0.15380379507045505,0.15659561313279005,0.039525586898263035,-0.08764668728797625,0.06199254682763453,-0.08069862336655015, ,1.089616060256958
0.016881103439412123,0.020847247984713446,-0.09467723701847842, ,0.017547135593129978,0.02031763234680532,-0.09538538088754381, ,0.00110704981504798, ,0.023205847545348317,-0.007230446253471397,-0.03823812725084836,-0.09013234886089692,-0.11165636007492727,0.04022288128507423, ,0.04530943708516316, ,0.14349530064516813, ,0.0011535049792998119, ,0.2214416424355136,-0.20859873766567824,0.10591726332000001,1.6856974556720912,0.4989964971433885,-1.326192404581359, ,0.15380379507045505,0.15659561313279005,0.039525586898263035,-0.08764668728797625,0.06199254682763453,-0.08069862336655015, ,1.091892957687378
0.016881103439412123,0.020847247984713446,-0.09467723701847842, ,0.01760353141436417,0.02030316374938174,-0.09548773182564907, ,0.0012144264763996146, ,0.023205847545348317,-0.007230446253471397,-0.03823812725084836,-0.09013234886089692,-0.11165636007492727,0.04022288128507423, ,0.04530943708516316, ,0.14349530064516813, ,0.0011539031590194185, ,0.2214416424355136,-0.20859873766567824,0.10591726332000001,1.6856974556720912,0.4989964971433885,-1.326192404581359, ,0.15380379507045505,0.15659561313279005,0.039525586898263035,-0.08764668728797625,0.06199254682763453,-0.08069862336655015, ,1.0941040515899658
0.016881103439412123,0.020847247984713446,-0.09467723701847842, ,0.017659940314866056,0.02028866307425707,-0.09558995101656409, ,0.001323499460920903, ,0.023205847545348317,-0.007230446253471397,-0.03823812725084836,-0.09013234886089692,-0.11165636007492727,0.04022288128507423, ,0.04530943708516316, ,0.14349530064516813, ,0.0011550044337070903, ,0.2214416424355136,-0.20859873766567824,0.10591726332000001,1.6856974556720912,0.4989964971433885,-1.326192404581359, ,0.15380379507045505,0.15659561313279005,0.039525586898263035,-0.08764668728797625,0.06199254682763453,-0.08069862336655015, ,1.0963630676269531
0.016881103439412123,0.020847247984713446,-0.09467723701847842, ,0.01771636152585396,0.02027413291805061,-0.0956920371907512, ,0.0014338536676548556, ,0.023205847545348317,-0.007230446253471397,-0.03823812725084836,-0.09013234886089692,-0.11165636007492727,0.04022288128507423, ,0.04530943708516316, ,0.14349530064516813, ,0.0011568034610228825, ,0.2214416424355136,-0.20859873766567824,0.10591726332000001,1.6856974556720912,0.4989964971433885,-1.326192404581359, ,0.15380379507045505,0.15659561313279005,0.039525586898263035,-0.08764668728797625,0.06199254682763453,-0.08069862336655015, ,1.0986261367797852
0.017087451357451426,0.02077489189540887,-0.09500001136211116, ,0.01777279428446661,0.020259575864055707,-0.09579398908580591, ,0.0011686086451429426, ,0.022008063706649775,-0.008314812153757406,-0.03402262267301818,-0.015739944831047615,-0.05313056885215216,-0.05266476892842511, ,0.04136459624871005, ,0.05541261249079451, ,0.0011568791352800623, ,0.2228626252843709,-0.2071391411524498,0.10625170614000001,1.6854877657286067,0.49981631614198113,-1.3273509844443807, ,0.15305958315882384,0.16138935639195712,0.03524073345132744,0.0,0.10274766903341626,-0.14065728060964242, ,1.100938081741333
0.017087451357451426,0.02077489189540887,-0.09500001136211116, ,0.017829237833748804,0.020244994482264234,-0.09589580544644584, ,0.0012780788263656, ,0.022008063706649775,-0.008314812153757406,-0.03402262267301818,-0.015739944831047615,-0.05313056885215216,-0.05266476892842511, ,0.04136459624871005, ,0.05541261249079451, ,0.0011576511078347474, ,0.2228626252843709,-0.2071391411524498,0.10625170614000001,1.6854877657286067,0.49981631614198113,-1.3273509844443807, ,0.15305958315882384,0.16138935639195712,0.03524073345132744,0.0,0.10274766903341626,-0.14065728060964242, ,1.1032230854034424
0.017087451357451426,0.02077489189540887,-0.09500001136211116, ,0.01788569142263719,0.02023039132939053,-0.09599748502449877, ,0.001388748276405422, ,0.022008063706649775,-0.008314812153757406,-0.03402262267301818,-0.015739944831047615,-0.05313056885215216,-0.05266476892842511, ,0.04136459624871005, ,0.05541261249079451, ,0.0011591137481421565, ,0.2228626252843709,-0.2071391411524498,0.10625170614000001,1.6854877657286067,0.49981631614198113,-1.3273509844443807, ,0.15305958315882384,0.16138935639195712,0.03524073345132744,0.0,0.10274766903341626,-0.14065728060964242, ,1.1054420471191406
0.017087451357451426,0.02077489189540887,-0.09500001136211116, ,0.01794215430594629,0.020215768948895707,-0.09609902657889248, ,0.0015003233138894683, ,0.022008063706649775,-0.008314812153757406,-0.03402262267301818,-0.015739944831047615,-0.05313056885215216,-0.05266476892842511, ,0.04136459624871005, ,0.05541261249079451, ,0.001161259720253775, ,0.2228626252843709,-0.2071391411524498,0.10625170614000001,1.6854877657286067,0.49981631614198113,-1.3273509844443807, ,0.15305958315882384,0.16138935639195712,0.03524073345132744,0.0,0.10274766903341626,-0.14065728060964242, ,1.1076741218566895
0.017311662401268534,0.020686548307247515,-0.09535605100845333, ,0.01799862574435392,0.020201129871011952,-0.0962004288756414, ,0.001191857237917987, ,0.020885314692455175,-0.008187710819693403,-0.035028967498228314,0.021956945728213995,0.021863560596784168,-0.045833895349107874, ,0.04159643665341713, ,0.03098499649990555, ,0.0011614509547391762, ,0.2244303400578385,-0.20543241718724617,0.10662114879000001,1.6856974556720912,0.501319317639401,-1.3289032963456036, ,0.1437832447855618,0.16111535069349878,0.0363671495890411,-0.001938527122141015,0.1708051497983478,-0.17532603631665333, ,1.1100220680236816
0.017311662401268534,0.020686548307247515,-0.09535605100845333, ,0.01805510500438717,0.020186476612766346,-0.0963016906878362, ,0.0013026945179037226, ,0.020885314692455175,-0.008187710819693403,-0.035028967498228314,0.021956945728213995,0.021863560596784168,-0.045833895349107874, ,0.04159643665341713, ,0.03098499649990555, ,0.0011623282439513784, ,0.2244303400578385,-0.20543241718724617,0.10662114879000001,1.6856974556720912,0.501319317639401,-1.3289032963456036, ,0.1437832447855618,0.16111535069349878,0.0363671495890411,-0.001938527122141015,0.1708051497983478,-0.17532603631665333, ,1.1122939586639404
0.017311662401268534,0.020686548307247515,-0.09535605100845333, ,0.018111591358408268,0.02017181167800545,-0.09640281079563286, ,0.0014144066551067505, ,0.020885314692455175,-0.008187710819693403,-0.035028967498228314,0.021956945728213995,0.021863560596784168,-0.045833895349107874, ,0.04159643665341713, ,0.03098499649990555, ,0.0011638842835264116, ,0.2244303400578385,-0.20543241718724617,0.10662114879000001,1.6856974556720912,0.501319317639401,-1.3289032963456036, ,0.1437832447855618,0.16111535069349878,0.0363671495890411,-0.001938527122141015,0.1708051497983478,-0.17532603631665333, ,1.119154930114746
0.017311662401268534,0.020686548307247515,-0.09535605100845333, ,0.018168084084600165,0.020157137557419103,-0.0965037879862402, ,0.0015267724165355437, ,0.020885314692455175,-0.008187710819693403,-0.035028967498228314,0.021956945728213995,0.021863560596784168,-0.045833895349107874, ,0.04159643665341713, ,0.03098499649990555, ,0.0011661105910908847, ,0.2244303400578385,-0.20543241718724617,0.10662114879000001,1.6856974556720912,0.501319317639401,-1.3289032963456036, ,0.1437832447855618,0.16111535069349878,0.0363671495890411,-0.001938527122141015,0.1708051497983478,-0.17532603631665333, ,1.1214940547943115
