NicholasDascanio/dvrk_moveit_final/test/execution/third_experiment_notsharpbends/thirdexp_500vel5.0/thirdexp_500vel5.0_8.csv
Current Position (x),Current Position (y),Current Position (z), ,Planned Position (x),Planned Position (y),Planned Position (z), ,Position Error,,Cartesian linear Velocity(x),Cartesian linear Velocity(y),Cartesian linear Velocity(z),Cartesian Angular Velocity(x),Cartesian Angular Velocity(y),Cartesian Angular Velocity(z), ,Total Linear Velocity, ,Total Angular Velocity, ,MSE, ,Joint 1 Position,Joint 2 Position,Joint 3 Position,Joint 4 Position,Joint 5 Position,Joint 6 Position, ,Joint 1 Velocity,Joint 2 Velocity,Joint 3 Velocity,Joint 4 Velocity,Joint 5 Velocity,Joint 6 Velocity, ,Time Stamp
0.010028005383217572,0.0202002798352566,-0.07942597258719956, ,0.010196161244531701,0.02014915553424353,-0.07947869230029973, ,0.00018349238675687856, ,3.8917009255643e-05,1.0201159751888167e-05,7.507950365882192e-06,0.11862486820360939,-0.0003686032555085974,-0.00028043920881611425, ,4.092635566946923e-05, ,0.11862544088298962, ,1.529103222973988e-05, ,0.14073908389986747,-0.2466872562013535,0.08913808556000001,1.6049668274305493,0.1337671332703662,-1.304038095975222, ,0.0004941917012955881,-0.00011798407090127052,0.0,0.0006434747074208447,0.0,-0.11842095657919649, ,0.021952152252197266
0.010031533596628298,0.020202425163684982,-0.07943321924845928, ,0.01022762636690915,0.02017616350699753,-0.07956704934001743, ,0.00023885674069377264, ,0.0001274160386438071,0.00011754152814052,-0.0004141267061118862,0.12965322524616105,-0.0009150801366644358,0.00038002261570629036, ,0.0004489451931543196, ,0.12965645448024668, ,1.9197687611393235e-05, ,0.14075452936561592,-0.2466872562013535,0.0891458633,1.605176517374034,0.13363049677060077,-1.3071938276771482, ,0.0008501213642102171,-0.00011798407090127052,0.0004426613612465995,0.0,0.0,-0.12953693427083612, ,0.04495811462402344
0.0100685447386194,0.02021378259309504,-0.07947479849468086, ,0.010259316173281066,0.020202695507415918,-0.0796559306142017, ,0.0002632973765039019, ,0.001446848849849515,0.0007633327228015607,-0.0027198101543346783,0.12987915688370535,-0.09374855125088577,-0.022302724085585438, ,0.003173864476569933, ,0.1601792316572697, ,2.1426453248579783e-05, ,0.14080086576286127,-0.24669497893422773,0.08918993716000001,1.605176517374034,0.13062449377576107,-1.3113586117472125, ,0.0025434774646986695,-0.0007612880300817413,0.0028804360795660036,0.0,-0.09394287182124966,-0.12910716686915347, ,0.06742215156555176
0.010106211564737537,0.020233046484737265,-0.07954714946430463, ,0.010291229454968532,0.020228755128560063,-0.07974533022757015, ,0.00027115613651892425, ,0.002731650868339731,0.0010432505544283833,-0.0039472149474352085,0.21311364721361747,-0.20320948965101515,-0.048869971318341254, ,0.004912310457114073, ,0.2944682042461597, ,2.2781015249368507e-05, ,0.1408780930916035,-0.24670270166710195,0.08926512198000001,1.605176517374034,0.128438309779514,-1.3175804418218449, ,0.0037060457101821217,-0.000343180256393073,0.004271604054706356,0.0,-0.21893247774460872,-0.28091097177764096, ,0.08938312530517578
0.010134429890972418,0.020245343441012184,-0.07959233961170176, ,0.01032336500736777,0.020254345952201033,-0.0798352423075942, ,0.00030786237686155813, ,0.002492162412444219,0.0015066297862713748,-0.006182129878695388,-0.006377275503017939,-0.1286901344614558,-0.0314828150380901, ,0.006833705922845829, ,0.12884805136873007, ,2.4320481102596835e-05, ,0.1409321522217231,-0.24671042439997617,0.08931438100000001,1.605176517374034,0.12638876228303242,-1.3181144992501936, ,0.00565331472159652,0.0009466508588848694,0.006490958239608803,0.0,-0.12696660378510483,0.005472355324182554, ,0.11434412002563477
0.010164340727014838,0.020281684274630375,-0.07973203709931559, ,0.010355721629943916,0.020279471548833663,-0.07992566100446497, ,0.00027225312267574697, ,3.9452336518769123e-05,0.0006961831798336311,-0.003026811133545788,-0.012530827420073307,0.1120440099562959,0.030266838609697474, ,0.0031060929066750067, ,0.11274254655037796, ,2.4789002258238426e-05, ,0.14114838874220137,-0.24671042439997617,0.08946215806,1.6053862073175185,0.12720858128162504,-1.3133105310829545, ,0.009220989383202743,0.0011446397531206306,0.003215343463867582,0.0002968056975444215,0.12502468262127006,0.011426335933541754, ,0.136368989944458
0.010179227707421074,0.02029785542539158,-0.0797967161939958, ,0.010388298126224518,0.020304135477691793,-0.08001658049105981, ,0.00030346365218752823, ,0.0008016497087492808,0.0008607301218701905,-0.0031113566410991634,0.03701101712032858,0.013417730009185287,0.00525388247298604, ,0.00332626498438479, ,0.03936814532828633, ,2.5560858224976538e-05, ,0.14129512066681163,-0.24670270166710195,0.08953086143000001,1.6053862073175185,0.12789176378045228,-1.3129691544598905, ,0.006754154784327666,-0.0006016767127338334,0.0033233489505528906,0.0002968056975444215,0.02081878255783209,-0.036379084114448734, ,0.16255998611450195
0.010206954849535961,0.020323183537152262,-0.0798943977377542, ,0.010421093303793502,0.020328341286762076,-0.08010799496290792, ,0.00030249901581032843, ,0.0012084040426381625,0.0009738698710818224,-0.003611455207088972,0.08644063354612701,-0.008637711747587342,0.0005353381327959664, ,0.003930810548586033, ,0.08687112979279067, ,2.6455318617390606e-05, ,0.14148046625579302,-0.24670270166710195,0.08963456463000001,1.6053862073175185,0.1280284002802177,-1.3147141471663981, ,0.008531118131798928,-0.00038162861086989353,0.0038605941638390697,0.0002968056975444215,0.0,-0.0860258331103041, ,0.18238401412963867
0.0102331220305123,0.020343680047665638,-0.07997208913207603, ,0.010454105974284766,0.02035209251279949,-0.080199898638157, ,0.0003174930613977568, ,0.0014165429634466393,0.0011370500782998407,-0.0042556352393424675,0.0004896747323975,-0.009360984857340703,-0.002236448893913223, ,0.00462708419398062, ,0.009373783518255283, ,2.7337487437848842e-05, ,0.14166581184477442,-0.24670270166710195,0.08971752719000001,1.6055958972610032,0.1280284002802177,-1.3150408621269603, ,0.009940692603897263,-0.00030043255690205296,0.004545893698630138,0.002372555105458304,0.0,0.00013260622684119032, ,0.20477700233459473
0.010261273320611358,0.02036742270625587,-0.08006352218681732, ,0.010487334953375825,0.020375392681341392,-0.08029228575753802, ,0.0003217143975638723, ,0.0014508777792629152,0.0013525344016437988,-0.005131800548601371,-0.0009795215654735648,-0.008222363740638413,-0.0022569650876645003, ,0.005501797207150966, ,0.00828050266719492, ,2.8101901686568365e-05, ,0.1418511574337558,-0.24670270166710195,0.08981474894000001,1.6055958972610032,0.1280284002802177,-1.314550789686117, ,0.008805306697459868,-0.0002471733405924775,0.00544574752820513,0.002372555105458304,0.0,0.0015495568205695425, ,0.2246999740600586
0.010290619248930866,0.020394331052658102,-0.08016747084033554, ,0.010520779060781632,0.020398245306722202,-0.08038515058433257, ,0.0003168175047605016, ,0.001437003568726965,0.0011405024083257036,-0.004298095872215424,0.00036624943442744613,-0.009512867671380916,-0.0021700214022865485, ,0.004673259368651181, ,0.009519915362785018, ,2.8693571960470093e-05, ,0.14202105755698874,-0.24670270166710195,0.08992234101,1.6055958972610032,0.1280284002802177,-1.3143874322058358, ,0.010047636194234938,-0.00021007139647915014,0.004618385479849232,0.002292695176978531,0.0,8.234177020956072e-05, ,0.24535393714904785
0.010321030040807989,0.020417348670751664,-0.08025219944891121, ,0.010554437120248245,0.02042065389208816,-0.08047848740433819, ,0.00032510925546996633, ,0.00148376489675333,0.0011069559730285028,-0.004235285267073313,0.0088413199582116,-0.010498279196054228,-0.000923545788168679, ,0.004622180339249992, ,0.013725261502755957, ,2.9265085702570395e-05, ,0.14223729407746702,-0.24671042439997617,0.09001567389000001,1.6058055872044876,0.12789176378045228,-1.3141943355619987, ,0.010732802613391197,0.0,0.0045278031608868684,0.0010499542854623426,0.0,-0.008697419937911215, ,0.2655949592590332
0.010348391921023032,0.020439512274202914,-0.08033723921792714, ,0.01058830795954655,0.02044262192941171,-0.08057229052583462, ,0.00033588464216952697, ,0.0014582787090632705,0.0011900931238445862,-0.004571180084882093,0.006415170801293948,-0.009569176588627255,-0.0009466159913387779, ,0.004943539805155013, ,0.011520570949314673, ,2.984047356643066e-05, ,0.14243808513219686,-0.24671042439997617,0.09010641419000001,1.6058055872044876,0.1280284002802177,-1.3143057534656952, ,0.009810019756839893,0.0,0.0048682186797066014,0.0010499542854623426,0.0,-0.006270950294813695, ,0.28597211837768555
0.010381482126508272,0.020465155131810683,-0.08043562509170267, ,0.010622390410465867,0.020464152899506503,-0.08066655427955001, ,0.0003337155908087254, ,0.0017168433073578616,0.0013547370135990784,-0.00519669923192403,0.005019659354755026,-0.011599136972722057,-0.0009590827212686641, ,0.0056381332216536555, ,0.012638708587500496, ,3.0323076001325842e-05, ,0.14266976711842358,-0.24671042439997617,0.09021141368,1.6058055872044876,0.1280284002802177,-1.3143057534656952, ,0.01184344697431194,0.0,0.005542383966597078,0.0010499542854623426,0.0,-0.004875145659107899, ,0.30627012252807617
0.010420056946686124,0.020495152932315602,-0.08054956417814176, ,0.010656683308807832,0.020485250272041594,-0.08076127301862612, ,0.0003176644945074778, ,0.001868023815472642,0.0013900135219272229,-0.005318250867294579,0.004562754954930779,-0.01321320486297332,-0.0009630877734647988, ,0.005805638884204997, ,0.013978823672798459, ,3.0848110172632634e-05, ,0.14294778550189569,-0.24671042439997617,0.09032937607000001,1.6058055872044876,0.12816503677998314,-1.3144171713693917, ,0.013165502435969863,0.0,0.005164984280155643,0.0010499542854623426,0.0,-0.003953614961916709, ,0.3253350257873535
0.010438867801602724,0.02050749949338601,-0.0805965577203571, ,0.01069118549437997,0.020505917505556148,-0.08085644111858524, ,0.00036222382783098194, ,0.0017947357811691621,0.0011662011288257584,-0.004417976202298997,0.0038604697428996156,-0.01316212928677837,-0.0036390294188704373, ,0.00490913590371703, ,0.013716591133171004, ,3.161260650673807e-05, ,0.14324897208399043,-0.24670270166710195,0.09043178298000001,1.6060152771479719,0.12816503677998314,-1.3144171713693917, ,0.014088025765806231,0.0,0.0047577095340501805,0.0038275520676613003,0.0,-0.003330772667182148, ,0.34318113327026367
0.010474592329319786,0.020530301299397834,-0.08068572684210926, ,0.01072589581098934,0.020526158047474156,-0.08095205297729632, ,0.0003661969643776736, ,0.0019139553006225095,0.0012624922152926943,-0.0047834242912900655,0.0066738255985148345,-0.010760185155849901,-0.0026898666623128235, ,0.005304550823298757, ,0.012661813859128452, ,3.232516067229636e-05, ,0.1433957040086007,-0.24670270166710195,0.09047974571,1.6060152771479719,0.1283016732797486,-1.3145285892730882, ,0.015293624747537595,0.0,0.005151620802069858,0.0038275520676613003,0.0037299773957062956,-0.006143855969533495, ,0.3627810478210449
0.010521567243633496,0.020562914959363132,-0.08081271775108487, ,0.01076081310643645,0.02054597533411905,-0.08104810301493988, ,0.00033605320443619194, ,0.002005308600984743,0.0014734483678227716,-0.0056168874369485495,0.007161277893160678,-0.007576384954385272,-0.0018858636646792255, ,0.006143430406309932, ,0.010425234023716088, ,3.278894461875038e-05, ,0.14375867245368926,-0.24669497893422773,0.09061585616000001,1.6060152771479719,0.128438309779514,-1.314721685916925, ,0.015249388005539254,1.3948179116465315e-05,0.006019959002267574,0.0038275520676613003,0.006970722597116438,-0.006644529609186264, ,0.3806569576263428
0.010557770463555037,0.020586580268466468,-0.08090443245687443, ,0.010795936232508692,0.02056537279072817,-0.08114458567397517, ,0.0003388897435703012, ,0.001922633522064933,0.0011456690442546184,-0.004344141124979793,0.004357811428847132,-0.009083907735113583,-0.001488954437507368, ,0.004886782104091792, ,0.010075112835216421, ,3.3226534256580656e-05, ,0.14403669083716134,-0.2466872562013535,0.0907143742,1.6062249670914566,0.128438309779514,-1.314558328436644, ,0.016423838968236546,9.028616479317754e-05,0.004705705028064994,0.0033174377725837317,0.006749379013187129,-0.003985474945833665, ,0.404224157333374
0.010598359598026392,0.020610332915297694,-0.0809992924948817, ,0.010831264044974353,0.02058435383146729,-0.08124149541910576, ,0.0003370187690730086, ,0.0018773608165010944,0.0010747509206300672,-0.004214629754393507,0.004218990036711454,-0.0063194306675249945,-0.000857692103703287, ,0.004737370277205267, ,0.007598360320601597, ,3.3615640786746577e-05, ,0.14439193654937565,-0.24667181073560507,0.09081678111000001,1.6062249670914566,0.1287115827790449,-1.3146994855038963, ,0.016372833257155068,0.0005273939542620667,0.004561515326460482,0.0033174377725837317,0.009549890144081538,-0.004278846382434693, ,0.42175793647766113
0.010616771433681896,0.020621731358945884,-0.08104236817057466, ,0.010866795403575873,0.020602921859445705,-0.08133882673724502, ,0.00038826983470936435, ,0.0018696105605601847,0.0011568962666233887,-0.004546155675434563,-0.00819333180071992,-0.006780215052477731,-0.001335727529736142, ,0.005049889508214134, ,0.010634942416988343, ,3.4240482192062765e-05, ,0.14455411393973439,-0.24667181073560507,0.09086344755,1.6062249670914566,0.12884821927881035,-1.3146475459273117, ,0.015523792173805133,0.0005273939542620667,0.00489815852398524,0.0033174377725837317,0.008163727365032234,0.008134555801292598, ,0.4433140754699707
0.010654536217030447,0.020648015322261966,-0.08114757722410391, ,0.010902529172023973,0.02062108026673011,-0.08143657413748356, ,0.00038176592158794073, ,0.0018616062338192413,0.0013606535225500465,-0.005399077745121079,0.018970015717662807,0.0031155634681817863,0.0013332366069584653, ,0.0058708599264574715, ,0.019224157392845914, ,3.4958070809454186e-05, ,0.14487074598757757,-0.24665636526985663,0.09097622478,1.6062249670914566,0.12925812877810666,-1.314736763417979, ,0.014951463929174534,0.0006626920441686139,0.0057775885092491855,0.0033174377725837317,0.01785804592165525,-0.019165703589626833, ,0.45854806900024414
0.010691957624863442,0.02067358207450408,-0.0812545030383955, ,0.010938464217991101,0.020638832434359756,-0.08153473215105336, ,0.00037483515513699853, ,0.001838659174527215,0.0013934615581161847,-0.005824582110840306,0.02953900581786077,0.014909901307459459,0.0041174258957014515, ,0.0062648351486644565, ,0.03308863876018399, ,3.559284475809233e-05, ,0.14516420983679812,-0.2466254743383597,0.09109029830000001,1.606434657034941,0.12953140177763753,-1.3144695267845286, ,0.015251838887571647,0.0015415404360475083,0.006205224589014414,0.0036090608715887485,0.030299535380486502,-0.030561122184563402, ,0.47478604316711426
0.010736789011515611,0.020703644216078905,-0.08137712758890048, ,0.010974599413105255,0.020656181732360727,-0.08163329533129546, ,0.0003527440810398762, ,0.002143708497217012,0.001503800582682752,-0.006114020339552568,0.020115433283324446,0.0009377110701819297,0.0009480727128673797, ,0.006651176364071238, ,0.020137277613509398, ,3.6081496492683035e-05, ,0.14548856461751553,-0.24660230613973705,0.09122122359000001,1.606434657034941,0.12953140177763753,-1.3140611330838257, ,0.016979234488901554,0.0011737761474696971,0.006536237800574478,0.0036090608715887485,0.017637122850154605,-0.02077280303011835, ,0.4906809329986572
0.01075892918284189,0.020718199584316904,-0.08144046677401479, ,0.011010933632943469,0.020673131519760905,-0.08173225825362514, ,0.0003881747556024489, ,0.002269906811096253,0.0014108482604376386,-0.006137246581557584,0.0007680731228510898,-0.015621091135447681,-0.003766744547406982, ,0.0066939349674075355, ,0.01563996214436026, ,3.6700694118955494e-05, ,0.14565846474074848,-0.24657913794111436,0.09128863067000001,1.606434657034941,0.12966803827740297,-1.3142542297276627, ,0.01649520972683309,0.002289434667252791,0.006533556817063167,0.0036090608715887485,0.0,-0.0025254302643574643, ,0.5061640739440918
0.010779688549600973,0.020732043571937277,-0.08150266898896896, ,0.011047465757025792,0.020689685144603977,-0.08183161551549781, ,0.00042626832687613216, ,0.002269028833186167,0.0013980239549710141,-0.0063363202805051064,0.004873410673034938,-0.009093290311897095,-0.0017746025096528105, ,0.006874003020194513, ,0.010316881799784924, ,3.745008999525392e-05, ,0.14582836486398143,-0.24654824700961747,0.09135474146000001,1.6066443469784255,0.12994131127693384,-1.3144770655350555, ,0.016900612922256593,0.003021721790005082,0.0067295359188846654,0.003336955366962005,0.0072372616525083755,-0.007393173841211374, ,0.5228619575500488
0.010833242271773784,0.020768403171392183,-0.08166536585696148, ,0.011084194668808675,0.0207058459439647,-0.08193136173637569, ,0.00037100447456373415, ,0.0022337773493312824,0.001564557167792215,-0.007099456388265182,0.013682723683360423,0.0067125673321114495,0.002293942124392314, ,0.007605253538610977, ,0.015240586259981422, ,3.7917273877644294e-05, ,0.14621450150769263,-0.24647874241374945,0.09152714803,1.6066443469784255,0.13021458427646476,-1.314781580082589, ,0.016843617600012562,0.0033263238498439434,0.007517136158565362,0.003336955366962005,0.023513198274349605,-0.016504777113272508, ,0.5383169651031494
0.010857743871559236,0.020782936018567115,-0.08173123341373116, ,0.011121119255678982,0.020721617243962733,-0.08203149155769292, ,0.00040408110336238927, ,0.0021171998943788754,0.0012304930936259495,-0.005773405522847901,0.00982923112593962,0.0013764282469191785,0.0009860130936901494, ,0.006271272596329211, ,0.009925136413752412, ,3.8495024653556286e-05, ,0.1463921243637998,-0.24644785148225257,0.09159714769,1.6066443469784255,0.13021458427646476,-1.314781580082589, ,0.017197705972901555,0.0032979954806858476,0.006140636669236701,0.003336955366962005,0.018361449596507266,-0.012622736839553433, ,0.5536041259765625
0.010903764154708841,0.020804941604856086,-0.08184222715239366, ,0.01115823840894732,0.020737002359778187,-0.08213199964282258, ,0.0003915877721550653, ,0.0022202384934243325,0.0010020782855028844,-0.005590516944933216,0.003981821364239935,-0.004467848944627533,-0.001603295246433006, ,0.006098155423531362, ,0.005984694654523491, ,3.914794182523811e-05, ,0.14674737007601413,-0.24636290142063608,0.09171511008000001,1.6068540369219102,0.13021458427646476,-1.314781580082589, ,0.018123938418348126,0.005405654393684704,0.005917091946508173,0.004301101955303158,0.013035091494238892,-0.008719758089295577, ,0.5674290657043457
0.01092847154697359,0.02081715652253034,-0.08190834657787355, ,0.011195551023841998,0.020752004595665282,-0.08223288067704171, ,0.0004253217629764808, ,0.0024003544544624646,0.001171427748665349,-0.005957364720664088,0.0006794018693406012,-0.010220660334926577,-0.005394420510165195, ,0.006528716481239944, ,0.010243216149158574, ,3.9903632745972446e-05, ,0.1469558838636182,-0.24630111955764228,0.09178510974000001,1.6070637268653947,0.13048785727599563,-1.3150044158899818, ,0.018975593193055543,0.004595071303017524,0.006328490870083433,0.0068532867889433136,0.007322982131459256,-0.0042506171881476346, ,0.5811970233917236
0.010951893989854331,0.020830641106711165,-0.08197431105466631, ,0.011233055999502623,0.020766627244967473,-0.08233412936749818, ,0.00046110635260640244, ,0.002529156991999188,0.0013304377102280331,-0.006978031793079674,-0.0005680257654096005,-0.011941309860719746,0.010307624851308676, ,0.007540532295283001, ,0.011954811496421431, ,4.07628752115948e-05, ,0.14734202050732942,-0.24619300129740315,0.09193288680000002,1.6072734168088794,0.13089776677529194,-1.3153386696010712, ,0.019907057176100435,0.006794837057754796,0.00820649743431221,-0.009071646257614002,0.03135693317225439,-0.024100805647800712, ,0.5942840576171875
0.011004779663354171,0.020859276621995944,-0.08212567924594122, ,0.011270752238973718,0.02078087359013192,-0.08243574044317604, ,0.0004159644124415695, ,0.0025825820931114282,0.0015683003707555492,-0.008210356892331995,0.01222546388235245,0.002333955538963915,0.013976854488468807, ,0.00874867170603831, ,0.012446255593063293, ,4.1412069003912985e-05, ,0.1475273660963108,-0.24613121943440935,0.09201455307,1.6072734168088794,0.13089776677529194,-1.3152569908609306, ,0.01891130760431861,0.006343809448175702,0.00863350217886179,-0.009071646257614002,0.02426728185511932,-0.019788341163226104, ,0.6112420558929443
0.01104423764400044,0.020878101640250717,-0.08223427886105535, ,0.011308638649198595,0.020794746902723926,-0.08253770865486187, ,0.0004110055274414535, ,0.002493942878855702,0.0010179014853639566,-0.006805232505454131,0.006288395022479972,-0.0050255704748050165,0.011896077882961544, ,0.007318952382014159, ,0.008049860617465491, ,4.201404349805364e-05, ,0.1478053844797829,-0.2460231011741702,0.09212862659000001,1.6072734168088794,0.13089776677529194,-1.31517531212079, ,0.019538180267340083,0.00854275879271394,0.007130175255147718,-0.009071646257614002,0.01730692297261812,-0.016031081445276728, ,0.626197099685669
0.011094373464611541,0.020897793906522917,-0.08236113856926873, ,0.011346714141012708,0.02080825044344194,-0.08264002877511081, ,0.00038661815226625356, ,0.002635863550225598,0.0009024380036605184,-0.006312303149572155,-0.0017264483545254756,-0.015844243103281478,0.009421210716995821, ,0.0068998073928159195, ,0.0159380253925973, ,4.250148513311861e-05, ,0.14820696658924257,-0.24586864651668572,0.09226214446000001,1.6072734168088794,0.1311710397748228,-1.3153981479281827, ,0.02098561290545572,0.00845744492027626,0.0066370048000000004,-0.009071646257614002,0.007608836876766822,-0.007937069190129903, ,0.6396059989929199
0.011112311837400054,0.020904339362681573,-0.08240665509539317, ,0.011384977629137705,0.02082138746213145,-0.08274269559821243, ,0.0004406255454734946, ,0.0026682295769421536,0.0009217717222211239,-0.006108829925120062,0.003683523141655369,-0.011574062247317888,0.010712377980244735, ,0.006729555352116348, ,0.0121460796610524, ,4.3159700149695854e-05, ,0.14836914397960127,-0.24580686465369192,0.09231010719,1.6072734168088794,0.13144431277435373,-1.315539304995435, ,0.02232869213140489,0.007693539751737882,0.006456753757600325,-0.008775852192878632,0.013339599709180902,-0.012550243916354167, ,0.6574909687042236
0.011172273908604083,0.020924247733803712,-0.08255908080787107, ,0.011423428032174825,0.020834161197800398,-0.0828457039401565, ,0.0003915951962381261, ,0.002521816046736446,0.0009813135478014046,-0.006929827080012017,0.012201303928533596,0.00401134998651598,1.657574243044266e-05, ,0.007439424427436836, ,0.012843781775220074, ,4.3772232189729466e-05, ,0.14884023068492896,-0.24558290540033942,0.09246955086000001,1.6070637268653947,0.1317175857738846,-1.315762140802828, ,0.02017366954899464,0.009465415792233036,0.007253557158469946,0.004878784387160192,0.023789102460403007,-0.020866029097954777, ,0.6690840721130371
0.011198692143068277,0.020934800295928372,-0.08263104811730226, ,0.011462064272598799,0.020846574878632895,-0.08294904863859964, ,0.0004222237966005795, ,0.0026537973192981845,0.0012430655725481881,-0.008073708110284824,0.00696411241077904,-0.0006493243372550804,-0.001562128339537811, ,0.008589098606934705, ,0.006994315510420048, ,4.4468679572099096e-05, ,0.14902557627391036,-0.2454902326058487,0.09254473568,1.6070637268653947,0.1317175857738846,-1.315762140802828, ,0.019017423158010176,0.009731025579432747,0.008427942603174603,0.004878784387160192,0.017773471032125926,-0.015889536623243, ,0.6803150177001953
0.011224288138181578,0.02094591164423392,-0.08270163283037568, ,0.011500885276751329,0.020858631722004608,-0.0830527245528308, ,0.00045539999941351884, ,0.0029392341708577804,0.0012998954001151352,-0.008597174489472125,0.003896438910485339,-0.005073001451182164,-0.005671225213076984, ,0.00917824791367115, ,0.0063966814006457175, ,4.5253381934230494e-05, ,0.14920319913001753,-0.24540528254423224,0.09261862421000001,1.6072734168088794,0.1317175857738846,-1.3156804620626872, ,0.021078840861499505,0.010682205215047421,0.008979036933483654,0.008145703787902855,0.014513033414877722,-0.013286876145943448, ,0.6917610168457031
0.01127133403371936,0.020969373788440413,-0.08284782661718276, ,0.011539889974834856,0.02087033493449691,-0.08315672656373738, ,0.0004211296297819896, ,0.00335337830342263,0.0015691912091062262,-0.009776813061649441,0.0015048720226362227,-0.009640214209491689,-0.008291039918453555, ,0.010454357021789576, ,0.009756960616996232, ,4.589862272929949e-05, ,0.14955844484223185,-0.2452353824209993,0.09277158643000001,1.607692796695848,0.13226413177294635,-1.316126133677473, ,0.023506797512625906,0.011085167120245964,0.010230450558766861,0.010085998572416436,0.011817216927214692,-0.011005459990407305, ,0.704740047454834
0.011302189637424014,0.02098456653509822,-0.08294331862550951, ,0.011579077300906272,0.020881687711911383,-0.08326104957377124, ,0.0004338246027281926, ,0.002749506737975577,0.001466567489982351,-0.008978249864356335,0.02737562356318162,0.022147111426167168,-0.00037883950923190535, ,0.009503661301396467, ,0.03521248715522892, ,4.6564197612301756e-05, ,0.14978240409558435,-0.24512726416076017,0.09287140076000001,1.607692796695848,0.13253740477247725,-1.3163489694848658, ,0.02100419246535431,0.00986573016756971,0.009391987924528302,0.010085998572416436,0.04211162414994736,-0.03566168113860188, ,0.7160060405731201
0.011333016905469392,0.020997532655150572,-0.08303008507068478, ,0.011618446192870547,0.020892693239284627,-0.08336568850691461, ,0.0004528695702238293, ,0.00307851395400056,0.0011784544363176626,-0.008717705755085285,0.006002870853104609,-0.0007711168747576334,-0.006310116042242509, ,0.009320107116106554, ,0.0060521921121399445, ,4.7269481529488684e-05, ,0.15000636334893688,-0.245019145900521,0.09296214106,1.607692796695848,0.1326740412722427,-1.3165420661287028, ,0.022971905484984453,0.012404828961891606,0.009091787397260276,0.010085998572416436,0.02043483277477713,-0.0168024402227324, ,0.7270469665527344
0.011365953212625263,0.021009789041427942,-0.08312228491499693, ,0.011657995592474385,0.02090335469090302,-0.08347063830864654, ,0.00046686947797730326, ,0.003205330627743204,0.0013426619733438135,-0.009467703831863235,0.000642516887605688,-0.006280275213456252,-0.00795307036259674, ,0.010085350834536691, ,0.006313050660011911, ,4.799668048951979e-05, ,0.15023032260228938,-0.2448878594416592,0.09305806652000001,1.607692796695848,0.1326740412722427,-1.3165420661287028, ,0.02240248856432266,0.012646180911310072,0.009863041188854489,0.010085998572416436,0.014148045293142395,-0.011679752836823282, ,0.7383949756622314
0.011365953212625263,0.021009789041427942,-0.08312228491499693, ,0.011697724445299982,0.020913675230316585,-0.08357589394590828, ,0.0005701501279848905, ,0.003205330627743204,0.0013426619733438135,-0.009467703831863235,0.000642516887605688,-0.006280275213456252,-0.00795307036259674, ,0.010085350834536691, ,0.006313050660011911, ,4.917475963602075e-05, ,0.15023032260228938,-0.2448878594416592,0.09305806652000001,1.607692796695848,0.1326740412722427,-1.3165420661287028, ,0.02240248856432266,0.012646180911310072,0.009863041188854489,0.010085998572416436,0.014148045293142395,-0.011679752836823282, ,0.7511680126190186
0.011437151631060426,0.02104152574905702,-0.0833265764404991, ,0.01173763170075865,0.02092365801035432,-0.08368145040706947, ,0.00047970470944334816, ,0.0033682308826690727,0.0014247469468605194,-0.009286958580548782,0.00025071120968529645,-0.009577377845586968,-0.0081067426257193, ,0.009981106292309621, ,0.009580655166813066, ,5.00455463157108e-05, ,0.15074774570486243,-0.24464845472255825,0.09327195437000001,1.607692796695848,0.133083950771539,-1.3167946410996514, ,0.02437630145349879,0.011229078400008375,0.009730489627367138,0.010085998572416436,0.01277778802019947,-0.009882164143405056, ,0.7602629661560059
0.011473338969333715,0.021052687587231916,-0.0834248669097477, ,0.011777716312084435,0.02093330617313853,-0.08378730270189456, ,0.0004881159618779692, ,0.00285797151018203,0.000564431667228707,-0.007534799884233889,0.023659348589630293,0.022897485649987306,-5.315143292982061e-05, ,0.008078353393819421, ,0.03292506037186369, ,5.0920724968036416e-05, ,0.15104120955408296,-0.24448627733219952,0.09337436128000001,1.607692796695848,0.1334938602708353,-1.3171288948107407, ,0.025131605285611962,0.015900962057384515,0.007808240941176472,0.010085998572416436,0.04714423083819993,-0.03790668577823494, ,0.7694790363311768
0.011507217247081552,0.021060045515773698,-0.08350855068084767, ,0.011817977236327878,0.020942622850099124,-0.08389344586150825, ,0.0005084330373080017, ,0.0033232084431268306,0.0009104238922475283,-0.008568280199411693,0.002647299450129254,-0.003897720712413199,-0.006057419266122708, ,0.009235150870217285, ,0.004711727384845301, ,5.183589054592188e-05, ,0.1513037824718066,-0.24432409994184082,0.09346121271,1.607692796695848,0.13363049677060077,-1.3172403127144372, ,0.02582229702271314,0.014932642259397447,0.00891870745800672,0.009364107006997358,0.020328587350944685,-0.01604059176774071, ,0.7781951427459717
0.011507217247081552,0.021060045515773698,-0.08350855068084767, ,0.01185841343434963,0.020951611161988713,-0.08399987493836172, ,0.0006135929408444483, ,0.0039057768093776115,0.0013409968586266942,-0.01043454419016228,-0.0033415299014600192,-0.013192445616839622,-0.007144637386502854, ,0.011221990800030448, ,0.013609052859632577, ,5.304137831642858e-05, ,0.1513037824718066,-0.24432409994184082,0.09346121271,1.607692796695848,0.13363049677060077,-1.3172403127144372, ,0.02582229702271314,0.014932642259397447,0.00891870745800672,0.009364107006997358,0.020328587350944685,-0.01604059176774071, ,0.7873649597167969
0.011564919873786982,0.021079055010219575,-0.08366152156755466, ,0.011899023870814212,0.02096027421889672,-0.08410658500619866, ,0.0005690481716291525, ,0.004313359777009574,0.001637217356814381,-0.011612668212621333,-0.014583876020621743,-0.027684636236830453,-0.010340540637874361, ,0.012495583870144055, ,0.031291026064463594, ,5.40879550271718e-05, ,0.1517208100470147,-0.24409241795561407,0.09362065638000001,1.607692796695848,0.1337671332703662,-1.3173517306181335, ,0.029701703148191167,0.015447980068121564,0.012131615780654989,0.008338848594768326,0.0,0.0005364091788748709, ,0.7995660305023193
0.011627358628808468,0.021106987575401272,-0.08385156251914494, ,0.011939807514183548,0.02096861512026428,-0.08421357116002146, ,0.0004978167317216557, ,0.004043395357236089,0.0017792848049139013,-0.01277657971266714,0.02597521029485225,0.0218270591663071,0.006039092412825751, ,0.013518723667049837, ,0.033928332131801305, ,5.490379535068765e-05, ,0.15216872855371974,-0.24385301323651312,0.09381898875000001,1.6079024866393328,0.13431367926942794,-1.3177974022329193, ,0.02989821725219621,0.01702492672380172,0.01330727779448622,0.004881858464372015,0.05226865216581813,-0.0420840856342281, ,0.8084530830383301
0.011627358628808468,0.021106987575401272,-0.08385156251914494, ,0.011980763336710764,0.020976636954898518,-0.08432082851605639, ,0.000601744752939533, ,0.004043395357236089,0.0017792848049139013,-0.01277657971266714,0.02597521029485225,0.0218270591663071,0.006039092412825751, ,0.013518723667049837, ,0.033928332131801305, ,5.615963835898498e-05, ,0.15216872855371974,-0.24385301323651312,0.09381898875000001,1.6079024866393328,0.13431367926942794,-1.3177974022329193, ,0.02989821725219621,0.01702492672380172,0.01330727779448622,0.004881858464372015,0.05226865216581813,-0.0420840856342281, ,0.8151099681854248
0.011670209526734377,0.02112345593042378,-0.08397871893834, ,0.012021890314433755,0.02098434280098748,-0.08442835221172096, ,0.000587538866586453, ,0.004289070811472331,0.0015235899474570636,-0.012486916176388141,0.002336224612134901,-0.004091187768837209,-0.0035136619750910808, ,0.013290618132726558, ,0.004711205707274227, ,5.7353541354738535e-05, ,0.15246991513581448,-0.24366766764753173,0.09395121033,1.6081121765828172,0.13458695226895884,-1.318020238040312, ,0.030318511680022617,0.019055610754713008,0.012971344885993488,0.007347755091374413,0.025289102385837217,-0.020083057791191405, ,0.8219170570373535
0.01171610887540056,0.021138651232012123,-0.08410472267728093, ,0.012063187427168914,0.020991735726114274,-0.08453613740558832, ,0.0005728580581360266, ,0.004882863864381733,0.0016846855205236027,-0.013875130510121382,-0.007300310696484237,-0.01639352988698525,-0.005857729375001783, ,0.014805396701677671, ,0.01794552434891654, ,5.848573749618433e-05, ,0.15277882445078347,-0.2434745993256761,0.09408213562000001,1.6081121765828172,0.13458695226895884,-1.318020238040312, ,0.03367528089370858,0.021191813657541487,0.014415214045248871,0.007015279009444103,0.016121422769977564,-0.012606306500201963, ,0.8285210132598877
0.01171610887540056,0.021138651232012123,-0.08410472267728093, ,0.012104653658504862,0.020998818787272354,-0.08464417927735489, ,0.0006793626310320738, ,0.004882863864381733,0.0016846855205236027,-0.013875130510121382,-0.007300310696484237,-0.01639352988698525,-0.005857729375001783, ,0.014805396701677671, ,0.01794552434891654, ,5.9897237268014914e-05, ,0.15277882445078347,-0.2434745993256761,0.09408213562000001,1.6081121765828172,0.13458695226895884,-1.318020238040312, ,0.03367528089370858,0.021191813657541487,0.014415214045248871,0.007015279009444103,0.016121422769977564,-0.012606306500201963, ,0.8353440761566162
0.011773984262803173,0.02115979896254624,-0.08427547212566554, ,0.012146287995795962,0.021005595030879058,-0.08475247302780481, ,0.0006244347706395454, ,0.005251310969888224,0.0018827929039789894,-0.014693839420562396,0.0036392512941350263,-0.007418818472427778,-0.001887801883517419, ,0.015717191000271503, ,0.00826331244302046, ,6.113263465366908e-05, ,0.1532035747588658,-0.2432197491408267,0.09425972735,1.6081121765828172,0.1351334982680206,-1.3184659096550977, ,0.037792489668845394,0.021325155406397928,0.015316164923076924,0.006464521175523429,0.0297954989871809,-0.023755038904890596, ,0.8435261249542236
0.011773984262803173,0.02115979896254624,-0.08427547212566554, ,0.012188089430156071,0.021012067492791203,-0.08486101387877724, ,0.0007322341301943574, ,0.005251310969888224,0.0018827929039789894,-0.014693839420562396,0.0036392512941350263,-0.007418818472427778,-0.001887801883517419, ,0.015717191000271503, ,0.00826331244302046, ,6.264458018048272e-05, ,0.1532035747588658,-0.2432197491408267,0.09425972735,1.6081121765828172,0.1351334982680206,-1.3184659096550977, ,0.037792489668845394,0.021325155406397928,0.015316164923076924,0.006464521175523429,0.0297954989871809,-0.023755038904890596, ,0.8512589931488037
0.011828170010956844,0.021182000540637787,-0.08443431465493041, ,0.012230056956452235,0.021018239198319025,-0.08496979707313132, ,0.0006892548979876388, ,0.005115293229865129,0.0020874949821937587,-0.014801477519693466,0.025905117099838785,0.015885595988171016,0.005138898193403003, ,0.015798974551982137, ,0.030387934142009694, ,6.40143101188603e-05, ,0.1536051568683255,-0.24301123535322264,0.09442565247000001,1.6081121765828172,0.13568004426708236,-1.3189115812698835, ,0.03851336913898976,0.019311546918695723,0.015479894577259477,0.006044182819850166,0.054736718231352795,-0.04409145624099031, ,0.8580701351165771
0.01189319041653267,0.02120029246686668,-0.08460790301383156, ,0.01227218957329832,0.021024113162240995,-0.08507881787471325, ,0.0006296350644672533, ,0.005281013251800678,0.0012005029677566832,-0.01432049909432302,-0.010609632173907447,-0.01667013124397956,-0.004534497818332266, ,0.015310356058948904, ,0.019759984015371913, ,6.537737110861445e-05, ,0.15406079810790474,-0.24271777150400212,0.09460583678000001,1.6081121765828172,0.1358166807668478,-1.3190229991735798, ,0.03747904484931705,0.02764256963544153,0.01478998284122563,0.005621726170300558,0.02011391895656845,-0.01586944291131223, ,0.8624861240386963
0.01189319041653267,0.02120029246686668,-0.08460790301383156, ,0.012314486283048749,0.021029692388818223,-0.08518807156832077, ,0.0007370143454450344, ,0.005281013251800678,0.0012005029677566832,-0.01432049909432302,-0.010609632173907447,-0.01667013124397956,-0.004534497818332266, ,0.015310356058948904, ,0.019759984015371913, ,6.701591057679771e-05, ,0.15406079810790474,-0.24271777150400212,0.09460583678000001,1.6081121765828172,0.1358166807668478,-1.3190229991735798, ,0.03747904484931705,0.02764256963544153,0.01478998284122563,0.005621726170300558,0.02011391895656845,-0.01586944291131223, ,0.8669321537017822
0.011948164270949269,0.021214144614437942,-0.08475821145212291, ,0.012356946091791972,0.021034979871809446,-0.08529755345967094, ,0.0007000659848603917, ,0.0060383234168822405,0.0015072707426457086,-0.01603641282877162,-0.018570463214506533,-0.029702335473082528,-0.0011745273380271517, ,0.017201736865598637, ,0.03502984122137423, ,6.853750779106329e-05, ,0.1544546574844902,-0.24243975312053004,0.09476139158,1.608321866526302,0.1360899537663787,-1.3192458349809728, ,0.042251532305641486,0.02898501574785302,0.016609813889468198,0.0,0.01297282864379108,-0.010068349615368684, ,0.871575117111206
0.011948164270949269,0.021214144614437942,-0.08475821145212291, ,0.01239956800934439,0.021039978594485007,-0.08540725887536466, ,0.0008095441279881463, ,0.0060383234168822405,0.0015072707426457086,-0.01603641282877162,-0.018570463214506533,-0.029702335473082528,-0.0011745273380271517, ,0.017201736865598637, ,0.03502984122137423, ,7.03355535461596e-05, ,0.1544546574844902,-0.24243975312053004,0.09476139158,1.608321866526302,0.1360899537663787,-1.3192458349809728, ,0.042251532305641486,0.02898501574785302,0.016609813889468198,0.0,0.01297282864379108,-0.010068349615368684, ,0.8759770393371582
0.011948164270949269,0.021214144614437942,-0.08475821145212291, ,0.012442351049243813,0.021044691529641883,-0.08551718316285335, ,0.0009213972962176185, ,0.0060383234168822405,0.0015072707426457086,-0.01603641282877162,-0.018570463214506533,-0.029702335473082528,-0.0011745273380271517, ,0.017201736865598637, ,0.03502984122137423, ,7.241195298532264e-05, ,0.1544546574844902,-0.24243975312053004,0.09476139158,1.608321866526302,0.1360899537663787,-1.3192458349809728, ,0.042251532305641486,0.02898501574785302,0.016609813889468198,0.0,0.01297282864379108,-0.010068349615368684, ,0.8815839290618896
0.012000302101927162,0.02123035887719552,-0.08491711644707334, ,0.012485294228743216,0.021049121639618217,-0.08562732169040532, ,0.0008788946393137548, ,0.006162273494124764,0.002034538653219151,-0.019113937378518766,0.054334510978138,0.05397332852745528,0.006966218461274204, ,0.020185528585047564, ,0.07658561695468072, ,7.43539390523679e-05, ,0.15485623959394987,-0.24216173473705796,0.09492602041,1.6087412464132707,0.13690977276497132,-1.3198326636630107, ,0.047235909187889884,0.03191959016430231,0.01981195462686567,0.014303350163569413,0.10111461840603009,-0.08368522235043016, ,0.8864009380340576
0.012000302101927162,0.02123035887719552,-0.08491711644707334, ,0.012528396568804494,0.021053271876307404,-0.08573766984707035, ,0.000991741626673325, ,0.006162273494124764,0.002034538653219151,-0.019113937378518766,0.054334510978138,0.05397332852745528,0.006966218461274204, ,0.020185528585047564, ,0.07658561695468072, ,7.657244891702208e-05, ,0.15485623959394987,-0.24216173473705796,0.09492602041,1.6087412464132707,0.13690977276497132,-1.3198326636630107, ,0.047235909187889884,0.03191959016430231,0.01981195462686567,0.014303350163569413,0.10111461840603009,-0.08368522235043016, ,0.8913941383361816
0.012097814455647468,0.021266493632530737,-0.08521411765167632, ,0.012571657094091838,0.021057145181173503,-0.08584822304264775, ,0.0008188060008039921, ,0.007923869155937749,0.0031443322890273057,-0.02410023822684433,0.001617548027132669,-0.011150312783554637,-0.00921098468068186, ,0.02556356803216034, ,0.011266667940841484, ,7.831501724940415e-05, ,0.15554356281975584,-0.24172153896322715,0.09523453743000002,1.6087412464132707,0.1378662282633294,-1.3206125889888858, ,0.05157442476003847,0.03334397103249149,0.025045301132075475,0.014303350163569413,0.03825534416929872,-0.03239422315900893, ,0.8970589637756348
0.012097814455647468,0.021266493632530737,-0.08521411765167632, ,0.012615074832965785,0.02106074448526512,-0.08595897670765021, ,0.000929895705340301, ,0.007923869155937749,0.0031443322890273057,-0.02410023822684433,0.001617548027132669,-0.011150312783554637,-0.00921098468068186, ,0.02556356803216034, ,0.011266667940841484, ,8.03287299338872e-05, ,0.15554356281975584,-0.24172153896322715,0.09523453743000002,1.6087412464132707,0.1378662282633294,-1.3206125889888858, ,0.05157442476003847,0.03334397103249149,0.025045301132075475,0.014303350163569413,0.03825534416929872,-0.03239422315900893, ,0.9015090465545654
0.012185053973668519,0.021298998643916843,-0.08547647072492726, ,0.012658648817476527,0.021064072709230042,-0.08606992629327147, ,0.0007947778195626438, ,0.008528426254176375,0.0030715035426184126,-0.02543656758041405,-0.02217150679336786,-0.0360726230473049,-0.014996427275548098, ,0.027003465678653422, ,0.0423414595686164, ,8.197152879320033e-05, ,0.15609959958670003,-0.24134312505239014,0.09550675833000001,1.6087412464132707,0.1381395012628603,-1.3208354247962786, ,0.05328295427202177,0.03762765327457208,0.02637220450331126,0.013364136664156895,0.014492719926220967,-0.012977319137526902, ,0.9066510200500488
0.012185053973668519,0.021298998643916843,-0.08547647072492726, ,0.012702378083357866,0.021067132763330287,-0.08618106727135116, ,0.0009043463464174295, ,0.008528426254176375,0.0030715035426184126,-0.02543656758041405,-0.02217150679336786,-0.0360726230473049,-0.014996427275548098, ,0.027003465678653422, ,0.0423414595686164, ,8.40965283219451e-05, ,0.15609959958670003,-0.24134312505239014,0.09550675833000001,1.6087412464132707,0.1381395012628603,-1.3208354247962786, ,0.05328295427202177,0.03762765327457208,0.02637220450331126,0.013364136664156895,0.014492719926220967,-0.012977319137526902, ,0.9089210033416748
0.012185053973668519,0.021298998643916843,-0.08547647072492726, ,0.01274626167002067,0.021069927547456194,-0.08629239513434175, ,0.0010164449259831884, ,0.008528426254176375,0.0030715035426184126,-0.02543656758041405,-0.02217150679336786,-0.0360726230473049,-0.014996427275548098, ,0.027003465678653422, ,0.0423414595686164, ,8.649948810973182e-05, ,0.15609959958670003,-0.24134312505239014,0.09550675833000001,1.6087412464132707,0.1381395012628603,-1.3208354247962786, ,0.05328295427202177,0.03762765327457208,0.02637220450331126,0.013364136664156895,0.014492719926220967,-0.012977319137526902, ,0.9111790657043457
0.012185053973668519,0.021298998643916843,-0.08547647072492726, ,0.012790298620546542,0.021072459951141185,-0.08640390539527391, ,0.0011303875130502907, ,0.008528426254176375,0.0030715035426184126,-0.02543656758041405,-0.02217150679336786,-0.0360726230473049,-0.014996427275548098, ,0.027003465678653422, ,0.0423414595686164, ,8.918300488335795e-05, ,0.15609959958670003,-0.24134312505239014,0.09550675833000001,1.6087412464132707,0.1381395012628603,-1.3208354247962786, ,0.05328295427202177,0.03762765327457208,0.02637220450331126,0.013364136664156895,0.014492719926220967,-0.012977319137526902, ,0.9134440422058105
0.01226623508759517,0.0213262097710632,-0.0857271594235839, ,0.012834487981681669,0.02107473285357634,-0.08651559358772223, ,0.0010038826738453487, ,0.008606937104364118,0.002780656447096051,-0.026719620546416203,0.011255252668173336,0.007823065372796366,-0.0025928359279298006, ,0.028209032928119382, ,0.0137064745743272, ,0.0005027615714573463, ,0.1566324681550215,-0.24094154294293046,0.09576601633000001,1.6087412464132707,0.13868604726192205,-1.3212810964110644, ,0.05665489048266912,0.04415865126034006,0.027606259133448878,0.012250657058080861,0.06362254715858469,-0.053004752771755426, ,0.915679931640625
0.01226623508759517,0.0213262097710632,-0.0857271594235839, ,0.012878828803830266,0.02107674912362495,-0.08662745526577237, ,0.0011171545458229493, ,0.008606937104364118,0.002780656447096051,-0.026719620546416203,0.011255252668173336,0.007823065372796366,-0.0025928359279298006, ,0.028209032928119382, ,0.0137064745743272, ,0.0005112948072124241, ,0.1566324681550215,-0.24094154294293046,0.09576601633000001,1.6087412464132707,0.13868604726192205,-1.3212810964110644, ,0.05665489048266912,0.04415865126034006,0.027606259133448878,0.012250657058080861,0.06362254715858469,-0.053004752771755426, ,0.9178979396820068
0.01226623508759517,0.0213262097710632,-0.0857271594235839, ,0.012923320141048387,0.02107851161983694,-0.08673948600398587, ,0.0012320390606554944, ,0.008606937104364118,0.002780656447096051,-0.026719620546416203,0.011255252668173336,0.007823065372796366,-0.0025928359279298006, ,0.028209032928119382, ,0.0137064745743272, ,0.000521168016163699, ,0.1566324681550215,-0.24094154294293046,0.09576601633000001,1.6087412464132707,0.13868604726192205,-1.3212810964110644, ,0.05665489048266912,0.04415865126034006,0.027606259133448878,0.012250657058080861,0.06362254715858469,-0.053004752771755426, ,0.9200911521911621
0.01226623508759517,0.0213262097710632,-0.0857271594235839, ,0.01296796105103751,0.021080023190463815,-0.08685168139736683, ,0.0013481753705497522, ,0.008606937104364118,0.002780656447096051,-0.026719620546416203,0.011255252668173336,0.007823065372796366,-0.0025928359279298006, ,0.028209032928119382, ,0.0137064745743272, ,0.00053234379122297, ,0.1566324681550215,-0.24094154294293046,0.09576601633000001,1.6087412464132707,0.13868604726192205,-1.3212810964110644, ,0.05665489048266912,0.04415865126034006,0.027606259133448878,0.012250657058080861,0.06362254715858469,-0.053004752771755426, ,0.9223439693450928
0.012360495811361939,0.021355312409159728,-0.08602216882269467, ,0.013012750595138243,0.02108128667347282,-0.0869640370613274, ,0.0011779822518709407, ,0.010224457872607408,0.003310578483234193,-0.03252389794727446,0.04676232807164216,0.048535411758875595,0.0107649816294488, ,0.034253516700728716, ,0.06739707062398825, ,0.0005409523040316096, ,0.15727345498358214,-0.24043956530610588,0.09607064448000001,1.6087412464132707,0.13964250276028015,-1.3221427004770798, ,0.06998299524960973,0.054195854687875945,0.03360508759493671,0.011292952473887312,0.11968519145958412,-0.09855634135760646, ,0.9248740673065186
0.012360495811361939,0.021355312409159728,-0.08602216882269467, ,0.013057687838323841,0.02108230489656166,-0.08707654863165414, ,0.0012931846758818416, ,0.010224457872607408,0.003310578483234193,-0.03252389794727446,0.04676232807164216,0.048535411758875595,0.0107649816294488, ,0.034253516700728716, ,0.06739707062398825, ,0.00055085009839806, ,0.15727345498358214,-0.24043956530610588,0.09607064448000001,1.6087412464132707,0.13964250276028015,-1.3221427004770798, ,0.06998299524960973,0.054195854687875945,0.03360508759493671,0.011292952473887312,0.11968519145958412,-0.09855634135760646, ,0.9272210597991943
0.012360495811361939,0.021355312409159728,-0.08602216882269467, ,0.013102771849194205,0.021083080677173273,-0.08718921176447411, ,0.0014096357899108273, ,0.010224457872607408,0.003310578483234193,-0.03252389794727446,0.04676232807164216,0.048535411758875595,0.0107649816294488, ,0.034253516700728716, ,0.06739707062398825, ,0.0005620031593267972, ,0.15727345498358214,-0.24043956530610588,0.09607064448000001,1.6087412464132707,0.13964250276028015,-1.3221427004770798, ,0.06998299524960973,0.054195854687875945,0.03360508759493671,0.011292952473887312,0.11968519145958412,-0.09855634135760646, ,0.9296181201934814
0.012360495811361939,0.021355312409159728,-0.08602216882269467, ,0.013148001699969096,0.021083616822510053,-0.08730202213622064, ,0.001527091523301487, ,0.010224457872607408,0.003310578483234193,-0.03252389794727446,0.04676232807164216,0.048535411758875595,0.0107649816294488, ,0.034253516700728716, ,0.06739707062398825, ,0.0005743760870700626, ,0.15727345498358214,-0.24043956530610588,0.09607064448000001,1.6087412464132707,0.13964250276028015,-1.3221427004770798, ,0.06998299524960973,0.054195854687875945,0.03360508759493671,0.011292952473887312,0.11968519145958412,-0.09855634135760646, ,0.9320549964904785
0.012458750329540514,0.021391267875385974,-0.08633894969143985, ,0.013193376466482167,0.021083916129548682,-0.08741497544359907, ,0.0013386456125714747, ,0.012158430914929585,0.0046932323727180624,-0.039618669491471435,0.05765795166716343,0.055813778245589626,0.02289590021507251, ,0.04170722772724044, ,0.08024661750721965, ,0.0005840503848612196, ,0.15792988727789123,-0.23995303313502975,0.09639860585000001,1.6089509363567556,0.14073559475840366,-1.3231157224467918, ,0.08069467819597856,0.05814763575886691,0.04105363793814434,0.003219766599731863,0.1402443893310818,-0.11455442465174256, ,0.9350130558013916
0.012458750329540514,0.021391267875385974,-0.08633894969143985, ,0.013238895228174372,0.021083981385054493,-0.08752806740355307, ,0.00145500927257047, ,0.012158430914929585,0.0046932323727180624,-0.039618669491471435,0.05765795166716343,0.055813778245589626,0.02289590021507251, ,0.04170722772724044, ,0.08024661750721965, ,0.0005949373709575853, ,0.15792988727789123,-0.23995303313502975,0.09639860585000001,1.6089509363567556,0.14073559475840366,-1.3231157224467918, ,0.08069467819597856,0.05814763575886691,0.04105363793814434,0.003219766599731863,0.1402443893310818,-0.11455442465174256, ,0.9374170303344727
0.012458750329540514,0.021391267875385974,-0.08633894969143985, ,0.013284557068087802,0.02108381536559631,-0.08764129375323115, ,0.0015724451883894544, ,0.012158430914929585,0.0046932323727180624,-0.039618669491471435,0.05765795166716343,0.055813778245589626,0.02289590021507251, ,0.04170722772724044, ,0.08024661750721965, ,0.0006070053687036578, ,0.15792988727789123,-0.23995303313502975,0.09639860585000001,1.6089509363567556,0.14073559475840366,-1.3231157224467918, ,0.08069467819597856,0.05814763575886691,0.04105363793814434,0.003219766599731863,0.1402443893310818,-0.11455442465174256, ,0.9399549961090088
0.012458750329540514,0.021391267875385974,-0.08633894969143985, ,0.013330361072859266,0.021083420837560655,-0.08775465024995115, ,0.0016907640751848538, ,0.012158430914929585,0.0046932323727180624,-0.039618669491471435,0.05765795166716343,0.055813778245589626,0.02289590021507251, ,0.04170722772724044, ,0.08024661750721965, ,0.0006202219382948919, ,0.15792988727789123,-0.23995303313502975,0.09639860585000001,1.6089509363567556,0.14073559475840366,-1.3231157224467918, ,0.08069467819597856,0.05814763575886691,0.04105363793814434,0.003219766599731863,0.1402443893310818,-0.11455442465174256, ,0.9422519207000732
0.01261353319746234,0.02145400686038108,-0.08684529894568947, ,0.013376306332713835,0.021082800557166742,-0.08786813267116805, ,0.0013288362598092526, ,0.012158430914929585,0.0046932323727180624,-0.039618669491471435,0.05765795166716343,0.055813778245589626,0.02289590021507251, ,0.04170722772724044, ,0.08024661750721965, ,0.000628759460240848, ,0.15885661522279818,-0.23928887810784644,0.09688989976000001,1.6091606263002398,0.14210195975605808,-1.3243115802238965, ,0.08835841858330612,0.06464369315972122,0.04783426882882884,0.015789931650803442,0.12003083594970089,-0.09553791869619518, ,0.9449019432067871
0.01261353319746234,0.02145400686038108,-0.08684529894568947, ,0.013422391941458797,0.021081957270480567,-0.08798173681443845, ,0.0014436635323410332, ,0.014288316024514542,0.0057490652192446826,-0.04686520806887739,0.03789596625829889,0.0366505134111857,0.005848982874622765, ,0.04933107999071881, ,0.052717533296288796, ,0.0006384606991944216, ,0.15885661522279818,-0.23928887810784644,0.09688989976000001,1.6091606263002398,0.14210195975605808,-1.3243115802238965, ,0.08835841858330612,0.06464369315972122,0.04783426882882884,0.015789931650803442,0.12003083594970089,-0.09553791869619518, ,0.9476320743560791
0.01261353319746234,0.02145400686038108,-0.08684529894568947, ,0.013468616996476961,0.021080893713429968,-0.08809545849738755, ,0.001559897633970568, ,0.014288316024514542,0.0057490652192446826,-0.04686520806887739,0.03789596625829889,0.0366505134111857,0.005848982874622765, ,0.04933107999071881, ,0.052717533296288796, ,0.0006493011337211998, ,0.15885661522279818,-0.23928887810784644,0.09688989976000001,1.6091606263002398,0.14210195975605808,-1.3243115802238965, ,0.08835841858330612,0.06464369315972122,0.04783426882882884,0.015789931650803442,0.12003083594970089,-0.09553791869619518, ,0.9498810768127441
0.01261353319746234,0.02145400686038108,-0.08684529894568947, ,0.01351498059872059,0.02107961261181882,-0.08820929355767443, ,0.001677277488108555, ,0.014288316024514542,0.0057490652192446826,-0.04686520806887739,0.03789596625829889,0.0366505134111857,0.005848982874622765, ,0.04933107999071881, ,0.052717533296288796, ,0.0006612543471443086, ,0.15885661522279818,-0.23928887810784644,0.09688989976000001,1.6091606263002398,0.14210195975605808,-1.3243115802238965, ,0.08835841858330612,0.06464369315972122,0.04783426882882884,0.015789931650803442,0.12003083594970089,-0.09553791869619518, ,0.9521539211273193
0.01261353319746234,0.02145400686038108,-0.08684529894568947, ,0.013561481852704943,0.021078116681341755,-0.08832323785295884, ,0.0017956067201074552, ,0.014288316024514542,0.0057490652192446826,-0.04686520806887739,0.03789596625829889,0.0366505134111857,0.005848982874622765, ,0.04933107999071881, ,0.052717533296288796, ,0.0006742928801668736, ,0.15982967956495045,-0.2385243275532982,0.09742397124,1.6093703162437245,0.14374159775324336,-1.3256485950682535, ,0.0962443626353659,0.07690189753522753,0.05363236202020203,0.010180320645568236,0.1500199760574203,-0.11999205159769893, ,0.9545760154724121
0.01275882177555735,0.021509512807527064,-0.08732905875216271, ,0.013608119866501943,0.021076408627598707,-0.0884372872608664, ,0.0014618676087310909, ,0.015597217827705834,0.005902837837866385,-0.05186663053579951,0.045711316299812385,0.05143599712563577,0.01521269255924363, ,0.054481777335565904, ,0.06880996210522851, ,0.0006832425929914669, ,0.15982967956495045,-0.2385243275532982,0.09742397124,1.6093703162437245,0.14374159775324336,-1.3256485950682535, ,0.0962443626353659,0.07690189753522753,0.05363236202020203,0.010180320645568236,0.1500199760574203,-0.11999205159769893, ,0.9569849967956543
0.01275882177555735,0.021509512807527064,-0.08732905875216271, ,0.013654893751733763,0.021074491146109573,-0.088551437678955, ,0.0015768319736284564, ,0.015597217827705834,0.005902837837866385,-0.05186663053579951,0.045711316299812385,0.05143599712563577,0.01521269255924363, ,0.054481777335565904, ,0.06880996210522851, ,0.0006932829231109837, ,0.15982967956495045,-0.2385243275532982,0.09742397124,1.6093703162437245,0.14374159775324336,-1.3256485950682535, ,0.0962443626353659,0.07690189753522753,0.05363236202020203,0.010180320645568236,0.1500199760574203,-0.11999205159769893, ,0.9592020511627197
0.01275882177555735,0.021509512807527064,-0.08732905875216271, ,0.013701802623566668,0.021072366922328584,-0.08866568502468089, ,0.0016931861082126166, ,0.015597217827705834,0.005902837837866385,-0.05186663053579951,0.045711316299812385,0.05143599712563577,0.01521269255924363, ,0.054481777335565904, ,0.06880996210522851, ,0.0007043929585010018, ,0.15982967956495045,-0.2385243275532982,0.09742397124,1.6093703162437245,0.14374159775324336,-1.3256485950682535, ,0.0962443626353659,0.07690189753522753,0.05363236202020203,0.010180320645568236,0.1500199760574203,-0.11999205159769893, ,0.9614801406860352
0.01275882177555735,0.021509512807527064,-0.08732905875216271, ,0.013748845600704471,0.02107003863165904,-0.08878002523536417, ,0.0018106872896742382, ,0.015597217827705834,0.005902837837866385,-0.05186663053579951,0.045711316299812385,0.05143599712563577,0.01521269255924363, ,0.054481777335565904, ,0.06880996210522851, ,0.000716550039063345, ,0.15982967956495045,-0.2385243275532982,0.09742397124,1.6093703162437245,0.14374159775324336,-1.3256485950682535, ,0.0962443626353659,0.07690189753522753,0.05363236202020203,0.010180320645568236,0.1500199760574203,-0.11999205159769893, ,0.9637050628662109
0.012918518963783304,0.02156448122608813,-0.08785401229973916, ,0.013796021805382294,0.021067508939467766,-0.08889445426815545, ,0.0014489693510647322, ,0.016386826493052543,0.005165911312948306,-0.05385894634137526,0.034563168532434754,0.04773486656537615,0.014193630971595131, ,0.05653318338117707, ,0.05893027155613679, ,0.0007245111185416209, ,0.16080274390710275,-0.23769799513575618,0.09796582046,1.609580006187209,0.14510796275089774,-1.3268444528453585, ,0.10031389171085707,0.08918885484818684,0.05550108543554008,0.009112255802675362,0.15064131152043997,-0.12110052476954222, ,0.9660069942474365
0.012918518963783304,0.02156448122608813,-0.08785401229973916, ,0.013843330363360195,0.02106478050109974,-0.08900896810000124, ,0.001561697742810788, ,0.016386826493052543,0.005165911312948306,-0.05385894634137526,0.034563168532434754,0.04773486656537615,0.014193630971595131, ,0.05653318338117707, ,0.05893027155613679, ,0.0007335131252541926, ,0.16080274390710275,-0.23769799513575618,0.09796582046,1.609580006187209,0.14510796275089774,-1.3268444528453585, ,0.10031389171085707,0.08918885484818684,0.05550108543554008,0.009112255802675362,0.15064131152043997,-0.12110052476954222, ,0.9682791233062744
0.012918518963783304,0.02156448122608813,-0.08785401229973916, ,0.013890770403916891,0.021061855961892813,-0.08912356272761043, ,0.0016762050315988748, ,0.016386826493052543,0.005165911312948306,-0.05385894634137526,0.034563168532434754,0.04773486656537615,0.014193630971595131, ,0.05653318338117707, ,0.05893027155613679, ,0.0007435417625557318, ,0.16080274390710275,-0.23769799513575618,0.09796582046,1.609580006187209,0.14510796275089774,-1.3268444528453585, ,0.10031389171085707,0.08918885484818684,0.05550108543554008,0.009112255802675362,0.15064131152043997,-0.12110052476954222, ,0.9705560207366943
0.012918518963783304,0.02156448122608813,-0.08785401229973916, ,0.01393834105984333,0.021058737957191834,-0.08923823416741992, ,0.0017921728545572284, ,0.016386826493052543,0.005165911312948306,-0.05385894634137526,0.034563168532434754,0.04773486656537615,0.014193630971595131, ,0.05653318338117707, ,0.05893027155613679, ,0.0007545799845768002, ,0.16080274390710275,-0.23769799513575618,0.09796582046,1.609580006187209,0.14510796275089774,-1.3268444528453585, ,0.10031389171085707,0.08918885484818684,0.05550108543554008,0.009112255802675362,0.15064131152043997,-0.12110052476954222, ,0.9730660915374756
0.013074318067404962,0.02160718858165141,-0.0883390763489259, ,0.013986041467436304,0.02105542911236371,-0.0893529784555605, ,0.0014709437623347263, ,0.017845933808377706,0.004300402696468841,-0.0528411969130037,0.03491135186012772,0.036663280671171056,0.014544697099034356, ,0.05593892122702785, ,0.05062199789136448, ,0.0007620421072617786, ,0.16080274390710275,-0.23769799513575618,0.09796582046,1.609580006187209,0.14510796275089774,-1.3268444528453585, ,0.10031389171085707,0.08918885484818684,0.05550108543554008,0.009112255802675362,0.15064131152043997,-0.12110052476954222, ,0.9754340648651123
0.013074318067404962,0.02160718858165141,-0.0883390763489259, ,0.014033870766492196,0.021051932042811687,-0.08946779164782367, ,0.0015821028513392386, ,0.017845933808377706,0.004300402696468841,-0.0528411969130037,0.03491135186012772,0.036663280671171056,0.014544697099034356, ,0.05593892122702785, ,0.05062199789136448, ,0.0007704963417368039, ,0.16080274390710275,-0.23769799513575618,0.09796582046,1.609580006187209,0.14510796275089774,-1.3268444528453585, ,0.10031389171085707,0.08918885484818684,0.05550108543554008,0.009112255802675362,0.15064131152043997,-0.12110052476954222, ,0.9781091213226318
0.013074318067404962,0.02160718858165141,-0.0883390763489259, ,0.014081828100300751,0.021048249353990026,-0.08958266981962669, ,0.001695291788151528, ,0.017845933808377706,0.004300402696468841,-0.0528411969130037,0.03491135186012772,0.036663280671171056,0.014544697099034356, ,0.05593892122702785, ,0.05062199789136448, ,0.0007799330299655256, ,0.16180669918075194,-0.23685621725246572,0.09846618840000002,1.609580006187209,0.1466109642483176,-1.3281517285261595, ,0.11773814089140294,0.09537381061152843,0.054550724383561656,0.009112255802675362,0.15714948669693848,-0.12754214737306557, ,0.9808011054992676
0.013074318067404962,0.02160718858165141,-0.0883390763489259, ,0.01412991261563837,0.02104438364141848,-0.08969760906597879, ,0.0018101492740417236, ,0.017845933808377706,0.004300402696468841,-0.0528411969130037,0.03491135186012772,0.036663280671171056,0.014544697099034356, ,0.05593892122702785, ,0.05062199789136448, ,0.0007903392546531639, ,0.16180669918075194,-0.23685621725246572,0.09846618840000002,1.609580006187209,0.1466109642483176,-1.3281517285261595, ,0.11773814089140294,0.09537381061152843,0.054550724383561656,0.009112255802675362,0.15714948669693848,-0.12754214737306557, ,0.9840559959411621
0.013190493945172464,0.02163119271293709,-0.08867875200863025, ,0.014178123462762173,0.021040337490696913,-0.08981260550144751, ,0.001615594534788007, ,0.01781340824513012,0.0029402927682480803,-0.05075959951442303,0.020664080813888354,0.024388729244975007,0.010260617257092697, ,0.05387485292541685, ,0.03196055976204049, ,0.0007985918074545123, ,0.16257124973530016,-0.23620750769103085,0.09881618670000002,1.609580006187209,0.1475674197466757,-1.3288499751118938, ,0.11906768075090436,0.10371250443548719,0.05222561154098361,0.009112255802675362,0.14582999263365426,-0.12152153919098922, ,0.9867379665374756
0.013190493945172464,0.02163119271293709,-0.08867875200863025, ,0.014226459795403308,0.02103611347751992,-0.08992765526012433, ,0.0017283240063314786, ,0.01781340824513012,0.0029402927682480803,-0.05075959951442303,0.020664080813888354,0.024388729244975007,0.010260617257092697, ,0.05387485292541685, ,0.03196055976204049, ,0.0008077970767503238, ,0.16257124973530016,-0.23620750769103085,0.09881618670000002,1.609580006187209,0.1475674197466757,-1.3288499751118938, ,0.11906768075090436,0.10371250443548719,0.05222561154098361,0.009112255802675362,0.14582999263365426,-0.12152153919098922, ,0.988987922668457
0.013190493945172464,0.02163119271293709,-0.08867875200863025, ,0.014274920770760906,0.021031714167691343,-0.09004275449559117, ,0.00184278562255661, ,0.01781340824513012,0.0029402927682480803,-0.05075959951442303,0.020664080813888354,0.024388729244975007,0.010260617257092697, ,0.05387485292541685, ,0.03196055976204049, ,0.0008179440232778365, ,0.16257124973530016,-0.23620750769103085,0.09881618670000002,1.609580006187209,0.1475674197466757,-1.3288499751118938, ,0.11906768075090436,0.10371250443548719,0.05222561154098361,0.009112255802675362,0.14582999263365426,-0.12152153919098922, ,0.9912610054016113
0.013190493945172464,0.02163119271293709,-0.08867875200863025, ,0.014323505549495453,0.021027142117138773,-0.09015789938088528, ,0.0019586907276708644, ,0.01781340824513012,0.0029402927682480803,-0.05075959951442303,0.020664080813888354,0.024388729244975007,0.010260617257092697, ,0.05387485292541685, ,0.03196055976204049, ,0.000829019234000099, ,0.16257124973530016,-0.23620750769103085,0.09881618670000002,1.609580006187209,0.1475674197466757,-1.3288499751118938, ,0.11906768075090436,0.10371250443548719,0.05222561154098361,0.009112255802675362,0.14582999263365426,-0.12152153919098922, ,0.9934959411621094
0.01345259223210583,0.02164184292345455,-0.08931304948449952, ,0.014372213295722708,0.021022399871928166,-0.09027308610846689, ,0.001466657054014616, ,0.01843226270511154,-0.0016421117084063168,-0.03935064298257397,-0.053636758706352164,-0.060731882888038415,-0.01596181887756718, ,0.04348468629799609, ,0.0810257312827222, ,0.000835150366884854, ,0.1644478738237367,-0.23463207018468904,0.09946822057000002,1.6097896961306934,0.14907042124409553,-1.3300755720525546, ,0.1375317993601026,0.12197550328852286,0.04022427151515152,0.0150857884133982,0.0756109991499584,-0.06426265838639685, ,0.9957261085510254
0.01345259223210583,0.02164184292345455,-0.08931304948449952, ,0.014421043177007178,0.021017489968278527,-0.09038831089018343, ,0.0015760396365163808, ,0.01843226270511154,-0.0016421117084063168,-0.03935064298257397,-0.053636758706352164,-0.060731882888038415,-0.01596181887756718, ,0.04348468629799609, ,0.0810257312827222, ,0.0008422064551670591, ,0.1644478738237367,-0.23463207018468904,0.09946822057000002,1.6097896961306934,0.14907042124409553,-1.3300755720525546, ,0.1375317993601026,0.12197550328852286,0.04022427151515152,0.0150857884133982,0.0756109991499584,-0.06426265838639685, ,0.997960090637207
0.01345259223210583,0.02164184292345455,-0.08931304948449952, ,0.014469994364355768,0.021012414932576353,-0.09050356995723688, ,0.0016877872171617127, ,0.01843226270511154,-0.0016421117084063168,-0.03935064298257397,-0.053636758706352164,-0.060731882888038415,-0.01596181887756718, ,0.04348468629799609, ,0.0810257312827222, ,0.0008501836321670086, ,0.1644478738237367,-0.23463207018468904,0.09946822057000002,1.6097896961306934,0.14907042124409553,-1.3300755720525546, ,0.1375317993601026,0.12197550328852286,0.04022427151515152,0.0150857884133982,0.0756109991499584,-0.06426265838639685, ,1.0001280307769775
0.01345259223210583,0.02164184292345455,-0.08931304948449952, ,0.01451906603221157,0.021007177281389997,-0.09061885956014913, ,0.0018014735072149261, ,0.01843226270511154,-0.0016421117084063168,-0.03935064298257397,-0.053636758706352164,-0.060731882888038415,-0.01596181887756718, ,0.04348468629799609, ,0.0810257312827222, ,0.0008590741917468956, ,0.1644478738237367,-0.23463207018468904,0.09946822057000002,1.6097896961306934,0.14907042124409553,-1.3300755720525546, ,0.1375317993601026,0.12197550328852286,0.04022427151515152,0.0150857884133982,0.0756109991499584,-0.06426265838639685, ,1.0023810863494873
0.01345259223210583,0.02164184292345455,-0.08931304948449952, ,0.014568257358447405,0.021001779521484822,-0.09073417596872792, ,0.0019167655873505247, ,0.0192847473866501,-0.0012333089428336573,-0.04655869034339375,0.032274589223783484,0.04303426156117027,0.00968732329209695, ,0.05040966354983346, ,0.05379012920242816, ,0.0008688676305950775, ,0.16589202487121668,-0.23331148286319667,0.09989858885000001,1.6097896961306934,0.15057342274151536,-1.3316278839537774, ,0.14356572096591644,0.13498853706752598,0.047548691104477625,0.01457914601578783,0.18894770527996085,-0.1630208787545868, ,1.004668951034546
0.013641733466591952,0.02162210516992672,-0.08973475025418712, ,0.01461756752435953,0.02099622414983712,-0.09084951547203325, ,0.0016083160916085723, ,0.0192847473866501,-0.0012333089428336573,-0.04655869034339375,0.032274589223783484,0.04303426156117027,0.00968732329209695, ,0.05040966354983346, ,0.05379012920242816, ,0.0008756515614300636, ,0.16589202487121668,-0.23331148286319667,0.09989858885000001,1.6097896961306934,0.15057342274151536,-1.3316278839537774, ,0.14356572096591644,0.13498853706752598,0.047548691104477625,0.01457914601578783,0.18894770527996085,-0.1630208787545868, ,1.0073559284210205
0.013641733466591952,0.02162210516992672,-0.08973475025418712, ,0.014666995714661221,0.02099051365364898,-0.090964874378343, ,0.0017214168238925559, ,0.0192847473866501,-0.0012333089428336573,-0.04655869034339375,0.032274589223783484,0.04303426156117027,0.00968732329209695, ,0.05040966354983346, ,0.05379012920242816, ,0.000883340336543359, ,0.16589202487121668,-0.23331148286319667,0.09989858885000001,1.6097896961306934,0.15057342274151536,-1.3316278839537774, ,0.14356572096591644,0.13498853706752598,0.047548691104477625,0.01457914601578783,0.18894770527996085,-0.1630208787545868, ,1.0095601081848145
0.013641733466591952,0.02162210516992672,-0.08973475025418712, ,0.014716541117476454,0.02098465051036304,-0.0910802490151189, ,0.0018362807097685946, ,0.0192847473866501,-0.0012333089428336573,-0.04655869034339375,0.032274589223783484,0.04303426156117027,0.00968732329209695, ,0.05040966354983346, ,0.05379012920242816, ,0.0008919253849507936, ,0.16589202487121668,-0.23331148286319667,0.09989858885000001,1.6097896961306934,0.15057342274151536,-1.3316278839537774, ,0.14356572096591644,0.13498853706752598,0.047548691104477625,0.01457914601578783,0.18894770527996085,-0.1630208787545868, ,1.0118110179901123
0.013641733466591952,0.02162210516992672,-0.08973475025418712, ,0.01476620292433369,0.02097863718767645,-0.09119563572897293, ,0.0019526056888208168, ,0.0192847473866501,-0.0012333089428336573,-0.04655869034339375,0.032274589223783484,0.04303426156117027,0.00968732329209695, ,0.05040966354983346, ,0.05379012920242816, ,0.000901395744806776, ,0.16589202487121668,-0.23331148286319667,0.09989858885000001,1.6097896961306934,0.15057342274151536,-1.3316278839537774, ,0.14356572096591644,0.13498853706752598,0.047548691104477625,0.01457914601578783,0.18894770527996085,-0.1630208787545868, ,1.0140790939331055
0.013847772724672348,0.02160805078026083,-0.09022519061360895, ,0.014815980330159302,0.02097247614355627,-0.09131103088563257, ,0.0015875862756062214, ,0.0192847473866501,-0.0012333089428336573,-0.04655869034339375,0.032274589223783484,0.04303426156117027,0.00968732329209695, ,0.05040966354983346, ,0.05379012920242816, ,0.0009074682273802223, ,0.16745973964468427,-0.23188277728146514,0.10040025308000002,1.6099993860741781,0.15289624323752785,-1.3340937394976007, ,0.15405347655595905,0.1375317993601026,0.048269125818181824,0.0112602056403554,0.2321290348565923,-0.23649406816481533, ,1.0174510478973389
0.013847772724672348,0.02160805078026083,-0.09022519061360895, ,0.014865872533271412,0.020966169826253277,-0.0914264308699078, ,0.0017004459805415814, ,0.020112827313597148,-0.0014388964222262126,-0.04713375454447903,0.10278642985498995,0.07363841895158003,0.022637238360799745, ,0.05126584694433198, ,0.1264414262850253, ,0.0009144241725833922, ,0.16745973964468427,-0.23188277728146514,0.10040025308000002,1.6099993860741781,0.15289624323752785,-1.3340937394976007, ,0.15405347655595905,0.1375317993601026,0.048269125818181824,0.0112602056403554,0.2321290348565923,-0.23649406816481533, ,1.0201900005340576
0.013847772724672348,0.02160805078026083,-0.09022519061360895, ,0.014915878735373407,0.020959720674316954,-0.09154183208565615, ,0.0018151383259364959, ,0.020112827313597148,-0.0014388964222262126,-0.04713375454447903,0.10278642985498995,0.07363841895158003,0.022637238360799745, ,0.05126584694433198, ,0.1264414262850253, ,0.0009222564695690713, ,0.16745973964468427,-0.23188277728146514,0.10040025308000002,1.6099993860741781,0.15289624323752785,-1.3340937394976007, ,0.15405347655595905,0.1375317993601026,0.048269125818181824,0.0112602056403554,0.2321290348565923,-0.23649406816481533, ,1.0225560665130615
0.013847772724672348,0.02160805078026083,-0.09022519061360895, ,0.014965998141547731,0.02095313111660997,-0.09165723095574954, ,0.00193134341594156, ,0.020112827313597148,-0.0014388964222262126,-0.04713375454447903,0.10278642985498995,0.07363841895158003,0.022637238360799745, ,0.05126584694433198, ,0.1264414262850253, ,0.0009309554949688342, ,0.16745973964468427,-0.23188277728146514,0.10040025308000002,1.6099993860741781,0.15289624323752785,-1.3340937394976007, ,0.15405347655595905,0.1375317993601026,0.048269125818181824,0.0112602056403554,0.2321290348565923,-0.23649406816481533, ,1.0248610973358154
0.014102600960703565,0.021579458133222866,-0.0907843932001203, ,0.015016229960249369,0.020946403572322723,-0.09177262392203905, ,0.0014873049403641473, ,0.020799827467140094,-0.0028710361859356844,-0.04437731143528702,-0.04352822283084126,-0.06684846911503892,-0.0127364542758722, ,0.04909400616845404, ,0.07976999370877871, ,0.0009357106184337513, ,0.16936725466461772,-0.2301374396518904,0.10097191697,1.6102090760176624,0.15480915423424405,-1.3360619838500534, ,0.1499161793972682,0.1437832447855618,0.04525230545454546,0.009123010106130728,0.0835158597077853,-0.09667044786243237, ,1.0292880535125732
0.014102600960703565,0.021579458133222866,-0.0907843932001203, ,0.015066573403299612,0.02093954045098781,-0.09188800744532244, ,0.00159896901543925, ,0.020799827467140094,-0.0028710361859356844,-0.04437731143528702,-0.04352822283084126,-0.06684846911503892,-0.0127364542758722, ,0.04909400616845404, ,0.07976999370877871, ,0.0009413314523066793, ,0.16936725466461772,-0.2301374396518904,0.10097191697,1.6102090760176624,0.15480915423424405,-1.3360619838500534, ,0.1499161793972682,0.1437832447855618,0.04525230545454546,0.009123010106130728,0.0835158597077853,-0.09667044786243237, ,1.0316030979156494
0.014102600960703565,0.021579458133222866,-0.0907843932001203, ,0.015117027685879783,0.02093254415249476,-0.09200337800530922, ,0.0017127414383072254, ,0.020799827467140094,-0.0028710361859356844,-0.04437731143528702,-0.04352822283084126,-0.06684846911503892,-0.0127364542758722, ,0.04909400616845404, ,0.07976999370877871, ,0.0009478138891638268, ,0.16936725466461772,-0.2301374396518904,0.10097191697,1.6102090760176624,0.15480915423424405,-1.3360619838500534, ,0.1499161793972682,0.1437832447855618,0.04525230545454546,0.009123010106130728,0.0835158597077853,-0.09667044786243237, ,1.0341110229492188
0.014102600960703565,0.021579458133222866,-0.0907843932001203, ,0.015167592026524679,0.020925417067104626,-0.09211873210058617, ,0.0018282330233710229, ,0.020799827467140094,-0.0028710361859356844,-0.04437731143528702,-0.04352822283084126,-0.06684846911503892,-0.0127364542758722, ,0.04909400616845404, ,0.07976999370877871, ,0.0009551507152822202, ,0.16936725466461772,-0.2301374396518904,0.10097191697,1.6102090760176624,0.15480915423424405,-1.3360619838500534, ,0.1499161793972682,0.1437832447855618,0.04525230545454546,0.009123010106130728,0.0835158597077853,-0.09667044786243237, ,1.0365171432495117
0.014278469696437469,0.021552078295089396,-0.0911511197926682, ,0.015218265647116374,0.02091816157546422,-0.09223406624858466, ,0.0015677499362828345, ,0.0225924590522923,-0.0037872768884356007,-0.04590567189660665,-0.1529610340351742,-0.1549875287045679,-0.03439465869759244, ,0.0513039314725303, ,0.2177567636772498, ,0.0009602135187615641, ,0.17060289192449365,-0.2289172478577629,0.10134524849000001,1.6102090760176624,0.1550824272337749,-1.3362031409173056, ,0.1568544488569765,0.15608049598432694,0.04671205724340176,0.008220590568749854,0.0,0.0005058328435307308, ,1.0387670993804932
0.014278469696437469,0.021552078295089396,-0.0911511197926682, ,0.015269047772877834,0.020910780048621073,-0.0923493769855456, ,0.0016817635585093624, ,0.0225924590522923,-0.0037872768884356007,-0.04590567189660665,-0.1529610340351742,-0.1549875287045679,-0.03439465869759244, ,0.0513039314725303, ,0.2177567636772498, ,0.0009661278633496608, ,0.17060289192449365,-0.2289172478577629,0.10134524849000001,1.6102090760176624,0.1550824272337749,-1.3362031409173056, ,0.1568544488569765,0.15608049598432694,0.04671205724340176,0.008220590568749854,0.0,0.0005058328435307308, ,1.041053056716919
0.014278469696437469,0.021552078295089396,-0.0911511197926682, ,0.015319937632366516,0.02090327484803769,-0.09246466086648597, ,0.0017974959046075268, ,0.0225924590522923,-0.0037872768884356007,-0.04590567189660665,-0.1529610340351742,-0.1549875287045679,-0.03439465869759244, ,0.0513039314725303, ,0.2177567636772498, ,0.0009728869531159849, ,0.17060289192449365,-0.2289172478577629,0.10134524849000001,1.6102090760176624,0.1550824272337749,-1.3362031409173056, ,0.1568544488569765,0.15608049598432694,0.04671205724340176,0.008220590568749854,0.0,0.0005058328435307308, ,1.0433099269866943
0.014278469696437469,0.021552078295089396,-0.0911511197926682, ,0.015370934457468219,0.020895648325606617,-0.0925799144651643, ,0.0019146367214389174, ,0.0225924590522923,-0.0037872768884356007,-0.04590567189660665,-0.1529610340351742,-0.1549875287045679,-0.03439465869759244, ,0.0513039314725303, ,0.2177567636772498, ,0.0009804817093121375, ,0.17060289192449365,-0.2289172478577629,0.10134524849000001,1.6102090760176624,0.1550824272337749,-1.3362031409173056, ,0.1568544488569765,0.15608049598432694,0.04671205724340176,0.008220590568749854,0.0,0.0005058328435307308, ,1.0455479621887207
0.014278469696437469,0.021552078295089396,-0.0911511197926682, ,0.0154220374833904,0.020887902823663995,-0.09269513437404728, ,0.0020329430311031333, ,0.0225924590522923,-0.0037872768884356007,-0.04590567189660665,-0.1529610340351742,-0.1549875287045679,-0.03439465869759244, ,0.0513039314725303, ,0.2177567636772498, ,0.0009889013998864655, ,0.17060289192449365,-0.2289172478577629,0.10134524849000001,1.6102090760176624,0.1550824272337749,-1.3362031409173056, ,0.1568544488569765,0.15608049598432694,0.04671205724340176,0.008220590568749854,0.0,0.0005058328435307308, ,1.048253059387207
0.014557134898497665,0.021499543093723174,-0.09173644866760008, ,0.015473245948656136,0.020880040675005592,-0.09281031720427535, ,0.0015415045692700584, ,0.02236206122427288,-0.003990542187989497,-0.04947693495589551,0.03231388779786897,0.04392881532432856,0.020980603598394924, ,0.05444220147810123, ,0.05453101564942293, ,0.0009932871393260178, ,0.17259535700604356,-0.2268938918447161,0.1019402456,1.6104187659611469,0.15617551923189843,-1.3372578416271579, ,0.1661942934474094,0.1661942934474094,0.0502486167823344,0.002314129652008823,0.20327709703354177,-0.18389342316748675, ,1.0505039691925049
0.014557134898497665,0.021499543093723174,-0.09173644866760008, ,0.015524559095097566,0.02087206420289974,-0.09292545958562855, ,0.0016563170885391656, ,0.02236206122427288,-0.003990542187989497,-0.04947693495589551,0.03231388779786897,0.04392881532432856,0.020980603598394924, ,0.05444220147810123, ,0.05453101564942293, ,0.0009985078475875386, ,0.17259535700604356,-0.2268938918447161,0.1019402456,1.6104187659611469,0.15617551923189843,-1.3372578416271579, ,0.1661942934474094,0.1661942934474094,0.0502486167823344,0.002314129652008823,0.20327709703354177,-0.18389342316748675, ,1.0527360439300537
0.014557134898497665,0.021499543093723174,-0.09173644866760008, ,0.015575976167849715,0.020863975721103357,-0.0930405581664928, ,0.001772761970027552, ,0.02236206122427288,-0.003990542187989497,-0.04947693495589551,0.03231388779786897,0.04392881532432856,0.020980603598394924, ,0.05444220147810123, ,0.05453101564942293, ,0.0010045567079191011, ,0.17259535700604356,-0.2268938918447161,0.1019402456,1.6104187659611469,0.15617551923189843,-1.3372578416271579, ,0.1661942934474094,0.1661942934474094,0.0502486167823344,0.002314129652008823,0.20327709703354177,-0.18389342316748675, ,1.0549430847167969
0.014557134898497665,0.021499543093723174,-0.09173644866760008, ,0.015627496415343955,0.020855777533875533,-0.09315560961382624, ,0.0018905358140180672, ,0.02236206122427288,-0.003990542187989497,-0.04947693495589551,0.03231388779786897,0.04392881532432856,0.020980603598394924, ,0.05444220147810123, ,0.05453101564942293, ,0.0010114247630051397, ,0.17259535700604356,-0.2268938918447161,0.1019402456,1.6104187659611469,0.15617551923189843,-1.3372578416271579, ,0.1661942934474094,0.1661942934474094,0.0502486167823344,0.002314129652008823,0.20327709703354177,-0.18389342316748675, ,1.057204008102417
0.014788575094373733,0.021456424812138167,-0.09224624612227417, ,0.015679119089301852,0.020847471935992453,-0.09327061061312418, ,0.0014876877435749344, ,0.022596627336361974,-0.004604761173146778,-0.04786267982997771,0.07778260414484826,0.07967945089020044,0.030706286163626115, ,0.05312859411792389, ,0.11134943745577881, ,0.0010150883243941382, ,0.17434841736849252,-0.22517944514663826,0.10246005789000001,1.6104187659611469,0.1587716127274418,-1.3397014967579524, ,0.17444290727660072,0.1661942934474094,0.04886138503067485,0.002314129652008823,0.26107748547935505,-0.2410003257367491, ,1.0595359802246094
0.014788575094373733,0.021456424812138167,-0.09224624612227417, ,0.015730843444728627,0.020839061212761956,-0.0933855578683861, ,0.001602198087860515, ,0.022596627336361974,-0.004604761173146778,-0.04786267982997771,0.07778260414484826,0.07967945089020044,0.030706286163626115, ,0.05312859411792389, ,0.11134943745577881, ,0.0010195700783137288, ,0.17434841736849252,-0.22517944514663826,0.10246005789000001,1.6104187659611469,0.1587716127274418,-1.3397014967579524, ,0.17444290727660072,0.1661942934474094,0.04886138503067485,0.002314129652008823,0.26107748547935505,-0.2410003257367491, ,1.0618691444396973
0.014788575094373733,0.021456424812138167,-0.09224624612227417, ,0.015782668739906917,0.02083054764003816,-0.09350044810208097, ,0.0017184199186452242, ,0.022596627336361974,-0.004604761173146778,-0.04786267982997771,0.07778260414484826,0.07967945089020044,0.030706286163626115, ,0.05312859411792389, ,0.11134943745577881, ,0.0010248643952859371, ,0.17434841736849252,-0.22517944514663826,0.10246005789000001,1.6104187659611469,0.1587716127274418,-1.3397014967579524, ,0.17444290727660072,0.1661942934474094,0.04886138503067485,0.002314129652008823,0.26107748547935505,-0.2410003257367491, ,1.0642890930175781
0.014788575094373733,0.021456424812138167,-0.09224624612227417, ,0.015834594236390484,0.02082193348423587,-0.09361527805511394, ,0.0018360238897638772, ,0.022596627336361974,-0.004604761173146778,-0.04786267982997771,0.07778260414484826,0.07967945089020044,0.030706286163626115, ,0.05312859411792389, ,0.11134943745577881, ,0.0010309633388534403, ,0.17434841736849252,-0.22517944514663826,0.10246005789000001,1.6104187659611469,0.1587716127274418,-1.3397014967579524, ,0.17444290727660072,0.1661942934474094,0.04886138503067485,0.002314129652008823,0.26107748547935505,-0.2410003257367491, ,1.0667650699615479
0.014788575094373733,0.021456424812138167,-0.09224624612227417, ,0.015886619198997694,0.020813221002345225,-0.09373004448679163, ,0.001954755632598689, ,0.022596627336361974,-0.004604761173146778,-0.04786267982997771,0.07778260414484826,0.07967945089020044,0.030706286163626115, ,0.05312859411792389, ,0.11134943745577881, ,0.0010378573111948228, ,0.17434841736849252,-0.22517944514663826,0.10246005789000001,1.6104187659611469,0.1587716127274418,-1.3397014967579524, ,0.17444290727660072,0.1661942934474094,0.04886138503067485,0.002314129652008823,0.26107748547935505,-0.2410003257367491, ,1.0720181465148926
0.01489394413983775,0.021434071875067767,-0.09246736650791433, ,0.015938742895805397,0.020804412441946248,-0.09384474417478843, ,0.0018399034429540009, ,0.02316972136991569,-0.005077837272563552,-0.04804583925768445,0.05121987489965562,0.05482726738948445,0.010472908512406258, ,0.05358192876055709, ,0.07502832006096852, ,0.0010437983936522983, ,0.17515158158741187,-0.22439944912634158,0.10268561235000001,1.6106284559046316,0.15986470472556533,-1.3405928399875235, ,0.17671683716661224,0.17098548028553293,0.049011727753846164,0.015656308012601882,0.23475801301981716,-0.21683278867545286, ,1.0743441581726074
0.01489394413983775,0.021434071875067767,-0.09246736650791433, ,0.01599096459814227,0.020795510041223417,-0.09395937391511221, ,0.001958903061592036, ,0.02316972136991569,-0.005077837272563552,-0.04804583925768445,0.05121987489965562,0.05482726738948445,0.010472908512406258, ,0.05358192876055709, ,0.07502832006096852, ,0.001050527104445973, ,0.17515158158741187,-0.22439944912634158,0.10268561235000001,1.6106284559046316,0.15986470472556533,-1.3405928399875235, ,0.17671683716661224,0.17098548028553293,0.049011727753846164,0.015656308012601882,0.23475801301981716,-0.21683278867545286, ,1.0770280361175537
0.01489394413983775,0.021434071875067767,-0.09246736650791433, ,0.016043283580582688,0.020786516028980274,-0.09407393052207119, ,0.0020787875445648077, ,0.02316972136991569,-0.005077837272563552,-0.04804583925768445,0.05121987489965562,0.05482726738948445,0.010472908512406258, ,0.05358192876055709, ,0.07502832006096852, ,0.0010580326551037746, ,0.17515158158741187,-0.22439944912634158,0.10268561235000001,1.6106284559046316,0.15986470472556533,-1.3405928399875235, ,0.17671683716661224,0.17098548028553293,0.049011727753846164,0.015656308012601882,0.23475801301981716,-0.21683278867545286, ,1.079401969909668
0.01489394413983775,0.021434071875067767,-0.09246736650791433, ,0.016095699120940405,0.0207774326246539,-0.09418841082823873, ,0.002199405304237942, ,0.02316972136991569,-0.005077837272563552,-0.04804583925768445,0.05121987489965562,0.05482726738948445,0.010472908512406258, ,0.05358192876055709, ,0.07502832006096852, ,0.0010663034714018483, ,0.17515158158741187,-0.22439944912634158,0.10268561235000001,1.6106284559046316,0.15986470472556533,-1.3405928399875235, ,0.17671683716661224,0.17098548028553293,0.049011727753846164,0.015656308012601882,0.23475801301981716,-0.21683278867545286, ,1.0816709995269775
0.015380553607146838,0.02134045371688447,-0.09346744335811827, ,0.016148210500262022,0.020768262038329533,-0.09430281168442001, ,0.001270645766192507, ,0.025588673302337727,-0.004313255535691639,-0.0516721032382209,-0.12267333253360635,-0.12071526592552745,-0.03177895487232609, ,0.05782206004416744, ,0.17210622759037336, ,0.0010677735598535797, ,0.17860364318219024,-0.22100916939455703,0.10370708887,1.6106284559046316,0.16232416172134326,-1.3426800409941997, ,0.1738039222682615,0.16825698857884888,0.052919639601328915,0.014356603483424237,0.051347937816591735,-0.04040734057601834, ,1.083954095840454
0.015380553607146838,0.02134045371688447,-0.09346744335811827, ,0.01620081700282085,0.020759006470755022,-0.09441712995961793, ,0.0013830464848956297, ,0.025588673302337727,-0.004313255535691639,-0.0516721032382209,-0.12267333253360635,-0.12071526592552745,-0.03177895487232609, ,0.05782206004416744, ,0.17210622759037336, ,0.0010700255093181656, ,0.17860364318219024,-0.22100916939455703,0.10370708887,1.6106284559046316,0.16232416172134326,-1.3426800409941997, ,0.1738039222682615,0.16825698857884888,0.052919639601328915,0.014356603483424237,0.051347937816591735,-0.04040734057601834, ,1.0861890316009521
0.015380553607146838,0.02134045371688447,-0.09346744335811827, ,0.016253517916110315,0.020749668113355674,-0.09453136254099925, ,0.0014976709724646153, ,0.025588673302337727,-0.004313255535691639,-0.0516721032382209,-0.12267333253360635,-0.12071526592552745,-0.03177895487232609, ,0.05782206004416744, ,0.17210622759037336, ,0.0010730584558653036, ,0.17860364318219024,-0.22100916939455703,0.10370708887,1.6106284559046316,0.16232416172134326,-1.3426800409941997, ,0.1738039222682615,0.16825698857884888,0.052919639601328915,0.014356603483424237,0.051347937816591735,-0.04040734057601834, ,1.088442087173462
0.015380553607146838,0.02134045371688447,-0.09346744335811827, ,0.016306312530837842,0.020740249148248565,-0.09464550633386025, ,0.0016140345361295686, ,0.025588673302337727,-0.004313255535691639,-0.0516721032382209,-0.12267333253360635,-0.12071526592552745,-0.03177895487232609, ,0.05782206004416744, ,0.17210622759037336, ,0.00107686814657139, ,0.17860364318219024,-0.22100916939455703,0.10370708887,1.6106284559046316,0.16232416172134326,-1.3426800409941997, ,0.1738039222682615,0.16825698857884888,0.052919639601328915,0.014356603483424237,0.051347937816591735,-0.04040734057601834, ,1.0906860828399658
0.015380553607146838,0.02134045371688447,-0.09346744335811827, ,0.016359200140918358,0.020730751748257056,-0.09475955826159273, ,0.00173177552020808, ,0.025588673302337727,-0.004313255535691639,-0.0516721032382209,-0.12267333253360635,-0.01801616649423525,-0.0096370778451019, ,0.05782206004416744, ,0.17210622759037336, ,0.0010814479184150033, ,0.17860364318219024,-0.22100916939455703,0.10370708887,1.6106284559046316,0.16232416172134326,-1.3426800409941997, ,0.1738039222682615,0.16825698857884888,0.052919639601328915,0.014356603483424237,0.051347937816591735,-0.04040734057601834, ,1.0931620597839355
0.015633087581691775,0.021287243432252387,-0.0939855811666793, ,0.016412180043467988,0.020721178076925677,-0.09487351526565041, ,0.001309901528594162, ,0.02226546810111307,-0.006393164583701815,-0.044278790605569766,-0.04834951057363754,-0.01801616649423525,-0.0096370778451019, ,0.04997234155658384, ,0.05159541859831261, ,0.0010830344018190252, ,0.18024086255152583,-0.21934878182659875,0.10420356794,1.6106284559046316,0.16328061721970133,-1.343378287579934, ,0.16057012108032281,0.16915675857124915,0.04512411195467422,0.012783128131179029,0.12975443026806727,-0.10958852625286838, ,1.095440149307251
0.015633087581691775,0.021287243432252387,-0.0939855811666793, ,0.01646525153879769,0.020711530288534175,-0.0949873743055143, ,0.0014239143121596064, ,0.02226546810111307,-0.006393164583701815,-0.044278790605569766,-0.04834951057363754,-0.01801616649423525,-0.0096370778451019, ,0.04997234155658384, ,0.05159541859831261, ,0.0010853852977524086, ,0.18024086255152583,-0.21934878182659875,0.10420356794,1.6106284559046316,0.16328061721970133,-1.343378287579934, ,0.16057012108032281,0.16915675857124915,0.04512411195467422,0.012783128131179029,0.12975443026806727,-0.10958852625286838, ,1.097656011581421
0.015633087581691775,0.021287243432252387,-0.0939855811666793, ,0.016518413930406962,0.02070181052811283,-0.09510113235865933, ,0.001539801575173477, ,0.02226546810111307,-0.006393164583701815,-0.044278790605569766,-0.04834951057363754,-0.01801616649423525,-0.0096370778451019, ,0.04997234155658384, ,0.05159541859831261, ,0.0010884977380087172, ,0.18024086255152583,-0.21934878182659875,0.10420356794,1.6106284559046316,0.16328061721970133,-1.343378287579934, ,0.16057012108032281,0.16915675857124915,0.04512411195467422,0.012783128131179029,0.12975443026806727,-0.10958852625286838, ,1.0998640060424805
0.015633087581691775,0.021287243432252387,-0.0939855811666793, ,0.016571666524977435,0.02069202093145621,-0.09521478642052014, ,0.0016571559414560921, ,0.02226546810111307,-0.006393164583701815,-0.044278790605569766,-0.04834951057363754,-0.01801616649423525,-0.0096370778451019, ,0.04997234155658384, ,0.05159541859831261, ,0.0010923661611614206, ,0.18024086255152583,-0.21934878182659875,0.10420356794,1.6106284559046316,0.16328061721970133,-1.343378287579934, ,0.16057012108032281,0.16915675857124915,0.04512411195467422,0.012783128131179029,0.12975443026806727,-0.10958852625286838, ,1.1021249294281006
0.01584311804080136,0.021219030047033936,-0.09441034286122602, ,0.01662500863236647,0.02068216362513821,-0.09532833350445657, ,0.0013199565421619056, ,0.02165385515992776,-0.007106900095618181,-0.04401459508551767,-0.0041401676244779625,0.04012833998801295,0.0034209848591944198, ,0.0495649276484724, ,0.04033930426058325, ,0.0010939039340060184, ,0.18187808192086144,-0.21754166233403022,0.10466634347,1.6106284559046316,0.1651935282164175,-1.3451014957119654, ,0.15816156926411795,0.17508660804145898,0.044618519663865555,0.011482202453431569,0.201184511309015,-0.16601181396856843, ,1.1043219566345215
0.01584311804080136,0.021219030047033936,-0.09441034286122602, ,0.016678439565600937,0.020672240726526587,-0.0954417706417202, ,0.0014354733982869699, ,0.02165385515992776,-0.007106900095618181,-0.04401459508551767,-0.0041401676244779625,0.04012833998801295,0.0034209848591944198, ,0.0495649276484724, ,0.04033930426058325, ,0.0010961963465179712, ,0.18187808192086144,-0.21754166233403022,0.10466634347,1.6106284559046316,0.1651935282164175,-1.3451014957119654, ,0.15816156926411795,0.17508660804145898,0.044618519663865555,0.011482202453431569,0.201184511309015,-0.16601181396856843, ,1.1067240238189697
0.01584311804080136,0.021219030047033936,-0.09441034286122602, ,0.016731958640870757,0.020662254343797395,-0.09555509488142058, ,0.0015525765629384647, ,0.02165385515992776,-0.007106900095618181,-0.04401459508551767,-0.0041401676244779625,0.04012833998801295,0.0034209848591944198, ,0.0495649276484724, ,0.04033930426058325, ,0.0010992388812941078, ,0.18187808192086144,-0.21754166233403022,0.10466634347,1.6106284559046316,0.1651935282164175,-1.3451014957119654, ,0.15816156926411795,0.17508660804145898,0.044618519663865555,0.011482202453431569,0.201184511309015,-0.16601181396856843, ,1.1092071533203125
0.01584311804080136,0.021219030047033936,-0.09441034286122602, ,0.01678556517752262,0.02065220657594952,-0.09566830329049023, ,0.0016709158849208673, ,0.02165385515992776,-0.007106900095618181,-0.04401459508551767,-0.0041401676244779625,0.04012833998801295,0.0034209848591944198, ,0.0495649276484724, ,0.04033930426058325, ,0.001103024821715477, ,0.18187808192086144,-0.21754166233403022,0.10466634347,1.6106284559046316,0.1651935282164175,-1.3451014957119654, ,0.15816156926411795,0.17508660804145898,0.044618519663865555,0.011482202453431569,0.201184511309015,-0.16601181396856843, ,1.1115920543670654
0.01584311804080136,0.021219030047033936,-0.09441034286122602, ,0.01683925849805362,0.02064209951281942,-0.09578139295365176, ,0.0017902298756931848, ,0.02165385515992776,-0.007106900095618181,-0.04401459508551767,-0.0041401676244779625,0.04012833998801295,0.0034209848591944198, ,0.0495649276484724, ,0.04033930426058325, ,0.0011075459075969094, ,0.18187808192086144,-0.21754166233403022,0.10466634347,1.6106284559046316,0.1651935282164175,-1.3451014957119654, ,0.15816156926411795,0.17508660804145898,0.044618519663865555,0.011482202453431569,0.201184511309015,-0.16601181396856843, ,1.1143269538879395
0.015969290199091303,0.021179981413203534,-0.09466689019357517, ,0.01689303792810485,0.020631935235095555,-0.09589436097338286, ,0.0016310576309493587, ,0.022310631594922213,-0.006604443380500851,-0.04541942537468572,-0.024930197622449864,0.005094021830780013,0.004781041880933005, ,0.051032412797135385, ,0.025441511795585584, ,0.001110967552847579, ,0.18278936440001992,-0.21654542979325525,0.10492689776000001,1.610838145848116,0.16628662021454105,-1.3460745176816773, ,0.15816156926411795,0.17222675418960212,0.04617046817391306,0.002227513313067745,0.16724501456015325,-0.14398582048645833, ,1.1174020767211914
0.015969290199091303,0.021179981413203534,-0.09466689019357517, ,0.016946902796455096,0.020621715814333048,-0.09600720446988321, ,0.001750379738422995, ,0.022310631594922213,-0.006604443380500851,-0.04541942537468572,-0.024930197622449864,0.005094021830780013,0.004781041880933005, ,0.051032412797135385, ,0.025441511795585584, ,0.0011151195800266401, ,0.18278936440001992,-0.21654542979325525,0.10492689776000001,1.610838145848116,0.16628662021454105,-1.3460745176816773, ,0.15816156926411795,0.17222675418960212,0.04617046817391306,0.002227513313067745,0.16724501456015325,-0.14398582048645833, ,1.1197080612182617
0.015969290199091303,0.021179981413203534,-0.09466689019357517, ,0.017000852435014462,0.020611443312968058,-0.09611992058103971, ,0.0018704687981619757, ,0.022310631594922213,-0.006604443380500851,-0.04541942537468572,-0.024930197622449864,0.005094021830780013,0.004781041880933005, ,0.051032412797135385, ,0.025441511795585584, ,0.0011199928007888035, ,0.18278936440001992,-0.21654542979325525,0.10492689776000001,1.610838145848116,0.16628662021454105,-1.3460745176816773, ,0.15816156926411795,0.17222675418960212,0.04617046817391306,0.002227513313067745,0.16724501456015325,-0.14398582048645833, ,1.1219151020050049
0.015969290199091303,0.021179981413203534,-0.09466689019357517, ,0.0170548861788181,0.020601119784332617,-0.09623250646239304, ,0.001991168932503027, ,0.022310631594922213,-0.006604443380500851,-0.04541942537468572,-0.024930197622449864,0.005094021830780013,0.004781041880933005, ,0.051032412797135385, ,0.025441511795585584, ,0.001125577263171587, ,0.18278936440001992,-0.21654542979325525,0.10492689776000001,1.610838145848116,0.16628662021454105,-1.3460745176816773, ,0.15816156926411795,0.17222675418960212,0.04617046817391306,0.002227513313067745,0.16724501456015325,-0.14398582048645833, ,1.1241769790649414
0.016363965709980065,0.021075324293306413,-0.09542382280963661, ,0.017109003366019764,0.02059074727266897,-0.09634495928710304, ,0.0012799954718538081, ,0.02295187001776667,-0.006064842137037234,-0.04273086592107658,-0.0892155952696467,-0.0846902101671945,-0.020520465250594918, ,0.04888248714851427, ,0.12301102256459447, ,0.0011265608186409005, ,0.18555410276899229,-0.21374207775991175,0.10570078289000001,1.6110478357916007,0.1681995312112572,-1.3477160470735676, ,0.15842561195070248,0.15869053772319527,0.04376047120879121,0.008347066473585948,0.07391806006344094,-0.06521845137646759, ,1.1265170574188232
0.016363965709980065,0.021075324293306413,-0.09542382280963661, ,0.017163203337885402,0.020580327813144082,-0.09645727624591527, ,0.0013970784896307751, ,0.02295187001776667,-0.006064842137037234,-0.04273086592107658,-0.0892155952696467,-0.0846902101671945,-0.020520465250594918, ,0.04888248714851427, ,0.12301102256459447, ,0.0011282729557990643, ,0.18555410276899229,-0.21374207775991175,0.10570078289000001,1.6110478357916007,0.1681995312112572,-1.3477160470735676, ,0.15842561195070248,0.15869053772319527,0.04376047120879121,0.008347066473585948,0.07391806006344094,-0.06521845137646759, ,1.1287450790405273
0.016363965709980065,0.021075324293306413,-0.09542382280963661, ,0.017217485438787074,0.02056986343186468,-0.09656945454712694, ,0.0015154071030113701, ,0.02295187001776667,-0.006064842137037234,-0.04273086592107658,-0.0892155952696467,-0.0846902101671945,-0.020520465250594918, ,0.04888248714851427, ,0.12301102256459447, ,0.0011307077617563745, ,0.18555410276899229,-0.21374207775991175,0.10570078289000001,1.6110478357916007,0.1681995312112572,-1.3477160470735676, ,0.15842561195070248,0.15869053772319527,0.04376047120879121,0.008347066473585948,0.07391806006344094,-0.06521845137646759, ,1.1309590339660645
0.016363965709980065,0.021075324293306413,-0.09542382280963661, ,0.0172718490161963,0.020559356145891182,-0.09668149141655243, ,0.001634688212374087, ,0.02295187001776667,-0.006064842137037234,-0.04273086592107658,-0.0892155952696467,-0.0846902101671945,-0.020520465250594918, ,0.04888248714851427, ,0.12301102256459447, ,0.001133857639572735, ,0.18555410276899229,-0.21374207775991175,0.10570078289000001,1.6110478357916007,0.1681995312112572,-1.3477160470735676, ,0.15842561195070248,0.15869053772319527,0.04376047120879121,0.008347066473585948,0.07391806006344094,-0.06521845137646759, ,1.1332120895385742
0.016363965709980065,0.021075324293306413,-0.09542382280963661, ,0.01732629342067777,0.020548807963252695,-0.09679338409748982, ,0.0017547057274016203, ,0.02295187001776667,-0.006064842137037234,-0.04273086592107658,-0.0892155952696467,-0.0846902101671945,-0.020520465250594918, ,0.04888248714851427, ,0.12301102256459447, ,0.0011377138388760201, ,0.18555410276899229,-0.21374207775991175,0.10570078289000001,1.6110478357916007,0.1681995312112572,-1.3477160470735676, ,0.15842561195070248,0.15869053772319527,0.04376047120879121,0.008347066473585948,0.07391806006344094,-0.06521845137646759, ,1.1354429721832275
0.016591888139062844,0.021009595080929436,-0.09586442816290082, ,0.017380818005883206,0.0205382208829612,-0.0969051298506864, ,0.001388403389592216, ,0.02226890473858603,-0.006340172503542119,-0.044983047178910954,-0.022350569291610396,-0.010061733391714154,-0.010423196405152869, ,0.05059225671119069, ,0.024507187633509283, ,0.001139261305238466, ,0.18712181754245988,-0.2120816901919535,0.10615059552000002,1.6112575257350852,0.1692926232093807,-1.349015784003842, ,0.1520784319847288,0.16475163465012285,0.04590435596541788,0.01273691860942195,0.14313907828988456,-0.13713313123323195, ,1.1378240585327148
0.016591888139062844,0.021009595080929436,-0.09586442816290082, ,0.0174354221285447,0.02052759689502671,-0.09701672595430527, ,0.0015072033846499535, ,0.02226890473858603,-0.006340172503542119,-0.044983047178910954,-0.022350569291610396,-0.010061733391714154,-0.010423196405152869, ,0.05059225671119069, ,0.024507187633509283, ,0.0011415186186090887, ,0.18712181754245988,-0.2120816901919535,0.10615059552000002,1.6112575257350852,0.1692926232093807,-1.349015784003842, ,0.1520784319847288,0.16475163465012285,0.04590435596541788,0.01273691860942195,0.14313907828988456,-0.13713313123323195, ,1.1400489807128906
