NicholasDascanio/dvrk_moveit_final/test/execution/third_experiment_notsharpbends/thirdexp_500vel5.0/thirdexp_500vel5.0_22.csv
Current Position (x),Current Position (y),Current Position (z), ,Planned Position (x),Planned Position (y),Planned Position (z), ,Position Error,,Cartesian linear Velocity(x),Cartesian linear Velocity(y),Cartesian linear Velocity(z),Cartesian Angular Velocity(x),Cartesian Angular Velocity(y),Cartesian Angular Velocity(z), ,Total Linear Velocity, ,Total Angular Velocity, ,MSE, ,Joint 1 Position,Joint 2 Position,Joint 3 Position,Joint 4 Position,Joint 5 Position,Joint 6 Position, ,Joint 1 Velocity,Joint 2 Velocity,Joint 3 Velocity,Joint 4 Velocity,Joint 5 Velocity,Joint 6 Velocity, ,Time Stamp
0.009429022604945856,0.02049181561958396,-0.07992468972977555, ,0.009591737848966662,0.020438230111219584,-0.08002819245587255, ,0.00020015112203764532, ,4.2153508138996356e-05,-1.3071997517527845e-05,1.621494167192803e-06,0.04434620278351628,-0.0008043794387753816,-0.012375036608395888, ,4.416361184116315e-05, ,0.04435349735475515, ,1.6679260169803775e-05, ,0.1665252889669031,-0.24392251783238114,0.09036696848,1.6896815645982974,0.45240345072337335,-1.2817462789497749, ,0.0005295209029944247,8.937029394585413e-05,0.0,-0.001536260566580375,0.0,-0.04677307603589442, ,0.022341012954711914
0.009438720584944759,0.02049651945168499,-0.07994571916709217, ,0.009636176281104964,0.020456295093413564,-0.08012359504117908, ,0.0002687872346794778, ,0.00046104871627920325,0.00030664043003823577,-0.0012076156261597876,0.2867342574299909,-0.0029186933457966274,-0.08737103908008502, ,0.0013285065948884227, ,0.2867491118639647, ,2.1315379850778325e-05, ,0.1665870708298969,-0.24391479509950692,0.09038900541000001,1.6896815645982974,0.45226681422360787,-1.2863722279742311, ,0.003172774761959741,-3.1684243026288956e-06,0.0012917341381016496,-0.0014554889464591344,0.0,-0.3003807491667425, ,0.04465079307556152
0.009466337949534442,0.02050844542238293,-0.0799987969596283, ,0.009680858942611524,0.02047391511313485,-0.08021888344516932, ,0.0003092727919577509, ,0.0016698414972022816,0.0010636582349331637,-0.004387089048875239,0.16935219416683325,-0.06801590083306261,-0.06920676622944176, ,0.004813137208648943, ,0.18250021488652743, ,2.4319098396089815e-05, ,0.16665657542576492,-0.2439070723666327,0.09043826443000001,1.6896815645982974,0.45076381272618804,-1.2889855318201768, ,0.004709494527182774,6.904466914065612e-05,0.0040948101593830345,-0.0014081005784168414,-0.07231745804052941,-0.11506131394794417, ,0.06897592544555664
0.00950301276214118,0.020528507060162616,-0.08008468513195251, ,0.009725783451130274,0.02049109390079957,-0.08031405864973457, ,0.00032192970510022293, ,0.002520817094721643,0.0009111421805799632,-0.004045989664453009,0.1933712304837099,-0.16476711724458193,-0.1040290091497264, ,0.004853321673156792, ,0.25404849084926606, ,2.6193829851788023e-05, ,0.16675697095312983,-0.24389934963375848,0.09052641215000001,1.6896815645982974,0.4489875382292373,-1.2945614707242117, ,0.0058754397813506835,0.00011105616307189564,0.0038244445426170474,-0.0013616620488273376,-0.1648141060440383,-0.21584522755303853, ,0.09274792671203613
0.009565798921566324,0.02056015547858221,-0.08022652089112421, ,0.009770947433860372,0.020507835174335236,-0.08040912163079622, ,0.000279582468087185, ,0.0013859677407491709,0.0008706671673258627,-0.00382706665702761,-0.1699774387877236,0.0013206992908111554,0.0555268125228765, ,0.004162379979289383, ,0.16998256952590785, ,2.6533140805043882e-05, ,0.16701182113797924,-0.24386073596938734,0.09067030034000001,1.6896815645982974,0.4468013542329903,-1.2928604630052094, ,0.0103218634742107,0.0014326362481859051,0.004105363793814433,-0.001297747196247464,0.012505319212905742,0.1769261692125813, ,0.11624479293823242
0.009587351188622414,0.02057625836719008,-0.0802993920371103, ,0.009816348527541426,0.020524142639197083,-0.0805040733583177, ,0.0003115289289736004, ,0.0011054724574436651,0.000730444712173534,-0.003226656020257603,-0.028065488796506305,0.04205172717672142,0.02357642731302366, ,0.0034881123698604446, ,0.05055709069539581, ,2.7278262110256167e-05, ,0.16730528498719976,-0.2438221223050162,0.0907532629,1.6894718746548125,0.448577628729941,-1.291123424887781, ,0.012559150550353466,0.00176206414946871,0.0036177178105836934,0.0,0.0567129904821633,0.03207678537147887, ,0.14383387565612793
0.009618652341779062,0.020590692419032386,-0.08036276394609439, ,0.009861984378438809,0.02054001998838534,-0.08059891479631645, ,0.0003428489453874168, ,0.0015518073036288533,0.0006089673981724632,-0.003267517620515375,0.021429478642391312,-0.0010120021483579365,-0.00707017396428379, ,0.0036681900986741743, ,0.021453361108705504, ,2.8251405503101378e-05, ,0.1675678579049234,-0.24377578590777088,0.09082196627000001,1.6898912545417817,0.4487142652297064,-1.2912348427914773, ,0.013392173519400336,0.003105380495620585,0.003520179341436464,0.0027416270170548904,0.01214100663683865,-0.024158671001982317, ,0.16613388061523438
0.009659480724015452,0.02060978267308716,-0.08045339701519813, ,0.00990785264232871,0.020555470902462108,-0.08069364690287537, ,0.00034979763687589414, ,0.0018432417100350256,0.0007363680190506432,-0.003787959396282351,0.008481281647906114,-0.013971973169507554,-0.006412653610972697, ,0.0042764955569925675, ,0.016344667994813177, ,2.943084979134807e-05, ,0.16789221268564083,-0.2437217267776513,0.09091918802000001,1.6898912545417817,0.4488509017294719,-1.2917546543958767, ,0.01461752026470591,0.0030829607264726997,0.004043871926884997,0.0026349994682268794,0.0,-0.011595986172351419, ,0.18935680389404297
0.00970633344169542,0.0206282385757902,-0.08054715730191123, ,0.009953950984483498,0.02057049904956804,-0.08078827063015466, ,0.00035040539014317463, ,0.002089846236035981,0.0008690093669552083,-0.004438302372530401,-0.010782411176443595,-0.015632033292636918,-0.0006549827892455605, ,0.00498208415426101, ,0.01899001985037934, ,3.0381158036026312e-05, ,0.1682551811307294,-0.24365222218178328,0.09101900235,1.6898912545417817,0.4487142652297064,-1.2918065939724612, ,0.016238354133893015,0.003483898868488327,0.00473226723707665,0.0025389873523776803,0.0,0.008110581415717315, ,0.20915985107421875
0.009748313236518535,0.020648244435713902,-0.08064462643806505, ,0.010000277079656845,0.020585108085439282,-0.08088278692440387, ,0.00035240941279734365, ,0.0022113795052504997,0.00105869865201101,-0.005615927158833266,-0.009457095734398818,-0.014652693064223307,-0.001551847376595491, ,0.006127779369831534, ,0.017439554701248534, ,3.1178925616562745e-05, ,0.16856409044569837,-0.2435904403187895,0.09112270555,1.6898912545417817,0.4487142652297064,-1.2918065939724612, ,0.015242040083275099,0.004689249521977695,0.0059281025381466325,0.0024602299980593786,0.0,0.005470623297677837, ,0.2295699119567871
0.009790173644842748,0.020670733225391036,-0.08075340482936606, ,0.010046828612069,0.02059930165342429,-0.08097719672597299, ,0.00034793254326445985, ,0.002177950988885531,0.0008438726760514374,-0.00487825100119495,-0.0004194826714784742,-0.0074851520108698295,-0.0017690517491103963, ,0.0054085972704605405, ,0.007496896929722468, ,3.180227943800159e-05, ,0.1688884452264158,-0.24352093572292147,0.09123937165000001,1.6898912545417817,0.44912417472900273,-1.2921408476835508, ,0.017275976981334568,0.00514280456847085,0.0051953070841487285,0.002384895258879267,0.009560572704216333,-0.0036849572712199493, ,0.24932098388671875
0.00984100948826736,0.020688057190398484,-0.08084911485119134, ,0.010093603275392,0.020613083384500824,-0.08107150096932521, ,0.0003447901947611028, ,0.0022191497656212857,0.0006409878406808125,-0.003961785196839018,0.0004165720836357004,-0.010429644142959401,0.0003392211626301872, ,0.004585982232853768, ,0.01043795996704438, ,3.230287499201089e-05, ,0.16930547280162392,-0.24342054019555653,0.09134177856,1.6901009444852664,0.44912417472900273,-1.2921408476835508, ,0.019639267706637164,0.0047646951697219945,0.004268170289389067,-2.420246746029966e-05,0.009560572704216333,-0.004577856722590628, ,0.2702758312225342
0.009883934235817737,0.020701755421486494,-0.0809313889799489, ,0.01014059877273484,0.020626456897292596,-0.08116570058304758, ,0.00035559594992535875, ,0.002374052420085081,0.0007494129545432967,-0.0046878864481467355,-0.002061625931604716,-0.012898558284675374,5.899129623847347e-06, ,0.005307920875490417, ,0.013062277942265119, ,3.281771685706852e-05, ,0.1696684412467125,-0.24332786740106585,0.09142992628,1.6901009444852664,0.4492608112287682,-1.292252265587247, ,0.01972089392320673,0.005601661657649145,0.0050043391517436385,-2.420246746029966e-05,0.007083941721289043,-0.003049635115099393, ,0.2906758785247803
0.009934273254190176,0.020723411344806732,-0.08104384711604475, ,0.01018781281662873,0.02063942579808623,-0.0812597964898634, ,0.0003434676314183661, ,0.0025695446301984143,0.0009716083909126792,-0.005512843078380328,0.001966615882679369,-0.010887082352594269,-0.006390938602773396, ,0.006159384813333173, ,0.011063278677241047, ,3.3174073743770365e-05, ,0.17007002335617216,-0.24322747187370095,0.09155048125000001,1.6903106344287508,0.4495340842282991,-1.2923934226544993, ,0.020412334170460483,0.00573739001628625,0.005882131285081241,0.006011669497241346,0.008379363607633599,-0.006256649514336239, ,0.3114748001098633
0.009959649555205088,0.02073180577444884,-0.08109107829832073, ,0.010235243129012321,0.020651993680848305,-0.08135378960664426, ,0.00038902316091693793, ,0.0024275115624690998,0.000747114484282833,-0.0043639295291780225,0.001811370876010195,-0.012455781382896604,-0.006294771989538034, ,0.005049244832069276, ,0.012586800734352945, ,3.380224386337457e-05, ,0.17027853714377622,-0.2431811354764556,0.09160103656000002,1.6903106344287508,0.4495340842282991,-1.2923934226544993, ,0.020948552220412975,0.004993980423713812,0.004700150935379168,0.006011669497241346,0.007308617268340093,-0.005413652271978227, ,0.33174586296081543
0.01002648577337023,0.02074963420970731,-0.0812046378607482, ,0.01028288744121685,0.020664164127241834,-0.08144768084442068, ,0.00036347880568693815, ,0.0023055817446295725,0.0006237068227648698,-0.0038590843362096994,0.008236195950277355,-0.00845399225559356,0.0030208611458641143, ,0.004538419250786737, ,0.011802750015699913, ,3.4414486329032085e-05, ,0.17088863304083995,-0.2430266808189711,0.09172418411000001,1.6905203243722353,0.44994399372759536,-1.2925643188853073, ,0.021210760294696197,0.004532151782051908,0.0041951044298130106,-0.004035423855008778,0.014241900041780461,-0.012819611406620952, ,0.35087084770202637
0.010077126068449583,0.020763863253619508,-0.0812965282240321, ,0.010330743493951468,0.020675940706643497,-0.0815414711083953, ,0.00036338573084962044, ,0.002604201950063405,0.0008357885738626739,-0.0052198056075234535,-0.0001213787216192447,-0.015995838746284838,0.002290575263569949, ,0.0058929433152921755, ,0.015996299138119723, ,3.496492283039061e-05, ,0.17132110608179651,-0.24291083982585773,0.09182270215,1.6905203243722353,0.45008063022736083,-1.2926757367890038, ,0.021125766152820743,0.005975829409226508,0.005565622473794551,-0.0036545018167504877,0.006233721572785592,-0.0061548039438649145, ,0.3688788414001465
0.01012649275280837,0.02078056286289402,-0.08139818753638595, ,0.01037880903728833,0.020687326976160207,-0.0816351612979535, ,0.0003584871011072658, ,0.0024132062832197985,0.0007513607135015795,-0.004847655280881563,0.002471143473435137,-0.011794235613822835,0.0021040500068713404, ,0.0054669798983921665, ,0.012050333651132015, ,3.543377829743907e-05, ,0.1717304109241304,-0.24279499883274436,0.09193159051000001,1.6905203243722353,0.4503539032268917,-1.2928985725963966, ,0.019840464469678187,0.0058588534874279416,0.0051750524756335285,-0.0033477394179093826,0.009181884697164945,-0.008453925748822038, ,0.39142489433288574
0.010178226883329235,0.020793157073608456,-0.0814916657351974, ,0.01042708183064791,0.020698326480646116,-0.08172875230667605, ,0.0003565552811866232, ,0.002518390454437387,0.0005096480197273111,-0.004134350164404502,-0.004855201722137487,-0.0201795286258503,0.0018749007740179926, ,0.004867738989194558, ,0.02075539347052336, ,3.584903429066128e-05, ,0.17217060669796122,-0.24265598964100832,0.09203140484000001,1.6905203243722353,0.4504905397266572,-1.2930916692402337, ,0.021880779699901032,0.0065865230421167445,0.004418533015256588,-0.003079226747746157,0.002532427722129241,-0.0020383468089359134, ,0.40898585319519043
0.010200990299388259,0.0207972410236665,-0.08153253025878512, ,0.010475559642784177,0.02070894275271946,-0.08182224502234955, ,0.0004088025846448335, ,0.0024961978006057635,0.0005319122287505634,-0.004443041489588058,0.006737818814437951,-0.0063953062171400584,-0.0009378277068618662, ,0.0051239195697282665, ,0.009289679340847382, ,3.6512133803267496e-05, ,0.1723868432184395,-0.2425864850451403,0.0920754787,1.6903106344287508,0.45076381272618804,-1.2933145050476265, ,0.022312941819532278,0.007476685169475073,0.004769105245508983,0.0,0.016509015830531572,-0.013411046157047152, ,0.42713189125061035
0.010253447074700984,0.02081388757483026,-0.08163562273083837, ,0.010524240251769726,0.02071917931277935,-0.08191564032698015, ,0.00040088458912348974, ,0.002733838438002726,0.0009004557482109692,-0.0056484915859169645,-0.003692722437554699,-0.013059416533641675,-0.009842307684287826, ,0.006339570202763127, ,0.013571460991729857, ,3.707873546314952e-05, ,0.17281159352652187,-0.24244747585340426,0.09218566335,1.69073001431572,0.45090044922595346,-1.2931808867309014, ,0.021503952313272328,0.0070897695344460145,0.006013141381653455,0.010326142779838229,0.006189501596306625,-0.0011404017996081506, ,0.44446682929992676
0.010280340820222843,0.02082279844295528,-0.08169273146230216, ,0.010573121444981183,0.020729039669022762,-0.0820089390968033, ,0.00044101980685681526, ,0.002565387695695709,0.000843306144729704,-0.005599088710085836,0.00602681471437785,-0.0017774130534565608,-0.010027959085105212, ,0.006216282946132398, ,0.006283445492816896, ,3.7800685078907615e-05, ,0.17302783004700015,-0.24237797125753624,0.09224658898000002,1.69073001431572,0.45103708572571893,-1.2931289471543166, ,0.020625286146157527,0.007649613760934377,0.00597031916041979,0.010326142779838229,0.016983344493096682,-0.010998966623737932, ,0.46320581436157227
0.010340822490229933,0.020839576835057196,-0.0818179599803911, ,0.010622201019084235,0.020738527317461165,-0.08210214220229707, ,0.00041248565642215776, ,0.002487515653093421,0.0007346573365249513,-0.004931402863405532,0.02066513906671773,0.005976337298715587,-0.010399413455118122, ,0.005571910778871015, ,0.02151196358397733, ,3.832991669328693e-05, ,0.17352980768382473,-0.24219262566855485,0.09238010685,1.69073001431572,0.45144699522501525,-1.293218164644984, ,0.02199233871575221,0.007018652958619709,0.005327361712374582,0.009187072951191345,0.02672896121782759,-0.025051410633001495, ,0.48136401176452637
0.010393881537411425,0.020850155882564843,-0.08190849488819212, ,0.010671476780018917,0.020747645741937704,-0.08219525050819282, ,0.0004120633849927649, ,0.0026257868028417976,0.0006020928013482201,-0.004835472144066717,-0.003934562362928952,-0.009041105189749961,-0.006726402102102461, ,0.005535256356435416, ,0.00986014002924445, ,3.89985398009137e-05, ,0.17400089438915242,-0.24203817101107036,0.0924773286,1.69073001431572,0.45172026822454614,-1.293441000452377, ,0.022318189454014765,0.008093285894451024,0.005166659591307169,0.008147389173140923,0.011748451636557918,-0.001844921847495306, ,0.4977989196777344
0.010445517546648311,0.020865656110673432,-0.08202063835093623, ,0.010720946542984826,0.02075639841414373,-0.08228826487348768, ,0.00039927726187062053, ,0.002601590165162306,0.0009044551291431404,-0.005718133198916292,0.014936354683191348,0.01521761477601567,-0.004155890016270285, ,0.006346917184637848, ,0.021323003648174525, ,3.956740233813994e-05, ,0.17444881289585745,-0.24187599362071163,0.09259788357000001,1.69073001431572,0.45240345072337335,-1.2938347324905781, ,0.02264843473949183,0.007314744985044835,0.006181145331781142,0.0073260711971383456,0.03745867894591139,-0.018838068220091445, ,0.5141708850860596
0.010477716948986615,0.020874452492234706,-0.08208564794208284, ,0.010770608132426368,0.020764788793635632,-0.08238118615145575, ,0.0004302954860633691, ,0.0029401063799682154,0.0008684672057549805,-0.006402301356393289,-0.0011580827951295353,0.0008709113171923715,-0.0038090979258218164, ,0.007098445144612798, ,0.0014490105334508383, ,4.0236938013670026e-05, ,0.17469594034783265,-0.24178332082622095,0.09266658694,1.69073001431572,0.45240345072337335,-1.2936713750102968, ,0.02387945182648988,0.009585221442194604,0.006824683598971724,0.006965338102478505,0.023945108178195944,-0.0055073723452158385, ,0.5295679569244385
0.010545281864878879,0.020895108524632885,-0.08222639140788156, ,0.010820459382017828,0.020772820327852135,-0.08247401518966034, ,0.0003898648564734586, ,0.0030118432745351907,0.0008667164025475556,-0.00625003238753263,0.0068251710736348635,-0.009294028899028414,-0.008225586463557989, ,0.006991802491347611, ,0.0115309116648844, ,4.06954392440843e-05, ,0.17524425438190258,-0.24159797523723955,0.09281695658000001,1.69073001431572,0.45281336022266966,-1.2937605925009645, ,0.023957824175327134,0.009042058818869403,0.006650860759916493,0.006306510751726962,0.013643339784427739,-0.014221221484715926, ,0.5478909015655518
0.010573315487677018,0.020902810777298653,-0.08228309104760026, ,0.010870498134648802,0.020780496452130835,-0.08256675282996577, ,0.00042865175443148777, ,0.002646252545183242,0.0005674511456517767,-0.005168898163704799,0.02074784899223678,0.01693147841178175,0.0013983675421890655, ,0.0058345660988921135, ,0.026779622762906918, ,4.1287141629775236e-05, ,0.17548365910100353,-0.24150530244274887,0.09287788221000001,1.6909397042592043,0.4530866332222005,-1.2940651070484979, ,0.024796692333020846,0.009311478493888924,0.005598879268892795,0.0,0.04328572504083769,-0.027779797186320596, ,0.5640079975128174
0.010634224319515464,0.020913164921095982,-0.08238436458020146, ,0.010920722242409187,0.020787820589724695,-0.0826593999085482, ,0.0004164573124200548, ,0.003059523047433071,0.000664573029243058,-0.005569779478073374,0.0061284004483916745,-0.004049659736004091,0.0003779007289258601, ,0.0063894273627093335, ,0.007345544954116666, ,4.179693091382175e-05, ,0.17599335947070235,-0.24131995685376748,0.09298547428000001,1.6909397042592043,0.4530866332222005,-1.2939834283083573, ,0.026867763748151408,0.009245064235312439,0.0059905270853704414,0.0,0.023670024102020907,-0.014012674507085536, ,0.5805418491363525
0.010696924968947408,0.02092591114247976,-0.08249939094783142, ,0.010971129566574565,0.02079479615181977,-0.08275195725590886, ,0.0003951822897240111, ,0.0029489166259259116,0.0005670941169514959,-0.005265503093488289,-0.003387513988452506,-0.013598740709876312,-0.0001059492508970316, ,0.006061619241727247, ,0.01401431396354428, ,4.2196167385912254e-05, ,0.17653395077189807,-0.24111916579903764,0.09310862183000002,1.6909397042592043,0.45349654272149686,-1.2943176820194466, ,0.02495974265083398,0.009321730292417191,0.005618628402116403,0.0,0.011784441501895573,-0.0051049122129412615, ,0.5977709293365479
0.010726649874728541,0.020930850257826084,-0.08255333252317584, ,0.011021717977591277,0.020801426537551213,-0.08284442569688458, ,0.0004342245046938573, ,0.0029657463093842747,0.00046112564163571684,-0.00546798541612833,0.019281068249776597,0.011268736784188053,-8.999245102156547e-06, ,0.006237559822558217, ,0.02233257747497574, ,4.2884560923472646e-05, ,0.17681196915537015,-0.2410110475387985,0.09316695488000001,1.6909397042592043,0.4539064522207932,-1.2946519357305357, ,0.027466553273074033,0.01136996428872847,0.005893012031076582,0.0,0.04017622280067047,-0.028616563977754056, ,0.6108598709106445
0.010758703202085237,0.020935777060501388,-0.08260850296658052, ,0.011072485355061772,0.02080771513402067,-0.08293680605066, ,0.0004718495645400566, ,0.003133855620173577,0.0005870352103969258,-0.005802729339808796,0.009294519111289319,-0.0009323075439860376,-0.00024197945598587235, ,0.006620976451960625, ,0.009341160328763774, ,4.368211556659243e-05, ,0.17707454207309378,-0.24090292927855936,0.09322528793000001,1.6909397042592043,0.4539064522207932,-1.2946519357305357, ,0.027474505373037285,0.010785398199817421,0.0062221920000000005,0.0,0.02752982094666665,-0.018595812368710617, ,0.6243128776550293
0.010830982265582604,0.02095000585851933,-0.08274203281807435, ,0.011123429587729718,0.02081366531631275,-0.08302909913077956, ,0.00043188105720252246, ,0.003524174774685003,0.0005598331242766456,-0.006237475523403002,-0.0019545864135637305,-0.013132492031707528,-0.004199605870744189, ,0.00718605050598832, ,0.013277151259565375, ,4.429952779860322e-05, ,0.17766146977153485,-0.24066352455945839,0.09336399096,1.6911493942026892,0.4543163617200895,-1.2947411532212034, ,0.029776260294468393,0.012427572231334571,0.006715350556492412,0.0038486784278458307,0.01651759698196359,-0.008767321467089537, ,0.6379330158233643
0.010862596438466128,0.020956435615032586,-0.08280204668642187, ,0.01117454857346522,0.02081928044751231,-0.08312130574515895, ,0.0004669604063447954, ,0.0031997726604469823,0.0006601534564484391,-0.006233296059310537,0.03796305660049823,0.030060649206419675,-0.003229657313973938, ,0.0070376364944220475, ,0.048423509659607185, ,4.5015411213383205e-05, ,0.17797037908650382,-0.24054768356634504,0.09343269433000001,1.6911493942026892,0.4547262712193858,-1.2950754069322927, ,0.030523300597771235,0.011656211583369875,0.006789774731457802,0.0038486784278458307,0.06188932504276985,-0.04598943205513286, ,0.651188850402832
0.010938453156271347,0.02096877525607403,-0.08293738132989921, ,0.011225840219250063,0.020824563878720774,-0.08321342669609676, ,0.000423779765355536, ,0.0034903687722413032,0.000543812855329729,-0.006377353055327283,0.010347294795769067,0.0012891818205330318,-0.0038176629931884662, ,0.0072903387150496214, ,0.01042729537359333, ,4.555090702549204e-05, ,0.17823295200422745,-0.24043956530610588,0.09348973109000001,1.6911493942026892,0.4548629077191513,-1.2951051460958485, ,0.03072092637049879,0.013147262615471151,0.00683053667238422,0.003801856532778542,0.03226230597410412,-0.021058268020420608, ,0.6658618450164795
0.010975083053388048,0.02097411712796455,-0.08300473876706368, ,0.011277302441162934,0.020829518949073412,-0.08330546278028685, ,0.0004502000930860679, ,0.0038225374047156247,0.00040938129468261875,-0.006558575063083778,-0.015186881815850359,-0.02622410027497776,-0.004377569161592903, ,0.007602255725308803, ,0.030304204368131495, ,4.615464303550268e-05, ,0.17890482976428498,-0.24014610145688536,0.09364787847000001,1.6911493942026892,0.45513618071868217,-1.2950829456828197, ,0.031443651941176536,0.014934992376215105,0.006916548640903171,0.0034590644141149385,0.004559410838054633,0.0014981544974049053, ,0.679095983505249
0.011011001070808484,0.0209791017879292,-0.083072073267969, ,0.011328933164364582,0.0208341489857561,-0.08339741478882928, ,0.0004774298232897452, ,0.0032992885532312807,0.0004884480486038297,-0.006237208376872496,0.050490475133453463,0.03891234530218545,-0.004312750274186987, ,0.007072952339030447, ,0.06374526403332915, ,4.682521816953856e-05, ,0.17923690727787664,-0.23999936953227508,0.09372047071,1.6911493942026892,0.4556827267177439,-1.2952835810771837, ,0.032588235425299025,0.013658166603118997,0.006810094707139805,0.0033201002797250516,0.07333553040244738,-0.060311836697333324, ,0.69268798828125
0.011093303227278663,0.020989898430925292,-0.08321440988400085, ,0.011380730323083075,0.02083845730402198,-0.08348928350724291, ,0.00042556346069008743, ,0.004116724183588141,0.0005577671867499241,-0.007184929443494652,-0.022412109823338956,-0.019788365016295332,0.0007405637037938634, ,0.008299501993875942, ,0.029897860084026534, ,4.7299356371744644e-05, ,0.17993967596943108,-0.23969818295018033,0.09387213664,1.6911493942026892,0.4560926362170402,-1.295454477307992, ,0.034333191591342536,0.015098956492994557,0.00763239651173934,0.0030683430121035823,0.014325238447885394,0.009580149872687196, ,0.7097489833831787
0.011133421777587329,0.020994785011152543,-0.0832854082096197, ,0.011432691860598948,0.020842447207208473,-0.08358106971547624, ,0.0004474205126518453, ,0.0038769332155311836,0.0004060258578309671,-0.0065549268011959195,-0.03607726473259805,-0.030716861972844376,0.0010931527999742073, ,0.007626436489209945, ,0.04738242952765545, ,4.7979755503335364e-05, ,0.18027175348302274,-0.23954372829269585,0.09394732146000001,1.6911493942026892,0.45622927271680563,-1.2954025377314071, ,0.03142282833061946,0.014825330660595342,0.006907550529054641,0.0029584237606776,0.0,0.022969742505199238, ,0.7207629680633545
0.011171618410903993,0.020997770899731833,-0.08335071190827328, ,0.011484815729230475,0.020846121986754187,-0.08367277418792018, ,0.00047414561580337344, ,0.004042285215964853,0.0003954094280294074,-0.006989495670191236,-0.015792417567929838,-0.01172528711123441,0.0007194637574612007, ,0.00808390178729335, ,0.01966933638431824, ,4.872339625980107e-05, ,0.18061927646236284,-0.23938155090233712,0.09401732112000001,1.6911493942026892,0.456639182216102,-1.2957367914424964, ,0.03459604139936959,0.01639546329621126,0.007429482985074627,0.002856752535362286,0.023011013440657556,0.00199042092798417, ,0.732994794845581
0.01118275247464702,0.02099906863192756,-0.08337344544338239, ,0.011537099890318975,0.02084948492221555,-0.08376439769341924, ,0.0005484350818588089, ,0.00373042712318006,0.000467076753927986,-0.007258333324380916,0.02040124513258664,0.028340407868962563,0.0011937692690750907, ,0.00817420637513122, ,0.03491975803171099, ,4.9675952824050455e-05, ,0.18072739472260196,-0.23932749177221754,0.09404195063000001,1.6911493942026892,0.45691245521563284,-1.2959596272498892, ,0.034333191591342536,0.0166223404376372,0.007815903591756624,0.002825711301783086,0.06429113440178601,-0.03276009022650013, ,0.7462999820709229
0.011254852483996956,0.02100950704382781,-0.08350552396430788, ,0.01158954231421372,0.020852539281283704,-0.08385594099528282, ,0.0005093606350376114, ,0.0042780400575314894,0.0006203097917690726,-0.007665192713299613,-0.009143463910614696,-0.012736847451247585,-0.0007422604044774155, ,0.008800090357696909, ,0.015678972824120486, ,5.0478970888411564e-05, ,0.18166184540038313,-0.23889501873126098,0.09426361622000001,1.6913590841461734,0.4573223647149292,-1.296212202220838, ,0.03459604139936959,0.01707086554388753,0.00829193728266528,0.0,0.0,0.006426987147208204, ,0.7571918964385986
0.011297695086849741,0.021015994766211996,-0.08358243026836054, ,0.011642140980257436,0.020855288319801588,-0.08394740485129848, ,0.0005269496955061355, ,0.004411978127015687,0.0005239551414886284,-0.00788586580380762,-0.022948222614090043,-0.03459370657561163,-0.0012451810462178652, ,0.009051351250460873, ,0.041513195797108486, ,5.13109552552724e-05, ,0.18166184540038313,-0.23889501873126098,0.09426361622000001,1.6913590841461734,0.4573223647149292,-1.296212202220838, ,0.03459604139936959,0.01707086554388753,0.00829193728266528,0.0,0.0,0.006426987147208204, ,0.7688729763031006
0.01137995771207063,0.02102615402269508,-0.08374369265794424, ,0.011694893876771409,0.020857735281780573,-0.08403879001374177, ,0.00046328404842640867, ,0.0037038592984620757,0.000554973629518875,-0.007684032164777866,0.060016933324339626,0.055760404529781496,0.00015744522204535235, ,0.008548153001766296, ,0.08192224955526282, ,5.192805756019792e-05, ,0.18238005955768602,-0.23853205028617244,0.09443602279,1.6913590841461734,0.45841545671305267,-1.2971035454504094, ,0.0357427275173148,0.016831667534315496,0.0083615808503937,0.0,0.09487613504875174,-0.07241910069536339, ,0.7830338478088379
0.011421193043408419,0.021031014251298837,-0.08382397617488314, ,0.011747799001040666,0.020859883399417307,-0.08413009722938954, ,0.00047923618398309635, ,0.004124635143767503,0.0003196099060016535,-0.007353411542845836,0.016441730079649646,0.0025663674858567237,-0.002557798368948442, ,0.008437264182166795, ,0.016640814540887904, ,5.2573927843086474e-05, ,0.18276619620139725,-0.23834670469719105,0.09452287422000001,1.6913590841461734,0.4592352757116453,-1.2976086953923067, ,0.03601401956678208,0.018130863882015815,0.007842841713441656,0.0,0.039996811495268,-0.03261471787548557, ,0.7939128875732422
0.011466539738559583,0.021032741719025028,-0.08389680710643324, ,0.011800854359299229,0.020861735893110762,-0.084221327239531, ,0.0004963089510805782, ,0.0044088074454673954,0.00011266128656225245,-0.007253185131277998,-0.016860687012506523,-0.018399564001002313,0.0010635771666720006, ,0.00848875551569786, ,0.024956496186088084, ,5.3250563529652114e-05, ,0.18313688737936,-0.23815363637533543,0.09459935533000001,1.6913590841461734,0.4592352757116453,-1.2971186229514633, ,0.03753834713547103,0.020033131002421527,0.007661766002886004,-0.00011216709655700875,0.019866402947671655,-0.0014145164433189885, ,0.8056678771972656
0.011500306877904523,0.021033472524813728,-0.0839499099174695, ,0.011854057966715294,0.02086329597147859,-0.08431248077997966, ,0.0005343758251279613, ,0.00447691178937629,0.0002479559594337782,-0.007389585367087292,-0.06980227003593238,-0.025389702144508877,0.015265053383693142, ,0.008643505841100923, ,0.07427646905394567, ,5.417140470732935e-05, ,0.1834149057628321,-0.23800690445072517,0.0946550958,1.6913590841461734,0.4592352757116453,-1.2967919079909012, ,0.03725832020356135,0.018821289480061638,0.007808240941176472,0.0,0.012287321782764605,0.05450548468577439, ,0.8151819705963135
0.011500306877904523,0.021033472524813728,-0.0839499099174695, ,0.011907407847376488,0.020864566831374564,-0.08440355858108493, ,0.0006325009427828878, ,0.00447691178937629,0.0002479559594337782,-0.007389585367087292,-0.06980227003593238,-0.025389702144508877,0.015265053383693142, ,0.008643505841100923, ,0.07427646905394567, ,5.5349351800682235e-05, ,0.1834149057628321,-0.23800690445072517,0.0946550958,1.6913590841461734,0.4592352757116453,-1.2967919079909012, ,0.03725832020356135,0.018821289480061638,0.007808240941176472,0.0,0.012287321782764605,0.05450548468577439, ,0.824103832244873
0.011588506154900553,0.021037355956998474,-0.08411298941774431, ,0.011960902034275005,0.020865551657905317,-0.08449456136774419, ,0.0005601719032481683, ,0.0035613269697811877,4.274913097947557e-05,-0.007379874818895304,0.07038307561235821,0.08701207208134279,0.003906686498900928, ,0.008194353520348958, ,0.11191460136485215, ,5.6298299968876746e-05, ,0.1842952973104937,-0.23755898594402014,0.09483268753000001,1.6913590841461734,0.4614214597078924,-1.298329558229622, ,0.037657516491456655,0.021860617728281684,0.008061139433198382,-3.632196433047062e-05,0.1292094954750122,-0.08575274982355037, ,0.83284592628479
0.01163532415366221,0.021040655775138452,-0.08419975199500518, ,0.012014538569292871,0.02086625362444659,-0.08458548985941414, ,0.0005683426635638351, ,0.0053403173124190245,0.0006938124038975094,-0.010461773143911932,0.002691298352934522,-0.014064548016445329,-0.0036244428314118953, ,0.01176643794713597, ,0.014319723195985401, ,5.724885249986935e-05, ,0.18468915668707914,-0.23734274942354186,0.09492472412000001,1.6913590841461734,0.4618313692071887,-1.2985004544604304, ,0.041952670892338985,0.022439570006732273,0.011053998278972936,0.0,0.028899495271119253,-0.023565600601012815, ,0.8418388366699219
0.011658509743684991,0.021044013375351542,-0.08424770459346693, ,0.012068315503187177,0.020866675892660932,-0.0846763447701233, ,0.0006189682902477354, ,0.0057033711425590675,0.000894997968342438,-0.011253883962219232,-0.03353281496556356,-0.0416433052672532,-0.0005254473577637226, ,0.012648295062505772, ,0.053466011377152796, ,5.831727134986458e-05, ,0.1848667795431863,-0.23724235389617693,0.09497527943,1.6913590841461734,0.4619680057069542,-1.298366836143705, ,0.04163972863469539,0.022130816594792626,0.011807866212008898,-9.72625040281471e-06,0.0,0.012295967369513792, ,0.8542628288269043
0.0117738968644765,0.021060795176824368,-0.08446502889209263, ,0.012122230895575199,0.02086682161251395,-0.08476712680848236, ,0.000500225441136067, ,0.00573148406073753,0.0006834349584067355,-0.010659839648456921,-0.05987632737425226,-0.0430075907876879,0.006968448113221022, ,0.012122259451590489, ,0.07372128123918556, ,5.904073030850038e-05, ,0.18571628015935102,-0.23680988085522037,0.09520342647,1.6913590841461734,0.4618313692071887,-1.297601988318884, ,0.04301765256503662,0.022806282518257816,0.011193823977512299,2.13617180555648e-05,0.0,0.039104335776482965, ,0.8632388114929199
0.0117738968644765,0.021060795176824368,-0.08446502889209263, ,0.012176282814919637,0.02086669392229131,-0.08485783667769774, ,0.0005948846161713366, ,0.00573148406073753,0.0006834349584067355,-0.010659839648456921,-0.05987632737425226,-0.0430075907876879,0.006968448113221022, ,0.012122259451590489, ,0.07372128123918556, ,6.000245067026267e-05, ,0.18571628015935102,-0.23680988085522037,0.09520342647,1.6913590841461734,0.4618313692071887,-1.297601988318884, ,0.04301765256503662,0.022806282518257816,0.011193823977512299,2.13617180555648e-05,0.0,0.039104335776482965, ,0.8723249435424805
0.011824830769383192,0.021065010430619133,-0.08456386067327701, ,0.012230469338513955,0.020866295948615693,-0.0849484750755821, ,0.000593260762721466, ,0.005347262419141327,0.00032457853554747297,-0.010211734751639374,0.04279469677734764,0.013410594358883272,-0.008682725715808618, ,0.011531612777176424, ,0.044846739037292256, ,6.110152889023788e-05, ,0.18614103046743335,-0.2365704761361194,0.09530842596000001,1.6913590841461734,0.46237791520625043,-1.297802623713248, ,0.04521054862242533,0.026013415997387823,0.010850689046321525,3.397885210883451e-05,0.060739992858404604,-0.06658042369285998, ,0.8789618015289307
0.011877197876508157,0.02106907103487616,-0.08466632191692444, ,0.012284788552467374,0.020865630806463524,-0.08503904269456644, ,0.0005885905739574269, ,0.005175351674042946,0.00037374301167067983,-0.009899076543675068,0.07640776405719674,0.05179354178639539,-0.006715401777441066, ,0.011176567684505371, ,0.09230773144187149, ,6.217088505722129e-05, ,0.18661211717276105,-0.23631562595127,0.09541861061000001,1.6913590841461734,0.46333437070460853,-1.2985825490391232, ,0.047807023455149006,0.02495317947895629,0.010697657165883145,4.6100786179583446e-05,0.10318209489240605,-0.09726494032352512, ,0.886361837387085
0.011877197876508157,0.02106907103487616,-0.08466632191692444, ,0.012339238551690243,0.02086470159918184,-0.0851295402217122, ,0.000685433913414832, ,0.005175351674042946,0.00037374301167067983,-0.009899076543675068,0.07640776405719674,0.05179354178639539,-0.006715401777441066, ,0.011176567684505371, ,0.09230773144187149, ,6.34769616494809e-05, ,0.18715270847395676,-0.23602988483492368,0.09554175816,1.6913590841461734,0.4641541897032012,-1.2994144139415829, ,0.05143465667125787,0.026799475164775707,0.011860619151154134,5.7555548618650035e-05,0.04724639029524428,-0.038526263282181325, ,0.8939189910888672
0.0119392168261519,0.02107346560625639,-0.08478130307875402, ,0.012393817439879117,0.020863511418505256,-0.08521996833872222, ,0.0006657099137449984, ,0.006199631562921488,0.0004818046534069209,-0.011147659189508986,0.014124557735159393,-0.005813600598943639,-0.0042716995126923915, ,0.012764712007932692, ,0.015274191009129585, ,6.471145263336805e-05, ,0.18715270847395676,-0.23602988483492368,0.09554175816,1.6913590841461734,0.4641541897032012,-1.2994144139415829, ,0.05143465667125787,0.026799475164775707,0.011860619151154134,5.7555548618650035e-05,0.04724639029524428,-0.038526263282181325, ,0.900770902633667
0.01200315187904551,0.02108013393952539,-0.08489616665860145, ,0.012448523329502217,0.020862063344572454,-0.08531032772195352, ,0.0006460958904543155, ,0.006920361383203005,0.000679354499566718,-0.01254360087022483,-0.01880119198095622,-0.04239338367775634,-0.004931495645154985, ,0.014342065646262886, ,0.04637546214345273, ,6.587630194407478e-05, ,0.1876624088436556,-0.2357750346500743,0.09566360942,1.6913590841461734,0.4644274627027321,-1.2996372497489754, ,0.053104052355048,0.028125945927229036,0.013218930721991703,6.680229477215883e-05,0.011079168702815877,-0.008339782375602902, ,0.9073460102081299
0.012074836447477108,0.021087245549062134,-0.08503215622732115, ,0.012503354341784253,0.02086036044594348,-0.0854006190424283, ,0.0006089903791319498, ,0.007170694571016273,0.0007475716844742838,-0.013512008199255502,0.00015558485897041097,-0.020996358412846437,-0.00474694924909758, ,0.015315093523415972, ,0.020996924128259552, ,6.692837732335796e-05, ,0.18822616834347397,-0.2354661253351053,0.09580749761000001,1.6913590841461734,0.46483737220202836,-1.299971503460065, ,0.05605253488391659,0.030173908285682283,0.014298753608617595,7.558047488722612e-05,0.03629519595577012,-0.02825448350359502, ,0.9138889312744141
0.012074836447477108,0.021087245549062134,-0.08503215622732115, ,0.012558308606691949,0.020858405779616375,-0.0854908429658459, ,0.0007046321685208006, ,0.007170694571016273,0.0007475716844742838,-0.013512008199255502,0.00015558485897041097,-0.020996358412846437,-0.00474694924909758, ,0.015315093523415972, ,0.020996924128259552, ,6.820717690851208e-05, ,0.18822616834347397,-0.2354661253351053,0.09580749761000001,1.6913590841461734,0.46483737220202836,-1.299971503460065, ,0.05605253488391659,0.030173908285682283,0.014298753608617595,7.558047488722612e-05,0.03629519595577012,-0.02825448350359502, ,0.9213728904724121
0.012074836447477108,0.021087245549062134,-0.08503215622732115, ,0.012613384262919185,0.020856202391043813,-0.085581000152595, ,0.0008028974683572745, ,0.007170694571016273,0.0007475716844742838,-0.013512008199255502,0.00015558485897041097,-0.020996358412846437,-0.00474694924909758, ,0.015315093523415972, ,0.020996924128259552, ,6.971416919473813e-05, ,0.18822616834347397,-0.2354661253351053,0.09580749761000001,1.6913590841461734,0.46483737220202836,-1.299971503460065, ,0.05605253488391659,0.030173908285682283,0.014298753608617595,7.558047488722612e-05,0.03629519595577012,-0.02825448350359502, ,0.9305658340454102
0.012134081770478727,0.021092452123201204,-0.08514692791049551, ,0.012668579457872135,0.020853753314150306,-0.08567109125776466, ,0.0007857557596935705, ,0.006944137362160395,0.0006304857708808996,-0.013719126847779643,0.043505315517558915,0.028730213270280584,-0.00428911404083709, ,0.015389379372713619, ,0.05213575689335043, ,7.133403741855791e-05, ,0.1887049777816759,-0.23519582968450745,0.09592934887000001,1.6913590841461734,0.4653839182010902,-1.3004171750748506, ,0.05786398875516511,0.03237698449623704,0.014640451764705886,8.20345843960553e-05,0.08967287533831274,-0.07159930161524086, ,0.9352788925170898
0.012194999099286202,0.02109716986389928,-0.08526506403662765, ,0.012723892347654479,0.020851061571349014,-0.08576111693115679, ,0.0007657452801044844, ,0.00701497558004712,0.0005201380197949145,-0.013827868230249311,0.033971217465408814,0.019454237647708934,-0.004904453115676068, ,0.015514198843041551, ,0.0391472920260343, ,7.288784591049648e-05, ,0.1892069554185005,-0.23491008856816115,0.09605508900000001,1.6913590841461734,0.46606710069991736,-1.300892585853192, ,0.057304916400042746,0.03371116929252958,0.014694475571955721,8.81800684965132e-05,0.07947594865683213,-0.0638150811327015, ,0.9397048950195312
0.012194999099286202,0.02109716986389928,-0.08526506403662765, ,0.012779321097052689,0.02084813017355823,-0.08585107781729716, ,0.0008642135821505923, ,0.00701497558004712,0.0005201380197949145,-0.013827868230249311,0.033971217465408814,0.019454237647708934,-0.004904453115676068, ,0.015514198843041551, ,0.0391472920260343, ,7.467057020411831e-05, ,0.1892069554185005,-0.23491008856816115,0.09605508900000001,1.6913590841461734,0.46606710069991736,-1.300892585853192, ,0.057304916400042746,0.03371116929252958,0.014694475571955721,8.81800684965132e-05,0.07947594865683213,-0.0638150811327015, ,0.9441368579864502
0.012318024823493177,0.021098857913255692,-0.08546521507433784, ,0.012834863879521104,0.020844962120218486,-0.08594097455544798, ,0.0007469489724365538, ,0.00701497558004712,0.0005201380197949145,-0.013827868230249311,0.033971217465408814,0.019454237647708934,-0.004904453115676068, ,0.015514198843041551, ,0.0391472920260343, ,7.614614509801539e-05, ,0.19023407889077235,-0.23434632906834274,0.09626768056000001,1.691568774089658,0.46675028319874456,-1.3009596029308308, ,0.06364650674612392,0.03508204863529419,0.010507131609498682,0.0,0.01584948554129776,0.00012713470796644685, ,0.9485039710998535
0.012318024823493177,0.021098857913255692,-0.08546521507433784, ,0.012890518877167387,0.020841560399309483,-0.08603080777961897, ,0.0008448944078655363, ,0.007373860233571935,-0.0005860255762406057,-0.009937039536502358,-0.033386730798914736,-0.04834253282979388,-0.002648522839369362, ,0.01238797786042067, ,0.05875095043441879, ,7.784787020285448e-05, ,0.19023407889077235,-0.23434632906834274,0.09626768056000001,1.691568774089658,0.46675028319874456,-1.3009596029308308, ,0.06364650674612392,0.03508204863529419,0.010507131609498682,0.0,0.01584948554129776,0.00012713470796644685, ,0.9535229206085205
0.012318024823493177,0.021098857913255692,-0.08546521507433784, ,0.012946284280737446,0.020837927987366854,-0.08612057811857976, ,0.0009446137261332049, ,0.007373860233571935,-0.0005860255762406057,-0.009937039536502358,-0.033386730798914736,-0.04834253282979388,-0.002648522839369362, ,0.01238797786042067, ,0.05875095043441879, ,7.977676503348405e-05, ,0.19023407889077235,-0.23434632906834274,0.09626768056000001,1.691568774089658,0.46675028319874456,-1.3009596029308308, ,0.06364650674612392,0.03508204863529419,0.010507131609498682,0.0,0.01584948554129776,0.00012713470796644685, ,0.9579918384552002
0.012399828800612836,0.021092503827309348,-0.0855910377666676, ,0.013002158289600831,0.020834067849498712,-0.0862102861958711, ,0.0009016976128406208, ,0.00885928282511022,0.0001492131315150839,-0.016825641802627796,0.03632174322152738,0.046844524776187474,0.0010617233889008227, ,0.019016082109736626, ,0.05927627842261116, ,8.158246839789682e-05, ,0.19095229304807523,-0.23391385602738618,0.09640119843000002,1.691568774089658,0.46743346569757177,-1.3014350137091724, ,0.07555488977585254,0.04640437240023021,0.017937850810810813,0.0,0.12676376895787225,-0.0755958315684445, ,0.9624488353729248
0.012399828800612836,0.021092503827309348,-0.0855910377666676, ,0.013058139111735803,0.02082998293940302,-0.08629993262981689, ,0.0010024079056538777, ,0.00885928282511022,0.0001492131315150839,-0.016825641802627796,0.03632174322152738,0.046844524776187474,0.0010617233889008227, ,0.019016082109736626, ,0.05927627842261116, ,8.361453369779534e-05, ,0.19095229304807523,-0.23391385602738618,0.09640119843000002,1.691568774089658,0.46743346569757177,-1.3014350137091724, ,0.07555488977585254,0.04640437240023021,0.017937850810810813,0.0,0.12676376895787225,-0.0755958315684445, ,0.967073917388916
0.012485239670258025,0.021103202340476107,-0.08577410695536515, ,0.013114224963714735,0.02082567619938405,-0.08638951803353599, ,0.0009226993299605623, ,0.009193391353161667,0.001568361019296582,-0.02012774342391164,0.1448680278587584,0.12302144854110884,-0.0031831596328948117, ,0.022183423004533246, ,0.19005530509125526, ,8.543494396903623e-05, ,0.19170912086974923,-0.23349682845217806,0.09659953080000001,1.6917784640331426,0.46948301319405333,-1.3029429247843376, ,0.07954479594171901,0.04005780563886483,0.021820289753424663,-0.0030918406062584226,0.21049526430015983,-0.17650934069868268, ,0.9717509746551514
0.012485239670258025,0.021103202340476107,-0.08577410695536515, ,0.013170414070689179,0.02082115056036932,-0.08647904301495375, ,0.00102271795416718, ,0.009193391353161667,0.001568361019296582,-0.02012774342391164,0.1448680278587584,0.12302144854110884,-0.0031831596328948117, ,0.022183423004533246, ,0.19005530509125526, ,8.747774508709165e-05, ,0.19170912086974923,-0.23349682845217806,0.09659953080000001,1.6917784640331426,0.46948301319405333,-1.3029429247843376, ,0.07954479594171901,0.04005780563886483,0.021820289753424663,-0.0030918406062584226,0.21049526430015983,-0.17650934069868268, ,0.976254940032959
0.01258827827487639,0.021118749437967887,-0.085987239300571, ,0.013226704666375082,0.020816408941926455,-0.0865685081768143, ,0.0009148068317397747, ,0.01072707177125155,0.0015605829799987276,-0.022239563700130825,0.03713787929001602,0.0323344275359459,0.002284963809453346, ,0.024740729205001623, ,0.0492415662000214, ,8.924350007889496e-05, ,0.19255862148591393,-0.23306435541122147,0.09682897413000001,1.6917784640331426,0.47112265119123864,-1.3041165821484135, ,0.08346256953251607,0.045038890155895,0.023738914336810735,-0.0030918406062584226,0.12061490349901523,-0.07616429291571636, ,0.9813690185546875
0.01258827827487639,0.021118749437967887,-0.085987239300571, ,0.013283094993038015,0.020811454252280127,-0.08665791411669192, ,0.0010134127056449366, ,0.01072707177125155,0.0015605829799987276,-0.022239563700130825,0.03713787929001602,0.0323344275359459,0.002284963809453346, ,0.024740729205001623, ,0.0492415662000214, ,9.12266965289832e-05, ,0.19255862148591393,-0.23306435541122147,0.09682897413000001,1.6917784640331426,0.47112265119123864,-1.3041165821484135, ,0.08346256953251607,0.045038890155895,0.023738914336810735,-0.0030918406062584226,0.12061490349901523,-0.07616429291571636, ,0.9858639240264893
0.01258827827487639,0.021118749437967887,-0.085987239300571, ,0.013339583301478395,0.02080628938832861,-0.08674726142700213, ,0.0011134290090898977, ,0.01072707177125155,0.0015605829799987276,-0.022239563700130825,0.03713787929001602,0.0323344275359459,0.002284963809453346, ,0.024740729205001623, ,0.0492415662000214, ,9.364897689050194e-05, ,0.19255862148591393,-0.23306435541122147,0.09682897413000001,1.6917784640331426,0.47112265119123864,-1.3041165821484135, ,0.08346256953251607,0.045038890155895,0.023738914336810735,-0.0030918406062584226,0.12061490349901523,-0.07616429291571636, ,0.9881558418273926
0.012703972717824051,0.021136268400713604,-0.08623210994957482, ,0.013396167851016718,0.02080091723566094,-0.08683655069501515, ,0.0009782346963107865, ,0.011985261839716333,0.0019248942789774853,-0.02558925520422391,-0.06068345888036861,-0.029368154175981702,0.012502326221497337, ,0.028322459308095075, ,0.06741631619517825, ,9.574019608534896e-05, ,0.1934003993692044,-0.23257782324014534,0.09708823213000001,1.6917784640331426,0.47194247018983126,-1.304213338389608, ,0.08390534178467797,0.04922040537265082,0.02699798562711865,-0.0030918406062584226,0.05719987684253003,0.01677488867199286, ,0.990419864654541
0.012703972717824051,0.021136268400713604,-0.08623210994957482, ,0.01345284690947866,0.020795340668573584,-0.08692578250286609, ,0.0010762090339047083, ,0.011985261839716333,0.0019248942789774853,-0.02558925520422391,-0.06068345888036861,-0.029368154175981702,0.012502326221497337, ,0.028322459308095075, ,0.06741631619517825, ,9.805262258963989e-05, ,0.1934003993692044,-0.23257782324014534,0.09708823213000001,1.6917784640331426,0.47194247018983126,-1.304213338389608, ,0.08390534178467797,0.04922040537265082,0.02699798562711865,-0.0030918406062584226,0.05719987684253003,0.01677488867199286, ,0.9926638603210449
0.012703972717824051,0.021136268400713604,-0.08623210994957482, ,0.01350961875318053,0.020789562550087282,-0.08701495742756789, ,0.0011756362766367138, ,0.011985261839716333,0.0019248942789774853,-0.02558925520422391,-0.06068345888036861,-0.029368154175981702,0.012502326221497337, ,0.028322459308095075, ,0.06741631619517825, ,0.0005480762596749235, ,0.1934003993692044,-0.23257782324014534,0.09708823213000001,1.6917784640331426,0.47194247018983126,-1.304213338389608, ,0.08390534178467797,0.04922040537265082,0.02699798562711865,-0.0030918406062584226,0.05719987684253003,0.01677488867199286, ,0.994865894317627
0.012703972717824051,0.021136268400713604,-0.08623210994957482, ,0.013566481666914076,0.020783585731964035,-0.08710407604102174, ,0.0012761785207132733, ,0.011985261839716333,0.0019248942789774853,-0.02558925520422391,-0.06068345888036861,-0.029368154175981702,0.012502326221497337, ,0.028322459308095075, ,0.06741631619517825, ,0.0005572927439918646, ,0.1934003993692044,-0.23257782324014534,0.09708823213000001,1.6917784640331426,0.47194247018983126,-1.304213338389608, ,0.08390534178467797,0.04922040537265082,0.02699798562711865,-0.0030918406062584226,0.05719987684253003,0.01677488867199286, ,0.998438835144043
0.012831863389832172,0.021152512462121163,-0.08650447903859027, ,0.013623433943932103,0.020777413054723692,-0.08719313891003058, ,0.0011142423103078607, ,0.013089374247989343,0.0013894250416133637,-0.027990017520063484,0.01886355660767391,0.03631594990506924,0.00454552915199457, ,0.030930620765248953, ,0.040922668604179584, ,0.0005642546135708146, ,0.19432712731411134,-0.23201406374032693,0.09737600851000001,1.691568774089658,0.47289892568818936,-1.3047482274950615, ,0.09803403053561031,0.06202414480945802,0.029662591284916204,-0.0031791154282894136,0.1397923913399929,-0.07306026117030938, ,1.0024969577789307
0.012831863389832172,0.021152512462121163,-0.08650447903859027, ,0.013680473885933448,0.020771047347661054,-0.08728214659630905, ,0.0012126096808007165, ,0.013089374247989343,0.0013894250416133637,-0.027990017520063484,0.01886355660767391,0.03631594990506924,0.00454552915199457, ,0.030930620765248953, ,0.040922668604179584, ,0.0005722589971168628, ,0.19432712731411134,-0.23201406374032693,0.09737600851000001,1.691568774089658,0.47289892568818936,-1.3047482274950615, ,0.09803403053561031,0.06202414480945802,0.029662591284916204,-0.0031791154282894136,0.1397923913399929,-0.07306026117030938, ,1.0048999786376953
0.012831863389832172,0.021152512462121163,-0.08650447903859027, ,0.013737599803048285,0.020764491428862497,-0.0873710996564966, ,0.0013122309506550557, ,0.013089374247989343,0.0013894250416133637,-0.027990017520063484,0.01886355660767391,0.03631594990506924,0.00454552915199457, ,0.030930620765248953, ,0.040922668604179584, ,0.0005812830453307432, ,0.19432712731411134,-0.23201406374032693,0.09737600851000001,1.691568774089658,0.47289892568818936,-1.3047482274950615, ,0.09803403053561031,0.06202414480945802,0.029662591284916204,-0.0031791154282894136,0.1397923913399929,-0.07306026117030938, ,1.0073518753051758
0.01296568159743684,0.02116725827449374,-0.08678914289098086, ,0.013794810013823247,0.020757748105223017,-0.08745999864216905, ,0.0011424534776076638, ,0.013745904610282989,0.0019468664202210216,-0.028477158382614935,0.09867872009416527,0.07957405590869837,-0.010908968592346828, ,0.03168104688866388, ,0.12676553729438692, ,0.0005880441348762483, ,0.19523840979326984,-0.231465749706257,0.09764304425,1.691568774089658,0.4744019271856092,-1.3058921456955814, ,0.10626757173400983,0.05872335492479627,0.030111174896030254,-0.0031791154282894136,0.19517010326582848,-0.14776535184328027, ,1.0096988677978516
0.01296568159743684,0.02116725827449374,-0.08678914289098086, ,0.013852102845206724,0.02075082017246286,-0.08754884409984948, ,0.0012394794262420988, ,0.013745904610282989,0.0019468664202210216,-0.028477158382614935,0.09867872009416527,0.07957405590869837,-0.010908968592346828, ,0.03168104688866388, ,0.12676553729438692, ,0.000595799316916318, ,0.19523840979326984,-0.231465749706257,0.09764304425,1.691568774089658,0.4744019271856092,-1.3058921456955814, ,0.10626757173400983,0.05872335492479627,0.030111174896030254,-0.0031791154282894136,0.19517010326582848,-0.14776535184328027, ,1.0120279788970947
0.01296568159743684,0.02116725827449374,-0.08678914289098086, ,0.013909476632534022,0.02074371041514448,-0.08763763657102114, ,0.001337939977167037, ,0.013745904610282989,0.0019468664202210216,-0.028477158382614935,0.09867872009416527,0.07957405590869837,-0.010908968592346828, ,0.03168104688866388, ,0.12676553729438692, ,0.0006045303835075029, ,0.19523840979326984,-0.231465749706257,0.09764304425,1.691568774089658,0.4744019271856092,-1.3058921456955814, ,0.10626757173400983,0.05872335492479627,0.030111174896030254,-0.0031791154282894136,0.19517010326582848,-0.14776535184328027, ,1.0145738124847412
0.01296568159743684,0.02116725827449374,-0.08678914289098086, ,0.013966929719512584,0.020736421606689457,-0.08772637659213839, ,0.001437541320056696, ,0.013745904610282989,0.0019468664202210216,-0.028477158382614935,0.09867872009416527,0.07957405590869837,-0.010908968592346828, ,0.03168104688866388, ,0.12676553729438692, ,0.0006142165571883074, ,0.19523840979326984,-0.231465749706257,0.09764304425,1.691568774089658,0.4744019271856092,-1.3058921456955814, ,0.10626757173400983,0.05872335492479627,0.030111174896030254,-0.0031791154282894136,0.19517010326582848,-0.14776535184328027, ,1.0168278217315674
0.01296568159743684,0.02116725827449374,-0.08678914289098086, ,0.014024460458207271,0.020728956509395158,-0.08781506469463915, ,0.0015380626321851627, ,0.013745904610282989,0.0019468664202210216,-0.028477158382614935,0.09867872009416527,0.07957405590869837,-0.010908968592346828, ,0.03168104688866388, ,0.12676553729438692, ,0.0006248354775905702, ,0.19652810618326533,-0.23075525828182836,0.09798656110000001,1.6913590841461734,0.4765881111818563,-1.3075931534145835, ,0.12652925541129437,0.07408036031106227,0.03224455773279353,0.005180674802928053,0.19110463482377033,-0.146052354619976, ,1.0192220211029053
0.013111261230080431,0.0211813234257323,-0.08707554544435872, ,0.014082067209025384,0.020721317874451608,-0.08790370140495608, ,0.0013564334303743995, ,0.015790593644045395,0.0008781435737519922,-0.030156398262755953,0.0821880501052793,0.059473796818217725,-0.014680666436804775, ,0.03405175971883742, ,0.1014494117677907, ,0.0006331490906903865, ,0.19652810618326533,-0.23075525828182836,0.09798656110000001,1.6913590841461734,0.4765881111818563,-1.3075931534145835, ,0.12652925541129437,0.07408036031106227,0.03224455773279353,0.005180674802928053,0.19110463482377033,-0.146052354619976, ,1.0217318534851074
0.013111261230080431,0.0211813234257323,-0.08707554544435872, ,0.014139748340702037,0.02071350844195856,-0.08799228724452846, ,0.001455009320910505, ,0.015790593644045395,0.0008781435737519922,-0.030156398262755953,0.0821880501052793,0.059473796818217725,-0.014680666436804775, ,0.03405175971883742, ,0.1014494117677907, ,0.0006423834752996013, ,0.19652810618326533,-0.23075525828182836,0.09798656110000001,1.6913590841461734,0.4765881111818563,-1.3075931534145835, ,0.12652925541129437,0.07408036031106227,0.03224455773279353,0.005180674802928053,0.19110463482377033,-0.146052354619976, ,1.0239379405975342
0.013111261230080431,0.0211813234257323,-0.08707554544435872, ,0.01419750223028539,0.020705530940941973,-0.08808082272981431, ,0.001554631924206556, ,0.015790593644045395,0.0008781435737519922,-0.030156398262755953,0.0821880501052793,0.059473796818217725,-0.014680666436804775, ,0.03405175971883742, ,0.1014494117677907, ,0.0006525195691763452, ,0.19652810618326533,-0.23075525828182836,0.09798656110000001,1.6913590841461734,0.4765881111818563,-1.3075931534145835, ,0.12652925541129437,0.07408036031106227,0.03224455773279353,0.005180674802928053,0.19110463482377033,-0.146052354619976, ,1.0261759757995605
0.013111261230080431,0.0211813234257323,-0.08707554544435872, ,0.014255327263121688,0.020697388089371205,-0.08816930837230207, ,0.0016551126367353012, ,0.015790593644045395,0.0008781435737519922,-0.030156398262755953,0.0821880501052793,0.059473796818217725,-0.014680666436804775, ,0.03405175971883742, ,0.1014494117677907, ,0.0006635370754132569, ,0.19652810618326533,-0.23075525828182836,0.09798656110000001,1.6913590841461734,0.4765881111818563,-1.3075931534145835, ,0.12652925541129437,0.07408036031106227,0.03224455773279353,0.005180674802928053,0.19110463482377033,-0.146052354619976, ,1.0284068584442139
0.013271970812758755,0.02118941135145748,-0.08738515723701436, ,0.01431322183284062,0.020689082594175522,-0.08825774467852181, ,0.001447736645685723, ,0.01810115263976085,0.0012956293354453169,-0.034996138792126326,0.0799613634669204,0.05293273741847758,-0.016022573180076955, ,0.03942156912935553, ,0.09589390932271029, ,0.0006720609837857838, ,0.19780235710751237,-0.2299907077272801,0.09831711505000001,1.6913590841461734,0.47850102217857243,-1.308907967845912, ,0.14121568684296246,0.08209077989487092,0.03739157633802818,0.005180674802928053,0.19947597827227423,-0.15132356876246617, ,1.0309669971466064
0.013271970812758755,0.02118941135145748,-0.08738515723701436, ,0.014371184341340467,0.020680617151261224,-0.08834613215005768, ,0.0015461612797729187, ,0.01810115263976085,0.0012956293354453169,-0.034996138792126326,0.0799613634669204,0.05293273741847758,-0.016022573180076955, ,0.03942156912935553, ,0.09589390932271029, ,0.0006814599116996239, ,0.19780235710751237,-0.2299907077272801,0.09831711505000001,1.6913590841461734,0.47850102217857243,-1.308907967845912, ,0.14121568684296246,0.08209077989487092,0.03739157633802818,0.005180674802928053,0.19947597827227423,-0.15132356876246617, ,1.0332529544830322
0.013271970812758755,0.02118941135145748,-0.08738515723701436, ,0.01442921319877336,0.020671994445528318,-0.08843447128355952, ,0.001645597205517521, ,0.01810115263976085,0.0012956293354453169,-0.034996138792126326,0.0799613634669204,0.05293273741847758,-0.016022573180076955, ,0.03942156912935553, ,0.09589390932271029, ,0.0006917166914210909, ,0.19780235710751237,-0.2299907077272801,0.09831711505000001,1.6913590841461734,0.47850102217857243,-1.308907967845912, ,0.14121568684296246,0.08209077989487092,0.03739157633802818,0.005180674802928053,0.19947597827227423,-0.15132356876246617, ,1.0354769229888916
0.013271970812758755,0.02118941135145748,-0.08738515723701436, ,0.0144873068235304,0.020663217150887463,-0.08852276257075449, ,0.0017458716594142458, ,0.01810115263976085,0.0012956293354453169,-0.034996138792126326,0.0799613634669204,0.05293273741847758,-0.016022573180076955, ,0.03942156912935553, ,0.09589390932271029, ,0.0007028130595052294, ,0.19780235710751237,-0.2299907077272801,0.09831711505000001,1.6913590841461734,0.47850102217857243,-1.308907967845912, ,0.14121568684296246,0.08209077989487092,0.03739157633802818,0.005180674802928053,0.19947597827227423,-0.15132356876246617, ,1.0377509593963623
0.013467642193567258,0.021205472860032725,-0.08776671844373835, ,0.014545463642226947,0.02065428793027656,-0.08861100649845852, ,0.0014759153842020718, ,0.0199066267744294,0.0014404799759431884,-0.038520076556288224,0.033461802109018335,0.028846806532886248,-0.009751141735120698, ,0.043383695900647154, ,0.04417856538805133, ,0.0007108662087208214, ,0.1992928445522377,-0.22912576164536697,0.09872415011,1.6913590841461734,0.48041393317528863,-1.3101411035370996, ,0.15063006596582662,0.0891051094445735,0.04105363793814434,0.005180674802928053,0.1842978505812022,-0.11109939811854115, ,1.0400209426879883
0.013467642193567258,0.021205472860032725,-0.08776671844373835, ,0.014603682089687797,0.02064520943567802,-0.08869920354858912, ,0.0015728986683876975, ,0.0199066267744294,0.0014404799759431884,-0.038520076556288224,0.033461802109018335,0.028846806532886248,-0.009751141735120698, ,0.043383695900647154, ,0.04417856538805133, ,0.0007197531412947067, ,0.1992928445522377,-0.22912576164536697,0.09872415011,1.6913590841461734,0.48041393317528863,-1.3101411035370996, ,0.15063006596582662,0.0891051094445735,0.04105363793814434,0.005180674802928053,0.1842978505812022,-0.11109939811854115, ,1.0426290035247803
0.013467642193567258,0.021205472860032725,-0.08776671844373835, ,0.014661960608932408,0.020635984308135274,-0.08878735419817604, ,0.0016710508763227976, ,0.0199066267744294,0.0014404799759431884,-0.038520076556288224,0.033461802109018335,0.028846806532886248,-0.009751141735120698, ,0.043383695900647154, ,0.04417856538805133, ,0.0007294602610398913, ,0.1992928445522377,-0.22912576164536697,0.09872415011,1.6913590841461734,0.48041393317528863,-1.3101411035370996, ,0.15063006596582662,0.0891051094445735,0.04105363793814434,0.005180674802928053,0.1842978505812022,-0.11109939811854115, ,1.0449538230895996
0.013467642193567258,0.021205472860032725,-0.08776671844373835, ,0.0147202976511601,0.020626615177769633,-0.08887545891937347, ,0.0017701772097910807, ,0.0199066267744294,0.0014404799759431884,-0.038520076556288224,0.033461802109018335,0.028846806532886248,-0.009751141735120698, ,0.043383695900647154, ,0.04417856538805133, ,0.0007399725534515195, ,0.1992928445522377,-0.22912576164536697,0.09872415011,1.6913590841461734,0.48041393317528863,-1.3101411035370996, ,0.15063006596582662,0.0891051094445735,0.04105363793814434,0.005180674802928053,0.1842978505812022,-0.11109939811854115, ,1.0472939014434814
0.013649688152301848,0.02121406894171718,-0.08811740265323885, ,0.014778691675735253,0.020617104663797146,-0.08896351817947203, ,0.0015319682727688824, ,0.0199066267744294,0.0014404799759431884,-0.038520076556288224,0.033461802109018335,0.028846806532886248,-0.009751141735120698, ,0.043383695900647154, ,0.04417856538805133, ,0.0007478925106446932, ,0.2006752137367239,-0.22826081556345384,0.09909748163000001,1.691568774089658,0.4821902076722393,-1.3112628213245907, ,0.15975916087284645,0.10116944729048058,0.04191792505263159,-0.010597777400713706,0.22214730207961525,-0.14094297929018051, ,1.0501668453216553
0.013649688152301848,0.02121406894171718,-0.08811740265323885, ,0.014837141150172468,0.02060745537454575,-0.08905153244091019, ,0.001628073432693767, ,0.02070698298467108,0.0004291635240300661,-0.039356374644765976,0.049927237457557005,0.05278673330090372,0.003174996258287843, ,0.044473447705760276, ,0.07265723522291528, ,0.0007566071732392385, ,0.2006752137367239,-0.22826081556345384,0.09909748163000001,1.691568774089658,0.4821902076722393,-1.3112628213245907, ,0.15975916087284645,0.10116944729048058,0.04191792505263159,-0.010597777400713706,0.22214730207961525,-0.14094297929018051, ,1.0525789260864258
0.013649688152301848,0.02121406894171718,-0.08811740265323885, ,0.014895644550121942,0.020597669907471614,-0.08913950216128638, ,0.0017254108261624819, ,0.02070698298467108,0.0004291635240300661,-0.039356374644765976,0.049927237457557005,0.05278673330090372,0.003174996258287843, ,0.044473447705760276, ,0.07265723522291528, ,0.0007661052482678977, ,0.2006752137367239,-0.22826081556345384,0.09909748163000001,1.691568774089658,0.4821902076722393,-1.3112628213245907, ,0.15975916087284645,0.10116944729048058,0.04191792505263159,-0.010597777400713706,0.22214730207961525,-0.14094297929018051, ,1.0548930168151855
0.013649688152301848,0.02121406894171718,-0.08811740265323885, ,0.014954200359354524,0.02058775084917619,-0.08922742779337027, ,0.0018237824056387341, ,0.02070698298467108,0.0004291635240300661,-0.039356374644765976,0.049927237457557005,0.05278673330090372,0.003174996258287843, ,0.044473447705760276, ,0.07265723522291528, ,0.000776373958533634, ,0.2006752137367239,-0.22826081556345384,0.09909748163000001,1.691568774089658,0.4821902076722393,-1.3112628213245907, ,0.15975916087284645,0.10116944729048058,0.04191792505263159,-0.010597777400713706,0.22214730207961525,-0.14094297929018051, ,1.0570929050445557
0.013893278602822013,0.021216395513897552,-0.0885738663345931, ,0.015012807069746973,0.020577700775423355,-0.08931530978511516, ,0.0014869476613290837, ,0.022571010600384567,9.512225896048907e-05,-0.04107492906690542,-0.015140820355380806,-0.029330693721302516,-0.0011514118093608038, ,0.04686799937716708, ,0.03300631934146912, ,0.0007832063979835903, ,0.20252094689366354,-0.22707151470082326,0.09958229409000001,1.6913590841461734,0.4843763916684864,-1.3127187928231712, ,0.1676624409160261,0.10783743358917133,0.04352134295081967,-0.01063093920736336,0.14538891731034617,-0.08569686375366467, ,1.059391975402832
0.013893278602822013,0.021216395513897552,-0.0885738663345931, ,0.015071463181267111,0.020567522251155598,-0.08940314857966924, ,0.0015801469722737079, ,0.022571010600384567,9.512225896048907e-05,-0.04107492906690542,-0.015140820355380806,-0.029330693721302516,-0.0011514118093608038, ,0.04686799937716708, ,0.03300631934146912, ,0.0007907963082149247, ,0.20252094689366354,-0.22707151470082326,0.09958229409000001,1.6913590841461734,0.4843763916684864,-1.3127187928231712, ,0.1676624409160261,0.10783743358917133,0.04352134295081967,-0.01063093920736336,0.14538891731034617,-0.08569686375366467, ,1.0616748332977295
0.013893278602822013,0.021216395513897552,-0.0885738663345931, ,0.015130167201959185,0.020557217830511475,-0.0894909446153875, ,0.0016749451328489974, ,0.022571010600384567,9.512225896048907e-05,-0.04107492906690542,-0.015140820355380806,-0.029330693721302516,-0.0011514118093608038, ,0.04686799937716708, ,0.03300631934146912, ,0.0007991373348624159, ,0.20252094689366354,-0.22707151470082326,0.09958229409000001,1.6913590841461734,0.4843763916684864,-1.3127187928231712, ,0.1676624409160261,0.10783743358917133,0.04352134295081967,-0.01063093920736336,0.14538891731034617,-0.08569686375366467, ,1.0639159679412842
0.013893278602822013,0.021216395513897552,-0.0885738663345931, ,0.015188917647928925,0.020546790056842144,-0.08957869832584388, ,0.001771084225542345, ,0.022571010600384567,9.512225896048907e-05,-0.04107492906690542,-0.015140820355380806,-0.029330693721302516,-0.0011514118093608038, ,0.04686799937716708, ,0.03300631934146912, ,0.0008082209506631629, ,0.20252094689366354,-0.22707151470082326,0.09958229409000001,1.6913590841461734,0.4843763916684864,-1.3127187928231712, ,0.1676624409160261,0.10783743358917133,0.04352134295081967,-0.01063093920736336,0.14538891731034617,-0.08569686375366467, ,1.0661468505859375
0.013893278602822013,0.021216395513897552,-0.0885738663345931, ,0.015247713043328738,0.020536241462728238,-0.08966641013984221, ,0.0018683560028380534, ,0.022571010600384567,9.512225896048907e-05,-0.04107492906690542,-0.015140820355380806,-0.029330693721302516,-0.0011514118093608038, ,0.04686799937716708, ,0.03300631934146912, ,0.0008180370159610785, ,0.20252094689366354,-0.22707151470082326,0.09958229409000001,1.6913590841461734,0.4843763916684864,-1.3127187928231712, ,0.1676624409160261,0.10783743358917133,0.04352134295081967,-0.01063093920736336,0.14538891731034617,-0.08569686375366467, ,1.0684540271759033
0.014131166395309654,0.02120858135501178,-0.0889825761000694, ,0.015306551920343137,0.020525574569996742,-0.08975408048142906, ,0.0015630893804552462, ,0.025042707773875177,-0.001371452790696362,-0.0419923811376001,-0.03710610714491068,-0.05341514277701471,0.005791577505495931, ,0.04891194300996731, ,0.06503775897585477, ,0.0008248723587546029, ,0.20432034365335786,-0.22592082750256381,0.10001525495000001,1.6909397042592043,0.4857427566661408,-1.3136696143798543, ,0.1909395202383718,0.12502890850918416,0.044493886927374306,-0.020493167993146818,0.146770290499259,-0.08232618885294384, ,1.0706470012664795
0.014131166395309654,0.02120858135501178,-0.0889825761000694, ,0.015365432819173647,0.020514791889737732,-0.08984170976990442, ,0.001656160647355035, ,0.025042707773875177,-0.001371452790696362,-0.0419923811376001,-0.03710610714491068,-0.05341514277701471,0.005791577505495931, ,0.04891194300996731, ,0.06503775897585477, ,0.0008324295250146069, ,0.20432034365335786,-0.22592082750256381,0.10001525495000001,1.6909397042592043,0.4857427566661408,-1.3136696143798543, ,0.1909395202383718,0.12502890850918416,0.044493886927374306,-0.020493167993146818,0.146770290499259,-0.08232618885294384, ,1.0728869438171387
0.014131166395309654,0.02120858135501178,-0.0889825761000694, ,0.015424354288024321,0.020503895922321522,-0.08992929841983449, ,0.0017507711545633386, ,0.025042707773875177,-0.001371452790696362,-0.0419923811376001,-0.03710610714491068,-0.05341514277701471,0.005791577505495931, ,0.04891194300996731, ,0.06503775897585477, ,0.0008407028730285593, ,0.20432034365335786,-0.22592082750256381,0.10001525495000001,1.6909397042592043,0.4857427566661408,-1.3136696143798543, ,0.1909395202383718,0.12502890850918416,0.044493886927374306,-0.020493167993146818,0.146770290499259,-0.08232618885294384, ,1.0751619338989258
0.014131166395309654,0.02120858135501178,-0.0889825761000694, ,0.015483314883086624,0.020492889157415,-0.09001684684106258, ,0.0018466826528597232, ,0.025042707773875177,-0.001371452790696362,-0.0419923811376001,-0.03710610714491068,-0.05341514277701471,0.005791577505495931, ,0.04891194300996731, ,0.06503775897585477, ,0.0008496848353484805, ,0.20432034365335786,-0.22592082750256381,0.10001525495000001,1.6909397042592043,0.4857427566661408,-1.3136696143798543, ,0.1909395202383718,0.12502890850918416,0.044493886927374306,-0.020493167993146818,0.146770290499259,-0.08232618885294384, ,1.077467918395996
0.014131166395309654,0.02120858135501178,-0.0889825761000694, ,0.015542313168524936,0.020481774073999,-0.0901043554387214, ,0.0019437008318966195, ,0.025042707773875177,-0.001371452790696362,-0.0419923811376001,-0.03710610714491068,-0.05341514277701471,0.005791577505495931, ,0.04891194300996731, ,0.06503775897585477, ,0.0008593663928400569, ,0.20432034365335786,-0.22592082750256381,0.10001525495000001,1.6909397042592043,0.4857427566661408,-1.3136696143798543, ,0.1909395202383718,0.12502890850918416,0.044493886927374306,-0.020493167993146818,0.146770290499259,-0.08232618885294384, ,1.0798280239105225
0.014381230578645154,0.02118784333777282,-0.08938407592103739, ,0.015601347716461607,0.020470553140384665,-0.09019182461324474, ,0.0016296162146423395, ,0.026030808171650193,-0.002638674456492435,-0.04008425475658962,0.009609837903213491,-0.04591027051832028,0.03187364019848886, ,0.04786766190600679, ,0.04690414097473324, ,0.0008661229702242875, ,0.20627419507053665,-0.224654299311191,0.10044173436,1.6905203243722353,0.4873823946633261,-1.3147615930037897, ,0.20719856235473968,0.13161850424198443,0.04270458852546917,-0.059845431201261665,0.18019804420207067,-0.14366716778591865, ,1.0874269008636475
0.014451018517741693,0.02118009414174556,-0.08948964160441761, ,0.01566041710696216,0.020459228814230672,-0.09027925476037896, ,0.0016142430746603335, ,0.025908535838173246,-0.00336905273406539,-0.03831868982442603,0.008076078964549734,-0.046386595786190685,0.030638661768802235, ,0.04637806308443025, ,0.04708350779357726, ,0.0008726283624367749, ,0.20683795457035503,-0.22429133086610242,0.10055451159,1.6905203243722353,0.48792894066238784,-1.3152072646185753, ,0.20948552220412975,0.1347967919864642,0.040843106461538464,-0.05937046590373624,0.18192602586406056,-0.14511555291709047, ,1.0904920101165771
0.014451018517741693,0.02118009414174556,-0.08948964160441761, ,0.015719519928020616,0.020447803542559782,-0.09036664627119521, ,0.001707185559652255, ,0.025908535838173246,-0.00336905273406539,-0.03831868982442603,0.008076078964549734,-0.046386595786190685,0.030638661768802235, ,0.04637806308443025, ,0.04708350779357726, ,0.00087982282103346, ,0.20683795457035503,-0.22429133086610242,0.10055451159,1.6905203243722353,0.48792894066238784,-1.3152072646185753, ,0.20948552220412975,0.1347967919864642,0.040843106461538464,-0.05937046590373624,0.18192602586406056,-0.14511555291709047, ,1.0927557945251465
0.014451018517741693,0.02118009414174556,-0.08948964160441761, ,0.01577865477554455,0.02043627976177593,-0.09045399953210115, ,0.0018016281740604715, ,0.025908535838173246,-0.00336905273406539,-0.03831868982442603,0.008076078964549734,-0.046386595786190685,0.030638661768802235, ,0.04637806308443025, ,0.04708350779357726, ,0.0008877014992644601, ,0.20683795457035503,-0.22429133086610242,0.10055451159,1.6905203243722353,0.48792894066238784,-1.3152072646185753, ,0.20948552220412975,0.1347967919864642,0.040843106461538464,-0.05937046590373624,0.18192602586406056,-0.14511555291709047, ,1.0950219631195068
0.014451018517741693,0.02118009414174556,-0.08948964160441761, ,0.015837820253340414,0.020424659897680785,-0.09054131492485218, ,0.0018973446507894178, ,0.025908535838173246,-0.00336905273406539,-0.03831868982442603,0.008076078964549734,-0.046386595786190685,0.030638661768802235, ,0.04637806308443025, ,0.04708350779357726, ,0.0008962577971587394, ,0.20683795457035503,-0.22429133086610242,0.10055451159,1.6905203243722353,0.48792894066238784,-1.3152072646185753, ,0.20948552220412975,0.1347967919864642,0.040843106461538464,-0.05937046590373624,0.18192602586406056,-0.14511555291709047, ,1.0973880290985107
0.014908255232046752,0.021094146988220656,-0.0900905865204218, ,0.015897014973098707,0.02041294636549085,-0.09062859282656359, ,0.0013157244770015232, ,0.02518101475778876,-0.005753636910420932,-0.029109103057975184,-0.06650539902842016,-0.12598881260589054,-0.04366391801610302, ,0.03891693362494986, ,0.14246448014110713, ,0.000899782727241452, ,0.21060664821297662,-0.2217968881477279,0.10119487885000002,1.6903106344287508,0.4903883976581658,-1.3171311081449704, ,0.21041450456423677,0.13873821865273506,0.031050314853801175,0.017272944821771916,0.08317972300078343,-0.062403420301212854, ,1.0998139381408691
0.014908255232046752,0.021094146988220656,-0.0900905865204218, ,0.015956237554379128,0.02040114156985417,-0.09071583360972275, ,0.0014033735712509982, ,0.02518101475778876,-0.005753636910420932,-0.029109103057975184,-0.06650539902842016,-0.12598881260589054,-0.04366391801610302, ,0.03891693362494986, ,0.14246448014110713, ,0.0009039793176081982, ,0.21060664821297662,-0.2217968881477279,0.10119487885000002,1.6903106344287508,0.4903883976581658,-1.3171311081449704, ,0.21041450456423677,0.13873821865273506,0.031050314853801175,0.017272944821771916,0.08317972300078343,-0.062403420301212854, ,1.1021418571472168
0.014908255232046752,0.021094146988220656,-0.0900905865204218, ,0.016015486624595995,0.020389247904867132,-0.09080303764220023, ,0.0014934626460954786, ,0.02518101475778876,-0.005753636910420932,-0.029109103057975184,-0.06650539902842016,-0.12598881260589054,-0.04366391801610302, ,0.03891693362494986, ,0.14246448014110713, ,0.0009088510806535477, ,0.21060664821297662,-0.2217968881477279,0.10119487885000002,1.6903106344287508,0.4903883976581658,-1.3171311081449704, ,0.21041450456423677,0.13873821865273506,0.031050314853801175,0.017272944821771916,0.08317972300078343,-0.062403420301212854, ,1.104341983795166
0.014908255232046752,0.021094146988220656,-0.0900905865204218, ,0.016074760819003123,0.02037726775409143,-0.09089020528726142, ,0.001585572859571029, ,0.02518101475778876,-0.005753636910420932,-0.029109103057975184,-0.06650539902842016,-0.12598881260589054,-0.04366391801610302, ,0.03891693362494986, ,0.14246448014110713, ,0.0009143979804807402, ,0.21060664821297662,-0.2217968881477279,0.10119487885000002,1.6903106344287508,0.4903883976581658,-1.3171311081449704, ,0.21041450456423677,0.13873821865273506,0.031050314853801175,0.017272944821771916,0.08317972300078343,-0.062403420301212854, ,1.1065959930419922
0.014908255232046752,0.021094146988220656,-0.0900905865204218, ,0.01613405878067933,0.020365203490570787,-0.0909773369035794, ,0.0016793686922877851, ,0.02518101475778876,-0.005753636910420932,-0.029109103057975184,-0.06650539902842016,-0.12598881260589054,-0.04366391801610302, ,0.03891693362494986, ,0.14246448014110713, ,0.0009206172545604722, ,0.21060664821297662,-0.2217968881477279,0.10119487885000002,1.6903106344287508,0.4903883976581658,-1.3171311081449704, ,0.21041450456423677,0.13873821865273506,0.031050314853801175,0.017272944821771916,0.08317972300078343,-0.062403420301212854, ,1.108811855316162
0.015163207497046019,0.021021643021089664,-0.09036557515617889, ,0.016193379160513516,0.020353057476847885,-0.09106443284524574, ,0.00141303303420278, ,0.025809735184044686,-0.008454514596657248,-0.027687426925113556,-0.04789976186684102,-0.1072187761547427,-0.030301170736739425, ,0.03878420886223036, ,0.11743183927737845, ,0.0009245883495575876, ,0.21278445888350792,-0.22029095523725414,0.10148784039000001,1.6905203243722353,0.4913448531565239,-1.3177476759905642, ,0.2222410809331868,0.16221699411704404,0.029388951143911442,-0.006842423595523119,0.1202266547326865,-0.10811044720534366, ,1.1113989353179932
0.015163207497046019,0.021021643021089664,-0.09036557515617889, ,0.016252720617189804,0.020340832064981003,-0.091151493461782, ,0.0015060577611782022, ,0.025809735184044686,-0.008454514596657248,-0.027687426925113556,-0.04789976186684102,-0.1072187761547427,-0.030301170736739425, ,0.03878420886223036, ,0.11743183927737845, ,0.0009292401048505525, ,0.21278445888350792,-0.22029095523725414,0.10148784039000001,1.6905203243722353,0.4913448531565239,-1.3177476759905642, ,0.2222410809331868,0.16221699411704404,0.029388951143911442,-0.006842423595523119,0.1202266547326865,-0.10811044720534366, ,1.1135928630828857
0.015163207497046019,0.021021643021089664,-0.09036557515617889, ,0.016312081817172922,0.0203285295965613,-0.09123851909815288, ,0.0016007340655266806, ,0.025809735184044686,-0.008454514596657248,-0.027687426925113556,-0.04789976186684102,-0.1072187761547427,-0.030301170736739425, ,0.03878420886223036, ,0.11743183927737845, ,0.0009345694219987757, ,0.21278445888350792,-0.22029095523725414,0.10148784039000001,1.6905203243722353,0.4913448531565239,-1.3177476759905642, ,0.2222410809331868,0.16221699411704404,0.029388951143911442,-0.006842423595523119,0.1202266547326865,-0.10811044720534366, ,1.1158649921417236
0.015163207497046019,0.021021643021089664,-0.09036557515617889, ,0.01637146143469331,0.020316152402729066,-0.09132551009477657, ,0.0016967821536000246, ,0.025809735184044686,-0.008454514596657248,-0.027687426925113556,-0.04789976186684102,-0.1072187761547427,-0.030301170736739425, ,0.03878420886223036, ,0.11743183927737845, ,0.0009405710970507541, ,0.21278445888350792,-0.22029095523725414,0.10148784039000001,1.6905203243722353,0.4913448531565239,-1.3177476759905642, ,0.2222410809331868,0.16221699411704404,0.029388951143911442,-0.006842423595523119,0.1202266547326865,-0.10811044720534366, ,1.1181018352508545
0.015163207497046019,0.021021643021089664,-0.09036557515617889, ,0.016430858151732366,0.02030370280419106,-0.09141246678753724, ,0.0017939783792385244, ,0.025809735184044686,-0.008454514596657248,-0.027687426925113556,-0.04789976186684102,-0.1072187761547427,-0.030301170736739425, ,0.03878420886223036, ,0.11743183927737845, ,0.0009472383414428461, ,0.21278445888350792,-0.22029095523725414,0.10148784039000001,1.6905203243722353,0.4913448531565239,-1.3177476759905642, ,0.2222410809331868,0.16221699411704404,0.029388951143911442,-0.006842423595523119,0.1202266547326865,-0.10811044720534366, ,1.12046480178833
0.015163207497046019,0.021021643021089664,-0.09036557515617889, ,0.01649027065800746,0.020291183111236955,-0.09149938950779662, ,0.0018921425149859446, ,0.025809735184044686,-0.008454514596657248,-0.027687426925113556,-0.04789976186684102,-0.1072187761547427,-0.030301170736739425, ,0.03878420886223036, ,0.11743183927737845, ,0.0009545631799974438, ,0.21278445888350792,-0.22029095523725414,0.10148784039000001,1.6905203243722353,0.4913448531565239,-1.3177476759905642, ,0.2222410809331868,0.16221699411704404,0.029388951143911442,-0.006842423595523119,0.1202266547326865,-0.10811044720534366, ,1.1232078075408936
0.015163207497046019,0.021021643021089664,-0.09036557515617889, ,0.016549697650957592,0.02027859562375669,-0.09158627858240612, ,0.0019911281315826788, ,0.025809735184044686,-0.008454514596657248,-0.027687426925113556,-0.04789976186684102,-0.1072187761547427,-0.030301170736739425, ,0.03878420886223036, ,0.11743183927737845, ,0.0009625367565480993, ,0.215024051417033,-0.21866145860079278,0.10179376483000001,1.6901009444852664,0.4931211276534746,-1.3191961087386175, ,0.2243426514384652,0.16002856923856792,0.0325077786122449,-0.01729900967675779,0.2011232699643268,-0.17284500688709017, ,1.12636399269104
0.015420941861923769,0.020937083823808517,-0.09065229636665578, ,0.016609137835728118,0.02026594263125649,-0.09167313433371789, ,0.0017042154580628938, ,0.026064825690671714,-0.007720480515414236,-0.030308869161154307,0.01976745697623571,-0.03309761400797477,-0.01983604049447471, ,0.04071373855963072, ,0.03855099001820198, ,0.0009681984260253116, ,0.215024051417033,-0.21866145860079278,0.10179376483000001,1.6901009444852664,0.4931211276534746,-1.3191961087386175, ,0.2243426514384652,0.16002856923856792,0.0325077786122449,-0.01729900967675779,0.2011232699643268,-0.17284500688709017, ,1.1288249492645264
0.015582989704438898,0.020889068155791456,-0.09084079428751837, ,0.016668589925156192,0.020253226412876673,-0.09175995707959723, ,0.0015581023071661747, ,0.026805200177344623,-0.008104273966948402,-0.031188170462583917,0.01641890024270872,-0.03494167968042745,-0.006449454872350032, ,0.04191539084730173, ,0.038606628386963424, ,0.0009726673948218333, ,0.21641414333439343,-0.21767294879289203,0.10199598607000002,1.6898912545417817,0.49435085615136354,-1.3201988698718856, ,0.2297746768970237,0.1650381592321231,0.03346388974789917,-0.03244790197205004,0.20813057011500338,-0.17729146387355588, ,1.1311619281768799
0.015582989704438898,0.020889068155791456,-0.09084079428751837, ,0.01672805263975603,0.020240449237407702,-0.09184674713343412, ,0.0016564470276252067, ,0.026805200177344623,-0.008104273966948402,-0.031188170462583917,0.01641890024270872,-0.03494167968042745,-0.006449454872350032, ,0.04191539084730173, ,0.038606628386963424, ,0.0009778085950684753, ,0.21641414333439343,-0.21767294879289203,0.10199598607000002,1.6898912545417817,0.49435085615136354,-1.3201988698718856, ,0.2297746768970237,0.1650381592321231,0.03346388974789917,-0.03244790197205004,0.20813057011500338,-0.17729146387355588, ,1.1335179805755615
0.015582989704438898,0.020889068155791456,-0.09084079428751837, ,0.016787524707704025,0.020227613363307625,-0.09193350480415505, ,0.0017556888362574778, ,0.026805200177344623,-0.008104273966948402,-0.031188170462583917,0.01641890024270872,-0.03494167968042745,-0.006449454872350032, ,0.04191539084730173, ,0.038606628386963424, ,0.0009836136714952589, ,0.21641414333439343,-0.21767294879289203,0.10199598607000002,1.6898912545417817,0.49435085615136354,-1.3201988698718856, ,0.2297746768970237,0.1650381592321231,0.03346388974789917,-0.03244790197205004,0.20813057011500338,-0.17729146387355588, ,1.1357948780059814
0.015582989704438898,0.020889068155791456,-0.09084079428751837, ,0.01684700486482389,0.020214721038718245,-0.09202023039623453, ,0.0018556799008804146, ,0.026805200177344623,-0.008104273966948402,-0.031188170462583917,0.01641890024270872,-0.03494167968042745,-0.006449454872350032, ,0.04191539084730173, ,0.038606628386963424, ,0.0009900734213425565, ,0.21641414333439343,-0.21767294879289203,0.10199598607000002,1.6898912545417817,0.49435085615136354,-1.3201988698718856, ,0.2297746768970237,0.1650381592321231,0.03346388974789917,-0.03244790197205004,0.20813057011500338,-0.17729146387355588, ,1.1380748748779297
0.015970767119008286,0.02077902629376672,-0.09128365156770471, ,0.016906491854571944,0.02020177450148258,-0.09210692420970723, ,0.0013735276682727351, ,0.028537558876364787,-0.0075320143773821265,-0.034547057551820366,-0.06347466098020106,-0.10622938484007316,0.020576648983048784, ,0.04543811937890769, ,0.12374839627175216, ,0.000992892937864102, ,0.2196808593401904,-0.21540246532787002,0.10247172450000001,1.6892621847113283,0.496673676647376,-1.321847938014303, ,0.23202186200115102,0.16418155978974183,0.036957799350348035,-0.055340970470762696,0.14183504453914547,-0.10303773666182305, ,1.140326976776123
0.015970767119008286,0.02077902629376672,-0.09128365156770471, ,0.016965984428022475,0.02018877597916146,-0.09219358654017963, ,0.001472017180669433, ,0.028537558876364787,-0.0075320143773821265,-0.034547057551820366,-0.06347466098020106,-0.10622938484007316,0.020576648983048784, ,0.04543811937890769, ,0.12374839627175216, ,0.0009963901951108563, ,0.2196808593401904,-0.21540246532787002,0.10247172450000001,1.6892621847113283,0.496673676647376,-1.321847938014303, ,0.23202186200115102,0.16418155978974183,0.036957799350348035,-0.055340970470762696,0.14183504453914547,-0.10303773666182305, ,1.1425349712371826
0.015970767119008286,0.02077902629376672,-0.09128365156770471, ,0.017025481343852667,0.020175727689050214,-0.09228021767884174, ,0.001571475522052048, ,0.028537558876364787,-0.0075320143773821265,-0.034547057551820366,-0.06347466098020106,-0.10622938484007316,0.020576648983048784, ,0.04543811937890769, ,0.12374839627175216, ,0.001000557480088691, ,0.2196808593401904,-0.21540246532787002,0.10247172450000001,1.6892621847113283,0.496673676647376,-1.321847938014303, ,0.23202186200115102,0.16418155978974183,0.036957799350348035,-0.055340970470762696,0.14183504453914547,-0.10303773666182305, ,1.1447398662567139
0.015970767119008286,0.02077902629376672,-0.09128365156770471, ,0.017084981368327944,0.020162631838195902,-0.092366817912479, ,0.0016717251115829733, ,0.028537558876364787,-0.0075320143773821265,-0.034547057551820366,-0.06347466098020106,-0.10622938484007316,0.020576648983048784, ,0.04543811937890769, ,0.12374839627175216, ,0.0010053860242001606, ,0.2196808593401904,-0.21540246532787002,0.10247172450000001,1.6892621847113283,0.496673676647376,-1.321847938014303, ,0.23202186200115102,0.16418155978974183,0.036957799350348035,-0.055340970470762696,0.14183504453914547,-0.10303773666182305, ,1.147001028060913
0.015970767119008286,0.02077902629376672,-0.09128365156770471, ,0.017144483275287236,0.020149490623413657,-0.09245338752348375, ,0.0017726271412791313, ,0.028537558876364787,-0.0075320143773821265,-0.034547057551820366,-0.06347466098020106,-0.10622938484007316,0.020576648983048784, ,0.04543811937890769, ,0.12374839627175216, ,0.001010866317893582, ,0.2196808593401904,-0.21540246532787002,0.10247172450000001,1.6892621847113283,0.496673676647376,-1.321847938014303, ,0.23202186200115102,0.16418155978974183,0.036957799350348035,-0.055340970470762696,0.14183504453914547,-0.10303773666182305, ,1.1492648124694824
0.01627413933716394,0.020703998803431392,-0.09167906555833877, ,0.017203985846128107,0.02013630623130376,-0.09253992678986729, ,0.001388514114667381, ,0.029179100518505478,-0.0068603913434391135,-0.03983508004762713,-0.012794482380404773,-0.03829781241863922,-0.04383122072294709, ,0.04985296860624292, ,0.04037723255840695, ,0.0010135446710621905, ,0.22209035199694846,-0.21363395949967262,0.10289431504,1.6890524947678438,0.4984499511443268,-1.3232963707623564, ,0.22811764797709322,0.17129411833658983,0.04259040513368984,0.01002357035890711,0.1933987859233954,-0.14485540867738764, ,1.151582956314087
0.01627413933716394,0.020703998803431392,-0.09167906555833877, ,0.017263487869791976,0.020123080838268734,-0.09262643598527162, ,0.0014878800109850623, ,0.029179100518505478,-0.0068603913434391135,-0.03983508004762713,-0.012794482380404773,-0.03829781241863922,-0.04383122072294709, ,0.04985296860624292, ,0.04037723255840695, ,0.0010168850607799572, ,0.22209035199694846,-0.21363395949967262,0.10289431504,1.6890524947678438,0.4984499511443268,-1.3232963707623564, ,0.22811764797709322,0.17129411833658983,0.04259040513368984,0.01002357035890711,0.1933987859233954,-0.14485540867738764, ,1.153838872909546
0.01627413933716394,0.020703998803431392,-0.09167906555833877, ,0.017322988142749324,0.020109816610529695,-0.09271291537898102, ,0.0015880748555976113, ,0.029179100518505478,-0.0068603913434391135,-0.03983508004762713,-0.012794482380404773,-0.03829781241863922,-0.04383122072294709, ,0.04985296860624292, ,0.04037723255840695, ,0.0010208793950094513, ,0.22209035199694846,-0.21363395949967262,0.10289431504,1.6890524947678438,0.4984499511443268,-1.3232963707623564, ,0.22811764797709322,0.17129411833658983,0.04259040513368984,0.01002357035890711,0.1933987859233954,-0.14485540867738764, ,1.1560659408569336
0.01627413933716394,0.020703998803431392,-0.09167906555833877, ,0.017382485468984948,0.02009651570414363,-0.09279936523593404, ,0.0016889458935865698, ,0.029179100518505478,-0.0068603913434391135,-0.03983508004762713,-0.012794482380404773,-0.03829781241863922,-0.04383122072294709, ,0.04985296860624292, ,0.04037723255840695, ,0.0010255187456940146, ,0.22209035199694846,-0.21363395949967262,0.10289431504,1.6890524947678438,0.4984499511443268,-1.3232963707623564, ,0.22811764797709322,0.17129411833658983,0.04259040513368984,0.01002357035890711,0.1933987859233954,-0.14485540867738764, ,1.1585509777069092
0.01627413933716394,0.020703998803431392,-0.09167906555833877, ,0.01744197865998315,0.020083180265019894,-0.0928857858167353, ,0.0017903737385202055, ,0.029179100518505478,-0.0068603913434391135,-0.03983508004762713,-0.012794482380404773,-0.03829781241863922,-0.04383122072294709, ,0.04985296860624292, ,0.04037723255840695, ,0.0010307936077135055, ,0.22209035199694846,-0.21363395949967262,0.10289431504,1.6890524947678438,0.4984499511443268,-1.3232963707623564, ,0.22811764797709322,0.17129411833658983,0.04259040513368984,0.01002357035890711,0.1933987859233954,-0.14485540867738764, ,1.160904884338379
0.01627413933716394,0.020703998803431392,-0.09167906555833877, ,0.017501466534712858,0.020069812428937253,-0.09297217737766696, ,0.0018922638781955225, ,0.02865333058633148,-0.00614804428270792,-0.040876684527079044,0.015978856316958372,-0.004235441901936223,-0.02199679164902814, ,0.04985296860624292, ,0.04037723255840695, ,0.0010366940890181768, ,0.2249091494960404,-0.21151020795926087,0.10344394200000001,1.6890524947678438,0.5011826811396356,-1.3254430500961443, ,0.22017851869714797,0.16361541648012204,0.043881023471074386,-0.011721915481445916,0.2250052679064235,-0.1696420016009615, ,1.165193796157837
0.016638258518512077,0.020621822204257255,-0.09219227707657626, ,0.017560947919613032,0.02005641432156049,-0.09305854017070067, ,0.0013861650525682973, ,0.02865333058633148,-0.00614804428270792,-0.040876684527079044,0.015978856316958372,-0.004235441901936223,-0.02199679164902814, ,0.05029627362059818, ,0.016527210682774313, ,0.0010390714425117151, ,0.2249091494960404,-0.21151020795926087,0.10344394200000001,1.6890524947678438,0.5011826811396356,-1.3254430500961443, ,0.22017851869714797,0.16361541648012204,0.043881023471074386,-0.011721915481445916,0.2250052679064235,-0.1696420016009615, ,1.1676490306854248
0.016638258518512077,0.020621822204257255,-0.09219227707657626, ,0.01762042164857761,0.020042988058457688,-0.09314487444350954, ,0.0014856430008221514, ,0.02865333058633148,-0.00614804428270792,-0.040876684527079044,0.015978856316958372,-0.004235441901936223,-0.02199679164902814, ,0.05029627362059818, ,0.016527210682774313, ,0.0010420888179057046, ,0.2249091494960404,-0.21151020795926087,0.10344394200000001,1.6890524947678438,0.5011826811396356,-1.3254430500961443, ,0.22017851869714797,0.16361541648012204,0.043881023471074386,-0.011721915481445916,0.2250052679064235,-0.1696420016009615, ,1.1699109077453613
0.016638258518512077,0.020621822204257255,-0.09219227707657626, ,0.017679886562941026,0.020029535745116615,-0.09323118043947945, ,0.0015859105996473403, ,0.02865333058633148,-0.00614804428270792,-0.040876684527079044,0.015978856316958372,-0.004235441901936223,-0.02199679164902814, ,0.05029627362059818, ,0.016527210682774313, ,0.0010457386285214203, ,0.2249091494960404,-0.21151020795926087,0.10344394200000001,1.6890524947678438,0.5011826811396356,-1.3254430500961443, ,0.22017851869714797,0.16361541648012204,0.043881023471074386,-0.011721915481445916,0.2250052679064235,-0.1696420016009615, ,1.1721689701080322
0.016938800817913158,0.020552432935156222,-0.09261714297574455, ,0.01773934151146313,0.020016059476961834,-0.09331745839772161, ,0.0011912193664240787, ,0.026673152191617023,-0.006545927022943873,-0.03642073954428868,-0.033641201908964184,-0.04280564963197667,0.013171609056999206, ,0.04561552890606207, ,0.054442538728026804, ,0.001046708500107438, ,0.22707923743369748,-0.2098807113227995,0.10387301399000001,1.6886331148808746,0.503505501635648,-1.3271737969787023, ,0.2054046354079454,0.15531414330355284,0.039330398814814815,-0.043874758792671206,0.18830931778393342,-0.13501901777584052, ,1.1743919849395752
0.016938800817913158,0.020552432935156222,-0.09261714297574455, ,0.017798785350314542,0.020002561339371314,-0.09340370855308323, ,0.0012886495160728535, ,0.026673152191617023,-0.006545927022943873,-0.03642073954428868,-0.033641201908964184,-0.04280564963197667,0.013171609056999206, ,0.04561552890606207, ,0.054442538728026804, ,0.001048310758491315, ,0.22707923743369748,-0.2098807113227995,0.10387301399000001,1.6886331148808746,0.503505501635648,-1.3271737969787023, ,0.2054046354079454,0.15531414330355284,0.039330398814814815,-0.043874758792671206,0.18830931778393342,-0.13501901777584052, ,1.1766200065612793
0.016938800817913158,0.020552432935156222,-0.09261714297574455, ,0.017858216943061885,0.019989043407693433,-0.09348993113616, ,0.0013872609501458697, ,0.026673152191617023,-0.006545927022943873,-0.03642073954428868,-0.033641201908964184,-0.04280564963197667,0.013171609056999206, ,0.04561552890606207, ,0.054442538728026804, ,0.0010505406939627265, ,0.22707923743369748,-0.2098807113227995,0.10387301399000001,1.6886331148808746,0.503505501635648,-1.3271737969787023, ,0.2054046354079454,0.15531414330355284,0.039330398814814815,-0.043874758792671206,0.18830931778393342,-0.13501901777584052, ,1.1787889003753662
0.016938800817913158,0.020552432935156222,-0.09261714297574455, ,0.017917635160652912,0.019975507747263952,-0.09357612637330805, ,0.0014868115212607542, ,0.026673152191617023,-0.006545927022943873,-0.03642073954428868,-0.033641201908964184,-0.04280564963197667,0.013171609056999206, ,0.04561552890606207, ,0.054442538728026804, ,0.0010533921372784, ,0.22707923743369748,-0.2098807113227995,0.10387301399000001,1.6886331148808746,0.503505501635648,-1.3271737969787023, ,0.2054046354079454,0.15531414330355284,0.039330398814814815,-0.043874758792671206,0.18830931778393342,-0.13501901777584052, ,1.1810078620910645
0.01719481146915603,0.02048887347672944,-0.0929560414932532, ,0.01797703888140177,0.019961956413422497,-0.09366229448665521, ,0.0011782676295146045, ,0.02824143273939812,-0.00745278995145178,-0.03642992274968114,-0.15313953944767458,-0.15916500637506473,0.03672860011551519, ,0.04669327438488485, ,0.22087361461398386, ,0.0010542030170981155, ,0.22914120711111544,-0.20832071928220616,0.10426190099000002,1.6882137349939055,0.5045985936337716,-1.3275750677674303, ,0.20948552220412975,0.16084227382791658,0.03875623240875913,-0.0654874107857657,0.0657335984598165,-0.01420361889764065, ,1.1837818622589111
0.01719481146915603,0.02048887347672944,-0.0929560414932532, ,0.018036426990974182,0.019948391451529563,-0.09374843569411283, ,0.0012760588057316787, ,0.02824143273939812,-0.00745278995145178,-0.03642992274968114,-0.15313953944767458,-0.15916500637506473,0.03672860011551519, ,0.04669327438488485, ,0.22087361461398386, ,0.0010556343447667193, ,0.22914120711111544,-0.20832071928220616,0.10426190099000002,1.6882137349939055,0.5045985936337716,-1.3275750677674303, ,0.20948552220412975,0.16084227382791658,0.03875623240875913,-0.0654874107857657,0.0657335984598165,-0.01420361889764065, ,1.1861119270324707
0.01719481146915603,0.02048887347672944,-0.0929560414932532, ,0.01809579838237271,0.019934814896983566,-0.09383455020938815, ,0.0013749675966737538, ,0.02824143273939812,-0.00745278995145178,-0.03642992274968114,-0.15313953944767458,-0.15916500637506473,0.03672860011551519, ,0.04669327438488485, ,0.22087361461398386, ,0.0010576813527917643, ,0.22914120711111544,-0.20832071928220616,0.10426190099000002,1.6882137349939055,0.5045985936337716,-1.3275750677674303, ,0.20948552220412975,0.16084227382791658,0.03875623240875913,-0.0654874107857657,0.0657335984598165,-0.01420361889764065, ,1.188337802886963
0.01719481146915603,0.02048887347672944,-0.0929560414932532, ,0.018155151955921874,0.019921228775237252,-0.0939206382419951, ,0.001474761419802286, ,0.02824143273939812,-0.00745278995145178,-0.03642992274968114,-0.15313953944767458,-0.15916500637506473,0.03672860011551519, ,0.04669327438488485, ,0.22087361461398386, ,0.001060337913728137, ,0.22914120711111544,-0.20832071928220616,0.10426190099000002,1.6882137349939055,0.5045985936337716,-1.3275750677674303, ,0.20948552220412975,0.16084227382791658,0.03875623240875913,-0.0654874107857657,0.0657335984598165,-0.01420361889764065, ,1.190551996231079
0.01719481146915603,0.02048887347672944,-0.0929560414932532, ,0.018214486619253414,0.019907635101814977,-0.09400669999726706, ,0.0015752646610192069, ,0.02824143273939812,-0.00745278995145178,-0.03642992274968114,-0.15313953944767458,-0.15916500637506473,0.03672860011551519, ,0.04669327438488485, ,0.22087361461398386, ,0.001063596943774283, ,0.22914120711111544,-0.20832071928220616,0.10426190099000002,1.6882137349939055,0.5045985936337716,-1.3275750677674303, ,0.20948552220412975,0.16084227382791658,0.03875623240875913,-0.0654874107857657,0.0657335984598165,-0.01420361889764065, ,1.1927659511566162
0.017483242387678247,0.020416184460632442,-0.09334185842036707, ,0.018273801287291433,0.019894035882329044,-0.09409273567636753, ,0.0012088999814544804, ,0.026913192268801164,-0.006476483665449373,-0.0375195780257252,-0.03187253167816595,-0.007966902358347747,0.019254825072060815, ,0.04662599590351687, ,0.03285202364032551, ,0.0010645107993571773, ,0.2313035723158983,-0.20665260898137366,0.1046754175,1.6882137349939055,0.5061015951311915,-1.3285556284876694, ,0.20320544230935927,0.15380379507045505,0.040428455634517774,-0.04269155916459621,0.20997727572180652,-0.11811362494455527, ,1.1950068473815918
0.017483242387678247,0.020416184460632442,-0.09334185842036707, ,0.018333094882237874,0.019880433112497174,-0.0941787454763035, ,0.001307539182560861, ,0.026913192268801164,-0.006476483665449373,-0.0375195780257252,-0.03187253167816595,-0.007966902358347747,0.019254825072060815, ,0.04662599590351687, ,0.03285202364032551, ,0.0010660297267522003, ,0.2313035723158983,-0.20665260898137366,0.1046754175,1.6882137349939055,0.5061015951311915,-1.3285556284876694, ,0.20320544230935927,0.15380379507045505,0.040428455634517774,-0.04269155916459621,0.20997727572180652,-0.11811362494455527, ,1.1973237991333008
0.017483242387678247,0.020416184460632442,-0.09334185842036707, ,0.01839236633355725,0.019866828778158808,-0.09426472958993534, ,0.00140712089404464, ,0.026913192268801164,-0.006476483665449373,-0.0375195780257252,-0.03187253167816595,-0.007966902358347747,0.019254825072060815, ,0.04662599590351687, ,0.03285202364032551, ,0.0010681483054310354, ,0.2313035723158983,-0.20665260898137366,0.1046754175,1.6882137349939055,0.5061015951311915,-1.3285556284876694, ,0.20320544230935927,0.15380379507045505,0.040428455634517774,-0.04269155916459621,0.20997727572180652,-0.11811362494455527, ,1.1996920108795166
0.017483242387678247,0.020416184460632442,-0.09334185842036707, ,0.01845161457796237,0.01985322485529221,-0.0943506882059901, ,0.001507450082928355, ,0.026913192268801164,-0.006476483665449373,-0.0375195780257252,-0.03187253167816595,-0.007966902358347747,0.019254825072060815, ,0.04662599590351687, ,0.03285202364032551, ,0.0010708600447983027, ,0.2313035723158983,-0.20665260898137366,0.1046754175,1.6882137349939055,0.5061015951311915,-1.3285556284876694, ,0.20320544230935927,0.15380379507045505,0.040428455634517774,-0.04269155916459621,0.20997727572180652,-0.11811362494455527, ,1.202375888824463
0.017483242387678247,0.020416184460632442,-0.09334185842036707, ,0.01851083855939913,0.01983962331003115,-0.09443662150907245, ,0.0016083789581158513, ,0.026913192268801164,-0.006476483665449373,-0.0375195780257252,-0.03187253167816595,-0.007966902358347747,0.019254825072060815, ,0.04662599590351687, ,0.03285202364032551, ,0.0010741577068431956, ,0.2313035723158983,-0.20665260898137366,0.1046754175,1.6882137349939055,0.5061015951311915,-1.3285556284876694, ,0.20320544230935927,0.15380379507045505,0.040428455634517774,-0.04269155916459621,0.20997727572180652,-0.11811362494455527, ,1.205326795578003
