NicholasDascanio/dvrk_moveit_final/test/execution/third_experiment_notsharpbends/thirdexp_300vel5.0/thirdexp_300vel5.0_14.csv
Current Position (x),Current Position (y),Current Position (z), ,Planned Position (x),Planned Position (y),Planned Position (z), ,Position Error,,Cartesian linear Velocity(x),Cartesian linear Velocity(y),Cartesian linear Velocity(z),Cartesian Angular Velocity(x),Cartesian Angular Velocity(y),Cartesian Angular Velocity(z), ,Total Linear Velocity, ,Total Angular Velocity, ,MSE, ,Joint 1 Position,Joint 2 Position,Joint 3 Position,Joint 4 Position,Joint 5 Position,Joint 6 Position, ,Joint 1 Velocity,Joint 2 Velocity,Joint 3 Velocity,Joint 4 Velocity,Joint 5 Velocity,Joint 6 Velocity, ,Time Stamp
0.00853304277169045,0.019631350995125873,-0.07510032643451223, ,0.008808752068851945,0.01961426873892263,-0.075522956215488, ,0.0005048993481733882, ,0.0010760038317100058,0.0010208401218619843,-0.004925832395735461,0.33683114562101213,-0.001081453646133805,-0.11009309355424508, ,0.005144290387520397, ,0.33683288170760917, ,4.207494568111568e-05, ,0.16733617591869668,-0.24810823905021082,0.08547088115000001,1.6913590841461734,0.47043946869241143,-1.290735930427863, ,0.0032010263005400577,0.003016100478351953,0.0051185126992287925,-0.002141701841416905,0.0,-0.3580120837216434, ,0.03642082214355469
0.008680628517907947,0.019750030631884657,-0.07564292396328458, ,0.008964299714390857,0.019673117395092386,-0.0760219382989949, ,0.00047962158039629895, ,0.0046168121759413315,0.003991803193691963,-0.01814873460309932,0.11310573995054357,-0.0924498957488752,-0.0671451972130228, ,0.019147480646257986, ,0.14608179101038296, ,4.475095129862214e-05, ,0.16762191703504298,-0.24789972526260676,0.08601143408,1.6909397042592043,0.4663403736994482,-1.3003803129993199, ,0.010998254078079762,0.007950965690229938,0.018872999431279625,0.0023255284421550434,-0.086260287555525,-0.16783142876454593, ,0.07303786277770996
0.00880979275157716,0.01983126758125241,-0.07608093056632964, ,0.009119359560973341,0.019731011821345325,-0.07651647568847425, ,0.0005436748847410936, ,0.004550266601886181,0.002133424819352344,-0.013408801474984662,-0.11286291637470244,-0.09813832134247692,0.0035839765388887496, ,0.014319650296135735, ,0.1495632560994229, ,4.7756119165961897e-05, ,0.16810844920611911,-0.24752131135176977,0.08647291332000001,1.6909397042592043,0.4641541897032012,-1.305295283231703, ,0.020824433082833174,0.016035306109913956,0.01366107334476844,0.0021914420471715367,-0.08030692993191366,0.09576016472085025, ,0.10966801643371582
0.008927606165280131,0.01987629697339316,-0.07649320073444861, ,0.009273930425523557,0.019787958737047646,-0.0770065910474744, ,0.0006255507579265722, ,0.0029873642898238894,0.001329615272381189,-0.012410709367671354,0.06884550106584703,0.0794381746760632,-0.005947138415447572, ,0.012834248290471468, ,0.10511958104198103, ,5.127968026755602e-05, ,0.16886527702779314,-0.2467490380643473,0.08689939273000001,1.6909397042592043,0.4655205547008556,-1.3016720953405148, ,0.02212049919777874,0.024042802523048083,0.01300311144489796,0.002046396303267446,0.10444105173392973,-0.08836376475216834, ,0.14620280265808105
0.00907463477326818,0.01993412717601397,-0.07697574514112254, ,0.009428011151828099,0.01984396484712451,-0.07749230697791273, ,0.000632329219396787, ,0.00529389435163886,0.0020317142289391892,-0.016868370257746602,0.03334528496220292,-0.021806629284594453,-0.021686103335913316, ,0.01779592917683193, ,0.039842637265043175, ,5.462893707125764e-05, ,0.16974566857545473,-0.24591498291393107,0.08739716809,1.6911493942026892,0.46606710069991736,-1.3026895181362845, ,0.03162177326173635,0.028437800886566007,0.017389532227074237,-2.22828188097984e-05,0.00984405886740189,-0.06365938735756614, ,0.17896580696105957
0.009235003700048698,0.01999270292821602,-0.07747623392352311, ,0.009581600610439434,0.019899036842045015,-0.07797364602016964, ,0.0006134505260257681, ,0.005159009883233333,0.0017410675719118948,-0.01575430738414062,-0.0067908225426073,-0.02966319807610993,-0.010231078683540671, ,0.016668680224278407, ,0.03043057049096195, ,5.665877194433179e-05, ,0.17103536496545022,-0.24481063211291695,0.08806605373000001,1.6909397042592043,0.46661364669897915,-1.3041970133728975, ,0.030552782214575268,0.024835629824253018,0.014363220486925161,-0.0008609040663506205,0.004864809163272024,0.0010660875464784426, ,0.21159982681274414
0.009416646342892071,0.020039601772566376,-0.07798938326831968, ,0.009734697698580118,0.019953181397808883,-0.07845063065318043, ,0.0005668988411252158, ,0.0037448797186074574,0.000620249053825653,-0.009033703774009026,-0.015298008566427285,-0.015247528935322593,0.004252737629150265, ,0.009798807931179893, ,0.02159898480412952, ,5.748442257659599e-05, ,0.17194664744460872,-0.24403835882549452,0.08844197783,1.69073001431572,0.46688691969851004,-1.3045832066605714, ,0.028967320378043584,0.020598424475465765,0.009347894084507044,-0.005518227717699907,0.015598935880411417,-0.004948698021639177, ,0.24502182006835938
0.00955246106207063,0.020080043202600498,-0.07837874771411003, ,0.009887301340047219,0.020006405175932537,-0.07892328329452411, ,0.0006434746063862086, ,0.00483602865943956,0.0023822067335859867,-0.01589430564068255,0.012587777890276448,0.010811656172693425,0.002759823354623215, ,0.016783653771330495, ,0.01659346398479945, ,5.910127902783759e-05, ,0.17289654358813833,-0.2433124219353174,0.08884642031000001,1.69073001431572,0.46784337519686814,-1.3053631319864465, ,0.03023158380327199,0.020320544230935926,0.016627151899791234,-0.004884003548317339,0.04365214366548891,-0.0315670625879123, ,0.2775278091430664
0.00971751353748868,0.02016294194881008,-0.07892652209695929, ,0.010039410485117407,0.020058714823437497,-0.07939162630051205, ,0.0005751546389611887, ,0.005142757823234988,0.0026096412865854665,-0.01650785846741837,-0.01036640460651502,-0.016588170813058016,-0.0023912016966146296, ,0.017486211049092728, ,0.019560892860322313, ,5.959832647278759e-05, ,0.17380010333442258,-0.24264054417525988,0.08941549162000001,1.6905203243722353,0.4682532846961644,-1.3056973856975356, ,0.029154206315966442,0.019174973036668173,0.017201740302375815,0.0,0.012997765982287392,-0.007899582373894808, ,0.31092286109924316
0.009857450508834258,0.02021771749811198,-0.07934664122667359, ,0.010191024110452281,0.020110116972837697,-0.07985568196627353, ,0.0006180385872323619, ,0.004307059453217481,0.001521172483861427,-0.012183922148271785,-0.010597222134050364,-0.01731203463954405,0.003731028895899406, ,0.013012020818241684, ,0.02029796521389686, ,6.108518937226192e-05, ,0.17467277214920995,-0.24202272554532192,0.08985234135,1.6903106344287508,0.4687998306952262,-1.3061430573123214, ,0.02791086516425611,0.01865112845095731,0.012672085536992842,-0.006570728009026139,0.012585900632529973,-0.008312695964567348, ,0.34079694747924805
0.009991118275125908,0.02027070128276646,-0.07977436441674629, ,0.010342141219004033,0.02016061824212779,-0.08031547252584068, ,0.0006543190114101993, ,0.004786816538702184,0.002461837671998429,-0.016350027462939648,0.008585241119378598,0.007300662744887473,-0.009023067632172579, ,0.017213298793007228, ,0.011269643880357467, ,6.269332040558332e-05, ,0.17548365910100353,-0.24136629325101283,0.09029696882,1.6901009444852664,0.4697562861935842,-1.3070046613783368, ,0.0264557963642238,0.020399170584366032,0.01705440205567452,0.006232834861923715,0.03332716997610009,-0.026329462606472828, ,0.3696739673614502
0.010147155452660463,0.020339062501264292,-0.08027837863603132, ,0.010492760839921587,0.020210225234772606,-0.08077102015223277, ,0.0006154167599490771, ,0.005124465441914163,0.0020960617619532494,-0.01608844764369701,0.010002833218145558,0.004994333698832477,-0.010503165572065695, ,0.01701445763341503, ,0.01118029353839157, ,6.371917803355099e-05, ,0.17636405064866512,-0.24066352455945839,0.09082066998,1.6901009444852664,0.47043946869241143,-1.3078067871172405, ,0.03101207240472901,0.02380159055893423,0.016767170021052633,0.006211752171159205,0.03564333416538598,-0.031144644984532975, ,0.3986499309539795
0.01031010900875618,0.0204006995226061,-0.08077066238263621, ,0.010642882028456743,0.020258944539695768,-0.08122234695753738, ,0.0005786633849002337, ,0.005305446057262874,0.0016868238567108874,-0.015138722448753522,-0.02033431786823749,-0.032229335458954476,-0.002444844511419658, ,0.016129911654143955, ,0.03810792243284468, ,6.429825333297809e-05, ,0.17731394679219475,-0.2399144194706586,0.09133140824000001,1.6903106344287508,0.4708493781917078,-1.3081410408283298, ,0.0314020322827501,0.02480317343399655,0.015647162593320236,-0.0035765327558735095,0.0,-0.004923493522246907, ,0.4281299114227295
0.010408196869380488,0.02043258999059911,-0.08106712308894672, ,0.010792503865870893,0.020306782731269884,-0.08166947499299274, ,0.0007254978637868431, ,0.005417909039181027,0.001802422424475642,-0.016079733341066476,0.0037562229837155873,-0.010244861062851423,0.00296925222637516, ,0.01706341962423995, ,0.010911705381644108, ,6.648404770167647e-05, ,0.17793948815500693,-0.23942788729958248,0.09163992526,1.6898912545417817,0.4716691971903004,-1.3089729057307893, ,0.03309973545813421,0.025892753494807852,0.016696867421383647,-0.010646920061086767,0.026155293016668944,-0.03053425759852084, ,0.45299601554870605
0.010580204444936044,0.02049297404169096,-0.08157523310205417, ,0.01094162545934169,0.020353746369306137,-0.08211242624906706, ,0.0006622582363469085, ,0.005783955138369082,0.0022403677737037452,-0.017634548362536924,-0.009083329242080268,-0.010928793348192673,0.006242184955335339, ,0.01869359999451069, ,0.014210689243854546, ,6.796427253201611e-05, ,0.17895888889440456,-0.23864016854641157,0.09216751529000002,1.6898912545417817,0.47221574318936216,-1.3095819348258564, ,0.033651397715769776,0.02505860616806728,0.01835116534562212,-0.009455763914009296,0.02579079359448688,-0.01602162033391194, ,0.4798598289489746
0.01075971099349642,0.02055319490353656,-0.08210940180189444, ,0.011090245941869996,0.020399841999045064,-0.08255122265553928, ,0.0005726920045956286, ,0.006024727328974491,0.0017993522459917141,-0.016746847842110425,-0.02545042761571195,-0.03216275529899027,0.003253719377195082, ,0.01788831799081306, ,0.041014214328741194, ,6.865671608109838e-05, ,0.18002462603104755,-0.23778294519737264,0.09272232741000001,1.6898912545417817,0.47303556218795484,-1.310250442248035, ,0.03602769231528883,0.027284917066840362,0.017351646535947715,-0.007727284776599017,0.005880151721565808,-0.0024095473541493025, ,0.5083768367767334
0.01086935501757839,0.020582864586998206,-0.08241722797671663, ,0.011238364472187184,0.02044507615114682,-0.08298588608157587, ,0.0006917554993400081, ,0.005413058876540497,0.0013175566862985296,-0.015109945867523974,0.0065772313252756825,0.00580829749388893,-0.003654029359529715, ,0.0161042735366116, ,0.00877470820413317, ,7.009316837206653e-05, ,0.18072739472260196,-0.23724235389617693,0.09304251104000001,1.6896815645982974,0.47371874468678205,-1.310807531766517, ,0.03558190534625826,0.028583416132069512,0.0157243943928924,-0.000760303535330656,0.042911740936639936,-0.033167953202578135, ,0.5331978797912598
0.011037365761114084,0.02063016699313516,-0.08289713285192088, ,0.011385980234662297,0.020489455341682263,-0.08341643833581024, ,0.0006411006205108981, ,0.005901750403080137,0.002019717559381827,-0.017741332127503787,-0.00707386808146006,-0.008008965913806506,-0.003278180250009308, ,0.01880597730771602, ,0.010685569100312048, ,7.107010630652388e-05, ,0.1817390727291254,-0.2364082987457607,0.0935402864,1.6896815645982974,0.4744019271856092,-1.3114463000251397, ,0.03367528089370858,0.027466553273074033,0.018436124444444448,-0.000760303535330656,0.026686013348651404,-0.018965004313388933, ,0.5586628913879395
0.011158995266969412,0.02067437210788464,-0.08327083000798799, ,0.011533092439209637,0.02053298607212394,-0.08384290116641932, ,0.0006980000828762301, ,0.006329227904941688,0.00232199648136975,-0.018914969841259746,-0.008112017136720264,-0.01361365807475836,0.0015215015524193078, ,0.0200805098946205, ,0.015847210701453212, ,7.276747783800568e-05, ,0.18242639595493138,-0.23585998471169076,0.09392917340000001,1.6894718746548125,0.4750851096844364,-1.3120850682837624, ,0.03563535169300442,0.02685255844891646,0.01968950744128554,-0.006175034537928054,0.024217494548459045,-0.01844154969063318, ,0.5839200019836426
0.011324395979145212,0.020727783258494104,-0.08374736975893762, ,0.011679700321196253,0.020575674829338118,-0.08426529626119972, ,0.0006462399023938963, ,0.005617664826747251,0.0019203705335077395,-0.01694550498083319,0.0385083587949511,0.03450268572757081,0.00011275632159957636, ,0.01795539250885595, ,0.05170423215029079, ,7.403033949683617e-05, ,0.18313688737936,-0.23532711614336926,0.09429343089000002,1.6894718746548125,0.47549501918373277,-1.3123376432547111, ,0.03589143024147911,0.028034546989208504,0.017408537180327872,-0.005785826646188383,0.015745647907089887,-0.014441336810942451, ,0.6058769226074219
0.011455931837679756,0.020777758653716175,-0.08415440265104865, ,0.011825803141349728,0.02061752808557564,-0.08468364524764446, ,0.0006652641146917835, ,0.006478732930531121,0.0024716412596524706,-0.019523944369838214,-0.010864522693818646,-0.01826835188545906,-0.0021149957512191526, ,0.0207187691395532, ,0.021254827619063, ,7.531570041375922e-05, ,0.18418717905025456,-0.23454712012307258,0.09485213188000001,1.6892621847113283,0.4772712936806835,-1.3139494334830455, ,0.034608658482301526,0.026374914274171976,0.020317361632653064,-0.0030056992729728367,0.017569969197071926,-0.014999786482549226, ,0.6276450157165527
0.011592214912551056,0.020830784436267753,-0.08456476987194317, ,0.011971400185666017,0.020658552298464163,-0.08509796969301799, ,0.0006765703435961999, ,0.006537670188288705,0.0023805926612830513,-0.019284847811566412,-0.0258409771936783,-0.034436021019424085,-0.0024255284480372975, ,0.020501553795385156, ,0.04305337360321285, ,7.657792592563363e-05, ,0.18488994774180897,-0.23400652882187686,0.09527861129000001,1.6892621847113283,0.4774079301804489,-1.314060851386742, ,0.033807246725497245,0.026374914274171976,0.020011069748743723,-0.00272308077003339,0.0,-0.0005991863343425254, ,0.6491658687591553
0.011719711590307042,0.020876036745031457,-0.08495043716885935, ,0.012116490765317265,0.020698753911000487,-0.08550829110443094, ,0.0007071519853585627, ,0.007127708824230329,0.0024699152470481385,-0.020694911874948162,0.0026026176775015516,-0.005185415783721923,-0.005505111415641099, ,0.022026894740804527, ,0.005801582516678932, ,7.834985136678334e-05, ,0.18565449829635722,-0.2334504920549327,0.09568305377000001,1.6890524947678438,0.4787742951781033,-1.3151750304237062, ,0.04060630789836148,0.02951693361072186,0.02161304141112619,-5.618406376122222e-05,0.036530392889591666,-0.03034927904696182, ,0.6671149730682373
0.011817631043702283,0.020912124858695546,-0.08523017817501405, ,0.012261074216559805,0.020738139351542215,-0.08591463092891494, ,0.0008338995002851709, ,0.007962879605908137,0.003080041243519963,-0.022702959341596447,-0.02783978552547717,-0.04401994246906849,0.0023284851045653554, ,0.02425527712779537, ,0.0520845750848067, ,8.070171436386446e-05, ,0.18658122624126416,-0.23281722795924628,0.09620156977000001,1.6888428048243591,0.47918420467739964,-1.3155092841347955, ,0.03761273942071771,0.02797669267643596,0.021730984338335608,-0.007910744364663396,0.013123897420217752,-0.011225400580103006, ,0.6891179084777832
0.01195946111826168,0.020963797311215795,-0.08565461867965268, ,0.012405149900642398,0.020776715033800647,-0.0863170105534967, ,0.0008200007706078346, ,0.006413372648322211,0.002095559917464712,-0.019768851503653026,0.031579730015273456,0.0321863241059575,0.0018210571688548746, ,0.020888518613521083, ,0.04509141590130927, ,8.285970503116247e-05, ,0.18696736288497537,-0.23250831864427732,0.09641805020000001,1.6888428048243591,0.4797307506764614,-1.315954955749581, ,0.03727295426491389,0.03051348603166263,0.02068676820779221,-0.007910744364663396,0.07347393540447654,-0.06042148616552542, ,0.7081208229064941
0.0120992924373748,0.021006014631139307,-0.08605274056132792, ,0.012548717203714126,0.020814487356833156,-0.08671545130527199, ,0.0008233169787762206, ,0.007385083218587961,0.00200849600260906,-0.01951357399435601,-0.021621160058525355,-0.0340804852634264,0.0017714176062148819, ,0.02096075094960038, ,0.04036026769898562, ,8.49254547969221e-05, ,0.1877859725696432,-0.23189050001433936,0.09683415929000001,1.6888428048243591,0.48068720617481947,-1.3167348810754562, ,0.042650310812795855,0.030279815430271466,0.020317361632653064,-0.007910744364663396,0.010704223447156777,-0.009209237035282584, ,0.7262458801269531
0.012217088981393232,0.02103882022085375,-0.08637168531252246, ,0.012691775536732662,0.020851462705035795,-0.0871099744514776, ,0.0008974970848156644, ,0.007580886287076785,0.0021709424518795628,-0.0212716919696739,0.005414692008795181,-0.00127971623006714,0.0009175508102592348, ,0.022686288971086717, ,0.005563470855393387, ,8.725486273205045e-05, ,0.18848101852832339,-0.23138852237751475,0.09716730582000001,1.6888428048243591,0.48123375217388126,-1.3171805526902418, ,0.04397448635703002,0.0331807487966681,0.022215915648535565,-0.007597140273717247,0.04579630419677207,-0.03780476662095278, ,0.7454378604888916
0.012397785087857919,0.021089520223328304,-0.08688651354063637, ,0.012834324335372602,0.02088764744813623,-0.08750060119956654, ,0.0007800146055265747, ,0.00823765569196516,0.0023698087183303355,-0.023500705191245173,-0.022230255377605666,-0.0288658433883311,-0.003481233424389204, ,0.02501515758788376, ,0.036433693205141095, ,8.933696492817786e-05, ,0.18953131019921793,-0.23056991269284696,0.09770526617000001,1.6886331148808746,0.48260011717153567,-1.3182130529870655, ,0.04323323077834659,0.03637291742371437,0.024393279509954065,-0.0038172246619224697,0.01569713337575514,-0.01368665413824056, ,0.7617759704589844
0.012486627194422856,0.021119096750457957,-0.08713917049366375, ,0.01297636305993356,0.020923047941186747,-0.08788735269727921, ,0.0009154523272082817, ,0.009105627377744412,0.0031437688036173657,-0.025950403205279048,-0.033400376920891484,-0.046844358532086725,-0.003056880299695536, ,0.027680663986788385, ,0.057532315582249194, ,9.198200979782512e-05, ,0.18999467417167137,-0.23022238971350686,0.09796841304000001,1.6886331148808746,0.48273675367130114,-1.318324470890762, ,0.045977200367476156,0.03413559048865855,0.02699798562711865,-0.0038172246619224697,0.0,-0.0008628528958670888, ,0.7769579887390137
0.012665262444355396,0.02118280099883727,-0.08767128298645474, ,0.01311789119524876,0.020957670524557742,-0.08827025003271619, ,0.0007837844340708559, ,0.009123201470795032,0.0031547240857101953,-0.02717180427213649,0.04404755225819691,0.03740819855948381,-0.0027815699994966333, ,0.028835603627060967, ,0.057788799677198036, ,9.391622558796258e-05, ,0.19099090671244634,-0.2295118982890782,0.09852711403000002,1.68842342493739,0.4843763916684864,-1.3195798069949785, ,0.05135115885198635,0.03743469095008709,0.028546257204301078,-0.005707177982287473,0.09273477743824568,-0.0788190176632602, ,0.7914059162139893
0.012758023583085091,0.021213089498553852,-0.08794295182480283, ,0.013258908250593011,0.020991521523929926,-0.0886493142344103, ,0.0008938264211970616, ,0.009388853454541726,0.002982667972028919,-0.027196381897699278,0.0027780460951150354,-0.005741524733193635,-0.0027321465275974522, ,0.0289255953395558, ,0.006377128506480685, ,9.62822599205891e-05, ,0.19148516161639673,-0.22912576164536697,0.09881100154000001,1.68842342493739,0.4849229376675481,-1.3201071573499048, ,0.04976242347061919,0.038765090505911266,0.028393603422459897,-0.005707177982287473,0.046658249488433196,-0.040401528469960236, ,0.8058807849884033
0.012860988465997165,0.021242989332971942,-0.08823311011503616, ,0.013399413759591422,0.021024607250288554,-0.08902456627139936, ,0.0009818326630665734, ,0.009681120907802264,0.0028305771623811297,-0.02679062953619184,-0.02344317809258327,-0.03649696104698999,-0.0013151141480323293, ,0.028626458042327805, ,0.04337737847793172, ,9.940381795349363e-05, ,0.19202575291759244,-0.22870101133728463,0.09911303711000001,1.6882137349939055,0.4851962106670791,-1.3203299931572974, ,0.05080136057733982,0.038892189163307694,0.02789634241681261,-0.007135518930745428,0.016383610563667703,-0.015605821897377789, ,0.8167819976806641
0.012934170308428895,0.021264867939757185,-0.08843881811919231, ,0.013539407280127704,0.02105693399991657,-0.08939602705329655, ,0.0011514326983275052, ,0.009930719949287884,0.0029930513731629286,-0.027525337874568297,-0.006031364831739334,-0.021136875194935796,-0.0020750251904943606, ,0.029414652477000654, ,0.02198019687159423, ,0.00010319591237334707, ,0.19242733502705212,-0.22839982475518988,0.09932822125000002,1.6882137349939055,0.48560612016637533,-1.3205008893881056, ,0.05337285801938739,0.039052239324473575,0.02875236736462094,-0.0070690763098111824,0.034818853087879464,-0.03262696651101892, ,0.8298978805541992
0.013154131522879559,0.021326456677652254,-0.08904852933448737, ,0.013678888394252475,0.021088508054388087,-0.08976371743036357, ,0.0009184134874060978, ,0.00989836366983591,0.002449162851152812,-0.02678742014078362,0.01387891728509197,0.005964734406271914,-0.0029744624989730007, ,0.02866255187192261, ,0.015105913036954216, ,0.0001058662007517947, ,0.19370158595129916,-0.22747309681028294,0.09996858851000001,1.6882137349939055,0.48751903116309153,-1.3221424187799962, ,0.0565536004520088,0.04278491503988764,0.02804368225352113,-0.006147809745211593,0.06577686719455544,-0.0548497754623632, ,0.8414778709411621
0.013164717506195174,0.021329591356133944,-0.0890792926491701, ,0.013817856708091873,0.021119335680561784,-0.0901276581935801, ,0.001252943965574932, ,0.010090169797081673,0.002385314224010207,-0.027078647702469653,0.002816399655683463,-0.005613301611865298,-0.003227347727457173, ,0.02899576541282657, ,0.006279068632783001, ,0.00010991531487871913, ,0.19376336781429296,-0.22742676041303758,0.10000099576000002,1.6882137349939055,0.487655667662857,-1.3222538366836927, ,0.056960949314808385,0.04409709180226338,0.028292738046181175,-0.006107781750526103,0.0542671916213032,-0.04545727395017089, ,0.8533577919006348
0.013381484768002955,0.021387745101819993,-0.0896788274772235, ,0.01395631185175589,0.0211494231305749,-0.09048787007471641, ,0.0010206730440019125, ,0.012035739536857437,0.004198249528378313,-0.033799413089640004,-0.016397111526084463,-0.028585863600206853,-0.005990068220442696, ,0.03612318715874514, ,0.03295410070508745, ,0.0001128679947905386, ,0.19489860954680396,-0.22652320066675333,0.10062580754000001,1.6880040450504212,0.48833885016168416,-1.322565889981753, ,0.0610662429591189,0.04136745490779023,0.03539735893333334,-0.0008707303514578659,0.03365161922832481,-0.02301505053709554, ,0.8649399280548096
0.01349212187711706,0.02142259863172258,-0.08999502393410579, ,0.014094253479246926,0.02117877664183683,-0.09084437374640376, ,0.0010693019838595348, ,0.011248998476595372,0.003230089698252642,-0.032362825142281934,0.05252841311862856,0.03766433633490365,-0.0004433279533252671, ,0.03441403634238679, ,0.0646359104213828, ,0.0001164424269696846, ,0.19549325997811923,-0.22610617309154518,0.10095765778000002,1.687584665163452,0.48915866916027684,-1.3231527186637908, ,0.061541466639734616,0.047543557895025436,0.033963350788912584,-0.013873808599168575,0.10518724871594946,-0.0989241797106406, ,0.8723959922790527
0.01349212187711706,0.02142259863172258,-0.08999502393410579, ,0.014231681268368195,0.021207402437022998,-0.09119718982220515, ,0.0014277465874274258, ,0.011248998476595372,0.003230089698252642,-0.032362825142281934,0.05252841311862856,0.03766433633490365,-0.0004433279533252671, ,0.03441403634238679, ,0.0646359104213828, ,0.00012146285442131511, ,0.19549325997811923,-0.22610617309154518,0.10095765778000002,1.687584665163452,0.48915866916027684,-1.3231527186637908, ,0.061541466639734616,0.047543557895025436,0.033963350788912584,-0.013873808599168575,0.10518724871594946,-0.0989241797106406, ,0.8797478675842285
0.013615684141049167,0.021457866265581865,-0.09034621740375261, ,0.014368594920632251,0.021235306724068786,-0.09154633885668614, ,0.0014341195533574675, ,0.013424406224022236,0.004040542767708823,-0.038580416031472185,0.036457476331328904,0.01999142763613864,-0.0011974208343925477, ,0.04104861958076943, ,0.0415778701388267, ,0.0001264261621067936, ,0.19615741500530254,-0.22558874998897216,0.10132580414,1.687584665163452,0.4901151246586349,-1.3240143227298065, ,0.07034613903518962,0.05413402256615561,0.040428455634517774,-0.013873808599168575,0.09605658085720548,-0.08954557841435838, ,0.8871109485626221
0.013760060279684863,0.02150756736390528,-0.09077224902580407, ,0.014504994161169488,0.021262495696163113,-0.09189184134548511, ,0.0013669212019726909, ,0.015316023462154493,0.005714404113203519,-0.04584098384843478,0.03576778331821147,0.022610832068627143,0.0009089692301637346, ,0.048668581130486256, ,0.042312901374991004, ,0.00013102975251075684, ,0.19689107462835387,-0.22504043595490222,0.10177302419,1.687584665163452,0.4912082166567584,-1.324660629738956, ,0.07507669427094206,0.054103159383392684,0.04812329764350454,-0.013873808599168575,0.10363462842181702,-0.08824560721295506, ,0.8948929309844971
0.013760060279684863,0.02150756736390528,-0.09077224902580407, ,0.014640878738636495,0.021288975531742988,-0.09223371772538402, ,0.001720323895831807, ,0.015316023462154493,0.005714404113203519,-0.04584098384843478,0.03576778331821147,0.022610832068627143,0.0009089692301637346, ,0.048668581130486256, ,0.042312901374991004, ,0.00013700624591571705, ,0.19730037947068776,-0.22476241757143012,0.10203357848000001,1.687584665163452,0.49175476265582013,-1.325024622613601, ,0.07740370437069395,0.0530446850522475,0.049162998518518526,-0.013873808599168575,0.11845516218552266,-0.06312609175838022, ,0.9026498794555664
0.013843433499210706,0.021540116264965242,-0.09102004008376731, ,0.014776248425124877,0.02131475239448739,-0.09257198837437852, ,0.0018246851939049881, ,0.0156323433670024,0.006015745371586464,-0.046733973356112575,0.013902068356861185,0.034515289918594205,0.01220639311937704, ,0.04964497574951032, ,0.03720685172547173, ,0.00014330979348512176, ,0.19730037947068776,-0.22476241757143012,0.10203357848000001,1.687584665163452,0.49175476265582013,-1.325024622613601, ,0.07740370437069395,0.0530446850522475,0.049162998518518526,-0.013873808599168575,0.11845516218552266,-0.06312609175838022, ,0.9100778102874756
0.01412199309856234,0.021645276098259704,-0.0918476613598169, ,0.014911103016069264,0.021339832433310977,-0.09290667361174781, ,0.0013555431546449898, ,0.016884856197364604,0.005720835152055243,-0.049612740520131086,0.02594390902814025,0.024762471915350057,0.0005398458562400804, ,0.052718595823110934, ,0.035860365961066266, ,0.00014821762085823865, ,0.19868274865517396,-0.22380479869502629,0.10290468536000001,1.687584665163452,0.4939409466520672,-1.3264805941121818, ,0.08259089778805116,0.06222750266129232,0.052054939607843145,-0.012129749723605695,0.11317763999881089,-0.08528516220136931, ,0.9137649536132812
0.01412199309856234,0.021645276098259704,-0.0918476613598169, ,0.015045442330156271,0.02136422178235907,-0.09323779369812549, ,0.0016924000501740448, ,0.016884856197364604,0.005720835152055243,-0.049612740520131086,0.02594390902814025,0.024762471915350057,0.0005398458562400804, ,0.052718595823110934, ,0.035860365961066266, ,0.0001544441629119314, ,0.19868274865517396,-0.22380479869502629,0.10290468536000001,1.687584665163452,0.4939409466520672,-1.3264805941121818, ,0.08259089778805116,0.06222750266129232,0.052054939607843145,-0.012129749723605695,0.11317763999881089,-0.08528516220136931, ,0.9174458980560303
0.01412199309856234,0.021645276098259704,-0.0918476613598169, ,0.015179266209232661,0.021387926561000824,-0.09356536883556853, ,0.002033365237021352, ,0.016884856197364604,0.005720835152055243,-0.049612740520131086,0.02594390902814025,0.024762471915350057,0.0005398458562400804, ,0.052718595823110934, ,0.035860365961066266, ,0.000876859079112616, ,0.19868274865517396,-0.22380479869502629,0.10290468536000001,1.687584665163452,0.4939409466520672,-1.3264805941121818, ,0.08259089778805116,0.06222750266129232,0.052054939607843145,-0.012129749723605695,0.11317763999881089,-0.08528516220136931, ,0.9211299419403076
0.01430281653216647,0.021708641057242815,-0.0923774799185389, ,0.015312574518213972,0.021410952873824527,-0.0938894191676277, ,0.0018423326892471998, ,0.019984162014571084,0.007500767616846839,-0.05892643439362283,0.010565665614940958,0.030239218269612837,0.0018514217183308312, ,0.06267338284002627, ,0.032020823430215346, ,0.0008974010708176072, ,0.19955541746996133,-0.2231715345993399,0.10346079377,1.6873749752199676,0.49503403865019074,-1.3272902586016126, ,0.09585549652370785,0.06626881393747959,0.061979811361867705,-0.005384343721736752,0.13102663363770256,-0.07065536510362841, ,0.9247980117797852
0.01430281653216647,0.021708641057242815,-0.0923774799185389, ,0.015445367144992925,0.02143330681063101,-0.09420996477941733, ,0.0021769776332282447, ,0.019984162014571084,0.007500767616846839,-0.05892643439362283,0.010565665614940958,0.030239218269612837,0.0018514217183308312, ,0.06267338284002627, ,0.032020823430215346, ,0.0009240589158678288, ,0.19955541746996133,-0.2231715345993399,0.10346079377,1.6873749752199676,0.49503403865019074,-1.3272902586016126, ,0.09585549652370785,0.06626881393747959,0.061979811361867705,-0.005384343721736752,0.13102663363770256,-0.07065536510362841, ,0.928494930267334
0.01430281653216647,0.021708641057242815,-0.0923774799185389, ,0.015577644000348001,0.021454994446428736,-0.0945270256976849, ,0.0025119850185564376, ,0.019984162014571084,0.007500767616846839,-0.05892643439362283,0.010565665614940958,0.030239218269612837,0.0018514217183308312, ,0.06267338284002627, ,0.032020823430215346, ,0.0009564655710247391, ,0.19955541746996133,-0.2231715345993399,0.10346079377,1.6873749752199676,0.49503403865019074,-1.3272902586016126, ,0.09585549652370785,0.06626881393747959,0.061979811361867705,-0.005384343721736752,0.13102663363770256,-0.07065536510362841, ,0.9321877956390381
0.014508575517053063,0.021788485584108067,-0.09300554605815213, ,0.015709405017851754,0.021476021841427453,-0.09484062189088056, ,0.0022152039166501948, ,0.023086365296745567,0.00947650483603976,-0.07201678436103973,0.10475838189118127,0.0985079482974105,-0.0044442965396139815, ,0.07621811881847229, ,0.14379220173652543, ,0.0009816403379372483, ,0.2005284818121136,-0.2224842113735339,0.10412190167000002,1.6869555953329984,0.49681031314714147,-1.3284936551292443, ,0.10614870420410602,0.07646812373768798,0.07585148342857144,-0.014032595903267624,0.21339699666386716,-0.17580427601399518, ,0.9359469413757324
0.014508575517053063,0.021788485584108067,-0.09300554605815213, ,0.015840650153779442,0.021496395041033275,-0.09515077326922675, ,0.002541995182980962, ,0.023086365296745567,0.00947650483603976,-0.07201678436103973,0.10475838189118127,0.0985079482974105,-0.0044442965396139815, ,0.07621811881847229, ,0.14379220173652543, ,0.001012235530977321, ,0.2005284818121136,-0.2224842113735339,0.10412190167000002,1.6869555953329984,0.49681031314714147,-1.3284936551292443, ,0.10614870420410602,0.07646812373768798,0.07585148342857144,-0.014032595903267624,0.21339699666386716,-0.17580427601399518, ,0.9396328926086426
0.014772277307911726,0.021899537273222185,-0.09382808800537253, ,0.01597137938701722,0.021516120075842252,-0.09545749968478769, ,0.002059086439267749, ,0.027246327069146013,0.011676233717577991,-0.0843207869419498,0.0972879691826034,0.10473157747865504,0.03271383788715793, ,0.08937948245037043, ,0.14293141600729997, ,0.0010323672792136754, ,0.20173322814049263,-0.22165787895599187,0.10498911968,1.6865362154460295,0.4992697701429194,-1.3303358199154989, ,0.12404828961891604,0.08090105844711916,0.08898777385474861,-0.04672986827907489,0.24553806801955722,-0.17707006487781754, ,0.9441418647766113
0.014772277307911726,0.021899537273222185,-0.09382808800537253, ,0.01610159271897101,0.02153520296163606,-0.09576082093153919, ,0.0023738735258154345, ,0.027246327069146013,0.011676233717577991,-0.0843207869419498,0.0972879691826034,0.10473157747865504,0.03271383788715793, ,0.08937948245037043, ,0.14293141600729997, ,0.001057678717828803, ,0.20173322814049263,-0.22165787895599187,0.10498911968,1.6865362154460295,0.4992697701429194,-1.3303358199154989, ,0.12404828961891604,0.08090105844711916,0.08898777385474861,-0.04672986827907489,0.24553806801955722,-0.17707006487781754, ,0.9487199783325195
0.014772277307911726,0.021899537273222185,-0.09382808800537253, ,0.016231290173474414,0.021553649699375205,-0.096060756745437, ,0.002689454676784922, ,0.027246327069146013,0.011676233717577991,-0.0843207869419498,0.0972879691826034,0.10473157747865504,0.03271383788715793, ,0.08937948245037043, ,0.14293141600729997, ,0.001087896791142805, ,0.20173322814049263,-0.22165787895599187,0.10498911968,1.6865362154460295,0.4992697701429194,-1.3303358199154989, ,0.12404828961891604,0.08090105844711916,0.08898777385474861,-0.04672986827907489,0.24553806801955722,-0.17707006487781754, ,0.9524648189544678
0.014772277307911726,0.021899537273222185,-0.09382808800537253, ,0.016360471796697553,0.021571466275194382,-0.09635732680448698, ,0.0030045034892478622, ,0.027246327069146013,0.011676233717577991,-0.0843207869419498,0.0972879691826034,0.10473157747865504,0.03271383788715793, ,0.08937948245037043, ,0.14293141600729997, ,0.001122744185653806, ,0.20173322814049263,-0.22165787895599187,0.10498911968,1.6865362154460295,0.4992697701429194,-1.3303358199154989, ,0.12404828961891604,0.08090105844711916,0.08898777385474861,-0.04672986827907489,0.24553806801955722,-0.17707006487781754, ,0.9583539962768555
0.015008183547795487,0.02199850612869821,-0.09454546672311157, ,0.016489137657055206,0.021588658660396547,-0.09665055072881393, ,0.002606257602784198, ,0.029335457347094775,0.011966641647894845,-0.08846479206401876,0.03822661793513091,0.03887091397899465,0.040578277451573753, ,0.09396695698500843, ,0.05446837712231943, ,0.0011492354966739916, ,0.20280668801000984,-0.22096283299731168,0.10574615304000001,1.686326525502545,0.5011826811396356,-1.3318139918271081, ,0.12981797750816795,0.0858019363096481,0.09315094456140352,-0.054973940403425625,0.18561626155811461,-0.12629201476295415, ,0.9622178077697754
0.015368094007998288,0.022135110744779973,-0.09558109745459728, ,0.016617287845115465,0.02160523281144792,-0.09694044808073095, ,0.0019207003909235238, ,0.03040666238524422,0.010172455807364035,-0.08348802901114673,-0.11480231501226085,-0.10737112847107441,-0.011472247081434154, ,0.089433187143974, ,0.15717529877696004, ,0.0011627699685029308, ,0.20437440278347743,-0.21992026405929135,0.10683374035000001,1.6861168355590603,0.5021391366379937,-1.3321038447121396, ,0.1347967919864642,0.09258238200826417,0.08752094241758242,0.008150632850092328,0.0266524980813233,0.028970659476556825, ,0.9658939838409424
0.015368094007998288,0.022135110744779973,-0.09558109745459728, ,0.01674492247350791,0.021621194669972213,-0.09722703836480873, ,0.0022065556497154284, ,0.03040666238524422,0.010172455807364035,-0.08348802901114673,-0.11480231501226085,-0.10737112847107441,-0.011472247081434154, ,0.089433187143974, ,0.15717529877696004, ,0.0011807662733514222, ,0.20437440278347743,-0.21992026405929135,0.10683374035000001,1.6861168355590603,0.5021391366379937,-1.3321038447121396, ,0.1347967919864642,0.09258238200826417,0.08752094241758242,0.008150632850092328,0.0266524980813233,0.028970659476556825, ,0.969527006149292
0.015673609318547298,0.022219954045302262,-0.0963886515357218, ,0.016872041676832088,0.021636550162745197,-0.09751034102794387, ,0.0017420641562606392, ,0.030135677654731897,0.006460195584733638,-0.07734340411524976,0.020025667766011054,-0.009229113881712263,-0.016126060396801773, ,0.08325800474931977, ,0.02198718329130162, ,0.0011902797967905615, ,0.20582627656383162,-0.21888541785414528,0.10768151401,1.686326525502545,0.5029589556365863,-1.332608994654037, ,0.15256743015831317,0.11405882398854661,0.08126944653061226,-0.0121132860538655,0.14972541057366695,-0.12995959297057158, ,0.9736688137054443
0.015673609318547298,0.022219954045302262,-0.0963886515357218, ,0.01699864561156601,0.02165130520168977,-0.0977903754594292, ,0.0020109481951189716, ,0.030135677654731897,0.006460195584733638,-0.07734340411524976,0.020025667766011054,-0.009229113881712263,-0.016126060396801773, ,0.08325800474931977, ,0.02198718329130162, ,0.0012039576034293684, ,0.20582627656383162,-0.21888541785414528,0.10768151401,1.686326525502545,0.5029589556365863,-1.332608994654037, ,0.15256743015831317,0.11405882398854661,0.08126944653061226,-0.0121132860538655,0.14972541057366695,-0.12995959297057158, ,0.9773099422454834
0.015673609318547298,0.022219954045302262,-0.0963886515357218, ,0.01712473445597425,0.021665465683870108,-0.09806716099102145, ,0.002287053890700086, ,0.030135677654731897,0.006460195584733638,-0.07734340411524976,0.020025667766011054,-0.009229113881712263,-0.016126060396801773, ,0.08325800474931977, ,0.02198718329130162, ,0.001221713280269872, ,0.20582627656383162,-0.21888541785414528,0.10768151401,1.686326525502545,0.5029589556365863,-1.332608994654037, ,0.15256743015831317,0.11405882398854661,0.08126944653061226,-0.0121132860538655,0.14972541057366695,-0.12995959297057158, ,0.9810118675231934
0.015673609318547298,0.022219954045302262,-0.0963886515357218, ,0.017250308410016568,0.021679037491486582,-0.0983407168970114, ,0.0025669300570873655, ,0.030135677654731897,0.006460195584733638,-0.07734340411524976,0.020025667766011054,-0.009229113881712263,-0.016126060396801773, ,0.08325800474931977, ,0.02198718329130162, ,0.001243410325057251, ,0.20582627656383162,-0.21888541785414528,0.10768151401,1.686326525502545,0.5029589556365863,-1.332608994654037, ,0.15256743015831317,0.11405882398854661,0.08126944653061226,-0.0121132860538655,0.14972541057366695,-0.12995959297057158, ,0.9847269058227539
0.01598830719933402,0.02228028005376691,-0.09716704765680652, ,0.017375367695256085,0.02169202649187026,-0.09861106239429147, ,0.0020869014434096787, ,0.03049368643304462,0.004990434156108588,-0.07148772013602571,0.041088110250090744,-0.0034733213126396786,-0.019879781515878304, ,0.07787980146090538, ,0.041212009285355754, ,0.0012567990729676069, ,0.20749438686466412,-0.21768839425864048,0.10850206558000001,1.686326525502545,0.5048718666333024,-1.3342505240459275, ,0.16736673996202958,0.1144715820970697,0.0754919977251185,-0.010196915684718923,0.1703272777144321,-0.15061891922229642, ,0.9884648323059082
0.01598830719933402,0.02228028005376691,-0.09716704765680652, ,0.01749991255476765,0.021704438537477774,-0.0988782166424264, ,0.002354706669588626, ,0.03049368643304462,0.004990434156108588,-0.07148772013602571,0.041088110250090744,-0.0034733213126396786,-0.019879781515878304, ,0.07787980146090538, ,0.041212009285355754, ,0.0012739538791648104, ,0.20749438686466412,-0.21768839425864048,0.10850206558000001,1.686326525502545,0.5048718666333024,-1.3342505240459275, ,0.16736673996202958,0.1144715820970697,0.0754919977251185,-0.010196915684718923,0.1703272777144321,-0.15061891922229642, ,0.9921839237213135
0.01598830719933402,0.02228028005376691,-0.09716704765680652, ,0.017623943253046358,0.021716279465886047,-0.09914219874372021, ,0.0026257615618083007, ,0.03049368643304462,0.004990434156108588,-0.07148772013602571,0.041088110250090744,-0.0034733213126396786,-0.019879781515878304, ,0.07787980146090538, ,0.041212009285355754, ,0.0012947509204362486, ,0.20749438686466412,-0.21768839425864048,0.10850206558000001,1.686326525502545,0.5048718666333024,-1.3342505240459275, ,0.16736673996202958,0.1144715820970697,0.0754919977251185,-0.010196915684718923,0.1703272777144321,-0.15061891922229642, ,0.9959847927093506
0.0163716078647528,0.022324470497490805,-0.0979969427540276, ,0.017747460075915544,0.021727555099786848,-0.09940302774328645, ,0.0020558094016704383, ,0.03364981830483477,0.0029538490373218532,-0.06833701535843412,-0.01572309363297839,-0.08242248302200683,0.002913655839222526, ,0.07622980495962547, ,0.08389988712252082, ,0.0013062821095458576, ,0.2096953657338181,-0.21625196594403473,0.10937965391000001,1.6856974556720912,0.5066481411302531,-1.335698956793981, ,0.19852916644031546,0.1251938542987741,0.07240368872727274,-0.0346436130689906,0.12661935453331347,-0.1104117696495937, ,0.9997899532318115
0.0163716078647528,0.022324470497490805,-0.0979969427540276, ,0.017870463330435328,0.021738271246981508,-0.09966072262911653, ,0.00231481332747481, ,0.03364981830483477,0.0029538490373218532,-0.06833701535843412,-0.01572309363297839,-0.08242248302200683,0.002913655839222526, ,0.07622980495962547, ,0.08389988712252082, ,0.0013213348142910657, ,0.2096953657338181,-0.21625196594403473,0.10937965391000001,1.6856974556720912,0.5066481411302531,-1.335698956793981, ,0.19852916644031546,0.1251938542987741,0.07240368872727274,-0.0346436130689906,0.12661935453331347,-0.1104117696495937, ,1.0036017894744873
0.0163716078647528,0.022324470497490805,-0.0979969427540276, ,0.017992953344810932,0.021748433700375956,-0.09991530233214818, ,0.002576952275130889, ,0.03364981830483477,0.0029538490373218532,-0.06833701535843412,-0.01572309363297839,-0.08242248302200683,0.002913655839222526, ,0.07622980495962547, ,0.08389988712252082, ,0.001339799776950475, ,0.2096953657338181,-0.21625196594403473,0.10937965391000001,1.6856974556720912,0.5066481411302531,-1.335698956793981, ,0.19852916644031546,0.1251938542987741,0.07240368872727274,-0.0346436130689906,0.12661935453331347,-0.1104117696495937, ,1.0075139999389648
0.016759333186194714,0.022355628428089344,-0.09878493661518313, ,0.01811493046830077,0.02175804823797507,-0.1001667857263348, ,0.0020258956145026374, ,0.0339937674809666,0.0018344782182794965,-0.06873997506226777,-0.02145723503566996,-0.07693807586125971,0.0348839102393632, ,0.07670805504928775, ,0.07986454576383906, ,0.0013497431948860136, ,0.21196584919884012,-0.2147923694308063,0.11021446467000001,1.6852780757851225,0.508151142627673,-1.3369245537346415, ,0.19894537014354458,0.133469678703897,0.0727342991780822,-0.0699180460328927,0.1402892224663375,-0.11960231860054024, ,1.011218786239624
0.016759333186194714,0.022355628428089344,-0.09878493661518313, ,0.018236395071124883,0.021767120622877608,-0.1004151916287135, ,0.00227723179712771, ,0.0339937674809666,0.0018344782182794965,-0.06873997506226777,-0.02145723503566996,-0.07693807586125971,0.0348839102393632, ,0.07670805504928775, ,0.07986454576383906, ,0.001362993032060895, ,0.21196584919884012,-0.2147923694308063,0.11021446467000001,1.6852780757851225,0.508151142627673,-1.3369245537346415, ,0.19894537014354458,0.133469678703897,0.0727342991780822,-0.0699180460328927,0.1402892224663375,-0.11960231860054024, ,1.0148839950561523
0.016759333186194714,0.022355628428089344,-0.09878493661518313, ,0.018357347544373293,0.021775656603271434,-0.10066053879947466, ,0.002531383171360407, ,0.0339937674809666,0.0018344782182794965,-0.06873997506226777,-0.02145723503566996,-0.07693807586125971,0.0348839102393632, ,0.07670805504928775, ,0.07986454576383906, ,0.0013794492312059587, ,0.21196584919884012,-0.2147923694308063,0.11021446467000001,1.6852780757851225,0.508151142627673,-1.3369245537346415, ,0.19894537014354458,0.133469678703897,0.0727342991780822,-0.0699180460328927,0.1402892224663375,-0.11960231860054024, ,1.0185317993164062
0.01716518693846171,0.02236766036807895,-0.09959224686939358, ,0.01847778829991403,0.021783661912427227,-0.10090284594202992, ,0.0019446455871148622, ,0.03350995865509691,0.00017256422268893332,-0.06731643013215242,-0.007154921489187476,-0.042840113445663006,0.006340871179750826, ,0.07519606953301625, ,0.0434175760696473, ,0.0013872991805935824, ,0.21435217365697548,-0.21310881366422535,0.11106871978,1.6852780757851225,0.5099274171246237,-1.3383729864826952, ,0.1956637970277748,0.14532456593946522,0.07111076571428573,-0.04318102007408981,0.1659664674604559,-0.139231839222882, ,1.0221619606018066
0.01716518693846171,0.02236766036807895,-0.09959224686939358, ,0.01859771777030153,0.02179114226869443,-0.10114213170308087, ,0.002187843847440556, ,0.03350995865509691,0.00017256422268893332,-0.06731643013215242,-0.007154921489187476,-0.042840113445663006,0.006340871179750826, ,0.07519606953301625, ,0.0434175760696473, ,0.001398265545892856, ,0.21435217365697548,-0.21310881366422535,0.11106871978,1.6852780757851225,0.5099274171246237,-1.3383729864826952, ,0.1956637970277748,0.14532456593946522,0.07111076571428573,-0.04318102007408981,0.1659664674604559,-0.139231839222882, ,1.0257937908172607
0.017508452352940844,0.022368427770204483,-0.10026988528134598, ,0.01871713640868496,0.021798103375495353,-0.10137841467268811, ,0.0017363825826354478, ,0.03376925694715684,-0.0009079618097825625,-0.06527993399528678,-0.025747248108739344,-0.06102664894309535,-0.004872394389331348, ,0.0735027679195833, ,0.06622678593027592, ,0.0014028346950380262, ,0.21636008420427386,-0.21162604895237425,0.11178556815000001,1.6852780757851225,0.5115670551218091,-1.3397100013270522, ,0.19811470053960498,0.1499161793972682,0.06895589402597403,-0.03235496196356045,0.1474457868089715,-0.1233794798562756, ,1.0294668674468994
0.017508452352940844,0.022368427770204483,-0.10026988528134598, ,0.018836044688716313,0.02180455092132021,-0.10161171338433972, ,0.001970015524989894, ,0.03376925694715684,-0.0009079618097825625,-0.06527993399528678,-0.025747248108739344,-0.06102664894309535,-0.004872394389331348, ,0.0735027679195833, ,0.06622678593027592, ,0.001410397106104051, ,0.21636008420427386,-0.21162604895237425,0.11178556815000001,1.6852780757851225,0.5115670551218091,-1.3397100013270522, ,0.19811470053960498,0.1499161793972682,0.06895589402597403,-0.03235496196356045,0.1474457868089715,-0.1233794798562756, ,1.033174991607666
0.017508452352940844,0.022368427770204483,-0.10026988528134598, ,0.01895444310445862,0.02181049057972189,-0.10184204631501982, ,0.0022076850947997458, ,0.03376925694715684,-0.0009079618097825625,-0.06527993399528678,-0.025747248108739344,-0.06102664894309535,-0.004872394389331348, ,0.0735027679195833, ,0.06622678593027592, ,0.0014208877375342576, ,0.21636008420427386,-0.21162604895237425,0.11178556815000001,1.6852780757851225,0.5115670551218091,-1.3397100013270522, ,0.19811470053960498,0.1499161793972682,0.06895589402597403,-0.03235496196356045,0.1474457868089715,-0.1233794798562756, ,1.0369830131530762
0.017508452352940844,0.022368427770204483,-0.10026988528134598, ,0.019072332170294286,0.021815928009310596,-0.10206943188527663, ,0.0024473136392035235, ,0.03376925694715684,-0.0009079618097825625,-0.06527993399528678,-0.025747248108739344,-0.06102664894309535,-0.004872394389331348, ,0.0735027679195833, ,0.06622678593027592, ,0.001434217944049443, ,0.21636008420427386,-0.21162604895237425,0.11178556815000001,1.6852780757851225,0.5115670551218091,-1.3397100013270522, ,0.19811470053960498,0.1499161793972682,0.06895589402597403,-0.03235496196356045,0.1474457868089715,-0.1233794798562756, ,1.0406389236450195
0.017734729582754922,0.02236192466074943,-0.10069869413200343, ,0.019189712420833383,0.021820868853749276,-0.10229388845929228, ,0.002225839479209134, ,0.03557321183663388,-0.0009815240918633382,-0.06589207758533283,-0.030784670164462038,-0.07867844719894385,-0.009514586134926686, ,0.07488780059815121, ,0.08447929831480425, ,0.001444366938089952, ,0.2176961169915147,-0.21062981641159928,0.11223926965000001,1.6852780757851225,0.5125235106201671,-1.340489926652927, ,0.21182353026444373,0.15135078398480187,0.06986320842105265,-0.02789870833345938,0.14242228898233716,-0.11892788032806326, ,1.044372797012329
0.017734729582754922,0.02236192466074943,-0.10069869413200343, ,0.01930658441082158,0.02182531874174779,-0.10251543434495011, ,0.0024615479914398626, ,0.03557321183663388,-0.0009815240918633382,-0.06589207758533283,-0.030784670164462038,-0.07867844719894385,-0.009514586134926686, ,0.07488780059815121, ,0.08447929831480425, ,0.0014572426476260267, ,0.2176961169915147,-0.21062981641159928,0.11223926965000001,1.6852780757851225,0.5125235106201671,-1.340489926652927, ,0.21182353026444373,0.15135078398480187,0.06986320842105265,-0.02789870833345938,0.14242228898233716,-0.11892788032806326, ,1.048163890838623
0.018220296755696322,0.022350911696442682,-0.1015645234983773, ,0.019422948715048557,0.021829283287057973,-0.10273408779390411, ,0.0017568006643276623, ,0.03684298715684125,-0.0009886115931818755,-0.06396666878247892,-0.014624089808338266,-0.07835983723395311,-0.035826630060851274, ,0.0738249129403395, ,0.07970606718026127, ,0.0014609871228347972, ,0.22063847821659424,-0.20866051952867204,0.11316222813000001,1.6850683858416375,0.5145730581166488,-1.342079516468233, ,0.2243426514384652,0.14689929033819007,0.06836399793991417,0.0,0.14957788585600967,-0.12457220664891924, ,1.0518829822540283
0.018220296755696322,0.022350911696442682,-0.1015645234983773, ,0.019538805928256183,0.02183276808846873,-0.10294986700164668, ,0.0019814428729235264, ,0.03684298715684125,-0.0009886115931818755,-0.06396666878247892,-0.014624089808338266,-0.07835983723395311,-0.035826630060851274, ,0.0738249129403395, ,0.07970606718026127, ,0.0014674125024655223, ,0.22063847821659424,-0.20866051952867204,0.11316222813000001,1.6850683858416375,0.5145730581166488,-1.342079516468233, ,0.2243426514384652,0.14689929033819007,0.06836399793991417,0.0,0.14957788585600967,-0.12457220664891924, ,1.055516004562378
0.018220296755696322,0.022350911696442682,-0.1015645234983773, ,0.019654156665046506,0.021835778729800307,-0.10316279010757762, ,0.0022081151163488217, ,0.03684298715684125,-0.0009886115931818755,-0.06396666878247892,-0.014624089808338266,-0.07835983723395311,-0.035826630060851274, ,0.0738249129403395, ,0.07970606718026127, ,0.001476445461171416, ,0.22063847821659424,-0.20866051952867204,0.11316222813000001,1.6850683858416375,0.5145730581166488,-1.342079516468233, ,0.2243426514384652,0.14689929033819007,0.06836399793991417,0.0,0.14957788585600967,-0.12457220664891924, ,1.059161901473999
0.01858702621866438,0.02233416159574365,-0.10217733482417718, ,0.01976900155979029,0.021838320779900035,-0.10337287519507303, ,0.0017527808191921644, ,0.03706874599347656,-0.0021451204244797586,-0.05984576046452648,-0.03245255807032598,-0.09964773346845834,-0.020682322013686125, ,0.0704287478004677, ,0.10479537992763123, ,0.0014797748028343167, ,0.22290123894874203,-0.20721636848119204,0.11381815087000001,1.6844393160111841,0.5159394231143032,-1.343193695505197, ,0.23145595502066044,0.14735549931439562,0.06422907870967744,-0.014665041390067027,0.13810210939450035,-0.1104731169230545, ,1.062762975692749
0.01858702621866438,0.02233416159574365,-0.10217733482417718, ,0.019883341266534748,0.021840399792636057,-0.10358014029155271, ,0.001972839730145838, ,0.03706874599347656,-0.0021451204244797586,-0.05984576046452648,-0.03245255807032598,-0.09964773346845834,-0.020682322013686125, ,0.0704287478004677, ,0.10479537992763123, ,0.001485644623397549, ,0.22290123894874203,-0.20721636848119204,0.11381815087000001,1.6844393160111841,0.5159394231143032,-1.343193695505197, ,0.23145595502066044,0.14735549931439562,0.06422907870967744,-0.014665041390067027,0.13810210939450035,-0.1104731169230545, ,1.066382884979248
0.01896065049440122,0.0223051556162906,-0.10278199194606394, ,0.019997176458912132,0.02184202130689336,-0.1037846033685496, ,0.0015146316806883605, ,0.03603964516133579,-0.0033067133884108913,-0.05902800574033943,-0.02964053281155825,-0.07640919205216534,0.024585587463240074, ,0.06923940957626397, ,0.08195248130916369, ,0.0014859856476009705, ,0.2252257815438836,-0.20567954463922136,0.11446629587000001,1.684019936124215,0.517442424611723,-1.3442559349655765, ,0.22276277361143376,0.15256743015831317,0.06320956952380954,-0.06348056809836261,0.16315120086960813,-0.12823393079511683, ,1.0700128078460693
0.01896065049440122,0.0223051556162906,-0.10278199194606394, ,0.020110507830047582,0.021843190846567738,-0.10398628234177788, ,0.001727975317536016, ,0.03603964516133579,-0.0033067133884108913,-0.05902800574033943,-0.02964053281155825,-0.07640919205216534,0.024585587463240074, ,0.06923940957626397, ,0.08195248130916369, ,0.001488799480972308, ,0.2252257815438836,-0.20567954463922136,0.11446629587000001,1.684019936124215,0.517442424611723,-1.3442559349655765, ,0.22276277361143376,0.15256743015831317,0.06320956952380954,-0.06348056809836261,0.16315120086960813,-0.12823393079511683, ,1.0736398696899414
0.01896065049440122,0.0223051556162906,-0.10278199194606394, ,0.02022333609246739,0.02184391392056127,-0.10418519507120118, ,0.0019432184210319491, ,0.03603964516133579,-0.0033067133884108913,-0.05902800574033943,-0.02964053281155825,-0.07640919205216534,0.024585587463240074, ,0.06923940957626397, ,0.08195248130916369, ,0.0014940226871798903, ,0.2252257815438836,-0.20567954463922136,0.11446629587000001,1.684019936124215,0.517442424611723,-1.3442559349655765, ,0.22276277361143376,0.15256743015831317,0.06320956952380954,-0.06348056809836261,0.16315120086960813,-0.12823393079511683, ,1.0773329734802246
0.019268660793035165,0.022280184988886648,-0.10330223096022426, ,0.020335661978007225,0.02184419602277674,-0.10438135936110177, ,0.0021589618929442997, ,0.03603964516133579,-0.0033067133884108913,-0.05902800574033943,-0.02964053281155825,-0.07640919205216534,0.024585587463240074, ,0.06923940957626397, ,0.08195248130916369, ,0.0015015788145181222, ,0.22710240563232015,-0.2043666800506032,0.11502370057000001,1.6838102461807307,0.5190820626089083,-1.3454295923296526, ,0.21135176293646052,0.14465997188791277,0.06397113060240965,0.028575834702563408,0.1824167780225674,-0.1417046989897554, ,1.0814149379730225
0.019268660793035165,0.022280184988886648,-0.10330223096022426, ,0.02044748623771993,0.021844042632112582,-0.10457479296014795, ,0.0017886485479429593, ,0.03508668686076466,-0.002087056212016117,-0.05957523775366181,0.012363164153719268,-0.02739121581670651,-0.061644929402590226, ,0.06917109477160818, ,0.03003957505422361, ,0.0015048043171408732, ,0.22710240563232015,-0.2043666800506032,0.11502370057000001,1.6838102461807307,0.5190820626089083,-1.3454295923296526, ,0.21135176293646052,0.14465997188791277,0.06397113060240965,0.028575834702563408,0.1824167780225674,-0.1417046989897554, ,1.086535930633545
0.019268660793035165,0.022280184988886648,-0.10330223096022426, ,0.020558809641784345,0.021843459212458498,-0.10476551356146376, ,0.0019991021551726265, ,0.03508668686076466,-0.002087056212016117,-0.05957523775366181,0.012363164153719268,-0.02739121581670651,-0.061644929402590226, ,0.06917109477160818, ,0.03003957505422361, ,0.001510296515341226, ,0.22710240563232015,-0.2043666800506032,0.11502370057000001,1.6838102461807307,0.5190820626089083,-1.3454295923296526, ,0.21135176293646052,0.14465997188791277,0.06397113060240965,0.028575834702563408,0.1824167780225674,-0.1417046989897554, ,1.0901927947998047
0.019710629023606055,0.022249825758057184,-0.10402351466311521, ,0.020669632979412548,0.02184245121268896,-0.10495353880269581, ,0.0013966343500247667, ,0.03294985051017872,-0.002779477966862667,-0.05159748363146521,-0.044536708221143625,-0.058973234413981196,-0.037974773269437934, ,0.06128391684211055, ,0.07389854559840536, ,0.0015090474805575288, ,0.22978991667255028,-0.20259045148953156,0.11580017828000001,1.6838102461807307,0.5211316101053899,-1.3466107884442555, ,0.20277124264630508,0.13290888173455292,0.055695145174825184,0.017845193689520953,0.14371659272183604,-0.07506530796807877, ,1.0938029289245605
0.019710629023606055,0.022249825758057184,-0.10402351466311521, ,0.020779957058758736,0.02184102406665963,-0.10513888626608339, ,0.0015983225839488096, ,0.03294985051017872,-0.002779477966862667,-0.05159748363146521,-0.044536708221143625,-0.058973234413981196,-0.037974773269437934, ,0.06128391684211055, ,0.07389854559840536, ,0.0015100178621161296, ,0.22978991667255028,-0.20259045148953156,0.11580017828000001,1.6838102461807307,0.5211316101053899,-1.3466107884442555, ,0.20277124264630508,0.13290888173455292,0.055695145174825184,0.017845193689520953,0.14371659272183604,-0.07506530796807877, ,1.0974547863006592
0.0200208041745882,0.022220815169457515,-0.10450615612007726, ,0.020889782706826808,0.021839183193200714,-0.10532157347852548, ,0.0012512682059622234, ,0.03312790738022011,-0.0031305267563581257,-0.050973874829730655,-0.07657706153595145,-0.06161916348953056,-0.025530066469929544, ,0.060873593292344465, ,0.09828847094234715, ,0.0015072356077488833, ,0.23169743169248375,-0.20133164603103296,0.11632128686000001,1.6838102461807307,0.5224979751030443,-1.3472348950403763, ,0.20364150549028065,0.13365766416686023,0.055116994878892746,0.013982469822876492,0.14282945562834942,-0.0431532037499977, ,1.1018588542938232
0.0200208041745882,0.022220815169457515,-0.10450615612007726, ,0.020999110769378982,0.021836933996113476,-0.10550161791165023, ,0.00144754714159533, ,0.03312790738022011,-0.0031305267563581257,-0.050973874829730655,-0.07657706153595145,-0.06161916348953056,-0.025530066469929544, ,0.060873593292344465, ,0.09828847094234715, ,0.001506600624066399, ,0.23169743169248375,-0.20133164603103296,0.11632128686000001,1.6838102461807307,0.5224979751030443,-1.3472348950403763, ,0.20364150549028065,0.13365766416686023,0.055116994878892746,0.013982469822876492,0.14282945562834942,-0.0431532037499977, ,1.1055128574371338
0.0200208041745882,0.022220815169457515,-0.10450615612007726, ,0.021107942110843297,0.021834281864163623,-0.10567903698188265, ,0.001645273960328726, ,0.03312790738022011,-0.0031305267563581257,-0.050973874829730655,-0.07657706153595145,-0.06161916348953056,-0.025530066469929544, ,0.060873593292344465, ,0.09828847094234715, ,0.001508060343395476, ,0.23169743169248375,-0.20133164603103296,0.11632128686000001,1.6838102461807307,0.5224979751030443,-1.3472348950403763, ,0.20364150549028065,0.13365766416686023,0.055116994878892746,0.013982469822876492,0.14282945562834942,-0.0431532037499977, ,1.1092119216918945
0.020367838219834053,0.022191705160743043,-0.10504122173656984, ,0.021216277614222248,0.021831232171077287,-0.10585384805051315, ,0.0012288823004427524, ,0.03157742098019958,-0.002616078704904808,-0.04896008616148719,0.011177486901639501,-0.008128387382412344,-0.023734961360632405, ,0.05831867128537185, ,0.013810342799141754, ,0.0015051522387813851, ,0.23383662869864394,-0.19996472231229523,0.11690202478000002,1.684019936124215,0.524274249599995,-1.348274934087727, ,0.19526119662236785,0.12340304493949386,0.05327361712374583,0.0,0.19171070865591414,-0.1245331628124263, ,1.1128389835357666
0.020367838219834053,0.022191705160743043,-0.10504122173656984, ,0.02132411818100062,0.021827790275535334,-0.10602606842376565, ,0.0014201508388495346, ,0.03157742098019958,-0.002616078704904808,-0.04896008616148719,0.011177486901639501,-0.008128387382412344,-0.023734961360632405, ,0.05831867128537185, ,0.013810342799141754, ,0.001504275935689304, ,0.23383662869864394,-0.19996472231229523,0.11690202478000002,1.684019936124215,0.524274249599995,-1.348274934087727, ,0.19526119662236785,0.12340304493949386,0.05327361712374583,0.0,0.19171070865591414,-0.1245331628124263, ,1.1164789199829102
0.020367838219834053,0.022191705160743043,-0.10504122173656984, ,0.021431464731053586,0.02182396152116859,-0.10619571535286718, ,0.001612263083335908, ,0.03157742098019958,-0.002616078704904808,-0.04896008616148719,0.011177486901639501,-0.008128387382412344,-0.023734961360632405, ,0.05831867128537185, ,0.013810342799141754, ,0.0015053778453591672, ,0.23383662869864394,-0.19996472231229523,0.11690202478000002,1.684019936124215,0.524274249599995,-1.348274934087727, ,0.19526119662236785,0.12340304493949386,0.05327361712374583,0.0,0.19171070865591414,-0.1245331628124263, ,1.120290994644165
0.020651048180288394,0.022162987969826832,-0.10546396102233105, ,0.021538318202554863,0.02181975123655232,-0.10636280603411422, ,0.001308809345431633, ,0.029417614789038773,-0.0032594100264234627,-0.042870369543260775,-0.037161996727628016,-0.019471391710162805,-0.0057264299450850075, ,0.05209499398572154, ,0.04195240505686562, ,0.0015033923049558586, ,0.23562057999258978,-0.1988526487784069,0.11736350402000001,1.6838102461807307,0.5260505240969456,-1.3493149731350775, ,0.18570830050581366,0.11629527151773382,0.046849445647058834,-0.004969924871420742,0.1714204258440015,-0.06923406974316884, ,1.124330997467041
0.020651048180288394,0.022162987969826832,-0.10546396102233105, ,0.021644679551884607,0.021815164735201464,-0.10652735760894315, ,0.0014963611213820323, ,0.029417614789038773,-0.0032594100264234627,-0.042870369543260775,-0.037161996727628016,-0.019471391710162805,-0.0057264299450850075, ,0.05209499398572154, ,0.04195240505686562, ,0.0015033219931201206, ,0.23562057999258978,-0.1988526487784069,0.11736350402000001,1.6838102461807307,0.5260505240969456,-1.3493149731350775, ,0.18570830050581366,0.11629527151773382,0.046849445647058834,-0.004969924871420742,0.1714204258440015,-0.06923406974316884, ,1.1281869411468506
0.02086893087353954,0.022137279822797992,-0.10577626189377441, ,0.021750549753538066,0.0218102073155661,-0.10668938716399703, ,0.0013107349212086899, ,0.02778536184102119,-0.0034619348664483725,-0.04013195262618808,0.02648823593868873,0.009490909931296547,-0.011326390719165353, ,0.04893449649528042, ,0.028135385447756563, ,0.0015014151904279283, ,0.2370106719099502,-0.197995425429368,0.11770572458000002,1.6836005562372458,0.5274168890946002,-1.3501024372114796, ,0.17737746085695474,0.11190677070574384,0.04400224176795581,-0.01268656553115859,0.1938810469789356,-0.13180545106673255, ,1.131941795349121
0.02086893087353954,0.022137279822797992,-0.10577626189377441, ,0.021855929800032786,0.021804884261024764,-0.10684891173119468, ,0.0014950690165016077, ,0.02778536184102119,-0.0034619348664483725,-0.04013195262618808,0.02648823593868873,0.009490909931296547,-0.011326390719165353, ,0.04893449649528042, ,0.028135385447756563, ,0.001501352973036494, ,0.2370106719099502,-0.197995425429368,0.11770572458000002,1.6836005562372458,0.5274168890946002,-1.3501024372114796, ,0.17737746085695474,0.11190677070574384,0.04400224176795581,-0.01268656553115859,0.1938810469789356,-0.13180545106673255, ,1.1382808685302734
0.02119574210069767,0.022094302824671123,-0.10624219719547279, ,0.021960820701817405,0.02179920083988111,-0.10700594828779905, ,0.0011206008113275217, ,0.027108956851469156,-0.0032624777142897816,-0.03872964996849349,-0.09557878779765852,-0.07025784268629055,0.03348241460613145, ,0.047386971723176, ,0.11862285612705664, ,0.0014976563501072806, ,0.23906491885449394,-0.19669028357362403,0.11821516655000001,1.683181176350277,0.5291931635915509,-1.3508974400384086, ,0.16648586238328208,0.10474276110206487,0.04225148944297083,-0.03990983603986874,0.10671135213197284,-0.00914391826452506, ,1.1419639587402344
0.02119574210069767,0.022094302824671123,-0.10624219719547279, ,0.0220652234871793,0.02179316230535771,-0.10716051375648551, ,0.0012999956923161735, ,0.027108956851469156,-0.0032624777142897816,-0.03872964996849349,-0.09557878779765852,-0.07025784268629055,0.03348241460613145, ,0.047386971723176, ,0.11862285612705664, ,0.0014957557668592893, ,0.23906491885449394,-0.19669028357362403,0.11821516655000001,1.683181176350277,0.5291931635915509,-1.3508974400384086, ,0.16648586238328208,0.10474276110206487,0.04225148944297083,-0.03990983603986874,0.10671135213197284,-0.00914391826452506, ,1.1456499099731445
0.02119574210069767,0.022094302824671123,-0.10624219719547279, ,0.022169139202152865,0.021786773895591367,-0.10731262500540963, ,0.001479152343617281, ,0.027108956851469156,-0.0032624777142897816,-0.03872964996849349,-0.09557878779765852,-0.07025784268629055,0.03348241460613145, ,0.047386971723176, ,0.11862285612705664, ,0.0014955976390188892, ,0.23906491885449394,-0.19669028357362403,0.11821516655000001,1.683181176350277,0.5291931635915509,-1.3508974400384086, ,0.16648586238328208,0.10474276110206487,0.04225148944297083,-0.03990983603986874,0.10671135213197284,-0.00914391826452506, ,1.1493959426879883
0.02149420180421607,0.02206807671530568,-0.10666834790632423, ,0.02227256891042748,0.02178004083362792,-0.10746229884827643, ,0.0011485547959904187, ,0.025968331672970787,-0.0013950394186989297,-0.03748331867984943,0.00608061643056243,-0.021180739211319303,-0.046658434761505635, ,0.04562126219332704, ,0.02203460044547746, ,0.001492323649933715, ,0.24090292927855936,-0.19561682370410682,0.11868312724,1.6829714864067924,0.5305595285892053,-1.3514398678943889, ,0.15922305630615904,0.08811229485466182,0.04137353641558442,0.032677235720872055,0.13480440967553495,-0.07909811838278051, ,1.1531147956848145
0.02149420180421607,0.02206807671530568,-0.10666834790632423, ,0.022375513693255477,0.02177296832741712,-0.10760955204440809, ,0.0013227489693477589, ,0.025968331672970787,-0.0013950394186989297,-0.03748331867984943,0.00608061643056243,-0.021180739211319303,-0.046658434761505635, ,0.04562126219332704, ,0.02203460044547746, ,0.0014907388398347806, ,0.24090292927855936,-0.19561682370410682,0.11868312724,1.6829714864067924,0.5305595285892053,-1.3514398678943889, ,0.15922305630615904,0.08811229485466182,0.04137353641558442,0.032677235720872055,0.13480440967553495,-0.07909811838278051, ,1.1569809913635254
0.02149420180421607,0.02206807671530568,-0.10666834790632423, ,0.02247797464936057,0.02176556156980789,-0.10775440129881242, ,0.0014962741712113957, ,0.025968331672970787,-0.0013950394186989297,-0.03748331867984943,0.00608061643056243,-0.021180739211319303,-0.046658434761505635, ,0.04562126219332704, ,0.02203460044547746, ,0.0014907900929030827, ,0.24090292927855936,-0.19561682370410682,0.11868312724,1.6829714864067924,0.5305595285892053,-1.3514398678943889, ,0.15922305630615904,0.08811229485466182,0.04137353641558442,0.032677235720872055,0.13480440967553495,-0.07909811838278051, ,1.1609280109405518
0.021694088876996413,0.022055585390925565,-0.10695999790282928, ,0.022579952894845358,0.02175782573854275,-0.10789686326225115, ,0.0013233036576656418, ,0.026077535056683327,-0.0014005380726950275,-0.038911466160344486,0.009127941684463656,0.009559839348925455,-0.03513829288114586, ,0.0468625814512309, ,0.01321441043040825, ,0.0014892535201027391, ,0.24212312107268683,-0.19492950047830085,0.11900460716000001,1.6829714864067924,0.5316526205873288,-1.3518411386831168, ,0.15842561195070248,0.09012055228724672,0.04293480194070081,0.02561532451596845,0.16691756924742915,-0.08390874640641202, ,1.1653778553009033
0.02200663518505158,0.022046408793892868,-0.10744554207833289, ,0.022681449563099736,0.021749765996252855,-0.10803695453130821, ,0.0009450608889095479, ,0.025079569747427533,-3.950478137197222e-05,-0.03900946283569288,0.044750515827780744,0.018117164179050578,-0.010270448765213172, ,0.04637590505934237, ,0.04827784140817025, ,0.0014843063143646193, ,0.24402291335974605,-0.19388693154028053,0.11954256751000002,1.683181176350277,0.5343853505826376,-1.3538244605366236, ,0.1482764711851106,0.07597833591550904,0.04316751089430895,-0.005739164561921364,0.1713800056545904,-0.11425016854289552, ,1.1753308773040771
0.02200663518505158,0.022046408793892868,-0.10744554207833289, ,0.022782465804708826,0.021741387490453307,-0.1081746916484586, ,0.00110752437515579, ,0.025079569747427533,-3.950478137197222e-05,-0.03900946283569288,0.044750515827780744,0.018117164179050578,-0.010270448765213172, ,0.04637590505934237, ,0.04827784140817025, ,0.0014809118824798552, ,0.24402291335974605,-0.19388693154028053,0.11954256751000002,1.683181176350277,0.5343853505826376,-1.3538244605366236, ,0.1482764711851106,0.07597833591550904,0.04316751089430895,-0.005739164561921364,0.1713800056545904,-0.11425016854289552, ,1.1789419651031494
0.02200663518505158,0.022046408793892868,-0.10744554207833289, ,0.022883002787361238,0.021732695353537782,-0.10831009110213599, ,0.0012703862844018379, ,0.025079569747427533,-3.950478137197222e-05,-0.03900946283569288,0.044750515827780744,0.018117164179050578,-0.010270448765213172, ,0.04637590505934237, ,0.04827784140817025, ,0.001479032189639873, ,0.24402291335974605,-0.19388693154028053,0.11954256751000002,1.683181176350277,0.5343853505826376,-1.3538244605366236, ,0.1482764711851106,0.07597833591550904,0.04316751089430895,-0.005739164561921364,0.1713800056545904,-0.11425016854289552, ,1.1826817989349365
0.022324299501881188,0.022045170584506592,-0.10793200340472713, ,0.02298306169575656,0.021723694702773046,-0.10844316932680101, ,0.0008936470055371392, ,0.022414681928274928,-0.0002789762714505659,-0.03297849972323362,-0.06074054993483577,-0.051351964026238775,0.006661140096833127, ,0.039875772565570275, ,0.07953866737422455, ,0.001473851789780557, ,0.2458609237838115,-0.19293703539675092,0.12007923157000001,1.683181176350277,0.5358883520800574,-1.3544783062963002, ,0.1303529417011961,0.06576364626366651,0.03645036961098399,-0.0052661489020163045,0.08204386065926603,0.000854489010441226, ,1.1872107982635498
0.022324299501881188,0.022045170584506592,-0.10793200340472713, ,0.023082643731513957,0.021714390640294567,-0.10857394270301016, ,0.001047180693476698, ,0.022414681928274928,-0.0002789762714505659,-0.03297849972323362,-0.06074054993483577,-0.051351964026238775,0.006661140096833127, ,0.039875772565570275, ,0.07953866737422455, ,0.0014701090608656108, ,0.2458609237838115,-0.19293703539675092,0.12007923157000001,1.683181176350277,0.5358883520800574,-1.3544783062963002, ,0.1303529417011961,0.06576364626366651,0.03645036961098399,-0.0052661489020163045,0.08204386065926603,0.000854489010441226, ,1.1909677982330322
0.022324299501881188,0.022045170584506592,-0.10793200340472713, ,0.023181750113079828,0.02170478825310108,-0.10870242755748344, ,0.0012019297222917215, ,0.022414681928274928,-0.0002789762714505659,-0.03297849972323362,-0.06074054993483577,-0.051351964026238775,0.006661140096833127, ,0.039875772565570275, ,0.07953866737422455, ,0.0014677770666171421, ,0.2458609237838115,-0.19293703539675092,0.12007923157000001,1.683181176350277,0.5358883520800574,-1.3544783062963002, ,0.1303529417011961,0.06576364626366651,0.03645036961098399,-0.0052661489020163045,0.08204386065926603,0.000854489010441226, ,1.1949880123138428
0.022611517820063796,0.022027290716567165,-0.1083121418592347, ,0.023280382075636135,0.021694892613049462,-0.10882864016317342, ,0.0009080960244247768, ,0.019946636461173835,-0.0020096417859933797,-0.024790215123562227,-0.024136613785092253,-0.022159590855626465,-0.0037896904875910015, ,0.031881996990382105, ,0.032766052999888516, ,0.001462952230046518, ,0.24762170687913468,-0.1920489211162151,0.12050311840000001,1.6829714864067924,0.536981444078181,-1.3546345408646066, ,0.12754965263235318,0.06631512338118153,0.02789634241681261,0.0,0.10792733554845842,-0.03502278587547135, ,1.1986608505249023
0.022611517820063796,0.022027290716567165,-0.1083121418592347, ,0.023378540871008158,0.021684708776849932,-0.10895259673933286, ,0.0010563471018287345, ,0.019946636461173835,-0.0020096417859933797,-0.024790215123562227,-0.024136613785092253,-0.022159590855626465,-0.0037896904875910015, ,0.031881996990382105, ,0.032766052999888516, ,0.0014594769725403832, ,0.24762170687913468,-0.1920489211162151,0.12050311840000001,1.6829714864067924,0.536981444078181,-1.3546345408646066, ,0.12754965263235318,0.06631512338118153,0.02789634241681261,0.0,0.10792733554845842,-0.03502278587547135, ,1.2022879123687744
0.022611517820063796,0.022027290716567165,-0.1083121418592347, ,0.023476227767572733,0.021674241786060627,-0.10907431345158305, ,0.0012055174726380159, ,0.019946636461173835,-0.0020096417859933797,-0.024790215123562227,-0.024136613785092253,-0.022159590855626465,-0.0037896904875910015, ,0.031881996990382105, ,0.032766052999888516, ,0.0014573247733886683, ,0.24762170687913468,-0.1920489211162151,0.12050311840000001,1.6829714864067924,0.536981444078181,-1.3546345408646066, ,0.12754965263235318,0.06631512338118153,0.02789634241681261,0.0,0.10792733554845842,-0.03502278587547135, ,1.2059578895568848
0.022800874462490968,0.022011869469850006,-0.10855828805828825, ,0.023573444050166217,0.021663496667082918,-0.10919380641198309, ,0.0010592973876072291, ,0.01920585739522938,-0.0008662374156435232,-0.02606616981992218,0.08459644392960582,0.06775085656002892,-0.006241457573452795, ,0.032389203982610776, ,0.10838230878153012, ,0.0014539800054409252, ,0.24875694861164568,-0.1914774388835225,0.12076108011000002,1.682761796463308,0.5384844455756008,-1.3557784590651267, ,0.1255250549715222,0.058687038687984396,0.029443274528650653,-0.007310669059570652,0.19494887099059816,-0.13328002259399757, ,1.2095677852630615
0.022800874462490968,0.022011869469850006,-0.10855828805828825, ,0.023670191019992178,0.021652478431155614,-0.10931109167909611, ,0.0012048180308000926, ,0.01920585739522938,-0.0008662374156435232,-0.02606616981992218,0.08459644392960582,0.06775085656002892,-0.006241457573452795, ,0.032389203982610776, ,0.10838230878153012, ,0.0014519036556522515, ,0.24875694861164568,-0.1914774388835225,0.12076108011000002,1.682761796463308,0.5384844455756008,-1.3557784590651267, ,0.1255250549715222,0.058687038687984396,0.029443274528650653,-0.007310669059570652,0.19494887099059816,-0.13328002259399757, ,1.213136911392212
0.022800874462490968,0.022011869469850006,-0.10855828805828825, ,0.023766469994529974,0.021641192074350873,-0.10942618525806028, ,0.0013501933240835677, ,0.01920585739522938,-0.0008662374156435232,-0.02606616981992218,0.08459644392960582,0.06775085656002892,-0.006241457573452795, ,0.032389203982610776, ,0.10838230878153012, ,0.0014510630743996176, ,0.24875694861164568,-0.1914774388835225,0.12076108011000002,1.682761796463308,0.5384844455756008,-1.3557784590651267, ,0.1255250549715222,0.058687038687984396,0.029443274528650653,-0.007310669059570652,0.19494887099059816,-0.13328002259399757, ,1.216756820678711
0.022994512096188406,0.02200702089770846,-0.10882690639950364, ,0.023862282307442386,0.02162964257756838,-0.10953910310065437, ,0.0011843410307768244, ,0.019848436092649628,-0.0003525338212758013,-0.027000041422260125,0.06652852919339025,0.05024240409192759,0.0016849206497657294, ,0.03351248919765439, ,0.08336863928693602, ,0.0014488768281404145, ,0.2500775359331381,-0.1908827884522072,0.12108644890000002,1.6825521065198237,0.5405339930720824,-1.3572046914001514, ,0.12569131332247785,0.05501271974404103,0.030691351676300584,-0.012186757910764377,0.18223440511121153,-0.11684874938938668, ,1.2203369140625
0.022994512096188406,0.02200702089770846,-0.10882690639950364, ,0.023957629308483733,0.021617834906530426,-0.10964986110536815, ,0.001325260332256755, ,0.019848436092649628,-0.0003525338212758013,-0.027000041422260125,0.06652852919339025,0.05024240409192759,0.0016849206497657294, ,0.03351248919765439, ,0.08336863928693602, ,0.0014478718159787586, ,0.2500775359331381,-0.1908827884522072,0.12108644890000002,1.6825521065198237,0.5405339930720824,-1.3572046914001514, ,0.12569131332247785,0.05501271974404103,0.030691351676300584,-0.012186757910764377,0.18223440511121153,-0.11684874938938668, ,1.2239840030670166
0.022994512096188406,0.02200702089770846,-0.10882690639950364, ,0.02405251236340799,0.021605774011777202,-0.10975847511746999, ,0.001465668415842991, ,0.019848436092649628,-0.0003525338212758013,-0.027000041422260125,0.06652852919339025,0.05024240409192759,0.0016849206497657294, ,0.03351248919765439, ,0.08336863928693602, ,0.0014480153369454058, ,0.2500775359331381,-0.1908827884522072,0.12108644890000002,1.6825521065198237,0.5405339930720824,-1.3572046914001514, ,0.12569131332247785,0.05501271974404103,0.030691351676300584,-0.012186757910764377,0.18223440511121153,-0.11684874938938668, ,1.227881908416748
0.02319060028736329,0.022006487834722248,-0.1090964953298594, ,0.024146932853876518,0.021593464828661136,-0.1098649609290741, ,0.0012944880681126194, ,0.02091428910753283,7.64471752124122e-05,-0.02956451526877979,0.054960100212945805,0.03005450379016394,0.00045455400665372946, ,0.03621427751760316, ,0.06264074733539204, ,0.0014467871187947435, ,0.25129772772726555,-0.19035764261675994,0.12139237334000001,1.6825521065198237,0.5421736310692676,-1.3582966700240866, ,0.12720769645907612,0.05546285304410916,0.033393734842767295,-0.012186757910764377,0.1631059130744849,-0.1064550140787018, ,1.2326738834381104
0.02319060028736329,0.022006487834722248,-0.1090964953298594, ,0.02424089217736629,0.021580912277342133,-0.10996933427921056, ,0.0014304109342248084, ,0.02091428910753283,7.64471752124122e-05,-0.02956451526877979,0.054960100212945805,0.03005450379016394,0.00045455400665372946, ,0.03621427751760316, ,0.06264074733539204, ,0.0014466571490759344, ,0.25129772772726555,-0.19035764261675994,0.12139237334000001,1.6825521065198237,0.5421736310692676,-1.3582966700240866, ,0.12720769645907612,0.05546285304410916,0.033393734842767295,-0.012186757910764377,0.1631059130744849,-0.1064550140787018, ,1.2363338470458984
0.023404370038710424,0.02201135304992295,-0.10941696139698184, ,0.024334391747077872,0.02156812126278262,-0.1100716108538923, ,0.0012206394662632682, ,0.021527579305826605,0.0008550174648655304,-0.03337590793693342,0.02907606964625279,0.005926478461410822,0.0006048029862909761, ,0.03972554538642024, ,0.02967321279008307, ,0.001444877482282134, ,0.2525410877200157,-0.18979388311694156,0.12175144567000001,1.6825521065198237,0.5436766325666875,-1.3591955520041852, ,0.12104201729396784,0.05466413684243708,0.037216849345794396,-0.011002781740812265,0.13191129303595495,-0.080258422182091, ,1.2399628162384033
0.023404370038710424,0.02201135304992295,-0.10941696139698184, ,0.02442743299184344,0.021555096674742258,-0.11017180628618438, ,0.0013507843990516982, ,0.021527579305826605,0.0008550174648655304,-0.03337590793693342,0.02907606964625279,0.005926478461410822,0.0006048029862909761, ,0.03972554538642024, ,0.02967321279008307, ,0.0014441423800693961, ,0.2525410877200157,-0.18979388311694156,0.12175144567000001,1.6825521065198237,0.5436766325666875,-1.3591955520041852, ,0.12104201729396784,0.05466413684243708,0.037216849345794396,-0.011002781740812265,0.13191129303595495,-0.080258422182091, ,1.2436778545379639
0.023404370038710424,0.02201135304992295,-0.10941696139698184, ,0.02452001735603458,0.021541843387772854,-0.11026993615627062, ,0.0014807681113154162, ,0.021527579305826605,0.0008550174648655304,-0.03337590793693342,0.02907606964625279,0.005926478461410822,0.0006048029862909761, ,0.03972554538642024, ,0.02967321279008307, ,0.0014444263004666522, ,0.2525410877200157,-0.18979388311694156,0.12175144567000001,1.6825521065198237,0.5436766325666875,-1.3591955520041852, ,0.12104201729396784,0.05466413684243708,0.037216849345794396,-0.011002781740812265,0.13191129303595495,-0.080258422182091, ,1.2473969459533691
0.023635827898373294,0.022020538073724946,-0.10977364089696218, ,0.024612146299470734,0.02152836626121349,-0.11036601599152444, ,0.0012435187839393218, ,0.02178421417786343,0.0007556547378371448,-0.03339856591810228,0.028681384131369385,0.0065048762079514795,-0.0005969495847627707, ,0.03988216652610117, ,0.02940907434210008, ,0.0014428808580318267, ,0.2538385068428854,-0.1892069554185005,0.12214940670000002,1.6825521065198237,0.5450429975643419,-1.3597379798601654, ,0.12244766652705909,0.05536577687191993,0.03730400824355972,-0.009635636558163288,0.13366080929926272,-0.08010596583395245, ,1.2509918212890625
0.023635827898373294,0.022020538073724946,-0.10977364089696218, ,0.024703821297326498,0.021514670139185108,-0.11046006126657423, ,0.00136663279311656, ,0.02178421417786343,0.0007556547378371448,-0.03339856591810228,0.028681384131369385,0.0065048762079514795,-0.0005969495847627707, ,0.03988216652610117, ,0.02940907434210008, ,0.0014422988117347635, ,0.2538385068428854,-0.1892069554185005,0.12214940670000002,1.6825521065198237,0.5450429975643419,-1.3597379798601654, ,0.12244766652705909,0.05536577687191993,0.03730400824355972,-0.009635636558163288,0.13366080929926272,-0.08010596583395245, ,1.2545459270477295
0.023848984056335547,0.0220255849685835,-0.11009506150937898, ,0.024795043840040318,0.02150075985058588,-0.11055208740337424, ,0.0011744544208299032, ,0.02178421417786343,0.0007556547378371448,-0.03339856591810228,0.028681384131369385,0.0065048762079514795,-0.0005969495847627707, ,0.03988216652610117, ,0.02940907434210008, ,0.0014402696875612415, ,0.2538385068428854,-0.1892069554185005,0.12214940670000002,1.6825521065198237,0.5450429975643419,-1.3597379798601654, ,0.12244766652705909,0.05536577687191993,0.03730400824355972,-0.009635636558163288,0.13366080929926272,-0.08010596583395245, ,1.2580878734588623
0.023848984056335547,0.0220255849685835,-0.11009506150937898, ,0.02488581543322225,0.021486640209085767,-0.11064210977127094, ,0.0012902490297325765, ,0.021220034349347484,0.00012191440933619597,-0.0318225065560118,0.030481672720140414,0.055240030177864795,0.0029610592123554005, ,0.038248877688346686, ,0.06309168464819978, ,0.0014391417126903493, ,0.25505869863701286,-0.18865864138443056,0.12250977532000001,1.6823424165763388,0.5465459990617618,-1.3604735043599827, ,0.12372482602147429,0.05836220268048633,0.03579508206741574,-0.003421587282598755,0.1836604773119597,-0.08028183564476599, ,1.2622509002685547
0.023848984056335547,0.0220255849685835,-0.11009506150937898, ,0.024976137597561655,0.02147231601312159,-0.11073014368707244, ,0.0014070931081489751, ,0.021220034349347484,0.00012191440933619597,-0.0318225065560118,0.030481672720140414,0.055240030177864795,0.0029610592123554005, ,0.038248877688346686, ,0.06309168464819978, ,0.0014389025439997423, ,0.25505869863701286,-0.18865864138443056,0.12250977532000001,1.6823424165763388,0.5465459990617618,-1.3604735043599827, ,0.12372482602147429,0.05836220268048633,0.03579508206741574,-0.003421587282598755,0.1836604773119597,-0.08028183564476599, ,1.267340898513794
0.024021598796141436,0.022023820597519613,-0.11033730283238863, ,0.025066011868735413,0.021457792045891634,-0.11081620441511567, ,0.001280833210610078, ,0.022006706850060048,-0.000465835804803991,-0.0286037005004133,0.08450049202867857,0.05334219617121594,0.0006152554488421835, ,0.0360927116146579, ,0.09992849392440542, ,0.0014377316600487076, ,0.25505869863701286,-0.18865864138443056,0.12250977532000001,1.6823424165763388,0.5465459990617618,-1.3604735043599827, ,0.12372482602147429,0.05836220268048633,0.03579508206741574,-0.003421587282598755,0.1836604773119597,-0.08028183564476599, ,1.2713220119476318
0.024021598796141436,0.022023820597519613,-0.11033730283238863, ,0.025155439797316326,0.02144307307535157,-0.1109003071673363, ,0.0013927803063008436, ,0.022006706850060048,-0.000465835804803991,-0.0286037005004133,0.08450049202867857,0.05334219617121594,0.0006152554488421835, ,0.0360927116146579, ,0.09992849392440542, ,0.001437401135388797, ,0.2561012675750332,-0.18819527741197709,0.12278458880000001,1.6821327266328545,0.5480490005591817,-1.361372386340081, ,0.1381323749031598,0.05786398875516511,0.03284291035051547,-0.016028258167537335,0.19858856620107135,-0.13875439052359695, ,1.2759099006652832
0.02428902425679064,0.022008985593273054,-0.11065259306686845, ,0.025244422948680262,0.021428163854207864,-0.11098246710333502, ,0.0011657432963435225, ,0.02154876113468331,-0.0018640359231329243,-0.02218374997562041,-0.013905027584275479,-0.013682190047240235,0.012185896940750496, ,0.03098293884290524, ,0.019507607339913323, ,0.0014354182314541598, ,0.2578311597388595,-0.18746934052179998,0.12315014258000001,1.6819230366893698,0.5502351845554286,-1.362338285397818, ,0.14334885431793168,0.05886907044570147,0.026070067954173493,-0.011618957509802573,0.134830171241798,-0.03963724508910732, ,1.2795758247375488
0.02428902425679064,0.022008985593273054,-0.11065259306686845, ,0.025332962902914816,0.02141306911991406,-0.11106269933044764, ,0.0012700832600735608, ,0.02154876113468331,-0.0018640359231329243,-0.02218374997562041,-0.013905027584275479,-0.013682190047240235,0.012185896940750496, ,0.03098293884290524, ,0.019507607339913323, ,0.001434220151951402, ,0.2578311597388595,-0.18746934052179998,0.12315014258000001,1.6819230366893698,0.5502351845554286,-1.362338285397818, ,0.14334885431793168,0.05886907044570147,0.026070067954173493,-0.011618957509802573,0.134830171241798,-0.03963724508910732, ,1.2831928730010986
0.02428902425679064,0.022008985593273054,-0.11065259306686845, ,0.025421061254727012,0.02139779359466494,-0.1111410189038121, ,0.0013760898306627667, ,0.02154876113468331,-0.0018640359231329243,-0.02218374997562041,-0.013905027584275479,-0.013682190047240235,0.012185896940750496, ,0.03098293884290524, ,0.019507607339913323, ,0.001433801948201124, ,0.2578311597388595,-0.18746934052179998,0.12315014258000001,1.6819230366893698,0.5502351845554286,-1.362338285397818, ,0.14334885431793168,0.05886907044570147,0.026070067954173493,-0.011618957509802573,0.134830171241798,-0.03963724508910732, ,1.286775827407837
0.024515254372860944,0.02197964085784925,-0.1108609162373064, ,0.02550871961335133,0.02138234198539169,-0.11121744082643711, ,0.0012127855992534375, ,0.021301031149800344,-0.0036675408642137166,-0.018347792287555245,-0.04946975865888144,-0.025906385585325466,-0.007186308985466057, ,0.028351830026696934, ,0.05584259804624367, ,0.0014322232599943547, ,0.2592675880534652,-0.18686696735761046,0.12338217849000001,1.6817133467458854,0.5513282765535522,-1.3624945199661245, ,0.14781455071412894,0.06773514743645309,0.022123349333333337,0.013633495448811551,0.1201578479935272,-0.005919207781863507, ,1.290421962738037
0.024515254372860944,0.02197964085784925,-0.1108609162373064, ,0.025595939602457898,0.021366718983756944,-0.11129198004927057, ,0.0013150550555755948, ,0.021301031149800344,-0.0036675408642137166,-0.018347792287555245,-0.04946975865888144,-0.025906385585325466,-0.007186308985466057, ,0.028351830026696934, ,0.05584259804624367, ,0.001431392279821172, ,0.2592675880534652,-0.18686696735761046,0.12338217849000001,1.6817133467458854,0.5513282765535522,-1.3624945199661245, ,0.14781455071412894,0.06773514743645309,0.022123349333333337,0.013633495448811551,0.1201578479935272,-0.005919207781863507, ,1.2940659523010254
0.024515254372860944,0.02197964085784925,-0.1108609162373064, ,0.025682722860059935,0.021350929266149177,-0.11136465147126749, ,0.0014184534254160683, ,0.021301031149800344,-0.0036675408642137166,-0.018347792287555245,-0.04946975865888144,-0.025906385585325466,-0.007186308985466057, ,0.028351830026696934, ,0.05584259804624367, ,0.0014313011611281783, ,0.2592675880534652,-0.18686696735761046,0.12338217849000001,1.6817133467458854,0.5513282765535522,-1.3624945199661245, ,0.14781455071412894,0.06773514743645309,0.022123349333333337,0.013633495448811551,0.1201578479935272,-0.005919207781863507, ,1.297757863998413
0.024711843225359152,0.021940542238139835,-0.11102750275561321, ,0.025769071038422364,0.021334977493678412,-0.11143546993945905, ,0.001284864402006745, ,0.020161174411413525,-0.004193759499198754,-0.016503812657709158,0.05536540795668202,0.031493517120317706,-0.028197718390201965, ,0.02639008155776174, ,0.06369590877303594, ,0.001430277127847609, ,0.260773520963939,-0.18614103046743335,0.12359865892,1.6817133467458854,0.5529679145507375,-1.363178104889357, ,0.14599529470533967,0.0701900455314133,0.020137561972187107,0.013633495448811551,0.17859980543970283,-0.11427136652964165, ,1.3013348579406738
0.024711843225359152,0.021940542238139835,-0.11102750275561321, ,0.025854985803969336,0.02131886831217035,-0.11150445024901959, ,0.0013859048801156877, ,0.020161174411413525,-0.004193759499198754,-0.016503812657709158,0.05536540795668202,0.031493517120317706,-0.028197718390201965, ,0.02639008155776174, ,0.06369590877303594, ,0.0014299689872383596, ,0.260773520963939,-0.18614103046743335,0.12359865892,1.6817133467458854,0.5529679145507375,-1.363178104889357, ,0.14599529470533967,0.0701900455314133,0.020137561972187107,0.013633495448811551,0.17859980543970283,-0.11427136652964165, ,1.3050408363342285
0.024899798614472557,0.02189988413635629,-0.11118196364140748, ,0.025940468837192684,0.02130260635216234,-0.11157160714333615, ,0.0012615693887151967, ,0.020809757353411534,-0.004185718181172181,-0.0168414019711378,0.017195144950758558,0.016738219162199284,-0.019316085330626776, ,0.02639008155776174, ,0.06369590877303594, ,0.0014288076106968204, ,0.26214816741555097,-0.18547687544025004,0.12378791726000002,1.6817133467458854,0.5548808255474537,-1.3644112405805446, ,0.14944400245428469,0.07060784342148123,0.020579859844961242,0.013633495448811551,0.16719172813366712,-0.0754113607382744, ,1.3097889423370361
0.024899798614472557,0.02189988413635629,-0.11118196364140748, ,0.026025521832559205,0.021286196228896985,-0.1116369553140757, ,0.0013604716217909768, ,0.020809757353411534,-0.004185718181172181,-0.0168414019711378,0.017195144950758558,0.016738219162199284,-0.019316085330626776, ,0.027096107804507736, ,0.023996658845544198, ,0.0014283395559782873, ,0.26214816741555097,-0.18547687544025004,0.12378791726000002,1.6817133467458854,0.5548808255474537,-1.3644112405805446, ,0.14944400245428469,0.07060784342148123,0.020579859844961242,0.013633495448811551,0.16719172813366712,-0.0754113607382744, ,1.3138208389282227
0.024899798614472557,0.02189988413635629,-0.11118196364140748, ,0.026110146498419234,0.021269642542317904,-0.11170050940125417, ,0.0014598068954780382, ,0.020809757353411534,-0.004185718181172181,-0.0168414019711378,0.017195144950758558,0.016738219162199284,-0.019316085330626776, ,0.027096107804507736, ,0.023996658845544198, ,0.0014285536195122993, ,0.26214816741555097,-0.18547687544025004,0.12378791726000002,1.6817133467458854,0.5548808255474537,-1.3644112405805446, ,0.14944400245428469,0.07060784342148123,0.020579859844961242,0.013633495448811551,0.16719172813366712,-0.0754113607382744, ,1.3178138732910156
0.02513904744588486,0.021851989318024498,-0.1113649760069818, ,0.02619434455691451,0.021252949877064713,-0.11176228399330415, ,0.0012768531162073646, ,0.02220328591595925,-0.004614860142961226,-0.016690564663030857,-0.055415533607564474,-0.0814807026992501,-0.01978672257830468, ,0.028157730526016136, ,0.0985392560461062, ,0.0014275286161115903, ,0.26383172318213194,-0.18469687941995339,0.12401087914000002,1.6817133467458854,0.5559739175455772,-1.364567475148851, ,0.1545552794111902,0.0736205908133986,0.020265663511450382,0.013633495448811551,0.0721976406044695,-0.008257807568029886, ,1.321429967880249
0.02513904744588486,0.021851989318024498,-0.1113649760069818, ,0.02627811774388584,0.02123612280246731,-0.11182229362714326, ,0.0013732851541041027, ,0.02220328591595925,-0.004614860142961226,-0.016690564663030857,-0.055415533607564474,-0.0814807026992501,-0.01978672257830468, ,0.028157730526016136, ,0.0985392560461062, ,0.001427164566031003, ,0.26383172318213194,-0.18469687941995339,0.12401087914000002,1.6817133467458854,0.5559739175455772,-1.364567475148851, ,0.1545552794111902,0.0736205908133986,0.020265663511450382,0.013633495448811551,0.0721976406044695,-0.008257807568029886, ,1.325037956237793
0.02513904744588486,0.021851989318024498,-0.1113649760069818, ,0.026361467808781534,0.021219165872541666,-0.11188055278824308, ,0.001469896756290366, ,0.02220328591595925,-0.004614860142961226,-0.016690564663030857,-0.055415533607564474,-0.0814807026992501,-0.01978672257830468, ,0.028157730526016136, ,0.0985392560461062, ,0.0014274494472993988, ,0.2654534970857191,-0.1839168833996567,0.12421828554000001,1.6817133467458854,0.5572036460434662,-1.3649984851011348, ,0.1659037439833405,0.08021719489304377,0.020958962526315794,0.013633495448811551,0.1544509926350233,-0.05868313473459826, ,1.328866958618164
0.025366893480507472,0.0218008950394728,-0.11153392288645642, ,0.02644439651456503,0.021202083625984053,-0.11193707591069635, ,0.0012969657891715733, ,0.02303034385693891,-0.005276318915578105,-0.016932011271322094,-0.008723404444273348,-0.01224215418219343,-0.019830719301889836, ,0.029067667349822027, ,0.015032189874672345, ,0.0014265853171131217, ,0.2654534970857191,-0.1839168833996567,0.12421828554000001,1.6817133467458854,0.5572036460434662,-1.3649984851011348, ,0.1659037439833405,0.08021719489304377,0.020958962526315794,0.013633495448811551,0.1544509926350233,-0.05868313473459826, ,1.3323938846588135
0.025366893480507472,0.0218008950394728,-0.11153392288645642, ,0.026526905637622965,0.02118488058616629,-0.1119918773772859, ,0.0013909796285385173, ,0.02303034385693891,-0.005276318915578105,-0.016932011271322094,-0.008723404444273348,-0.01224215418219343,-0.019830719301889836, ,0.029067667349822027, ,0.015032189874672345, ,0.001426351069161973, ,0.2654534970857191,-0.1839168833996567,0.12421828554000001,1.6817133467458854,0.5572036460434662,-1.3649984851011348, ,0.1659037439833405,0.08021719489304377,0.020958962526315794,0.013633495448811551,0.1544509926350233,-0.05868313473459826, ,1.3359179496765137
0.025599335339939112,0.021746725504564718,-0.11170286983390762, ,0.02660899696767318,0.021167561261130174,-0.11204497151955238, ,0.001213211188010027, ,0.022357891963245915,-0.005569529417038412,-0.01594184600921968,0.0865582025482407,0.041255809772014825,-0.01622605816759876, ,0.02801851968161605, ,0.09588724231444357, ,0.0014249579980433328, ,0.26715249831804844,-0.1830982737149889,0.12442958081000001,1.6819230366893698,0.5591165570401824,-1.3661499420521819, ,0.1659037439833405,0.08014944388384355,0.02011213575757576,-0.009869557386752183,0.21314513358295253,-0.16108796500097083, ,1.3395588397979736
0.025599335339939112,0.021746725504564718,-0.11170286983390762, ,0.026690672307672754,0.021150130143583593,-0.11209637261786372, ,0.0013045255240383218, ,0.022357891963245915,-0.005569529417038412,-0.01594184600921968,0.0865582025482407,0.041255809772014825,-0.01622605816759876, ,0.02801851968161605, ,0.09588724231444357, ,0.0014241759689913522, ,0.26715249831804844,-0.1830982737149889,0.12442958081000001,1.6819230366893698,0.5591165570401824,-1.3661499420521819, ,0.1659037439833405,0.08014944388384355,0.02011213575757576,-0.009869557386752183,0.21314513358295253,-0.16108796500097083, ,1.343228816986084
0.025599335339939112,0.021746725504564718,-0.11170286983390762, ,0.026771933473725765,0.02113259171089378,-0.11214609490148122, ,0.0013959209004862072, ,0.022357891963245915,-0.005569529417038412,-0.01594184600921968,0.0865582025482407,0.041255809772014825,-0.01622605816759876, ,0.02801851968161605, ,0.09588724231444357, ,0.0014239936782268028, ,0.26715249831804844,-0.1830982737149889,0.12442958081000001,1.6819230366893698,0.5591165570401824,-1.3661499420521819, ,0.1659037439833405,0.08014944388384355,0.02011213575757576,-0.009869557386752183,0.21314513358295253,-0.16108796500097083, ,1.347010850906372
0.025791295866251746,0.021700070081056174,-0.11183456913747639, ,0.026852782294991474,0.021114950425083826,-0.11219415254863044, ,0.0012642858378472033, ,0.0235711070965803,-0.0055942003438479646,-0.01579521548505674,-0.0013727921106577805,-0.010755842008933978,0.0003809360828528036, ,0.028920252410118124, ,0.010843049033004546, ,0.0014229699100192412, ,0.26857348116690577,-0.18242639595493138,0.12459680222000001,1.6819230366893698,0.5607561950373676,-1.367078563195836, ,0.1728541740591453,0.08008180722233821,0.020061475465994964,-0.009418557096258355,0.16730241493460027,-0.07165343354391272, ,1.3537437915802002
0.025791295866251746,0.021700070081056174,-0.11183456913747639, ,0.026933220613592237,0.021097210732826447,-0.1122405596865673, ,0.0013536099321029532, ,0.0235711070965803,-0.0055942003438479646,-0.01579521548505674,-0.0013727921106577805,-0.010755842008933978,0.0003809360828528036, ,0.028920252410118124, ,0.010843049033004546, ,0.0014225281267204115, ,0.26857348116690577,-0.18242639595493138,0.12459680222000001,1.6819230366893698,0.5607561950373676,-1.367078563195836, ,0.1728541740591453,0.08008180722233821,0.020061475465994964,-0.009418557096258355,0.16730241493460027,-0.07165343354391272, ,1.357862949371338
0.026065746744453777,0.021634080498311687,-0.1120195435020826, ,0.027013250284521534,0.021079377065439754,-0.11228533039164752, ,0.0011296466383544175, ,0.02392176666597198,-0.0059510713158905,-0.01558767957783591,-0.06780274278926035,-0.045687074979276494,0.010638517470736897, ,0.029165766316853487, ,0.08175891284536141, ,0.0014206744464142975, ,0.27055822351558145,-0.18148422254427599,0.12483013442000002,1.6819230366893698,0.562395833034553,-1.367517111898647, ,0.17316960138407075,0.08244738623672526,0.019762793449131517,-0.008274833318144768,0.13191789471583082,-0.006333750475845126, ,1.361447811126709
0.026065746744453777,0.021634080498311687,-0.1120195435020826, ,0.027092873175551698,0.021061453838881534,-0.11232847868939425, ,0.0012158663357908104, ,0.02392176666597198,-0.0059510713158905,-0.01558767957783591,-0.06780274278926035,-0.045687074979276494,0.010638517470736897, ,0.029165766316853487, ,0.08175891284536141, ,0.0014193863450896215, ,0.27055822351558145,-0.18148422254427599,0.12483013442000002,1.6819230366893698,0.562395833034553,-1.367517111898647, ,0.17316960138407075,0.08244738623672526,0.019762793449131517,-0.008274833318144768,0.13191789471583082,-0.006333750475845126, ,1.3651158809661865
0.026065746744453777,0.021634080498311687,-0.1120195435020826, ,0.027172091167142098,0.021043445453744338,-0.11237001855456667, ,0.0013021829748151152, ,0.02392176666597198,-0.0059510713158905,-0.01558767957783591,-0.06780274278926035,-0.045687074979276494,0.010638517470736897, ,0.029165766316853487, ,0.08175891284536141, ,0.0014186538240254058, ,0.27055822351558145,-0.18148422254427599,0.12483013442000002,1.6819230366893698,0.562395833034553,-1.367517111898647, ,0.17316960138407075,0.08244738623672526,0.019762793449131517,-0.008274833318144768,0.13191789471583082,-0.006333750475845126, ,1.3687949180603027
0.02629807702827382,0.021576375790190627,-0.11216208894765409, ,0.027250906152347022,0.02102535629525048,-0.1124099639112281, ,0.0011282498929993372, ,0.022944333430254545,-0.005552482939541515,-0.013035583479600925,-0.01026940437911705,-0.034215724228399566,0.0006339619058811704, ,0.026966626411292913, ,0.03572360668204324, ,0.0014168500729010204, ,0.2722649474807851,-0.18071194925685352,0.1250142076,1.6815036568024009,0.5637621980322073,-1.367732824794065, ,0.17098548028553293,0.07472200122714234,0.017257650617551468,-0.010137752825023888,0.14150269249608954,-0.05876591769699589, ,1.3724308013916016
0.02629807702827382,0.021576375790190627,-0.11216208894765409, ,0.027329320036723857,0.02100719073324747,-0.11244832863281459, ,0.0012121744630560615, ,0.022944333430254545,-0.005552482939541515,-0.013035583479600925,-0.01026940437911705,-0.034215724228399566,0.0006339619058811704, ,0.026966626411292913, ,0.03572360668204324, ,0.0014155866432106192, ,0.2722649474807851,-0.18071194925685352,0.1250142076,1.6815036568024009,0.5637621980322073,-1.367732824794065, ,0.17098548028553293,0.07472200122714234,0.017257650617551468,-0.010137752825023888,0.14150269249608954,-0.05876591769699589, ,1.3760199546813965
0.026533221964821586,0.02151425644096348,-0.1122888486105959, ,0.027407334738240568,0.0209889531222016,-0.11248512654220244, ,0.0010385286437032963, ,0.022944333430254545,-0.005552482939541515,-0.013035583479600925,-0.01026940437911705,-0.034215724228399566,0.0006339619058811704, ,0.026966626411292913, ,0.03572360668204324, ,0.001413273403949838, ,0.2740334533089825,-0.17990878503793417,0.12518402159,1.6815036568024009,0.5652651995296272,-1.3683049918136012, ,0.17191474920012823,0.08062611857134305,0.015818084925521354,-0.009760364820871736,0.15848082986127562,-0.08144749168329252, ,1.379601001739502
