NicholasDascanio/dvrk_moveit_final/test/execution/third_experiment_notsharpbends/thirdexp_300vel5.0/thirdexp_300vel5.0_1.csv
Current Position (x),Current Position (y),Current Position (z), ,Planned Position (x),Planned Position (y),Planned Position (z), ,Position Error,,Cartesian linear Velocity(x),Cartesian linear Velocity(y),Cartesian linear Velocity(z),Cartesian Angular Velocity(x),Cartesian Angular Velocity(y),Cartesian Angular Velocity(z), ,Total Linear Velocity, ,Total Angular Velocity, ,MSE, ,Joint 1 Position,Joint 2 Position,Joint 3 Position,Joint 4 Position,Joint 5 Position,Joint 6 Position, ,Joint 1 Velocity,Joint 2 Velocity,Joint 3 Velocity,Joint 4 Velocity,Joint 5 Velocity,Joint 6 Velocity, ,Time Stamp
0.009334038497433595,0.01996932699102618,-0.0763713629017813, ,0.009493826190235677,0.020036092960538918,-0.07664944148152654, ,0.000327593495004277, ,0.00039884861402561994,0.0004874851019165317,-0.002479048614768883,-0.10239557911403602,-0.0009290376275654397,0.0006886206583685193, ,0.002557812341804662, ,0.10239979361755867, ,2.729945791702308e-05, ,0.1385767186950846,-0.25339831106905464,0.08607235971,1.6058055872044876,0.14401487075277425,-1.379289326927574, ,0.0006834380657973811,0.00197799835673593,0.0025514674867852,0.0,0.0,0.10044144953294731, ,0.036930084228515625
0.00937424217697968,0.020030184101069007,-0.07665205647741238, ,0.009597863586008044,0.020061352768498693,-0.0770623553309374, ,0.00046831951657935115, ,0.002286715758270391,0.0028315124016092276,-0.012812007674601177,0.3591820381008402,-0.02620828579172239,-0.010710405272369092, ,0.013318936597702852, ,0.36013693283694465, ,3.617786416289219e-05, ,0.13865394602382686,-0.2532438564115701,0.08636272867000001,1.6058055872044876,0.144561416751836,-1.38414565050995, ,0.0035559270074857307,0.006373090552824537,0.013262957135720236,0.0,-0.024380391564828536,-0.36551495540233825, ,0.07265496253967285
0.009504329828796124,0.020113253772208416,-0.07707089493846506, ,0.009702167969005616,0.020086162127930393,-0.07747248848284363, ,0.00044849889832393637, ,0.003895107603650007,0.0023034646728052077,-0.012801663414221835,-0.0054959499186108575,-0.1613004523811714,-0.041663280484394424, ,0.013577937947784986, ,0.16139405521907468, ,3.8887872184611394e-05, ,0.1388547370785567,-0.2529195016308527,0.08679439324,1.6058055872044876,0.13841277426239118,-1.392608836966804, ,0.00854711882879989,0.012777291175235057,0.013164307041322315,0.0,-0.15787671092662156,-0.007166420096842208, ,0.10757088661193848
0.009579651005766932,0.02016523180377222,-0.07749835280385015, ,0.009806732991445308,0.020110524537576183,-0.077879847476315, ,0.00044732236509406446, ,0.0012200644176103453,0.0008618122495079425,-0.010286153675828748,0.00648851603494464,0.09703769373987559,0.024625026370426538, ,0.010394048055463572, ,0.09725438155445404, ,4.027938750003878e-05, ,0.13920998279077101,-0.2521935647406756,0.08722865039000001,1.6058055872044876,0.1397791392600456,-1.389884115217162, ,0.009939871870919803,0.02208960464582653,0.01037032,0.0,0.1105047401692682,-0.028358302869177197, ,0.14333295822143555
0.009649995661983907,0.02018977538638605,-0.07783971873148429, ,0.009911552350952927,0.020134443491730415,-0.07828443887139222, ,0.000518892592884449, ,0.0028169259001679277,0.001132360724076934,-0.01273461152505872,0.05041505274917883,-0.006730122769875416,-0.0022636160015487034, ,0.013091510341844722, ,0.050862282305159864, ,4.3345624860511335e-05, ,0.13958839670160803,-0.2514135687203789,0.08757216724000001,1.6058055872044876,0.14059895825863825,-1.3903892651590593, ,0.013803191499413931,0.026374914274171976,0.012866568271405495,0.0,0.007204777204765106,-0.07653404631076913, ,0.17534899711608887
0.00974467373948188,0.020223818316468762,-0.07824662175037247, ,0.0100166197904412,0.020157922480224043,-0.07868626924897429, ,0.0005211399417561382, ,0.0030540157161223634,0.00107531591288725,-0.01334331285546778,-0.01940623303185024,-0.011344775313906033,-0.0030616725892692936, ,0.013730524908601369, ,0.02247899874173529, ,4.552944682737027e-05, ,0.14005948340693572,-0.2505486226384658,0.08798309117000001,1.6058055872044876,0.14059895825863825,-1.3914510887808866, ,0.015181081676287116,0.02870445903160036,0.013464760371935757,0.0,0.003951487332490397,-0.009016973978063668, ,0.2078690528869629
0.00986187108689502,0.02026001676745597,-0.0787488594669638, ,0.010121929097988024,0.020180964988407556,-0.07908534521070587, ,0.00043255289693402684, ,0.002671628467206214,0.000643581119136595,-0.011492676611806918,0.017339485340452262,0.020476799001063736,0.005611859231877193, ,0.01181665820049262, ,0.02683201164105335, ,4.585970589240932e-05, ,0.14073136116699325,-0.249421103638829,0.08848994056000001,1.6058055872044876,0.14141877725723084,-1.3924463111636274, ,0.017457126850344146,0.027894456660338265,0.011576171162790699,0.0,0.03911306828177528,-0.04495670140437257, ,0.24119806289672852
0.009917243263392104,0.020271325559302743,-0.07896009501209678, ,0.010227474106714372,0.020203574497135772,-0.07948167337886465, ,0.0006106368603789341, ,0.002963797023348602,0.0007494994253137868,-0.011997030695008005,-0.01617039132879862,0.0026147334791485526,0.001317816858875621, ,0.012380411450396953, ,0.016380419358770125, ,4.839687906352791e-05, ,0.14104799321483644,-0.24890368053625594,0.08870253212000001,1.6058055872044876,0.14141877725723084,-1.3926096686439084, ,0.018099740903770888,0.028051120768096596,0.01210396012158055,0.0,0.021372644878531785,-0.011601347290480181, ,0.2735888957977295
0.010058930346219066,0.02030989621409885,-0.0795042366955882, ,0.010333248694662553,0.02022575448275068,-0.07987526039624929, ,0.00046902982175899536, ,0.0031514031947284566,0.0010691343846961768,-0.012559197352423676,0.026248762147913243,0.0038580674279880297,0.0020758282700217225, ,0.012992606688629125, ,0.02653077243703688, ,4.878145274384107e-05, ,0.14193610749537228,-0.2476912114750027,0.08925345537000001,1.6058055872044876,0.1422385962558235,-1.3939316059872113, ,0.01945805650163436,0.025675579425993175,0.012753251817453966,0.0,0.024002854012569522,-0.051666963954065004, ,0.30608296394348145
0.010128691770678192,0.02033659640837881,-0.079772950259708, ,0.010439246784674198,0.020247508417065307,-0.08026611292606647, ,0.0005895680642675054, ,0.003572729785304319,0.0015132597703459382,-0.01419887594663886,0.003578009493086719,-0.007103127443406642,-0.0002969245040447941, ,0.014719457578300489, ,0.007953363708832852, ,5.087952055770188e-05, ,0.14232224413908348,-0.24718923383817812,0.08952697256000001,1.6058055872044876,0.1422385962558235,-1.3940949634674926, ,0.02047840775970453,0.02524526245237318,0.014480737745454548,0.0,0.013770920476092484,-0.028568791599975954, ,0.33513689041137695
0.010234793208261195,0.020368198209338002,-0.08016951687427532, ,0.010545462344268406,0.020268839767347287,-0.08065423765181887, ,0.0005842445072439397, ,0.0035082524493777493,0.0009435525258990271,-0.012912749287466926,0.0011884613577189554,-0.00033843880837619117,0.0015927530847379796, ,0.013414068017520748, ,0.0012355655492576301, ,5.259998990510309e-05, ,0.1430172900977637,-0.24636290142063608,0.08993011875000001,1.6055958972610032,0.14305841525441615,-1.395171864590374, ,0.02276798022036247,0.027886259641043427,0.013110132938271608,0.0,0.023101127689502256,-0.02879727903909428, ,0.363523006439209
0.010350178922290756,0.020409077211208698,-0.08060470281447349, ,0.010651889385519907,0.020289751996302025,-0.08103964127719164, ,0.0005426224994285634, ,0.0038718544175530526,0.001429104221592634,-0.015367442634714956,0.0027022020765534206,-0.005013184320909126,-6.8197189487621e-06, ,0.015912004544938827, ,0.005695002725574419, ,5.369749062751515e-05, ,0.14370461332356968,-0.24552884627021984,0.09037344993,1.6060152771479719,0.14346832475371246,-1.3959145120021659, ,0.02201274450440055,0.02917213082031072,0.015631807183513247,0.0,0.01750516846366572,-0.03157285387435331, ,0.3930480480194092
0.010442669555486691,0.02043271579758414,-0.08093543853360782, ,0.010758521964936988,0.02031024856205637,-0.08142233052594146, ,0.0005931481944101231, ,0.003715183995992648,0.0006468871971854967,-0.012942035254373981,0.005967711767851414,-0.0013926349135824116,0.0013437749553551408, ,0.013480257107912348, ,0.006128021920477078, ,5.507201389970004e-05, ,0.14427609555626228,-0.24481835484579118,0.09070918904000001,1.6060152771479719,0.14374159775324336,-1.396464062770121, ,0.024926961270940576,0.03098169819081645,0.01309935157894737,0.0,0.024238335337714408,-0.036627338522478056, ,0.42215394973754883
0.01056291465250556,0.020452547620865156,-0.08133064372509047, ,0.010865354183339926,0.020330332918141528,-0.08180231214178234, ,0.0005734781588497958, ,0.004005467140574876,0.0007036018678145603,-0.01382530375949644,-0.0121306361774005,-0.016804162054327783,-0.002755502659384468, ,0.014411032115881347, ,0.02072514635222562, ,5.656387153106429e-05, ,0.14507925977518163,-0.24387618143513579,0.09110974265,1.6060152771479719,0.1441515072525397,-1.397043352701632, ,0.024868171267943072,0.032599430284600064,0.01398490914837577,0.0,0.008296981004051598,-0.020126806841314834, ,0.44709110260009766
0.010644858088655987,0.020468619391345793,-0.08162272334007324, ,0.010972380185738893,0.020350008513476705,-0.08217959288827445, ,0.0006568431762150522, ,0.004163209510015075,0.0009758611737780258,-0.014769935202375444,-0.018448117553754355,-0.004846956808839712,0.0007275628694029018, ,0.015376462673096721, ,0.019074205846767445, ,5.852549615886581e-05, ,0.14558123741200624,-0.24320430367507825,0.09140529677,1.6060152771479719,0.14442478025207056,-1.3973478672491657, ,0.026448422953865878,0.03202731743451596,0.014998880903954804,0.0,0.022258824167493516,-0.013242121335284716, ,0.47206687927246094
0.010779422729430199,0.020502292159614702,-0.08209468142047155, ,0.011079594161212373,0.020369278792351744,-0.08255417954871085, ,0.0005647423963049067, ,0.004376880914591961,0.0010638083584104776,-0.01513518577082706,-0.025067778648365395,-0.01603494239427404,-0.0019472304399699172, ,0.01579121980979903, ,0.0297575555067089, ,5.963309561024328e-05, ,0.1463921243637998,-0.2422157938671775,0.09188492407000001,1.6060152771479719,0.14469805325160143,-1.3975707030565583, ,0.026844962251335442,0.03173810754463906,0.015390156057971019,0.0,0.011137033294263627,-0.006332328163617901, ,0.49773406982421875
0.010864914730947448,0.02052048141123573,-0.08239621166783186, ,0.011186990342785273,0.020388147194410657,-0.08292607892600552, ,0.0006340381344744916, ,0.004162837830831845,0.0008288888669418427,-0.014954893526226571,-0.012764757030890868,0.0007986111469183282,0.0017498806238809429, ,0.015545581878473328, ,0.01278968544553676, ,6.110660897896973e-05, ,0.1469249929321213,-0.24155163883999423,0.09219084851,1.6060152771479719,0.14510796275089774,-1.397823278027507, ,0.02622186834995048,0.033651397715769776,0.015155862530922933,0.0,0.02782962786709021,-0.02052876873446075, ,0.5228118896484375
0.01099631754342845,0.02054646404971832,-0.08283406298389007, ,0.011294563007307195,0.020406617154634554,-0.08329529784258043, ,0.0005667848848195708, ,0.004186986547210261,0.0007416968234809254,-0.013889060178654739,-0.02731485519396849,-0.025096747401356014,-0.0046117713493699485, ,0.01452539029323392, ,0.037093766693950106, ,6.200945717355923e-05, ,0.14772815715104065,-0.24058629723071615,0.09263547598,1.6062249670914566,0.14524459925066321,-1.3976896597107817, ,0.025098371213560112,0.03128814426589871,0.01408382981432361,0.0,0.0,-0.003632488345571408, ,0.5485448837280273
0.011074200236075775,0.020560431746078384,-0.0831088806354133, ,0.011402306475330755,0.020424692103324652,-0.08366184314025307, ,0.0006571502770383888, ,0.0040866248523405615,0.0010115268152725723,-0.014948555839608808,0.0013578537706626878,0.008095476693564228,0.0036889410943105245, ,0.01553006796094871, ,0.008208517729549834, ,6.37912917610407e-05, ,0.14823785752073945,-0.23996075586790397,0.09291417833000001,1.6062249670914566,0.1459277817494904,-1.3982467492292638, ,0.02559939076300803,0.031022210381978024,0.015199247633587787,0.0,0.034693512317710694,-0.0320415708906264, ,0.5740029811859131
0.011214623986296697,0.02059307439201561,-0.08357746835539175, ,0.01151021511098994,0.020442375466085086,-0.0840257216801247, ,0.0005576874773636048, ,0.004780453863842597,0.0012527404688554614,-0.01681128622041075,-0.03286954971728713,-0.02188407668876075,-0.003662241970800795, ,0.017522598043989028, ,0.03948821049828979, ,6.484514553692841e-05, ,0.1490641899382815,-0.23900313699150014,0.09339121305,1.6062249670914566,0.1459277817494904,-1.3980833917489828, ,0.027020769236466628,0.0331807487966681,0.017109357164339423,0.0,0.005290324040824195,5.620077349519385e-05, ,0.5957269668579102
0.01129093918816627,0.02061834371251175,-0.08386302976820768, ,0.011618283321878378,0.020459670663806166,-0.08438694034246721, ,0.0006378194165139583, ,0.004390686184390372,0.0013257949088316275,-0.016170668252448304,-0.003477354061754709,0.014196314692613902,0.005656895583711584, ,0.016808520727322196, ,0.014615958279089725, ,6.629135799793066e-05, ,0.14952755391073497,-0.2384857138889271,0.09368287830000001,1.6062249670914566,0.1466109642483176,-1.3984771237871836, ,0.027395190981082788,0.03041568639694576,0.016506540435233162,0.0,0.04281726732220783,-0.02660515583649879, ,0.6177430152893066
0.011397245558350338,0.020648129097236737,-0.08422886043562826, ,0.011726505558927926,0.020476581112647017,-0.08474550602661081, ,0.0006362102841662157, ,0.004768498047276763,0.0010704929577427405,-0.015435777931992977,-0.04545960331226983,-0.02831630155461787,-0.00463010312288802, ,0.01619097801756461, ,0.05355732994429029, ,6.763103292028254e-05, ,0.1501376498077987,-0.2377983906631211,0.09405620982000001,1.6062249670914566,0.14674760074808305,-1.3981801479901774, ,0.02831054342436479,0.031032354989689596,0.015739932332015812,0.0,0.0,0.014776369613153841, ,0.6401069164276123
0.011489428807648139,0.02066666443038989,-0.08455267074051855, ,0.0118348763162869,0.020493110224018382,-0.08510142565083181, ,0.0006712577711780284, ,0.004678954154832589,0.0007916676150933888,-0.01633889293821879,-0.016963931438199097,0.016349728181529136,0.0021743160910404464, ,0.01701407570344004, ,0.0235602932286608, ,6.945126574310558e-05, ,0.15072457750623974,-0.2371033447044409,0.09438546748000001,1.606434657034941,0.1475674197466757,-1.398440261711653, ,0.03044496039732781,0.03645675818612016,0.016592512,0.0037001744237745754,0.04727216607113279,-0.018540449367021004, ,0.6578700542449951
0.011541335472284272,0.02067932757661403,-0.0847267260144221, ,0.011943390131198751,0.020509261404565632,-0.0854547061522403, ,0.0008488377540424469, ,0.00516782203036878,0.0015388679444977146,-0.017774924339576077,-0.035827890746615666,-0.011065919224764591,-0.003718700117810311, ,0.01857477952401647, ,0.0374978739302968, ,7.211925204803599e-05, ,0.15126516880743548,-0.23652413973887407,0.09470305853000001,1.606434657034941,0.14770405624644115,-1.3983066433949278, ,0.03148538206983105,0.03487575948492127,0.019030838136200722,0.003514704749372639,0.013939926960352022,0.014955676507425245, ,0.6767680644989014
0.01170696576228111,0.02072853680574927,-0.08532104691746323, ,0.012052041583880476,0.020525038056151693,-0.08580535448666718, ,0.0006285243713083017, ,0.00570303168355277,0.001768712480915492,-0.021255760624917408,0.001758605610415729,0.013950340101650765,0.0022309389201324034, ,0.022078502530007378, ,0.014060595425110066, ,7.35074806027931e-05, ,0.1519679374989899,-0.23568236185558358,0.09516972293,1.606434657034941,0.14838723874526832,-1.3982103029922852, ,0.033065136431522923,0.03835769666874324,0.02170137809264305,0.0032988058423025165,0.047579850395056064,-0.039193762368554035, ,0.6957559585571289
0.011766654475123869,0.020746232595216463,-0.085540655312022, ,0.012160825297401246,0.020540443575839215,-0.08615337762855274, ,0.000757065647619724, ,0.0057523411951840965,0.0016172082939930302,-0.020380629394818012,-0.039764093786089964,0.004870859330961286,0.0005012568437515394, ,0.021238522698645776, ,0.040061264445028055, ,7.547479496948885e-05, ,0.15232318321120422,-0.2352807797461239,0.09539398110000001,1.606434657034941,0.14893378474433008,-1.3983292596465087, ,0.03413559048865855,0.03753834713547103,0.020821975843137257,0.0032080842167297808,0.03936858868322339,0.0031285760407773963, ,0.7135269641876221
0.011885214923965859,0.020766234026722997,-0.08590914224805249, ,0.01226973593756102,0.020555481355874008,-0.0864987825708333, ,0.0007348120905478382, ,0.006202049531883759,0.0006551512576494393,-0.0179477897949294,-0.07159734126807,-0.026305479195265772,-0.005967347757482377, ,0.019000468417628844, ,0.07627683560575005, ,7.723557386456469e-05, ,0.153072288300004,-0.23450078372582725,0.0957699052,1.606434657034941,0.1493436942436264,-1.3980100834364735, ,0.04057158681422436,0.04149407151660287,0.018287958117106776,0.003050802564550261,0.013957232676008397,0.031038225075221176, ,0.7315409183502197
0.01194533888204815,0.020775540587270772,-0.0860985170887417, ,0.012378768212769127,0.020570154783667364,-0.08684157632482961, ,0.0008844101658091745, ,0.005837898190503937,0.0009380824627207311,-0.018946079611286176,-0.01113229324715676,0.006663184044599877,0.0014274360157022386, ,0.019847291669815987, ,0.012973955965311555, ,8.001561188558361e-05, ,0.15346614767658945,-0.23409147888349333,0.09596305241000001,1.606434657034941,0.1497536037429227,-1.3980176221870007, ,0.0377024003013392,0.04078080857691052,0.019307650327272732,0.002976372572158847,0.04491844092371932,-0.028736740210340048, ,0.7464249134063721
0.012073793358774652,0.020801377195468627,-0.08651096569973118, ,0.012487916873923057,0.02058446724177876,-0.087181765920134, ,0.000817631426439251, ,0.006541017194424626,0.0014353106115644284,-0.02157958818366619,-0.045849996082565146,-0.017615777697342357,-0.00161265373252385, ,0.022594770383123026, ,0.04911754355602151, ,8.237375870500028e-05, ,0.15425386642976036,-0.2332651464659513,0.09638434666000001,1.6066443469784255,0.1503001497419845,-1.3980549001010836, ,0.03821866353542923,0.04187861498608596,0.022031551203319507,0.00013077013493662779,0.021159576358194827,0.00448652557276015, ,0.7615230083465576
0.012218251361850632,0.020833633653306444,-0.08698910681645736, ,0.012597176714287086,0.020598422107898844,-0.08751935840449866, ,0.0006928749096571824, ,0.007348581520160578,0.0019465947654594838,-0.024961140368958936,-0.02021489320151694,0.010604346668192044,0.00611485697996267, ,0.02609309123232108, ,0.022827272842918977, ,8.406389765773135e-05, ,0.15512653524454773,-0.2323461412539186,0.09687304799000002,1.6066443469784255,0.15111996874057715,-1.3983150138225593, ,0.04455255472228675,0.04486853028769304,0.02556791576243981,0.00015412746562964467,0.0566753740223267,-0.02409988111891377, ,0.7762579917907715
0.012291763076610299,0.020852171066011272,-0.08723207152955077, ,0.012706542569371187,0.020612022754831795,-0.08785436084372258, ,0.0007854662497585484, ,0.007506264587776901,0.0016269714598952621,-0.023262975006605933,-0.038659025766494624,-0.020118571319341458,-0.0007651584939499364, ,0.024498102994946355, ,0.04358061922846015, ,8.61150878820584e-05, ,0.15556673101837853,-0.2319059454800878,0.09712193567,1.6066443469784255,0.15152987823987346,-1.3983225525730862, ,0.045977200367476156,0.043751471442356284,0.023845526227544912,0.00016338149375960052,0.026547407825778926,-0.004544248837553767, ,0.7906661033630371
0.012368729136124858,0.020865944063571475,-0.0874586887498419, ,0.012816009316809743,0.020625272550477847,-0.08818678032153966, ,0.0008877497812027848, ,0.007876546231062822,0.0012339434189298066,-0.023238172470664783,-0.0728708149930239,-0.031940592421785464,-0.0035404729015950983, ,0.024567768654632692, ,0.07956349882599002, ,8.895024336654762e-05, ,0.15603009499083198,-0.23145802697338277,0.09735397158,1.6066443469784255,0.15152987823987346,-1.3979141588723834, ,0.04899170963266432,0.04778295143931056,0.023774345552238813,0.0001713842796788024,0.01749289937639353,0.025690412551569498, ,0.8012359142303467
0.012446920630811436,0.020881119809218304,-0.08770557370497362, ,0.012925571876240412,0.02063817485781653,-0.08851662393950664, ,0.0009725902256852042, ,0.008308130708561774,0.0018102931308310638,-0.02620725261090531,-0.05361144171482881,-0.010237325946096186,0.0017266473057580512, ,0.02755217389793198, ,0.05458000698731911, ,9.208686334692791e-05, ,0.15652434989478237,-0.23097149480230664,0.09760674813,1.6068540369219102,0.1520764242389352,-1.397951436786466, ,0.05074702757137475,0.04899170963266432,0.02686140222596965,0.00027452042448267383,0.04157726397233948,0.005258054542404175, ,0.8119559288024902
0.0126090314194551,0.020921900551617197,-0.08825133381416866, ,0.013035225209183054,0.020650733034888537,-0.08884389881689038, ,0.0007786566964857161, ,0.008018665416931098,0.0015600351021365065,-0.025414229061243007,-0.058447829528377127,0.004882742054112415,0.004981781291022241, ,0.026694863613922315, ,0.05865133710855117, ,9.429035504186182e-05, ,0.15755919609992844,-0.2299907077272801,0.09816674541,1.6068540369219102,0.1539893352356514,-1.3989395362572323, ,0.04976242347061919,0.04906770504574497,0.026027469803921573,0.00027452042448267383,0.056098091489016476,0.010021758553596466, ,0.8268799781799316
0.012695913965543704,0.020935920740697292,-0.08851898118123681, ,0.013144964318918638,0.02066295043477907,-0.08916861209055547, ,0.0008355712573571634, ,0.00911072154932474,0.0015398558584897367,-0.02808605387851743,-0.08663894715849761,-0.03921830440321384,-0.005897996716763283, ,0.029566921139700008, ,0.09510186690349359, ,9.668299656667384e-05, ,0.1580766192025015,-0.2294501164260844,0.09844026260000001,1.6068540369219102,0.15426260823518226,-1.398590620883641, ,0.05254537184854417,0.05578891332067653,0.0287005612972973,0.00027452042448267383,0.013638886244130951,0.03158525955734387, ,0.8376619815826416
0.012786759973597843,0.020954059404266773,-0.08880520284879997, ,0.013254784250368268,0.020674830405599674,-0.08949077091485268, ,0.0008757962836952172, ,0.009488047720449679,0.001861085251146717,-0.028941864927261973,-0.11135294904903889,-0.03728889421346385,-0.004590209480147736, ,0.03051423001364188, ,0.11743049257836863, ,9.918619013075587e-05, ,0.15850909224345805,-0.2290021979193794,0.09868526141000002,1.6068540369219102,0.1543992447349477,-1.398211966346494, ,0.05379645213065237,0.054041538472933255,0.02949779911111111,0.00027452042448267383,0.007130224217949031,0.07505407702520872, ,0.8518130779266357
0.012876558342623275,0.020972870928935333,-0.0890919872109805, ,0.013364680089972047,0.02068637629047161,-0.08981038246150644, ,0.0009145675229754832, ,0.008768056260832097,0.001835982400870374,-0.02777760679215183,0.004478831547601011,0.0421610439571048,0.015005540904613847, ,0.02918638520044615, ,0.04239807804514277, ,0.00010222091531174729, ,0.15916552453776714,-0.2283766565565672,0.09902748197000001,1.6068540369219102,0.15535570023330578,-1.3983384617512447, ,0.057478462482417184,0.05140679391033087,0.028546257204301078,0.00027452042448267383,0.10227910763698683,-0.055220683770923915, ,0.8593308925628662
0.012969529694509499,0.02098927872955567,-0.08937881688137839, ,0.013474646965568349,0.020697591427507694,-0.09012745391950178, ,0.0012270615751699188, ,0.009854276458934018,0.0013213533516554094,-0.029954363308149382,-0.06550122378855383,-0.002324027060435634,0.003627621973700772, ,0.02918638520044615, ,0.04239807804514277, ,0.00010651763692748857, ,0.15976017496908243,-0.22782061978962304,0.0993217398,1.6068540369219102,0.15617551923189843,-1.3985168967325798, ,0.06094858160466973,0.06198363263126765,0.030632329846153848,0.00027452042448267383,0.06015699366460138,0.004330460642952158, ,0.8670730590820312
0.012969529694509499,0.02098927872955567,-0.08937881688137839, ,0.013584680046272642,0.020708479149795574,-0.09044199249497353, ,0.0012600002954805927, ,0.009854276458934018,0.0013213533516554094,-0.029954363308149382,-0.06550122378855383,-0.002324027060435634,0.003627621973700772, ,0.03156131525151697, ,0.06554225586476997, ,0.00011087999118426197, ,0.15976017496908243,-0.22782061978962304,0.0993217398,1.6068540369219102,0.15617551923189843,-1.3985168967325798, ,0.06094858160466973,0.06198363263126765,0.030632329846153848,0.00027452042448267383,0.06015699366460138,0.004330460642952158, ,0.8742148876190186
0.013076086097378889,0.021008350492993832,-0.08971443531142823, ,0.01369477454235683,0.020719042785379678,-0.09075400541109258, ,0.001243857039112745, ,0.011285567854237975,0.0026115938848414685,-0.03581061565571169,-0.08139438249415987,-0.0003904771926030024,0.0021331075069943558, ,0.03763754319895301, ,0.08139495734802232, ,0.00011510353274105627, ,0.1603857163318946,-0.22717191022818817,0.09966525665,1.6070637268653947,0.1567220652309602,-1.3983908171663815, ,0.06645444086727646,0.06263824525311602,0.036787093579676675,0.003294133794873645,0.06709408726300743,0.02006248745852507, ,0.8812530040740967
0.013076086097378889,0.021008350492993832,-0.08971443531142823, ,0.013804925705128172,0.020729285657244443,-0.0910634999079548, ,0.0015585440776498347, ,0.011994072714904106,0.0034830006717774765,-0.04001160698010755,-0.03563601927878569,0.013205020999251603,0.0030269663160279966, ,0.04191560290751644, ,0.03800257755696406, ,0.00012054753688928464, ,0.1609803667632099,-0.226615873461244,0.10001525495000001,1.6072734168088794,0.1574052477297874,-1.3984578342440201, ,0.06768683420718315,0.06343378446421843,0.041159719689922485,0.005606248966145873,0.08177282945390008,-0.026101371100014654, ,0.8904500007629395
0.01331948811320462,0.021077981379051827,-0.09052348754058683, ,0.013915128826808735,0.02073921108329604,-0.09137048324246852, ,0.0010894745944698971, ,0.012432559461340963,0.0036213014611761636,-0.04211601112465257,-0.08325998008124769,0.00402518987475455,0.019592295886620335, ,0.04406178335115766, ,0.0833564270495686, ,0.0001239962341278673, ,0.16176036278350658,-0.22587449110531846,0.10049747483000002,1.607692796695848,0.1583617032281455,-1.3985843296487706, ,0.06749426853376299,0.06617638881343847,0.043284813913043486,-0.013393754423887804,0.07651053462938828,0.01587268509974782, ,0.8976860046386719
0.01331948811320462,0.021077981379051827,-0.09052348754058683, ,0.014025379240414321,0.020748822376345923,-0.09167496268824218, ,0.0013901521313164466, ,0.012432559461340963,0.0036213014611761636,-0.04211601112465257,-0.08325998008124769,0.00402518987475455,0.019592295886620335, ,0.04406178335115766, ,0.0833564270495686, ,0.00012912237136344858, ,0.16176036278350658,-0.22587449110531846,0.10049747483000002,1.607692796695848,0.1583617032281455,-1.3985843296487706, ,0.06749426853376299,0.06617638881343847,0.043284813913043486,-0.013393754423887804,0.07651053462938828,0.01587268509974782, ,0.9012970924377441
0.01331948811320462,0.021077981379051827,-0.09052348754058683, ,0.014135672319633997,0.020758122844092543,-0.09197694553547192, ,0.0016973527282525735, ,0.012432559461340963,0.0036213014611761636,-0.04211601112465257,-0.08325998008124769,0.00402518987475455,0.019592295886620335, ,0.04406178335115766, ,0.0833564270495686, ,0.00013544588086703376, ,0.16176036278350658,-0.22587449110531846,0.10049747483000002,1.607692796695848,0.1583617032281455,-1.3985843296487706, ,0.06749426853376299,0.06617638881343847,0.043284813913043486,-0.013393754423887804,0.07651053462938828,0.01587268509974782, ,0.9048891067504883
0.0134443893816752,0.021110905459330784,-0.0909411059462327, ,0.01424600347870912,0.02076711578910435,-0.09227643909083015, ,0.0015949580260867149, ,0.014344863112309331,0.003889730257725356,-0.047973683840521905,-0.03791225881929005,0.021528816930090164,0.024629764773301588, ,0.05022329579407458, ,0.04359558717281267, ,0.0007649029669806759, ,0.162463131475061,-0.22518716787951248,0.10092654682,1.607692796695848,0.15931815872650357,-1.3987108250535214, ,0.08008180722233821,0.0772776397055951,0.04931520594427245,-0.013393754423887804,0.10738710348786498,-0.040426384336926136, ,0.9084749221801758
0.0134443893816752,0.021110905459330784,-0.0909411059462327, ,0.014356368172312721,0.020775804508802197,-0.09257345067735227, ,0.0018996176675404128, ,0.014344863112309331,0.003889730257725356,-0.047973683840521905,-0.03791225881929005,0.021528816930090164,0.024629764773301588, ,0.05022329579407458, ,0.04359558717281267, ,0.000789045832950032, ,0.162463131475061,-0.22518716787951248,0.10092654682,1.607692796695848,0.15931815872650357,-1.3987108250535214, ,0.08008180722233821,0.0772776397055951,0.04931520594427245,-0.013393754423887804,0.10738710348786498,-0.040426384336926136, ,0.9120869636535645
0.0134443893816752,0.021110905459330784,-0.0909411059462327, ,0.014466761895428934,0.020784192295442032,-0.09286798763432545, ,0.0022056427834634767, ,0.014344863112309331,0.003889730257725356,-0.047973683840521905,-0.03791225881929005,0.021528816930090164,0.024629764773301588, ,0.05022329579407458, ,0.04359558717281267, ,0.0008185582694190621, ,0.162463131475061,-0.22518716787951248,0.10092654682,1.607692796695848,0.15931815872650357,-1.3987108250535214, ,0.08008180722233821,0.0772776397055951,0.04931520594427245,-0.013393754423887804,0.10738710348786498,-0.040426384336926136, ,0.9157021045684814
0.013607178006123957,0.021163010231551815,-0.09150662059121402, ,0.014577180183232237,0.02079228243609738,-0.09316005731717612, ,0.0019524846551708397, ,0.018088272500809223,0.0066977135227870455,-0.06408147288795006,-0.020136402529974555,0.05741635060805941,0.03488389297321105, ,0.06692144750366608, ,0.06083610301711256, ,0.0008416996242303228, ,0.1633435230227226,-0.224345389996222,0.10150858103000002,1.607692796695848,0.16068452372415798,-1.3990082166890798, ,0.09585549652370785,0.08634844545811718,0.06609465360995852,-0.013393754423887804,0.1603707827750655,-0.0671472588585282, ,0.9193201065063477
0.013607178006123957,0.021163010231551815,-0.09150662059121402, ,0.014687618610966843,0.02080007821264176,-0.09344966709735743, ,0.0022526653715053855, ,0.018088272500809223,0.0066977135227870455,-0.06408147288795006,-0.020136402529974555,0.05741635060805941,0.03488389297321105, ,0.06692144750366608, ,0.06083610301711256, ,0.000869918939175824, ,0.1633435230227226,-0.224345389996222,0.10150858103000002,1.607692796695848,0.16068452372415798,-1.3990082166890798, ,0.09585549652370785,0.08634844545811718,0.06609465360995852,-0.013393754423887804,0.1603707827750655,-0.0671472588585282, ,0.9230039119720459
0.013607178006123957,0.021163010231551815,-0.09150662059121402, ,0.014798072793826203,0.020807582901731587,-0.0937368243622379, ,0.002553109445842201, ,0.018088272500809223,0.0066977135227870455,-0.06408147288795006,-0.020136402529974555,0.05741635060805941,0.03488389297321105, ,0.06692144750366608, ,0.06083610301711256, ,0.000902922674600655, ,0.1633435230227226,-0.224345389996222,0.10150858103000002,1.607692796695848,0.16068452372415798,-1.3990082166890798, ,0.09585549652370785,0.08634844545811718,0.06609465360995852,-0.013393754423887804,0.1603707827750655,-0.0671472588585282, ,0.926692008972168
0.013784063088025603,0.02123483551468982,-0.09214829087785231, ,0.014908538386832397,0.020814799774788326,-0.09402153651498851, ,0.0022248424522808424, ,0.020456649497988345,0.008801413145623691,-0.07522007429939359,-0.06173343259446244,0.07943718277317259,0.04078117329411393, ,0.07844742799894587, ,0.1005926172171233, ,0.0009283442087868124, ,0.1642548055018811,-0.22353450304442843,0.10217098522000001,1.607692796695848,0.16232416172134326,-1.3993650866517502, ,0.10292509930419824,0.0902062182114741,0.0777015196097561,-0.013393754423887804,0.19017983069395106,-0.029362619229473266, ,0.9304220676422119
0.013784063088025603,0.02123483551468982,-0.09214829087785231, ,0.015019011084715561,0.020821732097981462,-0.09430381097447085, ,0.0025183363306657556, ,0.020456649497988345,0.008801413145623691,-0.07522007429939359,-0.06173343259446244,0.07943718277317259,0.04078117329411393, ,0.07844742799894587, ,0.1005926172171233, ,0.0009583440601430188, ,0.1642548055018811,-0.22353450304442843,0.10217098522000001,1.607692796695848,0.16232416172134326,-1.3993650866517502, ,0.10292509930419824,0.0902062182114741,0.0777015196097561,-0.013393754423887804,0.19017983069395106,-0.029362619229473266, ,0.9340300559997559
0.014021386766556647,0.021339553076941617,-0.09301163420361104, ,0.015129486621793337,0.020828383132210672,-0.09458365517512458, ,0.0019900828968789706, ,0.022915123034474596,0.009844834031950533,-0.08327178339591834,-0.09122120688002741,0.09223547066764222,0.01417195294769007, ,0.08692648348310485, ,0.12971000993611223, ,0.0009774503348973884, ,0.1654518290973859,-0.22254599323652768,0.10306412903,1.6074831067523636,0.1645103457175903,-1.3995141983080814, ,0.11433366452827805,0.09763059831118392,0.0861016838918919,0.01691447730533863,0.20810260716747855,-0.0023902582750891382, ,0.9376530647277832
0.014021386766556647,0.021339553076941617,-0.09301163420361104, ,0.01523996077185049,0.02083475613308868,-0.09486107656685634, ,0.0022716028737143983, ,0.022915123034474596,0.009844834031950533,-0.08327178339591834,-0.09122120688002741,0.09223547066764222,0.01417195294769007, ,0.08692648348310485, ,0.12971000993611223, ,0.0010009803810576976, ,0.1654518290973859,-0.22254599323652768,0.10306412903,1.6074831067523636,0.1645103457175903,-1.3995141983080814, ,0.11433366452827805,0.09763059831118392,0.0861016838918919,0.01691447730533863,0.20810260716747855,-0.0023902582750891382, ,0.9414129257202148
0.014021386766556647,0.021339553076941617,-0.09301163420361104, ,0.015350429348018387,0.02084085435092377,-0.09513608261492612, ,0.002555060792820687, ,0.022915123034474596,0.009844834031950533,-0.08327178339591834,-0.09122120688002741,0.09223547066764222,0.01417195294769007, ,0.08692648348310485, ,0.12971000993611223, ,0.0010287318169820367, ,0.1654518290973859,-0.22254599323652768,0.10306412903,1.6074831067523636,0.1645103457175903,-1.3995141983080814, ,0.11433366452827805,0.09763059831118392,0.0861016838918919,0.01691447730533863,0.20810260716747855,-0.0023902582750891382, ,0.9449939727783203
0.01426077270747858,0.021435396884787992,-0.09387124785715145, ,0.015460888202654507,0.020846681030702276,-0.09540868079983657, ,0.002037293207141929, ,0.025507048180311322,0.00967330105596671,-0.090755595642998,-0.12240789279537623,0.08623331735026075,0.021985874995523978, ,0.09476687396293837, ,0.1497121246578026, ,0.0010464258764585261, ,0.16664112996001648,-0.22148797883275895,0.10395208768000001,1.607692796695848,0.1665598932140719,-1.3993068558402948, ,0.12686756892843687,0.11502659582844943,0.09369889129411767,0.007544033182316202,0.21689566065336935,0.010187348754484696, ,0.9485650062561035
0.01426077270747858,0.021435396884787992,-0.09387124785715145, ,0.015571333227222046,0.02085223941207118,-0.09567887861721937, ,0.0023076330901249083, ,0.025507048180311322,0.00967330105596671,-0.090755595642998,-0.12240789279537623,0.08623331735026075,0.021985874995523978, ,0.09476687396293837, ,0.1497121246578026, ,0.0010681708284182912, ,0.16664112996001648,-0.22148797883275895,0.10395208768000001,1.607692796695848,0.1665598932140719,-1.3993068558402948, ,0.12686756892843687,0.11502659582844943,0.09369889129411767,0.007544033182316202,0.21689566065336935,0.010187348754484696, ,0.9521489143371582
0.01426077270747858,0.021435396884787992,-0.09387124785715145, ,0.015681760352169505,0.020857532729320737,-0.09594668357772487, ,0.0025808072959386677, ,0.025507048180311322,0.00967330105596671,-0.090755595642998,-0.12240789279537623,0.08623331735026075,0.021985874995523978, ,0.09476687396293837, ,0.1497121246578026, ,0.0010938087346474502, ,0.16664112996001648,-0.22148797883275895,0.10395208768000001,1.607692796695848,0.1665598932140719,-1.3993068558402948, ,0.12686756892843687,0.11502659582844943,0.09369889129411767,0.007544033182316202,0.21689566065336935,0.010187348754484696, ,0.955712080001831
0.01426077270747858,0.021435396884787992,-0.09387124785715145, ,0.015792165546810236,0.020862564211366938,-0.0962121032069079, ,0.002855329239961369, ,0.025507048180311322,0.00967330105596671,-0.090755595642998,-0.12240789279537623,0.08623331735026075,0.021985874995523978, ,0.09476687396293837, ,0.1497121246578026, ,0.0011231674097360157, ,0.16664112996001648,-0.22148797883275895,0.10395208768000001,1.607692796695848,0.1665598932140719,-1.3993068558402948, ,0.12686756892843687,0.11502659582844943,0.09369889129411767,0.007544033182316202,0.21689566065336935,0.010187348754484696, ,0.9594540596008301
0.01450857763859428,0.021522995615452824,-0.09472061916943236, ,0.01590254481920219,0.020867337081734442,-0.0964751450451173, ,0.0023348219764893615, ,0.02734044700472705,0.009163290535917272,-0.09115953087324932,-0.0849765952800452,0.05747812592849372,0.007292867802222674, ,0.09561132780635784, ,0.10255955095919271, ,0.0011430305993549229, ,0.16789993541851506,-0.22038362803174483,0.10482967601000001,1.6081121765828172,0.16847280421078806,-1.3993964891695148, ,0.14100585669906504,0.11966827434863908,0.09425332260355031,0.017468348025297644,0.1996057199347828,-0.030105584662033835, ,0.9632830619812012
0.01450857763859428,0.021522995615452824,-0.09472061916943236, ,0.016012894216027442,0.020871854558538714,-0.09673581664738291, ,0.0025976862620951183, ,0.02734044700472705,0.009163290535917272,-0.09115953087324932,-0.0849765952800452,0.05747812592849372,0.007292867802222674, ,0.09561132780635784, ,0.10255955095919271, ,0.0011664927874636356, ,0.16956032298647333,-0.21898581338151019,0.10583041189000002,1.608321866526302,0.17052235170726968,-1.4000059341031337, ,0.15531414330355284,0.13071204071414708,0.0833969189528796,0.036909957731190726,0.16785585477061593,-0.06784643712257754, ,0.9669079780578613
0.01481708459849301,0.02160675059875514,-0.09568864161715654, ,0.01612320982247187,0.02087611985446887,-0.09699412558330403, ,0.0019859689753564443, ,0.027548290533483726,0.005516725235721883,-0.08069998246646405,-0.0548541983715719,0.016488576784605222,-0.020928581298286033, ,0.08545074451829712, ,0.05724887384254455, ,0.0011795003460016167, ,0.16956032298647333,-0.21898581338151019,0.10583041189000002,1.608321866526302,0.17052235170726968,-1.4000059341031337, ,0.15531414330355284,0.13071204071414708,0.0833969189528796,0.036909957731190726,0.16785585477061593,-0.06784643712257754, ,0.9706718921661377
0.01481708459849301,0.02160675059875514,-0.09568864161715654, ,0.016233487762104797,0.020880136176770116,-0.09725007943693646, ,0.0022298552655195336, ,0.027548290533483726,0.005516725235721883,-0.08069998246646405,-0.0548541983715719,0.016488576784605222,-0.020928581298286033, ,0.08545074451829712, ,0.05724887384254455, ,0.0011959121416190842, ,0.16956032298647333,-0.21898581338151019,0.10583041189000002,1.608321866526302,0.17052235170726968,-1.4000059341031337, ,0.15531414330355284,0.13071204071414708,0.0833969189528796,0.036909957731190726,0.16785585477061593,-0.06784643712257754, ,0.97428297996521
0.015107252723249143,0.021641788488069042,-0.09646249525562654, ,0.016343724196758776,0.02088390672722674,-0.09750368580668112, ,0.0017853078815223552, ,0.028522321926700792,0.0015166722486646147,-0.07007436527369731,-0.10197228418142887,-0.052952214117992086,-0.03349224588348251, ,0.07567192221234889, ,0.11489383827967423, ,0.001204979768386827, ,0.17129021515029963,-0.21756483053265288,0.10663022282000001,1.608321866526302,0.17202535320468954,-1.4005781011226697, ,0.17638836720905351,0.145102357123044,0.07240368872727274,0.03590396921266634,0.1185318918561614,-0.0350074678915058, ,0.9778790473937988
0.015107252723249143,0.021641788488069042,-0.09646249525562654, ,0.016453915326409323,0.020887434702144304,-0.09775495230517178, ,0.002013205162423424, ,0.028522321926700792,0.0015166722486646147,-0.07007436527369731,-0.10197228418142887,-0.052952214117992086,-0.03349224588348251, ,0.07567192221234889, ,0.11489383827967423, ,0.0012172256076904116, ,0.17129021515029963,-0.21756483053265288,0.10663022282000001,1.608321866526302,0.17202535320468954,-1.4005781011226697, ,0.17638836720905351,0.145102357123044,0.07240368872727274,0.03590396921266634,0.1185318918561614,-0.0350074678915058, ,0.9814679622650146
0.015107252723249143,0.021641788488069042,-0.09646249525562654, ,0.01656405738905433,0.020890723292332224,-0.09800388655916237, ,0.002249947980104166, ,0.028522321926700792,0.0015166722486646147,-0.07007436527369731,-0.10197228418142887,-0.052952214117992086,-0.03349224588348251, ,0.07567192221234889, ,0.11489383827967423, ,0.0012326393744428558, ,0.17129021515029963,-0.21756483053265288,0.10663022282000001,1.608321866526302,0.17202535320468954,-1.4005781011226697, ,0.17638836720905351,0.145102357123044,0.07240368872727274,0.03590396921266634,0.1185318918561614,-0.0350074678915058, ,0.9850499629974365
0.015387547499083783,0.021642212210443754,-0.09711134800513563, ,0.016674146660594122,0.020893775683086722,-0.09825049620941571, ,0.0018743407558914956, ,0.029411407574624786,-0.0006790628761022331,-0.0652646587813179,-0.09681121950046793,-0.060105675259823035,-0.026346155807860608, ,0.07158887977718503, ,0.11394700660489024, ,0.0012420761594641593, ,0.17307416644424548,-0.21609751128655022,0.10730040475000001,1.608321866526302,0.17311844520281303,-1.4008976931712573, ,0.19209907198071008,0.1545552794111902,0.06749496406779662,0.028649278366879347,0.12889451015440606,-0.05060912440911031, ,0.9887359142303467
0.015387547499083783,0.021642212210443754,-0.09711134800513563, ,0.016784179454711057,0.020896595054173295,-0.0984947889105906, ,0.002102482937407624, ,0.029411407574624786,-0.0006790628761022331,-0.0652646587813179,-0.09681121950046793,-0.060105675259823035,-0.026346155807860608, ,0.07158887977718503, ,0.11394700660489024, ,0.0012545458229126154, ,0.17307416644424548,-0.21609751128655022,0.10730040475000001,1.608321866526302,0.17311844520281303,-1.4008976931712573, ,0.19209907198071008,0.1545552794111902,0.06749496406779662,0.028649278366879347,0.12889451015440606,-0.05060912440911031, ,0.9927160739898682
0.015387547499083783,0.021642212210443754,-0.09711134800513563, ,0.016894152122749327,0.02089918457980931,-0.09873677233113015, ,0.0023375097414709066, ,0.029411407574624786,-0.0006790628761022331,-0.0652646587813179,-0.09681121950046793,-0.060105675259823035,-0.026346155807860608, ,0.07158887977718503, ,0.11394700660489024, ,0.0012700167360348766, ,0.17307416644424548,-0.21609751128655022,0.10730040475000001,1.608321866526302,0.17311844520281303,-1.4008976931712573, ,0.19209907198071008,0.1545552794111902,0.06749496406779662,0.028649278366879347,0.12889451015440606,-0.05060912440911031, ,0.9965460300445557
0.015500048849731716,0.021638767280503346,-0.09736694282505509, ,0.017004061053594578,0.020901547428646382,-0.09897645415314964, ,0.002322944798010726, ,0.02964075154946107,-0.0012978374520565697,-0.06358957726557599,-0.08665537614116202,-0.05471764266787463,-0.02237485339640614, ,0.07017045582924125, ,0.10247992428507773, ,0.0012848467087387616, ,0.17383871699879372,-0.2154874153894865,0.10756484791000001,1.608321866526302,0.17407490070117113,-1.4013509035365699, ,0.19729093879099954,0.15633763024459765,0.06582153520661158,0.026486415522397878,0.1401895920701477,-0.06285219513941884, ,1.0002200603485107
0.015500048849731716,0.021638767280503346,-0.09736694282505509, ,0.017113902673553873,0.02090368676375366,-0.09921384207232406, ,0.0025604500308213526, ,0.02964075154946107,-0.0012978374520565697,-0.06358957726557599,-0.08665537614116202,-0.05471764266787463,-0.02237485339640614, ,0.07017045582924125, ,0.10247992428507773, ,0.0013025634215454642, ,0.17383871699879372,-0.2154874153894865,0.10756484791000001,1.608321866526302,0.17407490070117113,-1.4013509035365699, ,0.19729093879099954,0.15633763024459765,0.06582153520661158,0.026486415522397878,0.1401895920701477,-0.06285219513941884, ,1.0038280487060547
0.015982964439124326,0.021585764523081707,-0.09832753949020362, ,0.017223673446235408,0.0209056057425997,-0.09944894379777613, ,0.0018054147523590056, ,0.028971320768727632,-0.004742246580571643,-0.053703195936988996,-0.1669770983738918,-0.09508073212817393,-0.026403418532445527, ,0.0612034278742791, ,0.1921490315331406, ,0.0013094517959401702, ,0.17703592840872265,-0.21288485441087285,0.10853836170000002,1.608321866526302,0.17585117519812185,-1.4016558339226557, ,0.19894537014354458,0.16532568215761462,0.05550108543554008,0.02034222066406032,0.10368903341600468,0.007412285793282972, ,1.0074470043182373
0.015982964439124326,0.021585764523081707,-0.09832753949020362, ,0.017333369872428134,0.02090730751703555,-0.09968176705196446, ,0.00202924395585703, ,0.028971320768727632,-0.004742246580571643,-0.053703195936988996,-0.1669770983738918,-0.09508073212817393,-0.026403418532445527, ,0.0612034278742791, ,0.1921490315331406, ,0.0013191787170201278, ,0.17703592840872265,-0.21288485441087285,0.10853836170000002,1.608321866526302,0.17585117519812185,-1.4016558339226557, ,0.19894537014354458,0.16532568215761462,0.05550108543554008,0.02034222066406032,0.10368903341600468,0.007412285793282972, ,1.0111560821533203
0.015982964439124326,0.021585764523081707,-0.09832753949020362, ,0.017442988489981916,0.02090879523327745,-0.09991231957057124, ,0.0022586468408210027, ,0.028971320768727632,-0.004742246580571643,-0.053703195936988996,-0.1669770983738918,-0.09508073212817393,-0.026403418532445527, ,0.0612034278742791, ,0.1921490315331406, ,0.0013317049586708061, ,0.17703592840872265,-0.21288485441087285,0.10853836170000002,1.608321866526302,0.17585117519812185,-1.4016558339226557, ,0.19894537014354458,0.16532568215761462,0.05550108543554008,0.02034222066406032,0.10368903341600468,0.007412285793282972, ,1.0148000717163086
0.016286541653661127,0.02152793832677221,-0.0988825158877646, ,0.017552525873686987,0.02091007203188909,-0.10014060910238964, ,0.0018887226742940982, ,0.03138004686226166,-0.005525258604500054,-0.05956577545083146,-0.16097471047722503,-0.07492967413363492,-0.015560727614395996, ,0.0675523310388562, ,0.17755721222303714, ,0.0013390341391395337, ,0.17914423448338596,-0.21110090311692697,0.10910872930000001,1.6087412464132707,0.1769442671962454,-1.4015670322705405, ,0.21421431503040805,0.18462439991920385,0.06102992919540231,0.013070345045909863,0.13298884874619205,-0.01064178473965409, ,1.0184390544891357
0.016286541653661127,0.02152793832677221,-0.0988825158877646, ,0.017661978635153952,0.02091114104776475,-0.10036664340921266, ,0.0021153960086396683, ,0.03138004686226166,-0.005525258604500054,-0.05956577545083146,-0.16097471047722503,-0.07492967413363492,-0.015560727614395996, ,0.0675523310388562, ,0.17755721222303714, ,0.0013491167608213536, ,0.17914423448338596,-0.21110090311692697,0.10910872930000001,1.6087412464132707,0.1769442671962454,-1.4015670322705405, ,0.21421431503040805,0.18462439991920385,0.06102992919540231,0.013070345045909863,0.13298884874619205,-0.01064178473965409, ,1.022028923034668
0.016286541653661127,0.02152793832677221,-0.0988825158877646, ,0.01777134342269365,0.020912005410111484,-0.10059043026571984, ,0.0023454170574920227, ,0.03138004686226166,-0.005525258604500054,-0.05956577545083146,-0.16097471047722503,-0.07492967413363492,-0.015560727614395996, ,0.0675523310388562, ,0.17755721222303714, ,0.0013618898415479006, ,0.17914423448338596,-0.21110090311692697,0.10910872930000001,1.6087412464132707,0.1769442671962454,-1.4015670322705405, ,0.21421431503040805,0.18462439991920385,0.06102992919540231,0.013070345045909863,0.13298884874619205,-0.01064178473965409, ,1.0255780220031738
0.01657336634404443,0.021491823577029206,-0.09944668676167882, ,0.017880616921196718,0.020912668242432108,-0.10081197745936607, ,0.00197695312596141, ,0.03329791239465235,-0.0029548399803060094,-0.06690842477543597,-0.11454840271457267,-0.032564242789718,-0.05589439251684289, ,0.0747945142044611, ,0.11908159198360667, ,0.0013696754527430083, ,0.1811444222978101,-0.20944823828184292,0.10971539302000001,1.6093703162437245,0.17844726869366523,-1.401812484329514, ,0.22120499197778737,0.1738039222682615,0.06955812890829695,0.06484657074413203,0.17921445294041616,-0.04489437476095423, ,1.0292010307312012
0.01657336634404443,0.021491823577029206,-0.09944668676167882, ,0.017989795852013834,0.02091313266250758,-0.10103129279026904, ,0.002202755545093639, ,0.03329791239465235,-0.0029548399803060094,-0.06690842477543597,-0.11454840271457267,-0.032564242789718,-0.05589439251684289, ,0.0747945142044611, ,0.11908159198360667, ,0.0013800889538973912, ,0.1811444222978101,-0.20944823828184292,0.10971539302000001,1.6093703162437245,0.17844726869366523,-1.401812484329514, ,0.22120499197778737,0.1738039222682615,0.06955812890829695,0.06484657074413203,0.17921445294041616,-0.04489437476095423, ,1.0347819328308105
0.01695067358090857,0.02145691560220366,-0.10018192516834983, ,0.018098876972835243,0.02091340178237997,-0.10124838407109697, ,0.0016586479110467958, ,0.03533115832318044,-0.0035483811018124237,-0.06543093691179114,-0.18693992948465832,-0.09381246542671422,-0.056145065808933144, ,0.07444520979926199, ,0.20915572341843103, ,0.0013835279533683715, ,0.18366203321480729,-0.20753300052903526,0.11048150041000002,1.609580006187209,0.1803601796903814,-1.4020654751390151, ,0.23606204367778796,0.17444290727660072,0.06836399793991417,0.054443475123012876,0.13399625035387341,0.02523036174752122, ,1.038701057434082
0.01695067358090857,0.02145691560220366,-0.10018192516834983, ,0.018207857077570815,0.02091347870833494,-0.101463259126957, ,0.0018755401129747998, ,0.03533115832318044,-0.0035483811018124237,-0.06543093691179114,-0.18693992948465832,-0.09381246542671422,-0.056145065808933144, ,0.07444520979926199, ,0.20915572341843103, ,0.001389528101656255, ,0.18366203321480729,-0.20753300052903526,0.11048150041000002,1.609580006187209,0.1803601796903814,-1.4020654751390151, ,0.23606204367778796,0.17444290727660072,0.06836399793991417,0.054443475123012876,0.13399625035387341,0.02523036174752122, ,1.0423200130462646
0.01695067358090857,0.02145691560220366,-0.10018192516834983, ,0.018316732996229643,0.0209133665408845,-0.10167592579528247, ,0.0020960920260149384, ,0.03533115832318044,-0.0035483811018124237,-0.06543093691179114,-0.18693992948465832,-0.09381246542671422,-0.056145065808933144, ,0.07444520979926199, ,0.20915572341843103, ,0.001398040920022022, ,0.18366203321480729,-0.20753300052903526,0.11048150041000002,1.609580006187209,0.1803601796903814,-1.4020654751390151, ,0.23606204367778796,0.17444290727660072,0.06836399793991417,0.054443475123012876,0.13399625035387341,0.02523036174752122, ,1.0459020137786865
0.017304853168130473,0.021417648039511974,-0.10082287159348648, ,0.018425501594800303,0.020913068374749492,-0.10188639192572096, ,0.0016252781396934926, ,0.03482191773662175,-0.004358181902727718,-0.062162151669451354,-0.20375981510511074,-0.12555239499895257,0.008723327890620462, ,0.07138412151542659, ,0.23933352871243113, ,0.001400746125018111, ,0.18601746674144576,-0.20579538563233474,0.11115168234000002,1.6097896961306934,0.18145327168850492,-1.4015682797861968, ,0.23202186200115102,0.17222675418960212,0.0650155572244898,-0.017871428336645484,0.11255984878956064,0.03133013862001924, ,1.04948091506958
0.017304853168130473,0.021417648039511974,-0.10082287159348648, ,0.018534159775130298,0.02091258729884251,-0.10209466538002256, ,0.0018394946374618191, ,0.03482191773662175,-0.004358181902727718,-0.062162151669451354,-0.20375981510511074,-0.12555239499895257,0.008723327890620462, ,0.07138412151542659, ,0.23933352871243113, ,0.001405907872223331, ,0.18601746674144576,-0.20579538563233474,0.11115168234000002,1.6097896961306934,0.18145327168850492,-1.4015682797861968, ,0.23202186200115102,0.17222675418960212,0.0650155572244898,-0.017871428336645484,0.11255984878956064,0.03133013862001924, ,1.0530619621276855
0.017304853168130473,0.021417648039511974,-0.10082287159348648, ,0.018642704474806284,0.020911926396250564,-0.10230075403192705, ,0.0020566324419030876, ,0.03482191773662175,-0.004358181902727718,-0.062162151669451354,-0.20375981510511074,-0.12555239499895257,0.008723327890620462, ,0.07138412151542659, ,0.23933352871243113, ,0.001413474436987049, ,0.18601746674144576,-0.20579538563233474,0.11115168234000002,1.6097896961306934,0.18145327168850492,-1.4015682797861968, ,0.23202186200115102,0.17222675418960212,0.0650155572244898,-0.017871428336645484,0.11255984878956064,0.03133013862001924, ,1.0566000938415527
0.017656388563198518,0.02136701046393712,-0.10143712089954769, ,0.018751132667033737,0.020911088744217595,-0.10250466576705232, ,0.0015956131459503146, ,0.03503076074705242,-0.005050786041487251,-0.06103225607352812,-0.14749525029590363,-0.08822526430260616,0.012036195709902008, ,0.07055211491924832, ,0.17186535220744686, ,0.0014155679853659372, ,0.1883883457338327,-0.20402687980413733,0.11179464218000001,1.6097896961306934,0.18281963668615933,-1.4016206352013336, ,0.23665072707848075,0.17476416493272703,0.06397113060240965,-0.013385266794351602,0.1544753728863172,-0.026573437295019126, ,1.0601799488067627
0.017656388563198518,0.02136701046393712,-0.10143712089954769, ,0.0188594413605169,0.020910077414127076,-0.10270640848278179, ,0.0018075438622884197, ,0.03503076074705242,-0.005050786041487251,-0.06103225607352812,-0.14749525029590363,-0.08822526430260616,0.012036195709902008, ,0.07055211491924832, ,0.17186535220744686, ,0.0014200222566946017, ,0.1883883457338327,-0.20402687980413733,0.11179464218000001,1.6097896961306934,0.18281963668615933,-1.4016206352013336, ,0.23665072707848075,0.17476416493272703,0.06397113060240965,-0.013385266794351602,0.1544753728863172,-0.026573437295019126, ,1.0638370513916016
0.017656388563198518,0.02136701046393712,-0.10143712089954769, ,0.01896762759933871,0.02090889547148526,-0.10290599008815263, ,0.002021582016500926, ,0.03503076074705242,-0.005050786041487251,-0.06103225607352812,-0.14749525029590363,-0.08822526430260616,0.012036195709902008, ,0.07055211491924832, ,0.17186535220744686, ,0.001426781355119392, ,0.1904039790140053,-0.2025672832909089,0.11233260253,1.6097896961306934,0.18418600168381372,-1.4018363480967517, ,0.23145595502066044,0.1619401733079706,0.06102992919540231,-0.010965110732993307,0.15097818372160388,-0.02656156676750808, ,1.0676500797271729
0.017953992548913954,0.021324965441475566,-0.1019493142602429, ,0.019075688462840662,0.020907545975903236,-0.10310341850374384, ,0.0016626476892070215, ,0.03419075334338609,-0.004499999328614579,-0.057943742235752764,-0.13444987610805206,-0.08590180078747602,0.010873620636899981, ,0.06742948073676051, ,0.15954696921053813, ,0.00142940209216481, ,0.1904039790140053,-0.2025672832909089,0.11233260253,1.6097896961306934,0.18418600168381372,-1.4018363480967517, ,0.23145595502066044,0.1619401733079706,0.06102992919540231,-0.010965110732993307,0.15097818372160388,-0.02656156676750808, ,1.0714359283447266
0.017953992548913954,0.021324965441475566,-0.1019493142602429, ,0.019183621065502626,0.020906031981079553,-0.10329870166156271, ,0.0018730557631549802, ,0.03419075334338609,-0.004499999328614579,-0.057943742235752764,-0.13444987610805206,-0.08590180078747602,0.010873620636899981, ,0.06742948073676051, ,0.15954696921053813, ,0.001434277407230636, ,0.1904039790140053,-0.2025672832909089,0.11233260253,1.6097896961306934,0.18418600168381372,-1.4018363480967517, ,0.23145595502066044,0.1619401733079706,0.06102992919540231,-0.010965110732993307,0.15097818372160388,-0.02656156676750808, ,1.0752739906311035
0.01833062718889183,0.021268758841193235,-0.1025527246226376, ,0.019291422556822962,0.020904356534783945,-0.1034918475049349, ,0.0013920734779488827, ,0.03127550827853557,-0.005518965650834884,-0.0463009903656094,-0.13499502302493321,-0.08668843209694375,-0.0002950206284509215, ,0.056146220787975536, ,0.16043169172840027, ,0.001433818668868878, ,0.19299881725974471,-0.20079877746271146,0.11297037721000001,1.609580006187209,0.185825639680999,-1.4021115393192813, ,0.22120499197778737,0.14712704117592368,0.049162998518518526,0.0,0.13738287311166972,-0.009424244229441568, ,1.0789170265197754
0.01833062718889183,0.021268758841193235,-0.1025527246226376, ,0.019399090121198188,0.02090252267883894,-0.10368286398839026, ,0.0015977975310885002, ,0.03127550827853557,-0.005518965650834884,-0.0463009903656094,-0.13499502302493321,-0.08668843209694375,-0.0002950206284509215, ,0.056146220787975536, ,0.16043169172840027, ,0.001435581882441132, ,0.19299881725974471,-0.20079877746271146,0.11297037721000001,1.609580006187209,0.185825639680999,-1.4021115393192813, ,0.22120499197778737,0.14712704117592368,0.049162998518518526,0.0,0.13738287311166972,-0.009424244229441568, ,1.0824940204620361
0.01833062718889183,0.021268758841193235,-0.1025527246226376, ,0.019506620977803025,0.020900533449102855,-0.10387175907755211, ,0.001805104768203061, ,0.03127550827853557,-0.005518965650834884,-0.0463009903656094,-0.13499502302493321,-0.08668843209694375,-0.0002950206284509215, ,0.056146220787975536, ,0.16043169172840027, ,0.001439512976970514, ,0.19299881725974471,-0.20079877746271146,0.11297037721000001,1.609580006187209,0.185825639680999,-1.4021115393192813, ,0.22120499197778737,0.14712704117592368,0.049162998518518526,0.0,0.13738287311166972,-0.009424244229441568, ,1.0860838890075684
0.018649074279494204,0.02121327631669595,-0.10301292792252992, ,0.019614012380470232,0.020898391875452726,-0.10405854074902401, ,0.0014572453235407053, ,0.03265274160515684,-0.005410746405508412,-0.04877149881577977,-0.14581397425549472,-0.08968103727295645,-0.004561834869327884, ,0.05894180865680548, ,0.17118448406460124, ,0.0014396996332502003, ,0.19524613252614406,-0.19933145821660883,0.11346037483000002,1.6097896961306934,0.18705536817888796,-1.4019707980905813, ,0.22757060325772369,0.1499161793972682,0.05188537954397395,0.0038613070592672543,0.1400019175899777,-0.0005397889810140749, ,1.0896658897399902
0.018649074279494204,0.02121327631669595,-0.10301292792252992, ,0.0197212616175706,0.020896100981767002,-0.10424321699027847, ,0.0016624671639585064, ,0.03265274160515684,-0.005410746405508412,-0.04877149881577977,-0.14581397425549472,-0.08968103727295645,-0.004561834869327884, ,0.05894180865680548, ,0.17118448406460124, ,0.0014420201283617453, ,0.19524613252614406,-0.19933145821660883,0.11346037483000002,1.6097896961306934,0.18705536817888796,-1.4019707980905813, ,0.22757060325772369,0.1499161793972682,0.05188537954397395,0.0038613070592672543,0.1400019175899777,-0.0005397889810140749, ,1.0932691097259521
0.018649074279494204,0.02121327631669595,-0.10301292792252992, ,0.01982836601189283,0.020893663785907946,-0.10442579579954397, ,0.0018679070634907604, ,0.03265274160515684,-0.005410746405508412,-0.04877149881577977,-0.14581397425549472,-0.08968103727295645,-0.004561834869327884, ,0.05894180865680548, ,0.17118448406460124, ,0.0014464107153218384, ,0.19524613252614406,-0.19933145821660883,0.11346037483000002,1.6097896961306934,0.18705536817888796,-1.4019707980905813, ,0.22757060325772369,0.1499161793972682,0.05188537954397395,0.0038613070592672543,0.1400019175899777,-0.0005397889810140749, ,1.0968389511108398
0.018985645369401647,0.0211748431732041,-0.10355606737574947, ,0.019935322920523406,0.02089108329970461,-0.10460628518569384, ,0.0014440791409190187, ,0.03246835262404797,-0.0023300069399765375,-0.05583910508219688,-0.08872682372677168,-0.021630763739815807,-0.006855898108072339, ,0.06463457674372508, ,0.09132248530950021, ,0.0014463869237462993, ,0.19753206145691452,-0.1978718617033804,0.11403852017,1.6102090760176624,0.1888316426758387,-1.4021940497365264, ,0.2146989628019701,0.133469678703897,0.05943586388059702,0.02029765113810539,0.19303165200249855,-0.03822549599382728, ,1.1004068851470947
0.018985645369401647,0.0211748431732041,-0.10355606737574947, ,0.020042129734726643,0.020888362528935493,-0.10478469316813334, ,0.0016455247526025224, ,0.03246835262404797,-0.0023300069399765375,-0.05583910508219688,-0.08872682372677168,-0.021630763739815807,-0.006855898108072339, ,0.06463457674372508, ,0.09132248530950021, ,0.0014483984169670692, ,0.19753206145691452,-0.1978718617033804,0.11403852017,1.6102090760176624,0.1888316426758387,-1.4021940497365264, ,0.2146989628019701,0.133469678703897,0.05943586388059702,0.02029765113810539,0.19303165200249855,-0.03822549599382728, ,1.1040380001068115
0.018985645369401647,0.0211748431732041,-0.10355606737574947, ,0.020148783879824363,0.020885504473311275,-0.10496102777668728, ,0.0018467598127226421, ,0.03246835262404797,-0.0023300069399765375,-0.05583910508219688,-0.08872682372677168,-0.021630763739815807,-0.006855898108072339, ,0.06463457674372508, ,0.09132248530950021, ,0.001452382030924625, ,0.19753206145691452,-0.1978718617033804,0.11403852017,1.6102090760176624,0.1888316426758387,-1.4021940497365264, ,0.2146989628019701,0.133469678703897,0.05943586388059702,0.02029765113810539,0.19303165200249855,-0.03822549599382728, ,1.1077890396118164
0.019343976320074015,0.02115256037944475,-0.10417623874914884, ,0.020255282815076176,0.0208825121264574,-0.10513529705148908, ,0.001350258647097799, ,0.0310834944879547,-0.0018910301507485772,-0.052891162499759385,-0.12193315182111669,-0.013989085331114606,-0.04828915607087269, ,0.06137780295179768, ,0.12273130856566974, ,0.0014513709083124782, ,0.1998952177164272,-0.1964277106559004,0.11469962807000002,1.6106284559046316,0.1911544631718512,-1.4024545792965541, ,0.20364150549028065,0.12292349942807097,0.056485147234042556,0.06227700762713998,0.18110418087183455,0.01364128502545403, ,1.112001895904541
0.019343976320074015,0.02115256037944475,-0.10417623874914884, ,0.02036162403355904,0.020879388475897216,-0.10530750904286718, ,0.0015459632062564236, ,0.0310834944879547,-0.0018910301507485772,-0.052891162499759385,-0.12193315182111669,-0.013989085331114606,-0.04828915607087269, ,0.06137780295179768, ,0.12273130856566974, ,0.0014522982837825169, ,0.1998952177164272,-0.1964277106559004,0.11469962807000002,1.6106284559046316,0.1911544631718512,-1.4024545792965541, ,0.20364150549028065,0.12292349942807097,0.056485147234042556,0.06227700762713998,0.18110418087183455,0.01364128502545403, ,1.1156110763549805
0.019343976320074015,0.02115256037944475,-0.10417623874914884, ,0.020467805062047487,0.020876136503034035,-0.10547767181123383, ,0.0017415881303636327, ,0.0310834944879547,-0.0018910301507485772,-0.052891162499759385,-0.12193315182111669,-0.013989085331114606,-0.04828915607087269, ,0.06137780295179768, ,0.12273130856566974, ,0.001455106923069712, ,0.1998952177164272,-0.1964277106559004,0.11469962807000002,1.6106284559046316,0.1911544631718512,-1.4024545792965541, ,0.20364150549028065,0.12292349942807097,0.056485147234042556,0.06227700762713998,0.18110418087183455,0.01364128502545403, ,1.1192920207977295
0.019722668446849875,0.021127094642113445,-0.10481436300571571, ,0.020573823460893318,0.020872759183134363,-0.10564579342697246, ,0.001216728371090509, ,0.029567618133265687,-0.0020653871318905307,-0.04927759621572073,-0.14979616671720797,-0.031014400943693076,0.028620005704659127, ,0.05750470724104954, ,0.1529722002888336, ,0.0014528148216083738, ,0.20235876950330484,-0.19493722321117507,0.11538147661,1.610838145848116,0.19320401066833282,-1.4019205218682056, ,0.19287996251721704,0.11488733844851184,0.05274440900662252,-0.019252629544672613,0.1688812858516541,0.03351033008472458, ,1.1232481002807617
0.019722668446849875,0.021127094642113445,-0.10481436300571571, ,0.020679676823905726,0.020869259485310526,-0.10581188197032598, ,0.001406196318653908, ,0.029567618133265687,-0.0020653871318905307,-0.04927759621572073,-0.14979616671720797,-0.031014400943693076,0.028620005704659127, ,0.05750470724104954, ,0.1529722002888336, ,0.0014523708358659502, ,0.20235876950330484,-0.19493722321117507,0.11538147661,1.610838145848116,0.19320401066833282,-1.4019205218682056, ,0.19287996251721704,0.11488733844851184,0.05274440900662252,-0.019252629544672613,0.1688812858516541,0.03351033008472458, ,1.1268370151519775
0.019722668446849875,0.021127094642113445,-0.10481436300571571, ,0.020785362778231082,0.020865640372503547,-0.10597594553128414, ,0.0015959171472081275, ,0.029567618133265687,-0.0020653871318905307,-0.04927759621572073,-0.14979616671720797,-0.031014400943693076,0.028620005704659127, ,0.05750470724104954, ,0.1529722002888336, ,0.0014537250463503104, ,0.20235876950330484,-0.19493722321117507,0.11538147661,1.610838145848116,0.19320401066833282,-1.4019205218682056, ,0.19287996251721704,0.11488733844851184,0.05274440900662252,-0.019252629544672613,0.1688812858516541,0.03351033008472458, ,1.1304199695587158
0.020041021377327134,0.021112468048416672,-0.10534683658835464, ,0.020890878984232912,0.02086190480146516,-0.10613799220947133, ,0.0011878413654874262, ,0.029307855514154556,-0.000585694609341532,-0.048767250735379186,-0.08641410741384832,-0.010906723811613865,0.015785174958495338, ,0.056899368865579815, ,0.08709809845525242, ,0.0014512401521366385, ,0.204428461913597,-0.19377109054716718,0.11595314050000001,1.6106284559046316,0.19511692166504896,-1.4018467977171443, ,0.1905561075471301,0.09989151742996924,0.05257033504950496,0.0,0.18323274492429734,-0.01141018550304708, ,1.1339631080627441
0.020041021377327134,0.021112468048416672,-0.10534683658835464, ,0.020996223135371986,0.020858055722741478,-0.10629803011403505, ,0.0013718254820944812, ,0.029307855514154556,-0.000585694609341532,-0.048767250735379186,-0.08641410741384832,-0.010906723811613865,0.015785174958495338, ,0.056899368865579815, ,0.08709809845525242, ,0.0014505048311177296, ,0.204428461913597,-0.19377109054716718,0.11595314050000001,1.6106284559046316,0.19511692166504896,-1.4018467977171443, ,0.1905561075471301,0.09989151742996924,0.05257033504950496,0.0,0.18323274492429734,-0.01141018550304708, ,1.1375138759613037
0.020041021377327134,0.021112468048416672,-0.10534683658835464, ,0.021101392958085902,0.020854096080655356,-0.10645606736353333, ,0.0015561288107381137, ,0.029307855514154556,-0.000585694609341532,-0.048767250735379186,-0.08641410741384832,-0.010906723811613865,0.015785174958495338, ,0.056899368865579815, ,0.08709809845525242, ,0.0014514738584536964, ,0.204428461913597,-0.19377109054716718,0.11595314050000001,1.6106284559046316,0.19511692166504896,-1.4018467977171443, ,0.1905561075471301,0.09989151742996924,0.05257033504950496,0.0,0.18323274492429734,-0.01141018550304708, ,1.141127109527588
0.02030341067369081,0.021110703030297637,-0.10577279491402918, ,0.021206386211669443,0.02085002881328888,-0.10661211208582212, ,0.0012600671349049, ,0.028737268390898886,-0.00021121249413985155,-0.04461238858420616,-0.07199248752325055,-0.018742922775810304,0.01627059127584867, ,0.05306731970315107, ,0.07439111974793301, ,0.0014497337973305253, ,0.20615835407742328,-0.1929293126638767,0.11641461974000002,1.6106284559046316,0.19689319616199968,-1.402070049363089, ,0.1909395202383718,0.08844076566493084,0.04856344975609757,6.538927547326464e-05,0.17559061895675981,-0.014604701759157353, ,1.1483819484710693
0.02030341067369081,0.021110703030297637,-0.10577279491402918, ,0.021311200688154126,0.020845856852466378,-0.10676617241794399, ,0.0014396468582426147, ,0.028737268390898886,-0.00021121249413985155,-0.04461238858420616,-0.07199248752325055,-0.018742922775810304,0.01627059127584867, ,0.05306731970315107, ,0.07439111974793301, ,0.001449642924005409, ,0.20615835407742328,-0.1929293126638767,0.11641461974000002,1.6106284559046316,0.19689319616199968,-1.402070049363089, ,0.1909395202383718,0.08844076566493084,0.04856344975609757,6.538927547326464e-05,0.17559061895675981,-0.014604701759157353, ,1.1520071029663086
0.020688997678020734,0.021105815346159715,-0.10634653402221428, ,0.021415834212188442,0.020841583123737274,-0.10691825650601568, ,0.0009617570448149931, ,0.02580845875319911,-0.0007655281455722812,-0.03610858017411754,-0.0705739349476098,-0.03059232270306611,-0.013673315548969113, ,0.044390225711837934, ,0.07691884761747154, ,0.001445286800084066, ,0.20873774685741428,-0.1917631799998688,0.11704202410000002,1.6112575257350852,0.19907938015824675,-1.4021374822792803, ,0.17573507696013105,0.07740370437069395,0.03972272199501248,0.02648802470105121,0.14282690180919988,0.0002543505315865252, ,1.155695915222168
0.020688997678020734,0.021105815346159715,-0.10634653402221428, ,0.021520284640917656,0.020837210546358464,-0.10706837250511562, ,0.0011332419638170734, ,0.02580845875319911,-0.0007655281455722812,-0.03610858017411754,-0.0705739349476098,-0.03059232270306611,-0.013673315548969113, ,0.044390225711837934, ,0.07691884761747154, ,0.0014425253413560394, ,0.20873774685741428,-0.1917631799998688,0.11704202410000002,1.6112575257350852,0.19907938015824675,-1.4021374822792803, ,0.17573507696013105,0.07740370437069395,0.03972272199501248,0.02648802470105121,0.14282690180919988,0.0002543505315865252, ,1.159282922744751
0.020688997678020734,0.021105815346159715,-0.10634653402221428, ,0.02162454986386371,0.02083274203327741,-0.10721652857917174, ,0.0013064139679977796, ,0.02580845875319911,-0.0007655281455722812,-0.03610858017411754,-0.0705739349476098,-0.03059232270306611,-0.013673315548969113, ,0.044390225711837934, ,0.07691884761747154, ,0.001441331381940616, ,0.20873774685741428,-0.1917631799998688,0.11704202410000002,1.6112575257350852,0.19907938015824675,-1.4021374822792803, ,0.17573507696013105,0.07740370437069395,0.03972272199501248,0.02648802470105121,0.14282690180919988,0.0002543505315865252, ,1.1628870964050293
0.0209448884544896,0.02110021585647625,-0.10670158304066345, ,0.021728627802805198,0.02082818049111452,-0.10736273290084983, ,0.0010608344563267718, ,0.025923632079828566,-0.0003098118760044955,-0.035956519657250115,-0.06815807284540899,-0.0290048454108176,-0.0225556396270963, ,0.044328342958778015, ,0.07407255800497184, ,0.0014380227130222347, ,0.2104753617541148,-0.19102179764394325,0.11743350368000001,1.6114672156785694,0.20044574515590113,-1.4021081589542765, ,0.17573507696013105,0.07282957909322392,0.03972272199501248,0.03641532923664516,0.14251849044909365,0.004423732619974793, ,1.1665000915527344
0.0209448884544896,0.02110021585647625,-0.10670158304066345, ,0.021832516411657395,0.020823528820146153,-0.10750699365144091, ,0.0012300916056830606, ,0.025923632079828566,-0.0003098118760044955,-0.035956519657250115,-0.06815807284540899,-0.0290048454108176,-0.0225556396270963, ,0.044328342958778015, ,0.07407255800497184, ,0.0014362302034762072, ,0.2104753617541148,-0.19102179764394325,0.11743350368000001,1.6114672156785694,0.20044574515590113,-1.4021081589542765, ,0.17573507696013105,0.07282957909322392,0.03972272199501248,0.03641532923664516,0.14251849044909365,0.004423732619974793, ,1.170116901397705
0.0209448884544896,0.02110021585647625,-0.10670158304066345, ,0.021936213676352158,0.02081878991428765,-0.10764931902074953, ,0.0014000463365143759, ,0.025923632079828566,-0.0003098118760044955,-0.035956519657250115,-0.06815807284540899,-0.0290048454108176,-0.0225556396270963, ,0.044328342958778015, ,0.07407255800497184, ,0.0014359209396560208, ,0.2104753617541148,-0.19102179764394325,0.11743350368000001,1.6114672156785694,0.20044574515590113,-1.4021081589542765, ,0.17573507696013105,0.07282957909322392,0.03972272199501248,0.03641532923664516,0.14251849044909365,0.004423732619974793, ,1.1740350723266602
0.021189928079111724,0.021101382852614693,-0.10705523305989273, ,0.022039717614717756,0.020813966661075465,-0.10778971720698084, ,0.0011594038486688674, ,0.024640247124068565,0.00028939174512366964,-0.036178760413215695,-0.03231212971016256,0.014130718124869478,0.05280557941826755, ,0.04377360198743277, ,0.035265974234768564, ,0.0014335775744781633, ,0.21212802658919883,-0.19034991988388572,0.11782368697000001,1.6116769056220543,0.2020853831530864,-1.402219992696525, ,0.16648586238328208,0.06608422114099637,0.03992183338345865,-0.030955956019167084,0.19011535482396436,-0.03866284204355252, ,1.177682876586914
0.021189928079111724,0.021101382852614693,-0.10705523305989273, ,0.02214302627635882,0.020809061941649967,-0.10792819641662904, ,0.001325108565660656, ,0.024640247124068565,0.00028939174512366964,-0.036178760413215695,-0.03231212971016256,0.014130718124869478,0.05280557941826755, ,0.04377360198743277, ,0.035265974234768564, ,0.001432666070202386, ,0.21212802658919883,-0.19034991988388572,0.11782368697000001,1.6116769056220543,0.2020853831530864,-1.402219992696525, ,0.16648586238328208,0.06608422114099637,0.03992183338345865,-0.030955956019167084,0.19011535482396436,-0.03866284204355252, ,1.1813631057739258
0.021189928079111724,0.021101382852614693,-0.10705523305989273, ,0.022246137742536577,0.02080407863073905,-0.10806476486436525, ,0.0014910141239098545, ,0.024640247124068565,0.00028939174512366964,-0.036178760413215695,-0.03231212971016256,0.014130718124869478,0.05280557941826755, ,0.04377360198743277, ,0.035265974234768564, ,0.0014331523039832817, ,0.21212802658919883,-0.19034991988388572,0.11782368697000001,1.6116769056220543,0.2020853831530864,-1.402219992696525, ,0.16648586238328208,0.06608422114099637,0.03992183338345865,-0.030955956019167084,0.19011535482396436,-0.03866284204355252, ,1.1850368976593018
0.02143822858926626,0.02110661413689368,-0.10741737002626071, ,0.02234905012604827,0.020799019596639493,-0.1081994307729246, ,0.0012392857961473617, ,0.024144164590095926,0.0008291577380383191,-0.035811009597268594,-0.02806805637426943,0.036615302034072976,0.007120200468080436, ,0.04319787720112939, ,0.04613498928231189, ,0.001431550101439183, ,0.21380385962290555,-0.18970893305532507,0.11822424058000001,1.6114672156785694,0.20399829414980258,-1.4025546622461667, ,0.16221699411704404,0.06098775164426143,0.03962390925373134,0.019227207880597313,0.19896257828530678,-0.027573897786881796, ,1.1885969638824463
0.02143822858926626,0.02110661413689368,-0.10741737002626071, ,0.02245176157110768,0.020793887701201042,-0.1083322023729949, ,0.0014007016639857892, ,0.024144164590095926,0.0008291577380383191,-0.035811009597268594,-0.02806805637426943,0.036615302034072976,0.007120200468080436, ,0.04319787720112939, ,0.04613498928231189, ,0.0014312972453944832, ,0.21380385962290555,-0.18970893305532507,0.11822424058000001,1.6114672156785694,0.20399829414980258,-1.4025546622461667, ,0.16221699411704404,0.06098775164426143,0.03962390925373134,0.019227207880597313,0.19896257828530678,-0.027573897786881796, ,1.1921470165252686
0.02167687836917725,0.021117906711513798,-0.10777427522194565, ,0.022554270253224616,0.020788685799808467,-0.1084630879031043, ,0.0015620990049170888, ,0.0240845257349011,0.0014460713688957516,-0.03670899220489896,-0.039264757884052454,0.042882266708364536,0.020137942796330927, ,0.043928414619450885, ,0.05814244018099996, ,0.0014323606743336912, ,0.21540246532787002,-0.18912972808975825,0.11861960903000002,1.6116769056220543,0.2060478416462842,-1.4026740347389421, ,0.15922305630615904,0.05648627473718499,0.04063472326530613,0.007488500752328043,0.20452433213012172,-0.014390725826994438, ,1.1960890293121338
0.02167687836917725,0.021117906711513798,-0.10777427522194565, ,0.02265657437908511,0.02078341674136417,-0.1085920956095085, ,0.0013192869279552242, ,0.0240845257349011,0.0014460713688957516,-0.03670899220489896,-0.039264757884052454,0.042882266708364536,0.020137942796330927, ,0.043928414619450885, ,0.05814244018099996, ,0.0014314487892822518, ,0.21540246532787002,-0.18912972808975825,0.11861960903000002,1.6116769056220543,0.2060478416462842,-1.4026740347389421, ,0.15922305630615904,0.05648627473718499,0.04063472326530613,0.007488500752328043,0.20452433213012172,-0.014390725826994438, ,1.1998388767242432
0.02167687836917725,0.021117906711513798,-0.10777427522194565, ,0.02275867218643121,0.020778083368271742,-0.10871923374607953, ,0.001476043488517324, ,0.0240845257349011,0.0014460713688957516,-0.03670899220489896,-0.039264757884052454,0.042882266708364536,0.020137942796330927, ,0.043928414619450885, ,0.05814244018099996, ,0.0014318055468761325, ,0.21540246532787002,-0.18912972808975825,0.11861960903000002,1.6116769056220543,0.2060478416462842,-1.4026740347389421, ,0.15922305630615904,0.05648627473718499,0.04063472326530613,0.007488500752328043,0.20452433213012172,-0.014390725826994438, ,1.203420877456665
0.021930111378145368,0.02113691040559182,-0.10816923595579703, ,0.022860561943941062,0.020772688516417764,-0.10884451057419252, ,0.0012059816127090088, ,0.024801516033755574,0.001971089942661726,-0.03860808468863245,-0.06219863203721361,0.03215003487158186,-0.013041639397722755, ,0.04593021441773718, ,0.07001577528320897, ,0.0014300132934303615, ,0.21705513016295408,-0.1885505231241914,0.11905645876000001,1.6120962855090233,0.20823402564253127,-1.4028231463952738, ,0.15922305630615904,0.05533349362009957,0.04270458852546917,0.03859822395497229,0.1876052835643115,0.016326467958323168, ,1.2070930004119873
0.021930111378145368,0.02113691040559182,-0.10816923595579703, ,0.02296224195110863,0.02076723501515495,-0.10896793436261465, ,0.001356419020433263, ,0.024801516033755574,0.001971089942661726,-0.03860808468863245,-0.06219863203721361,0.03215003487158186,-0.013041639397722755, ,0.04593021441773718, ,0.07001577528320897, ,0.0014294338109658176, ,0.21705513016295408,-0.1885505231241914,0.11905645876000001,1.6120962855090233,0.20823402564253127,-1.4028231463952738, ,0.15922305630615904,0.05533349362009957,0.04270458852546917,0.03859822395497229,0.1876052835643115,0.016326467958323168, ,1.2107350826263428
0.021930111378145368,0.02113691040559182,-0.10816923595579703, ,0.023063710538123998,0.020761725687285206,-0.10908951338739177, ,0.0015075547019785668, ,0.024801516033755574,0.001971089942661726,-0.03860808468863245,-0.06219863203721361,0.03215003487158186,-0.013041639397722755, ,0.04593021441773718, ,0.07001577528320897, ,0.0014300441304268548, ,0.21705513016295408,-0.1885505231241914,0.11905645876000001,1.6120962855090233,0.20823402564253127,-1.4028231463952738, ,0.15922305630615904,0.05533349362009957,0.04270458852546917,0.03859822395497229,0.1876052835643115,0.016326467958323168, ,1.2156848907470703
0.022113824332332676,0.02115255461858435,-0.10844575622772758, ,0.023164966065752912,0.02075616334904208,-0.10920925593173719, ,0.001358291861246986, ,0.024787242345116225,0.001860710164983279,-0.03557841812617933,-0.08242143450040433,-0.0035138998908454283,-0.033574513822489965, ,0.04340153755058501, ,0.08249595959738103, ,0.0014294879112859255, ,0.2182367082927104,-0.18816438648048017,0.11936367949000001,1.6125156653959922,0.2094637541404202,-1.4024373689461522, ,0.16111535069349878,0.051240249221636495,0.03972272199501248,0.05324941524523431,0.1503718134034924,0.04376073384832056, ,1.2194669246673584
0.022113824332332676,0.02115255461858435,-0.10844575622772758, ,0.023266006925216996,0.020750550810073442,-0.10932717028591926, ,0.0015053313692940978, ,0.024787242345116225,0.001860710164983279,-0.03557841812617933,-0.08242143450040433,-0.0035138998908454283,-0.033574513822489965, ,0.04340153755058501, ,0.08249595959738103, ,0.0014300713225013728, ,0.2182367082927104,-0.18816438648048017,0.11936367949000001,1.6125156653959922,0.2094637541404202,-1.4024373689461522, ,0.16111535069349878,0.051240249221636495,0.03972272199501248,0.05324941524523431,0.1503718134034924,0.04376073384832056, ,1.2233400344848633
0.022411289208051327,0.02116624065862041,-0.10885251817033398, ,0.023366831538073618,0.020744890873424578,-0.10944326474714887, ,0.0011998242804542318, ,0.02347993843342776,0.000572911417861045,-0.03062796377643875,-0.04649515578703072,0.012364354638422894,0.05266515132809589, ,0.03859673433622485, ,0.04811080778066566, ,0.0014283137114933795, ,0.22022145064138612,-0.18751567691904533,0.11981997357000002,1.612725355339477,0.2115133016369018,-1.4022300264783654, ,0.16057012108032281,0.05231363922738191,0.034552736485900216,-0.030557013683584336,0.18199097150941673,-0.01107391489005552, ,1.2268929481506348
0.022411289208051327,0.02116624065862041,-0.10885251817033398, ,0.023467438356095795,0.020739186335520382,-0.10955754761946734, ,0.0013397361463880777, ,0.02347993843342776,0.000572911417861045,-0.03062796377643875,-0.04649515578703072,0.012364354638422894,0.05266515132809589, ,0.03859673433622485, ,0.04811080778066566, ,0.0014276426693334908, ,0.22022145064138612,-0.18751567691904533,0.11981997357000002,1.612725355339477,0.2115133016369018,-1.4022300264783654, ,0.16057012108032281,0.05231363922738191,0.034552736485900216,-0.030557013683584336,0.18199097150941673,-0.01107391489005552, ,1.2304949760437012
0.022411289208051327,0.02116624065862041,-0.10885251817033398, ,0.023567825861152157,0.02073343998614893,-0.1096700272136346, ,0.0014809505352764937, ,0.02347993843342776,0.000572911417861045,-0.03062796377643875,-0.04649515578703072,0.012364354638422894,0.05266515132809589, ,0.03859673433622485, ,0.04811080778066566, ,0.0014280434803556187, ,0.22022145064138612,-0.18751567691904533,0.11981997357000002,1.612725355339477,0.2115133016369018,-1.4022300264783654, ,0.16057012108032281,0.05231363922738191,0.034552736485900216,-0.030557013683584336,0.18199097150941673,-0.01107391489005552, ,1.2340819835662842
0.02264597267768058,0.021171523301269028,-0.10915513907503031, ,0.023667992565086855,0.02072765460844332,-0.10978071184701678, ,0.001277844027953165, ,0.023897616068696084,0.00040156045653354027,-0.030424803948208776,-0.010720134863141256,0.030421591159442644,0.047679128759695606, ,0.038690127937937774, ,0.03225474275640135, ,0.0014269225889197794, ,0.22183550181209905,-0.18699053108359806,0.12016219413000001,1.612725355339477,0.21342621263361797,-1.4025646960280067, ,0.16532568215761462,0.05355357875760201,0.034477947012987016,-0.02140033974937817,0.2034891902942349,-0.04614365497965939, ,1.2376649379730225
0.02264597267768058,0.021171523301269028,-0.10915513907503031, ,0.02376793700959961,0.02072183297886539,-0.10988960984347397, ,0.001414380662290113, ,0.023897616068696084,0.00040156045653354027,-0.030424803948208776,-0.010720134863141256,0.030421591159442644,0.047679128759695606, ,0.038690127937937774, ,0.03225474275640135, ,0.0014268296857595597, ,0.22183550181209905,-0.18699053108359806,0.12016219413000001,1.612725355339477,0.21342621263361797,-1.4025646960280067, ,0.16532568215761462,0.05355357875760201,0.034477947012987016,-0.02140033974937817,0.2034891902942349,-0.04614365497965939, ,1.2412590980529785
0.02264597267768058,0.021171523301269028,-0.10915513907503031, ,0.023867657766125493,0.020715977867187586,-0.10999672953324809, ,0.0015518732542331892, ,0.023897616068696084,0.00040156045653354027,-0.030424803948208776,-0.010720134863141256,0.030421591159442644,0.047679128759695606, ,0.038690127937937774, ,0.03225474275640135, ,0.0014277491237630422, ,0.22183550181209905,-0.18699053108359806,0.12016219413000001,1.612725355339477,0.21342621263361797,-1.4025646960280067, ,0.16532568215761462,0.05355357875760201,0.034477947012987016,-0.02140033974937817,0.2034891902942349,-0.04614365497965939, ,1.2448360919952393
0.022886133851019858,0.021177290455090772,-0.10945350143772978, ,0.02396715343571505,0.0207100920364765,-0.11010207925285052, ,0.0013444444529682293, ,0.024840704662363003,0.0008800278345984684,-0.030455404313786277,-0.049731867568012865,0.007623065494821684,0.021611152015140835, ,0.03931115247647419, ,0.050312459471790937, ,0.001427141060472569, ,0.22349588938005732,-0.18648083071389923,0.12050182211000002,1.6125156653959922,0.21533912363033417,-1.4027360080973672, ,0.17067795244329276,0.04984083065045734,0.034779064454148474,0.00182981632497198,0.18125877589312173,0.001458858637825855, ,1.248434066772461
0.022886133851019858,0.021177290455090772,-0.10945350143772978, ,0.024066422648914076,0.020704178243074852,-0.1102056673449506, ,0.0014773863284796233, ,0.024840704662363003,0.0008800278345984684,-0.030455404313786277,-0.049731867568012865,0.007623065494821684,0.021611152015140835, ,0.03931115247647419, ,0.050312459471790937, ,0.0014275051566175478, ,0.22349588938005732,-0.18648083071389923,0.12050182211000002,1.6125156653959922,0.21533912363033417,-1.4027360080973672, ,0.17067795244329276,0.04984083065045734,0.034779064454148474,0.00182981632497198,0.18125877589312173,0.001458858637825855, ,1.252281904220581
0.0231513199060145,0.0211857388034819,-0.1097780828524887, ,0.024165464065643648,0.020698239236585026,-0.11030750215826225, ,0.001611053412730682, ,0.025628242433110286,0.00042713607758317697,-0.03131653193882686,-0.0671111560567735,0.007156881093290827,-0.01007055692580122, ,0.040468684536498226, ,0.06749146681866514, ,0.0014288256476687215, ,0.22531073160550008,-0.1859325166798293,0.12087256105000001,1.613144735226446,0.2172520346270503,-1.4026622839463059, ,0.17444290727660072,0.055625405368388496,0.03571482403587444,0.03281530863383635,0.1787562462221417,0.020097107419450075, ,1.2567460536956787
0.0231513199060145,0.0211857388034819,-0.1097780828524887, ,0.024264276375080003,0.020692277759851305,-0.11040759204743303, ,0.0013705683967373545, ,0.025628242433110286,0.00042713607758317697,-0.03131653193882686,-0.0671111560567735,0.007156881093290827,-0.01007055692580122, ,0.040468684536498226, ,0.06749146681866514, ,0.0014284095244477832, ,0.22531073160550008,-0.1859325166798293,0.12087256105000001,1.613144735226446,0.2172520346270503,-1.4026622839463059, ,0.17444290727660072,0.055625405368388496,0.03571482403587444,0.03281530863383635,0.1787562462221417,0.020097107419450075, ,1.260354995727539
0.0231513199060145,0.0211857388034819,-0.1097780828524887, ,0.024362858295534622,0.020686296548942957,-0.11050594537293143, ,0.0014990169056969286, ,0.025628242433110286,0.00042713607758317697,-0.03131653193882686,-0.0671111560567735,0.007156881093290827,-0.01007055692580122, ,0.040468684536498226, ,0.06749146681866514, ,0.001428910286016926, ,0.22531073160550008,-0.1859325166798293,0.12087256105000001,1.613144735226446,0.2172520346270503,-1.4026622839463059, ,0.17444290727660072,0.055625405368388496,0.03571482403587444,0.03281530863383635,0.1787562462221417,0.020097107419450075, ,1.2639970779418945
0.0234209343932214,0.021188176673661782,-0.11010273424301566, ,0.02446120857433387,0.020680298333136646,-0.110602570500934, ,0.0012609310311803722, ,0.025544953134790924,-5.9891956564953725e-05,-0.03023976565863735,-0.041534388221713785,0.021985775519891962,-0.04361378519120296, ,0.039585245291578385, ,0.046994195848700376, ,0.001427727333518077, ,0.22714101929669128,-0.185337866248514,0.12124329999000001,1.6135641151134148,0.21902830912400104,-1.4023954631514073, ,0.17541024317647097,0.0584340773143293,0.03462785113043479,0.06892606249172976,0.18808456819642674,-0.0001060148569018704, ,1.2676470279693604
0.0234209343932214,0.021188176673661782,-0.11010273424301566, ,0.024559325987699377,0.02067428583489952,-0.11069747580321453, ,0.0013833787406092644, ,0.025544953134790924,-5.9891956564953725e-05,-0.03023976565863735,-0.041534388221713785,0.021985775519891962,-0.04361378519120296, ,0.039585245291578385, ,0.046994195848700376, ,0.0014274172034977356, ,0.22714101929669128,-0.185337866248514,0.12124329999000001,1.6135641151134148,0.21902830912400104,-1.4023954631514073, ,0.17541024317647097,0.0584340773143293,0.03462785113043479,0.06892606249172976,0.18808456819642674,-0.0001060148569018704, ,1.2713220119476318
0.0234209343932214,0.021188176673661782,-0.11010273424301566, ,0.024657209340627498,0.020668261769871916,-0.11079066965703077, ,0.0015072963831386714, ,0.025544953134790924,-5.9891956564953725e-05,-0.03023976565863735,-0.041534388221713785,0.021985775519891962,-0.04361378519120296, ,0.039585245291578385, ,0.046994195848700376, ,0.0014279719200230201, ,0.22714101929669128,-0.185337866248514,0.12124329999000001,1.6135641151134148,0.21902830912400104,-1.4023954631514073, ,0.17541024317647097,0.0584340773143293,0.03462785113043479,0.06892606249172976,0.18808456819642674,-0.0001060148569018704, ,1.2750210762023926
0.023666432806077414,0.021184533524929945,-0.11038853753458444, ,0.024754857466769538,0.02066222884684997,-0.11088216044501256, ,0.001304275276330315, ,0.02510488617568956,-0.0009256865830435064,-0.028304472058329127,-0.05530750709325199,0.015711665003246916,0.04814898321882111, ,0.037845149544493674, ,0.05749572672273808, ,0.001427118839721691, ,0.22884002052902067,-0.1847663840158214,0.12157126136000002,1.6137738050568995,0.22094122012071718,-1.402485096480627, ,0.17541024317647097,0.06079240330459371,0.03257425668711657,-0.025402580795934375,0.19937246216214602,-0.009523657546803635, ,1.2786459922790527
0.023666432806077414,0.021184533524929945,-0.11038853753458444, ,0.024852269228311755,0.02065618976776862,-0.11097195655505014, ,0.001423282438404283, ,0.02510488617568956,-0.0009256865830435064,-0.028304472058329127,-0.05530750709325199,0.015711665003246916,0.04814898321882111, ,0.037845149544493674, ,0.05749572672273808, ,0.0014270925630003389, ,0.22884002052902067,-0.1847663840158214,0.12157126136000002,1.6137738050568995,0.22094122012071718,-1.402485096480627, ,0.17541024317647097,0.06079240330459371,0.03257425668711657,-0.025402580795934375,0.19937246216214602,-0.009523657546803635, ,1.2822670936584473
0.023666432806077414,0.021184533524929945,-0.11038853753458444, ,0.02494944351585502,0.020650147227684178,-0.1110600663801812, ,0.0015435790185658134, ,0.02510488617568956,-0.0009256865830435064,-0.028304472058329127,-0.05530750709325199,0.015711665003246916,0.04814898321882111, ,0.037845149544493674, ,0.05749572672273808, ,0.0014278849878681312, ,0.22884002052902067,-0.1847663840158214,0.12157126136000002,1.6137738050568995,0.22094122012071718,-1.402485096480627, ,0.17541024317647097,0.06079240330459371,0.03257425668711657,-0.025402580795934375,0.19937246216214602,-0.009523657546803635, ,1.2858960628509521
0.02391302672629049,0.021169537291699285,-0.11065271489419105, ,0.025046379248295017,0.02064410391475719,-0.11114649831847874, ,0.0013432759369690459, ,0.024809546495954054,-0.0019334199680816526,-0.024828972767679078,-0.06395512656125098,0.011409075679577448,0.02121364199154207, ,0.03515294580552293, ,0.06496472723872022, ,0.001427313305091786, ,0.23059308089146963,-0.1841408426530092,0.12187718580000001,1.6135641151134148,0.2229907676171988,-1.402604468973403, ,0.17837770969637368,0.06403302399357003,0.029014228633879785,0.00044957096286081706,0.19314266617809583,0.0016815626569119946, ,1.2895779609680176
0.02391302672629049,0.021169537291699285,-0.11065271489419105, ,0.025143075372702,0.020638062510235127,-0.1112312607729399, ,0.0014595206232487568, ,0.024809546495954054,-0.0019334199680816526,-0.024828972767679078,-0.06395512656125098,0.011409075679577448,0.02121364199154207, ,0.03515294580552293, ,0.06496472723872022, ,0.0014275294615894837, ,0.23059308089146963,-0.1841408426530092,0.12187718580000001,1.6135641151134148,0.2229907676171988,-1.402604468973403, ,0.17837770969637368,0.06403302399357003,0.029014228633879785,0.00044957096286081706,0.19314266617809583,0.0016815626569119946, ,1.293247938156128
0.024166225634282747,0.021145854961452167,-0.11088756322806811, ,0.0252395308642008,0.02063202568843523,-0.11131436215137215, ,0.001264184305911145, ,0.02513042613634845,-0.0027785103508855703,-0.0213626095712619,-0.07452801922956538,-0.010390956641933161,0.015552394968836335, ,0.03310014388576905, ,0.07524887494922212, ,0.0014264404938849613, ,0.23243109131553508,-0.18348441035870014,0.12215459186000001,1.6135641151134148,0.22476704211414955,-1.4024193269186451, ,0.1860724344283741,0.06571810357234818,0.025609021736334413,0.002777907016783193,0.1783249479052452,0.011137597991675144, ,1.296889066696167
0.024166225634282747,0.021145854961452167,-0.11088756322806811, ,0.025335744725850786,0.02062599611672723,-0.11139581086628249, ,0.0013770779882531583, ,0.02513042613634845,-0.0027785103508855703,-0.0213626095712619,-0.07452801922956538,-0.010390956641933161,0.015552394968836335, ,0.03310014388576905, ,0.07524887494922212, ,0.0014261135898741546, ,0.23243109131553508,-0.18348441035870014,0.12215459186000001,1.6135641151134148,0.22476704211414955,-1.4024193269186451, ,0.1860724344283741,0.06571810357234818,0.025609021736334413,0.002777907016783193,0.1783249479052452,0.011137597991675144, ,1.300523042678833
0.024166225634282747,0.021145854961452167,-0.11088756322806811, ,0.025431715988525838,0.020619976455516248,-0.11147561533476477, ,0.001491247571625206, ,0.02513042613634845,-0.0027785103508855703,-0.0213626095712619,-0.07452801922956538,-0.010390956641933161,0.015552394968836335, ,0.03310014388576905, ,0.07524887494922212, ,0.0014265421029119904, ,0.23243109131553508,-0.18348441035870014,0.12215459186000001,1.6135641151134148,0.22476704211414955,-1.4024193269186451, ,0.1860724344283741,0.06571810357234818,0.025609021736334413,0.002777907016783193,0.1783249479052452,0.011137597991675144, ,1.3041698932647705
0.024432328146048884,0.0211165415346751,-0.11110509932497695, ,0.02552744371079416,0.0206139693582254,-0.11155378397838717, ,0.001285758457446265, ,0.025569420276593216,-0.0027404315696280927,-0.020069028263025562,-0.0542920917646832,0.0028838294019566594,0.0021405441732952387, ,0.03262010291049048, ,0.054368597964259205, ,0.0014256219483664628, ,0.23441583366421076,-0.18279708713289414,0.12241773873000002,1.613983495000384,0.2266799531108657,-1.4023456027675838, ,0.19287996251721704,0.06368922252246362,0.02454362329738059,0.02046011418753254,0.19548229477007725,-0.003019541898407044, ,1.3079290390014648
0.024432328146048884,0.0211165415346751,-0.11110509932497695, ,0.025622926978798217,0.020607977471278655,-0.11163032522308036, ,0.001397148965272105, ,0.025569420276593216,-0.0027404315696280927,-0.020069028263025562,-0.0542920917646832,0.0028838294019566594,0.0021405441732952387, ,0.03262010291049048, ,0.054368597964259205, ,0.0014254370588658502, ,0.23441583366421076,-0.18279708713289414,0.12241773873000002,1.613983495000384,0.2266799531108657,-1.4023456027675838, ,0.19287996251721704,0.06368922252246362,0.02454362329738059,0.02046011418753254,0.19548229477007725,-0.003019541898407044, ,1.3116209506988525
0.024432328146048884,0.0211165415346751,-0.11110509932497695, ,0.025718164906134787,0.02060200343408346,-0.11170524749902552, ,0.0015094050024305936, ,0.025569420276593216,-0.0027404315696280927,-0.020069028263025562,-0.0542920917646832,0.0028838294019566594,0.0021405441732952387, ,0.03262010291049048, ,0.054368597964259205, ,0.0014259787875340098, ,0.23441583366421076,-0.18279708713289414,0.12241773873000002,1.613983495000384,0.2266799531108657,-1.4023456027675838, ,0.19287996251721704,0.06368922252246362,0.02454362329738059,0.02046011418753254,0.19548229477007725,-0.003019541898407044, ,1.3152759075164795
0.024668606061892622,0.021088179168623017,-0.11128807004113869, ,0.025813156633734895,0.020596049879013825,-0.11177855924054156, ,0.001338942457287312, ,0.02503343054598035,-0.0035281671234575975,-0.019246711944899582,-0.01646343956452374,0.029015975929439646,-0.052599311738991975, ,0.03177351930210768, ,0.03336119093116123, ,0.0014254208623401207, ,0.23620750769103085,-0.18217926850295618,0.12264199690000001,1.6146125648308374,0.22859286410758187,-1.4025985935770846, ,0.19017423158010174,0.06982850740137658,0.023563330650887577,0.07867607037442248,0.20861530095760739,-0.03327168701583068, ,1.319005012512207
0.024668606061892622,0.021088179168623017,-0.11128807004113869, ,0.02590790132974366,0.020590119431392617,-0.11185026888597317, ,0.0014491320864231856, ,0.02503343054598035,-0.0035281671234575975,-0.019246711944899582,-0.01646343956452374,0.029015975929439646,-0.052599311738991975, ,0.03177351930210768, ,0.03336119093116123, ,0.0014255718892451084, ,0.23620750769103085,-0.18217926850295618,0.12264199690000001,1.6146125648308374,0.22859286410758187,-1.4025985935770846, ,0.19017423158010174,0.06982850740137658,0.023563330650887577,0.07867607037442248,0.20861530095760739,-0.03327168701583068, ,1.322674036026001
0.024926788535152206,0.021051557393692744,-0.1114794546243356, ,0.0260023981894002,0.02058421470947497,-0.11192038487757927, ,0.0012529025504918131, ,0.026617383661598753,-0.003216823507117324,-0.01900468101741888,-0.10065809374573191,-0.05474141104918556,-0.04053705667091776, ,0.0328635203080639, ,0.11458041473580802, ,0.0014244790453289483, ,0.23816135910820965,-0.18148422254427599,0.12287792168000002,1.6146125648308374,0.23050577510429804,-1.4025248694260233, ,0.19770196158014744,0.06645444086727646,0.02363325151335312,0.05220333535721214,0.13586379362446582,0.048196711011593146, ,1.3268580436706543
0.024926788535152206,0.021051557393692744,-0.1114794546243356, ,0.026096646434917648,0.020578338324430383,-0.11198891566141941, ,0.0013609020322799354, ,0.026617383661598753,-0.003216823507117324,-0.01900468101741888,-0.10065809374573191,-0.05474141104918556,-0.04053705667091776, ,0.0328635203080639, ,0.11458041473580802, ,0.001424079189900967, ,0.23816135910820965,-0.18148422254427599,0.12287792168000002,1.6146125648308374,0.23050577510429804,-1.4025248694260233, ,0.19770196158014744,0.06645444086727646,0.02363325151335312,0.05220333535721214,0.13586379362446582,0.048196711011593146, ,1.3306078910827637
0.024926788535152206,0.021051557393692744,-0.1114794546243356, ,0.026190645315363144,0.020572492880326084,-0.11205586968724324, ,0.0014693845968973564, ,0.026617383661598753,-0.003216823507117324,-0.01900468101741888,-0.10065809374573191,-0.05474141104918556,-0.04053705667091776, ,0.0328635203080639, ,0.11458041473580802, ,0.0014243623486946944, ,0.23816135910820965,-0.18148422254427599,0.12287792168000002,1.6146125648308374,0.23050577510429804,-1.4025248694260233, ,0.19770196158014744,0.06645444086727646,0.02363325151335312,0.05220333535721214,0.13586379362446582,0.048196711011593146, ,1.3342950344085693
0.025200464186566917,0.021018930733054986,-0.11168234190527887, ,0.02628439410653761,0.020566680974109245,-0.11212125540837667, ,0.001253825737124477, ,0.026009546380229745,-0.003106981853570037,-0.020023775496099034,-0.09220521369584486,-0.055990829817996336,-0.0015066500886896541, ,0.032971221152118584, ,0.10787386725865802, ,0.0014233031150824571, ,0.2401615469226338,-0.18080462205134423,0.12312810565000001,1.6146125648308374,0.231735503602187,-1.402057413236761, ,0.18941505301091974,0.06590065386004916,0.02454362329738059,0.010914240032211583,0.13374854887075122,0.03072498517218661, ,1.3378798961639404
0.025200464186566917,0.021018930733054986,-0.11168234190527887, ,0.02637789211085571,0.020560905195590107,-0.1121850812816111, ,0.0013597318817987346, ,0.026009546380229745,-0.003106981853570037,-0.020023775496099034,-0.09220521369584486,-0.055990829817996336,-0.0015066500886896541, ,0.032971221152118584, ,0.10787386725865802, ,0.0014229107000621874, ,0.2401615469226338,-0.18080462205134423,0.12312810565000001,1.6146125648308374,0.231735503602187,-1.402057413236761, ,0.18941505301091974,0.06590065386004916,0.02454362329738059,0.010914240032211583,0.13374854887075122,0.03072498517218661, ,1.3414690494537354
0.025200464186566917,0.021018930733054986,-0.11168234190527887, ,0.02647113865722603,0.02055516812742495,-0.11224735576709033, ,0.0014659229273071186, ,0.026009546380229745,-0.003106981853570037,-0.020023775496099034,-0.09220521369584486,-0.055990829817996336,-0.0015066500886896541, ,0.032971221152118584, ,0.10787386725865802, ,0.0014231745787569416, ,0.2401615469226338,-0.18080462205134423,0.12312810565000001,1.6146125648308374,0.231735503602187,-1.402057413236761, ,0.18941505301091974,0.06590065386004916,0.02454362329738059,0.010914240032211583,0.13374854887075122,0.03072498517218661, ,1.345081090927124
