NicholasDascanio/dvrk_moveit_final/test/execution/third_experiment_notsharpbends/thirdexp_300vel5.0/thirdexp_300vel5.0_26.csv
Current Position (x),Current Position (y),Current Position (z), ,Planned Position (x),Planned Position (y),Planned Position (z), ,Position Error,,Cartesian linear Velocity(x),Cartesian linear Velocity(y),Cartesian linear Velocity(z),Cartesian Angular Velocity(x),Cartesian Angular Velocity(y),Cartesian Angular Velocity(z), ,Total Linear Velocity, ,Total Angular Velocity, ,MSE, ,Joint 1 Position,Joint 2 Position,Joint 3 Position,Joint 4 Position,Joint 5 Position,Joint 6 Position, ,Joint 1 Velocity,Joint 2 Velocity,Joint 3 Velocity,Joint 4 Velocity,Joint 5 Velocity,Joint 6 Velocity, ,Time Stamp
0.010048564009313919,0.02004126110595502,-0.08058343230126208, ,0.010227401842483988,0.020009093961188947,-0.0806078961470537, ,0.00018334714485446194, ,1.2218714726929542e-05,-0.00014360188604646508,0.0006749206843487628,0.19076196605820978,-0.0005650758194122528,-0.060630965824501844, ,0.0006901367464694822, ,0.190762802991242, ,1.5278928737871827e-05, ,0.1753755408407644,-0.2364082987457607,0.09106307621000001,1.687584665163452,0.47904756817763416,-1.3040445213515608, ,0.001611822238251234,-0.0002995230095822176,-0.0006840252182426157,-0.0018972218810155508,0.0,-0.2007704796907226, ,0.0360720157623291
0.01008384825687398,0.020052931774611885,-0.08059702502994506, ,0.01028241093773601,0.020072167186452317,-0.0806495834698451, ,0.00020629960955976964, ,0.0014450230827698404,0.0005700048963020724,-0.00045233536592700435,0.026600618529365037,-0.09946042166263566,-0.10132521739907809, ,0.0016179012871044716, ,0.1029561478662351, ,1.7711216109737802e-05, ,0.17542959997088398,-0.2364700806087545,0.09106955766000001,1.6882137349939055,0.4760415651827945,-1.3092711290434524, ,0.0023115146820221447,-0.0029415128142097576,0.0003933521956400963,0.04044249766981913,-0.11003952944425592,-0.04146300795037261, ,0.07168006896972656
0.010125729199224408,0.02006819380433418,-0.08061796039937227, ,0.010337820074303828,0.020133537161918107,-0.08069447451998096, ,0.00023474817214371707, ,0.001497034808306752,0.00029004443568638534,-0.00019050756088562763,-0.08917585816396056,-0.1230201143068794,0.014849993992749524, ,0.001536727732133854, ,0.1519417065961696, ,1.9512341454935895e-05, ,0.17562266829273956,-0.23660908980049053,0.09108900201,1.6886331148808746,0.47289892568818936,-1.3136512101703826, ,0.006345832541230833,-0.004376365230217214,0.0,-0.0175918571032108,-0.11613820398714171,0.08588828916311697, ,0.10746407508850098
0.010159927941734967,0.020092548448020806,-0.08063635013349062, ,0.010393627181385008,0.020193224437568002,-0.08074252761679195, ,0.00027572567425707475, ,0.0010070141402442122,0.0008868596000350728,-0.0010546445986816103,-0.0597777645366928,0.015157743852486293,0.03050423907900853, ,0.0017067139943043924, ,0.06166959000756019, ,2.1431442876548177e-05, ,0.17598563673782813,-0.23684077178671725,0.0911162241,1.68842342493739,0.47276228918842395,-1.3086390678582525, ,0.012855180379093847,-0.006715585710213397,0.0014625578011328983,0.0,0.029411353047156377,0.07202385996266919, ,0.14589810371398926
0.010211174684006636,0.020144369278896082,-0.08067238796324211, ,0.010449830194722603,0.020251249454461114,-0.08079370131698191, ,0.00028826507682948446, ,0.0013939369974030377,0.0013702380680077355,-0.0013779768217646298,0.02978582043902616,-0.001704834951652417,-0.010185249651518869, ,0.002391533574313168, ,0.02983456990528464, ,2.330167995381388e-05, ,0.17661890083351453,-0.23727324482767384,0.09117326086000001,1.6892621847113283,0.47371874468678205,-1.3086838845228623, ,0.01496325158600927,-0.010967293472583727,0.0018705664948095607,0.010079945064837068,0.011192575371049573,-0.017249843266392034, ,0.1784830093383789
0.010257318046612701,0.02018841741779636,-0.08071603373388211, ,0.010506427056595389,0.020307632544976105,-0.08084795441408049, ,0.0003060565491327378, ,0.0015184374196246897,0.001512208615976746,-0.0013603583013898314,0.02186246323035512,-0.009850630530748647,0.001220754697499011, ,0.002538306877371414, ,0.023979203913960287, ,2.490737044628743e-05, ,0.177082264805968,-0.23763621327276238,0.09123159391,1.6894718746548125,0.47371874468678205,-1.3084388483024407, ,0.016078776949927275,-0.013149084322914062,0.00188605940284014,0.0,0.006407787450163008,-0.008858851769081015, ,0.21075797080993652
0.010303518972511506,0.020235849572540338,-0.0807582607547457, ,0.010563415715808676,0.0203623939330539,-0.0809052459378949, ,0.0003242906665626796, ,0.0016355801904841803,0.0017755498508701373,-0.0017294414171092297,0.01061707256871609,-0.011712902775280112,-0.012636174510534403, ,0.002969624125649914, ,0.01580867867144743, ,2.6358447729564138e-05, ,0.17756107424416992,-0.23803007264934783,0.09128992696,1.6898912545417817,0.47385538118654746,-1.307815157544872, ,0.015932998918480656,-0.014287404630904965,0.0022968726056236486,0.01803894854947915,0.0,0.00686942331488251, ,0.2430570125579834
0.010376303910176599,0.02030926358068306,-0.0808340969111947, ,0.010620794127684135,0.02041555373443903,-0.08096553515396193, ,0.00029723572279268223, ,0.001836514822973214,0.0017782986198720168,-0.001978938710633254,0.015381364217789666,-0.015247042608751793,-0.007939506891082958, ,0.003232851851984848, ,0.02165776243020139, ,2.712780277093087e-05, ,0.17827156566859859,-0.23860155488204046,0.09138974129,1.69073001431572,0.47385538118654746,-1.307815157544872, ,0.017827717745344876,-0.013863687590718885,0.002564613028497827,0.010921807738640332,0.0,0.00015172117622937447, ,0.2755711078643799
0.010433208801585311,0.020358513754617683,-0.08088650755837044, ,0.010678560254050265,0.020467131956922124,-0.08102878156300031, ,0.0003037056823504126, ,0.0020054641460295988,0.0017086682818212543,-0.0018611386195025441,-0.010469089626256617,-0.01763473529142852,4.4712812057682764e-05, ,0.0032257201830468898, ,0.02050818681353908, ,2.813574765677931e-05, ,0.17885849336703966,-0.23900313699150014,0.09145974095,1.69073001431572,0.47399201768631294,-1.3072731455274438, ,0.020096768648553743,-0.013300202040430382,0.002456633485502776,0.010921807738640332,0.0,0.02670964149816634, ,0.30458498001098633
0.010491381409899907,0.02040921227135248,-0.08094751174696094, ,0.01073671206323241,0.020517148500581225,-0.081094944900362, ,0.0003058985023932814, ,0.0018789506698795653,0.0016283583382139927,-0.0021920852217881042,0.014417056886455368,0.001981874975450726,-0.009047296258702, ,0.0033147012108263553, ,0.014552640916170234, ,2.8995455328471297e-05, ,0.1794763119969776,-0.23935065997084023,0.09154011093000002,1.691568774089658,0.47453856368537467,-1.306738672260543, ,0.01957849010903049,-0.01099483894675015,0.0028103054904728302,0.01658443586539414,0.018282170800108542,0.000710162113648204, ,0.33615899085998535
0.010553670498854799,0.02045439461010226,-0.08101549781525298, ,0.010795247530042809,0.020565623158023086,-0.08116398513548422, ,0.0003045976627284603, ,0.0019378726854609157,0.0015553952500506224,-0.0023199896142558304,0.025975521632226835,-0.001365943712175407,-0.01427649128417275, ,0.0033995524321872805, ,0.02601141146158559, ,2.970755356475257e-05, ,0.18007868516116712,-0.2396595692858092,0.09162436978,1.691568774089658,0.47453856368537467,-1.3064936360401214, ,0.021248755387028837,-0.009688118444208575,0.0031737022355050807,0.01658443586539414,0.01261468099117719,-0.0029174499143539605, ,0.3643679618835449
0.010599583536222992,0.02048459203184015,-0.0810705256217288, ,0.010854164635770488,0.02061257561462569,-0.08123586247134104, ,0.000329435285828851, ,0.00215742715725511,0.001535387688830736,-0.0027377659746708103,0.00859909845076217,-0.007842000844250943,-0.009429373183745291, ,0.0038088410082254766, ,0.011637932430347064, ,3.0541870449396486e-05, ,0.18051115820212368,-0.23983719214191637,0.09169048057000001,1.691568774089658,0.47453856368537467,-1.3062485998196995, ,0.020842728214028283,-0.008414414804428652,0.0033185024000000002,0.015061442435364118,0.00978651030451852,0.003201515772648724, ,0.393280029296875
0.010663581661246667,0.02053094866777889,-0.0811462751221768, ,0.010913461368171163,0.020658025448778372,-0.08131053734389475, ,0.0003249160717563511, ,0.0020688696407011047,0.0014925079719244347,-0.0025450224718512227,0.007106107435769629,-0.011930091421157196,-0.007139925975119103, ,0.0036034623653786665, ,0.013886102552519795, ,3.149163949735012e-05, ,0.1811366995649359,-0.2400920423267658,0.09178381345000002,1.6924075338635962,0.47481183668490556,-1.3062263994066705, ,0.019724993048944248,-0.008678206329765022,0.0030953772872133697,0.01178546008034301,0.005194629266747215,0.00408331557203764, ,0.4178659915924072
0.010708253138283158,0.020561811398833875,-0.08120340689125582, ,0.010973135721457038,0.020701992132123738,-0.08138797042154773, ,0.0003519618126563769, ,0.0023919632888558143,0.0016040291933365903,-0.003171082605446499,0.00298095469516311,-0.01783106317464442,-0.007200326164180057, ,0.004283709014262676, ,0.018078520528851928, ,3.255228736972856e-05, ,0.18156144987301823,-0.24026966518287293,0.09185251682000001,1.6924075338635962,0.47494847318467104,-1.3059294236096641, ,0.021810374984709443,-0.008115284603653905,0.003752370204946997,0.01178546008034301,0.0012499493079595936,0.0075164218838514344, ,0.4432399272918701
0.010753707054622252,0.02059537071192449,-0.0812699707437349, ,0.011033185696286524,0.020744495029798745,-0.0814681226045934, ,0.0003736449294312053, ,0.0023811780570119714,0.0017681092420764924,-0.00349309511762467,0.0005955509079132176,-0.005762786754900137,-0.005853745844866344, ,0.00458235013196121, ,0.005793478363324608, ,3.366510353646982e-05, ,0.1822101594344531,-0.24052451536772235,0.09197566437000002,1.6928269137505652,0.4753583826839673,-1.305936962360191, ,0.02292750460460758,-0.009137603181589793,0.004333191381936888,0.01086953834949642,0.010155989301224086,0.011764443268928271, ,0.46796512603759766
0.01083019880781543,0.020650699662896205,-0.08138261899101715, ,0.011093609299753927,0.02078555340067542,-0.08155095502466778, ,0.00034045210835230937, ,0.002416191947522333,0.0018052475010143598,-0.003493831903871355,-0.009202685965567423,-0.010802912716967825,0.0041642752784400066, ,0.004615600008633731, ,0.014191277307933552, ,3.4424497620506204e-05, ,0.18266580067403232,-0.24070986095670374,0.09206381209,1.6930366036940496,0.4753583826839673,-1.3054468899193479, ,0.022187734757650405,-0.009606282191492446,0.004151371258795935,0.007038317078766754,0.010155989301224086,0.021685969632963896, ,0.4932079315185547
0.010903778038895244,0.020701756480298393,-0.08147676099104809, ,0.011154404545378872,0.020825186397601933,-0.08163642904420113, ,0.0003217801694253834, ,0.002433353649574281,0.001583855880023991,-0.0026366584810681316,0.0286420145155822,-0.008937154850136384,-0.01898339603409022, ,0.003921960909847464, ,0.03000396194169544, ,3.4981798903829236e-05, ,0.18337629209846099,-0.2409801566073016,0.09217788561000001,1.6934559835810188,0.47576829218326366,-1.3051277137093127, ,0.02424551393931292,-0.008818287280125462,0.0032795576528721437,0.019307590866614998,0.011039232730647918,-0.016470257215638252, ,0.5182299613952637
0.010954174267238926,0.02073355436689933,-0.08153817197807696, ,0.01121556945309607,0.020863413067643555,-0.08172450625586809, ,0.0003462819493248407, ,0.0025432433731808974,0.0016106695423712138,-0.0031497654566312798,0.0015498921364810335,-0.010323346147045864,-0.0031520484038360767, ,0.004356990436268882, ,0.01043904406525959, ,3.5885051591921056e-05, ,0.1838551015366629,-0.2411423339976603,0.09225177414,1.6936656735245033,0.4759049286830291,-1.3050757741327281, ,0.024527511387560295,-0.008022302529328632,0.003798905680896733,0.01111582013863688,0.012020437632842277,0.009689683693489725, ,0.5408129692077637
0.011009882323972466,0.020767614557423597,-0.08161443505852221, ,0.011277102049244621,0.020900252352323265,-0.08181514848204013, ,0.0003595622958412866, ,0.00283263193837411,0.001754219520185262,-0.004033170674985878,0.0036246103466066218,-0.01279628364579797,-0.0019583635666845334, ,0.005231400913413359, ,0.013299724592685212, ,3.680385405236539e-05, ,0.18434935644061326,-0.2412967886551448,0.09233992186000001,1.6936656735245033,0.4760415651827945,-1.304860477075862, ,0.025878631458541256,-0.007202542359115328,0.00470709560283688,0.008504454546303504,0.011564699811179241,0.00620086356357683, ,0.562049150466919
0.011065503457808077,0.02080572296536097,-0.08170340240165122, ,0.011339000366557467,0.02093572308786217,-0.08190831777423577, ,0.00036563766335986523, ,0.0028341898110597835,0.0018882160673172079,-0.004850766180251112,0.0020039725571646427,-0.00751152795755182,-0.010621248801346172, ,0.005926881501891017, ,0.0077742495188466544, ,3.769228680724682e-05, ,0.1848667795431863,-0.24142807511400663,0.09244492135000001,1.6942947433549567,0.47645147468209087,-1.3049496945665298, ,0.024128385852649575,-0.005934761106106714,0.005546243565459611,0.018360316148869432,0.012718514939765198,0.008486651389878877, ,0.584528923034668
0.011125500989711337,0.0208412008901913,-0.08179753488493226, ,0.011401262444150684,0.020969844005420894,-0.08200397641257154, ,0.0003677112116655115, ,0.002885233301737287,0.001726255764104509,-0.004501946591852968,-0.019664556533637967,-0.004483091879573259,-0.0055752657342994566, ,0.0056189014303913935, ,0.020169107432310023, ,3.852990509613457e-05, ,0.18538420264575936,-0.24153619337424576,0.09255251342000001,1.6945044332984414,0.4765881111818563,-1.3044893612892423, ,0.025857477263888495,-0.004840898341894041,0.0051953070841487285,0.02111653148371175,0.017045949989216942,0.03095968695468579, ,0.6058530807495117
0.011174975709043727,0.02086802218784453,-0.08187075947461651, ,0.011463886327512812,0.021002633731338802,-0.082102086905214, ,0.0003938299039597377, ,0.0026077864861261306,0.0014424874967697188,-0.0036057787414585096,0.03405466489715155,0.006925433435069896,-0.0197097186392681, ,0.004677922708629671, ,0.03475171692033848, ,3.968611416785334e-05, ,0.18586301208396128,-0.241613420702988,0.09263806856000001,1.6945044332984414,0.4771346571809181,-1.304526639203325, ,0.02561320959742801,-0.004074767875522411,0.004271604054706356,0.02111653148371175,0.028435867101172276,-0.025231486228749274, ,0.6246180534362793
0.01123876715538551,0.02089762574790953,-0.0819604266094241, ,0.01152687006849417,0.021034110787375864,-0.0822026119878295, ,0.00040035635632919346, ,0.0029260435110502075,0.0015131331336799077,-0.0045220639472235685,0.030613097291671835,-0.000187234835681259,-0.0175709208598669, ,0.005594672899426579, ,0.030613669835256485, ,4.081419118176354e-05, ,0.18643449431665388,-0.2416752025659818,0.09274047547000001,1.6945044332984414,0.4772712936806835,-1.304147984666178, ,0.026799475164775707,-0.002429155695752601,0.005193613146397131,0.017421748094905036,0.02320316241453751,-0.02442908416231187, ,0.6423029899597168
0.011302646265451119,0.020932916159794944,-0.08206990156842374, ,0.011590211725295934,0.021064293590951605,-0.08230551462303559, ,0.00039429358936788565, ,0.0033376166884519494,0.001852078442473995,-0.006298863750439798,0.0007025306789607212,-0.007174207815431893,0.00014131155195405972, ,0.007365158807704989, ,0.007208522540608863, ,4.184800984186717e-05, ,0.18699825381647228,-0.24172153896322715,0.09286491931000002,1.6949238131854105,0.4778178396797452,-1.3045119775408234, ,0.027308472390926843,-0.0017418804631978777,0.007026383555359507,0.006592026591156952,0.01927349427402667,0.00387162268482174, ,0.6614990234375
0.01137553095237458,0.02097222773889577,-0.0822016084803696, ,0.011653909362459237,0.02109320045538682,-0.08241075799985184, ,0.0003686088154617813, ,0.0034184420641704782,0.001796972018966826,-0.00614532027273425,0.005380456962130271,-0.0022343721297458778,0.0006702578537951839, ,0.007258086237949946, ,0.005825952898119997, ,4.269123082732985e-05, ,0.1875774587820391,-0.24175242989472406,0.09301140008000001,1.6953431930723792,0.4779544761795107,-1.3042150017438168, ,0.02920804603215475,-0.001433041457334833,0.006904556358907673,0.006427816468357508,0.02639864035437614,-0.0007929639122799571, ,0.6791870594024658
0.011409740276981706,0.020988668272022556,-0.08226305163052638, ,0.011717961050854432,0.021120849590142658,-0.08251830553315091, ,0.000421457591118871, ,0.0037832333338119264,0.001860114830595619,-0.006569407666655004,-0.01296906237546734,-0.02171061954065727,0.0010263264740778687, ,0.007805767017518075, ,0.02528927771807982, ,4.399015656727571e-05, ,0.18787092263125965,-0.24175242989472406,0.09308010345,1.6953431930723792,0.47822774917904154,-1.3042744800709285, ,0.030730874857017743,-0.001025918463710871,0.0073067942752293585,0.006427816468357508,0.007818664350520413,0.016512374354290107, ,0.6947240829467773
0.011483678201154696,0.021025004492773742,-0.08239370017482439, ,0.011782364867670002,0.021147259101061657,-0.08262812086310897, ,0.0003988896753457953, ,0.0035875067032427174,0.0017754409606930035,-0.006365476634397702,0.016083778746310735,0.01127287537494843,0.0015593323659887964, ,0.007519420704667416, ,0.0196409176854971, ,4.512177610573608e-05, ,0.18850418672694605,-0.2417678753604725,0.09322658422,1.6953431930723792,0.4787742951781033,-1.3043934367251522, ,0.032212132233017915,-0.0003208657684874205,0.007201090198915011,0.006427816468357508,0.043500136082503194,-0.011770796429983557, ,0.7089869976043701
0.011520540950181225,0.02104083293809553,-0.08245328496952145, ,0.011847118896401582,0.02117244699060717,-0.08274016785465613, ,0.00045417750226011723, ,0.004016611348593755,0.0019320652522209182,-0.007015977758863065,-0.01318128756092858,-0.00545604596377935,0.006508093462169237, ,0.008312038665535239, ,0.014265860027459712, ,4.6483419876070275e-05, ,0.18880537330904082,-0.2417678753604725,0.09329269501000001,1.6953431930723792,0.4787742951781033,-1.3041484005047304, ,0.03430836643473275,-0.0002841104731543157,0.007866079762962965,0.006427816468357508,0.028410654575574474,0.017644140364787817, ,0.7253060340881348
0.011608307685696727,0.02108807096196783,-0.08261771846026976, ,0.01191222122684099,0.021196431158104014,-0.0828544105969281, ,0.00040016064293406644, ,0.0040565772331324955,0.002139122615348852,-0.007870527271722496,0.0175076943436795,0.013136796678834044,-0.002550882734704874, ,0.009109163734766949, ,0.021888233323223785, ,4.7528429453776546e-05, ,0.18953131019921793,-0.24177559809334673,0.09347676819,1.6959722629028329,0.47945747767693053,-1.3041337388422285, ,0.0344203632783717,0.00018693945549050976,0.008815058948533483,0.011210411955799379,0.04654392015256668,-0.012597381942810175, ,0.7394580841064453
0.011650666781123444,0.021109145491637258,-0.0826997012264309, ,0.01197766995506503,0.021219229399978397,-0.08297081340271631, ,0.0004388067396630788, ,0.004254764245101667,0.0023074165927584296,-0.008540502303690937,0.006216635604156651,0.001507814479003615,-0.0017552865930013876, ,0.009816688327194803, ,0.006396875588925001, ,4.8718348218599385e-05, ,0.1898711104456838,-0.2417678753604725,0.09356750849,1.6959722629028329,0.4797307506764614,-1.3042748959094808, ,0.03398887591635773,5.047109077470782e-05,0.00948143542857143,0.010498709246326909,0.03423356570173527,-0.0017610700668667795, ,0.7545580863952637
0.011688839379193502,0.021127432789155798,-0.08277191892513334, ,0.012043463183424573,0.021240859409997523,-0.08308934080791816, ,0.0004892650534358105, ,0.004520699796829844,0.0023001138013876115,-0.008760218450429909,0.011437202096154274,-0.011467555615771185,-0.006130063856542408, ,0.010122681337059057, ,0.016196122128398317, ,5.033679165624095e-05, ,0.1901568515620301,-0.24176015262759828,0.09364658218000001,1.6959722629028329,0.4797307506764614,-1.3040298596890592, ,0.03543575114207273,0.0006719173275846601,0.009683168097264439,0.009520021583520033,0.022487043288584068,-0.009017221416450151, ,0.7655420303344727
0.011745873431724861,0.021154119349138384,-0.08287249053217983, ,0.012109599020533053,0.02126133877951014,-0.08320995757098854, ,0.0005076182743808806, ,0.004878437426206262,0.0021046496706218724,-0.00799972484071919,-0.017735034646285123,-0.03717168044628626,-0.0022431427810372068, ,0.009603348347564948, ,0.04118574083761744, ,5.199543304885564e-05, ,0.19061249280160936,-0.24176015262759828,0.09375806312000001,1.6959722629028329,0.47986738717622685,-1.3042229563328962, ,0.0391166288369624,0.0006292910473867639,0.008869048730512249,0.008368793134137345,0.0,0.019553662316818335, ,0.7764420509338379
0.01179279232510415,0.021175777508242243,-0.08295795024196344, ,0.012176075581255764,0.021280684997686327,-0.08333262867238983, ,0.0005461644093260096, ,0.004609588229386644,0.0022105529364643073,-0.008340376844389586,0.02632030305627666,0.007113585088477936,-0.002334189230222999, ,0.009782470742907482, ,0.027264654874532702, ,5.3785240893715465e-05, ,0.1914465479520256,-0.24172926169610137,0.09395250662000001,1.6959722629028329,0.48068720617481947,-1.304809785014934, ,0.04274637007138323,0.0011571676420330265,0.00972454915750916,0.006931823978469012,0.038251388232312784,-0.022024590915891182, ,0.7875230312347412
0.01189761392873934,0.021224244671452803,-0.08314078966026961, ,0.012242890986698209,0.021298915451756627,-0.08345731931404238, ,0.0004743237226846471, ,0.005499133116993776,0.002564564632793048,-0.010088593259809193,0.004818606069086813,-0.02919770465728144,-0.013967006602805851, ,0.011772729961910198, ,0.02959264802605582, ,5.5201385690111395e-05, ,0.19187129826010793,-0.24172153896322715,0.09405750611000001,1.696391642789802,0.48082384267458494,-1.3047578454383495, ,0.04223272877546541,0.0019116507681271198,0.0111157093649686,0.01586377326604988,0.00958028755966772,-0.003158415437157434, ,0.7994189262390137
0.01189761392873934,0.021224244671452803,-0.08314078966026961, ,0.012310043364195044,0.021316047427253237,-0.08358399491877545, ,0.0006123370692438081, ,0.005499133116993776,0.002564564632793048,-0.010088593259809193,0.004818606069086813,-0.02919770465728144,-0.013967006602805851, ,0.011772729961910198, ,0.02959264802605582, ,5.745221213793016e-05, ,0.19187129826010793,-0.24172153896322715,0.09405750611000001,1.696391642789802,0.48082384267458494,-1.3047578454383495, ,0.04223272877546541,0.0019116507681271198,0.0111157093649686,0.01586377326604988,0.00958028755966772,-0.003158415437157434, ,0.8065299987792969
0.011953619524223582,0.02125171793308003,-0.08324608220722847, ,0.0123775308472988,0.021332098108248564,-0.08371262112977755, ,0.0006354686055540147, ,0.00602136710180708,0.0029486278555305927,-0.011510947603913023,0.01897774399805204,-0.026493595807609724,-0.009302176622389895, ,0.01332115545833643, ,0.03258934157017722, ,5.9765830721388625e-05, ,0.19231149403393874,-0.2417060934974787,0.09417417221,1.6966013327332867,0.48109711567411584,-1.3047356450253205, ,0.04582179698622442,0.0014443743583423423,0.012682174777070065,0.008568468132273748,0.017883827313882928,-0.018249760953556342, ,0.8135919570922852
0.011999008340732465,0.021273899777412487,-0.08334235333407233, ,0.012445351575768484,0.02134708457759571,-0.08384316381004704, ,0.0006748254820961421, ,0.005995335521168583,0.0031325284436522077,-0.01345615938894988,0.0738367017245012,0.0385993968780544,-0.008915197090944104, ,0.015060710738955844, ,0.08331729424154914, ,6.22120590062052e-05, ,0.19267446247902728,-0.24166747983310757,0.09428046799,1.6966013327332867,0.48164366167317757,-1.3050996378999655, ,0.04756738925236631,0.005418593226373681,0.014858965970149254,0.008468232928076228,0.0871256790696165,-0.07421226085927043, ,0.8207569122314453
0.012085166955124248,0.021323287731050532,-0.08353992119171637, ,0.01251350369555835,0.02136102381716803,-0.08397558904184221, ,0.0006121297664992724, ,0.008084098530101369,0.004656398005002071,-0.018607642472469387,-0.0018503006838365545,-0.031239928265550554,0.013754409261364493, ,0.020815356105736482, ,0.03129464011419903, ,6.43417779952308e-05, ,0.19329228110896526,-0.24162886616873647,0.09449694842,1.696811022676771,0.4823268441720048,-1.3054933699381666, ,0.054195854687875945,0.0018381160756028496,0.020239912986022877,-0.007657264963040393,0.025735891473633803,0.0006486589417893287, ,0.8291411399841309
0.012085166955124248,0.021323287731050532,-0.08353992119171637, ,0.012581985358806341,0.021373932708098835,-0.08410986312613274, ,0.0007577778358752104, ,0.008084098530101369,0.004656398005002071,-0.018607642472469387,-0.0018503006838365545,-0.031239928265550554,0.013754409261364493, ,0.020815356105736482, ,0.03129464011419903, ,6.706512985620375e-05, ,0.19329228110896526,-0.24162886616873647,0.09449694842,1.696811022676771,0.4823268441720048,-1.3054933699381666, ,0.054195854687875945,0.0018381160756028496,0.020239912986022877,-0.007657264963040393,0.025735891473633803,0.0006486589417893287, ,0.8362729549407959
0.01216942892866816,0.02136859086101937,-0.08373824676062196, ,0.012650794723822904,0.02138582803102118,-0.08424595258204862, ,0.0006998395172360238, ,0.00861667140487276,0.0043618861833742755,-0.020222289373462293,-0.032102605556612075,-0.048386303052405544,0.014573214870824375, ,0.022410133080379268, ,0.05806727326794299, ,6.949306658377291e-05, ,0.19383287241016098,-0.24155936157286845,0.09471083627000002,1.696811022676771,0.4824634806717702,-1.3053597516214412, ,0.054822034406973294,0.009527910576612236,0.021730984338335608,-0.007657264963040393,0.008651823106750826,0.02304615418273578, ,0.8434500694274902
0.01216942892866816,0.02136859086101937,-0.08373824676062196, ,0.01271992995507943,0.021396726466307397,-0.08438382414633191, ,0.0008488893645846264, ,0.00861667140487276,0.0043618861833742755,-0.020222289373462293,-0.032102605556612075,-0.048386303052405544,0.014573214870824375, ,0.022410133080379268, ,0.05806727326794299, ,7.282381999403296e-05, ,0.19383287241016098,-0.24155936157286845,0.09471083627000002,1.696811022676771,0.4824634806717702,-1.3053597516214412, ,0.054822034406973294,0.009527910576612236,0.021730984338335608,-0.007657264963040393,0.008651823106750826,0.02304615418273578, ,0.8470540046691895
0.01225571064036992,0.021415021711842546,-0.08394456798654006, ,0.01278938922319681,0.02140664459430874,-0.08452344477278662, ,0.0007873889378962843, ,0.008534342383489744,0.0045492964419031195,-0.02023385958499038,0.03345081766382666,0.01690303587394073,0.015371204101062061, ,0.02242632764721074, ,0.0374788798207731, ,7.586452262340425e-05, ,0.19442752284147627,-0.24147441151125196,0.09493509444,1.696811022676771,0.4831466631705974,-1.3058351623997828, ,0.060482435665054665,0.008180473749301595,0.022062065817174518,-0.007657264963040393,0.08211537472465195,-0.03830370203194929, ,0.8506510257720947
0.01225571064036992,0.021415021711842546,-0.08394456798654006, ,0.012859170704934093,0.02141559889559518,-0.08466478163172927, ,0.000939612727341229, ,0.008534342383489744,0.0045492964419031195,-0.02023385958499038,0.03345081766382666,0.01690303587394073,0.015371204101062061, ,0.02242632764721074, ,0.0374788798207731, ,0.00042654035326911876, ,0.19442752284147627,-0.24147441151125196,0.09493509444,1.696811022676771,0.4831466631705974,-1.3058351623997828, ,0.060482435665054665,0.008180473749301595,0.022062065817174518,-0.007657264963040393,0.08211537472465195,-0.03830370203194929, ,0.8542821407318115
0.01225571064036992,0.021415021711842546,-0.08394456798654006, ,0.01292927258317676,0.021423605751194872,-0.08480780210943889, ,0.0010949577742845832, ,0.008534342383489744,0.0045492964419031195,-0.02023385958499038,0.03345081766382666,0.01690303587394073,0.015371204101062061, ,0.02242632764721074, ,0.0374788798207731, ,0.00044139407373612914, ,0.19442752284147627,-0.24147441151125196,0.09493509444,1.696811022676771,0.4831466631705974,-1.3058351623997828, ,0.060482435665054665,0.008180473749301595,0.022062065817174518,-0.007657264963040393,0.08211537472465195,-0.03830370203194929, ,0.8579521179199219
0.01225571064036992,0.021415021711842546,-0.08394456798654006, ,0.012999693046925496,0.02143068144283389,-0.08495247380760797, ,0.0012528484316075624, ,0.008534342383489744,0.0045492964419031195,-0.02023385958499038,0.03345081766382666,0.01690303587394073,0.015371204101062061, ,0.02242632764721074, ,0.0374788798207731, ,0.000459034385863769, ,0.19442752284147627,-0.24147441151125196,0.09493509444,1.696811022676771,0.4831466631705974,-1.3058351623997828, ,0.060482435665054665,0.008180473749301595,0.022062065817174518,-0.007657264963040393,0.08211537472465195,-0.03830370203194929, ,0.8616089820861816
0.012397880352030897,0.021485592099144538,-0.08428545873168589, ,0.013070430291284397,0.021436842153175376,-0.08509876454279233, ,0.0010564877284670164, ,0.01113466118224955,0.005518055132532147,-0.027831717242803936,0.04589375969777852,0.011008173365954265,0.008001736635367764, ,0.030480060642533984, ,0.047195342574082685, ,0.00047174615911064663, ,0.19540830991650276,-0.2412658977236479,0.09530453709000002,1.696811022676771,0.4843763916684864,-1.3066745660527697, ,0.0732794915509427,0.01898698310493613,0.02999776180790961,-0.007657264963040393,0.08918543398539153,-0.06190788734869058, ,0.8652479648590088
0.012397880352030897,0.021485592099144538,-0.08428545873168589, ,0.013141482517449557,0.021442103966059577,-0.08524664234586184, ,0.001216021931666891, ,0.01113466118224955,0.005518055132532147,-0.027831717242803936,0.04589375969777852,0.011008173365954265,0.008001736635367764, ,0.030480060642533984, ,0.047195342574082685, ,0.00048725190437223505, ,0.19540830991650276,-0.2412658977236479,0.09530453709000002,1.696811022676771,0.4843763916684864,-1.3066745660527697, ,0.0732794915509427,0.01898698310493613,0.02999776180790961,-0.007657264963040393,0.08918543398539153,-0.06190788734869058, ,0.8688850402832031
0.012518665361653053,0.02154791926853707,-0.08459855604472838, ,0.013212847932697447,0.021446482866743298,-0.08539607546145042, ,0.0010621751294392742, ,0.01287209210715455,0.006897134015272424,-0.034253282066571224,0.12281165931247737,0.09081960512787388,0.009178608206601394, ,0.03723638738078371, ,0.15274441785378104, ,0.0004989850314144195, ,0.19621147413542211,-0.24104966120316962,0.09564286878000001,1.696811022676771,0.4857427566661408,-1.3076253876094528, ,0.0870614142738264,0.022589131530223943,0.03713009678321679,-0.007657264963040393,0.18603271565554794,-0.13843647119094565, ,0.872870922088623
0.012518665361653053,0.02154791926853707,-0.08459855604472838, ,0.013284524750373294,0.021449994742138757,-0.08554703234740664, ,0.0012230033167998765, ,0.01287209210715455,0.006897134015272424,-0.034253282066571224,0.12281165931247737,0.09081960512787388,0.009178608206601394, ,0.03723638738078371, ,0.15274441785378104, ,0.0005134653971221286, ,0.19621147413542211,-0.24104966120316962,0.09564286878000001,1.696811022676771,0.4857427566661408,-1.3076253876094528, ,0.0870614142738264,0.022589131530223943,0.03713009678321679,-0.007657264963040393,0.18603271565554794,-0.13843647119094565, ,0.8765029907226562
0.012518665361653053,0.02154791926853707,-0.08459855604472838, ,0.01335651118987963,0.021452655381054165,-0.08569948167424365, ,0.0013867581194493299, ,0.01287209210715455,0.006897134015272424,-0.034253282066571224,0.12281165931247737,0.09081960512787388,0.009178608206601394, ,0.03723638738078371, ,0.15274441785378104, ,0.0005305887838344268, ,0.19621147413542211,-0.24104966120316962,0.09564286878000001,1.696811022676771,0.4857427566661408,-1.3076253876094528, ,0.0870614142738264,0.022589131530223943,0.03713009678321679,-0.007657264963040393,0.18603271565554794,-0.13843647119094565, ,0.8800859451293945
0.012656345697997003,0.021620289550933536,-0.08496963883223851, ,0.013428805476664467,0.021454480474432377,-0.08585339232459059, ,0.0011854142713640856, ,0.015091911207237048,0.007718089792247442,-0.04064869513516116,0.0859018071076824,0.0451342779411517,0.004233873814917933, ,0.044041470344660334, ,0.09703665561332127, ,0.0005431815816715356, ,0.19710731114883215,-0.24077936555257176,0.09604342239000001,1.696811022676771,0.48751903116309153,-1.308910462877225, ,0.09321899956627777,0.03094129167214567,0.043640579506849325,-0.006970740485949528,0.14487918431492686,-0.11158122035306847, ,0.8836579322814941
0.012656345697997003,0.021620289550933536,-0.08496963883223851, ,0.013501405842209692,0.021455485615590787,-0.08600873339264091, ,0.0013494459936948477, ,0.015091911207237048,0.007718089792247442,-0.04064869513516116,0.0859018071076824,0.0451342779411517,0.004233873814917933, ,0.044041470344660334, ,0.09703665561332127, ,0.0005583941177474471, ,0.19710731114883215,-0.24077936555257176,0.09604342239000001,1.696811022676771,0.48751903116309153,-1.308910462877225, ,0.09321899956627777,0.03094129167214567,0.043640579506849325,-0.006970740485949528,0.14487918431492686,-0.11158122035306847, ,0.887282133102417
0.012656345697997003,0.021620289550933536,-0.08496963883223851, ,0.01357431052401955,0.021455686300460176,-0.0861654741836048, ,0.0015165011834675035, ,0.015091911207237048,0.007718089792247442,-0.04064869513516116,0.0859018071076824,0.0451342779411517,0.004233873814917933, ,0.044041470344660334, ,0.09703665561332127, ,0.0005761368411867075, ,0.19710731114883215,-0.24077936555257176,0.09604342239000001,1.696811022676771,0.48751903116309153,-1.308910462877225, ,0.09321899956627777,0.03094129167214567,0.043640579506849325,-0.006970740485949528,0.14487918431492686,-0.11158122035306847, ,0.8911139965057373
0.01279484697026297,0.021689807511835208,-0.08534397768893415, ,0.0136475177656088,0.021455097927825236,-0.08632358421315794, ,0.0013197594539777523, ,0.016963107703306415,0.008182602686820244,-0.04560955177822563,0.016892064952631503,0.01682857293399618,0.014992438027276036, ,0.049345042538181845, ,0.023839994889304238, ,0.0005896572523283629, ,0.1979336435663742,-0.24047817897047702,0.09644397600000001,1.696811022676771,0.48861212316121505,-1.309311733665953, ,0.10031389171085707,0.03931107769613537,0.04871196183486239,-0.0063898916299190795,0.12295053464742417,-0.04950874218194168, ,0.8951730728149414
0.01279484697026297,0.021689807511835208,-0.08534397768893415, ,0.01372102581649111,0.021453735799562713,-0.08648303320689252, ,0.0014869379884605714, ,0.016963107703306415,0.008182602686820244,-0.04560955177822563,0.016892064952631503,0.01682857293399618,0.014992438027276036, ,0.049345042538181845, ,0.023839994889304238, ,0.000605680122616438, ,0.1979336435663742,-0.24047817897047702,0.09644397600000001,1.696811022676771,0.48861212316121505,-1.309311733665953, ,0.10031389171085707,0.03931107769613537,0.04871196183486239,-0.0063898916299190795,0.12295053464742417,-0.04950874218194168, ,0.898838996887207
0.01279484697026297,0.021689807511835208,-0.08534397768893415, ,0.01379483293216743,0.021451615120882103,-0.08664379109976744, ,0.0016571730272050742, ,0.017134489733359147,0.007278949602794854,-0.04456852703757014,0.0296389713082611,0.01733209132775583,0.008748697159945149, ,0.048300387659326684, ,0.034332115582892446, ,0.0006241273665565896, ,0.19909205349750786,-0.24000709226514932,0.09699878812000001,1.6966013327332867,0.48997848815886946,-1.310099197742355, ,0.10371250443548719,0.04602179513019921,0.047548691104477625,-0.006591575171035029,0.12692277434227325,-0.06954782131654584, ,0.9028229713439941
0.012990378558507768,0.021780171805733863,-0.08586386591452276, ,0.013868937374114175,0.021448751000563867,-0.08680582803555804, ,0.001330036834093158, ,0.017134489733359147,0.007278949602794854,-0.04456852703757014,0.0296389713082611,0.01733209132775583,0.008748697159945149, ,0.048300387659326684, ,0.034332115582892446, ,0.0006362982194451511, ,0.19909205349750786,-0.24000709226514932,0.09699878812000001,1.6966013327332867,0.48997848815886946,-1.310099197742355, ,0.10371250443548719,0.04602179513019921,0.047548691104477625,-0.006591575171035029,0.12692277434227325,-0.06954782131654584, ,0.9066660404205322
0.012990378558507768,0.021780171805733863,-0.08586386591452276, ,0.013943337409771404,0.02144515845119966,-0.08696911436630719, ,0.0014973104755159677, ,0.017134489733359147,0.007278949602794854,-0.04456852703757014,0.0296389713082611,0.01733209132775583,0.008748697159945149, ,0.048300387659326684, ,0.034332115582892446, ,0.000650891647514148, ,0.19909205349750786,-0.24000709226514932,0.09699878812000001,1.6966013327332867,0.48997848815886946,-1.310099197742355, ,0.10371250443548719,0.04602179513019921,0.047548691104477625,-0.006591575171035029,0.12692277434227325,-0.06954782131654584, ,0.9102139472961426
0.013164560319122146,0.021840233771161663,-0.08630077088031392, ,0.01401803131253142,0.021440852389431383,-0.08713362065177485, ,0.0012575996845126548, ,0.018301163343923493,0.005620224958864121,-0.045328304195462944,0.05938343806109668,0.053651580999205424,0.0031433595219065307, ,0.04920543333378573, ,0.08002932900722348, ,0.0006610034481307897, ,0.20019640429852195,-0.23942788729958248,0.09746415623000002,1.6966013327332867,0.4914814896562893,-1.3111614372027345, ,0.11876963899683453,0.06645444086727646,0.048269125818181824,-0.006048567732529389,0.17984403113322522,-0.11742874723198303, ,0.9137661457061768
0.013164560319122146,0.021840233771161663,-0.08630077088031392, ,0.014093017361726625,0.02143584763619066,-0.08729931765888867, ,0.0014222012147093153, ,0.018301163343923493,0.005620224958864121,-0.045328304195462944,0.05938343806109668,0.053651580999205424,0.0031433595219065307, ,0.04920543333378573, ,0.08002932900722348, ,0.0006734821000419131, ,0.20019640429852195,-0.23942788729958248,0.09746415623000002,1.6966013327332867,0.4914814896562893,-1.3111614372027345, ,0.11876963899683453,0.06645444086727646,0.048269125818181824,-0.006048567732529389,0.17984403113322522,-0.11742874723198303, ,0.9173750877380371
0.013343009579158169,0.021889771989869338,-0.08673646787611543, ,0.014168293842618057,0.02143015891693814,-0.0874661763611943, ,0.0011936552121613242, ,0.018900476618978437,0.004759214816854795,-0.044900848102000186,0.07380482859206537,0.06495801717202913,-0.00369044811799757, ,0.04894858835938392, ,0.09831843272899375, ,0.0006818719889470649, ,0.2013779824282783,-0.23874828680665072,0.09792822805000001,1.696391642789802,0.49339440065300544,-1.3127212878544845, ,0.12686756892843687,0.07454590852982779,0.04783426882882884,-0.002473419774081122,0.19890793815540034,-0.1387108056494311, ,0.9264099597930908
0.013343009579158169,0.021889771989869338,-0.08673646787611543, ,0.014243859046383464,0.02142380086190286,-0.08763416793830525, ,0.0013544461068473942, ,0.018900476618978437,0.004759214816854795,-0.044900848102000186,0.07380482859206537,0.06495801717202913,-0.00369044811799757, ,0.04894858835938392, ,0.09831843272899375, ,0.0006925477685962765, ,0.2013779824282783,-0.23874828680665072,0.09792822805000001,1.696391642789802,0.49339440065300544,-1.3127212878544845, ,0.12686756892843687,0.07454590852982779,0.04783426882882884,-0.002473419774081122,0.19890793815540034,-0.1387108056494311, ,0.9302449226379395
0.013558207428753622,0.021932178041070546,-0.08720663164420259, ,0.014319711270105676,0.021416788006321682,-0.08780326377535311, ,0.001096122661125835, ,0.01955439325220158,0.002902918550215568,-0.03908478610420685,0.028847187198167364,-0.011016363788696783,0.015388789075735376, ,0.04379979151071992, ,0.030877650026519772, ,0.0006988536262920508, ,0.20289163807162633,-0.23791423165623446,0.09842989228000001,1.6957625729593484,0.49544394814948706,-1.31431087766979, ,0.1407966491965442,0.0771519850068868,0.0416984594764398,-0.02795089639795184,0.14083099227565432,-0.10419879235793425, ,0.9338719844818115
0.013558207428753622,0.021932178041070546,-0.08720663164420259, ,0.014395848816760587,0.02140913479067865,-0.08797343546243863, ,0.0012502821410962134, ,0.01955439325220158,0.002902918550215568,-0.03908478610420685,0.028847187198167364,-0.011016363788696783,0.015388789075735376, ,0.04379979151071992, ,0.030877650026519772, ,0.0007073371419044226, ,0.20289163807162633,-0.23791423165623446,0.09842989228000001,1.6957625729593484,0.49544394814948706,-1.31431087766979, ,0.1407966491965442,0.0771519850068868,0.0416984594764398,-0.02795089639795184,0.14083099227565432,-0.10419879235793425, ,0.937453031539917
0.013558207428753622,0.021932178041070546,-0.08720663164420259, ,0.014472269995205523,0.021400855560944062,-0.08814465479408044, ,0.0014134006448927247, ,0.01955439325220158,0.002902918550215568,-0.03908478610420685,0.028847187198167364,-0.011016363788696783,0.015388789075735376, ,0.04379979151071992, ,0.030877650026519772, ,0.0007180350737678817, ,0.20289163807162633,-0.23791423165623446,0.09842989228000001,1.6957625729593484,0.49544394814948706,-1.31431087766979, ,0.1407966491965442,0.0771519850068868,0.0416984594764398,-0.02795089639795184,0.14083099227565432,-0.10419879235793425, ,0.9410610198974609
0.01374435611785648,0.02194397007161147,-0.08755063757133313, ,0.01454897312016747,0.021391964568814297,-0.08831689376866705, ,0.001240672057990717, ,0.019366429289408665,-0.0004989265895957518,-0.034437341413213474,-0.06835109525618584,-0.09331444793436192,0.047905253137933215, ,0.03951250428375427, ,0.11566939950681232, ,0.0007258356257712076, ,0.20424311632461561,-0.23708789923869245,0.09879414977,1.695552883015864,0.49626376714807974,-1.314734348871547, ,0.14163722620667282,0.09833879954245676,0.03611975401360545,-0.06569107990434073,0.06588646478431166,-0.03773670164595158, ,0.9445929527282715
0.01374435611785648,0.02194397007161147,-0.08755063757133313, ,0.014625956512231126,0.02138247597195061,-0.08849012458790532, ,0.0014053934444215998, ,0.019366429289408665,-0.0004989265895957518,-0.034437341413213474,-0.06835109525618584,-0.09331444793436192,0.047905253137933215, ,0.03951250428375427, ,0.11566939950681232, ,0.0007358291231043016, ,0.20424311632461561,-0.23708789923869245,0.09879414977,1.695552883015864,0.49626376714807974,-1.314734348871547, ,0.14163722620667282,0.09833879954245676,0.03611975401360545,-0.06569107990434073,0.06588646478431166,-0.03773670164595158, ,0.9482331275939941
0.01374435611785648,0.02194397007161147,-0.08755063757133313, ,0.014703218497827233,0.021372403834218918,-0.08866431965627203, ,0.00157682998885869, ,0.019366429289408665,-0.0004989265895957518,-0.034437341413213474,-0.06835109525618584,-0.09331444793436192,0.047905253137933215, ,0.03951250428375427, ,0.11566939950681232, ,0.0007480175414485681, ,0.20424311632461561,-0.23708789923869245,0.09879414977,1.695552883015864,0.49626376714807974,-1.314734348871547, ,0.14163722620667282,0.09833879954245676,0.03611975401360545,-0.06569107990434073,0.06588646478431166,-0.03773670164595158, ,0.9517920017242432
0.013951038670781115,0.02193204445606199,-0.08791751732626302, ,0.014780757409220519,0.021361762125928795,-0.08883945158046312, ,0.0013651439081822571, ,0.019716506078514367,-0.0018073945354054872,-0.035618870008593304,0.009775962446060616,-0.02613433267724888,0.013062465876882723, ,0.040751824347380755, ,0.0279018897882785, ,0.0007568336324019065, ,0.2057799401665863,-0.235937212040433,0.09917914790000001,1.695552883015864,0.4973568591462032,-1.3153806558806966, ,0.14758466805360929,0.11629527151773382,0.03730400824355972,-0.04318829866311612,0.1356641589184698,-0.12803973862536155, ,0.9554059505462646
0.013951038670781115,0.02193204445606199,-0.08791751732626302, ,0.014858571584498213,0.02135056472407297,-0.08901549316884459, ,0.0015385985893294546, ,0.019716506078514367,-0.0018073945354054872,-0.035618870008593304,0.009775962446060616,-0.02613433267724888,0.013062465876882723, ,0.040751824347380755, ,0.0279018897882785, ,0.0007678444064431396, ,0.2057799401665863,-0.235937212040433,0.09917914790000001,1.695552883015864,0.4973568591462032,-1.3153806558806966, ,0.14758466805360929,0.11629527151773382,0.03730400824355972,-0.04318829866311612,0.1356641589184698,-0.12803973862536155, ,0.9592721462249756
0.014147757178324123,0.02191509052018642,-0.08828808323015595, ,0.014936659367557791,0.021338825412566494,-0.08919241743090237, ,0.0013312657454759103, ,0.019903948482655438,-0.001416446466990687,-0.038439111599341776,0.06425987513060334,0.04735076549639071,-0.027424173542511542, ,0.043309800118918856, ,0.0798206904546469, ,0.0007756697028185948, ,0.20719320028256938,-0.23477880210929933,0.09955247942,1.6953431930723792,0.499133133643154,-1.31682908862875, ,0.14667224352159317,0.12088782364136405,0.04022427151515152,0.0,0.20080117500411807,-0.17624565856842148, ,0.9636180400848389
0.014147757178324123,0.02191509052018642,-0.08828808323015595, ,0.015015019108095454,0.021326557882486143,-0.08937019757669239, ,0.001506481124823378, ,0.019903948482655438,-0.001416446466990687,-0.038439111599341776,0.06425987513060334,0.04735076549639071,-0.027424173542511542, ,0.043309800118918856, ,0.0798206904546469, ,0.0007856808181885233, ,0.20719320028256938,-0.23477880210929933,0.09955247942,1.6953431930723792,0.499133133643154,-1.31682908862875, ,0.14667224352159317,0.12088782364136405,0.04022427151515152,0.0,0.20080117500411807,-0.17624565856842148, ,0.9672379493713379
0.014147757178324123,0.02191509052018642,-0.08828808323015595, ,0.015093649161594174,0.021313775732309886,-0.08954880701629106, ,0.001686924889572855, ,0.019903948482655438,-0.001416446466990687,-0.038439111599341776,0.06425987513060334,0.04735076549639071,-0.027424173542511542, ,0.043309800118918856, ,0.0798206904546469, ,0.0007978597921261493, ,0.20719320028256938,-0.23477880210929933,0.09955247942,1.6953431930723792,0.499133133643154,-1.31682908862875, ,0.14667224352159317,0.12088782364136405,0.04022427151515152,0.0,0.20080117500411807,-0.17624565856842148, ,0.9709000587463379
0.014356910014460725,0.021896004179531706,-0.08869828677294843, ,0.015172547889311662,0.02130049246815555,-0.08972821935924527, ,0.001442449470031312, ,0.02142878714255633,-0.001725920571707655,-0.04219172072788273,0.029715296238390615,0.03674632202762672,0.003923396266618966, ,0.047353067674655254, ,0.04725629388368544, ,0.0008064543211648848, ,0.20867596499442048,-0.23353544211654917,0.09996599593000001,1.6947141232419258,0.5011826811396356,-1.318582035924337, ,0.15256743015831317,0.133469678703897,0.044124131634349036,-0.028918179963327652,0.20685238530137834,-0.15906795981064287, ,0.974592924118042
0.014356910014460725,0.021896004179531706,-0.08869828677294843, ,0.015251713658268811,0.021286721504021052,-0.08990840841402273, ,0.0016236666301448718, ,0.02142878714255633,-0.001725920571707655,-0.04219172072788273,0.029715296238390615,0.03674632202762672,0.003923396266618966, ,0.047353067674655254, ,0.04725629388368544, ,0.0008172071147040952, ,0.20867596499442048,-0.23353544211654917,0.09996599593000001,1.6947141232419258,0.5011826811396356,-1.318582035924337, ,0.15256743015831317,0.133469678703897,0.044124131634349036,-0.028918179963327652,0.20685238530137834,-0.15906795981064287, ,0.9782619476318359
0.014356910014460725,0.021896004179531706,-0.08869828677294843, ,0.015331144841237581,0.021272476162022956,-0.09008934818746198, ,0.0018091358559466323, ,0.02142878714255633,-0.001725920571707655,-0.04219172072788273,0.029715296238390615,0.03674632202762672,0.003923396266618966, ,0.047353067674655254, ,0.04725629388368544, ,0.0008300893061488034, ,0.20867596499442048,-0.23353544211654917,0.09996599593000001,1.6947141232419258,0.5011826811396356,-1.318582035924337, ,0.15256743015831317,0.133469678703897,0.044124131634349036,-0.028918179963327652,0.20685238530137834,-0.15906795981064287, ,0.9818060398101807
0.01457675950015222,0.021877903153867666,-0.08914422866300786, ,0.015410839816729133,0.021257769672635873,-0.09027101288422243, ,0.0015329377646283694, ,0.02320701607408269,-0.0016253157268098523,-0.0490389578963234,-0.017805463954559123,-0.0055958452274755726,0.06394964078781183, ,0.054277312367433286, ,0.01865648494460752, ,0.0008391001838216184, ,0.21030546163088185,-0.23209901380194342,0.10046377129,1.6936656735245033,0.5030955921363518,-1.3201418865760868, ,0.15405347655595905,0.14356572096591644,0.05105388307692308,-0.09575249354315046,0.17561103252708746,-0.13568841720304822, ,0.9854080677032471
0.01457675950015222,0.021877903153867666,-0.08914422866300786, ,0.015490796968982203,0.021242615174932252,-0.09045337690623502, ,0.0017184075283091947, ,0.02320701607408269,-0.0016253157268098523,-0.0490389578963234,-0.017805463954559123,-0.0055958452274755726,0.06394964078781183, ,0.054277312367433286, ,0.01865648494460752, ,0.000850230656536651, ,0.21030546163088185,-0.23209901380194342,0.10046377129,1.6936656735245033,0.5030955921363518,-1.3201418865760868, ,0.15405347655595905,0.14356572096591644,0.05105388307692308,-0.09575249354315046,0.17561103252708746,-0.13568841720304822, ,0.9890310764312744
0.01457675950015222,0.021877903153867666,-0.08914422866300786, ,0.015571014687950774,0.021227025716820867,-0.09063641485215229, ,0.0019075650551407994, ,0.02320701607408269,-0.0016253157268098523,-0.0490389578963234,-0.017805463954559123,-0.0055958452274755726,0.06394964078781183, ,0.054277312367433286, ,0.01865648494460752, ,0.0008634473365192027, ,0.21030546163088185,-0.23209901380194342,0.10046377129,1.6936656735245033,0.5030955921363518,-1.3201418865760868, ,0.15405347655595905,0.14356572096591644,0.05105388307692308,-0.09575249354315046,0.17561103252708746,-0.13568841720304822, ,0.9928059577941895
0.014802519188250974,0.021865293129314303,-0.08962769628230684, ,0.01565149136929264,0.021211014255286726,-0.09082010151679798, ,0.001603329302552447, ,0.024865127630804524,-0.0014796733508219036,-0.053460113672714686,-0.04593805353228948,-0.02988379002609986,0.010922867392398863, ,0.05897836687482035, ,0.05479880475565155, ,0.0008725816817788724, ,0.21175733541123606,-0.23068575368596034,0.10096673181000002,1.6936656735245033,0.5045985936337716,-1.3213674835167475, ,0.15659561313279005,0.15405347655595905,0.05550108543554008,-0.0432397299654034,0.1406972846064656,-0.10842148559952329, ,0.9967410564422607
0.014802519188250974,0.021865293129314303,-0.08962769628230684, ,0.01573222541435718,0.02119459365662995,-0.09100441189061777, ,0.0017915181594632657, ,0.024865127630804524,-0.0014796733508219036,-0.053460113672714686,-0.04593805353228948,-0.02988379002609986,0.010922867392398863, ,0.05897836687482035, ,0.05479880475565155, ,0.0008837882241896577, ,0.21175733541123606,-0.23068575368596034,0.10096673181000002,1.6936656735245033,0.5045985936337716,-1.3213674835167475, ,0.15659561313279005,0.15405347655595905,0.05550108543554008,-0.0432397299654034,0.1406972846064656,-0.10842148559952329, ,1.0003559589385986
0.014802519188250974,0.021865293129314303,-0.08962769628230684, ,0.015813215230173552,0.021177776696705522,-0.09118932115912923, ,0.001983143360974092, ,0.024865127630804524,-0.0014796733508219036,-0.053460113672714686,-0.04593805353228948,-0.02988379002609986,0.010922867392398863, ,0.05897836687482035, ,0.05479880475565155, ,0.0008970334668015183, ,0.21352584123943347,-0.22886318872764336,0.10160061762000001,1.6934559835810188,0.5061015951311915,-1.3224297229771271, ,0.14689929033819007,0.16057012108032281,0.052919639601328915,0.0,0.12364476084529158,-0.10082401173974002, ,1.0039341449737549
0.015087128960318715,0.021842727570414156,-0.09023962937221451, ,0.01589445922943897,0.021160576061162117,-0.09137480470237247, ,0.0015510434794717553, ,0.023848275291973142,-0.002674457174140922,-0.0512416677107391,-0.05189781681297198,-0.026802962703687087,-0.033977990732118615, ,0.056582695812022354, ,0.05840743892607625, ,0.0009048193002856879, ,0.21352584123943347,-0.22886318872764336,0.10160061762000001,1.6934559835810188,0.5061015951311915,-1.3224297229771271, ,0.14689929033819007,0.16057012108032281,0.052919639601328915,0.0,0.12364476084529158,-0.10082401173974002, ,1.0077729225158691
0.015087128960318715,0.021842727570414156,-0.09023962937221451, ,0.015975955830506365,0.021143004345681227,-0.09156083809435946, ,0.001739315464161146, ,0.023848275291973142,-0.002674457174140922,-0.0512416677107391,-0.05189781681297198,-0.026802962703687087,-0.033977990732118615, ,0.056582695812022354, ,0.05840743892607625, ,0.0009146369022136345, ,0.21352584123943347,-0.22886318872764336,0.10160061762000001,1.6934559835810188,0.5061015951311915,-1.3224297229771271, ,0.14689929033819007,0.16057012108032281,0.052919639601328915,0.0,0.12364476084529158,-0.10082401173974002, ,1.0113320350646973
0.015324128206033003,0.021803722578240328,-0.09075083856292987, ,0.016057703457373028,0.0211250740562172,-0.09174739710252433, ,0.0014113204415232567, ,0.02407993728634517,-0.0042591557728374405,-0.05200421267671337,-0.0286267098718877,0.008454009502018967,0.05335675012783197, ,0.05746670273938158, ,0.02984256082652982, ,0.0009204122922056067, ,0.21500088321841035,-0.2271796329610624,0.10212691136000002,1.6926172238070805,0.5076045966286112,-1.3237369986579282, ,0.15183510649355325,0.17316960138407075,0.05363236202020203,-0.09564417613667485,0.1870608097799557,-0.15431004128311648, ,1.0149140357971191
0.015324128206033003,0.021803722578240328,-0.09075083856292987, ,0.016139700539668157,0.021106797609235617,-0.09193445768717462, ,0.0015974407266284467, ,0.02407993728634517,-0.0042591557728374405,-0.05200421267671337,-0.0286267098718877,0.008454009502018967,0.05335675012783197, ,0.05746670273938158, ,0.02984256082652982, ,0.0009281942282334555, ,0.21500088321841035,-0.2271796329610624,0.10212691136000002,1.6926172238070805,0.5076045966286112,-1.3237369986579282, ,0.15183510649355325,0.17316960138407075,0.05363236202020203,-0.09564417613667485,0.1870608097799557,-0.15431004128311648, ,1.0184879302978516
0.015324128206033003,0.021803722578240328,-0.09075083856292987, ,0.016221945512641337,0.02108818733195311,-0.09212199600094004, ,0.0017883342317741846, ,0.02407993728634517,-0.0042591557728374405,-0.05200421267671337,-0.0286267098718877,0.008454009502018967,0.05335675012783197, ,0.05746670273938158, ,0.02984256082652982, ,0.0009379685464555092, ,0.21500088321841035,-0.2271796329610624,0.10212691136000002,1.6926172238070805,0.5076045966286112,-1.3237369986579282, ,0.15183510649355325,0.17316960138407075,0.05363236202020203,-0.09564417613667485,0.1870608097799557,-0.15431004128311648, ,1.0221531391143799
0.01555618499112609,0.021760087353674285,-0.09125977734121316, ,0.016304436817150377,0.021069255462576472,-0.09230998838822349, ,0.0014628987456994438, ,0.023033666980147197,-0.004616447423901045,-0.048759236138914905,-0.030710519941518296,-0.0012301932603008517,0.05379572320028414, ,0.0541232344767054, ,0.030730665583456128, ,0.0009438666385818455, ,0.2164604797316388,-0.22548835446160723,0.10265190881000001,1.6913590841461734,0.5096541441250929,-1.3255716246936557, ,0.145102357123044,0.1667784561660295,0.0502486167823344,-0.09746110421938789,0.17017890000066394,-0.14755864528521848, ,1.0258071422576904
0.01555618499112609,0.021760087353674285,-0.09125977734121316, ,0.01638717289964948,0.021050014150541807,-0.09249841138465084, ,0.001651956159067693, ,0.023033666980147197,-0.004616447423901045,-0.048759236138914905,-0.030710519941518296,-0.0012301932603008517,0.05379572320028414, ,0.0541232344767054, ,0.030730665583456128, ,0.0009517342999205772, ,0.2164604797316388,-0.22548835446160723,0.10265190881000001,1.6913590841461734,0.5096541441250929,-1.3255716246936557, ,0.145102357123044,0.1667784561660295,0.0502486167823344,-0.09746110421938789,0.17017890000066394,-0.14755864528521848, ,1.0295641422271729
0.01555618499112609,0.021760087353674285,-0.09125977734121316, ,0.016470152212177305,0.021030475456754048,-0.09268724171652147, ,0.001845352037974865, ,0.023033666980147197,-0.004616447423901045,-0.048759236138914905,-0.030710519941518296,-0.0012301932603008517,0.05379572320028414, ,0.0541232344767054, ,0.030730665583456128, ,0.0009615542750640309, ,0.2164604797316388,-0.22548835446160723,0.10265190881000001,1.6913590841461734,0.5096541441250929,-1.3255716246936557, ,0.145102357123044,0.1667784561660295,0.0502486167823344,-0.09746110421938789,0.17017890000066394,-0.14755864528521848, ,1.0334880352020264
0.015796496856327565,0.021708483812573526,-0.09174897692347779, ,0.01655337321234504,0.021010651353825852,-0.09287645630025756, ,0.001526774935556589, ,0.024190155988667354,-0.00657189951354121,-0.048287606625729514,-0.12734706240136182,-0.09391082918106708,-0.005048842100423482, ,0.054406309042365104, ,0.15822849177710394, ,0.0009676979778954717, ,0.21793552171061567,-0.22372757136628404,0.10315357304000002,1.6913590841461734,0.5106105996234509,-1.3265965862399525, ,0.14735549931439562,0.1860724344283741,0.049162998518518526,-0.04006010485497839,0.06400733949720464,-0.06113261992688202, ,1.0370559692382812
0.015796496856327565,0.021708483812573526,-0.09174897692347779, ,0.016636834363324415,0.020990553726317328,-0.09306603224185583, ,0.0017193677460291632, ,0.024190155988667354,-0.00657189951354121,-0.048287606625729514,-0.12734706240136182,-0.09391082918106708,-0.005048842100423482, ,0.054406309042365104, ,0.15822849177710394, ,0.0009757804485205653, ,0.21793552171061567,-0.22372757136628404,0.10315357304000002,1.6913590841461734,0.5106105996234509,-1.3265965862399525, ,0.14735549931439562,0.1860724344283741,0.049162998518518526,-0.04006010485497839,0.06400733949720464,-0.06113261992688202, ,1.0406551361083984
0.015796496856327565,0.021708483812573526,-0.09174897692347779, ,0.01672053413383576,0.02097019437097458,-0.09325594683633545, ,0.0019156916526569387, ,0.024190155988667354,-0.00657189951354121,-0.048287606625729514,-0.12734706240136182,-0.09391082918106708,-0.005048842100423482, ,0.054406309042365104, ,0.15822849177710394, ,0.0009857795038837182, ,0.21941056368959255,-0.2217891654148537,0.10369542226000002,1.6911493942026892,0.5117036916215745,-1.3278963231702265, ,0.1353736684143663,0.1860724344283741,0.05492693627586208,0.0,0.12739668842540527,-0.16217136425669457, ,1.0442841053009033
0.01604642850748319,0.02164642071455545,-0.09227962215129046, ,0.01680447099813626,0.02094958499696998,-0.0934461775671908, ,0.0015559755696362288, ,0.023925560357210884,-0.0053326304494022,-0.05370772072136714,-0.01805366540322199,-0.011089250727775458,-0.05871356624501974, ,0.05903718024263017, ,0.021176861044909342, ,0.0009917815677337445, ,0.21941056368959255,-0.2217891654148537,0.10369542226000002,1.6911493942026892,0.5117036916215745,-1.3278963231702265, ,0.1353736684143663,0.1860724344283741,0.05492693627586208,0.0,0.12739668842540527,-0.16217136425669457, ,1.048457145690918
0.01604642850748319,0.02164642071455545,-0.09227962215129046, ,0.01688864343600766,0.020928737226140328,-0.09363670210583926, ,0.001751017298147378, ,0.023925560357210884,-0.0053326304494022,-0.05370772072136714,-0.01805366540322199,-0.011089250727775458,-0.05871356624501974, ,0.05903718024263017, ,0.021176861044909342, ,0.0009996902732588866, ,0.21941056368959255,-0.2217891654148537,0.10369542226000002,1.6911493942026892,0.5117036916215745,-1.3278963231702265, ,0.1353736684143663,0.1860724344283741,0.05492693627586208,0.0,0.12739668842540527,-0.16217136425669457, ,1.0520169734954834
0.016270475552591094,0.021587437342147714,-0.09279204521543613, ,0.01697304993274459,0.020907662593226847,-0.09382749831107286, ,0.001424032156302019, ,0.022601898882792435,-0.006706992281891426,-0.051506493779017816,-0.022892495721545673,-0.023034219529655998,0.08816327843945632, ,0.056645816085438526, ,0.03246966473641783, ,0.00100406493184696, ,0.22066936914809113,-0.21998976865515937,0.10421782713000001,1.6901009444852664,0.5130700566192289,-1.3299089683487368, ,0.12737844504492724,0.18534558898138823,0.05239740631578948,-0.15989092012935135,0.14252895510643473,-0.19113559874312358, ,1.0556011199951172
0.016270475552591094,0.021587437342147714,-0.09279204521543613, ,0.01705768897914255,0.020886372546114203,-0.09401854422850778, ,0.0016172497198163667, ,0.022601898882792435,-0.006706992281891426,-0.051506493779017816,-0.022892495721545673,-0.023034219529655998,0.08816327843945632, ,0.056645816085438526, ,0.03246966473641783, ,0.0010103219194793009, ,0.22066936914809113,-0.21998976865515937,0.10421782713000001,1.6901009444852664,0.5130700566192289,-1.3299089683487368, ,0.12737844504492724,0.18534558898138823,0.05239740631578948,-0.15989092012935135,0.14252895510643473,-0.19113559874312358, ,1.0592010021209717
0.016270475552591094,0.021587437342147714,-0.09279204521543613, ,0.017142559071485947,0.02086487844606966,-0.09420981809003509, ,0.0018145801018908383, ,0.022601898882792435,-0.006706992281891426,-0.051506493779017816,-0.022892495721545673,-0.023034219529655998,0.08816327843945632, ,0.056645816085438526, ,0.03246966473641783, ,0.00101844573950366, ,0.22066936914809113,-0.21998976865515937,0.10421782713000001,1.6901009444852664,0.5130700566192289,-1.3299089683487368, ,0.12737844504492724,0.18534558898138823,0.05239740631578948,-0.15989092012935135,0.14252895510643473,-0.19113559874312358, ,1.0629229545593262
0.016503042011753493,0.021518040350460982,-0.09332158328127663, ,0.017227658711536087,0.0208431915679826,-0.0944012983132696, ,0.0014650169934604716, ,0.022823493265796982,-0.006543042799103074,-0.052828896866908066,-0.08375757354260924,-0.03758900356673495,0.01779836356721818, ,0.05791904348398015, ,0.09180333777362097, ,0.001022911452043228, ,0.22190500640796706,-0.2181363127653455,0.10473634313,1.6888428048243591,0.5142997851171178,-1.3313201231827074, ,0.12150696742441842,0.18866191164705923,0.053452387651006725,-0.0741127391280159,0.10470567970256932,-0.11661675583698441, ,1.0666871070861816
0.016503042011753493,0.021518040350460982,-0.09332158328127663, ,0.017312986406519366,0.020821323100603358,-0.09459296350100196, ,0.0016606723072209865, ,0.022823493265796982,-0.006543042799103074,-0.052828896866908066,-0.08375757354260924,-0.03758900356673495,0.01779836356721818, ,0.05791904348398015, ,0.09180333777362097, ,0.001029225915955879, ,0.22190500640796706,-0.2181363127653455,0.10473634313,1.6888428048243591,0.5142997851171178,-1.3313201231827074, ,0.12150696742441842,0.18866191164705923,0.053452387651006725,-0.0741127391280159,0.10470567970256932,-0.11661675583698441, ,1.07047700881958
0.016503042011753493,0.021518040350460982,-0.09332158328127663, ,0.017398540669115097,0.02079928414678278,-0.09478479244064696, ,0.001859975636863978, ,0.022823493265796982,-0.006543042799103074,-0.052828896866908066,-0.08375757354260924,-0.03758900356673495,0.01779836356721818, ,0.05791904348398015, ,0.09180333777362097, ,0.0010373705210628213, ,0.22190500640796706,-0.2181363127653455,0.10473634313,1.6888428048243591,0.5142997851171178,-1.3313201231827074, ,0.12150696742441842,0.18866191164705923,0.053452387651006725,-0.0741127391280159,0.10470567970256932,-0.11661675583698441, ,1.0741870403289795
0.01672100599312831,0.021454470373336126,-0.09383214832539044, ,0.017484320017443725,0.02077708572371146,-0.09497676410369461, ,0.0015335069426665772, ,0.022565289487523163,-0.0071219155127446344,-0.05203814135393879,-0.0551574778378366,-0.028299780548509637,-0.029301227848957424, ,0.05716539272845862, ,0.061990671395554, ,0.0010421873795249934, ,0.22309430727059765,-0.21622879774541204,0.10527430348000001,1.6888428048243591,0.5153928771152414,-1.3326198601129817, ,0.11862117694808846,0.19209907198071008,0.05274440900662252,-0.03313404081947818,0.09964149482825216,-0.13898641567012693, ,1.0787410736083984
0.01672100599312831,0.021454470373336126,-0.09383214832539044, ,0.01757032297505489,0.020754738763158833,-0.09516885764516028, ,0.0017314027456457766, ,0.022565289487523163,-0.0071219155127446344,-0.05203814135393879,-0.0551574778378366,-0.028299780548509637,-0.029301227848957424, ,0.05716539272845862, ,0.061990671395554, ,0.0010488144503530779, ,0.22309430727059765,-0.21622879774541204,0.10527430348000001,1.6888428048243591,0.5153928771152414,-1.3326198601129817, ,0.11862117694808846,0.19209907198071008,0.05274440900662252,-0.03313404081947818,0.09964149482825216,-0.13898641567012693, ,1.0822861194610596
0.01694922338896098,0.021377875605682037,-0.09435080239095678, ,0.017656548070915254,0.020732254111712676,-0.09536105240303493, ,0.0013920274444424012, ,0.022279377016004194,-0.007540485961749833,-0.049895449554977184,-0.034630146088541404,0.006075502541367311,-0.057134773588768964, ,0.0551614489934218, ,0.03515465122583829, ,0.0010520831455348811, ,0.22432222179759934,-0.2142595008624848,0.10580059722000001,1.6886331148808746,0.5166226056131303,-1.3341943724272334, ,0.12166274558778303,0.1913244789485298,0.05072869910828026,0.0,0.13084590111857158,-0.14994203968937295, ,1.085839033126831
0.01694922338896098,0.021377875605682037,-0.09435080239095678, ,0.017742993839396756,0.020709642531017904,-0.09555332789773435, ,0.0015882929718760185, ,0.022279377016004194,-0.007540485961749833,-0.049895449554977184,-0.034630146088541404,0.006075502541367311,-0.057134773588768964, ,0.0551614489934218, ,0.03515465122583829, ,0.0010571417288022503, ,0.22432222179759934,-0.2142595008624848,0.10580059722000001,1.6886331148808746,0.5166226056131303,-1.3341943724272334, ,0.12166274558778303,0.1913244789485298,0.05072869910828026,0.0,0.13084590111857158,-0.14994203968937295, ,1.0894320011138916
0.01694922338896098,0.021377875605682037,-0.09435080239095678, ,0.01782965882026458,0.02068691469801625,-0.09574566383155053, ,0.0017883601323761284, ,0.022279377016004194,-0.007540485961749833,-0.049895449554977184,-0.034630146088541404,0.006075502541367311,-0.057134773588768964, ,0.0551614489934218, ,0.03515465122583829, ,0.0010639755456580808, ,0.22432222179759934,-0.2142595008624848,0.10580059722000001,1.6886331148808746,0.5166226056131303,-1.3341943724272334, ,0.12166274558778303,0.1913244789485298,0.05072869910828026,0.0,0.13084590111857158,-0.14994203968937295, ,1.0929911136627197
0.017175049828453217,0.021295362179141557,-0.09486733458369372, ,0.017916541558665053,0.02066408120518539,-0.095938040088101, ,0.0014473202586917822, ,0.022338339868307744,-0.008094682676042865,-0.05146617344415762,-0.06373487729629304,-0.017616228687708842,0.10401243631775292, ,0.0566859094015609, ,0.06612189510437355, ,0.0010675250337417262, ,0.22553469085885258,-0.21231337217818022,0.10632429838000002,1.687165285276483,0.5179889706107847,-1.3358803026451815, ,0.11891847313091576,0.1905561075471301,0.05222561154098361,-0.16938835260008808,0.14017231970027658,-0.15692922270741025, ,1.0965189933776855
0.017175049828453217,0.021295362179141557,-0.09486733458369372, ,0.01800364060511388,0.020641152560778083,-0.09613043673177918, ,0.0016462016694270827, ,0.022338339868307744,-0.008094682676042865,-0.05146617344415762,-0.06373487729629304,-0.017616228687708842,0.10401243631775292, ,0.0566859094015609, ,0.06612189510437355, ,0.0010728339937021423, ,0.22553469085885258,-0.21231337217818022,0.10632429838000002,1.687165285276483,0.5179889706107847,-1.3358803026451815, ,0.11891847313091576,0.1905561075471301,0.05222561154098361,-0.16938835260008808,0.14017231970027658,-0.15692922270741025, ,1.100222110748291
0.017175049828453217,0.021295362179141557,-0.09486733458369372, ,0.018090954515484113,0.02061813918906161,-0.096322834007205, ,0.0018482399589500433, ,0.022338339868307744,-0.008094682676042865,-0.05146617344415762,-0.06373487729629304,-0.017616228687708842,0.10401243631775292, ,0.0566859094015609, ,0.06612189510437355, ,0.0010798831388407597, ,0.22553469085885258,-0.21231337217818022,0.10632429838000002,1.687165285276483,0.5179889706107847,-1.3358803026451815, ,0.11891847313091576,0.1905561075471301,0.05222561154098361,-0.16938835260008808,0.14017231970027658,-0.15692922270741025, ,1.1039609909057617
0.017399181370377284,0.021218612295391313,-0.09538902182563724, ,0.018178481850994178,0.02059505143055674,-0.0965152123386741, ,0.0015048064536335541, ,0.02286125220258042,-0.00761698930843622,-0.05338574853567199,-0.009900122553528902,0.015060338909330909,-0.005157921723727722, ,0.05857212242277741, ,0.018010902178631737, ,0.001083711276811866, ,0.22670082352286047,-0.21040585715824678,0.10685448099000001,1.686326525502545,0.5193553356084392,-1.3374845541229892, ,0.11862117694808846,0.19287996251721704,0.05436454443686007,-0.06416119405251085,0.15026894276884284,-0.19104895407851624, ,1.1076269149780273
0.017399181370377284,0.021218612295391313,-0.09538902182563724, ,0.018266221178195662,0.020571899542277075,-0.09670755232960845, ,0.0017054378039919548, ,0.02286125220258042,-0.00761698930843622,-0.05338574853567199,-0.009900122553528902,0.015060338909330909,-0.005157921723727722, ,0.05857212242277741, ,0.018010902178631737, ,0.001089262406518831, ,0.22670082352286047,-0.21040585715824678,0.10685448099000001,1.686326525502545,0.5193553356084392,-1.3374845541229892, ,0.11862117694808846,0.19287996251721704,0.05436454443686007,-0.06416119405251085,0.15026894276884284,-0.19104895407851624, ,1.1112730503082275
0.01762907792750572,0.021148588412424257,-0.0959325979859681, ,0.01835417106896177,0.020548693697968523,-0.0968998347620071, ,0.0013495112867778689, ,0.022602690184072908,-0.006720902852742701,-0.05399935111722533,-0.03723452457109072,0.019312547903837487,-0.024698883216990458, ,0.058923527217865826, ,0.04193954207112836, ,0.0010915654939547517, ,0.2278669561868684,-0.2084983421383133,0.10740929311000001,1.686326525502545,0.520858337105859,-1.3391185447643525, ,0.11230407285026127,0.18462439991920385,0.055116994878892746,-0.03050702501397172,0.14114794217119456,-0.14682042055604486, ,1.1154041290283203
0.01762907792750572,0.021148588412424257,-0.0959325979859681, ,0.01844233010047505,0.020525443988348265,-0.09709204059589507, ,0.001547254095425385, ,0.022602690184072908,-0.006720902852742701,-0.05399935111722533,-0.03723452457109072,0.019312547903837487,-0.024698883216990458, ,0.058923527217865826, ,0.04193954207112836, ,0.0010955627623887047, ,0.2278669561868684,-0.2084983421383133,0.10740929311000001,1.686326525502545,0.520858337105859,-1.3391185447643525, ,0.11230407285026127,0.18462439991920385,0.055116994878892746,-0.03050702501397172,0.14114794217119456,-0.14682042055604486, ,1.1189839839935303
0.01762907792750572,0.021148588412424257,-0.0959325979859681, ,0.018530696855215502,0.0205021604213442,-0.09728415096877469, ,0.0017485654988560557, ,0.022602690184072908,-0.006720902852742701,-0.05399935111722533,-0.03723452457109072,0.019312547903837487,-0.024698883216990458, ,0.058923527217865826, ,0.04193954207112836, ,0.001101241047053638, ,0.2278669561868684,-0.2084983421383133,0.10740929311000001,1.686326525502545,0.520858337105859,-1.3391185447643525, ,0.11230407285026127,0.18462439991920385,0.055116994878892746,-0.03050702501397172,0.14114794217119456,-0.14682042055604486, ,1.1226539611816406
0.01785469656077129,0.021082653397604748,-0.09647475336085172, ,0.01861926992094863,0.020478852922333826,-0.09747614719507461, ,0.0013971174067521589, ,0.022850077208004683,-0.006613471475698688,-0.05473689191777002,-0.026766095670738257,0.012356179046678595,-0.04773542688870882, ,0.05968242094779075, ,0.02947215087342271, ,0.0011037917053269013, ,0.22897130698788248,-0.20667577717999633,0.10796280894000002,1.6859071456155759,0.5222247021035133,-1.340559438761879, ,0.11060249598889368,0.18390880146990463,0.05589056673684212,-0.01185127368866068,0.1281915444364406,-0.15364242683540644, ,1.1262810230255127
0.01785469656077129,0.021082653397604748,-0.09647475336085172, ,0.01870804789071333,0.020455531334384037,-0.09766801076560123, ,0.0015954165000029298, ,0.022850077208004683,-0.006613471475698688,-0.05473689191777002,-0.026766095670738257,0.012356179046678595,-0.04773542688870882, ,0.05968242094779075, ,0.02947215087342271, ,0.0011079936266489186, ,0.22897130698788248,-0.20667577717999633,0.10796280894000002,1.6859071456155759,0.5222247021035133,-1.340559438761879, ,0.11060249598889368,0.18390880146990463,0.05589056673684212,-0.01185127368866068,0.1281915444364406,-0.15364242683540644, ,1.1298649311065674
0.01785469656077129,0.021082653397604748,-0.09647475336085172, ,0.018797029362810098,0.02043220541848987,-0.09785972334698761, ,0.00179700182132078, ,0.022850077208004683,-0.006613471475698688,-0.05473689191777002,-0.026766095670738257,0.012356179046678595,-0.04773542688870882, ,0.05968242094779075, ,0.02947215087342271, ,0.0011138326791461377, ,0.22897130698788248,-0.20667577717999633,0.10796280894000002,1.6859071456155759,0.5222247021035133,-1.340559438761879, ,0.11060249598889368,0.18390880146990463,0.05589056673684212,-0.01185127368866068,0.1281915444364406,-0.15364242683540644, ,1.1334619522094727
0.018079037759825264,0.02100928089927265,-0.09701823168783749, ,0.018886212940788998,0.020408884853814126,-0.09805126678114451, ,0.001441932275861078, ,0.02265276465456156,-0.007556542133298936,-0.05501891031488464,-0.0854451571990794,0.008897075450971863,0.10194473833251572, ,0.05997774226948356, ,0.08590418319371597, ,0.0011165898186143307, ,0.2300524895902739,-0.20484548948880513,0.10851632477,1.6844393160111841,0.5235910671011678,-1.3421636902396867, ,0.10945437319316122,0.18534558898138823,0.05608736450704226,-0.15494752098221934,0.1533482998227684,-0.1255267182136621, ,1.1400830745697021
0.018079037759825264,0.02100928089927265,-0.09701823168783749, ,0.018975597233437495,0.02038557923792627,-0.09824262308470985, ,0.0016407184233820026, ,0.02265276465456156,-0.007556542133298936,-0.05501891031488464,-0.0854451571990794,0.008897075450971863,0.10194473833251572, ,0.05997774226948356, ,0.08590418319371597, ,0.0011209575569873947, ,0.2300524895902739,-0.20484548948880513,0.10851632477,1.6844393160111841,0.5235910671011678,-1.3421636902396867, ,0.10945437319316122,0.18534558898138823,0.05608736450704226,-0.15494752098221934,0.1533482998227684,-0.1255267182136621, ,1.143855094909668
0.018319327161216852,0.020933129824940395,-0.09759797291409261, ,0.019065180854768708,0.020362298087041833,-0.09843377444849946, ,0.0012572632222784864, ,0.02230371548496072,-0.006641310701601841,-0.05295263935832648,-0.03233563115507966,0.009955756600672149,-0.009303720016048577, ,0.05784068418753598, ,0.033827411981276784, ,0.0011220840500889737, ,0.23112594945979112,-0.20303064726336237,0.10906595173000001,1.6838102461807307,0.5250940685985876,-1.3437976808810501, ,0.10662577703198964,0.17671683716661224,0.05436454443686007,-0.05212535941802215,0.13695437903519497,-0.15528365855823112, ,1.1474919319152832
0.018319327161216852,0.020933129824940395,-0.09759797291409261, ,0.01915496242400938,0.02033905083626192,-0.09862470323695657, ,0.0014509966550960449, ,0.02230371548496072,-0.006641310701601841,-0.05295263935832648,-0.03233563115507966,0.009955756600672149,-0.009303720016048577, ,0.05784068418753598, ,0.033827411981276784, ,0.001124780055048048, ,0.23112594945979112,-0.20303064726336237,0.10906595173000001,1.6838102461807307,0.5250940685985876,-1.3437976808810501, ,0.10662577703198964,0.17671683716661224,0.05436454443686007,-0.05212535941802215,0.13695437903519497,-0.15528365855823112, ,1.1510670185089111
0.018319327161216852,0.020933129824940395,-0.09759797291409261, ,0.01924494056558768,0.020315846839811743,-0.09881539198760267, ,0.0016492142549184982, ,0.02230371548496072,-0.006641310701601841,-0.05295263935832648,-0.03233563115507966,0.009955756600672149,-0.009303720016048577, ,0.05784068418753598, ,0.033827411981276784, ,0.0011290437477299217, ,0.23112594945979112,-0.20303064726336237,0.10906595173000001,1.6838102461807307,0.5250940685985876,-1.3437976808810501, ,0.10662577703198964,0.17671683716661224,0.05436454443686007,-0.05212535941802215,0.13695437903519497,-0.15528365855823112, ,1.1546781063079834
0.018530301002493796,0.020870141994636705,-0.09807648085208914, ,0.019335113909121574,0.020292695371280867,-0.0990058234104872, ,0.0013582510844279015, ,0.022014865455070507,-0.007252190120480168,-0.047789171487133596,-0.05676269329800629,-0.03907987908536855,-0.030279958006566528, ,0.05311359029452923, ,0.06891292362604114, ,0.001130892193993615, ,0.23224574572655368,-0.20126986416803916,0.10959872692000001,1.6838102461807307,0.5261871605967111,-1.3449340603310431, ,0.11086091303559671,0.16945882421155498,0.04886138503067485,-0.02708088264317169,0.07872020321428483,-0.11449204123263067, ,1.1582081317901611
0.018530301002493796,0.020870141994636705,-0.09807648085208914, ,0.019425481089406577,0.020269605623861507,-0.09919598038763769, ,0.0015541140661876882, ,0.022014865455070507,-0.007252190120480168,-0.047789171487133596,-0.05676269329800629,-0.03907987908536855,-0.030279958006566528, ,0.05311359029452923, ,0.06891292362604114, ,0.0011342779689711678, ,0.23224574572655368,-0.20126986416803916,0.10959872692000001,1.6838102461807307,0.5261871605967111,-1.3449340603310431, ,0.11086091303559671,0.16945882421155498,0.04886138503067485,-0.02708088264317169,0.07872020321428483,-0.11449204123263067, ,1.1617770195007324
0.018754709855525752,0.02078742576356444,-0.0985555671200629, ,0.019516040746403722,0.02024658671058819,-0.09938584597250964, ,0.0012495977670632932, ,0.02127311319301693,-0.008042502991105533,-0.045108442438077566,-0.02982522431944514,0.023006127574318618,-0.03334065471765854, ,0.050517311671091615, ,0.037664826421944964, ,0.0011351932054639623, ,0.23341187839056157,-0.1994859128740933,0.11008872454000002,1.6833908662937616,0.5272802525948347,-1.3460704397810361, ,0.11364903180655184,0.17098548028553293,0.046304684651162796,-0.017134228349826586,0.14315278843525378,-0.13761724870034603, ,1.165679931640625
0.018754709855525752,0.02078742576356444,-0.0985555671200629, ,0.019606791525227853,0.020223647664577078,-0.09957540338943778, ,0.00144359098538076, ,0.02127311319301693,-0.008042502991105533,-0.045108442438077566,-0.02982522431944514,0.023006127574318618,-0.03334065471765854, ,0.050517311671091615, ,0.037664826421944964, ,0.0011376215344396853, ,0.23341187839056157,-0.1994859128740933,0.11008872454000002,1.6833908662937616,0.5272802525948347,-1.3460704397810361, ,0.11364903180655184,0.17098548028553293,0.046304684651162796,-0.017134228349826586,0.14315278843525378,-0.13761724870034603, ,1.1692609786987305
0.018754709855525752,0.02078742576356444,-0.0985555671200629, ,0.019697732076135337,0.02020079743926517,-0.09976463603308447, ,0.0016417281552890415, ,0.02127311319301693,-0.008042502991105533,-0.045108442438077566,-0.02982522431944514,0.023006127574318618,-0.03334065471765854, ,0.050517311671091615, ,0.037664826421944964, ,0.0011415598674150709, ,0.23341187839056157,-0.1994859128740933,0.11008872454000002,1.6833908662937616,0.5272802525948347,-1.3460704397810361, ,0.11364903180655184,0.17098548028553293,0.046304684651162796,-0.017134228349826586,0.14315278843525378,-0.13761724870034603, ,1.1728811264038086
0.018754709855525752,0.02078742576356444,-0.0985555671200629, ,0.019788861054512333,0.020178044908649356,-0.0999535274678918, ,0.0018425815756172924, ,0.02127311319301693,-0.008042502991105533,-0.045108442438077566,-0.02982522431944514,0.023006127574318618,-0.03334065471765854, ,0.050517311671091615, ,0.037664826421944964, ,0.00114699414422284, ,0.23341187839056157,-0.1994859128740933,0.11008872454000002,1.6833908662937616,0.5272802525948347,-1.3460704397810361, ,0.11364903180655184,0.17098548028553293,0.046304684651162796,-0.017134228349826586,0.14315278843525378,-0.13761724870034603, ,1.1770009994506836
0.018988572168821542,0.020695543698767818,-0.09905410328355568, ,0.019880177120862527,0.02015539886752589,-0.10014206142752999, ,0.001506774287098566, ,0.02138169025612126,-0.007903594428801081,-0.04542346599228373,-0.030969373976463096,-0.002920223347968322,0.09338846850663995, ,0.05082258106251435, ,0.03110364051749255, ,0.0011497616837834225, ,0.23467068384906017,-0.19763245698427942,0.11060075909000001,1.6819230366893698,0.5290565270917854,-1.3480906237100736, ,0.11351308798860141,0.16249476294258697,0.04671205724340176,-0.15565970109482183,0.14398900433806788,-0.16098807330509435, ,1.1809320449829102
0.018988572168821542,0.020695543698767818,-0.09905410328355568, ,0.01997167894079537,0.02013286803172946,-0.10033022181434828, ,0.001706335645765543, ,0.02138169025612126,-0.007903594428801081,-0.04542346599228373,-0.030969373976463096,-0.002920223347968322,0.09338846850663995, ,0.05082258106251435, ,0.03110364051749255, ,0.0011540103399817593, ,0.23467068384906017,-0.19763245698427942,0.11060075909000001,1.6819230366893698,0.5290565270917854,-1.3480906237100736, ,0.11351308798860141,0.16249476294258697,0.04671205724340176,-0.15565970109482183,0.14398900433806788,-0.16098807330509435, ,1.1845269203186035
0.019239749917402432,0.020615879217314708,-0.09959447571640377, ,0.020063365185013952,0.02011046103837248,-0.10051799269882523, ,0.00190800261197135, ,0.022118222168386548,-0.006285682462416896,-0.047999338362268086,0.02607809728146651,0.0050767699431287575,-0.034973385853034486, ,0.05322275865758879, ,0.02656286815217521, ,0.0011597224026483471, ,0.23596038023905566,-0.195794446560214,0.11115816379000001,1.6812939668589162,0.5305595285892053,-1.3498062930915777, ,0.11125081073677699,0.1558242061715448,0.04962246579439253,-0.032032826294738054,0.12473258782206767,-0.18576381503201278, ,1.188493013381958
0.019239749917402432,0.020615879217314708,-0.09959447571640377, ,0.02015523452930299,0.020088186446084275,-0.10070535831901865, ,0.0015331770583425733, ,0.022118222168386548,-0.006285682462416896,-0.047999338362268086,0.02607809728146651,0.0050767699431287575,-0.034973385853034486, ,0.05322275865758879, ,0.02656286815217521, ,0.001162530332390409, ,0.23596038023905566,-0.195794446560214,0.11115816379000001,1.6812939668589162,0.5305595285892053,-1.3498062930915777, ,0.11125081073677699,0.1558242061715448,0.04962246579439253,-0.032032826294738054,0.12473258782206767,-0.18576381503201278, ,1.192183017730713
0.019239749917402432,0.020615879217314708,-0.09959447571640377, ,0.02024728565451715,0.020066052735250813,-0.10089230308001598, ,0.0017325684077930884, ,0.022118222168386548,-0.006285682462416896,-0.047999338362268086,0.02607809728146651,0.0050767699431287575,-0.034973385853034486, ,0.05322275865758879, ,0.02656286815217521, ,0.0011667843478784887, ,0.23596038023905566,-0.195794446560214,0.11115816379000001,1.6812939668589162,0.5305595285892053,-1.3498062930915777, ,0.11125081073677699,0.1558242061715448,0.04962246579439253,-0.032032826294738054,0.12473258782206767,-0.18576381503201278, ,1.19576096534729
0.01946522657186934,0.02055891845841751,-0.10008869553335097, ,0.020339517246568475,0.02004406830825313,-0.1010788115533836, ,0.001417668718042198, ,0.0234190457616638,-0.00526962036289264,-0.05184901843028885,-0.0005217401935800193,0.004307643725046165,-0.03670115895045609, ,0.05713616468875338, ,0.004295729378877869, ,0.0011686427506204422, ,0.237072453772944,-0.19425762271824332,0.11167019834000001,1.6812939668589162,0.5317892570870942,-1.3515441628861105, ,0.11351308798860141,0.15281311040011397,0.05381355243243244,-0.01933537053843275,0.12392308413172486,-0.15177894434736006, ,1.1993730068206787
0.01946522657186934,0.02055891845841751,-0.10008869553335097, ,0.020431927996414887,0.020022241489706973,-0.10126486847661806, ,0.001614285168561088, ,0.0234190457616638,-0.00526962036289264,-0.05184901843028885,-0.0005217401935800193,0.004307643725046165,-0.03670115895045609, ,0.05713616468875338, ,0.004295729378877869, ,0.0011719195331052997, ,0.237072453772944,-0.19425762271824332,0.11167019834000001,1.6812939668589162,0.5317892570870942,-1.3515441628861105, ,0.11351308798860141,0.15281311040011397,0.05381355243243244,-0.01933537053843275,0.12392308413172486,-0.15177894434736006, ,1.2029619216918945
0.01946522657186934,0.02055891845841751,-0.10008869553335097, ,0.020524516600048014,0.020000580526702394,-0.10145045875259552, ,0.0018133492975921622, ,0.0234190457616638,-0.00526962036289264,-0.05184901843028885,-0.0005217401935800193,0.004307643725046165,-0.03670115895045609, ,0.05713616468875338, ,0.004295729378877869, ,0.0011766015021891455, ,0.237072453772944,-0.19425762271824332,0.11167019834000001,1.6812939668589162,0.5317892570870942,-1.3515441628861105, ,0.11351308798860141,0.15281311040011397,0.05381355243243244,-0.01933537053843275,0.12392308413172486,-0.15177894434736006, ,1.2065861225128174
0.019698360477540196,0.02051106292950491,-0.10060813132936822, ,0.020617281758481112,0.019979093589042433,-0.10163556744902195, ,0.0014775089440430837, ,0.024612800539939816,-0.004366546084941712,-0.05473015221125058,0.05477899782803239,0.013582235949824873,-0.04832371030602858, ,0.06016848208320896, ,0.056433364935002645, ,0.001178781990898232, ,0.2381999727725808,-0.19279030347214066,0.11221075127,1.680874586971947,0.5331556220847486,-1.3533934505843397, ,0.11803102183889398,0.14850851574095583,0.057092514408602156,-0.020026613692582233,0.13789824944949183,-0.2046613042621345, ,1.2101619243621826
0.019698360477540196,0.02051106292950491,-0.10060813132936822, ,0.02071022217773718,0.019957788769482475,-0.10182017979788376, ,0.0016730325419742813, ,0.024612800539939816,-0.004366546084941712,-0.05473015221125058,0.05477899782803239,0.013582235949824873,-0.04832371030602858, ,0.06016848208320896, ,0.056433364935002645, ,0.0011823377502584913, ,0.2381999727725808,-0.19279030347214066,0.11221075127,1.680874586971947,0.5331556220847486,-1.3533934505843397, ,0.11803102183889398,0.14850851574095583,0.057092514408602156,-0.020026613692582233,0.13789824944949183,-0.2046613042621345, ,1.2138020992279053
0.019698360477540196,0.02051106292950491,-0.10060813132936822, ,0.020803336568837087,0.019936674083969985,-0.10200428119489723, ,0.0018708632112555339, ,0.024612800539939816,-0.004366546084941712,-0.05473015221125058,0.05477899782803239,0.013582235949824873,-0.04832371030602858, ,0.06016848208320896, ,0.056433364935002645, ,0.001187255789265613, ,0.2381999727725808,-0.19279030347214066,0.11221075127,1.680874586971947,0.5331556220847486,-1.3533934505843397, ,0.11803102183889398,0.14850851574095583,0.057092514408602156,-0.020026613692582233,0.13789824944949183,-0.2046613042621345, ,1.217576026916504
0.019954621248682945,0.020465748920909067,-0.1011711269659569, ,0.020896623647787046,0.019915757471882834,-0.10218785719895912, ,0.0014911738599575203, ,0.025529624779337436,-0.004610098212072572,-0.05550555278271624,-0.03049780121666656,-0.03627192058804447,0.09288879971075541, ,0.06126892472219186, ,0.04738397680701969, ,0.001189411236575485, ,0.23942788729958248,-0.191322984226038,0.11279797064000001,1.6794067573675557,0.5343853505826376,-1.3551313203788726, ,0.12260586764660306,0.14488082680682562,0.05792295098181819,-0.15341615037722223,0.11756621061614317,-0.14557095958232752, ,1.221238136291504
0.019954621248682945,0.020465748920909067,-0.1011711269659569, ,0.02099008213556723,0.019895046796269477,-0.10237089353159642, ,0.0016844346159355069, ,0.025529624779337436,-0.004610098212072572,-0.05550555278271624,-0.03049780121666656,-0.03627192058804447,0.09288879971075541, ,0.06126892472219186, ,0.04738397680701969, ,0.001192897316711823, ,0.23942788729958248,-0.191322984226038,0.11279797064000001,1.6794067573675557,0.5343853505826376,-1.3551313203788726, ,0.12260586764660306,0.14488082680682562,0.05792295098181819,-0.15341615037722223,0.11756621061614317,-0.14557095958232752, ,1.2249579429626465
0.02021128632658748,0.020422682625670967,-0.10172101081366033, ,0.0210837107581196,0.019874549844087815,-0.10255337607641737, ,0.0013245398693979811, ,0.02513391647293721,-0.004260167184353932,-0.05293992232459207,0.0021312390682473275,-0.013132735388235702,-0.009356067843687603, ,0.05875796250246491, ,0.01328890846126398, ,0.0011938178940033347, ,0.23942788729958248,-0.191322984226038,0.11279797064000001,1.6794067573675557,0.5343853505826376,-1.3551313203788726, ,0.12260586764660306,0.14488082680682562,0.05792295098181819,-0.15341615037722223,0.11756621061614317,-0.14557095958232752, ,1.2286510467529297
0.02021128632658748,0.020422682625670967,-0.10172101081366033, ,0.021177508246335682,0.01985427432644421,-0.10273529087856012, ,0.0015117661336611788, ,0.02513391647293721,-0.004260167184353932,-0.05293992232459207,0.0021312390682473275,-0.013132735388235702,-0.009356067843687603, ,0.05875796250246491, ,0.01328890846126398, ,0.0011960258678898475, ,0.2406712472923326,-0.18987883317855803,0.11337352340000001,1.678777687537102,0.5356150790805265,-1.356787511433265, ,0.12308293327946923,0.14017273494604252,0.05550108543554008,-0.04564602137273817,0.12063416136061925,-0.14856049433358964, ,1.2324409484863281
0.02021128632658748,0.020422682625670967,-0.10172101081366033, ,0.021271473336044646,0.01983422787883299,-0.10291662414414424, ,0.0017028701418865403, ,0.02513391647293721,-0.004260167184353932,-0.05293992232459207,0.0021312390682473275,-0.013132735388235702,-0.009356067843687603, ,0.05875796250246491, ,0.01328890846126398, ,0.001199521345641549, ,0.2406712472923326,-0.18987883317855803,0.11337352340000001,1.678777687537102,0.5356150790805265,-1.356787511433265, ,0.12308293327946923,0.14017273494604252,0.05550108543554008,-0.04564602137273817,0.12063416136061925,-0.14856049433358964, ,1.2359919548034668
0.02046541383063386,0.02037732227346818,-0.10224791567144456, ,0.021365604768001478,0.019814418061375714,-0.10309736223972027, ,0.0013596927403151085, ,0.025064060140739572,-0.004533118042797827,-0.05040407352768622,0.011187450727001863,0.004573904786437379,-0.04886127678668322, ,0.056474125917210516, ,0.012072875619189575, ,0.0012006184099886282, ,0.24193777548370543,-0.18845012759682647,0.11392703923000001,1.6785679975936174,0.536981444078181,-1.358310084170932, ,0.12772132107465783,0.13894134928033788,0.053096038400000004,0.0,0.13471832868556582,-0.14469098203462682, ,1.2394990921020508
0.02046541383063386,0.02037732227346818,-0.10224791567144456, ,0.021459901287875005,0.019794852359060484,-0.10327749169171968, ,0.0015454136292027518, ,0.025064060140739572,-0.004533118042797827,-0.05040407352768622,0.011187450727001863,0.004573904786437379,-0.04886127678668322, ,0.056474125917210516, ,0.012072875619189575, ,0.0012029639556975678, ,0.24193777548370543,-0.18845012759682647,0.11392703923000001,1.6785679975936174,0.536981444078181,-1.358310084170932, ,0.12772132107465783,0.13894134928033788,0.053096038400000004,0.0,0.13471832868556582,-0.14469098203462682, ,1.2431249618530273
0.02046541383063386,0.02037732227346818,-0.10224791567144456, ,0.02155436164623544,0.0197755381819808,-0.10345699918590533, ,0.0017348874265529573, ,0.025064060140739572,-0.004533118042797827,-0.05040407352768622,0.011187450727001863,0.004573904786437379,-0.04886127678668322, ,0.056474125917210516, ,0.012072875619189575, ,0.0012065580332033473, ,0.24193777548370543,-0.18845012759682647,0.11392703923000001,1.6785679975936174,0.536981444078181,-1.358310084170932, ,0.12772132107465783,0.13894134928033788,0.053096038400000004,0.0,0.13471832868556582,-0.14469098203462682, ,1.2468531131744385
0.020715135011701007,0.020332493183443094,-0.1027449331657599, ,0.021648984598542753,0.019756482865575044,-0.1036358715668218, ,0.0014133768682208173, ,0.02490132236176496,-0.0044539444781029735,-0.04818323837178119,0.021699113118999126,0.015302879450260086,-0.03653842888185615, ,0.05442001411953554, ,0.02654750317544125, ,0.001207946079075948, ,0.24322747187370095,-0.18708320387808874,0.11445203668000001,1.6785679975936174,0.5384844455756008,-1.3598623960721548, ,0.13125441432706886,0.1327229951866724,0.05105388307692308,-0.010101209810274727,0.15123520823459394,-0.15080835164172537, ,1.2505829334259033
0.020715135011701007,0.020332493183443094,-0.1027449331657599, ,0.021743768905134835,0.01973769367086603,-0.10381409583724421, ,0.0015984314076550855, ,0.02490132236176496,-0.0044539444781029735,-0.04818323837178119,0.021699113118999126,0.015302879450260086,-0.03653842888185615, ,0.05442001411953554, ,0.02654750317544125, ,0.0012105493145998089, ,0.24322747187370095,-0.18708320387808874,0.11445203668000001,1.6785679975936174,0.5384844455756008,-1.3598623960721548, ,0.13125441432706886,0.1327229951866724,0.05105388307692308,-0.010101209810274727,0.15123520823459394,-0.15080835164172537, ,1.2541589736938477
0.020715135011701007,0.020332493183443094,-0.1027449331657599, ,0.021838713331214996,0.019719177784699633,-0.1039916591576309, ,0.0017868714887267182, ,0.02490132236176496,-0.0044539444781029735,-0.04818323837178119,0.021699113118999126,0.015302879450260086,-0.03653842888185615, ,0.05442001411953554, ,0.02654750317544125, ,0.0012143660177397222, ,0.24322747187370095,-0.18708320387808874,0.11445203668000001,1.6785679975936174,0.5384844455756008,-1.3598623960721548, ,0.13125441432706886,0.1327229951866724,0.05105388307692308,-0.010101209810274727,0.15123520823459394,-0.15080835164172537, ,1.2577331066131592
0.020952672193102984,0.020284586682128642,-0.10319810792579343, ,0.02193381664684043,0.01970094231998473,-0.10416854884557064, ,0.001498346007883418, ,0.024484706240966377,-0.005342003142083841,-0.046309577672997586,-0.02935828745384962,-0.011188070963681965,0.07783093557097837, ,0.05265562478527672, ,0.03141447097466513, ,0.0012162343071485623, ,0.24448627733219952,-0.18581667568671592,0.11493166398000002,1.6777292378196795,0.5398508105732552,-1.3612216113295408, ,0.13053224423448526,0.13143620714469637,0.049011727753846164,-0.12323675354316328,0.1447959785526115,-0.12467868463448031, ,1.26131010055542
0.020952672193102984,0.020284586682128642,-0.10319810792579343, ,0.022029077626909713,0.019682994315931387,-0.10434475237523463, ,0.001683851396777577, ,0.024484706240966377,-0.005342003142083841,-0.046309577672997586,-0.02935828745384962,-0.011188070963681965,0.07783093557097837, ,0.05265562478527672, ,0.03141447097466513, ,0.0012192906279958108, ,0.24448627733219952,-0.18581667568671592,0.11493166398000002,1.6777292378196795,0.5398508105732552,-1.3612216113295408, ,0.13053224423448526,0.13143620714469637,0.049011727753846164,-0.12323675354316328,0.1447959785526115,-0.12467868463448031, ,1.2649290561676025
0.021201469934011195,0.020231320123407587,-0.10367188677519573, ,0.02212449505115134,0.0196653407382917,-0.10452025737682642, ,0.0013755147069220886, ,0.025290231038462084,-0.005079881962302999,-0.04769120842134678,-0.007638959073617036,-0.006549378412719344,0.009637195778179697, ,0.05422040526792529, ,0.010049942315677024, ,0.0012203050700667606, ,0.2457991419208177,-0.18447292016660086,0.11543332821,1.6768904780457412,0.5413538120706751,-1.362692244490623, ,0.1327229951866724,0.13328222128998704,0.05056765561904762,-0.05650338408835667,0.13895706674183966,-0.13318905658403735, ,1.2689850330352783
0.021201469934011195,0.020231320123407587,-0.10367188677519573, ,0.02222006770411142,0.019647988479597433,-0.10469505163603143, ,0.0015571395429993902, ,0.025290231038462084,-0.005079881962302999,-0.04769120842134678,-0.007638959073617036,-0.006549378412719344,0.009637195778179697, ,0.05422040526792529, ,0.010049942315677024, ,0.001222478195698584, ,0.2457991419208177,-0.18447292016660086,0.11543332821,1.6768904780457412,0.5413538120706751,-1.362692244490623, ,0.1327229951866724,0.13328222128998704,0.05056765561904762,-0.05650338408835667,0.13895706674183966,-0.13318905658403735, ,1.2726459503173828
0.021201469934011195,0.020231320123407587,-0.10367188677519573, ,0.02231579437514153,0.019630944359400156,-0.10486912309346731, ,0.0017422814984658548, ,0.025290231038462084,-0.005079881962302999,-0.04769120842134678,-0.007638959073617036,-0.006549378412719344,0.009637195778179697, ,0.05422040526792529, ,0.010049942315677024, ,0.0012258102681522204, ,0.2457991419208177,-0.18447292016660086,0.11543332821,1.6768904780457412,0.5413538120706751,-1.362692244490623, ,0.1327229951866724,0.13328222128998704,0.05056765561904762,-0.05650338408835667,0.13895706674183966,-0.13318905658403735, ,1.2763700485229492
0.02141887585988234,0.020192767963314515,-0.10408473923941008, ,0.022411673858387163,0.019614215124510437,-0.10504245984413482, ,0.0014958609593935391, ,0.025539252006155113,-0.004487408746709607,-0.04835037979982918,-0.0021098089516594053,-0.004618164343820212,-0.01310153950558008, ,0.05486482896247535, ,0.005051187501795595, ,0.001227530336249299, ,0.24691893818758026,-0.18335312389983832,0.11587147423000001,1.6768904780457412,0.5424469040687986,-1.363501908980054, ,0.1319846196918926,0.12911148511356568,0.05138326296774194,-0.03118098481777214,0.13543399292379693,-0.12860161799522293, ,1.2800800800323486
0.02141887585988234,0.020192767963314515,-0.10408473923941008, ,0.022507704952775157,0.019597807449236736,-0.1052150501368666, ,0.0016784306752888121, ,0.025539252006155113,-0.004487408746709607,-0.04835037979982918,-0.0021098089516594053,-0.004618164343820212,-0.01310153950558008, ,0.05486482896247535, ,0.005051187501795595, ,0.001230384135863473, ,0.24691893818758026,-0.18335312389983832,0.11587147423000001,1.6768904780457412,0.5424469040687986,-1.363501908980054, ,0.1319846196918926,0.12911148511356568,0.05138326296774194,-0.03118098481777214,0.13543399292379693,-0.12860161799522293, ,1.283703088760376
0.02141887585988234,0.020192767963314515,-0.10408473923941008, ,0.022603886462001992,0.01958172793562477,-0.10538688237377819, ,0.0018636514655259611, ,0.025539252006155113,-0.004487408746709607,-0.04835037979982918,-0.0021098089516594053,-0.004618164343820212,-0.01310153950558008, ,0.05486482896247535, ,0.005051187501795595, ,0.0012343669492575768, ,0.24691893818758026,-0.18335312389983832,0.11587147423000001,1.6768904780457412,0.5424469040687986,-1.363501908980054, ,0.1319846196918926,0.12911148511356568,0.05138326296774194,-0.03118098481777214,0.13543399292379693,-0.12860161799522293, ,1.2873189449310303
0.02171391838563928,0.020146518401297865,-0.10463631866322455, ,0.022700217194522004,0.019565983113697078,-0.10555794510971812, ,0.0014694222903677422, ,0.02644732984045548,-0.0042178215049565254,-0.04806599035491936,0.007456471652359216,-0.007134593759190949,-0.04266052548715732, ,0.055023546802589175, ,0.010307513633230778, ,0.0012358360451395155, ,0.24845576202955091,-0.18192441831810677,0.11645998989000002,1.676680788102257,0.5440865420659838,-1.365002281304692, ,0.13914507559893075,0.12652925541129437,0.05138326296774194,0.0,0.13436294376276975,-0.12819032853182205, ,1.2908859252929688
0.02171391838563928,0.020146518401297865,-0.10463631866322455, ,0.022796695963534983,0.0195505794416921,-0.10572822705171818, ,0.0016491859978887888, ,0.02644732984045548,-0.0042178215049565254,-0.04806599035491936,0.007456471652359216,-0.007134593759190949,-0.04266052548715732, ,0.055023546802589175, ,0.010307513633230778, ,0.0012384034361503805, ,0.24845576202955091,-0.18192441831810677,0.11645998989000002,1.676680788102257,0.5440865420659838,-1.365002281304692, ,0.13914507559893075,0.12652925541129437,0.05138326296774194,0.0,0.13436294376276975,-0.12819032853182205, ,1.2944610118865967
0.02171391838563928,0.020146518401297865,-0.10463631866322455, ,0.022893321586974155,0.01953552330630284,-0.10589771705844271, ,0.0018317840562920844, ,0.02644732984045548,-0.0042178215049565254,-0.04806599035491936,0.007456471652359216,-0.007134593759190949,-0.04266052548715732, ,0.055023546802589175, ,0.010307513633230778, ,0.0012420662794845887, ,0.24845576202955091,-0.18192441831810677,0.11645998989000002,1.676680788102257,0.5440865420659838,-1.365002281304692, ,0.13914507559893075,0.12652925541129437,0.05138326296774194,0.0,0.13436294376276975,-0.12819032853182205, ,1.2980480194091797
0.021978540620615727,0.020100292375334474,-0.10512091316705216, ,0.022990092887494384,0.01952082102291704,-0.10606640413963964, ,0.001500992410421935, ,0.02666021726507207,-0.0047782094978408235,-0.04875898937205484,-0.006846380822947434,-0.021257878606791125,0.05625239204148038, ,0.05577667536892334, ,0.022326995697450915, ,0.0012436547833553698, ,0.2498381312140371,-0.18065789012673394,0.1169772096,1.6758420283283186,0.5454529070636382,-1.3662798178219373, ,0.13894134928033788,0.12703740503142005,0.052054939607843145,-0.10718906314336232,0.13925513347906415,-0.14080606122374056, ,1.3023929595947266
