NicholasDascanio/dvrk_moveit_final/test/execution/third_experiment_notsharpbends/thirdexp_300vel5.0/thirdexp_300vel5.0_18.csv
Current Position (x),Current Position (y),Current Position (z), ,Planned Position (x),Planned Position (y),Planned Position (z), ,Position Error,,Cartesian linear Velocity(x),Cartesian linear Velocity(y),Cartesian linear Velocity(z),Cartesian Angular Velocity(x),Cartesian Angular Velocity(y),Cartesian Angular Velocity(z), ,Total Linear Velocity, ,Total Angular Velocity, ,MSE, ,Joint 1 Position,Joint 2 Position,Joint 3 Position,Joint 4 Position,Joint 5 Position,Joint 6 Position, ,Joint 1 Velocity,Joint 2 Velocity,Joint 3 Velocity,Joint 4 Velocity,Joint 5 Velocity,Joint 6 Velocity, ,Time Stamp
0.007706089412384905,0.021321325897887645,-0.07904214696284559, ,0.007999216411796854,0.02122904447168111,-0.07921255440985017, ,0.00035139436165309277, ,0.0007439034512828668,-0.0001455247404852061,-0.0009207551558485404,0.23769653651661132,-0.005577650293244897,-0.08025425913842275, ,0.001192627289619652, ,0.23776196847853068, ,2.9282863471091064e-05, ,0.14666242001439767,-0.256919877259701,0.08953863917,1.6888428048243591,0.4496707207280645,-1.2836018578828745, ,0.007581514118099295,0.004775212947452287,0.0009181124414779276,-1.431619858793764e-05,0.0,-0.2551550557153295, ,0.035447120666503906
0.007800926471731156,0.021325921444936995,-0.07915500466549738, ,0.008171967185682362,0.021199427438806272,-0.07942813291600004, ,0.0004777771302804928, ,0.0031531298590871666,0.0005041186291057042,-0.005652255627367572,0.3203393966086965,-0.06082278421875768,-0.12305041529994247, ,0.006491868542845493, ,0.32606247881959094, ,3.768961326970843e-05, ,0.14731112957583253,-0.256610967944732,0.08964623124000001,1.6892621847113283,0.4465280812334594,-1.2941895232604872, ,0.02464855624895345,0.012064192926324787,0.005725669130122214,0.0018329957655732162,-0.04052955374271478,-0.352446659610111, ,0.07093310356140137
0.007921040396701901,0.021341207756543884,-0.07936540896133494, ,0.008344193467116949,0.02116956876343133,-0.0796430223689632, ,0.0005344040316589585, ,0.00460480051311179,0.00016644694253161157,-0.00712098473570188,-0.18494559340797817,-0.07939280664099747,0.03622936659616173, ,0.008481763729103276, ,0.20126621735664801, ,4.2611735112267e-05, ,0.14826102571936214,-0.25612443577365585,0.08985882280000002,1.6892621847113283,0.4450250797360395,-1.2977012932479792, ,0.039789074028708925,0.020902410034905457,0.0071945851490514915,0.0018100509720202188,-0.04067230157782518,0.169429243334504, ,0.10653805732727051
0.00806265737010356,0.02132048463956448,-0.07953828030357545, ,0.00851589012654516,0.02113947796508759,-0.07985722528973986, ,0.00058301736845162, ,0.0055621792070456874,-0.0008366744982516319,-0.005915429953482448,-0.03908689836011442,-0.0340288984290613,0.004934246962197553, ,0.008162730749073704, ,0.051824237036989435, ,4.634744981057533e-05, ,0.1498905223558235,-0.2552903806232396,0.09004030340000001,1.6892621847113283,0.4469379907327557,-1.2953405643729823, ,0.056960949314808385,0.029581340884810094,0.0052157208644400795,0.0017453400726274557,0.1049868370648155,-0.07953835093083543, ,0.14273810386657715
0.008288930550126885,0.021278073421909557,-0.07977777186620993, ,0.008687052096970906,0.0211091644992597,-0.08007074418258625, ,0.0005223636361531268, ,0.006174707115162523,-0.0009614525190207216,-0.006379070673516504,0.0077966956793987,-0.04145682550189444,-0.011959407664205411, ,0.008929946335901929, ,0.04218360858969612, ,4.841091231759394e-05, ,0.15236179687557536,-0.2539852387674957,0.09028659850000001,1.6892621847113283,0.44816771923064463,-1.2965066829865313, ,0.06668794206498298,0.03276828092488632,0.006601248039784502,0.0016718962921218356,0.02557497851658402,-0.03982089486198414, ,0.17503690719604492
0.008487955315476204,0.021245100302628432,-0.07998483923813109, ,0.008857674373775113,0.02107863775753946,-0.08028358153509176, ,0.0005036357026465325, ,0.006502468440420125,-0.001409615165408154,-0.005907070120047607,-0.007027281790847565,-0.04324749201879189,-0.006830393140805651, ,0.00889733601345749, ,0.04381470356046318, ,4.954320384739706e-05, ,0.15450099388173555,-0.25289633343223,0.09050048635,1.6894718746548125,0.4489875382292373,-1.2974202266291315, ,0.07162033325167605,0.03652692130811038,0.006093653986228004,0.0004224857711323532,0.029247111918838952,-0.028024573674444775, ,0.2069540023803711
0.008678296245211613,0.021209581062778666,-0.08018931978459301, ,0.009027752014532592,0.02104790706778081,-0.08049573981825765, ,0.0004920884599351262, ,0.006222066171735875,-0.0010731744447250884,-0.006986322016018325,-0.008413281462544508,-0.038136715606643265,-0.006282960548958671, ,0.009416714190511108, ,0.039053711290817764, ,5.021276363447754e-05, ,0.15650890442903392,-0.2518228735627128,0.09070789275,1.6894718746548125,0.45008063022736083,-1.2982298911185621, ,0.06562720716353443,0.03554192567732988,0.00714616936742934,0.0004224857711323532,0.028339926600095475,-0.025690458727786046, ,0.23929691314697266
0.008853843418025805,0.021176996450767854,-0.08039015525411479, ,0.009197280138828605,0.021016981694253922,-0.080707221486572, ,0.0004940490858837849, ,0.005822501647927565,-0.001136122234051129,-0.006281951526374077,-0.017292166222530186,-0.042570108392230674,-0.005469770115654481, ,0.008640324886862654, ,0.04594815699689013, ,5.075294585465045e-05, ,0.1584241421818416,-0.25075713642606984,0.09091918802000001,1.6894718746548125,0.45117372222548435,-1.299202913088274, ,0.06079240330459371,0.033867573718226546,0.006443693980582525,0.0004224857711323532,0.018755508887256498,-0.015340538155242497, ,0.27264904975891113
0.009081732315172585,0.021134690075318447,-0.08065844839230793, ,0.009366253928074747,0.02098587083780058,-0.08091802897808456, ,0.0004128944104441066, ,0.005032368045129223,-0.0006602930081252865,-0.0070529257238068025,-0.00047037456104274917,-0.01815421411943677,-0.0014089336445466739, ,0.008689331174708015, ,0.01816030630440961, ,5.0248553874791284e-05, ,0.16082591210572542,-0.24936704450870942,0.09119659408000001,1.6898912545417817,0.45267672372290424,-1.3004285100289348, ,0.05082857073297846,0.030183505584755334,0.007293411868131869,-0.0030932476684082328,0.03462128156178686,-0.028423990440453153, ,0.30726099014282227
0.009195630095376233,0.021113410614633427,-0.08079886180968068, ,0.009534668625324375,0.020954583635988663,-0.08112816471448125, ,0.0004986116094165034, ,0.004715551258773908,-0.0008218478963823147,-0.005956790576552439,0.0001410416495450639,-0.016890903755183213,-0.0013571992244171829, ,0.0076416759687791104, ,0.01689149238266891, ,5.126563996340363e-05, ,0.162015212968356,-0.248664275817155,0.09134177856,1.6898912545417817,0.45349654272149686,-1.3010153387109726, ,0.048865572378203284,0.028652458200021373,0.006166787270615564,-0.002862024709275135,0.03383359303623218,-0.02750848277577307, ,0.33617401123046875
0.009322406463360126,0.021097364155579033,-0.08097377199759505, ,0.009702519535087495,0.020923129163267835,-0.081337631101156, ,0.0005542898403253243, ,0.0050876481964002625,-0.00033713021220177893,-0.008042833109088961,0.012731134182939285,-0.003514265482814415,-0.0015186915094044192, ,0.009522866447187615, ,0.013207263373350283, ,5.266529744513272e-05, ,0.16332807755697415,-0.2479151707283552,0.09152455545,1.6898912545417817,0.4547262712193858,-1.3020180998442406, ,0.05053085280003769,0.02931632423802001,0.008401271898734177,-0.002615487125003232,0.04933305045592863,-0.04009961947261329, ,0.3647890090942383
0.009448130614176466,0.021090540376391433,-0.08117095477098404, ,0.009869802023145323,0.020891516431124618,-0.08154643052728236, ,0.0005986646402612583, ,0.005489888182549077,-0.0001973799357412552,-0.008922189127999539,-0.0005029041158318559,-0.01891440052517328,-0.002089446554626667, ,0.010477752141166462, ,0.01892108356400933, ,5.426297546945881e-05, ,0.1645637148168501,-0.24721240203680078,0.09173066556000001,1.6898912545417817,0.4558193632175093,-1.302909443073812, ,0.051912987723452285,0.030116452414621003,0.009282524195804198,-0.0024227600051462523,0.03476653705017041,-0.02820652265205133, ,0.39357900619506836
0.009638556803405125,0.021072008186756867,-0.08145449728461743, ,0.010036511516364371,0.02085975438823807,-0.0817545653658853, ,0.0005417199294357862, ,0.005788389754416487,-0.0009756430551621782,-0.007372770452766165,-0.008814029176265866,-0.025768252620267336,-0.002060751728804417, ,0.009424175267327202, ,0.027233984865186016, ,5.516731266004802e-05, ,0.16647895256965775,-0.24610032850291244,0.09202751597000002,1.6898912545417817,0.45773227421422547,-1.30422425750514, ,0.05814763575886691,0.03450797874853483,0.007639717755395685,-0.0021875026899871707,0.034069725630414896,-0.024055537512816288, ,0.4221160411834717
0.009809983420172252,0.02103526039215174,-0.08165138522208472, ,0.01020264350251003,0.02082785192063504,-0.08196203797391004, ,0.0005419458889363844, ,0.005810259642586417,-0.001421783165127782,-0.006509768447625833,-0.021500758552459847,-0.02476229543998173,0.0013555303667215188, ,0.008840682650373445, ,0.03279411352815868, ,5.640361980541349e-05, ,0.16830151752797473,-0.2450423140991437,0.09223362608,1.6898912545417817,0.45937191221141077,-1.3053162361290753, ,0.06013747880764941,0.03705464332622834,0.006723854588433939,-0.002021208926060736,0.037175866356624926,-0.013110080363479371, ,0.44788408279418945
0.009927283336347601,0.021011285389048034,-0.08179869902662948, ,0.010368193530060025,0.020795817851846643,-0.08216885069229199, ,0.0006146871676714025, ,0.0061149103002198215,-0.0010063134726553905,-0.008319558391975587,0.013339279341167302,0.030233704072744325,0.007423990386568844, ,0.010373998584079025, ,0.033045622939252735, ,5.805671626431205e-05, ,0.16956804571934755,-0.2442932090103439,0.09238918088,1.6898912545417817,0.4610115502085961,-1.3062448572727297, ,0.06603823351320166,0.03808063465428201,0.008844426163242644,-0.0019282488091878075,0.10020396415137611,-0.0456287720928229, ,0.4728889465332031
0.01006516877709597,0.020988466224884008,-0.08198689806252868, ,0.010533157208017188,0.02076366094306321,-0.08237500584602468, ,0.0006482115687187416, ,0.006797599393389887,-0.0011473098382919018,-0.009689582136885089,-0.03787812911506054,-0.00018646111016050972,0.012658227044548186, ,0.011891664280726166, ,0.03787858692704296, ,5.978396308480175e-05, ,0.17100447403395333,-0.243435985661305,0.09258751325,1.6898912545417817,0.4627878247055468,-1.3068765026193776, ,0.06817309020005086,0.04333193678468985,0.010113531123809524,-0.0018349484530294526,0.07101231359717386,0.0003115385836706952, ,0.49868202209472656
0.010266615399359025,0.020946380858215968,-0.08223271113393792, ,0.010697530205722174,0.020731389893291288,-0.08258050574422816, ,0.0005940284305394653, ,0.0070575594839596975,-0.0016957804583862142,-0.007770554242813933,-0.02337081603895998,-0.019797507821176747,0.0032917892756359783, ,0.010633265278040779, ,0.030629011246293747, ,6.0978117431372174e-05, ,0.17309733464286817,-0.2421771802028064,0.09284547496000001,1.6898912545417817,0.46483737220202836,-1.307404268812856, ,0.0732794915509427,0.04391343894422526,0.008122800367159615,-0.001717323543808163,0.0558337102641942,-0.0167030802070452, ,0.5240640640258789
0.010467904408751838,0.020901236651550734,-0.08245995435457, ,0.010861308252665666,0.02069901333950879,-0.08278535268021554, ,0.0005491310614710401, ,0.006569417650831905,-0.0014845536552152304,-0.007461320276456099,-0.009932503300402703,-0.03003911389384394,-0.004447417849721431, ,0.010051489844502137, ,0.031638630852409144, ,6.177217093430357e-05, ,0.17521336345040567,-0.24094154294293046,0.09308528861000001,1.6898912545417817,0.46688691969851004,-1.3085854649274589, ,0.06590065386004916,0.040108597446521885,0.007766363490980011,-0.0016141671858265001,0.03746284261280065,-0.02831082335396821, ,0.5498650074005127
0.010603887923692955,0.020871929720630476,-0.08262777565905985, ,0.011024487138300487,0.020666539856822055,-0.08298954893155981, ,0.0005915814366416908, ,0.0066110640892849135,-0.0011104139185629627,-0.008727941418392862,0.05901994344847071,0.02957857755112065,-0.008072821320906155, ,0.011005278227562832, ,0.0660170123828753, ,6.315309850327776e-05, ,0.1766034553677661,-0.24008431959389157,0.09326158405000001,1.6898912545417817,0.4682532846961644,-1.309536286484142, ,0.06977716291064028,0.03990619914149318,0.009336935240328255,-0.0015515486468780577,0.10297392078515476,-0.09520475296107332, ,0.5710580348968506
0.010750367894830875,0.02085321409854702,-0.08282444626587786, ,0.011187062711853065,0.020633977958621572,-0.08319309676015949, ,0.0006121029612716667, ,0.00754659704627291,-0.0007011952982268529,-0.010871132631831636,-0.010431740642488595,-0.014364360476048856,0.0012092460575538909, ,0.01325233287100596, ,0.017752631153783838, ,6.455782362527775e-05, ,0.17806305188099453,-0.23926570990922377,0.09347028674,1.6898912545417817,0.4697562861935842,-1.3105168472043809, ,0.07172860284086982,0.04088623074470952,0.011467826868250543,-0.0014935168590196088,0.0597135633842132,-0.026812520417121143, ,0.5925490856170654
0.010894455154204641,0.02084003681350016,-0.08303944360004757, ,0.01134903088213507,0.020601336096738105,-0.08339599841230481, ,0.0006250987591972924, ,0.00709601322181551,-0.0007349386682258053,-0.010378611007579908,-0.01299963423745005,0.009628496066133875,0.008534225258235514, ,0.012594010677178772, ,0.016177092024950532, ,6.594010163368256e-05, ,0.17946086653122917,-0.23846254569030442,0.09369843378,1.6898912545417817,0.47139592419076953,-1.3114454683480352, ,0.06921731696460305,0.03980576407653976,0.011023398975778548,-0.0014402151144623427,0.08197633800177233,-0.021250099499845646, ,0.6146209239959717
0.011034702810584239,0.02081909574884195,-0.08322973922746887, ,0.011510387617354482,0.020568622661600214,-0.08359825611874186, ,0.0006517802558976109, ,0.007139234152320382,-0.001290190869623517,-0.008392035690405112,-0.011624418021545756,0.003239258450883879,0.006954584620069872, ,0.011093219541267126, ,0.0120673049198216, ,6.737908840950006e-05, ,0.18085868118146378,-0.2376439360056366,0.09390065502000002,1.6898912545417817,0.47303556218795484,-1.3122924107515488, ,0.07339283956571599,0.04050232247480613,0.008984101252115061,-0.0013905735281008478,0.07964087743398791,-0.02359589398995704, ,0.6368889808654785
0.011248819248515769,0.02076925917238545,-0.08345583275894064, ,0.011671128944926484,0.020535845982389753,-0.08379987209473723, ,0.0005926130791012262, ,0.007049708782457426,-0.00185346341551047,-0.007263618658845503,-0.027286771012483918,-0.029943579595378817,0.0001841982789005123, ,0.010290475041086376, ,0.040511551575486006, ,6.840266747821868e-05, ,0.18307510551636622,-0.23637740781426378,0.09414176496000001,1.6898912545417817,0.4750851096844364,-1.3133919281260114, ,0.07076580280273734,0.04319387417317742,0.007628741149425289,-0.0013208545894654732,0.04255131398468581,-0.012844329482926749, ,0.661747932434082
0.011387731908123044,0.02073511614260231,-0.08361452886458236, ,0.011831250951284192,0.020503014327198654,-0.08400084854014292, ,0.0006323158119843842, ,0.0069243732367871855,-0.0014411476703391844,-0.00826904602603707,0.021529525622073657,0.015100530752989541,-0.001710358527563817, ,0.010881221140606332, ,0.026297271034694, ,6.993865940728371e-05, ,0.18449608836522355,-0.2355047389994764,0.09431028266000001,1.6898912545417817,0.4765881111818563,-1.31437248884625, ,0.07129747675317114,0.04154857336185235,0.008869048730512249,-0.001278654212627502,0.08952718207494478,-0.05866879056400745, ,0.6833090782165527
0.0115333783651657,0.020712071414756394,-0.08380509956590594, ,0.011990749781689106,0.020470135903186016,-0.08420118763945823, ,0.0006516188812655858, ,0.007752012817325233,-0.0010957125033768964,-0.010774256462423738,0.016056920361487974,0.005165041507479336,-0.003488656279410801, ,0.013318366676440126, ,0.01686719301126317, ,7.149497685176395e-05, ,0.1859325166798293,-0.23467068384906017,0.09451380019000001,1.6898912545417817,0.47822774917904154,-1.3155461462103262, ,0.07442897377134963,0.044406617481736445,0.011459576633093526,-0.0012399119003369168,0.08246147345554697,-0.05642982633639284, ,0.7016100883483887
0.01169489145099681,0.020695939031473792,-0.08403968568821832, ,0.012149621640041353,0.020437218856734232,-0.0844008915618951, ,0.0006357557367608766, ,0.008056760377998698,-0.0007533088350935877,-0.011907090980540515,-0.0018557226622111476,-0.007957888060600056,-0.0013372097127411372, ,0.014396446700779643, ,0.008171379910203665, ,7.289337309549288e-05, ,0.18742300412455462,-0.2337980150342728,0.09476268787000001,1.6898912545417817,0.479594114176696,-1.3162519315465875, ,0.07367774965719781,0.04333193678468985,0.012631888596352102,-0.0012024786454605874,0.06815846055143561,-0.03764491994093794, ,0.7194421291351318
0.01177456749532952,0.02068969120511716,-0.08416141935436343, ,0.012307862788689783,0.020404271273606438,-0.08459996246143914, ,0.0007471201134940823, ,0.008218326486301384,-0.0005298808546920423,-0.012388633101994855,0.020360744576887732,0.008953817178810145,-0.003665267182888739, ,0.014876151857636258, ,0.022242537399665988, ,7.476912431126061e-05, ,0.18815666374760595,-0.2333809874590647,0.09489231687,1.6896815645982974,0.48041393317528863,-1.3168387602286256, ,0.07610019371168467,0.042308043494636995,0.013251923061564062,0.0,0.08777154642968722,-0.05816124950683061, ,0.7372689247131348
0.011957895923601976,0.020669680425264705,-0.08442090689153625, ,0.012465469548241834,0.020371301179102606,-0.08479840247691385, ,0.0006994026565218938, ,0.008503730502417437,-0.0012779718184744429,-0.010907226686167927,0.000570330868604144,-0.03166219941468148,-0.010183173199867331, ,0.013889357019315665, ,0.03166733324265897, ,7.669376930778393e-05, ,0.18981705131556423,-0.23240020038403816,0.09516713035,1.6896815645982974,0.48164366167317757,-1.3175964851414717, ,0.07842722442848825,0.04622354678931845,0.011550987324147935,0.0,0.048195871406945784,-0.04448500386788476, ,0.7515029907226562
0.012045035381714378,0.020655795862698806,-0.08453918590036519, ,0.012622438297373199,0.020338316538216744,-0.08499621373204148, ,0.0008019112715329735, ,0.008647007629037503,-0.0012573000516171657,-0.012306355464368706,0.0351338963312298,0.010913383254807296,-0.010439714992964763, ,0.015092976153556556, ,0.036789839945578044, ,7.902931739411334e-05, ,0.19063566100023202,-0.23189822274721358,0.09529287048000001,1.6896815645982974,0.4824634806717702,-1.3182649925636503, ,0.08110849705852202,0.05002474515470257,0.013110132938271608,0.0,0.0948580399917795,-0.08105159723095355, ,0.7655620574951172
0.01223327742678374,0.02063284784690157,-0.08480135726030455, ,0.012778765472637404,0.020305325255794086,-0.08519339833550604, ,0.0007473449407737718, ,0.009889350084051132,-0.001066468800472855,-0.013544454104594811,0.007713772901931276,-0.02194859053212391,-0.009203808526795275, ,0.016804429111956745, ,0.023264618262386214, ,8.102574179780464e-05, ,0.19238099862980676,-0.23087882200781595,0.09557286912000001,1.6896815645982974,0.484239755168721,-1.3197134253117038, ,0.08969465175658865,0.051047305841027846,0.014441352239347238,0.0,0.06983884909933717,-0.0552760916795389, ,0.7803990840911865
0.012330267683906635,0.020622056561083325,-0.08493657403075594, ,0.012934447568275175,0.020272335176687552,-0.08538995838101457, ,0.0008324035970842013, ,0.010329474499503414,-0.001364563522256266,-0.014150313645170056,0.010358073883625024,-0.01865929072463617,-0.01053670500697577, ,0.017572462926375734, ,0.02134146802828255, ,8.33361992064091e-05, ,0.19325366744459413,-0.23036912163811712,0.09571675731000001,1.6896815645982974,0.4849229376675481,-1.3201888360900451, ,0.09377168138188813,0.055986396199687774,0.015055587448015127,0.0,0.0774222315311899,-0.0625467479256127, ,0.7948610782623291
0.012435328384789404,0.020608465986193283,-0.08508275574507683, ,0.01308948113602359,0.020239354085914835,-0.08558589594735833, ,0.0009040517020758747, ,0.010567717284967667,-0.0013438976904305946,-0.014713939575645624,0.019628962637400327,-0.005926703214107877,-0.009951287066107446, ,0.018165426707157185, ,0.020504177514180048, ,8.588399789056196e-05, ,0.19420356358812374,-0.2297976394054245,0.09587231211000001,1.6896815645982974,0.4857427566661408,-1.3207756647720832, ,0.0963420726481937,0.057270332865703544,0.01570888710059172,0.0,0.09320097614281785,-0.07237960301745279, ,0.8092501163482666
0.012545175340108109,0.020593877542271457,-0.08523319165973779, ,0.013243862784925276,0.020206389708815914,-0.08578121309847447, ,0.0009688335584279869, ,0.011063937412217206,-0.0016590435277575465,-0.014686192796927827,0.00010539340729281021,-0.028174598650543354,-0.010673514261364498, ,0.018462052847854935, ,0.02817478364943064, ,8.901695632561173e-05, ,0.19624236506691903,-0.2285620021455486,0.09619508832000001,1.6894718746548125,0.48751903116309153,-1.3219790612997149, ,0.10485849895963623,0.06416290842357726,0.01632050360655738,-0.0015148012902749368,0.08697458135129661,-0.06256148200438638, ,0.8200869560241699
0.01266349473840488,0.020574008990870994,-0.08539213892100089, ,0.013397589181137225,0.020173449711209365,-0.0859759118835067, ,0.0010198692362878498, ,0.011607677946816665,-0.0018064164607984729,-0.015427786507200544,0.002891183163042148,-0.02116773307364713,-0.008592106052508566, ,0.019391181610686255, ,0.021364245588038237, ,9.229007966174659e-05, ,0.19624236506691903,-0.2285620021455486,0.09619508832000001,1.6894718746548125,0.48751903116309153,-1.3219790612997149, ,0.10485849895963623,0.06416290842357726,0.01632050360655738,-0.0015148012902749368,0.08697458135129661,-0.06256148200438638, ,0.8311769962310791
0.01266349473840488,0.020574008990870994,-0.08539213892100089, ,0.013550657047739776,0.02014054169955002,-0.08616999433686615, ,0.0012569844484879176, ,0.011607677946816665,-0.0018064164607984729,-0.015427786507200544,0.002891183163042148,-0.02116773307364713,-0.008592106052508566, ,0.019391181610686255, ,0.021364245588038237, ,9.649657841497696e-05, ,0.19795681176499685,-0.22754260140615096,0.09646860551000001,1.6892621847113283,0.48915866916027684,-1.3231527186637908, ,0.1121713257192326,0.06841884755477344,0.017542743964757714,-0.0024302442389625488,0.10413684360655864,-0.07351663668021047, ,0.8422629833221436
0.013001671336463336,0.020520418176659738,-0.08583847694203672, ,0.013703063164545146,0.020107673221085864,-0.08636346247829194, ,0.0009684620323630636, ,0.0126529198073586,-0.0024543983756901582,-0.015946872927783653,-0.009959688310804746,-0.03084489350627326,-0.00818217203551938, ,0.020504224130966704, ,0.032412988374711335, ,9.93735796739521e-05, ,0.1992619536207408,-0.22674715992010583,0.09666564159,1.6892621847113283,0.4902517611584003,-1.3239623831532217, ,0.1144715820970697,0.07081861310333641,0.016909566369426754,-0.0024302442389625488,0.08688386601573367,-0.057661637662543196, ,0.853295087814331
0.013123759917607279,0.020496416958581596,-0.08598997504038017, ,0.013854804367906039,0.020074851764015217,-0.08655631831291132, ,0.001016310928763287, ,0.0134075790886849,-0.002714217937865844,-0.01702279009758667,0.0026004320308606254,-0.019161140942304453,-0.00998653161695056, ,0.02183816701877857, ,0.019336756179829422, ,0.00010280872156225203, ,0.20046669994911984,-0.22599033209843183,0.09684064074000001,1.6892621847113283,0.4912082166567584,-1.324660629738956, ,0.12119660480009038,0.0772776397055951,0.01801901755656109,-0.002417136963154322,0.10648014062907032,-0.07520859260475163, ,0.861090898513794
0.013271120541358346,0.020470016051439933,-0.0861888054073167, ,0.014005877550524204,0.020042084757643765,-0.08674856383130028, ,0.001017999286811635, ,0.014407251829002777,-0.0022404044443897035,-0.019932921715339065,0.0334462178797416,0.01429234307305029,-0.009948986302572635, ,0.02469634963812629, ,0.0363719316820098, ,0.00010619364591094842, ,0.20179501000348643,-0.22514083148226713,0.09705323230000001,1.6892621847113283,0.4925745816544128,-1.3256931300357797, ,0.12981797750816795,0.08042113691395829,0.021409692903225808,-0.002374007347413842,0.14898380171029874,-0.10696259597278969, ,0.8682219982147217
0.013271120541358346,0.020470016051439933,-0.0861888054073167, ,0.014156279661258764,0.02000937957254231,-0.0869402010095433, ,0.0012491148803370983, ,0.014407251829002777,-0.0022404044443897035,-0.019932921715339065,0.0334462178797416,0.01429234307305029,-0.009948986302572635, ,0.02469634963812629, ,0.0363719316820098, ,0.000110477644210598, ,0.20179501000348643,-0.22514083148226713,0.09705323230000001,1.6892621847113283,0.4925745816544128,-1.3256931300357797, ,0.12981797750816795,0.08042113691395829,0.021409692903225808,-0.002374007347413842,0.14898380171029874,-0.10696259597278969, ,0.8765859603881836
0.013386443797528855,0.020454348266395885,-0.08635405309716854, ,0.014306007704934369,0.01997674352070303,-0.08713123180929308, ,0.0012952647696478105, ,0.01567265756096283,-0.0017449886121498376,-0.02358676615319688,0.055903241413291484,0.035045433808142096,-0.011529700182793074, ,0.02837274603991182, ,0.06597990247788928, ,0.00011488055192054315, ,0.2028221334757583,-0.22450756738658073,0.09723082403000001,1.6892621847113283,0.4938043101523018,-1.3266958911690476, ,0.13773141009937706,0.08450306461128297,0.02536434955414013,-0.0023440968101393947,0.17845854154854293,-0.13249140610238772, ,0.8839190006256104
0.013450054226504754,0.02044644873616525,-0.08645169828368654, ,0.014455058742149583,0.019944183855697725,-0.08732165817783065, ,0.0014209624569413452, ,0.016092676027343808,-0.001688560822236888,-0.024622430230995168,0.06116968351001777,0.03610772229272832,-0.014834099798382844, ,0.0294633591067221, ,0.07103160380956867, ,0.00011972283384371492, ,0.2033858929755767,-0.2241600444072406,0.09733582352,1.6890524947678438,0.49462412915089443,-1.3272827198510855, ,0.13996599049921946,0.08650587197672815,0.026459819800664457,-0.0009164751874067991,0.18145572270157015,-0.13959932927577753, ,0.8915269374847412
0.013763644819014815,0.020421759354490674,-0.08695366738402986, ,0.014603429889084744,0.019911707772834332,-0.0875114820481242, ,0.001129844581940885, ,0.018421723462983697,-0.001272535306730788,-0.029703441503576934,0.008913069625609824,-0.021031018221953496,0.0008466039555038466, ,0.034975329571141106, ,0.02284126562064632, ,0.00012331315204634982, ,0.20598845395419035,-0.22255371596940193,0.09787248758000001,1.68842342493739,0.4974934956459687,-1.3292141021280075, ,0.1482764711851106,0.09303621721418705,0.031667617335984104,-0.01802112438877915,0.13499410857588062,-0.09864853827558294, ,0.8985819816589355
0.013763644819014815,0.020421759354490674,-0.08695366738402986, ,0.014751118317310123,0.01987932240931464,-0.0877007053388896, ,0.0013518163541430118, ,0.018421723462983697,-0.001272535306730788,-0.029703441503576934,0.008913069625609824,-0.021031018221953496,0.0008466039555038466, ,0.034975329571141106, ,0.02284126562064632, ,0.00012773391224655105, ,0.20598845395419035,-0.22255371596940193,0.09787248758000001,1.68842342493739,0.4974934956459687,-1.3292141021280075, ,0.1482764711851106,0.09303621721418705,0.031667617335984104,-0.01802112438877915,0.13499410857588062,-0.09864853827558294, ,0.906898021697998
0.013949765279575822,0.02040354027047852,-0.08724433552067878, ,0.014898121253593764,0.01984703484439148,-0.08788932995464906, ,0.0012747922036835924, ,0.018714896146807127,-0.0025826856806296676,-0.028109046267102564,-0.015391834773662004,-0.00804103564035034,0.008686449761598507, ,0.03386792118150771, ,0.017365174452071194, ,0.00013230386559888988, ,0.20750210959753834,-0.2215729288943754,0.09818230089,1.68842342493739,0.49885986064362303,-1.3300015662044093, ,0.15608049598432694,0.10303685294079346,0.02999776180790961,-0.01802112438877915,0.15650391611668002,-0.08187270627941769, ,0.9109899997711182
0.013949765279575822,0.02040354027047852,-0.08724433552067878, ,0.01504443597970936,0.019814852099525833,-0.08807735778579025, ,0.0014962565951473377, ,0.018714896146807127,-0.0025826856806296676,-0.028109046267102564,-0.015391834773662004,-0.00804103564035034,0.008686449761598507, ,0.03386792118150771, ,0.017365174452071194, ,0.00013771637643043133, ,0.20750210959753834,-0.2215729288943754,0.09818230089,1.68842342493739,0.49885986064362303,-1.3300015662044093, ,0.15608049598432694,0.10303685294079346,0.02999776180790961,-0.01802112438877915,0.15650391611668002,-0.08187270627941769, ,0.9146981239318848
0.014003489888411755,0.02039611861362925,-0.08732325143700556, ,0.015190059832243972,0.01978278113854456,-0.08826479070862557, ,0.0016342054001722032, ,0.018598722530415827,-0.002927836909885991,-0.02743723772634183,-0.008351639980522655,0.007571045789040971,0.009926187145240267, ,0.03327591806075504, ,0.011271870994785755, ,0.0007731645161838488, ,0.20795002810424337,-0.2212794650451549,0.09826655974000001,1.68842342493739,0.4992697701429194,-1.3302541411753581, ,0.15763611554563253,0.10509074369708835,0.02933482784530387,-0.01802112438877915,0.17417240668388057,-0.09006894828862017, ,0.9205620288848877
0.014003489888411755,0.02039611861362925,-0.08732325143700556, ,0.01533499020240581,0.019750828867797148,-0.08845163058545122, ,0.0018607878559602849, ,0.018598722530415827,-0.002927836909885991,-0.02743723772634183,-0.008351639980522655,0.007571045789040971,0.009926187145240267, ,0.03327591806075504, ,0.011271870994785755, ,0.0007958233357625246, ,0.20795002810424337,-0.2212794650451549,0.09826655974000001,1.68842342493739,0.4992697701429194,-1.3302541411753581, ,0.15763611554563253,0.10509074369708835,0.02933482784530387,-0.01802112438877915,0.17417240668388057,-0.09006894828862017, ,0.9241719245910645
0.014003489888411755,0.02039611861362925,-0.08732325143700556, ,0.015479224535831757,0.01971900213631374,-0.08863787926460637, ,0.0020891447528954086, ,0.018598722530415827,-0.002927836909885991,-0.02743723772634183,-0.008351639980522655,0.007571045789040971,0.009926187145240267, ,0.03327591806075504, ,0.011271870994785755, ,0.0008222176503978895, ,0.20795002810424337,-0.2212794650451549,0.09826655974000001,1.68842342493739,0.4992697701429194,-1.3302541411753581, ,0.15763611554563253,0.10509074369708835,0.02933482784530387,-0.01802112438877915,0.17417240668388057,-0.09006894828862017, ,0.9277610778808594
0.014336812899197943,0.020331946059043943,-0.08774933061121559, ,0.015622760332395187,0.01968730773596214,-0.08882353858053135, ,0.001795311151269827, ,0.017738418769461972,-0.004946618447314648,-0.017610912212541897,-0.06936383125595375,-0.06962148749391613,-0.029387338242264305, ,0.025480674313329538, ,0.09827762163069531, ,0.0008416795204153283, ,0.21087694386357447,-0.21943373188821522,0.09872544640000001,1.6882137349939055,0.5020025001382282,-1.331992426808443, ,0.161664295670308,0.10337357468243004,0.01900812830548926,0.023465843681123526,0.08958716350895038,-0.02170954218593444, ,0.9313430786132812
0.014336812899197943,0.020331946059043943,-0.08774933061121559, ,0.015765595146013042,0.01965575240160511,-0.08900861035382632, ,0.002021000257625972, ,0.017738418769461972,-0.004946618447314648,-0.017610912212541897,-0.06936383125595375,-0.06962148749391613,-0.029387338242264305, ,0.025480674313329538, ,0.09827762163069531, ,0.0008648034564390664, ,0.21087694386357447,-0.21943373188821522,0.09872544640000001,1.6882137349939055,0.5020025001382282,-1.331992426808443, ,0.161664295670308,0.10337357468243004,0.01900812830548926,0.023465843681123526,0.08958716350895038,-0.02170954218593444, ,0.9350860118865967
0.014336812899197943,0.020331946059043943,-0.08774933061121559, ,0.01590772658445375,0.01962434281125783,-0.089193096391311, ,0.0022478727256176954, ,0.017738418769461972,-0.004946618447314648,-0.017610912212541897,-0.06936383125595375,-0.06962148749391613,-0.029387338242264305, ,0.025480674313329538, ,0.09827762163069531, ,0.0008914009423848092, ,0.21087694386357447,-0.21943373188821522,0.09872544640000001,1.6882137349939055,0.5020025001382282,-1.331992426808443, ,0.161664295670308,0.10337357468243004,0.01900812830548926,0.023465843681123526,0.08958716350895038,-0.02170954218593444, ,0.9388980865478516
0.014524412619053456,0.02026804786154729,-0.0879005849558257, ,0.01604915230914432,0.019593085586245465,-0.08937699848608222, ,0.002227151119242585, ,0.017973330379990028,-0.006035371221573585,-0.015015055584216761,-0.11469877327492084,-0.14313056688417253,-0.007587576079465648, ,0.024185082280769484, ,0.18341801166778218, ,0.0009166037759104276, ,0.21263000422602343,-0.21830621288857843,0.09888877894,1.68842342493739,0.50254904613729,-1.331866347242245, ,0.16389799923742793,0.10662577703198964,0.016073472774974774,-0.006479829757134597,0.022913221533872274,0.011237522940819195, ,0.9424850940704346
0.014524412619053456,0.02026804786154729,-0.0879005849558257, ,0.01618987003497797,0.019561987291360522,-0.08956031841757249, ,0.002454991873117385, ,0.017973330379990028,-0.006035371221573585,-0.015015055584216761,-0.11469877327492084,-0.14313056688417253,-0.007587576079465648, ,0.024185082280769484, ,0.18341801166778218, ,0.0009450924443772232, ,0.21263000422602343,-0.21830621288857843,0.09888877894,1.68842342493739,0.50254904613729,-1.331866347242245, ,0.16389799923742793,0.10662577703198964,0.016073472774974774,-0.006479829757134597,0.022913221533872274,0.011237522940819195, ,0.946073055267334
0.014524412619053456,0.02026804786154729,-0.0879005849558257, ,0.016329877530121027,0.019531054435019915,-0.08974305795160892, ,0.0026828286557346844, ,0.017973330379990028,-0.006035371221573585,-0.015015055584216761,-0.11469877327492084,-0.14313056688417253,-0.007587576079465648, ,0.024185082280769484, ,0.18341801166778218, ,0.000976687648220086, ,0.21263000422602343,-0.21830621288857843,0.09888877894,1.68842342493739,0.50254904613729,-1.331866347242245, ,0.16389799923742793,0.10662577703198964,0.016073472774974774,-0.006479829757134597,0.022913221533872274,0.011237522940819195, ,0.9497640132904053
0.014740893246106616,0.02020404959100246,-0.08818078965844676, ,0.016469172615820607,0.01950029346942285,-0.08992521884047142, ,0.0025544579521963088, ,0.028189846292836402,-0.005223009875169731,-0.04761903558567986,0.3725935234112346,0.34527811055472835,-0.04876950648375281, ,0.055583449121839386, ,0.5079789980546674, ,0.0010048621179339474, ,0.21465336023907025,-0.21686206184109846,0.09919340709,1.6882137349939055,0.5061015951311915,-1.3345998552580707, ,0.24907333742380783,0.18249411838167456,0.05171692051948052,-0.00727157194494026,0.6120996387596546,-0.5346890386698863, ,0.954193115234375
0.014740893246106616,0.02020404959100246,-0.08818078965844676, ,0.016607753166211613,0.019469710790707934,-0.09010680282295049, ,0.002780997329152633, ,0.028189846292836402,-0.005223009875169731,-0.04761903558567986,0.3725935234112346,0.34527811055472835,-0.04876950648375281, ,0.055583449121839386, ,0.5079789980546674, ,0.001036022384797433, ,0.21465336023907025,-0.21686206184109846,0.09919340709,1.6882137349939055,0.5061015951311915,-1.3345998552580707, ,0.24907333742380783,0.18249411838167456,0.05171692051948052,-0.00727157194494026,0.6120996387596546,-0.5346890386698863, ,0.9579460620880127
0.015060445148215036,0.02020138461259639,-0.0888250210567854, ,0.016745617108123972,0.019439312739110894,-0.0902878116244065, ,0.0023580318741574, ,0.030977928864115482,0.0035963307010277367,-0.06589758001832269,0.3253222761191008,0.31535978969714,0.1275908953609941, ,0.07290443555431038, ,0.45308402934931424, ,0.0010588156518553636, ,0.21721730755331278,-0.21523256520463707,0.09989340369000001,1.6867459053895137,0.5130700566192289,-1.3404455258268695, ,0.23145595502066044,0.1221324859182378,0.07175140324324325,-0.1623676963511847,0.5962319989764675,-0.46028738636610816, ,0.9615480899810791
0.015060445148215036,0.02020138461259639,-0.0888250210567854, ,0.01688276242088963,0.019409105599121665,-0.09046824695682663, ,0.002578514618156543, ,0.030977928864115482,0.0035963307010277367,-0.06589758001832269,0.3253222761191008,0.31535978969714,0.1275908953609941, ,0.07290443555431038, ,0.45308402934931424, ,0.0010845732614536887, ,0.21721730755331278,-0.21523256520463707,0.09989340369000001,1.6867459053895137,0.5130700566192289,-1.3404455258268695, ,0.23145595502066044,0.1221324859182378,0.07175140324324325,-0.1623676963511847,0.5962319989764675,-0.46028738636610816, ,0.965142011642456
0.015060445148215036,0.02020138461259639,-0.0888250210567854, ,0.017019187136150003,0.01937909559964222,-0.09064811051888443, ,0.0027993721765676464, ,0.030977928864115482,0.0035963307010277367,-0.06589758001832269,0.3253222761191008,0.31535978969714,0.1275908953609941, ,0.07290443555431038, ,0.45308402934931424, ,0.0011131532433722546, ,0.21721730755331278,-0.21523256520463707,0.09989340369000001,1.6867459053895137,0.5130700566192289,-1.3404455258268695, ,0.23145595502066044,0.1221324859182378,0.07175140324324325,-0.1623676963511847,0.5962319989764675,-0.46028738636610816, ,0.9687180519104004
0.015394041764982224,0.02023071650283852,-0.08947824129287163, ,0.01715488933766252,0.01934928891414352,-0.0908274039959964, ,0.00238699366732082, ,0.038791925550418854,0.0020149068862497584,-0.07293926984360012,-0.03303564131694579,0.03705873674791892,0.06142078839424583, ,0.08263782682880165, ,0.04962498467297428, ,0.0011340358732730507, ,0.21962680021007083,-0.2139119778831447,0.10060117803000002,1.686326525502545,0.5173057881119575,-1.3429193359597718, ,0.2711341187384879,0.15842561195070248,0.0784670518226601,-0.05837980206878467,0.3294073590578247,-0.11767169836784064, ,0.972261905670166
0.015394041764982224,0.02023071650283852,-0.08947824129287163, ,0.017289867161108318,0.019319691660823923,-0.09100612906038183, ,0.0025997232978668488, ,0.038791925550418854,0.0020149068862497584,-0.07293926984360012,-0.03303564131694579,0.03705873674791892,0.06142078839424583, ,0.08263782682880165, ,0.04962498467297428, ,0.0011576759930245636, ,0.21962680021007083,-0.2139119778831447,0.10060117803000002,1.686326525502545,0.5173057881119575,-1.3429193359597718, ,0.2711341187384879,0.15842561195070248,0.0784670518226601,-0.05837980206878467,0.3294073590578247,-0.11767169836784064, ,0.9758880138397217
0.015394041764982224,0.02023071650283852,-0.08947824129287163, ,0.0174241187938984,0.019290309902765052,-0.09118428737111853, ,0.0028135690035782828, ,0.038791925550418854,0.0020149068862497584,-0.07293926984360012,-0.03303564131694579,0.03705873674791892,0.06142078839424583, ,0.08263782682880165, ,0.04962498467297428, ,0.0011839600090650987, ,0.21962680021007083,-0.2139119778831447,0.10060117803000002,1.686326525502545,0.5173057881119575,-1.3429193359597718, ,0.2711341187384879,0.15842561195070248,0.0784670518226601,-0.05837980206878467,0.3294073590578247,-0.11767169836784064, ,0.979464054107666
0.015787505203326533,0.020247993493940308,-0.09023474393915215, ,0.01755764247498143,0.01926114964809122,-0.09136188057420341, ,0.002318983339885551, ,0.039165310270550514,0.0019188735777306556,-0.08023015614302993,-0.1265387658972321,-0.03586476340128465,0.03096500205484668, ,0.08929995273868159, ,0.1315105179088322, ,0.0012016947486091683, ,0.22222163845581028,-0.21222842211656376,0.10140876670000001,1.686326525502545,0.5196286086079701,-1.3431798655197997, ,0.24332549117556607,0.17348618200817328,0.08518081026737968,-0.031232856923639404,0.220166444940694,-0.0365388084958793, ,0.983022928237915
0.015787505203326533,0.020247993493940308,-0.09023474393915215, ,0.01769043649465017,0.019232216850125196,-0.09153891030260816, ,0.0025206744322083738, ,0.039165310270550514,0.0019188735777306556,-0.08023015614302993,-0.1265387658972321,-0.03586476340128465,0.03096500205484668, ,0.08929995273868159, ,0.1315105179088322, ,0.0012219867437414638, ,0.22222163845581028,-0.21222842211656376,0.10140876670000001,1.686326525502545,0.5196286086079701,-1.3431798655197997, ,0.24332549117556607,0.17348618200817328,0.08518081026737968,-0.031232856923639404,0.220166444940694,-0.0365388084958793, ,0.9867000579833984
0.015787505203326533,0.020247993493940308,-0.09023474393915215, ,0.017822499194348473,0.019203517407546538,-0.09171537817633857, ,0.0027247767950554147, ,0.039165310270550514,0.0019188735777306556,-0.08023015614302993,-0.1265387658972321,-0.03586476340128465,0.03096500205484668, ,0.08929995273868159, ,0.1315105179088322, ,0.0012447562899734932, ,0.22222163845581028,-0.21222842211656376,0.10140876670000001,1.686326525502545,0.5196286086079701,-1.3431798655197997, ,0.24332549117556607,0.17348618200817328,0.08518081026737968,-0.031232856923639404,0.220166444940694,-0.0365388084958793, ,0.9904310703277588
0.016190511297526498,0.020255077742129906,-0.09104150115213575, ,0.017953828966478264,0.019175057164549085,-0.09189128580249188, ,0.002235591107876483, ,0.041353393135134024,-0.0002340427111391576,-0.07890994872716864,0.014005395963270259,0.025703652110562865,-0.031549733035259715, ,0.08908949381326606, ,0.029219330743457454, ,0.0012595448693451796, ,0.2247855857700528,-0.21035952076100142,0.10226691068,1.6861168355590603,0.5223613386032788,-1.3445097574521818, ,0.2719110073308618,0.19287996251721704,0.08427942603174604,0.0,0.3050489297088903,-0.1909654514148092, ,0.9941549301147461
0.016190511297526498,0.020255077742129906,-0.09104150115213575, ,0.018084424254206338,0.019146841910998226,-0.09206663477531447, ,0.0024219809847014586, ,0.041353393135134024,-0.0002340427111391576,-0.07890994872716864,0.014005395963270259,0.025703652110562865,-0.031549733035259715, ,0.08908949381326606, ,0.029219330743457454, ,0.001276639518100419, ,0.2247855857700528,-0.21035952076100142,0.10226691068,1.6861168355590603,0.5223613386032788,-1.3445097574521818, ,0.2719110073308618,0.19287996251721704,0.08427942603174604,0.0,0.3050489297088903,-0.1909654514148092, ,0.9987390041351318
0.01660389587278864,0.02022352087901272,-0.09172828132669009, ,0.018214283551271162,0.019118877382588186,-0.09224142667626037, ,0.002019134438066705, ,0.0383713117125244,-0.005294553153498524,-0.054875544066015434,0.039411558299629876,-0.0014662553838491435,-0.029037961891504434, ,0.06716930245414296, ,0.03943251471332579, ,0.0012874003140419595, ,0.22775883792662924,-0.20838250114519993,0.10300709227000002,1.6856974556720912,0.5257772510974149,-1.3469684900840302, ,0.29379858067638015,0.18866191164705923,0.05965847011235956,-0.01172602875149944,0.3017594013511381,-0.216358916420101, ,1.0024499893188477
0.01660389587278864,0.02022352087901272,-0.09172828132669009, ,0.01834340540178971,0.01909116926100007,-0.09241566307404797, ,0.002186459982460727, ,0.0383713117125244,-0.005294553153498524,-0.054875544066015434,0.039411558299629876,-0.0014662553838491435,-0.029037961891504434, ,0.06716930245414296, ,0.03943251471332579, ,0.001300244023590799, ,0.22775883792662924,-0.20838250114519993,0.10300709227000002,1.6856974556720912,0.5257772510974149,-1.3469684900840302, ,0.29379858067638015,0.18866191164705923,0.05965847011235956,-0.01172602875149944,0.3017594013511381,-0.216358916420101, ,1.0060460567474365
0.01660389587278864,0.02022352087901272,-0.09172828132669009, ,0.018471788400064467,0.019063723174059063,-0.09258934552471884, ,0.0023612676178263957, ,0.0383713117125244,-0.005294553153498524,-0.054875544066015434,0.039411558299629876,-0.0014662553838491435,-0.029037961891504434, ,0.06716930245414296, ,0.03943251471332579, ,0.0013151880178758075, ,0.22775883792662924,-0.20838250114519993,0.10300709227000002,1.6856974556720912,0.5257772510974149,-1.3469684900840302, ,0.29379858067638015,0.18866191164705923,0.05965847011235956,-0.01172602875149944,0.3017594013511381,-0.216358916420101, ,1.0096158981323242
0.01697199709779655,0.020133668181004746,-0.09215960242545546, ,0.018599431190389624,0.019036544695891444,-0.09276247557169466, ,0.0020532115569949806, ,0.038342902650239825,-0.012358697284251222,-0.03808155606841694,-0.018327434361598945,-0.07764188909468916,0.04310816712489303, ,0.055435733014018225, ,0.0797751697169468, ,0.001325438344808018, ,0.2307707037475768,-0.20642092699514691,0.10347894183,1.6848586958981533,0.5283733445929583,-1.3487587152937, ,0.3295032693002457,0.2191615278486623,0.04202852643799473,-0.09902025120275504,0.2783470340049291,-0.2092030614796067, ,1.0132241249084473
0.01697199709779655,0.020133668181004746,-0.09215960242545546, ,0.01872633246685849,0.01900963934708313,-0.09293505474583524, ,0.0022231643456594196, ,0.038342902650239825,-0.012358697284251222,-0.03808155606841694,-0.018327434361598945,-0.07764188909468916,0.04310816712489303, ,0.055435733014018225, ,0.0797751697169468, ,0.0013377359612580372, ,0.2307707037475768,-0.20642092699514691,0.10347894183,1.6848586958981533,0.5283733445929583,-1.3487587152937, ,0.3295032693002457,0.2191615278486623,0.04202852643799473,-0.09902025120275504,0.2783470340049291,-0.2092030614796067, ,1.016753911972046
0.01737593844703473,0.01999008465517287,-0.0925202752072769, ,0.01885249097316977,0.018983012594836163,-0.09310708456549685, ,0.001881155687347832, ,0.03963648673066167,-0.01494129012821935,-0.03336445553923631,-0.0907337387197757,-0.15402754283385595,-0.0019026805411294992, ,0.05392105455640885, ,0.17876536003591137, ,0.0013450794710700615, ,0.2307707037475768,-0.20642092699514691,0.10347894183,1.6848586958981533,0.5283733445929583,-1.3487587152937, ,0.3295032693002457,0.2191615278486623,0.04202852643799473,-0.09902025120275504,0.2783470340049291,-0.2092030614796067, ,1.02093505859375
0.01737593844703473,0.01999008465517287,-0.0925202752072769, ,0.018977905502434497,0.018956669853126756,-0.09327856653658832, ,0.0020516457637182618, ,0.03963648673066167,-0.01494129012821935,-0.03336445553923631,-0.0907337387197757,-0.15402754283385595,-0.0019026805411294992, ,0.05392105455640885, ,0.17876536003591137, ,0.0013545003549720375, ,0.2342691017396005,-0.20403460253701156,0.10387819915000002,1.6846490059546686,0.5306961650889708,-1.3504077834361174, ,0.3450797874853483,0.23606204367778796,0.037043747720930234,-0.05328950320823243,0.20648715855807412,-0.1446034516786976, ,1.0246150493621826
0.01737593844703473,0.01999008465517287,-0.0925202752072769, ,0.019102574896982607,0.018930616482862723,-0.09344950215263015, ,0.0022287236155246653, ,0.03963648673066167,-0.01494129012821935,-0.03336445553923631,-0.0907337387197757,-0.15402754283385595,-0.0019026805411294992, ,0.05392105455640885, ,0.17876536003591137, ,0.0013660032926108877, ,0.2342691017396005,-0.20403460253701156,0.10387819915000002,1.6846490059546686,0.5306961650889708,-1.3504077834361174, ,0.3450797874853483,0.23606204367778796,0.037043747720930234,-0.05328950320823243,0.20648715855807412,-0.1446034516786976, ,1.0282659530639648
0.01770993165128477,0.01986513610807072,-0.09278797257435402, ,0.019226498048169626,0.018904857792040958,-0.0936198928948118, ,0.001978433597568504, ,0.038763443044877256,-0.014714479222669783,-0.02976741005569885,-0.058742781996962125,-0.11891629057575771,-0.016033220301367328, ,0.05104134713065423, ,0.1326339897180819, ,0.0013739569329350128, ,0.23721146296468004,-0.2020653056540843,0.10417893843,1.6846490059546686,0.5326090760856869,-1.3518859553477267, ,0.3450797874853483,0.22594509894873996,0.03374748203389831,-0.03472531538745343,0.23852668122144227,-0.16121015711416645, ,1.0319979190826416
0.01770993165128477,0.01986513610807072,-0.09278797257435402, ,0.019349673896183438,0.018879399035904687,-0.09378974023204849, ,0.002159622801590696, ,0.038763443044877256,-0.014714479222669783,-0.02976741005569885,-0.058742781996962125,-0.11891629057575771,-0.016033220301367328, ,0.05104134713065423, ,0.1326339897180819, ,0.0013840295722767522, ,0.23721146296468004,-0.2020653056540843,0.10417893843,1.6846490059546686,0.5326090760856869,-1.3518859553477267, ,0.3450797874853483,0.22594509894873996,0.03374748203389831,-0.03472531538745343,0.23852668122144227,-0.16121015711416645, ,1.0355870723724365
0.01770993165128477,0.01986513610807072,-0.09278797257435402, ,0.019472101429850855,0.01885424541710139,-0.09395904562103993, ,0.0023448996563295243, ,0.038763443044877256,-0.014714479222669783,-0.02976741005569885,-0.058742781996962125,-0.11891629057575771,-0.016033220301367328, ,0.05104134713065423, ,0.1326339897180819, ,0.0013961924847331166, ,0.23721146296468004,-0.2020653056540843,0.10417893843,1.6846490059546686,0.5326090760856869,-1.3518859553477267, ,0.3450797874853483,0.22594509894873996,0.03374748203389831,-0.03472531538745343,0.23852668122144227,-0.16121015711416645, ,1.0391619205474854
0.01816191534057062,0.019681618846632592,-0.09313199229787303, ,0.019593779686444202,0.018829402085840257,-0.09412781050632724, ,0.0019411756274609225, ,0.038413380877199456,-0.016474301550018455,-0.032024911132790344,-0.06295274126238938,-0.09608234563338336,-0.047023827928543545, ,0.0526553451706553, ,0.11486875593311134, ,0.001403004774017214, ,0.24124272952502523,-0.19932373548373458,0.10456912172,1.6842296260676997,0.5356150790805265,-1.3540921130086265, ,0.33297172476656417,0.2477726933641535,0.03571482403587444,-0.011319401687452442,0.2445367476140012,-0.17289797305310933, ,1.042673110961914
0.01816191534057062,0.019681618846632592,-0.09313199229787303, ,0.019714707751487953,0.018804874140048992,-0.09429603632035019, ,0.002129517325167756, ,0.038413380877199456,-0.016474301550018455,-0.032024911132790344,-0.06295274126238938,-0.09608234563338336,-0.047023827928543545, ,0.0526553451706553, ,0.11486875593311134, ,0.001411974064772159, ,0.24124272952502523,-0.19932373548373458,0.10456912172,1.6842296260676997,0.5356150790805265,-1.3540921130086265, ,0.33297172476656417,0.2477726933641535,0.03571482403587444,-0.011319401687452442,0.2445367476140012,-0.17289797305310933, ,1.0462219715118408
0.01816191534057062,0.019681618846632592,-0.09313199229787303, ,0.019834884758565482,0.018780666625532638,-0.09446372448350607, ,0.00232035604864899, ,0.038413380877199456,-0.016474301550018455,-0.032024911132790344,-0.06295274126238938,-0.09608234563338336,-0.047023827928543545, ,0.0526553451706553, ,0.11486875593311134, ,0.0014230518938438276, ,0.24124272952502523,-0.19932373548373458,0.10456912172,1.6842296260676997,0.5356150790805265,-1.3540921130086265, ,0.33297172476656417,0.2477726933641535,0.03571482403587444,-0.011319401687452442,0.2445367476140012,-0.17289797305310933, ,1.0497629642486572
0.0185541531635105,0.0195184195775111,-0.09350736494521068, ,0.01995430988912547,0.01875678453612977,-0.09463087640420549, ,0.0019500781499820507, ,0.04032851343298576,-0.01532570371279282,-0.043387977876550195,-0.06785511159630368,-0.0780352433649408,0.05970816306719843, ,0.06118645940257398, ,0.10341016205126806, ,0.0014294016077732038, ,0.24451716826369643,-0.19679067910098896,0.10498263823000001,1.6833908662937616,0.53821117257607,-1.3558006594781555, ,0.3238803466159412,0.25238548286827334,0.047548691104477625,-0.12694578981399846,0.2766044990309279,-0.19916416470580603, ,1.0533010959625244
0.0185541531635105,0.0195184195775111,-0.09350736494521068, ,0.020072982372288464,0.018733232813870765,-0.09479749347893114, ,0.0021419131758203406, ,0.04032851343298576,-0.01532570371279282,-0.043387977876550195,-0.06785511159630368,-0.0780352433649408,0.05970816306719843, ,0.06118645940257398, ,0.10341016205126806, ,0.0014378838883451935, ,0.24451716826369643,-0.19679067910098896,0.10498263823000001,1.6833908662937616,0.53821117257607,-1.3558006594781555, ,0.3238803466159412,0.25238548286827334,0.047548691104477625,-0.12694578981399846,0.2766044990309279,-0.19916416470580603, ,1.0569031238555908
0.0185541531635105,0.0195184195775111,-0.09350736494521068, ,0.020190901484653787,0.018710016349135338,-0.09496357709229511, ,0.002335169086753667, ,0.04032851343298576,-0.01532570371279282,-0.043387977876550195,-0.06785511159630368,-0.0780352433649408,0.05970816306719843, ,0.06118645940257398, ,0.10341016205126806, ,0.001448440184797058, ,0.24451716826369643,-0.19679067910098896,0.10498263823000001,1.6833908662937616,0.53821117257607,-1.3558006594781555, ,0.3238803466159412,0.25238548286827334,0.047548691104477625,-0.12694578981399846,0.2766044990309279,-0.19916416470580603, ,1.0605299472808838
0.018957850133548764,0.0193897669838577,-0.09396795763256684, ,0.020308066550105575,0.018687139980809425,-0.09512912861709553, ,0.0019144417286152799, ,0.04444514017060235,-0.012250734949074697,-0.05320587225719699,-0.06801577738563853,-0.07980056589520121,0.01251529282441372, ,0.07040110676847443, ,0.10485156131204593, ,0.0014538588073995952, ,0.24766804327638003,-0.1944429683072247,0.10548948762000002,1.682761796463308,0.5409439025713787,-1.3577023025915216, ,0.33651397715769776,0.2427031753413575,0.058561807058823544,-0.06873182983395412,0.2759226473488467,-0.17491384191558434, ,1.0643529891967773
0.018957850133548764,0.0193897669838577,-0.09396795763256684, ,0.02042447693961979,0.01866460849644337,-0.0952941494143754, ,0.0021060944096340296, ,0.04444514017060235,-0.012250734949074697,-0.05320587225719699,-0.06801577738563853,-0.07980056589520121,0.01251529282441372, ,0.07040110676847443, ,0.10485156131204593, ,0.0014613557683448187, ,0.24766804327638003,-0.1944429683072247,0.10548948762000002,1.682761796463308,0.5409439025713787,-1.3577023025915216, ,0.33651397715769776,0.2427031753413575,0.058561807058823544,-0.06873182983395412,0.2759226473488467,-0.17491384191558434, ,1.068120002746582
0.019233284341324545,0.019321275123250076,-0.09430217645565177, ,0.02054013207107036,0.018642426632409115,-0.09545864083347892, ,0.0018724572410183337, ,0.045759009623107076,-0.011398263203281475,-0.05578573655408049,-0.08319635204065537,-0.0943650096771879,-0.006710602257290237, ,0.07304694222635304, ,0.12580082578434088, ,0.0014660273759888357, ,0.24971456748804952,-0.1929910945268705,0.10585763398,1.682761796463308,0.5424469040687986,-1.3586828633117607, ,0.33891764842310995,0.23903511727574503,0.061501202779922784,-0.044443231464975634,0.2587040537931791,-0.1502260890744781, ,1.0717880725860596
0.019233284341324545,0.019321275123250076,-0.09430217645565177, ,0.02065503140903622,0.01862059907405798,-0.09562260421210964, ,0.0020629690037619434, ,0.045759009623107076,-0.011398263203281475,-0.05578573655408049,-0.08319635204065537,-0.0943650096771879,-0.006710602257290237, ,0.07304694222635304, ,0.12580082578434088, ,0.001472734585289657, ,0.24971456748804952,-0.1929910945268705,0.10585763398,1.682761796463308,0.5424469040687986,-1.3586828633117607, ,0.33891764842310995,0.23903511727574503,0.061501202779922784,-0.044443231464975634,0.2587040537931791,-0.1502260890744781, ,1.0753889083862305
0.019233284341324545,0.019321275123250076,-0.09430217645565177, ,0.020769174464607243,0.018599130455877667,-0.0957860408763875, ,0.0022543968174518693, ,0.045759009623107076,-0.011398263203281475,-0.05578573655408049,-0.08319635204065537,-0.0943650096771879,-0.006710602257290237, ,0.07304694222635304, ,0.12580082578434088, ,0.0014814197212025706, ,0.24971456748804952,-0.1929910945268705,0.10585763398,1.682761796463308,0.5424469040687986,-1.3586828633117607, ,0.33891764842310995,0.23903511727574503,0.061501202779922784,-0.044443231464975634,0.2587040537931791,-0.1502260890744781, ,1.0789589881896973
0.01987661531605619,0.019164672164816803,-0.09507865935916444, ,0.02088256079519111,0.018578025361650204,-0.09594895214090621, ,0.0014537848206008313, ,0.04494294845186979,-0.011579898479222715,-0.052216219641238175,-0.15624388559954502,-0.16376731094716,-0.04138581562228605, ,0.0698605486520007, ,0.22634375570686968, ,0.001481116040976178, ,0.2544022663427038,-0.18969348758957663,0.10671448167000001,1.6825521065198237,0.5454529070636382,-1.3604806272719574, ,0.3261063283796246,0.23145595502066044,0.05771308521739131,0.0,0.1660823980322643,-0.06038816428744195, ,1.0824899673461914
0.01987661531605619,0.019164672164816803,-0.09507865935916444, ,0.02099519000431991,0.01855728832460962,-0.09611133930879165, ,0.0016390705722851453, ,0.04494294845186979,-0.011579898479222715,-0.052216219641238175,-0.15624388559954502,-0.16376731094716,-0.04138581562228605, ,0.0698605486520007, ,0.22634375570686968, ,0.0014828329380556233, ,0.2544022663427038,-0.18969348758957663,0.10671448167000001,1.6825521065198237,0.5454529070636382,-1.3604806272719574, ,0.3261063283796246,0.23145595502066044,0.05771308521739131,0.0,0.1660823980322643,-0.06038816428744195, ,1.0860130786895752
0.01987661531605619,0.019164672164816803,-0.09507865935916444, ,0.02110706174145623,0.018536923827598858,-0.09627320367175765, ,0.0018261989199997934, ,0.04494294845186979,-0.011579898479222715,-0.052216219641238175,-0.15624388559954502,-0.16376731094716,-0.04138581562228605, ,0.0698605486520007, ,0.22634375570686968, ,0.0014865250453883563, ,0.2544022663427038,-0.18969348758957663,0.10671448167000001,1.6825521065198237,0.5454529070636382,-1.3604806272719574, ,0.3261063283796246,0.23145595502066044,0.05771308521739131,0.0,0.1660823980322643,-0.06038816428744195, ,1.0895779132843018
0.02033607068019978,0.01903497795877307,-0.09560465263563886, ,0.02121817570180002,0.01851693630322782,-0.0964345465101652, ,0.001317270006106858, ,0.041392872445539144,-0.011934687288629786,-0.04773748710848327,-0.049117457754205576,-0.07710079369804813,-0.032959123608938476, ,0.06430143330752948, ,0.09141558473793568, ,0.001484724459864085, ,0.25777710060873993,-0.18726854946707014,0.10729781217,1.6819230366893698,0.5476390910598853,-1.3618549200303973, ,0.3041568639694576,0.2222410809331868,0.053096038400000004,-0.024692956991956484,0.23657732973337073,-0.16512606455623594, ,1.093142032623291
0.02033607068019978,0.01903497795877307,-0.09560465263563886, ,0.021328531626094934,0.018497330134030734,-0.0965953690930785, ,0.0015018531924322791, ,0.041392872445539144,-0.011934687288629786,-0.04773748710848327,-0.049117457754205576,-0.07710079369804813,-0.032959123608938476, ,0.06430143330752948, ,0.09141558473793568, ,0.0014849047623121713, ,0.25777710060873993,-0.18726854946707014,0.10729781217,1.6819230366893698,0.5476390910598853,-1.3618549200303973, ,0.3041568639694576,0.2222410809331868,0.053096038400000004,-0.024692956991956484,0.23657732973337073,-0.16512606455623594, ,1.0968139171600342
0.02033607068019978,0.01903497795877307,-0.09560465263563886, ,0.02143812930043473,0.018478109652623413,-0.09675567267832269, ,0.0016880410692539554, ,0.041392872445539144,-0.011934687288629786,-0.04773748710848327,-0.049117457754205576,-0.07710079369804813,-0.032959123608938476, ,0.06430143330752948, ,0.09141558473793568, ,0.0014870207655094817, ,0.25777710060873993,-0.18726854946707014,0.10729781217,1.6819230366893698,0.5476390910598853,-1.3618549200303973, ,0.3041568639694576,0.2222410809331868,0.053096038400000004,-0.024692956991956484,0.23657732973337073,-0.16512606455623594, ,1.100559949874878
0.020583409907164812,0.01896274323195264,-0.09589513273765594, ,0.021546968556069853,0.01845927914186134,-0.09691545851254176, ,0.0014909681575364028, ,0.03914176842820836,-0.011484400215203748,-0.046224372519961233,-0.05780449792771683,-0.07132602886925696,0.07613439754959805, ,0.06164951012663935, ,0.09180714209485873, ,0.001487061460272646, ,0.25958422010130844,-0.18594796214557774,0.10762058838,1.6812939668589162,0.5491420925573052,-1.362917159490777, ,0.2849758004758882,0.20765195089380914,0.05138326296774194,-0.13632422201545616,0.24382650437376305,-0.17037474815775033, ,1.1042490005493164
0.020583409907164812,0.01896274323195264,-0.09589513273765594, ,0.021655049269213886,0.01844084283499655,-0.09707472783125552, ,0.0016769721319926775, ,0.03914176842820836,-0.011484400215203748,-0.046224372519961233,-0.05780449792771683,-0.07132602886925696,0.07613439754959805, ,0.06164951012663935, ,0.09180714209485873, ,0.001488999324269789, ,0.25958422010130844,-0.18594796214557774,0.10762058838,1.6812939668589162,0.5491420925573052,-1.362917159490777, ,0.2849758004758882,0.20765195089380914,0.05138326296774194,-0.13632422201545616,0.24382650437376305,-0.17037474815775033, ,1.1078689098358154
0.021096462661723256,0.018813650732098255,-0.0964841056672475, ,0.021762371360849866,0.018422804915835617,-0.09723348185891695, ,0.0010759923439799732, ,0.03504652599003752,-0.010074227627493498,-0.03804669965701623,-0.06671432836269557,-0.09660603250942304,-0.08229110681518371, ,0.0527000986816166, ,0.11740292757361477, ,0.001484827536590094, ,0.26330657734668467,-0.18324500563959917,0.10827780741000001,1.6804552070849783,0.5520114590523794,-1.3647668630275582, ,0.25441539291815224,0.1828457448140092,0.04270458852546917,0.04011532126857106,0.15360559368177595,-0.09476092486771535, ,1.111525058746338
0.021096462661723256,0.018813650732098255,-0.0964841056672475, ,0.021868934796537048,0.01840516951889713,-0.09739172180896996, ,0.0012598956946180972, ,0.03504652599003752,-0.010074227627493498,-0.03804669965701623,-0.06671432836269557,-0.09660603250942304,-0.08229110681518371, ,0.0527000986816166, ,0.11740292757361477, ,0.001482578218170374, ,0.26330657734668467,-0.18324500563959917,0.10827780741000001,1.6804552070849783,0.5520114590523794,-1.3647668630275582, ,0.25441539291815224,0.1828457448140092,0.04270458852546917,0.04011532126857106,0.15360559368177595,-0.09476092486771535, ,1.1152501106262207
0.021096462661723256,0.018813650732098255,-0.0964841056672475, ,0.021974739586216988,0.018387940729568793,-0.09754944888390592, ,0.001444837545065853, ,0.03504652599003752,-0.010074227627493498,-0.03804669965701623,-0.06671432836269557,-0.09660603250942304,-0.08229110681518371, ,0.0527000986816166, ,0.11740292757361477, ,0.001482204548139636, ,0.26330657734668467,-0.18324500563959917,0.10827780741000001,1.6804552070849783,0.5520114590523794,-1.3647668630275582, ,0.25441539291815224,0.1828457448140092,0.04270458852546917,0.04011532126857106,0.15360559368177595,-0.09476092486771535, ,1.1188459396362305
0.021437193107117242,0.01871708858592325,-0.09686629838572317, ,0.022079785784020117,0.018371122584265466,-0.09770666427532233, ,0.0011130285940235665, ,0.035236895896849814,-0.009412832451180578,-0.04227132624905071,-0.04391357487027698,-0.03868864331735899,-0.06325800306335196, ,0.05583104217237139, ,0.0585241677606242, ,0.001478585176040459, ,0.26573923820206535,-0.18148422254427599,0.10870558311000002,1.6804552070849783,0.5535144605497992,-1.3656657450076568, ,0.24712745197518432,0.18214384176289977,0.04726650302670624,0.023925600802290864,0.20838082073566322,-0.11868082717372293, ,1.122431993484497
0.021437193107117242,0.01871708858592325,-0.09686629838572317, ,0.02218407348807232,0.018354719070586323,-0.09786336916397873, ,0.0012974174755845823, ,0.035236895896849814,-0.009412832451180578,-0.04227132624905071,-0.04391357487027698,-0.03868864331735899,-0.06325800306335196, ,0.05583104217237139, ,0.0585241677606242, ,0.0014768262663272954, ,0.26573923820206535,-0.18148422254427599,0.10870558311000002,1.6804552070849783,0.5535144605497992,-1.3656657450076568, ,0.24712745197518432,0.18214384176289977,0.04726650302670624,0.023925600802290864,0.20838082073566322,-0.11868082717372293, ,1.1260108947753906
0.021437193107117242,0.01871708858592325,-0.09686629838572317, ,0.022287602840301304,0.018338734127473024,-0.09801956471985582, ,0.0014820162104265653, ,0.035236895896849814,-0.009412832451180578,-0.04227132624905071,-0.04391357487027698,-0.03868864331735899,-0.06325800306335196, ,0.05583104217237139, ,0.0585241677606242, ,0.0014768761696359422, ,0.26573923820206535,-0.18148422254427599,0.10870558311000002,1.6804552070849783,0.5535144605497992,-1.3656657450076568, ,0.24712745197518432,0.18214384176289977,0.04726650302670624,0.023925600802290864,0.20838082073566322,-0.11868082717372293, ,1.1296179294586182
0.021798443842305094,0.018631522029938046,-0.09733753792215792, ,0.02239037402624264,0.018323171645365847,-0.09817525210221052, ,0.0010710865276826905, ,0.03443983959965974,-0.00713996084133091,-0.047725742461548926,-0.03204516249853323,-0.04213231748444952,-0.03147172893538653, ,0.059285985578145906, ,0.05293181471341322, ,0.0014730115063792447, ,0.2681641763245719,-0.17967710305170745,0.10922928427,1.6804552070849783,0.5557006445460463,-1.3672033952463778, ,0.22069056176388552,0.16561420865352666,0.05274440900662252,-0.012915139047188483,0.18457624320713772,-0.1257363885867508, ,1.1333351135253906
0.021798443842305094,0.018631522029938046,-0.09733753792215792, ,0.022492387274846995,0.01830803546636299,-0.09833043245963556, ,0.0012538104350078485, ,0.03443983959965974,-0.00713996084133091,-0.047725742461548926,-0.03204516249853323,-0.04213231748444952,-0.03147172893538653, ,0.059285985578145906, ,0.05293181471341322, ,0.0014709435717436656, ,0.2681641763245719,-0.17967710305170745,0.10922928427,1.6804552070849783,0.5557006445460463,-1.3672033952463778, ,0.22069056176388552,0.16561420865352666,0.05274440900662252,-0.012915139047188483,0.18457624320713772,-0.1257363885867508, ,1.1370060443878174
0.021798443842305094,0.018631522029938046,-0.09733753792215792, ,0.022593642858285603,0.01829332938437663,-0.09848510693011563, ,0.001436534151544345, ,0.03443983959965974,-0.00713996084133091,-0.047725742461548926,-0.03204516249853323,-0.04213231748444952,-0.03147172893538653, ,0.059285985578145906, ,0.05293181471341322, ,0.0014706219883773167, ,0.2681641763245719,-0.17967710305170745,0.10922928427,1.6804552070849783,0.5557006445460463,-1.3672033952463778, ,0.22069056176388552,0.16561420865352666,0.05274440900662252,-0.012915139047188483,0.18457624320713772,-0.1257363885867508, ,1.1405611038208008
0.022122088633865767,0.01856243673561804,-0.0977967722949018, ,0.022694141091757374,0.01827905714529122,-0.09863927664108471, ,0.0010570532532141964, ,0.029979259026206958,-0.0069247940199711686,-0.041891772945473964,-0.03181690587207275,-0.05315344019685184,0.05018369068226678, ,0.051977200621951394, ,0.06194735416459237, ,0.0014667926482369175, ,0.2701952550704929,-0.17812483374398833,0.10973483737,1.67961644731104,0.5573402825432316,-1.3682953738703132, ,0.18941505301091974,0.14599529470533967,0.04617046817391306,-0.1018073782911515,0.15730740530902845,-0.13233440896825255, ,1.144162893295288
0.022122088633865767,0.01856243673561804,-0.0977967722949018, ,0.022793882333295202,0.018265222447121005,-0.0987929427094841, ,0.0012377393113127513, ,0.029979259026206958,-0.0069247940199711686,-0.041891772945473964,-0.03181690587207275,-0.05315344019685184,0.05018369068226678, ,0.051977200621951394, ,0.06194735416459237, ,0.0014646912414761452, ,0.2701952550704929,-0.17812483374398833,0.10973483737,1.67961644731104,0.5573402825432316,-1.3682953738703132, ,0.18941505301091974,0.14599529470533967,0.04617046817391306,-0.1018073782911515,0.15730740530902845,-0.13233440896825255, ,1.147726058959961
0.022401280095399243,0.018490172485822257,-0.09818433655557302, ,0.022892866983571854,0.0182518289401668,-0.09894610624181877, ,0.0009374211269551131, ,0.025898751280823883,-0.007185196069619315,-0.03651780376799443,0.006701835726820512,0.00560717883038881,-0.01914400667899876, ,0.04534227996586186, ,0.008734421269042498, ,0.0014598978767986813, ,0.2719792063644388,-0.1766729599636341,0.11016261307000001,1.6791970674240708,0.5591165570401824,-1.3695804491380856, ,0.16418155978974183,0.1403800910628266,0.04022427151515152,-0.02729716057924716,0.17795752965109207,-0.14528589517680518, ,1.151803970336914
0.022401280095399243,0.018490172485822257,-0.09818433655557302, ,0.02299109548570713,0.01823888022717474,-0.09909876833421581, ,0.001116788015557135, ,0.025898751280823883,-0.007185196069619315,-0.03651780376799443,0.006701835726820512,0.00560717883038881,-0.01914400667899876, ,0.04534227996586186, ,0.008734421269042498, ,0.0014568067969676765, ,0.2719792063644388,-0.1766729599636341,0.11016261307000001,1.6791970674240708,0.5591165570401824,-1.3695804491380856, ,0.16418155978974183,0.1403800910628266,0.04022427151515152,-0.02729716057924716,0.17795752965109207,-0.14528589517680518, ,1.1553969383239746
0.022401280095399243,0.018490172485822257,-0.09818433655557302, ,0.023088568325073652,0.01822637986349264,-0.09925093007248072, ,0.001295983560294674, ,0.025898751280823883,-0.007185196069619315,-0.03651780376799443,0.006701835726820512,0.00560717883038881,-0.01914400667899876, ,0.04534227996586186, ,0.008734421269042498, ,0.0014553708752116676, ,0.2719792063644388,-0.1766729599636341,0.11016261307000001,1.6791970674240708,0.5591165570401824,-1.3695804491380856, ,0.16418155978974183,0.1403800910628266,0.04022427151515152,-0.02729716057924716,0.17795752965109207,-0.14528589517680518, ,1.1589479446411133
0.022649138680563105,0.01842807282056054,-0.0985549888913668, ,0.02318528602910363,0.018214331357228206,-0.09940259253215565, ,0.0010254615177435979, ,0.02429514210834875,-0.004904364774222535,-0.0378700641539556,0.04803548205801339,0.05094180295329099,-0.06880568243143309, ,0.04525978880781713, ,0.07001711887064913, ,0.0014515663676234545, ,0.2734928620077868,-0.17536009537501593,0.11056964813000002,1.6789873774805866,0.560892831537133,-1.3711105606262797, ,0.14488082680682562,0.12197550328852286,0.0416984594764398,0.03086055862475247,0.19410931632916034,-0.15285874110721287, ,1.1625020503997803
0.022649138680563105,0.01842807282056054,-0.0985549888913668, ,0.023281249167095057,0.018202738169406405,-0.09955375677857611, ,0.0012032774678830233, ,0.02429514210834875,-0.004904364774222535,-0.0378700641539556,0.04803548205801339,0.05094180295329099,-0.06880568243143309, ,0.04525978880781713, ,0.07001711887064913, ,0.0014493883948187138, ,0.2734928620077868,-0.17536009537501593,0.11056964813000002,1.6789873774805866,0.560892831537133,-1.3711105606262797, ,0.14488082680682562,0.12197550328852286,0.0416984594764398,0.03086055862475247,0.19410931632916034,-0.15285874110721287, ,1.1662039756774902
0.022649138680563105,0.01842807282056054,-0.0985549888913668, ,0.02337645835001811,0.018191603714126595,-0.09970442386692814, ,0.0013806202602155006, ,0.02429514210834875,-0.004904364774222535,-0.0378700641539556,0.04803548205801339,0.05094180295329099,-0.06880568243143309, ,0.04525978880781713, ,0.07001711887064913, ,0.0014487904110395554, ,0.2734928620077868,-0.17536009537501593,0.11056964813000002,1.6789873774805866,0.560892831537133,-1.3711105606262797, ,0.14488082680682562,0.12197550328852286,0.0416984594764398,0.03086055862475247,0.19410931632916034,-0.15285874110721287, ,1.1700639724731445
0.022893370500743367,0.01838817197475764,-0.09893745734180333, ,0.02347091423032182,0.018180931358721068,-0.09985459484230688, ,0.0011034702657255944, ,0.02239886000889841,-0.003028684835984503,-0.03472020929544707,0.0053422246534511105,0.004672017365341767,-0.015938430452112053, ,0.04142915392635481, ,0.007093423337366643, ,0.0014458135132351248, ,0.27493701305526674,-0.1742402991082534,0.11099223867,1.6789873774805866,0.5628057425338492,-1.3724253750576079, ,0.13017413108157858,0.09489694155847078,0.038382678361445786,-0.011265713867029844,0.1394689363605194,-0.09592028724995146, ,1.173828125
0.022893370500743367,0.01838817197475764,-0.09893745734180333, ,0.023564617501739958,0.018170724423911242,-0.10000427073977222, ,0.0012790413596916843, ,0.02239886000889841,-0.003028684835984503,-0.03472020929544707,0.0053422246534511105,0.004672017365341767,-0.015938430452112053, ,0.04142915392635481, ,0.007093423337366643, ,0.0014443881102133857, ,0.27493701305526674,-0.1742402991082534,0.11099223867,1.6789873774805866,0.5628057425338492,-1.3724253750576079, ,0.13017413108157858,0.09489694155847078,0.038382678361445786,-0.011265713867029844,0.1394689363605194,-0.09592028724995146, ,1.177398920059204
0.022893370500743367,0.01838817197475764,-0.09893745734180333, ,0.023657568899097765,0.018160986183966242,-0.10015345258440685, ,0.0014540484880564781, ,0.02239886000889841,-0.003028684835984503,-0.03472020929544707,0.0053422246534511105,0.004672017365341767,-0.015938430452112053, ,0.04142915392635481, ,0.007093423337366643, ,0.0014444699778222254, ,0.27493701305526674,-0.1742402991082534,0.11099223867,1.6789873774805866,0.5628057425338492,-1.3724253750576079, ,0.13017413108157858,0.09489694155847078,0.038382678361445786,-0.011265713867029844,0.1394689363605194,-0.09592028724995146, ,1.1810600757598877
0.023116025209505335,0.018361221273780138,-0.09929294657834378, ,0.0237497691981183,0.018151719866859747,-0.10030214139137408, ,0.0012099572113310276, ,0.02317843851534236,-0.002336781235924574,-0.03866190766092745,-0.024595089967989228,0.0021194971356061614,0.01200937815857407, ,0.0451380511601482, ,0.024684495903411825, ,0.0014424992823054926, ,0.27618809578089115,-0.1733290166290949,0.11138371825000001,1.6785679975936174,0.5640354710317381,-1.3731014212303134, ,0.12585801267701696,0.09331066033281296,0.042476830720000004,-0.032985811786066695,0.13630340095838314,-0.06934196150600636, ,1.184683084487915
0.023116025209505335,0.018361221273780138,-0.09929294657834378, ,0.02384121921522872,0.018142928654427976,-0.10045033816597422, ,0.0013831533901626613, ,0.02317843851534236,-0.002336781235924574,-0.03866190766092745,-0.024595089967989228,0.0021194971356061614,0.01200937815857407, ,0.0451380511601482, ,0.024684495903411825, ,0.0014420047332043024, ,0.27618809578089115,-0.1733290166290949,0.11138371825000001,1.6785679975936174,0.5640354710317381,-1.3731014212303134, ,0.12585801267701696,0.09331066033281296,0.042476830720000004,-0.032985811786066695,0.13630340095838314,-0.06934196150600636, ,1.188288927078247
0.02335185442718733,0.018349048227968696,-0.09972211668408401, ,0.023931919807366808,0.018134615682527076,-0.10059804390370312, ,0.0010722432820479716, ,0.02493075411946107,0.00021740205211794663,-0.04848051319620674,0.013164906515893814,0.03742900674484174,0.040798350640204144, ,0.054515593405784976, ,0.039673385206858564, ,0.0014389488534426798, ,0.27737739664352173,-0.1724486250814333,0.11185297523000001,1.677938927763164,0.5655384725291581,-1.374163660690693, ,0.11759224480603565,0.08353604010428767,0.052919639601328915,-0.06547871950801595,0.16940760481244072,-0.10632278260892473, ,1.1921119689941406
0.02335185442718733,0.018349048227968696,-0.09972211668408401, ,0.02402187187178703,0.018126784041190412,-0.10074525959030764, ,0.0012430390787693927, ,0.02493075411946107,0.00021740205211794663,-0.04848051319620674,0.013164906515893814,0.03742900674484174,0.040798350640204144, ,0.054515593405784976, ,0.039673385206858564, ,0.0014373430356174888, ,0.27737739664352173,-0.1724486250814333,0.11185297523000001,1.677938927763164,0.5655384725291581,-1.374163660690693, ,0.11759224480603565,0.08353604010428767,0.052919639601328915,-0.06547871950801595,0.16940760481244072,-0.10632278260892473, ,1.195708990097046
0.02335185442718733,0.018349048227968696,-0.09972211668408401, ,0.02411107634586725,0.01811943677478633,-0.10089198620184478, ,0.0014134121938848383, ,0.02493075411946107,0.00021740205211794663,-0.04848051319620674,0.013164906515893814,0.03742900674484174,0.040798350640204144, ,0.054515593405784976, ,0.039673385206858564, ,0.0014371484759286054, ,0.27737739664352173,-0.1724486250814333,0.11185297523000001,1.677938927763164,0.5655384725291581,-1.374163660690693, ,0.11759224480603565,0.08353604010428767,0.052919639601328915,-0.06547871950801595,0.16940760481244072,-0.10632278260892473, ,1.199315071105957
0.02335185442718733,0.018349048227968696,-0.09972211668408401, ,0.024199534206915122,0.018112576882175848,-0.10103822470473814, ,0.0015832308828375493, ,0.02493075411946107,0.00021740205211794663,-0.04848051319620674,0.013164906515893814,0.03742900674484174,0.040798350640204144, ,0.054515593405784976, ,0.039673385206858564, ,0.0014383265598552904, ,0.27737739664352173,-0.1724486250814333,0.11185297523000001,1.677938927763164,0.5655384725291581,-1.374163660690693, ,0.11759224480603565,0.08353604010428767,0.052919639601328915,-0.06547871950801595,0.16940760481244072,-0.10632278260892473, ,1.2031691074371338
0.02361051353813317,0.018366327480252683,-0.10023823095966675, ,0.024287246471973847,0.01810620731686954,-0.10118397605583501, ,0.0011916642774160036, ,0.0253397671732966,0.0023559363764562675,-0.051572501794963324,0.018198047239742672,0.02850074315480528,0.0221297497066902, ,0.05750980071255929, ,0.03380970945355503, ,0.001436353261595776, ,0.2785435293075296,-0.17167635179401086,0.11241686138000001,1.677938927763164,0.5671781105263433,-1.3751739605744877, ,0.11021712143840974,0.0686167328694655,0.05628555307420496,-0.041228344644265516,0.1485184125796087,-0.09100546912801266, ,1.208306074142456
0.02361051353813317,0.018366327480252683,-0.10023823095966675, ,0.024374214197629415,0.01810033098718586,-0.10132924120246437, ,0.001358048666848198, ,0.0253397671732966,0.0023559363764562675,-0.051572501794963324,0.018198047239742672,0.02850074315480528,0.0221297497066902, ,0.05750980071255929, ,0.03380970945355503, ,0.0014357317965580968, ,0.2795474845811788,-0.17105081043119866,0.11295741431000002,1.677938927763164,0.5684078390242323,-1.3760133642274743, ,0.08868873042847737,0.05994753099082172,0.05105388307692308,-0.02871150574243843,0.10908393562441054,-0.06366783489296485, ,1.2119131088256836
0.02385057572530312,0.018393960164497514,-0.10073420910837363, ,0.024460438479816365,0.018094950756408188,-0.10147402108249341, ,0.0010043211451121676, ,0.022162793381163465,0.002351026637171514,-0.047036163929459036,0.0015572314308677526,0.013479084040459065,0.012938216867637754, ,0.05204918302820685, ,0.013560252489941698, ,0.0014323348622947432, ,0.2795474845811788,-0.17105081043119866,0.11295741431000002,1.677938927763164,0.5684078390242323,-1.3760133642274743, ,0.08868873042847737,0.05994753099082172,0.05105388307692308,-0.02871150574243843,0.10908393562441054,-0.06366783489296485, ,1.2159199714660645
0.02385057572530312,0.018393960164497514,-0.10073420910837363, ,0.02454592045362422,0.01809006944294205,-0.10161831662438553, ,0.0011651180033456566, ,0.022162793381163465,0.002351026637171514,-0.047036163929459036,0.0015572314308677526,0.013479084040459065,0.012938216867637754, ,0.05204918302820685, ,0.013560252489941698, ,0.0014302472305842034, ,0.2795474845811788,-0.17105081043119866,0.11295741431000002,1.677938927763164,0.5684078390242323,-1.3760133642274743, ,0.08868873042847737,0.05994753099082172,0.05105388307692308,-0.02871150574243843,0.10908393562441054,-0.06366783489296485, ,1.2194840908050537
0.024062480297738394,0.018409611306421225,-0.10119220800234968, ,0.024630661293104136,0.018085689820473608,-0.10176212874725694, ,0.0008675047135485588, ,0.01961305434050296,0.001268934508946491,-0.04256160584902179,-0.012316812006476986,0.03411868221803465,0.0056297254705782755, ,0.046880405158221526, ,0.036271871588227034, ,0.001425884885490904, ,0.2803738169987208,-0.17040982360263804,0.11345259709000001,1.6775195478761948,0.5695009310223558,-1.376659671236624, ,0.07659155896567456,0.06218672448130458,0.04603702751445087,-0.015417908150889385,0.11550212980689993,-0.047296709135525555, ,1.2231230735778809
0.024062480297738394,0.018409611306421225,-0.10119220800234968, ,0.024714662211075024,0.018081814618126465,-0.10190545836093516, ,0.0010205478876381816, ,0.01961305434050296,0.001268934508946491,-0.04256160584902179,-0.012316812006476986,0.03411868221803465,0.0056297254705782755, ,0.046880405158221526, ,0.036271871588227034, ,0.0014227669085843445, ,0.2803738169987208,-0.17040982360263804,0.11345259709000001,1.6775195478761948,0.5695009310223558,-1.376659671236624, ,0.07659155896567456,0.06218672448130458,0.04603702751445087,-0.015417908150889385,0.11550212980689993,-0.047296709135525555, ,1.2266910076141357
0.024062480297738394,0.018409611306421225,-0.10119220800234968, ,0.024797924458929827,0.018078446520619136,-0.10204830636601457, ,0.0011762026346916657, ,0.01961305434050296,0.001268934508946491,-0.04256160584902179,-0.012316812006476986,0.03411868221803465,0.0056297254705782755, ,0.046880405158221526, ,0.036271871588227034, ,0.0014208847385546294, ,0.2803738169987208,-0.17040982360263804,0.11345259709000001,1.6775195478761948,0.5695009310223558,-1.376659671236624, ,0.07659155896567456,0.06218672448130458,0.04603702751445087,-0.015417908150889385,0.11550212980689993,-0.047296709135525555, ,1.2302539348602295
0.02423721271656061,0.018422340362159173,-0.10157699218254576, ,0.024880449326442112,0.018075588168422845,-0.10219067365391522, ,0.0009542512082544044, ,0.018424987085923335,0.0015661214911995552,-0.0396590018691923,0.0018031003460034377,0.02811366505253986,0.06271740411633536, ,0.043758077138995, ,0.028169686269692962, ,0.001417349636052355, ,0.28104569475877833,-0.16988467776719077,0.11386870618000001,1.6768904780457412,0.5705940230204792,-1.3773876569859143, ,0.07316649310599135,0.051074780171405154,0.04305084194594595,-0.07910455517337556,0.11674132606373777,-0.06911670684709506, ,1.2338299751281738
0.02423721271656061,0.018422340362159173,-0.10157699218254576, ,0.02496223814157225,0.018073242157919053,-0.10233256110693911, ,0.0011038187453680582, ,0.018424987085923335,0.0015661214911995552,-0.0396590018691923,0.0018031003460034377,0.02811366505253986,0.06271740411633536, ,0.043758077138995, ,0.028169686269692962, ,0.0014149922609344278, ,0.28104569475877833,-0.16988467776719077,0.11386870618000001,1.6768904780457412,0.5705940230204792,-1.3773876569859143, ,0.07316649310599135,0.051074780171405154,0.04305084194594595,-0.07910455517337556,0.11674132606373777,-0.06911670684709506, ,1.237426996231079
0.02423721271656061,0.018422340362159173,-0.10157699218254576, ,0.025043292270273906,0.018071411041556875,-0.10247396959832832, ,0.0012559793467238883, ,0.018424987085923335,0.0015661214911995552,-0.0396590018691923,0.0018031003460034377,0.02811366505253986,0.06271740411633536, ,0.043758077138995, ,0.028169686269692962, ,0.0014138055973955432, ,0.28104569475877833,-0.16988467776719077,0.11386870618000001,1.6768904780457412,0.5705940230204792,-1.3773876569859143, ,0.07316649310599135,0.051074780171405154,0.04305084194594595,-0.07910455517337556,0.11674132606373777,-0.06911670684709506, ,1.2410409450531006
0.024425490802700844,0.01843644215730425,-0.10195752519872099, ,0.025123613116300195,0.01807009732801065,-0.10261489999232185, ,0.0010265110413226115, ,0.016410343742637563,0.00041108981146476757,-0.030879684521919387,-0.006184582921835761,0.024113619162859663,0.04637897494398012, ,0.034971749924158524, ,0.024893525607496088, ,0.00141093674883204, ,0.28185658171057193,-0.16936725466461772,0.11428481527,1.676471098158772,0.5718237515183683,-1.3781453818987603, ,0.07696426728180923,0.048097790957157015,0.033963350788912584,-0.05651057606961592,0.11263882835666439,-0.05163230492502567, ,1.2446200847625732
0.024425490802700844,0.01843644215730425,-0.10195752519872099, ,0.02520320212101018,0.01806930348233726,-0.10275535314421257, ,0.0011730963864449793, ,0.016410343742637563,0.00041108981146476757,-0.030879684521919387,-0.006184582921835761,0.024113619162859663,0.04637897494398012, ,0.034971749924158524, ,0.024893525607496088, ,0.0014091879226380175, ,0.28185658171057193,-0.16936725466461772,0.11428481527,1.676471098158772,0.5718237515183683,-1.3781453818987603, ,0.07696426728180923,0.048097790957157015,0.033963350788912584,-0.05651057606961592,0.11263882835666439,-0.05163230492502567, ,1.2481889724731445
0.02458221547734567,0.01843657088738801,-0.10224322007121227, ,0.0252820607631753,0.018069031926134266,-0.1028953299004051, ,0.001024751453508287, ,0.016137950776676433,-0.0001241304519772897,-0.029818809638662375,0.033473765447045514,0.04334230447603366,-0.021010450870847734, ,0.034971749924158524, ,0.02489361605027979, ,0.0014063818170239318, ,0.28261340953224595,-0.16887299976066736,0.11459981374000001,1.6762614082152878,0.5729168435164919,-1.3788733676480507, ,0.0771519850068868,0.05394936984563433,0.03284291035051547,0.00560175710750012,0.12163396993202805,-0.08069303854503251, ,1.252418041229248
0.02458221547734567,0.01843657088738801,-0.10224322007121227, ,0.02536019055878551,0.01806928503769666,-0.10303483109847353, ,0.0011690988586113868, ,0.016137950776676433,-0.0001241304519772897,-0.029818809638662375,0.033473765447045514,0.04334230447603366,-0.021010450870847734, ,0.03390590320145334, ,0.054763352303408876, ,0.0014046623752963048, ,0.28261340953224595,-0.16887299976066736,0.11459981374000001,1.6762614082152878,0.5729168435164919,-1.3788733676480507, ,0.0771519850068868,0.05394936984563433,0.03284291035051547,0.00560175710750012,0.12163396993202805,-0.08069303854503251, ,1.2560429573059082
0.02458221547734567,0.01843657088738801,-0.10224322007121227, ,0.025437593060855614,0.018070065152174505,-0.10317385756721648, ,0.0013160864003874072, ,0.016137950776676433,-0.0001241304519772897,-0.029818809638662375,0.033473765447045514,0.04334230447603366,-0.021010450870847734, ,0.03390590320145334, ,0.054763352303408876, ,0.0014040251380667444, ,0.28261340953224595,-0.16887299976066736,0.11459981374000001,1.6762614082152878,0.5729168435164919,-1.3788733676480507, ,0.0771519850068868,0.05394936984563433,0.03284291035051547,0.00560175710750012,0.12163396993202805,-0.08069303854503251, ,1.2596089839935303
0.024750861856667195,0.01844124196045658,-0.10256232110664332, ,0.025514269859231976,0.018071374561731378,-0.10331241012671794, ,0.0011323547187415248, ,0.017215869158282757,0.0010452939337545135,-0.033201825473983634,0.037447122289363956,0.022668066964808237,-0.018498557357289554, ,0.03741443578470647, ,0.04377314108913207, ,0.001402084635071564, ,0.2833934055525426,-0.1683478539252201,0.11495110833000001,1.676471098158772,0.5741465720143808,-1.3795494138207562, ,0.07597833591550904,0.04800047625618147,0.03645036961098399,0.0,0.10031495245250069,-0.08167951759101837, ,1.2632009983062744
0.024750861856667195,0.01844124196045658,-0.10256232110664332, ,0.025590222580398312,0.01807321551570063,-0.10345048958840108, ,0.0012762496388128873, ,0.017215869158282757,0.0010452939337545135,-0.033201825473983634,0.037447122289363956,0.022668066964808237,-0.018498557357289554, ,0.03741443578470647, ,0.04377314108913207, ,0.0014011921882895878, ,0.2833934055525426,-0.1683478539252201,0.11495110833000001,1.676471098158772,0.5741465720143808,-1.3795494138207562, ,0.07597833591550904,0.04800047625618147,0.03645036961098399,0.0,0.10031495245250069,-0.08167951759101837, ,1.2670490741729736
0.024750861856667195,0.01844124196045658,-0.10256232110664332, ,0.025665452887282537,0.018075590220743634,-0.10358809675508752, ,0.0014221088667813984, ,0.017215869158282757,0.0010452939337545135,-0.033201825473983634,0.037447122289363956,0.022668066964808237,-0.018498557357289554, ,0.03741443578470647, ,0.04377314108913207, ,0.001401339488842347, ,0.2833934055525426,-0.1683478539252201,0.11495110833000001,1.676471098158772,0.5741465720143808,-1.3795494138207562, ,0.07597833591550904,0.04800047625618147,0.03645036961098399,0.0,0.10031495245250069,-0.08167951759101837, ,1.2710189819335938
0.02485877611274085,0.01845052135860811,-0.10277267829577576, ,0.025739962479062888,0.01807850084100738,-0.10372523242105482, ,0.0013499066779944107, ,0.017986892103011968,0.0020999579948991504,-0.03597913124813194,0.009956706906648188,0.013055084954968545,-0.00922233014334153, ,0.04027947363702807, ,0.016416789103984922, ,0.0014009798188364174, ,0.28385676952499606,-0.168069835541748,0.11518184795000001,1.676471098158772,0.5746931180134426,-1.3799950854355418, ,0.07448739525782637,0.04253560804951626,0.03942775128712872,0.0,0.08911316521678504,-0.04805623698887956, ,1.2747530937194824
0.02485877611274085,0.01845052135860811,-0.10277267829577576, ,0.025813753090974063,0.018081949498281315,-0.10386189737209164, ,0.0014947322306656217, ,0.017986892103011968,0.0020999579948991504,-0.03597913124813194,0.009956706906648188,0.013055084954968545,-0.00922233014334153, ,0.04027947363702807, ,0.016416789103984922, ,0.001401630877251898, ,0.28385676952499606,-0.168069835541748,0.11518184795000001,1.676471098158772,0.5746931180134426,-1.3799950854355418, ,0.07448739525782637,0.04253560804951626,0.03942775128712872,0.0,0.08911316521678504,-0.04805623698887956, ,1.2783939838409424
0.025108299760525584,0.018478943900122318,-0.10328070381563396, ,0.025886826494113994,0.018085938272155776,-0.10399809238555771, ,0.0011292491570873335, ,0.019023004147679656,0.0018835867811045491,-0.03891429256733396,0.009923616748152635,-0.008531929227317223,-0.006342573784810989, ,0.04335602324914789, ,0.013083682530264205, ,0.0013997523826300734, ,0.284853002065771,-0.16748290784330694,0.11573666007000001,1.676051718271803,0.575786210011566,-1.3805597137045509, ,0.07390727535706447,0.0481955010454397,0.04236386042553192,-0.012165574236545138,0.0685091543466918,-0.05843153239588847, ,1.2824859619140625
0.025108299760525584,0.018478943900122318,-0.10328070381563396, ,0.025959184495249855,0.018090469200178642,-0.1041338182304394, ,0.0012659864252952925, ,0.019023004147679656,0.0018835867811045491,-0.03891429256733396,0.009923616748152635,-0.008531929227317223,-0.006342573784810989, ,0.04335602324914789, ,0.013083682530264205, ,0.001398836177442849, ,0.284853002065771,-0.16748290784330694,0.11573666007000001,1.676051718271803,0.575786210011566,-1.3805597137045509, ,0.07390727535706447,0.0481955010454397,0.04236386042553192,-0.012165574236545138,0.0685091543466918,-0.05843153239588847, ,1.2860760688781738
0.025108299760525584,0.018478943900122318,-0.10328070381563396, ,0.026030828936624492,0.01809554427801366,-0.10426907566740745, ,0.0014053235457946844, ,0.019023004147679656,0.0018835867811045491,-0.03891429256733396,0.009923616748152635,-0.008531929227317223,-0.006342573784810989, ,0.04335602324914789, ,0.013083682530264205, ,0.0013988803092003445, ,0.284853002065771,-0.16748290784330694,0.11573666007000001,1.676051718271803,0.575786210011566,-1.3805597137045509, ,0.07390727535706447,0.0481955010454397,0.04236386042553192,-0.012165574236545138,0.0685091543466918,-0.05843153239588847, ,1.2897300720214844
0.025320619829876663,0.01850432913215222,-0.10372170706206789, ,0.02610176169576289,0.018101165459597373,-0.10440386544887434, ,0.0011126830753626592, ,0.021348589409500032,0.0030690696003498616,-0.04414542614788841,0.03378889784410841,0.03602623514455789,0.023401939462353985, ,0.04913247508283985, ,0.049390399639563064, ,0.0013969465441068466, ,0.2856484435518162,-0.16700409840510502,0.11620073189,1.6756323383848342,0.5766060290101588,-1.381146542386589, ,0.08383122045801306,0.04495354881973983,0.048269125818181824,-0.03867787703113357,0.11167173909170224,-0.06991153667772235, ,1.2932789325714111
0.025320619829876663,0.01850432913215222,-0.10372170706206789, ,0.02617198468527825,0.018107334657296886,-0.10453818831905135, ,0.0012446157531880717, ,0.021348589409500032,0.0030690696003498616,-0.04414542614788841,0.03378889784410841,0.03602623514455789,0.023401939462353985, ,0.04913247508283985, ,0.049390399639563064, ,0.0013959241898053782, ,0.2856484435518162,-0.16700409840510502,0.11620073189,1.6756323383848342,0.5766060290101588,-1.381146542386589, ,0.08383122045801306,0.04495354881973983,0.048269125818181824,-0.03867787703113357,0.11167173909170224,-0.06991153667772235, ,1.2968580722808838
0.025320619829876663,0.01850432913215222,-0.10372170706206789, ,0.026241499852678634,0.018114053742067475,-0.10467204501400655, ,0.001379665582449794, ,0.021348589409500032,0.0030690696003498616,-0.04414542614788841,0.03378889784410841,0.03602623514455789,0.023401939462353985, ,0.04913247508283985, ,0.049390399639563064, ,0.0013958157990896743, ,0.2856484435518162,-0.16700409840510502,0.11620073189,1.6756323383848342,0.5766060290101588,-1.381146542386589, ,0.08383122045801306,0.04495354881973983,0.048269125818181824,-0.03867787703113357,0.11167173909170224,-0.06991153667772235, ,1.3004109859466553
0.025534958979320368,0.01853701360306942,-0.10415061491721968, ,0.026310309180172957,0.0181213245436097,-0.10480543626172077, ,0.0010967024762126127, ,0.022843516048569053,0.003231650799500643,-0.045049532342831364,-0.05688423014738375,-0.07517623999140338,0.029113661797328123, ,0.05061353728656943, ,0.0942714015636482, ,0.0013938349161567135, ,0.28652111236660355,-0.1665639026312742,0.11668813693,1.6756323383848342,0.5775624845085168,-1.3818447889723233, ,0.08722145363830036,0.04415865126034006,0.049162998518518526,-0.03867787703113357,0.018840969114467938,0.004980800371084939, ,1.305285930633545
0.025534958979320368,0.01853701360306942,-0.10415061491721968, ,0.026378414684477644,0.018129148850527618,-0.10493836278214597, ,0.0012240579568077112, ,0.022843516048569053,0.003231650799500643,-0.045049532342831364,-0.05688423014738375,-0.07517623999140338,0.029113661797328123, ,0.05061353728656943, ,0.0942714015636482, ,0.001392717962476786, ,0.28652111236660355,-0.1665639026312742,0.11668813693,1.6756323383848342,0.5775624845085168,-1.3818447889723233, ,0.08722145363830036,0.04415865126034006,0.049162998518518526,-0.03867787703113357,0.018840969114467938,0.004980800371084939, ,1.3090801239013672
0.025763068642637606,0.01856455608141565,-0.10458156333885775, ,0.026445818416622656,0.018137528410485302,-0.10507082528726219, ,0.0009422723278189521, ,0.021034770133430653,0.0017817822492247888,-0.0383797446289773,-0.056353065939894136,-0.09167426201335054,0.017188033518763742, ,0.04380229560577197, ,0.10760927042932265, ,0.0013897738733613754, ,0.28652111236660355,-0.1665639026312742,0.11668813693,1.6756323383848342,0.5775624845085168,-1.3818447889723233, ,0.08722145363830036,0.04415865126034006,0.049162998518518526,-0.03867787703113357,0.018840969114467938,0.004980800371084939, ,1.3128790855407715
0.025763068642637606,0.01856455608141565,-0.10458156333885775, ,0.02651252246175823,0.01814646493036573,-0.10520282448113497, ,0.001059455824696965, ,0.021034770133430653,0.0017817822492247888,-0.0383797446289773,-0.056353065939894136,-0.09167426201335054,0.017188033518763742, ,0.04380229560577197, ,0.10760927042932265, ,0.0013876289509674505, ,0.28743239484576205,-0.16609281592594652,0.11715998649,1.6756323383848342,0.5776991210082822,-1.3817111706555982, ,0.08650587197672815,0.046609499783138886,0.04202852643799473,-0.031189149056227813,0.0,0.0030714602167144743, ,1.3168389797210693
0.025763068642637606,0.01856455608141565,-0.10458156333885775, ,0.026578528938960705,0.0181559600764268,-0.10533436105997172, ,0.0011826371375390661, ,0.021034770133430653,0.0017817822492247888,-0.0383797446289773,-0.056353065939894136,-0.09167426201335054,0.017188033518763742, ,0.04380229560577197, ,0.10760927042932265, ,0.0013863064231388804, ,0.28743239484576205,-0.16609281592594652,0.11715998649,1.6756323383848342,0.5776991210082822,-1.3817111706555982, ,0.08650587197672815,0.046609499783138886,0.04202852643799473,-0.031189149056227813,0.0,0.0030714602167144743, ,1.3204059600830078
0.025954180470020363,0.018576870853794673,-0.10492275398472498, ,0.026643840001039452,0.018166015474460392,-0.10546543571218106, ,0.0009689870323013127, ,0.018296980034341125,0.000983337051177559,-0.03258534922427986,0.03510190160738072,0.0003597608527239287,0.0027986716904539136, ,0.03738383894414232, ,0.0351032218839075, ,0.0013836312988386396, ,0.28828189546192673,-0.16562945195349307,0.11753720688000001,1.6756323383848342,0.5783823035071094,-1.38226826017408, ,0.08302444580793594,0.044889754758027804,0.03611975401360545,-0.02503093111627019,0.08889738611459316,-0.08410202392698436, ,1.3240220546722412
0.025954180470020363,0.018576870853794673,-0.10492275398472498, ,0.02670845783434251,0.018176632709948418,-0.10559604911842747, ,0.0010874057435868749, ,0.018296980034341125,0.000983337051177559,-0.03258534922427986,0.03510190160738072,0.0003597608527239287,0.0027986716904539136, ,0.03738383894414232, ,0.0351032218839075, ,0.0013817445118625136, ,0.28828189546192673,-0.16562945195349307,0.11753720688000001,1.6756323383848342,0.5783823035071094,-1.38226826017408, ,0.08302444580793594,0.044889754758027804,0.03611975401360545,-0.02503093111627019,0.08889738611459316,-0.08410202392698436, ,1.3276081085205078
0.025954180470020363,0.018576870853794673,-0.10492275398472498, ,0.026772384658563554,0.018187813328221208,-0.10572620195169079, ,0.0012109304224341153, ,0.018296980034341125,0.000983337051177559,-0.03258534922427986,0.03510190160738072,0.0003597608527239287,0.0027986716904539136, ,0.03738383894414232, ,0.0351032218839075, ,0.0013806634100306883, ,0.28828189546192673,-0.16562945195349307,0.11753720688000001,1.6756323383848342,0.5783823035071094,-1.38226826017408, ,0.08302444580793594,0.044889754758027804,0.03611975401360545,-0.02503093111627019,0.08889738611459316,-0.08410202392698436, ,1.3312079906463623
0.02613109074604363,0.018586212800764113,-0.10522929967552601, ,0.02683562272654782,0.01819955883461507,-0.10585589487732219, ,0.001019062386709441, ,0.01772846968553187,0.0006976163818575089,-0.03057621646445826,0.005010366970302824,-0.010692025009132,0.006221850102849568, ,0.03535095924141899, ,0.011806627414761448, ,0.0013783891897582276, ,0.2891005051465945,-0.16519697891253649,0.11787813115000001,1.6756323383848342,0.579202122505702,-1.3829367675962585, ,0.08180770824006102,0.04415865126034006,0.033963350788912584,-0.020926200060492776,0.07581317154220837,-0.05142514119902729, ,1.3348469734191895
0.02613109074604363,0.018586212800764113,-0.10522929967552601, ,0.026898174324098502,0.018211870694629137,-0.10598512855310162, ,0.0011400993466905598, ,0.01772846968553187,0.0006976163818575089,-0.03057621646445826,0.005010366970302824,-0.010692025009132,0.006221850102849568, ,0.03535095924141899, ,0.011806627414761448, ,0.0013768998782390548, ,0.2891005051465945,-0.16519697891253649,0.11787813115000001,1.6756323383848342,0.579202122505702,-1.3829367675962585, ,0.08180770824006102,0.04415865126034006,0.033963350788912584,-0.020926200060492776,0.07581317154220837,-0.05142514119902729, ,1.3386600017547607
0.02623284961996905,0.01859031024921844,-0.10540301152509672, ,0.026960041769783352,0.018224750334083762,-0.10611390362929585, ,0.0010806526075096841, ,0.01753539383249806,0.00036652828762942237,-0.029152711037158382,-0.022453588637890962,-0.037634926180612295,0.007043636003179803, ,0.03402212428203888, ,0.04382385485583145, ,0.001375059833079245, ,0.2895715918519222,-0.16494212872768707,0.11807127836000002,1.6756323383848342,0.5796120320049984,-1.3831893425672073, ,0.08159668233746413,0.04474160375222573,0.032375633170731714,-0.019073987442647586,0.04791689449812458,-0.024300347881471347, ,1.3445730209350586
0.02623284961996905,0.01859031024921844,-0.10540301152509672, ,0.02702122741474075,0.01823819913927757,-0.10624222074871502, ,0.0012040738773177113, ,0.01753539383249806,0.00036652828762942237,-0.029152711037158382,-0.022453588637890962,-0.037634926180612295,0.007043636003179803, ,0.03402212428203888, ,0.04382385485583145, ,0.0013740043642165196, ,0.2895715918519222,-0.16494212872768707,0.11807127836000002,1.6756323383848342,0.5796120320049984,-1.3831893425672073, ,0.08159668233746413,0.04474160375222573,0.032375633170731714,-0.019073987442647586,0.04791689449812458,-0.024300347881471347, ,1.3484869003295898
0.026487068125945354,0.01859327601509442,-0.10582046549963407, ,0.02708173364248599,0.018252218457144986,-0.10637008054676989, ,0.000878648982492484, ,0.01704125609084593,-4.200586632505175e-05,-0.027558750492340564,-0.038031688183806076,-0.0454709453923008,0.006179751582381542, ,0.032402020034955854, ,0.05927900374181915, ,0.001370965374144593, ,0.2907608927145528,-0.16427025096762954,0.11853535018000001,1.6756323383848342,0.5802952145038256,-1.3833380383849867, ,0.08001428461928396,0.04564547453509898,0.030632329846153848,-0.015581255299793142,0.03777651492007213,-0.00845091269981543, ,1.3530240058898926
0.026487068125945354,0.01859327601509442,-0.10582046549963407, ,0.02714156286871772,0.018266809595413474,-0.10649748365152929, ,0.0009966430000213627, ,0.01704125609084593,-4.200586632505175e-05,-0.027558750492340564,-0.038031688183806076,-0.0454709453923008,0.006179751582381542, ,0.032402020034955854, ,0.05927900374181915, ,0.0013686829206438415, ,0.2907608927145528,-0.16427025096762954,0.11853535018000001,1.6756323383848342,0.5802952145038256,-1.3833380383849867, ,0.08001428461928396,0.04564547453509898,0.030632329846153848,-0.015581255299793142,0.03777651492007213,-0.00845091269981543, ,1.356597900390625
