NicholasDascanio/dvrk_moveit_final/test/execution/third_experiment_notsharpbends/thirdexp_300vel5.0/thirdexp_300vel5.0_17.csv
Current Position (x),Current Position (y),Current Position (z), ,Planned Position (x),Planned Position (y),Planned Position (z), ,Position Error,,Cartesian linear Velocity(x),Cartesian linear Velocity(y),Cartesian linear Velocity(z),Cartesian Angular Velocity(x),Cartesian Angular Velocity(y),Cartesian Angular Velocity(z), ,Total Linear Velocity, ,Total Angular Velocity, ,MSE, ,Joint 1 Position,Joint 2 Position,Joint 3 Position,Joint 4 Position,Joint 5 Position,Joint 6 Position, ,Joint 1 Velocity,Joint 2 Velocity,Joint 3 Velocity,Joint 4 Velocity,Joint 5 Velocity,Joint 6 Velocity, ,Time Stamp
0.010235714802639621,0.019975437814359738,-0.08036518030489441, ,0.010387687429073672,0.019960472000228057,-0.08039245088219626, ,0.0001551236254226415, ,0.00031355410419742793,7.263678091310947e-05,0.0003347307758768492,0.26016599732061707,-0.041621715912405856,-0.09504658994317171, ,0.000464367279768491, ,0.26347431259484166, ,1.2926968785220126e-05, ,0.17845691125757998,-0.23610711216366592,0.09087252158,1.68842342493739,0.4824634806717702,-1.3042162492594733, ,0.00013444309931237702,-0.0022052904431251715,-0.00043737795591730383,-0.0015954918475335016,-0.04470717628627454,-0.2753138867257734, ,0.035507917404174805
0.010279126250527532,0.019989766937157524,-0.08038377594453867, ,0.01041071560205502,0.020049073422412297,-0.08045988362551768, ,0.0001631729013430251, ,0.0016379809632825228,0.0006098305219359099,-0.0006482392774742057,0.02276923442332396,-0.16184216510249952,-0.09593930538916505, ,0.0018641590764794849, ,0.1634359949377397, ,1.4468023943893937e-05, ,0.17848007945620264,-0.2362229531567793,0.09088159561,1.6890524947678438,0.4778178396797452,-1.3087592720281325, ,0.0005142382513378327,-0.00423976089524694,0.00029875002777256417,0.04639282493708513,-0.17849985250491188,-0.02516949776436661, ,0.07094907760620117
0.010313176691361527,0.020018597658816854,-0.08041597390461434, ,0.010434984830739931,0.02013524181314186,-0.08052983850921598, ,0.00020349012196692003, ,0.001436009486305811,0.0005538661389991546,-0.00010566888564309454,-0.10304151484156004,-0.16799612365698305,0.0028794820064467867, ,0.001542743289754703, ,0.19707930217203373, ,1.6305832772893332e-05, ,0.1784955249219511,-0.2364700806087545,0.09091141028000001,1.6894718746548125,0.47453856368537467,-1.313763043912631, ,0.00045839649394831294,-0.008086525134841404,-0.00022482056019964067,-0.013808569994144126,-0.16971722667119102,0.10063476680888994, ,0.10649895668029785
0.01032339165528144,0.02005818082346771,-0.08044404499374595, ,0.010460482383939363,0.02021900695193818,-0.08060228231796368, ,0.0002640037163722258, ,-0.00016079440864992547,0.001558608565067164,-0.0013172111628312164,-0.07191325058110404,0.040209534019809846,0.04124487620838715, ,0.0020469882140454468, ,0.08239127523729038, ,1.870929440725744e-05, ,0.17851869312057378,-0.23686393998533994,0.09094770640000001,1.6892621847113283,0.47412865418607836,-1.3086914232733895, ,-0.0007351567897055856,-0.014108971388413735,0.0017798258347265145,0.0,0.041370547543111875,0.09332066059141372, ,0.1424241065979004
0.01033711608604452,0.0201635564908895,-0.0805472417658922, ,0.01048719560329359,0.020300398452926714,-0.08067718202311981, ,0.00024111004649388987, ,0.0005619452545373844,0.002182950333708827,-0.0028813370723515647,0.01842395949312919,-0.006392531143391053,0.025156454390091405, ,0.00365829987194107, ,0.019501454756635308, ,2.013530218820985e-05, ,0.17853413858632222,-0.2377288860672531,0.09107603911,1.6903106344287508,0.47494847318467104,-1.3081347495934594, ,0.00065892279957788,-0.01840514770334965,0.0033435792443324945,-0.024679974482080713,0.0,-0.004927785125024771, ,0.17677593231201172
0.010354722365877254,0.020234150870841884,-0.08062009485116362, ,0.010515111903092901,0.020379445765221042,-0.08075450478230804, ,0.00025475760944699964, ,0.0005842090724796677,0.002413095600812658,-0.0022355802752126873,0.02051145868442132,-0.0014820696698644796,0.0013267201233635195, ,0.0033409803629996077, ,0.020564932963985424, ,2.1360967017428364e-05, ,0.1785881977164418,-0.23834670469719105,0.09116677941000001,1.6903106344287508,0.47494847318467104,-1.3081347495934594, ,0.002172014271382048,-0.021406934707527806,0.0028103054904728302,0.0029455759093076394,0.0,0.0011167152331067803, ,0.20902609825134277
0.010374108588519101,0.020305374467493156,-0.0806742259493074, ,0.010544218770097986,0.02045617817330646,-0.08083421793899298, ,0.00027798681322569667, ,0.0006188808674192669,0.002385226032394918,-0.001749520504765943,0.00507585198494358,0.0013297416083359998,-0.00994077667816109, ,0.003022108328678591, ,0.0052471407548878544, ,2.260354832277389e-05, ,0.1786885932438067,-0.2389954142586259,0.09123807536,1.69073001431572,0.47481183668490556,-1.3073699017686384, ,0.0035405401515319172,-0.021503952313272328,0.0023407511418074953,0.02099620695971923,0.0,0.020697619400906937, ,0.2411339282989502
0.01039396912191411,0.020372390946809146,-0.08072797216845116, ,0.010574503763360343,0.020530624797423826,-0.08091628902205734, ,0.00030511300463041544, ,0.0008871533777224324,0.002509560077774187,-0.0027240953078013497,-0.011229342233686528,-0.0037729965702521444,0.009531100468608413, ,0.0038086254929498692, ,0.01184624961624494, ,2.3907151780792487e-05, ,0.17879671150404586,-0.23960551015568965,0.09130807502,1.6909397042592043,0.47467520018514014,-1.3063600177233958, ,0.004750017684860766,-0.02087023126423373,0.003344281234516062,0.004824926793409687,0.0,0.03422919817817584, ,0.2733728885650635
0.010424182006980007,0.020450471448900713,-0.08082681441971543, ,0.010605954514042443,0.020602814593953397,-0.0810006857453787, ,0.00029407637792963387, ,0.00105366222475325,0.0024867832441625363,-0.003365420051604672,-0.00012951206650990623,-0.003249448597923634,0.0008805923262212054, ,0.004315130022497852, ,0.003252028464544135, ,2.5102723451528462e-05, ,0.17894344342865612,-0.2402001605870049,0.09142603741000001,1.6913590841461734,0.47467520018514014,-1.3058699452825526, ,0.0053217269770262695,-0.01847322202812357,0.003978224655344656,0.009175168132207544,-9.999774592355989e-06,0.02088675525742698, ,0.30191993713378906
0.01045178227180954,0.020522654255628752,-0.08091399337821273, ,0.010638558725238013,0.02067277635579802,-0.08108737600740629, ,0.0002957763084167174, ,0.0008149741763524047,0.002265790500893539,-0.002564806062608549,-0.009769426103360169,5.336951369768004e-05,-0.003951060116630769, ,0.003517985167799069, ,0.009769571873066917, ,2.611287792817197e-05, ,0.17908245262039216,-0.24074847462107488,0.09153103690000002,1.691988153976627,0.47467520018514014,-1.3049714791410063, ,0.004139374735745025,-0.0177942886852561,0.0031251346909947036,0.017645749209008743,0.00013511955778787427,0.03185751876599143, ,0.33096909523010254
0.010477648368414295,0.020586461732940087,-0.08099676258175167, ,0.010672304171791871,0.02074053871276657,-0.0811763278907367, ,0.00030638912789442716, ,0.0008384604639673656,0.00221711005605779,-0.0031935269208029204,-0.009281952080673695,-0.00018609660179622466,4.868743879976754e-05, ,0.003977085257346381, ,0.009283817428243543, ,2.7068624050417572e-05, ,0.17921373907925398,-0.24124272952502523,0.09162955494000001,1.691988153976627,0.47467520018514014,-1.3041546917396007, ,0.00308128560467756,-0.015693226650979126,0.003722554690348213,0.011897690420269792,0.00019413220732727212,0.028135427293783214, ,0.36138010025024414
0.010504870449573265,0.02065521668281747,-0.08109773709749361, ,0.010707178700120196,0.02080613013195765,-0.08126750966169201, ,0.00030418123039603064, ,0.0009864691470621576,0.002054699283650962,-0.003127409865743434,0.017166278690575187,-0.000806067917515888,-0.014316561603181713, ,0.003869832424368099, ,0.01718519331491415, ,2.7865280759442023e-05, ,0.17932958007236735,-0.2416983707646045,0.09174751733000001,1.6928269137505652,0.47481183668490556,-1.3036943584623133, ,0.004908512026511873,-0.01366013265560253,0.0036259529979512867,0.017284987368635794,0.0,-0.0007802822138912521, ,0.39164209365844727
0.010525566213585847,0.020705041371028042,-0.08117204385486963, ,0.010743170228030206,0.020869578918142014,-0.08136088976989372, ,0.0003317934464902363, ,0.0009094353808459949,0.002060077154555821,-0.003073313591984472,-0.006944931496730318,-0.0018853958040865888,-0.007059747370035465, ,0.003810019295139305, ,0.007196303951207523, ,2.903396863272529e-05, ,0.17942997559973226,-0.2420536164768188,0.09183436876,1.6928269137505652,0.47494847318467104,-1.303397382665307, ,0.003926491860001909,-0.013883970966857466,0.003569881559838638,0.017284987368635794,-0.002066184025283916,0.024612831432190084, ,0.41893792152404785
0.010556237266842454,0.020767444202033254,-0.08127738155527042, ,0.010780266744540112,0.020930913214146283,-0.08145643684784144, ,0.00033010925857417074, ,0.0012342833522395662,0.0022202638802548166,-0.003972442138658087,0.004000896423373438,-0.004546042706204904,-0.007624676805259746, ,0.004715222543694661, ,0.006055879414915107, ,3.005712571454056e-05, ,0.1795689847914683,-0.2424629213191527,0.09195492373000001,1.6928269137505652,0.47494847318467104,-1.3030706677047446, ,0.005891848842527622,-0.013205808733435956,0.004516249367734619,0.01368361240187482,-0.0019555091333441315,0.011774090129556568, ,0.44443202018737793
0.010583228096918437,0.020815137738051763,-0.08136404558134466, ,0.010818456309698852,0.02099016100123578,-0.08155411971048732, ,0.0003494189881972469, ,0.0014242668737052397,0.0023034893294876986,-0.004308165911260656,-0.00026139076682418414,-0.007286383225553936,-0.0012691143092947266, ,0.005088702461094198, ,0.007291070165518801, ,3.1118340280918144e-05, ,0.1797002712503301,-0.24272549423687634,0.09205344177000001,1.6934559835810188,0.47494847318467104,-1.3027439527441824, ,0.0074760012776876215,-0.013377070983714517,0.004884640147194113,0.00827955726882502,-0.0017999829874298689,0.015454678253173974, ,0.4695708751678467
0.010626237343541864,0.020880384403693317,-0.08148318228167442, ,0.010857727054405783,0.021047350099497354,-0.08165390735481291, ,0.00033258394490614065, ,0.0013192372384482603,0.002026394946732337,-0.003410529479328179,-0.007718168490991258,-0.009037101410577146,0.005401437362241423, ,0.004180714616045621, ,0.01188441526954323, ,3.1949902331205924e-05, ,0.17995512143517953,-0.24311163088058757,0.09218955222000001,1.6936656735245033,0.47494847318467104,-1.3023355590434795, ,0.008198557838155424,-0.012967606116216284,0.003940824225630876,0.003349145849416413,-0.001609556591346894,0.02197685584784146, ,0.49474096298217773
0.010657395573894758,0.02092379966654365,-0.08156229111226393, ,0.010898067180230309,0.021102508168222518,-0.08175576895940483, ,0.0003567817652329173, ,0.0015503685625739734,0.002081021143546858,-0.0034939532649169124,-0.012030772022058486,-0.011536905432060164,0.006943800311453132, ,0.004352240928203575, ,0.016668523086174943, ,3.286805715130575e-05, ,0.18015591248990936,-0.2433742037983112,0.09228029252000002,1.6936656735245033,0.47494847318467104,-1.3020088440829172, ,0.010777919660748954,-0.013244513825327394,0.004064509191120184,0.003349145849416413,-0.001503034547789083,0.026797825131014447, ,0.5198678970336914
0.010691522376214669,0.020967694881280984,-0.08163602192771469, ,0.01093946495923152,0.02115566270628969,-0.08185967388403077, ,0.00038318093020867306, ,0.0016979738141579255,0.0021785956979722106,-0.003924090103581964,-0.0013370828829982948,-0.008307772165118854,-0.004473646122266025, ,0.004798737066126769, ,0.008414681696480074, ,3.409966368972191e-05, ,0.1803875944761361,-0.24363677671603484,0.09236584766000001,1.6940850534114722,0.47481183668490556,-1.301652389958799, ,0.011721460172736016,-0.012597496556281796,0.004529090565823146,0.012514535921871399,0.00048185003598433067,0.01673949719008063, ,0.541579008102417
0.010727818302226232,0.02101548205231074,-0.08172813320079127, ,0.010981908733777723,0.021206841052547786,-0.08196559166921555, ,0.00039694677049215274, ,0.0019029567766381806,0.0023640771308000292,-0.004958956912844568,0.00634767824834289,-0.008535989075307568,-0.0069847703995867885, ,0.005813893603908985, ,0.010637486810305657, ,3.532481520789911e-05, ,0.18061155372948862,-0.24388390416801,0.09246695828000001,1.6942947433549567,0.47481183668490556,-1.3015707112186585, ,0.01181493417508131,-0.011838440813182484,0.005555916121381235,0.012206224010894945,0.00048185003598433067,0.005075224502140129, ,0.5630149841308594
0.010790582295582584,0.021089465345433166,-0.08188682599956924, ,0.011025386916365796,0.021256070386197735,-0.0820734920358161, ,0.0003431248440982136, ,0.0020246291041809694,0.002292909950769052,-0.004991113615720931,-0.006952094913376796,-0.012041078384627419,0.004680704384718038, ,0.005853868308808051, ,0.013903927116178817, ,3.612957565483665e-05, ,0.1810208585718225,-0.24426231807884702,0.09264973517000001,1.6945044332984414,0.47481183668490556,-1.3009989600376748, ,0.013274156043988078,-0.01112944656834274,0.005626567121158602,0.003517508445686755,0.00047958102058102097,0.019470580613589188, ,0.585468053817749
0.010828507141917664,0.021133861482513117,-0.08198360726474645, ,0.01106988798944083,0.021303377727176474,-0.08218334488459836, ,0.0003562240692876823, ,0.0018618110801754688,0.002342146996647169,-0.004716147908191487,0.0003707590044245997,-0.0077821658168108305,-0.007653158276231021, ,0.005585162857438128, ,0.00779099253667855, ,3.6954703556367197e-05, ,0.18126026329092346,-0.24447083186645108,0.09275862353000001,1.6947141232419258,0.47481183668490556,-1.300917281297534, ,0.011831095270271957,-0.01193522092296199,0.005354222359663867,0.015087355700335444,0.0004736002036034027,0.014739758200356137, ,0.606687068939209
0.010866767749264091,0.021176204678859605,-0.08207547017271694, ,0.01111540050521536,0.02134878993653815,-0.08229512029581239, ,0.00037396536614470096, ,0.001778176317839349,0.001900952634536141,-0.004150206517441479,-0.006715789780446183,-0.008760527465318838,-0.004313990897502574, ,0.004898953569231732, ,0.011038508622748572, ,3.8042013029716994e-05, ,0.18151511347577287,-0.24467934565405514,0.09285973415000001,1.6947141232419258,0.47481183668490556,-1.3006722450771124, ,0.01206059615304934,-0.008662822550257483,0.0046358589988358566,0.012123697517902562,0.0004653827894649219,0.018247404767980358, ,0.6281239986419678
0.010910311307803948,0.0212232711651718,-0.08218239233632953, ,0.011161913085488827,0.02139233371683774,-0.0824087885287675, ,0.00037833957876542735, ,0.0023667943944572895,0.002311245540398506,-0.0055917098992073625,0.001801227493375472,-0.010991274554183507,-0.012607289665694904, ,0.00649698324228561, ,0.011137887202771436, ,3.9093015899084824e-05, ,0.18180857732499342,-0.24486469124303653,0.0929828817,1.6953431930723792,0.47494847318467104,-1.3004569480202466, ,0.015831988915327125,-0.008716150531872045,0.0062539503415783276,0.018328377503563906,0.00045301101419173786,0.010516920329074395, ,0.6458299160003662
0.010934057285020737,0.021246023231747815,-0.0822407742986887, ,0.011209414421466814,0.02143403561251268,-0.082524320021408, ,0.00043768525767389605, ,0.002432631246237672,0.0023549015902480904,-0.0059439466500716635,0.0032063706815279986,-0.010972106723672586,-0.013316476615320375, ,0.006840596323334902, ,0.011431007457067188, ,4.040942991092435e-05, ,0.1819630319824779,-0.244949641304653,0.09304769620000002,1.6953431930723792,0.47494847318467104,-1.300375269280106, ,0.01582143073665735,-0.008181866069507663,0.006612209016189291,0.018328377503563906,0.00045301101419173786,0.008493046796707121, ,0.6636359691619873
0.01098823699086862,0.021296229905404074,-0.0823864340184377, ,0.01125789327358035,0.021473922010266037,-0.08264168538988977, ,0.0004116336448400957, ,0.0027553842948564245,0.0026482086215377,-0.0073656231598019616,0.0015195090652598345,-0.012429722482393487,-0.010249244377959753, ,0.008298045314876212, ,0.01252225567177551, ,4.151835316640305e-05, ,0.18228738676319534,-0.24508865049638903,0.09320713987000001,1.6953431930723792,0.47494847318467104,-1.3001302330596844, ,0.016506686651325583,-0.007512086623144588,0.008093908292682929,0.015145203272547746,0.00045301101419173786,0.008988872485710089, ,0.6825430393218994
0.011041655007256694,0.021344555605814663,-0.08252889808543554, ,0.011307338471305177,0.02151201913944808,-0.08276085542815378, ,0.0003904304637277961, ,0.0028817525951546318,0.002475942097893459,-0.007206961919032845,-0.0022338634064873178,-0.012772260538014198,-0.006665405477870743, ,0.008147090731923335, ,0.0129661391912494, ,4.2680824933564626e-05, ,0.18263490974253543,-0.24521221422237663,0.09336399096,1.6953431930723792,0.4752217461842019,-1.3001080326466554, ,0.01853817963634905,-0.006039837595299679,0.007924781850746269,0.01245012058013686,0.002895370901061845,0.011115005412837164, ,0.6968350410461426
0.011072328904991244,0.021370247202556678,-0.08260175650807156, ,0.011357738912980942,0.021548353072439397,-0.08288180110750333, ,0.00043772771355976835, ,0.003089340168310611,0.0024892475233077426,-0.007291669090837605,-0.0017432381589272987,-0.014088300687387326,-0.01027713169191968, ,0.008301133298418214, ,0.014195741436229542, ,4.403617728800884e-05, ,0.18283570079726527,-0.2452662733524962,0.09344436094000001,1.6957625729593484,0.4752217461842019,-1.3000263539065149, ,0.020747035758301436,-0.005686443741300165,0.008036736387487387,0.01610686790158231,0.002895370901061845,0.010915298306975144, ,0.7111999988555908
0.011137330518248738,0.02142193546649441,-0.08276388383596686, ,0.011409083565630323,0.021582949725032694,-0.08300449357617841, ,0.000397074750265589, ,0.0035395011524136342,0.0026288825389425064,-0.009160190259446385,-0.00613389262341912,-0.015474344379038005,-0.006111461748218193, ,0.010166030562650826, ,0.016645717412662984, ,4.51353317214096e-05, ,0.1832604511053476,-0.2453589461469869,0.09362195267000001,1.6959722629028329,0.4753583826839673,-1.299811056849649, ,0.022022961605586165,-0.002052730347701741,0.00993068049875312,0.011364551439291338,0.003975621823993114,0.010988779621745505, ,0.7258579730987549
0.011170258488765242,0.02144781156546848,-0.0828520233491701, ,0.011461361464778351,0.02161583485681543,-0.08312890415893116, ,0.00043547187267685736, ,0.003512407404415495,0.0027745245154935766,-0.009172886382770758,-0.01326670455196394,-0.011548444406202436,-0.0007051618572898792, ,0.010206705474975207, ,0.017588972480778668, ,4.637889535941555e-05, ,0.18346896489295167,-0.2453898370784838,0.09371787813000002,1.6959722629028329,0.47549501918373277,-1.2997591172730645, ,0.022063925031032498,-0.003669038101214776,0.009992980878293603,0.010165781448695222,0.008434266316679886,0.020286254974811995, ,0.7399780750274658
0.011240623755403113,0.021498271845074978,-0.08303070841409865, ,0.011514561714271314,0.021647034071551798,-0.08325500435660102, ,0.0003840323881630841, ,0.003412562260606498,0.0021701228132653405,-0.007685623044635621,-0.005340672684791647,-0.01400831813699926,-0.002833649626612839, ,0.008684688583444112, ,0.014991855620215112, ,4.732873653991996e-05, ,0.18393232886540514,-0.2454284507428549,0.09391232163,1.6959722629028329,0.47576829218326366,-1.299655238119895, ,0.024042802523048083,-0.0011435864291471645,0.008401271898734177,0.00832452861730831,0.008358488668923287,0.009020533420479319, ,0.7554900646209717
0.011274243243103237,0.021519930374130858,-0.08310364164826314, ,0.011568673486096023,0.021676572817564913,-0.08338276584569032, ,0.0004348980807765745, ,0.003540881214540362,0.0020746069109490286,-0.007570055574750508,0.001384422134513964,-0.009945717764631701,0.004831511025919584, ,0.008610898618335576, ,0.010041608518587744, ,4.871039630952757e-05, ,0.18417945631738034,-0.24544389620860338,0.09399269161000001,1.6961819528463176,0.4759049286830291,-1.2997666560235914, ,0.02667142820642799,-0.0006444944652668437,0.008317917242819845,0.0,0.017381279900538844,0.0006489210639935711, ,0.7661890983581543
0.011310217242332523,0.021542303175927285,-0.08318496864104341, ,0.011623686020198793,0.02170447638811945,-0.08351216047793975, ,0.0004812663748708148, ,0.003972703142551502,0.00248850015454091,-0.009163853418617014,0.00414218601353071,-0.012379399917973585,0.003677233073957951, ,0.010293260550276935, ,0.013054010214347357, ,5.026916461623563e-05, ,0.1844497519679782,-0.2454516189414776,0.09408213562000001,1.6961819528463176,0.47617820168256,-1.2999078130908437, ,0.028092641077107988,-0.0006882155855658552,0.010005534874371861,0.0,0.016318452968378507,-0.0022878794540147165, ,0.7767560482025146
0.011354020174226936,0.021570230366371408,-0.08328725490627716, ,0.011679588624304557,0.021730769921803287,-0.08364316027990228, ,0.0005083664028232456, ,0.004261183347826557,0.00299511537093677,-0.010969693224574082,-0.0009372044518058346,-0.006261142093708218,-0.007055343731940211, ,0.012143416695900812, ,0.00633088411341619, ,5.1909343097770207e-05, ,0.18475093855007294,-0.2454516189414776,0.09419361656000001,1.696391642789802,0.4763148381823254,-1.2998558735142591, ,0.027570290981542935,-0.0005118281829665992,0.011913845564697085,0.01436513668206385,0.018535281720370948,0.005728774018980139, ,0.7906680107116699
0.01139885217007933,0.021603528097709598,-0.08340769839278954, ,0.011736370673735836,0.02175547840290986,-0.08377573745251998, ,0.0005219773798243064, ,0.004444239015789274,0.003115910745149305,-0.011734628265116238,0.0039937623269934615,-0.0063174662767022625,-0.002129740300944479, ,0.012929101311447191, ,0.007473974523186691, ,5.3566579978000964e-05, ,0.18503667966641926,-0.24545934167435182,0.09432454185000001,1.6966013327332867,0.4765881111818563,-1.2999153518413706, ,0.02821794277682747,3.662991725415393e-05,0.012712539122106946,0.007568254329350319,0.0208422708581945,-0.0010835756162205206, ,0.8013920783996582
0.011444518709682746,0.02163500418327042,-0.08353037739367894, ,0.01179402161123187,0.02177862666182044,-0.08390986437069783, ,0.0005355278333224596, ,0.004725987467547522,0.0033486588771392905,-0.012865353890735273,0.0034171283550356113,-0.008925750741239281,-0.0021813140023061897, ,0.014109068167413369, ,0.009557480841228871, ,5.5487632324935745e-05, ,0.18531469804989134,-0.2454516189414776,0.09445676343000001,1.6966013327332867,0.4767247476816217,-1.2999450910049264, ,0.028765365734607695,0.0006294302465327798,0.013887368369659986,0.006877453091109914,0.018874174239296628,-0.001381666108149755, ,0.8092169761657715
0.011444518709682746,0.02163500418327042,-0.08353037739367894, ,0.011852530946767446,0.021800239375386023,-0.08404551358287941, ,0.0006776001385391896, ,0.004725987467547522,0.0033486588771392905,-0.012865353890735273,0.0034171283550356113,-0.008925750741239281,-0.0021813140023061897, ,0.014109068167413369, ,0.009557480841228871, ,5.800596509777716e-05, ,0.18531469804989134,-0.2454516189414776,0.09445676343000001,1.6966013327332867,0.4767247476816217,-1.2999450910049264, ,0.028765365734607695,0.0006294302465327798,0.013887368369659986,0.006877453091109914,0.018874174239296628,-0.001381666108149755, ,0.8168308734893799
0.011497673868220275,0.021669900127708825,-0.0836713717141798, ,0.011911888257371958,0.021820341067309283,-0.08418265781062177, ,0.0006749959325085099, ,0.005385064460699847,0.0037073269721965463,-0.014614066003905152,0.0034910683677817013,-0.013939142559226667,-0.0024827811975033282, ,0.01600981316852776, ,0.014369641159413093, ,6.0468449689464185e-05, ,0.18563905283060878,-0.2454284507428549,0.09460842936000001,1.6966013327332867,0.4768613841813871,-1.2999748301684824, ,0.032399092372301395,0.001677355178150522,0.015739932332015812,0.006206155079597947,0.017605171120215427,-0.0027696108260863474, ,0.8241698741912842
0.011554345241831356,0.02170824495521695,-0.08382473951891091, ,0.01197208318694841,0.021838956108527364,-0.08432126994817087, ,0.0006619160547769132, ,0.005762567794866029,0.003894529847681067,-0.015382459017802804,0.02063389746056984,-0.0009340470467807616,-0.002437377176668639, ,0.016881782955579325, ,0.020655006827636404, ,6.283080407984839e-05, ,0.18600202127569732,-0.24540528254423224,0.09477435448,1.6966013327332867,0.4772712936806835,-1.300227405139431, ,0.036696419782857995,0.0020224943108045107,0.016644526144200627,0.005656706091286866,0.03566113896585579,-0.019716898823144268, ,0.8313009738922119
0.01161696755234099,0.021749391940135105,-0.08399138663728176, ,0.012033105446092245,0.02185610871759287,-0.0844613230620361, ,0.0006367098715408765, ,0.006587782518054088,0.004389298169891812,-0.017772556431766215,0.03386242561367692,0.003862266542103692,-0.003978494125090835, ,0.01945581093271903, ,0.03408194827350089, ,6.504313422435566e-05, ,0.186403603385157,-0.24537439161273536,0.09495453879000001,1.6966013327332867,0.4776812031799798,-1.3004799801103797, ,0.04187861498608596,0.0035159373605998592,0.0192144891676719,0.005196488827956472,0.046089259959498786,-0.034358494117957925, ,0.8385369777679443
0.01161696755234099,0.021749391940135105,-0.08399138663728176, ,0.012094944811910351,0.021871822961056598,-0.08460279039056512, ,0.0007856628825891542, ,0.006587782518054088,0.004389298169891812,-0.017772556431766215,0.03386242561367692,0.003862266542103692,-0.003978494125090835, ,0.01945581093271903, ,0.03408194827350089, ,6.785676776143912e-05, ,0.186403603385157,-0.24537439161273536,0.09495453879000001,1.6966013327332867,0.4776812031799798,-1.3004799801103797, ,0.04187861498608596,0.0035159373605998592,0.0192144891676719,0.005196488827956472,0.046089259959498786,-0.034358494117957925, ,0.8456521034240723
0.011688125461357425,0.021794836891771426,-0.0841859468214644, ,0.012157591127839935,0.021886122753849515,-0.08474564534351946, ,0.0007362021164135768, ,0.007498379212161473,0.00484065453240891,-0.02041434666697666,0.0029120205339107775,-0.025482267654897684,-0.0030515373569023896, ,0.022280107202412813, ,0.025648046376405966, ,7.071294446508074e-05, ,0.18682835369323933,-0.24531260974974156,0.09516324148000001,1.6966013327332867,0.4779544761795107,-1.3005394584374916, ,0.043771652010364745,0.005796256422679352,0.021880235604395604,0.004814489982089757,0.01776399509174085,-0.006654253384487132, ,0.850100040435791
0.011688125461357425,0.021794836891771426,-0.0841859468214644, ,0.012221034303467451,0.021899031859664554,-0.08488986150164968, ,0.0008890131058165836, ,0.007498379212161473,0.00484065453240891,-0.02041434666697666,0.0029120205339107775,-0.025482267654897684,-0.0030515373569023896, ,0.022280107202412813, ,0.025648046376405966, ,7.419507281125734e-05, ,0.18682835369323933,-0.24531260974974156,0.09516324148000001,1.6966013327332867,0.4779544761795107,-1.3005394584374916, ,0.043771652010364745,0.005796256422679352,0.021880235604395604,0.004814489982089757,0.01776399509174085,-0.006654253384487132, ,0.8538670539855957
0.01176246570859896,0.02184468166309559,-0.08439401461538949, ,0.012285264314347464,0.021910573891338492,-0.08503541261626907, ,0.000830091298260444, ,0.007702842124331174,0.005049641034799725,-0.021649616594021436,0.040518954860693616,0.014710442843198364,-0.002460201533930958, ,0.02352739998471638, ,0.04310658969977978, ,0.0004151348502024073, ,0.18728399493281858,-0.24525855061962198,0.09538749965000001,1.6966013327332867,0.47850102217857243,-1.3009851300522772, ,0.047495966745981374,0.007391360269580742,0.023321832386530017,0.004483440774742368,0.0633333182518885,-0.04405387350479725, ,0.8575069904327393
0.01176246570859896,0.02184468166309559,-0.08439401461538949, ,0.012350271201821477,0.021920772311234488,-0.08518227260882977, ,0.0009862331107903712, ,0.007702842124331174,0.005049641034799725,-0.021649616594021436,0.040518954860693616,0.014710442843198364,-0.002460201533930958, ,0.02352739998471638, ,0.04310658969977978, ,0.00042782592265991766, ,0.18728399493281858,-0.24525855061962198,0.09538749965000001,1.6966013327332867,0.47850102217857243,-1.3009851300522772, ,0.047495966745981374,0.007391360269580742,0.023321832386530017,0.004483440774742368,0.0633333182518885,-0.04405387350479725, ,0.8610479831695557
0.01176246570859896,0.02184468166309559,-0.08439401461538949, ,0.012416045072836881,0.02192965043162329,-0.08533041557049705, ,0.0011450905753297837, ,0.007702842124331174,0.005049641034799725,-0.021649616594021436,0.040518954860693616,0.014710442843198364,-0.002460201533930958, ,0.02352739998471638, ,0.04310658969977978, ,0.00044341863250056695, ,0.18728399493281858,-0.24525855061962198,0.09538749965000001,1.6966013327332867,0.47850102217857243,-1.3009851300522772, ,0.047495966745981374,0.007391360269580742,0.023321832386530017,0.004483440774742368,0.0633333182518885,-0.04405387350479725, ,0.8646059036254883
0.01184966466097229,0.021899573126346012,-0.08464510531641312, ,0.012482576099765615,0.021937231415065754,-0.08547981576172445, ,0.0010482063554360741, ,0.00978186284727148,0.00641882935749126,-0.029420131073745352,0.06245503045662413,0.03871689750563783,-0.002741684747069198, ,0.03166118007086562, ,0.07348201780857705, ,0.00045628645639281176, ,0.18781686350114007,-0.2451349868936344,0.09565712797,1.6966013327332867,0.4793208411771651,-1.301571958734315, ,0.05744366922425592,0.014637812981408418,0.031542201029702975,0.004197924260161883,0.09856325102576137,-0.07169789852356859, ,0.8681459426879883
0.01184966466097229,0.021899573126346012,-0.08464510531641312, ,0.012549854520223292,0.021943538274794495,-0.08563044761182877, ,0.0012095859673504064, ,0.00978186284727148,0.00641882935749126,-0.029420131073745352,0.06245503045662413,0.03871689750563783,-0.002741684747069198, ,0.03166118007086562, ,0.07348201780857705, ,0.0004719801962044283, ,0.18781686350114007,-0.2451349868936344,0.09565712797,1.6966013327332867,0.4793208411771651,-1.301571958734315, ,0.05744366922425592,0.014637812981408418,0.031542201029702975,0.004197924260161883,0.09856325102576137,-0.07169789852356859, ,0.871737003326416
0.01184966466097229,0.021899573126346012,-0.08464510531641312, ,0.012617870636887747,0.021948593875095953,-0.08578228571856471, ,0.0013732161964810491, ,0.00978186284727148,0.00641882935749126,-0.029420131073745352,0.06245503045662413,0.03871689750563783,-0.002741684747069198, ,0.03166118007086562, ,0.07348201780857705, ,0.0004903727676386451, ,0.18781686350114007,-0.2451349868936344,0.09565712797,1.6966013327332867,0.4793208411771651,-1.301571958734315, ,0.05744366922425592,0.014637812981408418,0.031542201029702975,0.004197924260161883,0.09856325102576137,-0.07169789852356859, ,0.8753058910369873
0.01196127327601555,0.021972051976479622,-0.08498616526838748, ,0.012686614817318068,0.02195242093169237,-0.08593530484769996, ,0.001194726609093483, ,0.012333919410400575,0.008300437331218538,-0.038598716905018364,0.05390516207131931,0.026622814213700784,-0.0034907741667848428, ,0.041362830834282764, ,0.06012033813589851, ,0.0005044598444677419, ,0.18844240486395225,-0.244949641304653,0.09602138546000001,1.6966013327332867,0.48027729667552316,-1.3022702053200494, ,0.06580925212099221,0.019757847503325165,0.041159719689922485,0.003945434806674054,0.09475055211543885,-0.06838146567023713, ,0.8788819313049316
0.01196127327601555,0.021972051976479622,-0.08498616526838748, ,0.012756077493773136,0.0219550420121234,-0.08608947993258957, ,0.001359892029425873, ,0.012333919410400575,0.008300437331218538,-0.038598716905018364,0.05390516207131931,0.026622814213700784,-0.0034907741667848428, ,0.041362830834282764, ,0.06012033813589851, ,0.0005212330245649602, ,0.18844240486395225,-0.244949641304653,0.09602138546000001,1.6966013327332867,0.48027729667552316,-1.3022702053200494, ,0.06580925212099221,0.019757847503325165,0.041159719689922485,0.003945434806674054,0.09475055211543885,-0.06838146567023713, ,0.8824920654296875
0.01196127327601555,0.021972051976479622,-0.08498616526838748, ,0.012826249163030686,0.021956479536128188,-0.08624478607375129, ,0.0015272694974073021, ,0.012333919410400575,0.008300437331218538,-0.038598716905018364,0.05390516207131931,0.026622814213700784,-0.0034907741667848428, ,0.041362830834282764, ,0.06012033813589851, ,0.0005405798798119282, ,0.18844240486395225,-0.244949641304653,0.09602138546000001,1.6966013327332867,0.48027729667552316,-1.3022702053200494, ,0.06580925212099221,0.019757847503325165,0.041159719689922485,0.003945434806674054,0.09475055211543885,-0.06838146567023713, ,0.8862349987030029
0.01206267677909323,0.02203886323577775,-0.08529876933254009, ,0.012897120386205971,0.021956755776027456,-0.08640119853844036, ,0.0013850588155092443, ,0.014466146598587686,0.009359856247433919,-0.04412881202882877,0.04315956241806971,0.0056401427977322335,-0.004931921018156748, ,0.0473732873828718, ,0.04352461021651071, ,0.0005565134446364058, ,0.18898299616514797,-0.2447874639142943,0.09635453199,1.6966013327332867,0.48096047917435036,-1.3027456160983912, ,0.07659155896567456,0.023706455547956723,0.04698764460176992,0.003774088831924572,0.08421272421021571,-0.06208267025866724, ,0.8899240493774414
0.01206267677909323,0.02203886323577775,-0.08529876933254009, ,0.012968681788570486,0.021955892857105124,-0.08655869276022413, ,0.0015540708492736274, ,0.014466146598587686,0.009359856247433919,-0.04412881202882877,0.04315956241806971,0.0056401427977322335,-0.004931921018156748, ,0.0473732873828718, ,0.04352461021651071, ,0.0005749867299074655, ,0.18898299616514797,-0.2447874639142943,0.09635453199,1.6966013327332867,0.48096047917435036,-1.3027456160983912, ,0.07659155896567456,0.023706455547956723,0.04698764460176992,0.003774088831924572,0.08421272421021571,-0.06208267025866724, ,0.8936259746551514
0.01225061927298324,0.022152916435240186,-0.08585786346411925, ,0.013040924059370858,0.021953912757990312,-0.0867172443385568, ,0.0011843646424540086, ,0.015551193743845402,0.008806851239164555,-0.04556797506385537,0.0466136504201848,0.0028830594541576684,-0.009114558717186336, ,0.04894732481992796, ,0.0467006206192547, ,0.0005860663283174027, ,0.19000239690454562,-0.2444399409349542,0.09694952910000001,1.6966013327332867,0.48205357117247394,-1.3035552805878219, ,0.08526230149009054,0.03372314909682686,0.0484158404863222,0.003519146713433541,0.09034510896886369,-0.07558275463241823, ,0.8972129821777344
0.01225061927298324,0.022152916435240186,-0.08585786346411925, ,0.013113837951647512,0.021950837311038897,-0.08687682903835463, ,0.0013506566185043805, ,0.015551193743845402,0.008806851239164555,-0.04556797506385537,0.0466136504201848,0.0028830594541576684,-0.009114558717186336, ,0.04894732481992796, ,0.0467006206192547, ,0.0005997197263564559, ,0.19000239690454562,-0.2444399409349542,0.09694952910000001,1.6966013327332867,0.48205357117247394,-1.3035552805878219, ,0.08526230149009054,0.03372314909682686,0.0484158404863222,0.003519146713433541,0.09034510896886369,-0.07558275463241823, ,0.9007840156555176
0.01225061927298324,0.022152916435240186,-0.08585786346411925, ,0.013187414282053547,0.02194668820271614,-0.08703742278957043, ,0.0015203536349046771, ,0.015551193743845402,0.008806851239164555,-0.04556797506385537,0.0466136504201848,0.0028830594541576684,-0.009114558717186336, ,0.04894732481992796, ,0.0467006206192547, ,0.0006158711984362492, ,0.19000239690454562,-0.2444399409349542,0.09694952910000001,1.6966013327332867,0.48205357117247394,-1.3035552805878219, ,0.08526230149009054,0.03372314909682686,0.0484158404863222,0.003519146713433541,0.09034510896886369,-0.07558275463241823, ,0.90435791015625
0.012412775617440216,0.02223419125773386,-0.08632635521034446, ,0.013261643930673157,0.02194148697397748,-0.0871990016867683, ,0.0012521042623340947, ,0.01718760984103878,0.007941545149371957,-0.048848581736966365,0.05644740959555427,0.020703083546477503,-0.008997297407409241, ,0.05238956011573651, ,0.06012195589567702, ,0.0006268407340206948, ,0.1909136793837041,-0.24398429969537494,0.09744600817000001,1.696811022676771,0.4831466631705974,-1.3044466238173933, ,0.09864546939549977,0.05219853771093002,0.05171692051948052,0.0,0.12352250029270115,-0.1028875656414657, ,0.9078879356384277
0.012412775617440216,0.02223419125773386,-0.08632635521034446, ,0.01333651784084088,0.021935255020651426,-0.08736154198869857, ,0.0014192512938917372, ,0.01718760984103878,0.007941545149371957,-0.048848581736966365,0.05644740959555427,0.020703083546477503,-0.008997297407409241, ,0.05238956011573651, ,0.06012195589567702, ,0.0006402714214761362, ,0.1909136793837041,-0.24398429969537494,0.09744600817000001,1.696811022676771,0.4831466631705974,-1.3044466238173933, ,0.09864546939549977,0.05219853771093002,0.05171692051948052,0.0,0.12352250029270115,-0.1028875656414657, ,0.9114460945129395
0.012412775617440216,0.02223419125773386,-0.08632635521034446, ,0.013412027018959853,0.02192801359382045,-0.08752502011787287, ,0.0015902973576845732, ,0.01718760984103878,0.007941545149371957,-0.048848581736966365,0.05644740959555427,0.020703083546477503,-0.008997297407409241, ,0.05238956011573651, ,0.06012195589567702, ,0.0006561051870796101, ,0.1909136793837041,-0.24398429969537494,0.09744600817000001,1.696811022676771,0.4831466631705974,-1.3044466238173933, ,0.09864546939549977,0.05219853771093002,0.05171692051948052,0.0,0.12352250029270115,-0.1028875656414657, ,0.9150230884552002
0.012586091618319558,0.022309665421695556,-0.08680699290315626, ,0.013488162534320843,0.02191978380020379,-0.08768941266013805, ,0.0013207589650592005, ,0.018176509424132598,0.007254745837890984,-0.04847714737075391,0.05795727097057482,0.01688226674018946,-0.002110216136753093, ,0.0522785869092095, ,0.06036380095630271, ,0.000667001150653046, ,0.19194080285597595,-0.24345143112705345,0.09795545014000001,1.6966013327332867,0.4845130281682518,-1.3055608028543575, ,0.11034528088194276,0.058112027898634885,0.05138326296774194,-0.008489263668598122,0.13373988401797732,-0.11142547682639604, ,0.9186069965362549
0.012586091618319558,0.022309665421695556,-0.08680699290315626, ,0.013564915518920818,0.02191058660253828,-0.08785469636425172, ,0.0014883019433836833, ,0.018176509424132598,0.007254745837890984,-0.04847714737075391,0.05795727097057482,0.01688226674018946,-0.002110216136753093, ,0.0522785869092095, ,0.06036380095630271, ,0.0006802479376325723, ,0.19194080285597595,-0.24345143112705345,0.09795545014000001,1.6966013327332867,0.4845130281682518,-1.3055608028543575, ,0.11034528088194276,0.058112027898634885,0.05138326296774194,-0.008489263668598122,0.13373988401797732,-0.11142547682639604, ,0.922374963760376
0.012586091618319558,0.022309665421695556,-0.08680699290315626, ,0.013642277167281702,0.021900442819961032,-0.08802084814145704, ,0.0016602516650065695, ,0.018176509424132598,0.007254745837890984,-0.04847714737075391,0.05795727097057482,0.01688226674018946,-0.002110216136753093, ,0.0522785869092095, ,0.06036380095630271, ,0.0006958035523527946, ,0.19194080285597595,-0.24345143112705345,0.09795545014000001,1.6966013327332867,0.4845130281682518,-1.3055608028543575, ,0.11034528088194276,0.058112027898634885,0.05138326296774194,-0.008489263668598122,0.13373988401797732,-0.11142547682639604, ,0.9263761043548584
0.012733115961980604,0.02235958271080017,-0.08717880498219517, ,0.013720238736269107,0.021889373128390843,-0.08818784506505718, ,0.0014878408220407053, ,0.018618369701487943,0.005443711350305682,-0.04519618000338068,0.07525761488976639,0.0322499154804887,-0.006605965718270951, ,0.04918304962590993, ,0.08187537518535586, ,0.0007081791346916682, ,0.19287525353375712,-0.24294945349022884,0.0983495223,1.696391642789802,0.48560612016637533,-1.3063704673437884, ,0.12404828961891604,0.06891571645495335,0.047978347951807235,-0.006502232891785287,0.163249019756033,-0.137973828400404, ,0.9309709072113037
0.012733115961980604,0.02235958271080017,-0.08717880498219517, ,0.013798791544910902,0.02187739806090983,-0.08835566436998979, ,0.001659266254488419, ,0.018618369701487943,0.005443711350305682,-0.04519618000338068,0.07525761488976639,0.0322499154804887,-0.006605965718270951, ,0.04918304962590993, ,0.08187537518535586, ,0.0007228112442270027, ,0.19287525353375712,-0.24294945349022884,0.0983495223,1.696391642789802,0.48560612016637533,-1.3063704673437884, ,0.12404828961891604,0.06891571645495335,0.047978347951807235,-0.006502232891785287,0.163249019756033,-0.137973828400404, ,0.9345619678497314
0.01296847203374735,0.02240823587790259,-0.08772341384502107, ,0.013877926974216139,0.021864538008145733,-0.08852428345240258, ,0.001328197195580782, ,0.0191669333711111,0.002560500851716276,-0.04181157271615637,0.06894635140809585,0.029214930007236996,0.059622136119215595, ,0.04606663773776727, ,0.07487979515222679, ,0.000731983758641454, ,0.19454336383458962,-0.24196866641520234,0.09892766764000001,1.695552883015864,0.48820221366191874,-1.3084874075140203, ,0.13894134928033788,0.08698161462737927,0.044246698666666674,-0.07960996455369564,0.19340268123759805,-0.16214244574583542, ,0.9380979537963867
0.01296847203374735,0.02240823587790259,-0.08772341384502107, ,0.01395763646699361,0.021850813218653405,-0.08869367986922745, ,0.0014935134598566863, ,0.0191669333711111,0.002560500851716276,-0.04181157271615637,0.06894635140809585,0.029214930007236996,0.059622136119215595, ,0.04606663773776727, ,0.07487979515222679, ,0.0007433498735849649, ,0.19454336383458962,-0.24196866641520234,0.09892766764000001,1.695552883015864,0.48820221366191874,-1.3084874075140203, ,0.13894134928033788,0.08698161462737927,0.044246698666666674,-0.07960996455369564,0.19340268123759805,-0.16214244574583542, ,0.9416630268096924
0.01296847203374735,0.02240823587790259,-0.08772341384502107, ,0.01403791152767047,0.02183624379929657,-0.08886383133775545, ,0.001664760591462074, ,0.0191669333711111,0.002560500851716276,-0.04181157271615637,0.06894635140809585,0.029214930007236996,0.059622136119215595, ,0.04606663773776727, ,0.07487979515222679, ,0.0007569000312008048, ,0.19454336383458962,-0.24196866641520234,0.09892766764000001,1.695552883015864,0.48820221366191874,-1.3084874075140203, ,0.13894134928033788,0.08698161462737927,0.044246698666666674,-0.07960996455369564,0.19340268123759805,-0.16214244574583542, ,0.9452629089355469
0.013158731632156782,0.02242646652634964,-0.0881237265012755, ,0.014118743722111022,0.02182084971562985,-0.0890347157352116, ,0.001455436813685908, ,0.020490577931614122,0.000926437297376385,-0.041547399718344584,-0.007861034972135576,-0.04554112856327236,0.0391048005017133, ,0.04633474391203022, ,0.04621327149261013, ,0.0007670237526860961, ,0.1958948420875789,-0.24104966120316962,0.09934896189,1.6953431930723792,0.4895685786595731,-1.3096015865509845, ,0.14599529470533967,0.10337357468243004,0.04352134295081967,-0.06226706488074966,0.11907170998559498,-0.10104227500188431, ,0.9488019943237305
0.013158731632156782,0.02242646652634964,-0.0881237265012755, ,0.014200124677435417,0.021804650792280382,-0.08920631109832931, ,0.001625774797340933, ,0.020490577931614122,0.000926437297376385,-0.041547399718344584,-0.007861034972135576,-0.04554112856327236,0.0391048005017133, ,0.04633474391203022, ,0.04621327149261013, ,0.0007792916247525938, ,0.1958948420875789,-0.24104966120316962,0.09934896189,1.6953431930723792,0.4895685786595731,-1.3096015865509845, ,0.14599529470533967,0.10337357468243004,0.04352134295081967,-0.06226706488074966,0.11907170998559498,-0.10104227500188431, ,0.9570269584655762
0.013373670915414014,0.022430537789218486,-0.08855140869879513, ,0.014282046081838175,0.021787666713329698,-0.08937859562292594, ,0.0013866026361735774, ,0.020535634787022188,-0.000688471608159235,-0.039931823757006636,0.025766095198181974,0.0031600149281712023,0.002101057485837352, ,0.04490809323297792, ,0.025957192178552305, ,0.0007878453009697908, ,0.19745483412817227,-0.23989897400491017,0.09979747823000001,1.6953431930723792,0.491071580156993,-1.3108271834916452, ,0.15256743015831317,0.11744670984959255,0.04180790425196851,-0.026032005859005378,0.16716950145724505,-0.1398374536949488, ,0.9614949226379395
0.013373670915414014,0.022430537789218486,-0.08855140869879513, ,0.014364499684407036,0.021769917022695266,-0.08955154766347634, ,0.0015551332403686672, ,0.020535634787022188,-0.000688471608159235,-0.039931823757006636,0.025766095198181974,0.0031600149281712023,0.002101057485837352, ,0.04490809323297792, ,0.025957192178552305, ,0.0007985020779058864, ,0.19745483412817227,-0.23989897400491017,0.09979747823000001,1.6953431930723792,0.491071580156993,-1.3108271834916452, ,0.15256743015831317,0.11744670984959255,0.04180790425196851,-0.026032005859005378,0.16716950145724505,-0.1398374536949488, ,0.965054988861084
0.013570818711375872,0.022415532601386567,-0.0889227716825857, ,0.0144474772949415,0.021751421124512837,-0.08972514573268883, ,0.001361388424415903, ,0.020049745103280007,-0.0024836207664831206,-0.03651596980566465,0.012702616737700978,-0.002837580852000031,-0.01773092568611013, ,0.04173220221443411, ,0.013013201440919903, ,0.0008062128497758865, ,0.19892987610714916,-0.2387173958751538,0.10018506894000001,1.695133503128895,0.4925745816544128,-1.3121344591724464, ,0.15232253861712805,0.12720769645907612,0.03801625661097852,-0.008480873767960563,0.15634283579448266,-0.13355161126906728, ,0.9686169624328613
0.013570818711375872,0.022415532601386567,-0.0889227716825857, ,0.014530970783771557,0.021732198283517547,-0.08989936850107919, ,0.001530548639539057, ,0.020049745103280007,-0.0024836207664831206,-0.03651596980566465,0.012702616737700978,-0.002837580852000031,-0.01773092568611013, ,0.04173220221443411, ,0.013013201440919903, ,0.0008160011712591727, ,0.19892987610714916,-0.2387173958751538,0.10018506894000001,1.695133503128895,0.4925745816544128,-1.3121344591724464, ,0.15232253861712805,0.12720769645907612,0.03801625661097852,-0.008480873767960563,0.15634283579448266,-0.13355161126906728, ,0.9721601009368896
0.013570818711375872,0.022415532601386567,-0.0889227716825857, ,0.014614972081576243,0.021712267625426336,-0.09007419479654559, ,0.001706051896711891, ,0.020049745103280007,-0.0024836207664831206,-0.03651596980566465,0.012702616737700978,-0.002837580852000031,-0.01773092568611013, ,0.04173220221443411, ,0.013013201440919903, ,0.0008278685142652089, ,0.19892987610714916,-0.2387173958751538,0.10018506894000001,1.695133503128895,0.4925745816544128,-1.3121344591724464, ,0.15232253861712805,0.12720769645907612,0.03801625661097852,-0.008480873767960563,0.15634283579448266,-0.13355161126906728, ,0.9757509231567383
0.013783706629055769,0.022376738817596685,-0.08929324817598622, ,0.014699473179202468,0.021691648137319147,-0.09024960360394366, ,0.0014908364494988658, ,0.021536906504551905,-0.004354851314374703,-0.03743671675910265,-0.028289627662733328,-0.0387437644724228,0.025445692694054292, ,0.043408649293169656, ,0.047971958316217304, ,0.000836591776570915, ,0.20056709547648474,-0.23731185849204495,0.10056877078000001,1.6945044332984414,0.49407758315183264,-1.3134417348532477, ,0.16418155978974183,0.1462202489344696,0.03866216388349515,-0.05769280113269324,0.14336997154398493,-0.12118443727392485, ,0.9792919158935547
0.013783706629055769,0.022376738817596685,-0.08929324817598622, ,0.014784466127483485,0.021670358668020924,-0.09042557406466063, ,0.0016681290140664398, ,0.021536906504551905,-0.004354851314374703,-0.03743671675910265,-0.028289627662733328,-0.0387437644724228,0.025445692694054292, ,0.043408649293169656, ,0.047971958316217304, ,0.0008473909614734544, ,0.20056709547648474,-0.23731185849204495,0.10056877078000001,1.6945044332984414,0.49407758315183264,-1.3134417348532477, ,0.16418155978974183,0.1462202489344696,0.03866216388349515,-0.05769280113269324,0.14336997154398493,-0.12118443727392485, ,0.9828629493713379
0.013783706629055769,0.022376738817596685,-0.08929324817598622, ,0.014869943037057663,0.0216484179284836,-0.09060208547619049, ,0.001850247532086812, ,0.021536906504551905,-0.004354851314374703,-0.03743671675910265,-0.028289627662733328,-0.0387437644724228,0.025445692694054292, ,0.043408649293169656, ,0.047971958316217304, ,0.0008602480969941386, ,0.20056709547648474,-0.23731185849204495,0.10056877078000001,1.6945044332984414,0.49407758315183264,-1.3134417348532477, ,0.16418155978974183,0.1462202489344696,0.03866216388349515,-0.05769280113269324,0.14336997154398493,-0.12118443727392485, ,0.9865210056304932
0.014007634765329464,0.022329015381512624,-0.08969095837432052, ,0.014955896078187031,0.021625844492167597,-0.0907791172917086, ,0.00160553375753231, ,0.022808696109267983,-0.004820903463722934,-0.041507673660502675,0.005421026503768098,0.007971964763090686,0.03099725381986817, ,0.04760635147874976, ,0.009634134194123309, ,0.0008696820926971533, ,0.20227381944168835,-0.23575958918432582,0.10097969471000001,1.6936656735245033,0.49585385764878337,-1.314890167601301, ,0.17253989374267414,0.16057012108032281,0.04293480194070081,-0.06660773307101683,0.20207557306647284,-0.16878894418092194, ,0.9905049800872803
0.014007634765329464,0.022329015381512624,-0.08969095837432052, ,0.015042317480576063,0.02160265679542375,-0.09095664911964718, ,0.0017888930039610148, ,0.022808696109267983,-0.004820903463722934,-0.041507673660502675,0.005421026503768098,0.007971964763090686,0.03099725381986817, ,0.04760635147874976, ,0.009634134194123309, ,0.0008811722290879516, ,0.20227381944168835,-0.23575958918432582,0.10097969471000001,1.6936656735245033,0.49585385764878337,-1.314890167601301, ,0.17253989374267414,0.16057012108032281,0.04293480194070081,-0.06660773307101683,0.20207557306647284,-0.16878894418092194, ,0.9943139553070068
0.01423863120563035,0.022282462643084176,-0.09011199880670885, ,0.015129199533190016,0.02157887313787466,-0.09113466072326831, ,0.001527739353906438, ,0.02385394056762309,-0.004908556743104529,-0.04402232030410639,0.023853674398409717,0.03290416996645913,0.00012333301740775297, ,0.050309731611899, ,0.04063885884895351, ,0.0008891545392708958, ,0.20401915707126309,-0.23413009254786446,0.10141654444,1.6936656735245033,0.4980400416450304,-1.3168362115407248, ,0.17837770969637368,0.16825698857884888,0.04564129375358167,-0.03619564781593347,0.22637040705375924,-0.18797685455560387, ,0.9979619979858398
0.01423863120563035,0.022282462643084176,-0.09011199880670885, ,0.015216534584074093,0.02155451168279723,-0.09131313202024084, ,0.0017114112932910255, ,0.02385394056762309,-0.004908556743104529,-0.04402232030410639,0.023853674398409717,0.03290416996645913,0.00012333301740775297, ,0.050309731611899, ,0.04063885884895351, ,0.0008991820606613852, ,0.20401915707126309,-0.23413009254786446,0.10141654444,1.6936656735245033,0.4980400416450304,-1.3168362115407248, ,0.17837770969637368,0.16825698857884888,0.04564129375358167,-0.03619564781593347,0.22637040705375924,-0.18797685455560387, ,1.0015490055084229
0.01423863120563035,0.022282462643084176,-0.09011199880670885, ,0.015304315040171386,0.021529590457503568,-0.09149204308221312, ,0.001899215829066068, ,0.02385394056762309,-0.004908556743104529,-0.04402232030410639,0.023853674398409717,0.03290416996645913,0.00012333301740775297, ,0.050309731611899, ,0.04063885884895351, ,0.0009112306602807186, ,0.20401915707126309,-0.23413009254786446,0.10141654444,1.6936656735245033,0.4980400416450304,-1.3168362115407248, ,0.17837770969637368,0.16825698857884888,0.04564129375358167,-0.03619564781593347,0.22637040705375924,-0.18797685455560387, ,1.0051438808441162
0.014480004375002584,0.022230398693223297,-0.0905637450900115, ,0.015392533367142176,0.021504127353723375,-0.0916713741343897, ,0.001608421996872855, ,0.02493119731590464,-0.005006294103482394,-0.04805927170365337,-0.0007770470075439297,0.01405127857368041,-0.019625382611011568, ,0.054372062467233216, ,0.01406363575163821, ,0.0009195305571449108, ,0.2057799401665863,-0.23240020038403816,0.10188320884000002,1.693246293637534,0.500089589141512,-1.318589158836312, ,0.17671683716661224,0.17837770969637368,0.04962246579439253,-0.019576487462189093,0.2010992237977947,-0.17112380815771794, ,1.0087299346923828
0.014480004375002584,0.022230398693223297,-0.0905637450900115, ,0.015481182089182144,0.021478140127985434,-0.0918511055551043, ,0.0017959807157727175, ,0.02493119731590464,-0.005006294103482394,-0.04805927170365337,-0.0007770470075439297,0.01405127857368041,-0.019625382611011568, ,0.054372062467233216, ,0.01406363575163821, ,0.0009298417354817086, ,0.2057799401665863,-0.23240020038403816,0.10188320884000002,1.693246293637534,0.500089589141512,-1.318589158836312, ,0.17671683716661224,0.17837770969637368,0.04962246579439253,-0.019576487462189093,0.2010992237977947,-0.17112380815771794, ,1.0122990608215332
0.014480004375002584,0.022230398693223297,-0.0905637450900115, ,0.015570253788840981,0.021451646401999265,-0.0920312178753958, ,0.0019871022347391176, ,0.02493119731590464,-0.005006294103482394,-0.04805927170365337,-0.0007770470075439297,0.01405127857368041,-0.019625382611011568, ,0.054372062467233216, ,0.01406363575163821, ,0.0009421354622172599, ,0.2057799401665863,-0.23240020038403816,0.10188320884000002,1.693246293637534,0.500089589141512,-1.318589158836312, ,0.17671683716661224,0.17837770969637368,0.04962246579439253,-0.019576487462189093,0.2010992237977947,-0.17112380815771794, ,1.0158419609069824
0.014738637661909026,0.022175992770381833,-0.09107738492807713, ,0.01565974110684138,0.021424663663037097,-0.09221169177858247, ,0.0016430395658391952, ,0.02600130596404208,-0.0056780935379966285,-0.05332012548911961,-0.043657695802912296,-0.021735235368641685,0.1198645214306022, ,0.05959315766291825, ,0.04876457608389997, ,0.0009501918312244086, ,0.20757161419340636,-0.2305467444942243,0.10241209516000001,1.691988153976627,0.5021391366379937,-1.3204237848720393, ,0.17476416493272703,0.18941505301091974,0.05473818391752577,-0.16959320982938078,0.19725530208382694,-0.16957274798395908, ,1.0194330215454102
0.014738637661909026,0.022175992770381833,-0.09107738492807713, ,0.015749636741897236,0.021397209264315466,-0.09239250809983682, ,0.0018325315402353377, ,0.02600130596404208,-0.0056780935379966285,-0.05332012548911961,-0.043657695802912296,-0.021735235368641685,0.1198645214306022, ,0.05959315766291825, ,0.04876457608389997, ,0.0009602184188268055, ,0.20757161419340636,-0.2305467444942243,0.10241209516000001,1.691988153976627,0.5021391366379937,-1.3204237848720393, ,0.17476416493272703,0.18941505301091974,0.05473818391752577,-0.16959320982938078,0.19725530208382694,-0.16957274798395908, ,1.0231330394744873
0.014864557066997217,0.022149051005022295,-0.09133605682951927, ,0.0158399334505325,0.02136930042537698,-0.09257364782576039, ,0.00202544010341277, ,0.026731552162789805,-0.005658675951446224,-0.05474660491296083,-0.03107904155762792,-0.004671030588234107,0.05679214926926701, ,0.06087281336982706, ,0.03142027297466201, ,0.0009721872017996815, ,0.20841339207669685,-0.22962773928219157,0.10267783461,1.6913590841461734,0.5030955921363518,-1.3212853889380547, ,0.17837770969637368,0.1948602496067162,0.05628555307420496,-0.10496389382705039,0.2031199260969916,-0.17450721402030328, ,1.0275819301605225
0.014864557066997217,0.022149051005022295,-0.09133605682951927, ,0.015930624046899735,0.021340954232472186,-0.09275509209395845, ,0.001950174423267402, ,0.026731552162789805,-0.005658675951446224,-0.05474660491296083,-0.03107904155762792,-0.004671030588234107,0.05679214926926701, ,0.06118649560198112, ,0.03142027297466201, ,0.0009830537264826562, ,0.20841339207669685,-0.22962773928219157,0.10267783461,1.6913590841461734,0.5030955921363518,-1.3212853889380547, ,0.17837770969637368,0.1948602496067162,0.05628555307420496,-0.10496389382705039,0.2031199260969916,-0.17450721402030328, ,1.0354959964752197
0.015310538487698696,0.022045529861142946,-0.09222577738731615, ,0.016021701402598672,0.021312187638940994,-0.09293682219261487, ,0.0012446397958989703, ,0.026731552162789805,-0.005658675951446224,-0.05474660491296083,-0.03107904155762792,-0.004671030588234107,0.05679214926926701, ,0.06118649560198112, ,0.03142027297466201, ,0.0009859282986740441, ,0.20841339207669685,-0.22962773928219157,0.10267783461,1.6913590841461734,0.5030955921363518,-1.3212853889380547, ,0.17837770969637368,0.1948602496067162,0.05628555307420496,-0.10496389382705039,0.2031199260969916,-0.17450721402030328, ,1.0394930839538574
0.015310538487698696,0.022045529861142946,-0.09222577738731615, ,0.016113158446494996,0.021283017465594755,-0.09311881956006673, ,0.0014223741680492892, ,0.024237351672872977,-0.007192743012576625,-0.04445749027224861,-0.1226952640767393,-0.0867341006517214,-0.037570874257500414, ,0.05114345715207927, ,0.15025564339738182, ,0.0009906722755150795, ,0.21134803056890217,-0.22631468687914927,0.10359042277000001,1.6909397042592043,0.5058283221316605,-1.3238404619725455, ,0.1602988877676871,0.18570830050581366,0.04525230545454546,0.0,0.07565747933817014,-0.05618349712751606, ,1.0432438850402832
0.015310538487698696,0.022045529861142946,-0.09222577738731615, ,0.016204988164538733,0.021253460401097973,-0.09330106578437915, ,0.0016073765553825594, ,0.024237351672872977,-0.007192743012576625,-0.04445749027224861,-0.1226952640767393,-0.0867341006517214,-0.037570874257500414, ,0.05114345715207927, ,0.15025564339738182, ,0.0009973035043308587, ,0.21134803056890217,-0.22631468687914927,0.10359042277000001,1.6909397042592043,0.5058283221316605,-1.3238404619725455, ,0.1602988877676871,0.18570830050581366,0.04525230545454546,0.0,0.07565747933817014,-0.05618349712751606, ,1.047050952911377
0.015538474914201135,0.02195504455415404,-0.09261231085239859, ,0.016297183599583046,0.021223533002349693,-0.09348354260292026, ,0.0013674036649117948, ,0.02338544341688228,-0.010688739440112581,-0.03843231199853366,-0.10953631607926256,-0.09405287344429009,-0.053612879193594136, ,0.04624035813199824, ,0.14437473358348946, ,0.0010012407400817197, ,0.21291574534236973,-0.2244071718592158,0.10398060606000001,1.6911493942026892,0.5065115046304878,-1.3245609089713086, ,0.1630531641898123,0.2054046354079454,0.038568550895883784,0.0,0.07076728633228596,-0.09044406659947289, ,1.050745964050293
0.015538474914201135,0.02195504455415404,-0.09261231085239859, ,0.01638973785120277,0.021193251694865793,-0.09366623190193557, ,0.0015542607654548668, ,0.02338544341688228,-0.010688739440112581,-0.03843231199853366,-0.10953631607926256,-0.09405287344429009,-0.053612879193594136, ,0.04624035813199824, ,0.14437473358348946, ,0.0010070620035067003, ,0.21291574534236973,-0.2244071718592158,0.10398060606000001,1.6911493942026892,0.5065115046304878,-1.3245609089713086, ,0.1630531641898123,0.2054046354079454,0.038568550895883784,0.0,0.07076728633228596,-0.09044406659947289, ,1.0544700622558594
0.015538474914201135,0.02195504455415404,-0.09261231085239859, ,0.01648264407551294,0.021162632773160123,-0.09384911571612298, ,0.0017461552355854558, ,0.02338544341688228,-0.010688739440112581,-0.03843231199853366,-0.10953631607926256,-0.09405287344429009,-0.053612879193594136, ,0.04624035813199824, ,0.14437473358348946, ,0.001014760891340854, ,0.21291574534236973,-0.2244071718592158,0.10398060606000001,1.6911493942026892,0.5065115046304878,-1.3245609089713086, ,0.1630531641898123,0.2054046354079454,0.038568550895883784,0.0,0.07076728633228596,-0.09044406659947289, ,1.0581610202789307
0.015765265768866082,0.021842938604963107,-0.09299808703698807, ,0.01657589548498748,0.021131692401126428,-0.09403217622820746, ,0.0014940991113470072, ,0.022904214568704676,-0.010922434223078238,-0.039961182175429315,0.01650938120645355,0.01774019745721093,0.01740236438236137, ,0.047337075271129535, ,0.02423163984433488, ,0.001019702522474938, ,0.2145452419788311,-0.22233747944892363,0.10436949306000001,1.6903106344287508,0.508151142627673,-1.3264696749966496, ,0.1650381592321231,0.20674714936486008,0.040531327022900764,-0.08610608365400627,0.2069759996446909,-0.23276662679880883, ,1.0617780685424805
0.015765265768866082,0.021842938604963107,-0.09299808703698807, ,0.016669485348277897,0.02110044661242064,-0.09421539576851612, ,0.00168841581212561, ,0.022904214568704676,-0.010922434223078238,-0.039961182175429315,0.01650938120645355,0.01774019745721093,0.01740236438236137, ,0.047337075271129535, ,0.02423163984433488, ,0.0010265261274713736, ,0.2145452419788311,-0.22233747944892363,0.10436949306000001,1.6903106344287508,0.508151142627673,-1.3264696749966496, ,0.1650381592321231,0.20674714936486008,0.040531327022900764,-0.08610608365400627,0.2069759996446909,-0.23276662679880883, ,1.0654809474945068
0.01597043793964564,0.021741411959343482,-0.09337144645983322, ,0.01676340699003168,0.021068911310841695,-0.09439875681455236, ,0.0014616509850229676, ,0.022569043943904757,-0.010583986402493068,-0.04132353170792632,0.05025348044116406,0.0604032563411113,0.06752580591024132, ,0.04825988795600394, ,0.07857381989587889, ,0.0010309213280527028, ,0.21603572942355642,-0.2204376871618644,0.10474930603000002,1.6890524947678438,0.5106105996234509,-1.3290469484441692, ,0.161664295670308,0.20277124264630508,0.04213971301587302,-0.13831789844718062,0.2585845231969401,-0.27220206929019575, ,1.069425106048584
0.01597043793964564,0.021741411959343482,-0.09337144645983322, ,0.016857653790711035,0.021037102270713773,-0.09458224199057133, ,0.0016580801914065392, ,0.022569043943904757,-0.010583986402493068,-0.04132353170792632,0.05025348044116406,0.0604032563411113,0.06752580591024132, ,0.04825988795600394, ,0.07857381989587889, ,0.001037192916686241, ,0.21603572942355642,-0.2204376871618644,0.10474930603000002,1.6890524947678438,0.5106105996234509,-1.3290469484441692, ,0.161664295670308,0.20277124264630508,0.04213971301587302,-0.13831789844718062,0.2585845231969401,-0.27220206929019575, ,1.0734961032867432
0.01597043793964564,0.021741411959343482,-0.09337144645983322, ,0.016952219186411453,0.02100503513726805,-0.09476583406715405, ,0.001857541934934675, ,0.022569043943904757,-0.010583986402493068,-0.04132353170792632,0.05025348044116406,0.0604032563411113,0.06752580591024132, ,0.04825988795600394, ,0.07857381989587889, ,0.0010453151841936512, ,0.21603572942355642,-0.2204376871618644,0.10474930603000002,1.6890524947678438,0.5106105996234509,-1.3290469484441692, ,0.161664295670308,0.20277124264630508,0.04213971301587302,-0.13831789844718062,0.2585845231969401,-0.27220206929019575, ,1.0771660804748535
0.016225314639538302,0.021637312267045072,-0.09383669765508283, ,0.017047096668680296,0.020972725427024275,-0.09494951596078258, ,0.0015347201545721663, ,0.024371573290002745,-0.009357337260323798,-0.04505942750582902,-0.11104230240735494,-0.08765548842034877,-0.010508926947026265, ,0.05207576549976467, ,0.1414697558644226, ,0.0010501132721385386, ,0.21774245338876005,-0.21827532195708155,0.10522245188000001,1.6886331148808746,0.5122502376206363,-1.3305473207688077, ,0.1545552794111902,0.20020451805584552,0.04564129375358167,-0.04438634286227126,0.07833519595521181,-0.09277325325587901, ,1.0807380676269531
0.016225314639538302,0.021637312267045072,-0.09383669765508283, ,0.017142279784335496,0.02094018852817263,-0.09513327073341499, ,0.0017343322436973127, ,0.024371573290002745,-0.009357337260323798,-0.04505942750582902,-0.11104230240735494,-0.08765548842034877,-0.010508926947026265, ,0.05207576549976467, ,0.1414697558644226, ,0.0010567561747750317, ,0.21774245338876005,-0.21827532195708155,0.10522245188000001,1.6886331148808746,0.5122502376206363,-1.3305473207688077, ,0.1545552794111902,0.20020451805584552,0.04564129375358167,-0.04438634286227126,0.07833519595521181,-0.09277325325587901, ,1.084394931793213
0.016225314639538302,0.021637312267045072,-0.09383669765508283, ,0.017237762135283944,0.020907439700955148,-0.09531708159205936, ,0.0019363110533254806, ,0.024371573290002745,-0.009357337260323798,-0.04505942750582902,-0.11104230240735494,-0.08765548842034877,-0.010508926947026265, ,0.05207576549976467, ,0.1414697558644226, ,0.0010652134332226322, ,0.21774245338876005,-0.21827532195708155,0.10522245188000001,1.6886331148808746,0.5122502376206363,-1.3305473207688077, ,0.1545552794111902,0.20020451805584552,0.04564129375358167,-0.04438634286227126,0.07833519595521181,-0.09277325325587901, ,1.0880188941955566
0.016478218296640538,0.021545487335037947,-0.0943379696716489, ,0.017333537378340244,0.020874494078047836,-0.09550093188834959, ,0.001591943403491219, ,0.02476206083586552,-0.008304652272905666,-0.052051632593400086,-0.06936023206951748,-0.02412450081420119,-0.05466562565420506, ,0.05823658095949051, ,0.07343331149348373, ,0.001070229909129952, ,0.2192715544978565,-0.2161747386152925,0.10573059756000001,1.68842342493739,0.5132066931189944,-1.3317356397953852, ,0.1444397892822995,0.2054046354079454,0.052919639601328915,0.0,0.12331590249605993,-0.12869620194456868, ,1.0916049480438232
0.016478218296640538,0.021545487335037947,-0.0943379696716489, ,0.017429599225045247,0.020841366664941963,-0.09568480511811887, ,0.0017930078942538445, ,0.02476206083586552,-0.008304652272905666,-0.052051632593400086,-0.06936023206951748,-0.02412450081420119,-0.05466562565420506, ,0.05823658095949051, ,0.07343331149348373, ,0.00107704856936697, ,0.2192715544978565,-0.2161747386152925,0.10573059756000001,1.68842342493739,0.5132066931189944,-1.3317356397953852, ,0.1444397892822995,0.2054046354079454,0.052919639601328915,0.0,0.12331590249605993,-0.12869620194456868, ,1.0952060222625732
0.016478218296640538,0.021545487335037947,-0.0943379696716489, ,0.017525941441484814,0.020808072340326587,-0.09586868492097603, ,0.001996144743546959, ,0.02476206083586552,-0.008304652272905666,-0.052051632593400086,-0.06936023206951748,-0.02412450081420119,-0.05466562565420506, ,0.05823658095949051, ,0.07343331149348373, ,0.001085638253237811, ,0.2192715544978565,-0.2161747386152925,0.10573059756000001,1.68842342493739,0.5132066931189944,-1.3317356397953852, ,0.1444397892822995,0.2054046354079454,0.052919639601328915,0.0,0.12331590249605993,-0.12869620194456868, ,1.0988008975982666
0.01672672621947054,0.021463591474582325,-0.09488664363729658, ,0.017622557848108015,0.020774625856469008,-0.09605255507987903, ,0.0016237417965163743, ,0.02534095601591555,-0.00790665553166114,-0.05766559458755998,0.007724794411029601,-0.00813627326550626,0.08560720225036451, ,0.0634822814069701, ,0.011190788137112339, ,0.0010906206934533534, ,0.22069253734671382,-0.2141359371364972,0.10628929855000001,1.687165285276483,0.5148463311161796,-1.3339711207812883, ,0.1407966491965442,0.20407944421176513,0.058777902287822884,-0.1715615313588669,0.1727734787196714,-0.2432630494246542, ,1.1034939289093018
0.01672672621947054,0.021463591474582325,-0.09488664363729658, ,0.01771944231954617,0.020741041839597678,-0.09623639952071028, ,0.0018246654967899473, ,0.02534095601591555,-0.00790665553166114,-0.05766559458755998,0.007724794411029601,-0.00813627326550626,0.08560720225036451, ,0.0634822814069701, ,0.011190788137112339, ,0.001097355049447267, ,0.22069253734671382,-0.2141359371364972,0.10628929855000001,1.687165285276483,0.5148463311161796,-1.3339711207812883, ,0.1407966491965442,0.20407944421176513,0.058777902287822884,-0.1715615313588669,0.1727734787196714,-0.2432630494246542, ,1.1073079109191895
0.016965595191078073,0.02139231362063005,-0.09542375647351972, ,0.017816588784431223,0.02070733479028333,-0.09642020231185139, ,0.0014786109707018154, ,0.02514862611492481,-0.007558537107448048,-0.05573192930630659,-0.01433105718786879,-0.02210829441184344,0.023393892517328867, ,0.061608707362483285, ,0.02633663240145227, ,0.001100821012367763, ,0.2220131246682062,-0.2122438675823122,0.10683762922000001,1.6861168355590603,0.5163493326135995,-1.3360135051233546, ,0.13853568110725661,0.19729093879099954,0.05688861257142858,-0.09935722605185929,0.1401798432200143,-0.19949354223085927, ,1.1110200881958008
0.016965595191078073,0.02139231362063005,-0.09542375647351972, ,0.01791399122521429,0.02067351908382068,-0.09660394766375766, ,0.001675998767668857, ,0.02514862611492481,-0.007558537107448048,-0.05573192930630659,-0.01433105718786879,-0.02210829441184344,0.023393892517328867, ,0.061608707362483285, ,0.02633663240145227, ,0.001106002793947052, ,0.2220131246682062,-0.2122438675823122,0.10683762922000001,1.6861168355590603,0.5163493326135995,-1.3360135051233546, ,0.13853568110725661,0.19729093879099954,0.05688861257142858,-0.09935722605185929,0.1401798432200143,-0.19949354223085927, ,1.1146180629730225
0.016965595191078073,0.02139231362063005,-0.09542375647351972, ,0.018011643677984208,0.020639608970610363,-0.09678761992853353, ,0.0018764075386338874, ,0.02514862611492481,-0.007558537107448048,-0.05573192930630659,-0.01433105718786879,-0.02210829441184344,0.023393892517328867, ,0.061608707362483285, ,0.02633663240145227, ,0.0011128814077388989, ,0.2220131246682062,-0.2122438675823122,0.10683762922000001,1.6861168355590603,0.5163493326135995,-1.3360135051233546, ,0.13853568110725661,0.19729093879099954,0.05688861257142858,-0.09935722605185929,0.1401798432200143,-0.19949354223085927, ,1.118232011795044
0.01724764276745124,0.021303341409022507,-0.09601206821574071, ,0.018109540232286458,0.020605618576540547,-0.0969712035995062, ,0.0014661599760077354, ,0.02559910497322038,-0.008930961158614652,-0.05124447933322758,-0.09831858901243348,-0.06401243211944188,-0.02460574479161368, ,0.05797476092904764, ,0.11731915034027962, ,0.0011160077667501274, ,0.22359628490742223,-0.2100428887131582,0.10743781149000001,1.6859071456155759,0.517442424611723,-1.33747659953391, ,0.14712704117592368,0.20190838629461869,0.05222561154098361,-0.03211088593737762,0.09184833551840778,-0.10428353267861623, ,1.121932029724121
0.01724764276745124,0.021303341409022507,-0.09601206821574071, ,0.018207675030941402,0.02057156190336867,-0.09715468331080195, ,0.0016621469391419092, ,0.02559910497322038,-0.008930961158614652,-0.05124447933322758,-0.09831858901243348,-0.06401243211944188,-0.02460574479161368, ,0.05797476092904764, ,0.11731915034027962, ,0.0011207984612447923, ,0.22359628490742223,-0.2100428887131582,0.10743781149000001,1.6859071456155759,0.517442424611723,-1.33747659953391, ,0.14712704117592368,0.20190838629461869,0.05222561154098361,-0.03211088593737762,0.09184833551840778,-0.10428353267861623, ,1.1258409023284912
0.01724764276745124,0.021303341409022507,-0.09601206821574071, ,0.018306042269862932,0.020537452829103017,-0.09733804383691956, ,0.0018614527046146123, ,0.024992523378336018,-0.00857092578917198,-0.050085091536362945,0.01968579245868162,0.03478398094829488,-0.06369354656075178, ,0.05662687866999223, ,0.0399642413560046, ,0.0011272389329262688, ,0.2250713268863991,-0.20805814636448253,0.10794595717000001,1.6856974556720912,0.5189454261091428,-1.339192268915414, ,0.1496797185464839,0.19606806107122063,0.0515495518446602,0.0,0.18870255731845262,-0.20798037664570032, ,1.1299591064453125
0.017496491040753816,0.02121387415397966,-0.0965083088103269, ,0.018404636197877265,0.020503305108384783,-0.09752127009230567, ,0.001534837631071265, ,0.024992523378336018,-0.00857092578917198,-0.050085091536362945,0.01968579245868162,0.03478398094829488,-0.06369354656075178, ,0.05662687866999223, ,0.0399642413560046, ,0.001130752714806829, ,0.2250713268863991,-0.20805814636448253,0.10794595717000001,1.6856974556720912,0.5189454261091428,-1.339192268915414, ,0.1496797185464839,0.19606806107122063,0.0515495518446602,0.0,0.18870255731845262,-0.20798037664570032, ,1.1337440013885498
0.017496491040753816,0.02121387415397966,-0.0965083088103269, ,0.01850345111654134,0.020469132372869448,-0.09770434713092958, ,0.0017317957671478769, ,0.024992523378336018,-0.00857092578917198,-0.050085091536362945,0.01968579245868162,0.03478398094829488,-0.06369354656075178, ,0.05662687866999223, ,0.0399642413560046, ,0.001135889834912308, ,0.2250713268863991,-0.20805814636448253,0.10794595717000001,1.6856974556720912,0.5189454261091428,-1.339192268915414, ,0.1496797185464839,0.19606806107122063,0.0515495518446602,0.0,0.18870255731845262,-0.20798037664570032, ,1.1372969150543213
0.01774113986824981,0.02112443475413347,-0.09699687192230434, ,0.01860248137996147,0.020434948131608642,-0.09788726014585811, ,0.0014177772007906075, ,0.02413666498712983,-0.009714066288681687,-0.047280172378138925,0.013753139738087838,0.012801829092865607,0.0868774032036402, ,0.05396625223849042, ,0.01878295551896476, ,0.0011382787108943277, ,0.2265540915982502,-0.20614290861167484,0.10844891769000001,1.6846490059546686,0.5209949736056244,-1.3415986461321252, ,0.14758466805360929,0.19209907198071008,0.04856344975609757,-0.16398335962810628,0.198125569992049,-0.2350058725381893, ,1.1408610343933105
0.01774113986824981,0.02112443475413347,-0.09699687192230434, ,0.018701721394611754,0.020400765771431684,-0.09806999446882979, ,0.00161183301404759, ,0.02413666498712983,-0.009714066288681687,-0.047280172378138925,0.013753139738087838,0.012801829092865607,0.0868774032036402, ,0.05396625223849042, ,0.01878295551896476, ,0.0011422581588199855, ,0.2265540915982502,-0.20614290861167484,0.10844891769000001,1.6846490059546686,0.5209949736056244,-1.3415986461321252, ,0.14758466805360929,0.19209907198071008,0.04856344975609757,-0.16398335962810628,0.198125569992049,-0.2350058725381893, ,1.1446139812469482
0.01774113986824981,0.02112443475413347,-0.09699687192230434, ,0.018801165619152953,0.020366598557327434,-0.09825253556983052, ,0.0018096025777739019, ,0.02413666498712983,-0.009714066288681687,-0.047280172378138925,0.013753139738087838,0.012801829092865607,0.0868774032036402, ,0.05396625223849042, ,0.01878295551896476, ,0.0011478193623112682, ,0.2265540915982502,-0.20614290861167484,0.10844891769000001,1.6846490059546686,0.5209949736056244,-1.3415986461321252, ,0.14758466805360929,0.19209907198071008,0.04856344975609757,-0.16398335962810628,0.198125569992049,-0.2350058725381893, ,1.1483540534973145
0.017975586010066113,0.021023703937414078,-0.09744778320243574, ,0.018900808564250995,0.020332459632826337,-0.09843486905666786, ,0.001519274151370492, ,0.022964599589375946,-0.010344703502692358,-0.0432612666497223,-0.05510648651411457,-0.028544264968196766,0.015829056809267578, ,0.050059194130522684, ,0.062059232909906774, ,0.0011508892366010137, ,0.22797507444710752,-0.20422767085886717,0.10891039693000001,1.6833908662937616,0.5226346116028098,-1.3434257334173259, ,0.13773141009937706,0.1913244789485298,0.044124131634349036,-0.07870084452780762,0.1277255597678506,-0.14734875534973152, ,1.1519830226898193
0.017975586010066113,0.021023703937414078,-0.09744778320243574, ,0.01900064479239544,0.020298362020381468,-0.09861698067454565, ,0.0017157765392449033, ,0.022964599589375946,-0.010344703502692358,-0.0432612666497223,-0.05510648651411457,-0.028544264968196766,0.015829056809267578, ,0.050059194130522684, ,0.062059232909906774, ,0.0011555194603931767, ,0.22797507444710752,-0.20422767085886717,0.10891039693000001,1.6833908662937616,0.5226346116028098,-1.3434257334173259, ,0.13773141009937706,0.1913244789485298,0.044124131634349036,-0.07870084452780762,0.1277255597678506,-0.14734875534973152, ,1.1556010246276855
0.017975586010066113,0.021023703937414078,-0.09744778320243574, ,0.019100668917718236,0.020264318621750734,-0.09879885630563907, ,0.0019151700020978676, ,0.022964599589375946,-0.010344703502692358,-0.0432612666497223,-0.05510648651411457,-0.028544264968196766,0.015829056809267578, ,0.050059194130522684, ,0.062059232909906774, ,0.0011616954810574427, ,0.22797507444710752,-0.20422767085886717,0.10891039693000001,1.6833908662937616,0.5226346116028098,-1.3434257334173259, ,0.13773141009937706,0.1913244789485298,0.044124131634349036,-0.07870084452780762,0.1277255597678506,-0.14734875534973152, ,1.1591758728027344
0.01820659293305321,0.020925174235606026,-0.09788788085119554, ,0.019200875605812073,0.020230342218378484,-0.09898048196866946, ,0.0016325338487817808, ,0.023798669541989628,-0.009839775819227771,-0.04655582266868732,-0.02959428842945684,-0.0015011761457061658,-0.028315542501026813, ,0.05320378261458244, ,0.029628647062739783, ,0.0011654925646681228, ,0.22933427543297105,-0.2023201558389337,0.10936020956,1.6833908662937616,0.5238643401006987,-1.344918566991437, ,0.13833373405024896,0.19366722767034852,0.047691052455089825,-0.034588634113317036,0.1468287623801973,-0.1649368217175268, ,1.1627349853515625
0.01820659293305321,0.020925174235606026,-0.09788788085119554, ,0.019301259573549053,0.020196445471776743,-0.0991618438184788, ,0.001830934817806403, ,0.023798669541989628,-0.009839775819227771,-0.04655582266868732,-0.02959428842945684,-0.0015011761457061658,-0.028315542501026813, ,0.05320378261458244, ,0.029628647062739783, ,0.001170816102693229, ,0.22933427543297105,-0.2023201558389337,0.10936020956,1.6833908662937616,0.5238643401006987,-1.344918566991437, ,0.13833373405024896,0.19366722767034852,0.047691052455089825,-0.034588634113317036,0.1468287623801973,-0.1649368217175268, ,1.166356086730957
0.01820659293305321,0.020925174235606026,-0.09788788085119554, ,0.01940181558889947,0.020162640923907932,-0.09934292814560498, ,0.0020315454406598155, ,0.025348154164304193,-0.008294747053625097,-0.052039536697723404,0.054452593819312035,0.037644910835175585,-0.04778213689459099, ,0.05847602182035518, ,0.06619548801709943, ,0.001177647287915186, ,0.23077842648045102,-0.20034313622313224,0.10988261443000001,1.682761796463308,0.5256406145976494,-1.347183787140896, ,0.1427021677570989,0.18866191164705923,0.05381355243243244,-0.028631980448867684,0.189751899315597,-0.24376778055933407, ,1.1702280044555664
0.018458858976535278,0.020829586421252447,-0.0983957275414584, ,0.019502538470750272,0.020128940997565722,-0.09952372137585622, ,0.0016889467092888152, ,0.025348154164304193,-0.008294747053625097,-0.052039536697723404,0.054452593819312035,0.037644910835175585,-0.04778213689459099, ,0.05847602182035518, ,0.06619548801709943, ,0.0011816732676110415, ,0.23077842648045102,-0.20034313622313224,0.10988261443000001,1.682761796463308,0.5256406145976494,-1.347183787140896, ,0.1427021677570989,0.18866191164705923,0.05381355243243244,-0.028631980448867684,0.189751899315597,-0.24376778055933407, ,1.1739139556884766
0.018458858976535278,0.020829586421252447,-0.0983957275414584, ,0.019603423088723627,0.020095357996757098,-0.09970421006988577, ,0.0018871260989785797, ,0.025348154164304193,-0.008294747053625097,-0.052039536697723404,0.054452593819312035,0.037644910835175585,-0.04778213689459099, ,0.05847602182035518, ,0.06619548801709943, ,0.0011871846178561005, ,0.23077842648045102,-0.20034313622313224,0.10988261443000001,1.682761796463308,0.5256406145976494,-1.347183787140896, ,0.1427021677570989,0.18866191164705923,0.05381355243243244,-0.028631980448867684,0.189751899315597,-0.24376778055933407, ,1.1776330471038818
0.018724507127208617,0.020741253954109445,-0.09893396003553624, ,0.019704464362995326,0.020061904107083958,-0.09988438092276686, ,0.0015248384378380919, ,0.02586016085225994,-0.008599649448971085,-0.05153255177489388,0.014060751504133008,0.015477170019335964,0.07443695899591789, ,0.058294989341984314, ,0.02090177277543739, ,0.001189802089328829, ,0.23229208212379904,-0.19842789847032455,0.11044001913000001,1.6812939668589162,0.527690162094131,-1.3495901643576074, ,0.1482764711851106,0.18355307844965332,0.053452387651006725,-0.14854444063495148,0.19675915925578344,-0.22437880553325182, ,1.1839489936828613
0.018724507127208617,0.020741253954109445,-0.09893396003553624, ,0.0198056572641137,0.020028591396124784,-0.10006422076356772, ,0.001718796920352537, ,0.02586016085225994,-0.008599649448971085,-0.05153255177489388,0.014060751504133008,0.015477170019335964,0.07443695899591789, ,0.058294989341984314, ,0.02090177277543739, ,0.001193871280336704, ,0.23229208212379904,-0.19842789847032455,0.11044001913000001,1.6812939668589162,0.527690162094131,-1.3495901643576074, ,0.1482764711851106,0.18355307844965332,0.053452387651006725,-0.14854444063495148,0.19675915925578344,-0.22437880553325182, ,1.1878769397735596
0.018979978013311832,0.020659743156948854,-0.09942388495421667, ,0.01990699681281795,0.019995431813816435,-0.10024371655492605, ,0.001404563017017701, ,0.026968963205224523,-0.008628026223941128,-0.05060250847921233,-0.04541902681395012,-0.06363927606492155,-0.027173410810372854, ,0.057986047263755836, ,0.07818256626084884, ,0.0011954796142044975, ,0.23374395590415323,-0.19665939264212715,0.11094816481000001,1.6806648970284628,0.5290565270917854,-1.3512760945755555, ,0.15256743015831317,0.18462439991920385,0.05257033504950496,-0.042182627561020196,0.10317592418791895,-0.15090640649812417, ,1.1914880275726318
0.018979978013311832,0.020659743156948854,-0.09942388495421667, ,0.020008478079856937,0.019962437192835938,-0.10042285539262356, ,0.0015943619197916119, ,0.026968963205224523,-0.008628026223941128,-0.05060250847921233,-0.04541902681395012,-0.06363927606492155,-0.027173410810372854, ,0.057986047263755836, ,0.07818256626084884, ,0.001198501449852885, ,0.23374395590415323,-0.19665939264212715,0.11094816481000001,1.6806648970284628,0.5290565270917854,-1.3512760945755555, ,0.15256743015831317,0.18462439991920385,0.05257033504950496,-0.042182627561020196,0.10317592418791895,-0.15090640649812417, ,1.1950609683990479
0.018979978013311832,0.020659743156948854,-0.09942388495421667, ,0.020110096185807707,0.01992961924898229,-0.1006016245051619, ,0.0017881047102030854, ,0.026968963205224523,-0.008628026223941128,-0.05060250847921233,-0.04541902681395012,-0.06363927606492155,-0.027173410810372854, ,0.057986047263755836, ,0.07818256626084884, ,0.001202934557073563, ,0.23374395590415323,-0.19665939264212715,0.11094816481000001,1.6806648970284628,0.5290565270917854,-1.3512760945755555, ,0.15256743015831317,0.18462439991920385,0.05257033504950496,-0.042182627561020196,0.10317592418791895,-0.15090640649812417, ,1.1986610889434814
0.01925389738889838,0.020570119926533507,-0.09992448837583605, ,0.02021184630089374,0.019896989581557428,-0.10078001125333556, ,0.0014500655065360862, ,0.026065372214780044,-0.008766073198343882,-0.04667896650777622,-0.08030631822493538,-0.06902553722356179,-0.052090937905486315, ,0.054177242290908874, ,0.10589337995016435, ,0.0012047788178904475, ,0.23528850247899813,-0.1947904912865648,0.11146668081000001,1.6804552070849783,0.529876346090378,-1.3523529956984368, ,0.14850851574095583,0.17837770969637368,0.0484158404863222,0.0,0.08101320733452944,-0.09242783192880683, ,1.2022318840026855
0.01925389738889838,0.020570119926533507,-0.09992448837583605, ,0.020313723644804264,0.019864559673749227,-0.10095800312980863, ,0.0016398779557319193, ,0.026065372214780044,-0.008766073198343882,-0.04667896650777622,-0.08030631822493538,-0.06902553722356179,-0.052090937905486315, ,0.054177242290908874, ,0.10589337995016435, ,0.001208001774467051, ,0.23528850247899813,-0.1947904912865648,0.11146668081000001,1.6804552070849783,0.529876346090378,-1.3523529956984368, ,0.14850851574095583,0.17837770969637368,0.0484158404863222,0.0,0.08101320733452944,-0.09242783192880683, ,1.2058398723602295
0.01925389738889838,0.020570119926533507,-0.09992448837583605, ,0.020415723486511925,0.019832340893011866,-0.101135587758688, ,0.0018332810746157886, ,0.026065372214780044,-0.008766073198343882,-0.04667896650777622,-0.08030631822493538,-0.06902553722356179,-0.052090937905486315, ,0.054177242290908874, ,0.10589337995016435, ,0.0012125994163799095, ,0.23528850247899813,-0.1947904912865648,0.11146668081000001,1.6804552070849783,0.529876346090378,-1.3523529956984368, ,0.14850851574095583,0.17837770969637368,0.0484158404863222,0.0,0.08101320733452944,-0.09242783192880683, ,1.209536075592041
0.019507280989429138,0.020478972167742412,-0.10037186563230258, ,0.020517841144092216,0.01980034449144856,-0.10131275289509938, ,0.0015385175301301935, ,0.02504693527229278,-0.009458184733136657,-0.04375219141430527,0.055978546999806846,0.025994641243601655,-0.055729043860958116, ,0.05129386394623212, ,0.06171838278344667, ,0.0012149783807138533, ,0.23679443538947192,-0.19301426272549316,0.11193334521000001,1.6804552070849783,0.5313793475877979,-1.3541503438200815, ,0.1520784319847288,0.17770962838664942,0.04577244689655173,-0.017352709620131662,0.18485623184886024,-0.2320158983566301, ,1.2131280899047852
0.019507280989429138,0.020478972167742412,-0.10037186563230258, ,0.02062007198454142,0.01976858160619252,-0.10148948642476116, ,0.0017297499196351797, ,0.02504693527229278,-0.009458184733136657,-0.04375219141430527,0.055978546999806846,0.025994641243601655,-0.055729043860958116, ,0.05129386394623212, ,0.06171838278344667, ,0.0012187086092567613, ,0.23679443538947192,-0.19301426272549316,0.11193334521000001,1.6804552070849783,0.5313793475877979,-1.3541503438200815, ,0.1520784319847288,0.17770962838664942,0.04577244689655173,-0.017352709620131662,0.18485623184886024,-0.2320158983566301, ,1.2168529033660889
0.019507280989429138,0.020478972167742412,-0.10037186563230258, ,0.020722411423595634,0.019737063259789297,-0.10166577636355978, ,0.0019238440114001942, ,0.025812430894688407,-0.00981789045846504,-0.045577888896575075,0.009558934887069395,0.025492634266191336,0.12025468353567226, ,0.05329180535519532, ,0.027222251066021958, ,0.0012237815258189443, ,0.23679443538947192,-0.19301426272549316,0.11193334521000001,1.6804552070849783,0.5313793475877979,-1.3541503438200815, ,0.1520784319847288,0.17770962838664942,0.04577244689655173,-0.017352709620131662,0.18485623184886024,-0.2320158983566301, ,1.2206389904022217
0.01976757809318869,0.020377758475204923,-0.10082897860166747, ,0.02082485492554913,0.019705800360578153,-0.10184161085712441, ,0.0016108339743284264, ,0.025812430894688407,-0.00981789045846504,-0.045577888896575075,0.009558934887069395,0.025492634266191336,0.12025468353567226, ,0.05329180535519532, ,0.027222251066021958, ,0.0012265461861654405, ,0.23837759562868793,-0.1911994205000504,0.11241167622,1.6789873774805866,0.5334288950842795,-1.3563933635565117, ,0.157374695785192,0.17573507696013105,0.04783426882882884,-0.19021275954276026,0.22318082003425924,-0.22115937557157112, ,1.2244629859924316
0.01976757809318869,0.020377758475204923,-0.10082897860166747, ,0.020927398003073038,0.01967480370307384,-0.10201697818040145, ,0.0018029616285706498, ,0.025812430894688407,-0.00981789045846504,-0.045577888896575075,0.009558934887069395,0.025492634266191336,0.12025468353567226, ,0.05329180535519532, ,0.027222251066021958, ,0.0012306342389484563, ,0.23837759562868793,-0.1911994205000504,0.11241167622,1.6789873774805866,0.5334288950842795,-1.3563933635565117, ,0.157374695785192,0.17573507696013105,0.04783426882882884,-0.19021275954276026,0.22318082003425924,-0.22115937557157112, ,1.2281649112701416
0.020042724616710007,0.020284555912312954,-0.10130715267007033, ,0.021030036217033615,0.019644083968348006,-0.10219186673722927, ,0.0014723136512879028, ,0.027374643911242957,-0.00826563389081488,-0.0469965911802893,0.01966066942858288,-0.007141914758810509,-0.019268893396516617, ,0.05501246600045834, ,0.02091218800013115, ,0.0012323362066409876, ,0.23992214220353283,-0.18954675566496637,0.11287963691000001,1.677938927763164,0.5354784425807612,-1.358636383292942, ,0.1619401733079706,0.16976197058760426,0.049777536000000004,-0.0856753507610052,0.17211487572929063,-0.21027134597602004, ,1.2317728996276855
0.020042724616710007,0.020284555912312954,-0.10130715267007033, ,0.021132765176311408,0.019613651724411568,-0.10236626505991363, ,0.0016613307633458585, ,0.027374643911242957,-0.00826563389081488,-0.0469965911802893,0.01966066942858288,-0.007141914758810509,-0.019268893396516617, ,0.05501246600045834, ,0.02091218800013115, ,0.0012353361685759868, ,0.23992214220353283,-0.18954675566496637,0.11287963691000001,1.677938927763164,0.5354784425807612,-1.358636383292942, ,0.1619401733079706,0.16976197058760426,0.049777536000000004,-0.0856753507610052,0.17211487572929063,-0.21027134597602004, ,1.235300064086914
0.020042724616710007,0.020284555912312954,-0.10130715267007033, ,0.0212355805376194,0.019583517426595934,-0.10254016180880224, ,0.0018532867405508006, ,0.027374643911242957,-0.00826563389081488,-0.0469965911802893,0.01966066942858288,-0.007141914758810509,-0.019268893396516617, ,0.05501246600045834, ,0.02091218800013115, ,0.0012396274919924785, ,0.23992214220353283,-0.18954675566496637,0.11287963691000001,1.677938927763164,0.5354784425807612,-1.358636383292942, ,0.1619401733079706,0.16976197058760426,0.049777536000000004,-0.0856753507610052,0.17211487572929063,-0.21027134597602004, ,1.238874912261963
0.02030851526242594,0.02021127362518373,-0.10176467074436299, ,0.021338478005321636,0.01955369141793467,-0.10271354577185893, ,0.001547126830240231, ,0.02879161990985256,-0.007386471761121678,-0.05004583915316536,-0.043782589395042135,-0.0315791244136267,-0.052310144079312386, ,0.058207416698009926, ,0.05398001757839367, ,0.0012417481770838421, ,0.24159025250436533,-0.187847754432637,0.11339944920000002,1.6775195478761948,0.536981444078181,-1.3602703739343054, ,0.16418155978974183,0.1667784561660295,0.052919639601328915,0.0060028110965073865,0.13394630575925365,-0.11410060597945529, ,1.2424240112304688
0.02030851526242594,0.02021127362518373,-0.10176467074436299, ,0.021441453331252,0.01952418392954556,-0.10288640586423901, ,0.001736067566890976, ,0.02879161990985256,-0.007386471761121678,-0.05004583915316536,-0.043782589395042135,-0.0315791244136267,-0.052310144079312386, ,0.058207416698009926, ,0.05398001757839367, ,0.0012451339263290966, ,0.24159025250436533,-0.187847754432637,0.11339944920000002,1.6775195478761948,0.536981444078181,-1.3602703739343054, ,0.16418155978974183,0.1667784561660295,0.052919639601328915,0.0060028110965073865,0.13394630575925365,-0.11410060597945529, ,1.2460639476776123
0.02030851526242594,0.02021127362518373,-0.10176467074436299, ,0.02154450231453253,0.019495005081012002,-0.10305873112786408, ,0.001927510543808259, ,0.02879161990985256,-0.007386471761121678,-0.05004583915316536,-0.043782589395042135,-0.0315791244136267,-0.052310144079312386, ,0.058207416698009926, ,0.05398001757839367, ,0.0012497759441350775, ,0.24159025250436533,-0.187847754432637,0.11339944920000002,1.6775195478761948,0.536981444078181,-1.3602703739343054, ,0.16418155978974183,0.1667784561660295,0.052919639601328915,0.0060028110965073865,0.13394630575925365,-0.11410060597945529, ,1.2499260902404785
0.020473310462038485,0.02016879422597687,-0.10205395557048677, ,0.021647620801392365,0.01946616488076494,-0.1032305107309967, ,0.0018047090667442564, ,0.028741164488734993,-0.0074952664902635194,-0.05109083212140114,-0.027188227137986975,-0.01385253163671552,-0.05752186144277496, ,0.05909743380880242, ,0.030508100874199577, ,0.0012535254922608151, ,0.2425247031821465,-0.18689013555623313,0.11370537364000001,1.6775195478761948,0.5378012630767736,-1.361102238836765, ,0.16138935639195712,0.16885576789763485,0.0539959712542373,0.008197175122191517,0.14873676298073885,-0.1320979267525816, ,1.2546930313110352
0.020473310462038485,0.02016879422597687,-0.10205395557048677, ,0.021750804684985865,0.01943767322646435,-0.10340173396781495, ,0.0019957544974010775, ,0.028741164488734993,-0.0074952664902635194,-0.05109083212140114,-0.027188227137986975,-0.01385253163671552,-0.05752186144277496, ,0.05909743380880242, ,0.030508100874199577, ,0.0012585068949798773, ,0.2425247031821465,-0.18689013555623313,0.11370537364000001,1.6775195478761948,0.5378012630767736,-1.361102238836765, ,0.16138935639195712,0.16885576789763485,0.0539959712542373,0.008197175122191517,0.14873676298073885,-0.1320979267525816, ,1.2583680152893066
0.02093409961796304,0.02004412994233681,-0.10287581919619218, ,0.02185404990521149,0.01940953990538112,-0.1035723902579877, ,0.0013168994988771417, ,0.027145088543900457,-0.007748829101802072,-0.046762646003848544,-0.005322671202141575,-0.004901977498289678,-0.00834126592803583, ,0.05462275391983072, ,0.007220567843025223, ,0.0012588961790058592, ,0.2425247031821465,-0.18689013555623313,0.11370537364000001,1.6775195478761948,0.5378012630767736,-1.361102238836765, ,0.16138935639195712,0.16885576789763485,0.0539959712542373,0.008197175122191517,0.14873676298073885,-0.1320979267525816, ,1.2624390125274658
0.02093409961796304,0.02004412994233681,-0.10287581919619218, ,0.021957352448530486,0.019381774594778772,-0.10374246914624889, ,0.001495607935802803, ,0.027145088543900457,-0.007748829101802072,-0.046762646003848544,-0.005322671202141575,-0.004901977498289678,-0.00834126592803583, ,0.05462275391983072, ,0.007220567843025223, ,0.0012604638065343158, ,0.24511181869501172,-0.18417945631738034,0.11457518423000002,1.6771001679892257,0.5405339930720824,-1.363820669351537, ,0.15506036202364507,0.15842561195070248,0.04962246579439253,-0.046746554076443854,0.16159384015123623,-0.15727520263769956, ,1.2661709785461426
0.02093409961796304,0.02004412994233681,-0.10287581919619218, ,0.022060708347785278,0.019354386862295195,-0.10391196030197289, ,0.0016788630491095574, ,0.027145088543900457,-0.007748829101802072,-0.046762646003848544,-0.005322671202141575,-0.004901977498289678,-0.00834126592803583, ,0.05462275391983072, ,0.007220567843025223, ,0.0012632164331302055, ,0.24511181869501172,-0.18417945631738034,0.11457518423000002,1.6771001679892257,0.5405339930720824,-1.363820669351537, ,0.15506036202364507,0.15842561195070248,0.04962246579439253,-0.046746554076443854,0.16159384015123623,-0.15727520263769956, ,1.269784927368164
0.021203392623130753,0.019959303217295065,-0.10331887225309826, ,0.02216411368201778,0.01932738616632386,-0.10408085351874835, ,0.0013794635049536024, ,0.026967224173185294,-0.008749558113771871,-0.042993787843845596,-0.032443439962966725,-0.034579497789061796,0.05749127682964183, ,0.05150001689276136, ,0.047414887553291804, ,0.0012639762179133649, ,0.2466872562013535,-0.18261174154391277,0.11504573750000001,1.6758420283283186,0.5420369945695022,-1.365291302512619, ,0.16002856923856792,0.1568544488569765,0.04577244689655173,-0.11481617318212091,0.14880243477108523,-0.14535077032945792, ,1.2733869552612305
0.021203392623130753,0.019959303217295065,-0.10331887225309826, ,0.0222675645762887,0.019300781856396464,-0.10424913871395435, ,0.001559329348419204, ,0.026967224173185294,-0.008749558113771871,-0.042993787843845596,-0.032443439962966725,-0.034579497789061796,0.05749127682964183, ,0.05150001689276136, ,0.047414887553291804, ,0.0012658940953841822, ,0.2466872562013535,-0.18261174154391277,0.11504573750000001,1.6758420283283186,0.5420369945695022,-1.365291302512619, ,0.16002856923856792,0.1568544488569765,0.04577244689655173,-0.11481617318212091,0.14880243477108523,-0.14535077032945792, ,1.2769238948822021
0.021203392623130753,0.019959303217295065,-0.10331887225309826, ,0.02237105720149543,0.019274583173563772,-0.10441680592833355, ,0.0017429114897408368, ,0.026967224173185294,-0.008749558113771871,-0.042993787843845596,-0.032443439962966725,-0.034579497789061796,0.05749127682964183, ,0.05150001689276136, ,0.047414887553291804, ,0.0012689716269606768, ,0.2466872562013535,-0.18261174154391277,0.11504573750000001,1.6758420283283186,0.5420369945695022,-1.365291302512619, ,0.16002856923856792,0.1568544488569765,0.04577244689655173,-0.11481617318212091,0.14880243477108523,-0.14535077032945792, ,1.2805960178375244
0.021416621638792564,0.019894242743933054,-0.1036532957079768, ,0.02247458777419093,0.01924879925077783,-0.10458384532556901, ,0.0015497781251866966, ,0.027483279807087365,-0.008433416335617387,-0.0425917637178492,0.011701959493485384,-0.01590797846277737,-0.014352933629985232, ,0.05138590776313687, ,0.019744859418531, ,0.0012707716686159716, ,0.24796150712560056,-0.18139154974978527,0.11540351354000002,1.6756323383848342,0.5432667230673912,-1.3663757423860277, ,0.1650381592321231,0.15556875665323078,0.04564129375358167,-0.045633533325649206,0.15996427654532966,-0.17226151046080485, ,1.2843101024627686
0.021416621638792564,0.019894242743933054,-0.1036532957079768, ,0.022578152556402283,0.01922343911327339,-0.10475024719185674, ,0.0017327533412046514, ,0.027483279807087365,-0.008433416335617387,-0.0425917637178492,0.011701959493485384,-0.01590797846277737,-0.014352933629985232, ,0.05138590776313687, ,0.019744859418531, ,0.0012737142270401033, ,0.24796150712560056,-0.18139154974978527,0.11540351354000002,1.6756323383848342,0.5432667230673912,-1.3663757423860277, ,0.1650381592321231,0.15556875665323078,0.04564129375358167,-0.045633533325649206,0.15996427654532966,-0.17226151046080485, ,1.2881278991699219
0.021754910714991024,0.01979430116486997,-0.10416666492441358, ,0.022681747855449404,0.01919851167894993,-0.1049160019354823, ,0.0019180753571839094, ,0.02725795747690632,-0.00804048883906816,-0.04059576166364532,-0.028984350736239246,-0.024751181281121276,-0.02007668874555059, ,0.04955463219150665, ,0.03811303328387763, ,0.0012777924620410136, ,0.2500003086043958,-0.17951492566134872,0.11595573308000001,1.6756323383848342,0.5451796340641073,-1.3682623079983398, ,0.16475163465012285,0.1480451506372399,0.04376047120879121,-0.02367462461068222,0.1468469373614839,-0.11716241952515277, ,1.2927088737487793
0.021754910714991024,0.01979430116486997,-0.10416666492441358, ,0.022785370023763355,0.019174025758753092,-0.10508110008639458, ,0.001510887034803142, ,0.02725795747690632,-0.00804048883906816,-0.04059576166364532,-0.028984350736239246,-0.024751181281121276,-0.02007668874555059, ,0.04955463219150665, ,0.03811303328387763, ,0.0012792584656432912, ,0.2500003086043958,-0.17951492566134872,0.11595573308000001,1.6756323383848342,0.5451796340641073,-1.3682623079983398, ,0.16475163465012285,0.1480451506372399,0.04376047120879121,-0.02367462461068222,0.1468469373614839,-0.11716241952515277, ,1.2963409423828125
0.021754910714991024,0.01979430116486997,-0.10416666492441358, ,0.02288901545870511,0.019149990057056553,-0.10524553229578103, ,0.0016927153270316464, ,0.02725795747690632,-0.00804048883906816,-0.04059576166364532,-0.028984350736239246,-0.024751181281121276,-0.02007668874555059, ,0.04955463219150665, ,0.03811303328387763, ,0.0012818425710269684, ,0.2500003086043958,-0.17951492566134872,0.11595573308000001,1.6756323383848342,0.5451796340641073,-1.3682623079983398, ,0.16475163465012285,0.1480451506372399,0.04376047120879121,-0.02367462461068222,0.1468469373614839,-0.11716241952515277, ,1.299912929534912
0.02202468319748799,0.01971396501388187,-0.10457340924450113, ,0.02299268060238403,0.01912641317204352,-0.10540928933564207, ,0.0014074557433535482, ,0.027301916032644456,-0.007900463664531981,-0.041722711248604404,0.009447240210234137,0.018003213132343526,-0.024519841178126344, ,0.05048362684180465, ,0.020328295478156466, ,0.0012826227770662637, ,0.2516375279737314,-0.1780553291481203,0.11639517539000001,1.6750032685543808,0.5469559085610581,-1.3697107407463933, ,0.16418155978974183,0.14781455071412894,0.04512411195467422,-0.022342806502490594,0.18942603949228334,-0.15439458047989962, ,1.3034229278564453
0.02202468319748799,0.01971396501388187,-0.10457340924450113, ,0.023096361941476524,0.019103303596088732,-0.10557236209836617, ,0.0015872332852303276, ,0.027301916032644456,-0.007900463664531981,-0.041722711248604404,0.009447240210234137,0.018003213132343526,-0.024519841178126344, ,0.05048362684180465, ,0.020328295478156466, ,0.0012845030888450544, ,0.2516375279737314,-0.1780553291481203,0.11639517539000001,1.6750032685543808,0.5469559085610581,-1.3697107407463933, ,0.16418155978974183,0.14781455071412894,0.04512411195467422,-0.022342806502490594,0.18942603949228334,-0.15439458047989962, ,1.3070240020751953
0.02202468319748799,0.01971396501388187,-0.10457340924450113, ,0.02320005600704458,0.019080669716139885,-0.10573474159630478, ,0.0017695358167985303, ,0.027301916032644456,-0.007900463664531981,-0.041722711248604404,0.009447240210234137,0.018003213132343526,-0.024519841178126344, ,0.05048362684180465, ,0.020328295478156466, ,0.0012874787497527444, ,0.2516375279737314,-0.1780553291481203,0.11639517539000001,1.6750032685543808,0.5469559085610581,-1.3697107407463933, ,0.16418155978974183,0.14781455071412894,0.04512411195467422,-0.022342806502490594,0.18942603949228334,-0.15439458047989962, ,1.3105769157409668
