NicholasDascanio/dvrk_moveit_final/test/execution/third_experiment_notsharpbends/thirdexp_300vel5.0/thirdexp_300vel5.0_10.csv
Current Position (x),Current Position (y),Current Position (z), ,Planned Position (x),Planned Position (y),Planned Position (z), ,Position Error,,Cartesian linear Velocity(x),Cartesian linear Velocity(y),Cartesian linear Velocity(z),Cartesian Angular Velocity(x),Cartesian Angular Velocity(y),Cartesian Angular Velocity(z), ,Total Linear Velocity, ,Total Angular Velocity, ,MSE, ,Joint 1 Position,Joint 2 Position,Joint 3 Position,Joint 4 Position,Joint 5 Position,Joint 6 Position, ,Joint 1 Velocity,Joint 2 Velocity,Joint 3 Velocity,Joint 4 Velocity,Joint 5 Velocity,Joint 6 Velocity, ,Time Stamp
0.009992143797825592,0.020445347939833085,-0.07884222945358217, ,0.010164591801296162,0.020410113548575515,-0.07901759492042769, ,0.0002484609087768605, ,0.00014245930479181247,8.546790903489059e-05,-0.00043080724057036616,0.20376549344576164,0.0005341945384804757,-0.06594992458152805, ,0.0004617296779766449, ,0.2037661936705882, ,2.0705075731405043e-05, ,0.17867314777805826,-0.24584547831806305,0.08948549128000001,1.6934559835810188,0.48109711567411584,-1.2926471914845172, ,0.0008084202740962851,0.0002598318858596407,0.00045314880858273615,-0.0010357054230221681,0.0,-0.21488288315240345, ,0.035871028900146484
0.010038102199030157,0.020458601227288944,-0.07891456086493281, ,0.010208009400785496,0.020431064781324972,-0.0791856523247447, ,0.00032111881391097975, ,0.0017735717961740657,0.0008046558855884495,-0.004037089153270789,0.09674283596734425,-0.11626583093818531,-0.06549118445609992, ,0.0044823115511812535, ,0.15125118099928608, ,2.5889987394901833e-05, ,0.17868087051093248,-0.24581458738656614,0.0895477132,1.6934559835810188,0.4771346571809181,-1.298727448653345, ,0.0007841429336265222,0.0016938146991348228,0.0037488377312308785,-0.001001144099036013,-0.12046111038956288,-0.11840613385546117, ,0.07144403457641602
0.01011855350757843,0.020497878949977583,-0.0791156674014787, ,0.010252413791153214,0.02045116438773791,-0.07935507026114773, ,0.0002782347121796192, ,0.0016813419864524178,0.0010903523337623753,-0.005841047007665507,-0.12743429111613228,-0.07464400089118388,0.017589453633697964, ,0.00617524163356439, ,0.1476862397602264, ,2.6494201089608107e-05, ,0.1786885932438067,-0.24571419185920124,0.0897421567,1.6934559835810188,0.4718058336900659,-1.3054087803281607, ,0.0,0.004052788169589351,0.005811313943816127,-0.0009602758156085753,-0.07667583742498607,0.1231191524894969, ,0.10981297492980957
0.010127706103494298,0.020527017007967076,-0.07926718769023205, ,0.010297794265819771,0.020470424331172344,-0.07952582012684874, ,0.00031467991880692285, ,4.85095500724547e-06,0.0004037540631720364,-0.002960710506500064,0.003400617215937317,0.0787311743839512,0.021243275736944, ,0.0029881177317154484, ,0.07880458119359536, ,2.76784369922472e-05, ,0.17871176144242937,-0.24558290540033942,0.08990548924000001,1.6934559835810188,0.4742652906858438,-1.3003082522024672, ,0.0019286244724170912,0.0047862715243655405,0.0032641007213114756,-0.0009242268580411497,0.08400732077808831,-0.0018467273107116156, ,0.14608001708984375
0.010151081004403427,0.020544907048680967,-0.07938733323130275, ,0.010344140179145986,0.02048885651117527,-0.07969787350463743, ,0.00036993076253501476, ,0.001174407366520068,0.0008165349751640747,-0.005058532510611899,0.05516398695802583,-0.003077210197723867,-0.019641780606772793, ,0.00525687294778182, ,0.055249748202086606, ,3.0047551298223475e-05, ,0.17877354330542317,-0.2454284507428549,0.09002993308000001,1.6934559835810188,0.47467520018514014,-1.301295935834681, ,0.0032104685949188552,0.005589631757011172,0.005214013590834698,-0.0008938691853206217,0.0,-0.0638696397241386, ,0.1780869960784912
0.01019429236110456,0.020572399899481335,-0.0795652198119908, ,0.010391440946285791,0.0205064727636205,-0.07987120216242585, ,0.0003699177620222271, ,0.001469176297850476,0.001058056987352507,-0.006504043098487102,0.009666394863413912,-0.0037093515207461654,-0.005829114450312508, ,0.006751336179574292, ,0.010353669239494743, ,3.170571463719374e-05, ,0.17889710703141076,-0.24522765968812507,0.09021270997000001,1.693246293637534,0.47453856368537467,-1.302246341552812, ,0.0036046865025751566,0.007059588056396101,0.006701224871687001,-0.0008322835108278458,0.0,-0.017595870270507956, ,0.20985794067382812
0.010247009826242454,0.02060119118627901,-0.07978412734134832, ,0.010439686043039156,0.02052328486084599,-0.08004577805279302, ,0.0003341475944265964, ,0.0011953134694725933,0.00045708982291671956,-0.004596780249666698,-0.012225925699337099,-0.004323083945009136,-0.0008095168191784628, ,0.004771592402986919, ,0.01296774120457666, ,3.2412905400843776e-05, ,0.1790592844217695,-0.2449187503731561,0.09043696814,1.6930366036940496,0.47453856368537467,-1.3021646628126713, ,0.004446139584010556,0.008477201640052978,0.004683567044986769,0.0006036828957877427,0.0,0.0041879713088743544, ,0.24287009239196777
0.010284487740060183,0.02061339384572371,-0.07992221250116961, ,0.010488865005704886,0.02053930451179163,-0.08022157331252909, ,0.0003699678249425342, ,0.001420926326438293,0.0007123647589478863,-0.005529640771563269,-0.007974322489627317,-0.004980390671736842,-0.0020442239133404536, ,0.005753557355018817, ,0.009401813933585912, ,3.34161320205225e-05, ,0.17919829361350553,-0.24464845472255825,0.09057696746,1.6930366036940496,0.4744019271856092,-1.3019715661688342, ,0.005122644414896214,0.008251027660393052,0.0056726536752136755,0.0005862823849485076,0.0,-4.5340585071887385e-05, ,0.27547502517700195
0.01032838797581051,0.02063774027050922,-0.08010781020823723, ,0.010538967430933315,0.020554543362137103,-0.08039856026218013, ,0.00036851190801695137, ,0.001512384956359308,0.0008613439365823075,-0.006293652492313745,-0.008247272462549063,-0.004291193890689631,-0.0021418624507684187, ,0.006529876210719163, ,0.009296872495874194, ,3.419505983468628e-05, ,0.17933730280524157,-0.2443781590719604,0.09076752209000001,1.6930366036940496,0.47453856368537467,-1.3020829840725308, ,0.004538115969389613,0.008717346097514497,0.006456753757600325,0.0005702413898940833,0.00011183692886019773,-0.00023405876804620285, ,0.30812501907348633
0.010369904386756645,0.02066250362284014,-0.08028902225356925, ,0.01058998297557942,0.02056901299443898,-0.08057671140559229, ,0.000374085726871267, ,0.001396059342737461,0.0007664100297181633,-0.005760405430601515,-0.004331898914142504,-0.0006164605017924972,-0.0014374814453928222, ,0.0059765070690998585, ,0.004375541727609217, ,3.525322034198919e-05, ,0.1794685892641034,-0.24411558615423676,0.09095418785,1.693246293637534,0.47481183668490556,-1.3023874986200643, ,0.004691153691164367,0.008218392375778087,0.005921491271375466,-4.192216413677192e-05,0.004222348370903298,-0.003606724351375801, ,0.3365650177001953
0.010410039411474874,0.020679962246667526,-0.08045799505400326, ,0.010641901356555194,0.020582724928269253,-0.08075599942945667, ,0.00038989955816221765, ,0.0012848722895941998,0.0006295677053926474,-0.005695641534174309,-0.006261811519269037,0.0004899106685943895,0.004424220608884191, ,0.0058726131136021455, ,0.006280946582490674, ,3.6300538744186315e-05, ,0.1795998757229652,-0.24383756777076468,0.09112659442000001,1.6928269137505652,0.47494847318467104,-1.3026622740040419, ,0.0036553960579980504,0.0092667586271272,0.00581768134404675,-0.0059629506976645475,0.0057782285174627,-0.0036168836177666976, ,0.36562108993530273
0.010454306002150577,0.02070056613471463,-0.08063773758619934, ,0.010694712350682962,0.020595690620351964,-0.080936397202853, ,0.0003974816380000749, ,0.001448957430765627,0.000552358271528954,-0.005542754060441954,0.002673542843231393,-0.0007595197314120874,0.0016486916359453264, ,0.005755579890058269, ,0.0027793337916623534, ,3.726519935721861e-05, ,0.1797543303804497,-0.24354410392154413,0.0913106676,1.6928269137505652,0.4750851096844364,-1.3029370493880192, ,0.006075322580386019,0.009756739919573099,0.0056766969066286525,-0.0059629506976645475,0.006938161808647067,-0.013411327234127385, ,0.3944098949432373
0.010506384676733843,0.020723553049941716,-0.08083200676141468, ,0.010748405794547751,0.020607921464701563,-0.08111787777679445, ,0.0003920039826421503, ,0.0018396912876754879,0.0007473037977868526,-0.006799039756455583,-0.012514655234646847,-0.003958606757157987,0.0047766649861099636, ,0.007083069151857783, ,0.013125819919944721, ,3.805412698565895e-05, ,0.17997056690092797,-0.24323519460657517,0.09151029626000001,1.6928269137505652,0.4752217461842019,-1.3035385397325592, ,0.007846614281307337,0.011196971221270998,0.006977140394218134,-0.005324898319699269,0.005372760039510573,0.0010361920720346994, ,0.42298007011413574
0.010524402381184988,0.02073003271389724,-0.0808994001203556, ,0.01080297158435037,0.02061942879276061,-0.08130041438377245, ,0.0005006460504056247, ,0.0017625123502373451,0.0006330597475655603,-0.006580816769674133,0.0026133934459815758,-0.0033593340642133792,-0.0005668027597367366, ,0.006842102292771662, ,0.004256164742594151, ,3.991339017221461e-05, ,0.180040071496796,-0.24311163088058757,0.09157899963,1.6928269137505652,0.4752217461842019,-1.3035385397325592, ,0.007380390887838266,0.011857671068158288,0.0067295359188846654,-0.005124837441201342,0.005372760039510573,-0.015492419767247719, ,0.44796204566955566
0.010599362496458788,0.020750342388117838,-0.08115546793240651, ,0.010858399675760097,0.02063022387353699,-0.08148398043729974, ,0.00043525760611011797, ,0.002176210913909329,0.0006064673055591506,-0.007186809920400028,-0.01633093879130205,-0.00744632930813406,0.0075444878294139775, ,0.007533520648839459, ,0.017948464079074845, ,4.10852990060839e-05, ,0.18041076267475878,-0.24260965324376296,0.09184085021,1.6924075338635962,0.47549501918373277,-1.3040880905005143, ,0.011038117895219227,0.013801184054460557,0.007360818632162663,-0.008347638049903038,0.00581903904679858,0.0018321198805717155, ,0.4731719493865967
0.010648270587545082,0.020770300656909137,-0.08133417630036621, ,0.010914680083767473,0.020640317913742153,-0.08166854953145626, ,0.0004468500765002528, ,0.0025026711389041266,0.0012126137083224961,-0.009583387085205107,-0.00764914608938861,0.003064282013102002,-0.007451246523707298, ,0.009978732527730731, ,0.008240095831871637, ,4.222282031649579e-05, ,0.18063472192811128,-0.24232391212741666,0.09202492339000001,1.6921978439201113,0.47576829218326366,-1.3043926050480477, ,0.01017116201055421,0.014468202707496687,0.009881396724565759,0.006803750967309755,0.012014282146830754,-0.004702933999060438, ,0.49905991554260254
0.010695748864144854,0.020789127026042093,-0.08150849265420922, ,0.010971802882537192,0.02064972205792822,-0.08185409544043225, ,0.00046376810158796973, ,0.0020789877928761085,0.0003202816143647793,-0.006571374485270653,-0.0035263268011268348,0.00042299493773861885,-0.0089818119028689, ,0.006899835735805174, ,0.0035516043095490443, ,4.336709487005021e-05, ,0.18094363124308027,-0.24188371635358588,0.09226344075000001,1.6921978439201113,0.4760415651827945,-1.3045337621153, ,0.01152361160394302,0.015935674485049667,0.006706868008421054,0.005871833955375901,0.010877612612969286,-0.010805263467139966, ,0.5241749286651611
0.010756534875804575,0.020795572149285523,-0.08169417398884717, ,0.011029758205260823,0.020658447388625895,-0.08204059211807316, ,0.00046201699968892267, ,0.0017968291861523746,0.00010432039971445639,-0.005550809691386966,0.022364716604169808,0.02452624144017689,-0.002229854613645588, ,0.0058353205653161044, ,0.03319212350388311, ,4.4395973672638336e-05, ,0.18122164962655235,-0.24154391610711998,0.09239436604000001,1.6924075338635962,0.4765881111818563,-1.3051427912103668, ,0.013165502435969863,0.015325733455825382,0.005744252261089074,-0.0016628674855400072,0.039328449247728596,-0.03645253589794841, ,0.5504970550537109
0.010801945239904845,0.02079874265633709,-0.08183014327548019, ,0.011088536244009519,0.020666504926482566,-0.08222801369742375, ,0.0005078603090302967, ,0.002178918053325772,0.00031696986585485326,-0.00757249754531585,-0.007456465982406492,0.005329087585223494,0.01127753597076817, ,0.007886118998137397, ,0.00916504416454046, ,4.590525159135375e-05, ,0.18146877707852752,-0.2412041158606541,0.09253177278000001,1.691988153976627,0.4765881111818563,-1.3053061486906476, ,0.011516619121173638,0.017867998787134395,0.007721188327678139,-0.01328918440237788,0.020706978013366073,-0.01141199466540074, ,0.5723118782043457
0.010880477192520579,0.02081683624323613,-0.08209232764583099, ,0.01114812724958698,0.02067390563039926,-0.08241633449027236, ,0.00044389880420927336, ,0.0028227155064850943,0.0007296345818439415,-0.009024563428295752,-0.001236027547667625,-0.009402305966427415,0.003890169784396968, ,0.009483819616847801, ,0.009483198918386981, ,4.692011481220406e-05, ,0.1818703591879872,-0.24064807909370994,0.09280010481,1.691988153976627,0.4769980206811526,-1.305885438622159, ,0.014680838731199068,0.017313800685727198,0.009255555793143523,-0.01091363619363849,0.008078155772491607,-0.017945165756400205, ,0.594182014465332
0.010934947473654415,0.020829170028401397,-0.08226673857900804, ,0.011208521531382088,0.020680660397668898,-0.08260552898669536, ,0.00046008348788326256, ,0.002595373146793115,0.0004027219308869376,-0.008418632903085614,0.023725954506134534,0.011224111946452887,-0.008038982282336486, ,0.008818816625921407, ,0.026246934371971443, ,4.795827062040196e-05, ,0.18216382303720774,-0.24029283338149562,0.09297899283000001,1.6917784640331426,0.4772712936806835,-1.3063533106499734, ,0.015067790021986471,0.01983631721539941,0.008638184121475054,-0.0018907882828887038,0.02750082381382147,-0.043542801195123514, ,0.6156840324401855
0.010980716266959671,0.020836587161576922,-0.08240959168480252, ,0.011269709457221774,0.02068678006411393,-0.0827955718546014, ,0.0005049157572765223, ,0.0028172751939697523,0.0006283067276268321,-0.009297023919160052,-0.010230481044141978,-0.00030856052647641285,0.009868956839058722, ,0.009734806758019009, ,0.010235129825041437, ,4.9178305078571125e-05, ,0.18239550502343446,-0.2399762013336524,0.09312417731000001,1.691568774089658,0.4772712936806835,-1.3065166681302545, ,0.014878792969343177,0.019113180575724222,0.009532502405745064,-0.012279853158991697,0.018083723607900344,-0.009825345043803103, ,0.6369049549102783
0.011048103842990703,0.020851593478949142,-0.08262895608951729, ,0.011331681453223719,0.020692275404223553,-0.08298643793927524, ,0.0004833133381835253, ,0.00305037978939346,0.0005385570685831365,-0.009544065643620583,-0.006797411837146987,-0.008044471957561125,0.005093958246253407, ,0.010034144187991307, ,0.010531773714354419, ,5.0475692033711396e-05, ,0.18276619620139725,-0.23951283736119894,0.09334973177000001,1.691568774089658,0.4778178396797452,-1.3071256972253213, ,0.01634744901954708,0.020774286680926176,0.009754324262094306,-0.011220070718965577,0.011286930202325992,-0.015491294892475692, ,0.6554388999938965
0.011080334995515143,0.020858469956600043,-0.08273143691453752, ,0.011394428003649135,0.02069715713129222,-0.08317810226292295, ,0.0005693734967626519, ,0.0030261914562782505,0.0006754840349727263,-0.0103809955749693,0.01654062602413048,0.012327692214852705,0.002036848354592761, ,0.010834167367134712, ,0.02062920706320438, ,5.216183584538211e-05, ,0.18293609632463018,-0.23929660084072066,0.09345473126,1.691568774089658,0.4779544761795107,-1.3074004726092987, ,0.016169184112876264,0.021715547267384616,0.010668996329537843,-0.010276433495728514,0.03186686660210617,-0.039152052793090725, ,0.6731579303741455
0.01114880883871439,0.02087428251040117,-0.08295201158704014, ,0.011457939650755557,0.0207014358975565,-0.08337054002421435, ,0.0005482735295895535, ,0.0034709954669208246,0.0009231013910816281,-0.011585817754902574,-0.002731861357378415,-0.004260906676102472,-0.004729942973656278, ,0.01212976086983653, ,0.005061440844763195, ,5.365128843793466e-05, ,0.18327589657109605,-0.23885640506688985,0.09368028572,1.6913590841461734,0.4780911126792762,-1.3075935692531357, ,0.01687056738817258,0.02247145194375344,0.011878308366890382,-0.002013912729146463,0.01346323191894075,-0.019631763219929176, ,0.6917989253997803
0.011217456208880566,0.020887018554769765,-0.08317706812860573, ,0.01152220699464962,0.02070512229433351,-0.08356372659782957, ,0.0005248467041051816, ,0.0034330945984845707,0.0004036593349517188,-0.010553325086006394,0.018229344558040837,-0.0022825309266399155,0.0010283181411801837, ,0.01110503263172916, ,0.01837168526686516, ,5.494719885164935e-05, ,0.18364658774905884,-0.23837759562868793,0.09391102534000001,1.6909397042592043,0.4786376586783379,-1.3085293133087648, ,0.019382545252955633,0.024835629824253018,0.010784571103588356,-0.014833500402785155,0.021100563847815938,-0.04586473453562477, ,0.7095859050750732
0.011286077233725874,0.020890285262201942,-0.083377266726978, ,0.011587220693139713,0.02070822685215809,-0.08375763753400152, ,0.0005181839428727558, ,0.003489491856933091,4.605023317364624e-05,-0.009612277317066355,-0.010049575699614748,-0.031668901542469916,-0.0008630143212131692, ,0.01022616982373, ,0.03322518945903771, ,5.614644983004595e-05, ,0.1840404471256443,-0.23784472706036644,0.09411454287000001,1.6909397042592043,0.4789109316778688,-1.3089971853365792, ,0.019005996707084076,0.025984923756426824,0.009683168097264439,-0.012918087189684686,-0.010074621856659203,-0.01946951869555566, ,0.7275490760803223
0.011321644459774051,0.02089175718694354,-0.08347358595434021, ,0.011652971461588849,0.02071076004092084,-0.08395224855806097, ,0.0006096354953582356, ,0.003472401603697402,0.00013470072315719867,-0.009989385439906148,0.00019113379780244278,-0.010717106948430697,0.0010287510756446848, ,0.010576556086420018, ,0.01071880655681249, ,5.8006593289166974e-05, ,0.1842335154474999,-0.23758987687551705,0.09421176462000001,1.6909397042592043,0.4787742951781033,-1.3089674461730234, ,0.02007975911097562,0.02622186834995048,0.010152206195028681,-0.011871147816610117,0.012450088858379681,-0.028491896436775327, ,0.7427139282226562
0.011394249726427573,0.02089666780987872,-0.08369806458510605, ,0.01171945007276727,0.020712732270005578,-0.08414753556997998, ,0.0005844755891664088, ,0.0035605723444856233,0.0006581752806218925,-0.01261490497927988,0.037231480342069585,0.038650600903327885,-0.008471744141173188, ,0.013124278942349476, ,0.05366611369558747, ,5.967696872049276e-05, ,0.18465826575558225,-0.23701839464282443,0.09444120795000001,1.69073001431572,0.47945747767693053,-1.3098512506520679, ,0.019778437173503707,0.02831054342436479,0.01300311144489796,-0.0009307579338906888,0.06043242921758581,-0.06371286256820247, ,0.7575900554656982
0.011435454195216393,0.020903929950205312,-0.0838327829267415, ,0.01178664735670534,0.020714153888427414,-0.08434347464391714, ,0.0006481956651292416, ,0.004360421024777744,0.0009197728988588917,-0.014566666998450266,0.011583083842360016,0.0054122715688186464,0.0029159543373861257, ,0.015233090334614943, ,0.012785142118457804, ,6.158156309373588e-05, ,0.1848590568103121,-0.23673265352647813,0.09457861469,1.6905203243722353,0.479594114176696,-1.3101260260360454, ,0.022130816594792626,0.029888800490856935,0.014942599924953096,-0.014172517175445506,0.03174863067885255,-0.04316198988472931, ,0.7716350555419922
0.011483091854031327,0.020912446045118972,-0.08398379366714649, ,0.011854554200546194,0.020715035184969973,-0.08454004202776105, ,0.0006974005744688526, ,0.004883766890363296,0.0009006060160668027,-0.01564248959151127,-0.0054657436904166756,-0.012705396775899587,-0.0035282750905055713, ,0.01641187834637227, ,0.01383114329243279, ,6.364126319462131e-05, ,0.18533014351563978,-0.23610711216366592,0.09488194655000001,1.6903106344287508,0.48000402367599226,-1.3107053159675564, ,0.023933654869727813,0.03304211057049818,0.01597674174523571,-0.008305635785655248,0.01348893076525391,-0.02885483036562593, ,0.786005973815918
0.011579082510562198,0.02093203561546046,-0.08429201994901907, ,0.011923161548398438,0.02071538638832362,-0.08473721414267452, ,0.0006029304619620972, ,0.005074236365573052,0.0010875479146473254,-0.016156482498722934,0.01598543780171717,0.005688793895136458,-0.004884481626938201, ,0.016969459681790054, ,0.016967483514914325, ,6.549714910623498e-05, ,0.18559271643336342,-0.2357750346500743,0.09504916796000001,1.6903106344287508,0.48027729667552316,-1.3111731879953707, ,0.026982354722340285,0.032532376262759954,0.016627151899791234,-0.007458546649543706,0.035387611839931984,-0.04897286532456579, ,0.7970468997955322
0.011630430352510825,0.020941607334409737,-0.08445027862176498, ,0.011992460401188908,0.020715217667222834,-0.08493496758263945, ,0.0006459422778766149, ,0.005094889589817284,0.0008596546673879079,-0.016093215723444892,0.014015051410777567,0.003311360565311915,-0.006700427835029176, ,0.016902322278341642, ,0.014400892172408098, ,6.749470835315902e-05, ,0.18585528935108706,-0.23544295713648264,0.09521120421000001,1.6903106344287508,0.48041393317528863,-1.3114479633793485, ,0.0270053903125984,0.034786268899732686,0.016506540435233162,-0.006792271697511463,0.0327871760537025,-0.04930558709644163, ,0.8077518939971924
0.01168590908521321,0.02094873065951303,-0.0846228149391354, ,0.012062441816515454,0.020714539130584162,-0.08513327911399982, ,0.0006761628825837597, ,0.0055535453108317276,0.000803122196839323,-0.017098573846091102,-0.00021060539638107019,-0.01615472471681901,0.0036350360230394687, ,0.017995780015124318, ,0.016156052234599087, ,6.957224676335323e-05, ,0.18614875320030758,-0.23506454322564563,0.09538749965000001,1.6898912545417817,0.48068720617481947,-1.311915835407163, ,0.028617895524267425,0.03733160564849362,0.017465802105263162,-0.019377003387081763,0.017360534038111993,-0.0405892862997357, ,0.8183510303497314
0.01174104280165486,0.020957405846566052,-0.08480063232795533, ,0.012133096908499513,0.020713360827643405,-0.08533212567500698, ,0.000704094860025887, ,0.005199636678330772,0.0007979081888633889,-0.01695077773893657,0.039942810876531135,0.026127932869377174,0.004380843388127326, ,0.017748288509581014, ,0.04772939992630105, ,7.171674078818366e-05, ,0.18644993978240235,-0.2346784065819344,0.09557027654000001,1.6896815645982974,0.48123375217388126,-1.312688221982511, ,0.02889675443315188,0.037083603578925664,0.017446671982475355,-0.020920097269432003,0.06157292928355912,-0.0793521567013484, ,0.8295290470123291
0.01179680192636344,0.020965110418068814,-0.08497293263581968, ,0.012204416847638958,0.02071169274809423,-0.08553148437536338, ,0.0007364444889121632, ,0.0059155027698629134,0.0007552470154372737,-0.01769703061505641,0.009294922047565747,-0.004807762236938432,0.0009738864656948849, ,0.01867480826313423, ,0.01046462697796508, ,7.394449406402816e-05, ,0.18674340363162287,-0.2342999926710974,0.09574657198000001,1.6894718746548125,0.4815070251734121,-1.3130744152701848, ,0.032621843093320994,0.03954039231602949,0.01814215435079727,-0.01648015436486333,0.032470815576078234,-0.05114398469890463, ,0.8400530815124512
0.01185791604231695,0.02097263038315566,-0.08515581525115563, ,0.012276392860660687,0.020709544822225187,-0.08573133249576699, ,0.0007586547032123682, ,0.006405931448730033,0.0005961631169555554,-0.01915060066425299,0.00402450885024681,-0.030008136303093784,-0.007121064114889422, ,0.020202397728723533, ,0.030276762377631876, ,7.653248438218202e-05, ,0.18706003567946608,-0.23388296509588927,0.09593323774000001,1.6894718746548125,0.48164366167317757,-1.3135125481344434, ,0.03249895258851739,0.0448261415014033,0.019472874718826406,-0.01648015436486333,0.006242201442982731,-0.05308737502452993, ,0.8471450805664062
0.01185791604231695,0.02097263038315566,-0.08515581525115563, ,0.012349016230373438,0.020706926921057526,-0.0859316474874551, ,0.0009558731000302755, ,0.006405931448730033,0.0005961631169555554,-0.01915060066425299,0.00402450885024681,-0.030008136303093784,-0.007121064114889422, ,0.020202397728723533, ,0.030276762377631876, ,7.99056277908623e-05, ,0.18706003567946608,-0.23388296509588927,0.09593323774000001,1.6894718746548125,0.48164366167317757,-1.3135125481344434, ,0.03249895258851739,0.0448261415014033,0.019472874718826406,-0.01648015436486333,0.006242201442982731,-0.05308737502452993, ,0.8542709350585938
0.011922956557589355,0.020982252158423125,-0.08535266156100127, ,0.012422278295520393,0.020703848856483194,-0.08613240697174858, ,0.0009668678824343164, ,0.007133705476231466,0.0012628037909711946,-0.02176373581964,0.0050204417311895295,-0.011756041878296809,-0.0008896008928546487, ,0.022937842620071907, ,0.012782975907031275, ,8.326836373608145e-05, ,0.1874152813916804,-0.2334504920549327,0.09613545898,1.6894718746548125,0.48205357117247394,-1.314173516806095, ,0.03719989869011007,0.0445734812393005,0.022340549116409536,-0.01648015436486333,0.030005628960315382,-0.052042427771668974, ,0.861767053604126
0.012000026286097415,0.020996805355783046,-0.08559930873638674, ,0.012496170450631882,0.020700320381402303,-0.08633358873959647, ,0.0009344674928261717, ,0.007973492821684035,0.0017755645935159535,-0.02624441886677462,0.048661332163059165,0.033350439899012596,-0.006047103228870725, ,0.02748633731616328, ,0.058992920243858674, ,8.644163136151123e-05, ,0.1878245862340143,-0.2329485144181081,0.09638953182000001,1.6892621847113283,0.48273675367130114,-1.3153023575055611, ,0.04151222290396797,0.05112981765003813,0.027089815510204087,-0.014699637924721853,0.08044493205315718,-0.10039372397857393, ,0.8689820766448975
0.012000026286097415,0.020996805355783046,-0.08559930873638674, ,0.012570684145878128,0.020696351189861004,-0.0865351707511197, ,0.0011365565579281346, ,0.009396436904626451,0.0021513378374822794,-0.029231431903319737,-0.017696015884849682,-0.03726114068710464,0.005437718306489392, ,0.030779829306089853, ,0.04124948776345626, ,9.039111207956497e-05, ,0.1882647820078451,-0.23240020038403816,0.09668378965,1.6886331148808746,0.4831466631705974,-1.315881647437072, ,0.04480497712864532,0.05370511689783292,0.02999776180790961,-0.02556069757641795,0.013659159309518373,-0.04063424033887873, ,0.876168966293335
0.012089701168563186,0.02101464759532481,-0.08588612770810014, ,0.012645810886921911,0.02069195091718894,-0.08673713113515548, ,0.0010665823914695377, ,0.009396436904626451,0.0021513378374822794,-0.029231431903319737,-0.017696015884849682,-0.03726114068710464,0.005437718306489392, ,0.030779829306089853, ,0.04124948776345626, ,9.399192576781865e-05, ,0.1882647820078451,-0.23240020038403816,0.09668378965,1.6886331148808746,0.4831466631705974,-1.315881647437072, ,0.04480497712864532,0.05370511689783292,0.02999776180790961,-0.02556069757641795,0.013659159309518373,-0.04063424033887873, ,0.8831939697265625
0.01218481067772834,0.021034742504744516,-0.08618287741473804, ,0.012721542234771139,0.020687129140137414,-0.08693944818880145, ,0.0009906135228967769, ,0.009967173540593652,0.0019332043252521369,-0.030761493873176594,-0.0032624476148787095,-0.03979363462068521,0.033556028915668626, ,0.03239369279135932, ,0.039926800223956456, ,9.762197271975775e-05, ,0.18872814598029858,-0.231844163617094,0.0969884178,1.6882137349939055,0.4834199361701283,-1.3165945556853083, ,0.04874008297815653,0.05821898255120907,0.031542201029702975,-0.06157217051728467,0.023490446586398404,-0.06659516488922163, ,0.8867828845977783
0.01218481067772834,0.021034742504744516,-0.08618287741473804, ,0.012797869805631778,0.020681895377016684,-0.08714210037696005, ,0.0011918268670849243, ,0.009967173540593652,0.0019332043252521369,-0.030761493873176594,-0.0032624476148787095,-0.03979363462068521,0.033556028915668626, ,0.03239369279135932, ,0.039926800223956456, ,0.00010203408922929471, ,0.18872814598029858,-0.231844163617094,0.0969884178,1.6882137349939055,0.4834199361701283,-1.3165945556853083, ,0.04874008297815653,0.05821898255120907,0.031542201029702975,-0.06157217051728467,0.023490446586398404,-0.06659516488922163, ,0.8905088901519775
0.01218481067772834,0.021034742504744516,-0.08618287741473804, ,0.012874785270760119,0.02067625908783397,-0.08734506633188224, ,0.0013983055382719625, ,0.009967173540593652,0.0019332043252521369,-0.030761493873176594,-0.0032624476148787095,-0.03979363462068521,0.033556028915668626, ,0.03239369279135932, ,0.039926800223956456, ,0.0005804947753725447, ,0.18872814598029858,-0.231844163617094,0.0969884178,1.6882137349939055,0.4834199361701283,-1.3165945556853083, ,0.04874008297815653,0.05821898255120907,0.031542201029702975,-0.06157217051728467,0.023490446586398404,-0.06659516488922163, ,0.8941969871520996
0.012287664093425169,0.02105682852957655,-0.08651615204987728, ,0.012952280356315939,0.020670229674430943,-0.08754832485271204, ,0.001287071927520191, ,0.011076259618358354,0.002350875379078157,-0.036166141024788725,0.0704075006378823,0.04255808603003294,-0.03264866215111594, ,0.03789722811507641, ,0.08226995173350664, ,0.0005955283318012179, ,0.1892455690828716,-0.23120317678853336,0.09733193465000001,1.6880040450504212,0.484239755168721,-1.31775313554833, ,0.05588748030534204,0.0710306448790949,0.03730400824355972,0.0018981405587071385,0.10053113453635167,-0.13912268334933017, ,0.897942066192627
0.012287664093425169,0.02105682852957655,-0.08651615204987728, ,0.013030346843214744,0.020663816480621523,-0.08775185490503092, ,0.0014943218139656781, ,0.011076259618358354,0.002350875379078157,-0.036166141024788725,0.0704075006378823,0.04255808603003294,-0.03264866215111594, ,0.03789722811507641, ,0.08226995173350664, ,0.0006142531960129776, ,0.1892455690828716,-0.23120317678853336,0.09733193465000001,1.6880040450504212,0.484239755168721,-1.31775313554833, ,0.05588748030534204,0.0710306448790949,0.03730400824355972,0.0018981405587071385,0.10053113453635167,-0.13912268334933017, ,0.9017648696899414
0.012287664093425169,0.02105682852957655,-0.08651615204987728, ,0.013108976566980653,0.020657028792329786,-0.08795563562040135, ,0.0017048480750287154, ,0.011076259618358354,0.002350875379078157,-0.036166141024788725,0.0704075006378823,0.04255808603003294,-0.03264866215111594, ,0.03789722811507641, ,0.08226995173350664, ,0.0006365102343602375, ,0.1892455690828716,-0.23120317678853336,0.09733193465000001,1.6880040450504212,0.484239755168721,-1.31775313554833, ,0.05588748030534204,0.0710306448790949,0.03730400824355972,0.0018981405587071385,0.10053113453635167,-0.13912268334933017, ,0.9054110050201416
0.01241286021871814,0.021089482577119123,-0.08693342162071079, ,0.013188161417598961,0.020649875837727146,-0.08815964629591132, ,0.001515906655561461, ,0.013480122533485853,0.003911168591550611,-0.04583323809773165,0.08327592512689369,0.0830288576341375,-0.007384297031531286, ,0.047934295215353744, ,0.11759450943461834, ,0.000654098162784262, ,0.18986338771280958,-0.23043862623398514,0.09776359922000001,1.6882137349939055,0.4854694836666099,-1.3192459691224414, ,0.06682883208343011,0.07829780656639503,0.047548691104477625,-0.017859005681923886,0.15827114801035058,-0.15954873850470874, ,0.9089598655700684
0.01241286021871814,0.021089482577119123,-0.08693342162071079, ,0.013267893339368892,0.020642366787370872,-0.08836386639371897, ,0.0017254467292496778, ,0.013480122533485853,0.003911168591550611,-0.04583323809773165,0.08327592512689369,0.0830288576341375,-0.007384297031531286, ,0.047934295215353744, ,0.11759450943461834, ,0.0006751049974208388, ,0.18986338771280958,-0.23043862623398514,0.09776359922000001,1.6882137349939055,0.4854694836666099,-1.3192459691224414, ,0.06682883208343011,0.07829780656639503,0.047548691104477625,-0.017859005681923886,0.15827114801035058,-0.15954873850470874, ,0.9125308990478516
0.01241286021871814,0.021089482577119123,-0.08693342162071079, ,0.013348164330756125,0.020634510754341192,-0.08856827554059628, ,0.0019376636655730522, ,0.013480122533485853,0.003911168591550611,-0.04583323809773165,0.08327592512689369,0.0830288576341375,-0.007384297031531286, ,0.047934295215353744, ,0.11759450943461834, ,0.0006993849718083813, ,0.18986338771280958,-0.23043862623398514,0.09776359922000001,1.6882137349939055,0.4854694836666099,-1.3192459691224414, ,0.06682883208343011,0.07829780656639503,0.047548691104477625,-0.017859005681923886,0.15827114801035058,-0.15954873850470874, ,0.9161779880523682
0.012520616004462132,0.021121196466483486,-0.08730433285407986, ,0.013428966444245516,0.020626316794379016,-0.08877285352747301, ,0.001796262614291117, ,0.01489928316356623,0.004581221318735947,-0.05184088446986972,0.08557535785790263,0.1038767870483879,0.004744509510475465, ,0.054133663557695305, ,0.13458511930165418, ,0.0007200807763835274, ,0.19039625628113105,-0.2298208076040472,0.09814859735,1.6877943551069365,0.4868358486642643,-1.3207685418601085, ,0.0718372002713632,0.0857244277854298,0.05381355243243244,-0.028041288013126886,0.18723436836704227,-0.16951355890585082, ,0.920738935470581
0.012520616004462132,0.021121196466483486,-0.08730433285407986, ,0.013510291786193718,0.020617793906023977,-0.08897758030898135, ,0.0020081407660215316, ,0.01489928316356623,0.004581221318735947,-0.05184088446986972,0.08557535785790263,0.1038767870483879,0.004744509510475465, ,0.054133663557695305, ,0.13458511930165418, ,0.0007439337391546015, ,0.19039625628113105,-0.2298208076040472,0.09814859735,1.6877943551069365,0.4868358486642643,-1.3207685418601085, ,0.0718372002713632,0.0857244277854298,0.05381355243243244,-0.028041288013126886,0.18723436836704227,-0.16951355890585082, ,0.9264440536499023
0.012702641967246511,0.021171631497975688,-0.08791571870323206, ,0.01359213251668185,0.020608951030751787,-0.08918243600300049, ,0.0016469291008609688, ,0.017011214871633863,0.00445101465230443,-0.05593349402266069,0.0059372802149002205,-0.008547994940566014,0.10142909129884646, ,0.05863231802024329, ,0.010381331541939742, ,0.0007603518366401718, ,0.1912612023630442,-0.22882457506327222,0.09878118687000001,1.6865362154460295,0.4884754866614496,-1.3225139504051682, ,0.07842722442848825,0.09098460360351944,0.05771308521739131,-0.13576950269390578,0.10319205384299572,-0.11877034101207967, ,0.9302780628204346
0.012702641967246511,0.021171631497975688,-0.08791571870323206, ,0.01367448084936812,0.02059979705311236,-0.0893874008901995, ,0.0018539994348900988, ,0.017011214871633863,0.00445101465230443,-0.05593349402266069,0.0059372802149002205,-0.008547994940566014,0.10142909129884646, ,0.05863231802024329, ,0.010381331541939742, ,0.0007798812580374919, ,0.1912612023630442,-0.22882457506327222,0.09878118687000001,1.6865362154460295,0.4884754866614496,-1.3225139504051682, ,0.07842722442848825,0.09098460360351944,0.05771308521739131,-0.13576950269390578,0.10319205384299572,-0.11877034101207967, ,0.9338440895080566
0.012702641967246511,0.021171631497975688,-0.08791571870323206, ,0.013757329051340377,0.020590340800867083,-0.08959245541358325, ,0.0020643908824974906, ,0.017011214871633863,0.00445101465230443,-0.05593349402266069,0.0059372802149002205,-0.008547994940566014,0.10142909129884646, ,0.05863231802024329, ,0.010381331541939742, ,0.0008024165146069656, ,0.1912612023630442,-0.22882457506327222,0.09878118687000001,1.6865362154460295,0.4884754866614496,-1.3225139504051682, ,0.07842722442848825,0.09098460360351944,0.05771308521739131,-0.13576950269390578,0.10319205384299572,-0.11877034101207967, ,0.9373910427093506
0.012966430642964745,0.021229285586851516,-0.0887510235064117, ,0.013840669442968882,0.020580591045126703,-0.08979758017803537, ,0.0015100923663194377, ,0.0184995659774184,0.0028405532843614884,-0.05628093188203827,0.02766403734175772,0.011105440448801686,-0.03858668269591602, ,0.05931143210060591, ,0.029800420876502906, ,0.0008146178223951117, ,0.19250456235579436,-0.22731864215279846,0.09964192343000002,1.6859071456155759,0.48984185165910404,-1.324281559363257, ,0.09186538389009755,0.11392189862961677,0.05792295098181819,0.0,0.10534923464329576,-0.13871394133135345, ,0.9409370422363281
0.012966430642964745,0.021229285586851516,-0.0887510235064117, ,0.013924494397758915,0.020570556500489327,-0.09000275594986279, ,0.0017084040147043369, ,0.0184995659774184,0.0028405532843614884,-0.05628093188203827,0.02766403734175772,0.011105440448801686,-0.03858668269591602, ,0.05931143210060591, ,0.029800420876502906, ,0.0008297667409088274, ,0.19250456235579436,-0.22731864215279846,0.09964192343000002,1.6859071456155759,0.48984185165910404,-1.324281559363257, ,0.09186538389009755,0.11392189862961677,0.05792295098181819,0.0,0.10534923464329576,-0.13871394133135345, ,0.9445629119873047
0.012966430642964745,0.021229285586851516,-0.0887510235064117, ,0.014008796342203212,0.020560245825177424,-0.09020796365633992, ,0.0019122800668632894, ,0.0184995659774184,0.0028405532843614884,-0.05628093188203827,0.02766403734175772,0.011105440448801686,-0.03858668269591602, ,0.05931143210060591, ,0.029800420876502906, ,0.000847808629674735, ,0.19250456235579436,-0.22731864215279846,0.09964192343000002,1.6859071456155759,0.48984185165910404,-1.324281559363257, ,0.09186538389009755,0.11392189862961677,0.05792295098181819,0.0,0.10534923464329576,-0.13871394133135345, ,0.9482460021972656
0.01315455637289614,0.021249516051166636,-0.08931437364725565, ,0.014093567755634886,0.02054966762117617,-0.09041318438525307, ,0.001605900133822612, ,0.019307457196132482,0.0015939587202612952,-0.057425818138125126,0.06648359582362455,0.07977594114196372,-0.03124593291216131, ,0.06060563667362472, ,0.10384432961733046, ,0.0008602363592509298, ,0.19350079489656932,-0.22608300489292252,0.10022266135,1.6861168355590603,0.4914814896562893,-1.3259452891681762, ,0.10451205017452729,0.12911148511356568,0.05921491271375466,-0.006034602425160112,0.19040243137581286,-0.190044210461141, ,0.9518859386444092
0.01315455637289614,0.021249516051166636,-0.08931437364725565, ,0.014178801170079833,0.020538830434370853,-0.09061839938444476, ,0.0018040605792849218, ,0.019307457196132482,0.0015939587202612952,-0.057425818138125126,0.06648359582362455,0.07977594114196372,-0.03124593291216131, ,0.06060563667362472, ,0.10384432961733046, ,0.0008754593305418006, ,0.19350079489656932,-0.22608300489292252,0.10022266135,1.6861168355590603,0.4914814896562893,-1.3259452891681762, ,0.10451205017452729,0.12911148511356568,0.05921491271375466,-0.006034602425160112,0.19040243137581286,-0.190044210461141, ,0.9554948806762695
0.01315455637289614,0.021249516051166636,-0.08931437364725565, ,0.014264489170109449,0.02052774275468469,-0.09082359006135736, ,0.002007645808014497, ,0.019307457196132482,0.0015939587202612952,-0.057425818138125126,0.06648359582362455,0.07977594114196372,-0.03124593291216131, ,0.06060563667362472, ,0.10384432961733046, ,0.0008934305444699387, ,0.19350079489656932,-0.22608300489292252,0.10022266135,1.6861168355590603,0.4914814896562893,-1.3259452891681762, ,0.10451205017452729,0.12911148511356568,0.05921491271375466,-0.006034602425160112,0.19040243137581286,-0.190044210461141, ,0.9592089653015137
0.013306893768172384,0.021258566851623327,-0.08975418879507438, ,0.014350624392693207,0.020516413016216557,-0.0910287379825779, ,0.0018068319134157188, ,0.020134551283242326,0.0010544565642040156,-0.05671235688235775,0.07421736811425177,0.07489917562587327,-0.0386243095521205, ,0.06018972883453803, ,0.10543963949357571, ,0.0009077024408597165, ,0.194350295512734,-0.2250713268863991,0.10067636285,1.6859071456155759,0.4929844911537091,-1.327497601069399, ,0.1141960788910599,0.13235277762687694,0.058561807058823544,-0.0017431695721699856,0.19423489631600446,-0.20043970306004644, ,0.9630610942840576
0.013306893768172384,0.021258566851623327,-0.08975418879507438, ,0.014437199527051294,0.02050484959737833,-0.09123382487338194, ,0.0020087318716371354, ,0.020134551283242326,0.0010544565642040156,-0.05671235688235775,0.07421736811425177,0.07489917562587327,-0.0386243095521205, ,0.06018972883453803, ,0.10543963949357571, ,0.0009246413551793691, ,0.194350295512734,-0.2250713268863991,0.10067636285,1.6859071456155759,0.4929844911537091,-1.327497601069399, ,0.1141960788910599,0.13235277762687694,0.058561807058823544,-0.0017431695721699856,0.19423489631600446,-0.20043970306004644, ,0.9668068885803223
0.013555586975428522,0.021247003580416937,-0.09040112791142044, ,0.014524207314507157,0.02049306082103295,-0.09143883261727812, ,0.0016073226503298956, ,0.020979766842489672,-0.002344768813618972,-0.050961249427480565,-0.03043572930591952,-0.018040000154595743,0.10065464880582942, ,0.05516065174347052, ,0.035375577839756894, ,0.0009349850111664983, ,0.19584078295745935,-0.22338777111981817,0.10134135962000002,1.6844393160111841,0.49503403865019074,-1.3293322271051264, ,0.1303529417011961,0.14577103157983223,0.05222561154098361,-0.14172905006436162,0.14721675430123304,-0.13589477367201086, ,0.9704570770263672
0.013555586975428522,0.021247003580416937,-0.09040112791142044, ,0.014611640548340342,0.020481054954632198,-0.09164374325555195, ,0.001801671262931293, ,0.020979766842489672,-0.002344768813618972,-0.050961249427480565,-0.03043572930591952,-0.018040000154595743,0.10065464880582942, ,0.05516065174347052, ,0.035375577839756894, ,0.0009479206268644805, ,0.19584078295745935,-0.22338777111981817,0.10134135962000002,1.6844393160111841,0.49503403865019074,-1.3293322271051264, ,0.1303529417011961,0.14577103157983223,0.05222561154098361,-0.14172905006436162,0.14721675430123304,-0.13589477367201086, ,0.9740219116210938
0.013555586975428522,0.021247003580416937,-0.09040112791142044, ,0.01469949207363874,0.020468840210353882,-0.09184853898681036, ,0.002002262701390765, ,0.020979766842489672,-0.002344768813618972,-0.050961249427480565,-0.03043572930591952,-0.018040000154595743,0.10065464880582942, ,0.05516065174347052, ,0.035375577839756894, ,0.00096342565737222, ,0.19584078295745935,-0.22338777111981817,0.10134135962000002,1.6844393160111841,0.49503403865019074,-1.3293322271051264, ,0.1303529417011961,0.14577103157983223,0.05222561154098361,-0.14172905006436162,0.14721675430123304,-0.13589477367201086, ,0.9775919914245605
0.013778808487945545,0.021220474565197555,-0.0909361178669286, ,0.014787754787151629,0.020456424745240048,-0.09205320216652615, ,0.0016880823719434195, ,0.022391726649856333,-0.003233264037220268,-0.053883352671911994,-0.030090510430767915,0.001983823979018037,0.004143528756561314, ,0.05844021829067644, ,0.030148302579986675, ,0.0009739279285978894, ,0.19722315214194552,-0.2217968881477279,0.10188969029000002,1.684019936124215,0.4965370401476106,-1.3304761453056466, ,0.1375317993601026,0.1650381592321231,0.055116994878892746,-0.04395755312650136,0.15280766397880852,-0.13630623063434388, ,0.9811758995056152
0.013778808487945545,0.021220474565197555,-0.0909361178669286, ,0.014876421637141798,0.020443816661334418,-0.09225771530658165, ,0.0018853572386736462, ,0.022391726649856333,-0.003233264037220268,-0.053883352671911994,-0.030090510430767915,0.001983823979018037,0.004143528756561314, ,0.05844021829067644, ,0.030148302579986675, ,0.0009869483473132572, ,0.19722315214194552,-0.2217968881477279,0.10188969029000002,1.684019936124215,0.4965370401476106,-1.3304761453056466, ,0.1375317993601026,0.1650381592321231,0.055116994878892746,-0.04395755312650136,0.15280766397880852,-0.13630623063434388, ,0.984778881072998
0.013778808487945545,0.021220474565197555,-0.0909361178669286, ,0.01496548562323869,0.020431024005820107,-0.0924620610748133, ,0.002088046331578491, ,0.022391726649856333,-0.003233264037220268,-0.053883352671911994,-0.030090510430767915,0.001983823979018037,0.004143528756561314, ,0.05844021829067644, ,0.030148302579986675, ,0.0010024567696268521, ,0.19722315214194552,-0.2217968881477279,0.10188969029000002,1.684019936124215,0.4965370401476106,-1.3304761453056466, ,0.1375317993601026,0.1650381592321231,0.055116994878892746,-0.04395755312650136,0.15280766397880852,-0.13630623063434388, ,0.9883489608764648
0.013999235744868804,0.021188242468723594,-0.09147180318461909, ,0.015054939796290502,0.020418054771157157,-0.0926662222945557, ,0.0017704059262927975, ,0.022826898477273972,-0.003735257145472342,-0.055575205030238384,-0.00733127457626324,0.03782343595947525,-0.0152003509206965, ,0.06019653523407812, ,0.03852051059674067, ,0.0010131227301361015, ,0.1985669076620606,-0.22014422331264388,0.10243802096000001,1.684019936124215,0.4981766781447959,-1.3318948388901442, ,0.13975985501983915,0.17348618200817328,0.05688861257142858,-0.025876104151324724,0.18771821598025148,-0.1627937857037077, ,0.9919450283050537
0.013999235744868804,0.021188242468723594,-0.09147180318461909, ,0.01514477725821712,0.0204049168952206,-0.09287018194418639, ,0.001970108491458562, ,0.022826898477273972,-0.003735257145472342,-0.055575205030238384,-0.00733127457626324,0.03782343595947525,-0.0152003509206965, ,0.06019653523407812, ,0.03852051059674067, ,0.0010262321241268201, ,0.1985669076620606,-0.22014422331264388,0.10243802096000001,1.684019936124215,0.4981766781447959,-1.3318948388901442, ,0.13975985501983915,0.17348618200817328,0.05688861257142858,-0.025876104151324724,0.18771821598025148,-0.1627937857037077, ,0.9955790042877197
0.013999235744868804,0.021188242468723594,-0.09147180318461909, ,0.015234991161862766,0.020391618261437892,-0.09307392315666965, ,0.00217450913612861, ,0.022826898477273972,-0.003735257145472342,-0.055575205030238384,-0.00733127457626324,0.03782343595947525,-0.0152003509206965, ,0.06019653523407812, ,0.03852051059674067, ,0.0010417493810457633, ,0.1985669076620606,-0.22014422331264388,0.10243802096000001,1.684019936124215,0.4981766781447959,-1.3318948388901442, ,0.13975985501983915,0.17348618200817328,0.05688861257142858,-0.025876104151324724,0.18771821598025148,-0.1627937857037077, ,0.9995040893554688
0.014237825848542513,0.02114502234752384,-0.09204532228779386, ,0.015325574710848174,0.020378166698926514,-0.09327742921910048, ,0.0018136572618349678, ,0.023453969942772847,-0.0045838862136682295,-0.05473088122865152,0.00017204239596808896,0.04556722708868955,-0.028339549664662563, ,0.059720767568418855, ,0.04556216294118628, ,0.0010520414861229527, ,0.20004194964103747,-0.21832165835432688,0.10302524033,1.6836005562372458,0.5002262256412775,-1.3338111436660123, ,0.14735549931439562,0.17905083312919012,0.05608736450704226,-0.014126513510819146,0.20070103420483296,-0.17318066910345442, ,1.0032260417938232
0.014237825848542513,0.02114502234752384,-0.09204532228779386, ,0.015416521159423706,0.02036456998263171,-0.09348068357224945, ,0.0020146192063695413, ,0.023453969942772847,-0.0045838862136682295,-0.05473088122865152,0.00017204239596808896,0.04556722708868955,-0.028339549664662563, ,0.059720767568418855, ,0.04556216294118628, ,0.0010647069824419868, ,0.20004194964103747,-0.21832165835432688,0.10302524033,1.6836005562372458,0.5002262256412775,-1.3338111436660123, ,0.14735549931439562,0.17905083312919012,0.05608736450704226,-0.014126513510819146,0.20070103420483296,-0.17318066910345442, ,1.0071959495544434
0.014488780680438539,0.02108941008559537,-0.09262180919133882, ,0.015507823812321637,0.02035083583346437,-0.09368366981010652, ,0.0016466598933109124, ,0.025177414576085466,-0.005777798092047105,-0.05647479858304387,-0.04937634014181479,-0.020043600100892265,0.08773107691744314, ,0.06210223853069966, ,0.05328409136633863, ,0.0010722648124532714, ,0.2016251098802535,-0.21642186606726765,0.10361505228000001,1.6823424165763388,0.5022757731377591,-1.3356457697017396, ,0.15789840525535903,0.18754336276377626,0.05771308521739131,-0.14006680283251155,0.17170244684294014,-0.15799867254603625, ,1.0107429027557373
0.014488780680438539,0.02108941008559537,-0.09262180919133882, ,0.015599476024608934,0.02033697191843854,-0.09388637167942587, ,0.0018436175387625939, ,0.025177414576085466,-0.005777798092047105,-0.05647479858304387,-0.04937634014181479,-0.020043600100892265,0.08773107691744314, ,0.06210223853069966, ,0.05328409136633863, ,0.0010821539499700577, ,0.2016251098802535,-0.21642186606726765,0.10361505228000001,1.6823424165763388,0.5022757731377591,-1.3356457697017396, ,0.15789840525535903,0.18754336276377626,0.05771308521739131,-0.14006680283251155,0.17170244684294014,-0.15799867254603625, ,1.0143060684204102
0.014488780680438539,0.02108941008559537,-0.09262180919133882, ,0.015691471201539704,0.020322985850808852,-0.09408877307926973, ,0.002045935885043338, ,0.025177414576085466,-0.005777798092047105,-0.05647479858304387,-0.04937634014181479,-0.020043600100892265,0.08773107691744314, ,0.06210223853069966, ,0.05328409136633863, ,0.0010943537213000992, ,0.2016251098802535,-0.21642186606726765,0.10361505228000001,1.6823424165763388,0.5022757731377591,-1.3356457697017396, ,0.15789840525535903,0.18754336276377626,0.05771308521739131,-0.14006680283251155,0.17170244684294014,-0.15799867254603625, ,1.0178940296173096
0.014741046968186074,0.021033705634355623,-0.09317149765908056, ,0.015783802798407884,0.020308885190208657,-0.09429085806055176, ,0.0016928296151995797, ,0.02717283240706264,-0.006127625605454189,-0.05866483289776288,-0.029417788552707685,-0.018098532943426074,0.0009590835119363605, ,0.06494207600242984, ,0.03452923878441748, ,0.0011018346699738428, ,0.20320827011946951,-0.2145684101774538,0.10417764214000001,1.6819230366893698,0.503778774635179,-1.3371164028628222, ,0.17129411833658983,0.19811470053960498,0.06010872271698114,-0.05771165419601279,0.1690110769453543,-0.17320648281525416, ,1.021493911743164
0.014741046968186074,0.021033705634355623,-0.09317149765908056, ,0.015876464320399856,0.020294677442787592,-0.09449261082558352, ,0.001892267219593458, ,0.02717283240706264,-0.006127625605454189,-0.05866483289776288,-0.029417788552707685,-0.018098532943426074,0.0009590835119363605, ,0.06494207600242984, ,0.03452923878441748, ,0.0011115930965123564, ,0.20320827011946951,-0.2145684101774538,0.10417764214000001,1.6819230366893698,0.503778774635179,-1.3371164028628222, ,0.17129411833658983,0.19811470053960498,0.06010872271698114,-0.05771165419601279,0.1690110769453543,-0.17320648281525416, ,1.0250799655914307
0.014741046968186074,0.021033705634355623,-0.09317149765908056, ,0.015969449322446976,0.020280370061348765,-0.09469401572761664, ,0.002096317747511129, ,0.02717283240706264,-0.006127625605454189,-0.05866483289776288,-0.029417788552707685,-0.018098532943426074,0.0009590835119363605, ,0.06494207600242984, ,0.03452923878441748, ,0.0011236019337196586, ,0.20320827011946951,-0.2145684101774538,0.10417764214000001,1.6819230366893698,0.503778774635179,-1.3371164028628222, ,0.17129411833658983,0.19811470053960498,0.06010872271698114,-0.05771165419601279,0.1690110769453543,-0.17320648281525416, ,1.0286130905151367
0.015020921705685092,0.02097087429615835,-0.0937627975757452, ,0.016062751409078268,0.02026597044548717,-0.09489505727038823, ,0.0016924274240499965, ,0.027746059759022175,-0.0063787421842270466,-0.057302590112583894,-0.056285822651777444,-0.04652885470045343,-0.021912542363432513, ,0.0639853031376336, ,0.07302335460722074, ,0.001130455252880265, ,0.20497677594766694,-0.21254505416440694,0.10478430586000001,1.6819230366893698,0.5054184126323642,-1.3386167751874603, ,0.17508660804145898,0.19647399908586083,0.058777902287822884,-0.03081676367443157,0.13797640140857348,-0.1398438350819037, ,1.0323669910430908
0.015020921705685092,0.02097087429615835,-0.0937627975757452, ,0.016156364234272923,0.020251485941726807,-0.09509572010766472, ,0.0018929954612508717, ,0.027746059759022175,-0.0063787421842270466,-0.057302590112583894,-0.056285822651777444,-0.04652885470045343,-0.021912542363432513, ,0.0639853031376336, ,0.07302335460722074, ,0.0011395331125037245, ,0.20497677594766694,-0.21254505416440694,0.10478430586000001,1.6819230366893698,0.5054184126323642,-1.3386167751874603, ,0.17508660804145898,0.19647399908586083,0.058777902287822884,-0.03081676367443157,0.13797640140857348,-0.1398438350819037, ,1.035979986190796
0.015020921705685092,0.02097087429615835,-0.0937627975757452, ,0.016250281501313017,0.020236923843658577,-0.09529598904278617, ,0.0020977809343299464, ,0.027746059759022175,-0.0063787421842270466,-0.057302590112583894,-0.056285822651777444,-0.04652885470045343,-0.021912542363432513, ,0.0639853031376336, ,0.07302335460722074, ,0.0011508066162899152, ,0.20497677594766694,-0.21254505416440694,0.10478430586000001,1.6819230366893698,0.5054184126323642,-1.3386167751874603, ,0.17508660804145898,0.19647399908586083,0.058777902287822884,-0.03081676367443157,0.13797640140857348,-0.1398438350819037, ,1.039613962173462
0.015290528218849717,0.02090312926702709,-0.09431289439326199, ,0.016344496962635957,0.020222291392077887,-0.09549584902821096, ,0.0017244628129336216, ,0.027743860623956628,-0.0074702357354973865,-0.05544464482755809,-0.061519893968486616,-0.02743386250503086,-0.04755766918946794, ,0.06244705649043434, ,0.06735569913500236, ,0.001157477037181121, ,0.20668349991287055,-0.21059892548010237,0.10534819201000001,1.6817133467458854,0.5067847776300186,-1.3400576691849868, ,0.17804304232358495,0.20277124264630508,0.05688861257142858,0.0,0.1540286885939262,-0.13321032432527546, ,1.0434250831604004
0.015290528218849717,0.02090312926702709,-0.09431289439326199, ,0.016439004419687236,0.02020759577512221,-0.09569528516505918, ,0.0019271140776304903, ,0.027743860623956628,-0.0074702357354973865,-0.05544464482755809,-0.061519893968486616,-0.02743386250503086,-0.04755766918946794, ,0.06244705649043434, ,0.06735569913500236, ,0.001166323439944907, ,0.20668349991287055,-0.21059892548010237,0.10534819201000001,1.6817133467458854,0.5067847776300186,-1.3400576691849868, ,0.17804304232358495,0.20277124264630508,0.05688861257142858,0.0,0.1540286885939262,-0.13321032432527546, ,1.0470519065856934
0.015585011334186681,0.020817514764801252,-0.09490812536207631, ,0.016533797722772907,0.020192844128409018,-0.0958942827026579, ,0.0015042989448643945, ,0.027813637444847182,-0.008181169162920946,-0.05596680977560833,-0.024769523250993866,-0.018122750110875066,0.08015305487353011, ,0.06303026061539696, ,0.030682474672017075, ,0.0011701640706826286, ,0.20857556946705555,-0.2084365602753195,0.10595874460000002,1.6804552070849783,0.5086976886267348,-1.3419442347972987, ,0.1793893035131773,0.20233889458096116,0.05750473472924188,-0.14560445044074696,0.1953208818053994,-0.19965522909425087, ,1.0509529113769531
0.015585011334186681,0.020817514764801252,-0.09490812536207631, ,0.016628870770912338,0.020178043535173277,-0.09609282703808487, ,0.0017035504214142365, ,0.027813637444847182,-0.008181169162920946,-0.05596680977560833,-0.024769523250993866,-0.018122750110875066,0.08015305487353011, ,0.06303026061539696, ,0.030682474672017075, ,0.0011761571757470286, ,0.20857556946705555,-0.2084365602753195,0.10595874460000002,1.6804552070849783,0.5086976886267348,-1.3419442347972987, ,0.1793893035131773,0.20233889458096116,0.05750473472924188,-0.14560445044074696,0.1953208818053994,-0.19965522909425087, ,1.0545449256896973
0.015585011334186681,0.020817514764801252,-0.09490812536207631, ,0.016724217511690564,0.020163201026405134,-0.09629090371571272, ,0.0019073523949187635, ,0.027813637444847182,-0.008181169162920946,-0.05596680977560833,-0.024769523250993866,-0.018122750110875066,0.08015305487353011, ,0.06303026061539696, ,0.030682474672017075, ,0.001184281567071159, ,0.20857556946705555,-0.2084365602753195,0.10595874460000002,1.6804552070849783,0.5086976886267348,-1.3419442347972987, ,0.1793893035131773,0.20233889458096116,0.05750473472924188,-0.14560445044074696,0.1953208818053994,-0.19965522909425087, ,1.0581459999084473
0.015864203328033885,0.020743291868209193,-0.09546798396703926, ,0.016819831941111238,0.02014832358098744,-0.09648849842675392, ,0.001519428534488682, ,0.028670507060803714,-0.0070543959236768925,-0.056328242205085866,-0.10608024538870447,-0.09223993627387658,0.022783692876171373, ,0.06359743192052963, ,0.14057260488072038, ,0.0011879645007790438, ,0.2103286298295045,-0.2064749861252665,0.10653429736000002,1.67961644731104,0.5102006901241547,-1.3435782254386623, ,0.177046532758341,0.1924887252707318,0.05792295098181819,-0.07251726106833323,0.10172401598810425,-0.09505095707521992, ,1.0617070198059082
0.015864203328033885,0.020743291868209193,-0.09546798396703926, ,0.01691570810344875,0.020133418125833493,-0.09668559700880405, ,0.0017205202102373919, ,0.028670507060803714,-0.0070543959236768925,-0.056328242205085866,-0.10608024538870447,-0.09223993627387658,0.022783692876171373, ,0.06359743192052963, ,0.14057260488072038, ,0.0011937531497948953, ,0.2103286298295045,-0.2064749861252665,0.10653429736000002,1.67961644731104,0.5102006901241547,-1.3435782254386623, ,0.177046532758341,0.1924887252707318,0.05792295098181819,-0.07251726106833323,0.10172401598810425,-0.09505095707521992, ,1.0653800964355469
0.015864203328033885,0.020743291868209193,-0.09546798396703926, ,0.017011840091101415,0.020118491536024907,-0.0968821854453873, ,0.001925463948352061, ,0.028670507060803714,-0.0070543959236768925,-0.056328242205085866,-0.10608024538870447,-0.09223993627387658,0.022783692876171373, ,0.06359743192052963, ,0.14057260488072038, ,0.0012016210078438971, ,0.2103286298295045,-0.2064749861252665,0.10653429736000002,1.67961644731104,0.5102006901241547,-1.3435782254386623, ,0.177046532758341,0.1924887252707318,0.05792295098181819,-0.07251726106833323,0.10172401598810425,-0.09505095707521992, ,1.069282054901123
0.01613427923387512,0.020675431550817087,-0.09599119291323636, ,0.01710822204444355,0.02010355063494918,-0.09707824986549929, ,0.0015675794071290314, ,0.028874115347101298,-0.007788786332831221,-0.05520505914884148,-0.10257643075293986,-0.1019972907349743,-0.052625928528558616, ,0.06278517568059594, ,0.14465427310174733, ,0.0012055141823043773, ,0.2119890173974628,-0.2046524211669495,0.10707225771000001,1.6794067573675557,0.5110205091227473,-1.344573447821403, ,0.177046532758341,0.19852916644031546,0.05668616199288257,0.0,0.07646599126545867,-0.09097762064757207, ,1.0731499195098877
0.01613427923387512,0.020675431550817087,-0.09599119291323636, ,0.01720484815167838,0.020088602194436807,-0.09727377654315289, ,0.0017707363634957042, ,0.028874115347101298,-0.007788786332831221,-0.05520505914884148,-0.10257643075293986,-0.1019972907349743,-0.052625928528558616, ,0.06278517568059594, ,0.14465427310174733, ,0.0012114638894748122, ,0.2119890173974628,-0.2046524211669495,0.10707225771000001,1.6794067573675557,0.5110205091227473,-1.344573447821403, ,0.177046532758341,0.19852916644031546,0.05668616199288257,0.0,0.07646599126545867,-0.09097762064757207, ,1.0768730640411377
0.01642073730927514,0.020599783714343043,-0.09653885813237606, ,0.01730171264869055,0.020073652934899815,-0.09746875189692142, ,0.0013847864669601488, ,0.028352781432991248,-0.0073562351119078944,-0.054319215454179254,-0.05849653003257086,-0.057904292689466966,-0.05257179201707086, ,0.061713625542226785, ,0.08230600366775034, ,0.0012132693329902845, ,0.21374980049278597,-0.2026985697497707,0.10763614386,1.67961644731104,0.5119769646211053,-1.345516730627559, ,0.17508660804145898,0.1905561075471301,0.05608736450704226,0.0,0.1195817816703249,-0.12606591705070405, ,1.0807490348815918
0.01642073730927514,0.020599783714343043,-0.09653885813237606, ,0.017398809818898697,0.02005870952546888,-0.09766316248948327, ,0.0015853855680424908, ,0.028352781432991248,-0.0073562351119078944,-0.054319215454179254,-0.05849653003257086,-0.057904292689466966,-0.05257179201707086, ,0.061713625542226785, ,0.08230600366775034, ,0.0012171055828361836, ,0.21374980049278597,-0.2026985697497707,0.10763614386,1.67961644731104,0.5119769646211053,-1.345516730627559, ,0.17508660804145898,0.1905561075471301,0.05608736450704226,0.0,0.1195817816703249,-0.12606591705070405, ,1.0843639373779297
0.01642073730927514,0.020599783714343043,-0.09653885813237606, ,0.017496133993108065,0.020043778584131033,-0.09785699502716667, ,0.0017897219353377677, ,0.028352781432991248,-0.0073562351119078944,-0.054319215454179254,-0.05849653003257086,-0.057904292689466966,-0.05257179201707086, ,0.061713625542226785, ,0.08230600366775034, ,0.001222948606841302, ,0.21374980049278597,-0.2026985697497707,0.10763614386,1.67961644731104,0.5119769646211053,-1.345516730627559, ,0.17508660804145898,0.1905561075471301,0.05608736450704226,0.0,0.1195817816703249,-0.12606591705070405, ,1.0879440307617188
0.016665457221602557,0.020533421442645302,-0.09700867832383285, ,0.017593679549363243,0.02002886667786752,-0.09805023635949303, ,0.0014835819296761894, ,0.02797916510397945,-0.007325582368280196,-0.05329540908190646,0.00964368203031551,-0.01179811969515175,-0.054921286748319274, ,0.06063743452816879, ,0.015223871081471718, ,0.001225581266667917, ,0.21527890160188243,-0.20103818218181244,0.10812225261000001,1.6794067573675557,0.5133433296187598,-1.3469576246250856, ,0.17573507696013105,0.18643799913255554,0.055308373333333334,-0.006725526603873304,0.16858746228575816,-0.19152046396757755, ,1.0914928913116455
0.016665457221602557,0.020533421442645302,-0.09700867832383285, ,0.01769144091280045,0.02001398032279091,-0.09824287347872204, ,0.001686920060925115, ,0.02797916510397945,-0.007325582368280196,-0.05329540908190646,0.00964368203031551,-0.01179811969515175,-0.054921286748319274, ,0.06063743452816879, ,0.015223871081471718, ,0.001230194654610489, ,0.21527890160188243,-0.20103818218181244,0.10812225261000001,1.6794067573675557,0.5133433296187598,-1.3469576246250856, ,0.17573507696013105,0.18643799913255554,0.055308373333333334,-0.006725526603873304,0.16858746228575816,-0.19152046396757755, ,1.09505295753479
0.016665457221602557,0.020533421442645302,-0.09700867832383285, ,0.017789412555500525,0.019999125984283786,-0.09843489351939579, ,0.0018928383484804127, ,0.02797916510397945,-0.007325582368280196,-0.05329540908190646,0.00964368203031551,-0.01179811969515175,-0.054921286748319274, ,0.06063743452816879, ,0.015223871081471718, ,0.0012367554832626666, ,0.21527890160188243,-0.20103818218181244,0.10812225261000001,1.6794067573675557,0.5133433296187598,-1.3469576246250856, ,0.17573507696013105,0.18643799913255554,0.055308373333333334,-0.006725526603873304,0.16858746228575816,-0.19152046396757755, ,1.0986709594726562
0.01697811559753005,0.020442572929814027,-0.0975855153154918, ,0.017887588996341196,0.019984310077134936,-0.09862628375788263, ,0.001456140671764685, ,0.025155281388905666,-0.007806887698156393,-0.043640374824478356,-0.06276862165344062,-0.10342788806562866,0.04919551399926695, ,0.05097271811574908, ,0.12098375762077102, ,0.0012389063184440588, ,0.21725592121768392,-0.19896076703864604,0.10871984230000001,1.678358307650133,0.514982967615945,-1.3488663906504266, ,0.16002856923856792,0.16418155978974183,0.04512411195467422,-0.1089128951396918,0.07944644701173659,-0.12130720193608208, ,1.102396011352539
0.01697811559753005,0.020442572929814027,-0.0975855153154918, ,0.01798596480084997,0.019969538965678508,-0.09881703161192194, ,0.0016601667194084397, ,0.025155281388905666,-0.007806887698156393,-0.043640374824478356,-0.06276862165344062,-0.10342788806562866,0.04919551399926695, ,0.05097271811574908, ,0.12098375762077102, ,0.0012429962252495383, ,0.21725592121768392,-0.19896076703864604,0.10871984230000001,1.678358307650133,0.514982967615945,-1.3488663906504266, ,0.16002856923856792,0.16418155978974183,0.04512411195467422,-0.1089128951396918,0.07944644701173659,-0.12130720193608208, ,1.1099519729614258
0.017055046528508762,0.02042008674110689,-0.09771581511535932, ,0.01808453458105647,0.01995481896393072,-0.09900712464016853, ,0.0017157505773508946, ,0.02559032313633786,-0.007965801233012448,-0.043644879517774134,-0.09141727914413657,-0.1158490422080263,0.03027370249439035, ,0.05121712736601958, ,0.14757357872931, ,0.0012475419401735898, ,0.21774245338876005,-0.1984742348675699,0.10885465646,1.6781486177066482,0.5151196041157104,-1.349141166034404, ,0.16249476294258697,0.16648586238328208,0.04512411195467422,-0.08292593188445155,0.06410844065540089,-0.08887652444690944, ,1.1137418746948242
0.017055046528508762,0.02042008674110689,-0.09771581511535932, ,0.018183292995345164,0.019940156335727537,-0.09919655054173643, ,0.0019224595410215067, ,0.02559032313633786,-0.007965801233012448,-0.043644879517774134,-0.09141727914413657,-0.1158490422080263,0.03027370249439035, ,0.05121712736601958, ,0.14757357872931, ,0.0012539697268483321, ,0.21774245338876005,-0.1984742348675699,0.10885465646,1.6781486177066482,0.5151196041157104,-1.349141166034404, ,0.16249476294258697,0.16648586238328208,0.04512411195467422,-0.08292593188445155,0.06410844065540089,-0.08887652444690944, ,1.1174089908599854
0.017476453623982775,0.020289880152115098,-0.0984354468359371, ,0.018282234748308163,0.019925557294862842,-0.09938529715574364, ,0.001297778869712452, ,0.024729811089695415,-0.006579543236595198,-0.04394588686320775,-0.02910867871853802,-0.037110197669091995,-0.014227533237834374, ,0.05085366179468401, ,0.04716267637835016, ,0.001254383020648937, ,0.22044540989473863,-0.19569405103284906,0.10960261579000001,1.6781486177066482,0.5168958786126612,-1.3509163137430198, ,0.15556875665323078,0.15380379507045505,0.04590435596541788,-0.0317166874618447,0.12717779516233618,-0.1257144364085426, ,1.1210660934448242
0.017476453623982775,0.020289880152115098,-0.0984354468359371, ,0.018381354590597452,0.01991102800522575,-0.0995733524608564, ,0.0015023993875816909, ,0.024729811089695415,-0.006579543236595198,-0.04394588686320775,-0.02910867871853802,-0.037110197669091995,-0.014227533237834374, ,0.05085366179468401, ,0.04716267637835016, ,0.001256700930620271, ,0.22044540989473863,-0.19569405103284906,0.10960261579000001,1.6781486177066482,0.5168958786126612,-1.3509163137430198, ,0.15556875665323078,0.15380379507045505,0.04590435596541788,-0.0317166874618447,0.12717779516233618,-0.1257144364085426, ,1.1247010231018066
0.017476453623982775,0.020289880152115098,-0.0984354468359371, ,0.018480647318777674,0.01989657458093786,-0.09976070457483258, ,0.0017086258582519615, ,0.024729811089695415,-0.006579543236595198,-0.04394588686320775,-0.02910867871853802,-0.037110197669091995,-0.014227533237834374, ,0.05085366179468401, ,0.04716267637835016, ,0.001260885420690935, ,0.22044540989473863,-0.19569405103284906,0.10960261579000001,1.6781486177066482,0.5168958786126612,-1.3509163137430198, ,0.15556875665323078,0.15380379507045505,0.04590435596541788,-0.0317166874618447,0.12717779516233618,-0.1257144364085426, ,1.1282739639282227
0.017747061465673283,0.020226921957328302,-0.09892583321228617, ,0.0185801077751788,0.01988220308649166,-0.09994734175406789, ,0.0013624525513296502, ,0.026097198218559305,-0.005157194691774949,-0.04817670307556933,0.013981535441266922,0.0021882864743798768,-0.04477139350957068, ,0.0550332184337716, ,0.014142574104299895, ,0.0012618172292289049, ,0.2221366883941938,-0.19407999986213614,0.11011724292000001,1.677938927763164,0.5185355166098464,-1.352416686067658, ,0.16084227382791658,0.14874128770920184,0.05072869910828026,0.0,0.16639679309459732,-0.15600549593675445, ,1.1318740844726562
0.017747061465673283,0.020226921957328302,-0.09892583321228617, ,0.01867973084774879,0.01986791953688804,-0.10013325239313833, ,0.0015673595606729158, ,0.026097198218559305,-0.005157194691774949,-0.04817670307556933,0.013981535441266922,0.0021882864743798768,-0.04477139350957068, ,0.0550332184337716, ,0.014142574104299895, ,0.0012645948867874867, ,0.2221366883941938,-0.19407999986213614,0.11011724292000001,1.677938927763164,0.5185355166098464,-1.352416686067658, ,0.16084227382791658,0.14874128770920184,0.05072869910828026,0.0,0.16639679309459732,-0.15600549593675445, ,1.1354339122772217
0.017747061465673283,0.020226921957328302,-0.09892583321228617, ,0.01877951146990587,0.019853729897773054,-0.10031842502434529, ,0.0017732843200031628, ,0.026097198218559305,-0.005157194691774949,-0.04817670307556933,0.013981535441266922,0.0021882864743798768,-0.04477139350957068, ,0.0550332184337716, ,0.014142574104299895, ,0.0012691776744741144, ,0.2221366883941938,-0.19407999986213614,0.11011724292000001,1.677938927763164,0.5185355166098464,-1.352416686067658, ,0.16084227382791658,0.14874128770920184,0.05072869910828026,0.0,0.16639679309459732,-0.15600549593675445, ,1.1390209197998047
0.017990620640925915,0.02018370738926692,-0.09939635213323168, ,0.01887944462039153,0.019839640085576878,-0.10050284831726027, ,0.0014603849428186527, ,0.02643730879002974,-0.0036886760554260454,-0.05351139835565999,-0.017581982189604772,-0.012130679731476125,0.08875050718541695, ,0.05979972726592813, ,0.02135042678600748, ,0.0012708848822271907, ,0.22359628490742223,-0.19275168980776955,0.11061242570000002,1.6768904780457412,0.5201751546070318,-1.3539987371324367, ,0.15159255840011304,0.1375317993601026,0.05628555307420496,-0.13247351671778684,0.16816946281219378,-0.14169105581302371, ,1.1428000926971436
0.017990620640925915,0.02018370738926692,-0.09939635213323168, ,0.018979525323122862,0.01982565596765042,-0.10068651107826807, ,0.001664524975616176, ,0.02643730879002974,-0.0036886760554260454,-0.05351139835565999,-0.017581982189604772,-0.012130679731476125,0.08875050718541695, ,0.05979972726592813, ,0.02135042678600748, ,0.0012743684228766507, ,0.22359628490742223,-0.19275168980776955,0.11061242570000002,1.6768904780457412,0.5201751546070318,-1.3539987371324367, ,0.15159255840011304,0.1375317993601026,0.05628555307420496,-0.13247351671778684,0.16816946281219378,-0.14169105581302371, ,1.1465859413146973
0.017990620640925915,0.02018370738926692,-0.09939635213323168, ,0.019079748647045373,0.01981178336240325,-0.10086940225011194, ,0.001869332485758801, ,0.02643730879002974,-0.0036886760554260454,-0.05351139835565999,-0.017581982189604772,-0.012130679731476125,0.08875050718541695, ,0.05979972726592813, ,0.02135042678600748, ,0.0012795874058843888, ,0.22359628490742223,-0.19275168980776955,0.11061242570000002,1.6768904780457412,0.5201751546070318,-1.3539987371324367, ,0.15159255840011304,0.1375317993601026,0.05628555307420496,-0.13247351671778684,0.16816946281219378,-0.14169105581302371, ,1.150256872177124
0.018296886315010596,0.020150657104752726,-0.10002066007353182, ,0.01918010970598541,0.01979802803944181,-0.10105151091143819, ,0.0014025278129432455, ,0.026483008205907748,-0.002230700339313201,-0.05326006325950988,-0.04032889394995165,-0.06137545632517114,0.018918783765727618, ,0.05952276947559634, ,0.07343662417043885, ,0.001280656452902292, ,0.22530300887262586,-0.19121486596579887,0.11126964473,1.6762614082152878,0.521814792604217,-1.355499109457075, ,0.14465997188791277,0.12437344896260916,0.05608736450704226,-0.056910448094955164,0.0958998644870732,-0.09186284520532147, ,1.1541569232940674
0.018296886315010596,0.020150657104752726,-0.10002066007353182, ,0.019280603658502926,0.019784395719706204,-0.10123282627633923, ,0.0016034943458872377, ,0.026483008205907748,-0.002230700339313201,-0.05326006325950988,-0.04032889394995165,-0.06137545632517114,0.018918783765727618, ,0.05952276947559634, ,0.07343662417043885, ,0.0012834395381866451, ,0.22530300887262586,-0.19121486596579887,0.11126964473,1.6762614082152878,0.521814792604217,-1.355499109457075, ,0.14465997188791277,0.12437344896260916,0.05608736450704226,-0.056910448094955164,0.0958998644870732,-0.09186284520532147, ,1.1577339172363281
0.018296886315010596,0.020150657104752726,-0.10002066007353182, ,0.019381225707743865,0.01977089207560809,-0.10141333769389922, ,0.0018054263624602915, ,0.026483008205907748,-0.002230700339313201,-0.05326006325950988,-0.04032889394995165,-0.06137545632517114,0.018918783765727618, ,0.05952276947559634, ,0.07343662417043885, ,0.0012879009640351378, ,0.22530300887262586,-0.19121486596579887,0.11126964473,1.6762614082152878,0.521814792604217,-1.355499109457075, ,0.14465997188791277,0.12437344896260916,0.05608736450704226,-0.056910448094955164,0.0958998644870732,-0.09186284520532147, ,1.161336898803711
0.01857369637012472,0.02013055062402534,-0.10057842132271827, ,0.01948197110129318,0.019757522731168767,-0.10159303464773733, ,0.0014119323622023804, ,0.02704820138757619,-0.0015021694638812123,-0.055101576863816476,0.00863776563136572,-0.00802885486014997,-0.035810925063824287, ,0.06140069612211388, ,0.011771387192499363, ,0.001288952077578928, ,0.22680894178309963,-0.1899328923086776,0.11185816039000002,1.676051718271803,0.5229078846023405,-1.3563087739465056, ,0.14758466805360929,0.12244766652705909,0.05834729494505495,0.0,0.14227427202408438,-0.12519333799666485, ,1.1649010181427002
0.01857369637012472,0.02013055062402534,-0.10057842132271827, ,0.01958283513102695,0.01974429326215629,-0.10177190675555312, ,0.0016099575356953687, ,0.02704820138757619,-0.0015021694638812123,-0.055101576863816476,0.00863776563136572,-0.00802885486014997,-0.035810925063824287, ,0.06140069612211388, ,0.011771387192499363, ,0.0012916496024370494, ,0.22680894178309963,-0.1899328923086776,0.11185816039000002,1.676051718271803,0.5229078846023405,-1.3563087739465056, ,0.14758466805360929,0.12244766652705909,0.05834729494505495,0.0,0.14227427202408438,-0.12519333799666485, ,1.1684770584106445
0.01857369637012472,0.02013055062402534,-0.10057842132271827, ,0.019683813132965394,0.019731209196223305,-0.1019499437686697, ,0.001809117636542028, ,0.02704820138757619,-0.0015021694638812123,-0.055101576863816476,0.00863776563136572,-0.00802885486014997,-0.035810925063824287, ,0.06140069612211388, ,0.011771387192499363, ,0.001295961836054591, ,0.22680894178309963,-0.1899328923086776,0.11185816039000002,1.676051718271803,0.5229078846023405,-1.3563087739465056, ,0.14758466805360929,0.12244766652705909,0.05834729494505495,0.0,0.14227427202408438,-0.12519333799666485, ,1.1720619201660156
0.01857369637012472,0.02013055062402534,-0.10057842132271827, ,0.019784900487125296,0.019718276013044753,-0.10212713557157893, ,0.002008855791868192, ,0.02704820138757619,-0.0015021694638812123,-0.055101576863816476,0.00863776563136572,-0.00802885486014997,-0.035810925063824287, ,0.06140069612211388, ,0.011771387192499363, ,0.0013018535216398272, ,0.22680894178309963,-0.1899328923086776,0.11185816039000002,1.676051718271803,0.5229078846023405,-1.3563087739465056, ,0.14758466805360929,0.12244766652705909,0.05834729494505495,0.0,0.14227427202408438,-0.12519333799666485, ,1.1756808757781982
0.01857369637012472,0.02013055062402534,-0.10057842132271827, ,0.01988609261737257,0.019705499144455428,-0.10230347218148524, ,0.002208812607580702, ,0.02704820138757619,-0.0015021694638812123,-0.055101576863816476,0.00863776563136572,-0.00802885486014997,-0.035810925063824287, ,0.06140069612211388, ,0.011771387192499363, ,0.0013092876125081951, ,0.22680894178309963,-0.1899328923086776,0.11185816039000002,1.676051718271803,0.5229078846023405,-1.3563087739465056, ,0.14758466805360929,0.12244766652705909,0.05834729494505495,0.0,0.14227427202408438,-0.12519333799666485, ,1.1793689727783203
0.01895462159519893,0.020116148230538533,-0.1013676384615779, ,0.019987384991275045,0.01969288397458747,-0.10247894374785033, ,0.0015750404127950254, ,0.026233078032812433,-0.0007558343271921815,-0.05317833402748345,0.06697060592631843,0.026614293632895386,-0.0349915878278205, ,0.05930160940939455, ,0.07206217735407364, ,0.0013114482043804457, ,0.22888635692626602,-0.18825705927497088,0.11269686002000001,1.676051718271803,0.525503978097884,-1.3587524290772999, ,0.14422027592472764,0.10996169357876104,0.05668616199288257,-0.006409658313169356,0.1752877761670204,-0.1730009513260946, ,1.1832489967346191
0.01895462159519893,0.020116148230538533,-0.1013676384615779, ,0.020088773119954988,0.019680435840008455,-0.10265354055193703, ,0.001769092748941644, ,0.026233078032812433,-0.0007558343271921815,-0.05317833402748345,0.06697060592631843,0.026614293632895386,-0.0349915878278205, ,0.05930160940939455, ,0.07206217735407364, ,0.0013151388861914232, ,0.22888635692626602,-0.18825705927497088,0.11269686002000001,1.676051718271803,0.525503978097884,-1.3587524290772999, ,0.14422027592472764,0.10996169357876104,0.05668616199288257,-0.006409658313169356,0.1752877761670204,-0.1730009513260946, ,1.1869170665740967
0.019221425635602953,0.02010460439079648,-0.10188643477925984, ,0.020190252557941626,0.019668160029858432,-0.10282725300635413, ,0.0014192421294746376, ,0.026009775124026,-0.001037100429318904,-0.049205165245460133,0.0031362356298800945,-0.04842173744648172,0.08065807654929788, ,0.0556662578779635, ,0.04852022457284758, ,0.0013159717121376889, ,0.23037684437099135,-0.1871913221383279,0.11325037585000002,1.6750032685543808,0.5270069795953038,-1.3601413834982419, ,0.14577103157983223,0.09916085847280122,0.05257033504950496,-0.12148356545243807,0.12208008205838107,-0.12555846672845689, ,1.191483974456787
0.019221425635602953,0.02010460439079648,-0.10188643477925984, ,0.020291818903024,0.019656061785988135,-0.10300007165459983, ,0.001608452456675543, ,0.026009775124026,-0.001037100429318904,-0.049205165245460133,0.0031362356298800945,-0.04842173744648172,0.08065807654929788, ,0.0556662578779635, ,0.04852022457284758, ,0.0013182929878879893, ,0.23037684437099135,-0.1871913221383279,0.11325037585000002,1.6750032685543808,0.5270069795953038,-1.3601413834982419, ,0.14577103157983223,0.09916085847280122,0.05257033504950496,-0.12148356545243807,0.12208008205838107,-0.12555846672845689, ,1.19520902633667
0.01949042174336247,0.020092609460237023,-0.10238836704496727, ,0.02039346779610331,0.019644146303095824,-0.10317198717060717, ,0.0012769776341000484, ,0.025943649133888167,-0.001728054849655011,-0.047289466864674036,-0.019977479013991554,-0.049942654049697145,0.030620505330907516, ,0.05396621888080372, ,0.05378784124886932, ,0.0013179676701416275, ,0.2319059454800878,-0.18613330773455913,0.1137883362,1.6745838886674116,0.5285099810927236,-1.3615303379191834, ,0.14667224352159317,0.10371250443548719,0.05056765561904762,-0.06279026214845265,0.11033732272272567,-0.09299699662263856, ,1.1988389492034912
0.01949042174336247,0.020092609460237023,-0.10238836704496727, ,0.020495194921045706,0.019632418728866168,-0.10334299035828746, ,0.001460359653703748, ,0.025943649133888167,-0.001728054849655011,-0.047289466864674036,-0.019977479013991554,-0.049942654049697145,0.030620505330907516, ,0.05396621888080372, ,0.05378784124886932, ,0.0013190801075132065, ,0.2319059454800878,-0.18613330773455913,0.1137883362,1.6745838886674116,0.5285099810927236,-1.3615303379191834, ,0.14667224352159317,0.10371250443548719,0.05056765561904762,-0.06279026214845265,0.11033732272272567,-0.09299699662263856, ,1.2025039196014404
0.01949042174336247,0.020092609460237023,-0.10238836704496727, ,0.020596996004534938,0.019620884164106685,-0.10351307215107561, ,0.0016468129602978014, ,0.025943649133888167,-0.001728054849655011,-0.047289466864674036,-0.019977479013991554,-0.049942654049697145,0.030620505330907516, ,0.05396621888080372, ,0.05378784124886932, ,0.0013216206722634748, ,0.2319059454800878,-0.18613330773455913,0.1137883362,1.6745838886674116,0.5285099810927236,-1.3615303379191834, ,0.14667224352159317,0.10371250443548719,0.05056765561904762,-0.06279026214845265,0.11033732272272567,-0.09299699662263856, ,1.2061679363250732
0.019738076250361055,0.020078117757308247,-0.10283375660066571, ,0.020698866815924703,0.019609547662885852,-0.10368222361147285, ,0.0013647610460044376, ,0.024770194826950205,-0.0014634273988490165,-0.043746010425744615,0.005155973719312711,-0.039595514325625185,-0.030745823209246154, ,0.05029331565612004, ,0.03992779243498282, ,0.0013219525212922515, ,0.23330376013032245,-0.18516024339240683,0.11426537092000001,1.674374198723927,0.5294664365910817,-1.3622285845049178, ,0.141426142412028,0.09663639669905374,0.04698764460176992,0.0,0.10363277108171266,-0.09765179320130893, ,1.209717035293579
0.019738076250361055,0.020078117757308247,-0.10283375660066571, ,0.020800803167091708,0.019598414232670894,-0.10385043593059255, ,0.0015469779671972812, ,0.024770194826950205,-0.0014634273988490165,-0.043746010425744615,0.005155973719312711,-0.039595514325625185,-0.030745823209246154, ,0.05029331565612004, ,0.03992779243498282, ,0.0013236702727877096, ,0.23330376013032245,-0.18516024339240683,0.11426537092000001,1.674374198723927,0.5294664365910817,-1.3622285845049178, ,0.141426142412028,0.09663639669905374,0.04698764460176992,0.0,0.10363277108171266,-0.09765179320130893, ,1.2134640216827393
0.019738076250361055,0.020078117757308247,-0.10283375660066571, ,0.020902800912287866,0.019587488834465174,-0.10401770042770361, ,0.0017317688251068139, ,0.024770194826950205,-0.0014634273988490165,-0.043746010425744615,0.005155973719312711,-0.039595514325625185,-0.030745823209246154, ,0.05029331565612004, ,0.03992779243498282, ,0.0013267619284870968, ,0.23330376013032245,-0.18516024339240683,0.11426537092000001,1.674374198723927,0.5294664365910817,-1.3622285845049178, ,0.141426142412028,0.09663639669905374,0.04698764460176992,0.0,0.10363277108171266,-0.09765179320130893, ,1.217958927154541
0.019979774753092146,0.020062860802819896,-0.1032588695916393, ,0.021004855947993104,0.019576776382945953,-0.10418400854977533, ,0.00146388237616442, ,0.02373835290464376,-0.0015441451917220799,-0.04209225194432467,0.0628444846644598,0.029776010853466955,-0.03262889168252478, ,0.04834926531751058, ,0.06954069270748034, ,0.0013277929092967008, ,0.23471702024630553,-0.184202624516003,0.11472425758000002,1.6745838886674116,0.5309694380885015,-1.3634541814455785, ,0.13934940023270306,0.09395736787967403,0.04551089005714286,0.0,0.17220554469211902,-0.15116315493011345, ,1.2219419479370117
0.019979774753092146,0.020062860802819896,-0.1032588695916393, ,0.02110696421276806,0.01956628174660193,-0.10434935187102166, ,0.0016450831099752274, ,0.02373835290464376,-0.0015441451917220799,-0.04209225194432467,0.0628444846644598,0.029776010853466955,-0.03262889168252478, ,0.04834926531751058, ,0.06954069270748034, ,0.0013301607466151971, ,0.23471702024630553,-0.184202624516003,0.11472425758000002,1.6745838886674116,0.5309694380885015,-1.3634541814455785, ,0.13934940023270306,0.09395736787967403,0.04551089005714286,0.0,0.17220554469211902,-0.15116315493011345, ,1.2255048751831055
0.02022319709806089,0.02004800600684211,-0.10369543026530645, ,0.021209121687106484,0.01955600974787087,-0.10451372209244508, ,0.001372482833586017, ,0.024928534193402022,-0.0013645292387411104,-0.04474908338053612,0.06265141708056711,0.0362915585461211,-0.031752832820855705, ,0.051242308890926916, ,0.07240233313441638, ,0.0013304742435557217, ,0.2361302803622886,-0.1832527283724734,0.11519610714000002,1.674374198723927,0.5327457125854522,-1.3649842929337725, ,0.14400142876854444,0.09643998125860852,0.0484158404863222,0.0,0.1835727422780739,-0.15282927737541455, ,1.2290709018707275
0.02022319709806089,0.02004800600684211,-0.10369543026530645, ,0.021311324393288127,0.019545965163277532,-0.10467711104138118, ,0.0015491168985393776, ,0.024928534193402022,-0.0013645292387411104,-0.04474908338053612,0.06265141708056711,0.0362915585461211,-0.031752832820855705, ,0.051242308890926916, ,0.07240233313441638, ,0.001332081910136484, ,0.2361302803622886,-0.1832527283724734,0.11519610714000002,1.674374198723927,0.5327457125854522,-1.3649842929337725, ,0.14400142876854444,0.09643998125860852,0.0484158404863222,0.0,0.1835727422780739,-0.15282927737541455, ,1.232645034790039
0.02022319709806089,0.02004800600684211,-0.10369543026530645, ,0.021413568395231057,0.01953615272357065,-0.1048395106710433, ,0.001728553610251461, ,0.024928534193402022,-0.0013645292387411104,-0.04474908338053612,0.06265141708056711,0.0362915585461211,-0.031752832820855705, ,0.051242308890926916, ,0.07240233313441638, ,0.0013349758641519216, ,0.2361302803622886,-0.1832527283724734,0.11519610714000002,1.674374198723927,0.5327457125854522,-1.3649842929337725, ,0.14400142876854444,0.09643998125860852,0.0484158404863222,0.0,0.1835727422780739,-0.15282927737541455, ,1.2362139225006104
0.020482597976923027,0.020034366283294774,-0.10414632452215652, ,0.02151584979834459,0.0195265771138615,-0.1050009130600663, ,0.0014337994058415137, ,0.025942462836995632,-0.0010789644399890866,-0.044484048212305095,0.02593859731939135,-0.014899223143625073,0.002216230430488139, ,0.05150734013387164, ,0.029910257301886328, ,0.0013356919767728607, ,0.23763621327276238,-0.18230283222894378,0.11568480847000001,1.6739548188369582,0.5343853505826376,-1.3663213077781295, ,0.1496797185464839,0.09124705919083728,0.048269125818181824,-0.03250555579194768,0.14317549518174405,-0.11943198170605214, ,1.239759922027588
0.020482597976923027,0.020034366283294774,-0.10414632452215652, ,0.02161816474938171,0.01951724297376054,-0.10516131041205097, ,0.0016084541549763528, ,0.025942462836995632,-0.0010789644399890866,-0.044484048212305095,0.02593859731939135,-0.014899223143625073,0.002216230430488139, ,0.05150734013387164, ,0.029910257301886328, ,0.0013376542946016627, ,0.23763621327276238,-0.18230283222894378,0.11568480847000001,1.6739548188369582,0.5343853505826376,-1.3663213077781295, ,0.1496797185464839,0.09124705919083728,0.048269125818181824,-0.03250555579194768,0.14317549518174405,-0.11943198170605214, ,1.243391990661621
0.020482597976923027,0.020034366283294774,-0.10414632452215652, ,0.021720509436291745,0.019508154897515863,-0.10532069505510899, ,0.0017856285594789344, ,0.025942462836995632,-0.0010789644399890866,-0.044484048212305095,0.02593859731939135,-0.014899223143625073,0.002216230430488139, ,0.05150734013387164, ,0.029910257301886328, ,0.0013408541107793575, ,0.23763621327276238,-0.18230283222894378,0.11568480847000001,1.6739548188369582,0.5343853505826376,-1.3663213077781295, ,0.1496797185464839,0.09124705919083728,0.048269125818181824,-0.03250555579194768,0.14317549518174405,-0.11943198170605214, ,1.2470550537109375
0.020740578759058215,0.02002064679120531,-0.10457953241477738, ,0.021822880088073024,0.01949931743415032,-0.10547905944140604, ,0.001500769581564732, ,0.027082001785463664,-0.0016366279833809178,-0.044843229343439144,0.0026539827224772716,-0.041479474106723896,0.03598157389358762, ,0.05241210346677687, ,0.04156211087405227, ,0.001341988263054431, ,0.23913442345036195,-0.18139154974978527,0.11615536174000002,1.673535438949989,0.535751715580292,-1.3674354868150937, ,0.1571141416530973,0.09489694155847078,0.04871196183486239,-0.068198560048884,0.1301690806086129,-0.10831582546822302, ,1.2507710456848145
0.020740578759058215,0.02002064679120531,-0.10457953241477738, ,0.021925272974625407,0.019490735087599256,-0.10563639614670757, ,0.001673698821737782, ,0.027082001785463664,-0.0016366279833809178,-0.044843229343439144,0.0026539827224772716,-0.041479474106723896,0.03598157389358762, ,0.05241210346677687, ,0.04156211087405227, ,0.0013443242529043139, ,0.23913442345036195,-0.18139154974978527,0.11615536174000002,1.673535438949989,0.535751715580292,-1.3674354868150937, ,0.1571141416530973,0.09489694155847078,0.04871196183486239,-0.068198560048884,0.1301690806086129,-0.10831582546822302, ,1.2544739246368408
0.021020264082860885,0.02000172555222832,-0.10504063861606878, ,0.022027684406603073,0.019482412316848448,-0.10579269786992182, ,0.0013602114050527251, ,0.026682340255666386,-0.0013727146985056953,-0.04387847704611606,0.03500150795551434,-0.010430271379982961,-0.066927284714667, ,0.0513726812133568, ,0.0365203158372074, ,0.0013444353518703867, ,0.24076392008682332,-0.1803875944761361,0.11665702597000001,1.6731160590630199,0.5372547170777118,-1.3686610837557545, ,0.1543039700137736,0.09461310225171563,0.04783426882882884,0.039024782038570294,0.13921477245439412,-0.11516943529855542, ,1.2584850788116455
0.021020264082860885,0.02000172555222832,-0.10504063861606878, ,0.022130110735266946,0.019474353536071156,-0.10594795743264515, ,0.0015274515606709593, ,0.026682340255666386,-0.0013727146985056953,-0.04387847704611606,0.03500150795551434,-0.010430271379982961,-0.066927284714667, ,0.0513726812133568, ,0.0365203158372074, ,0.001345706297764835, ,0.24076392008682332,-0.1803875944761361,0.11665702597000001,1.6731160590630199,0.5372547170777118,-1.3686610837557545, ,0.1543039700137736,0.09461310225171563,0.04783426882882884,0.039024782038570294,0.13921477245439412,-0.11516943529855542, ,1.2620699405670166
0.021020264082860885,0.02000172555222832,-0.10504063861606878, ,0.022232548352337497,0.019466563114766397,-0.10610216777870529, ,0.0016979034565069928, ,0.026682340255666386,-0.0013727146985056953,-0.04387847704611606,0.03500150795551434,-0.010430271379982961,-0.066927284714667, ,0.0513726812133568, ,0.0365203158372074, ,0.0013481352436871949, ,0.24076392008682332,-0.1803875944761361,0.11665702597000001,1.6731160590630199,0.5372547170777118,-1.3686610837557545, ,0.1543039700137736,0.09461310225171563,0.04783426882882884,0.039024782038570294,0.13921477245439412,-0.11516943529855542, ,1.2655858993530273
0.021287553911530005,0.019983139462034165,-0.10547147364313711, ,0.022334993689847264,0.01945904537789621,-0.10625532197370673, ,0.001409334205774658, ,0.02674595845632131,-0.0016804804567841266,-0.04307068566026095,0.0440456875591961,0.001999879322288194,-0.054673880515963405, ,0.05072725373561934, ,0.04408938522074145, ,0.0013485544146603966, ,0.24233163486029088,-0.17942997559973226,0.11712757924000002,1.6731160590630199,0.5387577185751317,-1.3699683594365557, ,0.15659561313279005,0.09489694155847078,0.047126661301775154,0.0257127251157592,0.15665365716546467,-0.12711075424239837, ,1.269144058227539
0.021287553911530005,0.019983139462034165,-0.10547147364313711, ,0.022437443219993497,0.019451804606023134,-0.1064074132045746, ,0.0015749746072856899, ,0.02674595845632131,-0.0016804804567841266,-0.04307068566026095,0.0440456875591961,0.001999879322288194,-0.054673880515963405, ,0.05072725373561934, ,0.04408938522074145, ,0.0013500946880796165, ,0.24233163486029088,-0.17942997559973226,0.11712757924000002,1.6731160590630199,0.5387577185751317,-1.3699683594365557, ,0.15659561313279005,0.09489694155847078,0.047126661301775154,0.0257127251157592,0.15665365716546467,-0.12711075424239837, ,1.2727229595184326
0.021287553911530005,0.019983139462034165,-0.10547147364313711, ,0.022539893454990814,0.019444845035448258,-0.10655843477909822, ,0.001743444789174282, ,0.02674595845632131,-0.0016804804567841266,-0.04307068566026095,0.0440456875591961,0.001999879322288194,-0.054673880515963405, ,0.05072725373561934, ,0.04408938522074145, ,0.0013527524590329588, ,0.24233163486029088,-0.17942997559973226,0.11712757924000002,1.6731160590630199,0.5387577185751317,-1.3699683594365557, ,0.15659561313279005,0.09489694155847078,0.047126661301775154,0.0257127251157592,0.15665365716546467,-0.12711075424239837, ,1.2763159275054932
0.02155083600713642,0.019968383646709803,-0.10588988675540584, ,0.02264234094692369,0.019438170858348678,-0.10670838012547693, ,0.0014637076317940056, ,0.028270232823073217,-0.0014403810146705939,-0.04432112935753574,0.037226332039322366,-0.012874178783894161,-0.02943774073780084, ,0.0525893836136687, ,0.03938747584741338, ,0.0013534971246219592, ,0.24387618143513579,-0.178526415853448,0.1175864659,1.6733257490065043,0.5402607200725515,-1.3710305988969351, ,0.1661942934474094,0.09340250153392793,0.04871196183486239,0.0,0.15598617606878634,-0.12478859080240957, ,1.2800450325012207
0.02155083600713642,0.019968383646709803,-0.10588988675540584, ,0.022744782287599494,0.019431786222915116,-0.10685724279186377, ,0.0016276431479677334, ,0.028270232823073217,-0.0014403810146705939,-0.04432112935753574,0.037226332039322366,-0.012874178783894161,-0.02943774073780084, ,0.0525893836136687, ,0.03938747584741338, ,0.0013553247647775978, ,0.24387618143513579,-0.178526415853448,0.1175864659,1.6733257490065043,0.5402607200725515,-1.3710305988969351, ,0.1661942934474094,0.09340250153392793,0.04871196183486239,0.0,0.15598617606878634,-0.12478859080240957, ,1.2837309837341309
0.02155083600713642,0.019968383646709803,-0.10588988675540584, ,0.02284721410840048,0.01942569523348928,-0.10700501644590871, ,0.001794051593996629, ,0.028270232823073217,-0.0014403810146705939,-0.04432112935753574,0.037226332039322366,-0.012874178783894161,-0.02943774073780084, ,0.0525893836136687, ,0.03938747584741338, ,0.00135823024046779, ,0.24387618143513579,-0.178526415853448,0.1175864659,1.6733257490065043,0.5402607200725515,-1.3710305988969351, ,0.1661942934474094,0.09340250153392793,0.04871196183486239,0.0,0.15598617606878634,-0.12478859080240957, ,1.2874329090118408
0.021836229292989347,0.019951046830313696,-0.10632938879340162, ,0.022949633080136953,0.019419901950702173,-0.10715169487430462, ,0.0014825552829699894, ,0.028096687260988646,-0.0015392980282751213,-0.042136380218455706,0.03154999065134221,-0.019850919120601142,-0.02422682405493264, ,0.05066821302726117, ,0.03727369143386075, ,0.0013590481683789886, ,0.24555973720171673,-0.1775842424427926,0.11806998207000001,1.6731160590630199,0.5417637215699714,-1.3720928383573148, ,0.1676624409160261,0.08986452799097612,0.04657547228070176,-0.003199219754349113,0.15095156426471176,-0.11634114810593424, ,1.291029930114746
0.021836229292989347,0.019951046830313696,-0.10632938879340162, ,0.02305203591289967,0.019414410391610806,-0.10729727198233069, ,0.0016440688160089265, ,0.028096687260988646,-0.0015392980282751213,-0.042136380218455706,0.03154999065134221,-0.019850919120601142,-0.02422682405493264, ,0.05066821302726117, ,0.03727369143386075, ,0.0013609110484288573, ,0.24555973720171673,-0.1775842424427926,0.11806998207000001,1.6731160590630199,0.5417637215699714,-1.3720928383573148, ,0.1676624409160261,0.08986452799097612,0.04657547228070176,-0.003199219754349113,0.15095156426471176,-0.11634114810593424, ,1.294708013534546
0.022127952380252284,0.019930530435034132,-0.1067643978038772, ,0.02315441935591249,0.01940922452983686,-0.10744174179339663, ,0.0013357354450087263, ,0.028485118477305487,-0.002302684348807444,-0.04197129633436382,0.005885575308877332,-0.018450757449962628,0.002353126394713997, ,0.05077690465027732, ,0.019363372690139272, ,0.0013607475704845709, ,0.24730507483129147,-0.17663434629926297,0.11855090566000001,1.6726966791760507,0.5434033595671567,-1.3731031382411096, ,0.17067795244329276,0.09489694155847078,0.04643968373177843,-0.025662144736261144,0.15952054048692954,-0.09976610005059292, ,1.2991180419921875
0.022127952380252284,0.019930530435034132,-0.1067643978038772, ,0.023256780197384985,0.019404348295703384,-0.10758509844858771, ,0.0014915325784948565, ,0.028485118477305487,-0.002302684348807444,-0.04197129633436382,0.005885575308877332,-0.018450757449962628,0.002353126394713997, ,0.05077690465027732, ,0.019363372690139272, ,0.0013615913447297984, ,0.24730507483129147,-0.17663434629926297,0.11855090566000001,1.6726966791760507,0.5434033595671567,-1.3731031382411096, ,0.17067795244329276,0.09489694155847078,0.04643968373177843,-0.025662144736261144,0.15952054048692954,-0.09976610005059292, ,1.3027548789978027
0.022127952380252284,0.019930530435034132,-0.1067643978038772, ,0.023359115264365134,0.019399785576373067,-0.10772733620620849, ,0.0016506672950345148, ,0.028485118477305487,-0.002302684348807444,-0.04197129633436382,0.005885575308877332,-0.018450757449962628,0.002353126394713997, ,0.05077690465027732, ,0.019363372690139272, ,0.0013634443956932903, ,0.24730507483129147,-0.17663434629926297,0.11855090566000001,1.6726966791760507,0.5434033595671567,-1.3731031382411096, ,0.17067795244329276,0.09489694155847078,0.04643968373177843,-0.025662144736261144,0.15952054048692954,-0.09976610005059292, ,1.3063380718231201
0.022420749057650204,0.01990617644580069,-0.10719195306194725, ,0.023461421422591906,0.01939554021598559,-0.10786844944132723, ,0.0013421608255597987, ,0.02827939616924868,-0.0026819225592417473,-0.04032464273742229,-0.00779867710320865,-0.031372321295343,0.018913117278341305, ,0.04932538665040378, ,0.03232545876844097, ,0.0013633088315523126, ,0.2490504124608662,-0.1756612819571107,0.11902405151,1.6724869892325662,0.5449063610645766,-1.373838662740927, ,0.17037152883028864,0.09414379122864167,0.04474385258426967,-0.04203020184265521,0.1489370910077825,-0.08948254502405792, ,1.3098978996276855
0.022420749057650204,0.01990617644580069,-0.10719195306194725, ,0.02356369557634787,0.019391616015795192,-0.10800843264532033, ,0.0014959071130239466, ,0.02827939616924868,-0.0026819225592417473,-0.04032464273742229,-0.00779867710320865,-0.031372321295343,0.018913117278341305, ,0.04932538665040378, ,0.03232545876844097, ,0.0013641480611818798, ,0.2490504124608662,-0.1756612819571107,0.11902405151,1.6724869892325662,0.5449063610645766,-1.373838662740927, ,0.17037152883028864,0.09414379122864167,0.04474385258426967,-0.04203020184265521,0.1489370910077825,-0.08948254502405792, ,1.3134729862213135
0.022420749057650204,0.01990617644580069,-0.10719195306194725, ,0.02366593466831187,0.019388016734308455,-0.10814728042541626, ,0.0016527634625091497, ,0.02827939616924868,-0.0026819225592417473,-0.04032464273742229,-0.00779867710320865,-0.031372321295343,0.018913117278341305, ,0.04932538665040378, ,0.03232545876844097, ,0.001365963252385196, ,0.2490504124608662,-0.1756612819571107,0.11902405151,1.6724869892325662,0.5449063610645766,-1.373838662740927, ,0.17037152883028864,0.09414379122864167,0.04474385258426967,-0.04203020184265521,0.1489370910077825,-0.08948254502405792, ,1.317054033279419
0.022686681554461754,0.01987884128910889,-0.10756676418680011, ,0.023768135679411682,0.01938474608742218,-0.10828498750424075, ,0.0013890708500348267, ,0.02761273937962483,-0.0026522423030749644,-0.03750074165502511,0.02750440555459938,0.002323408402380924,-0.053564565283555375, ,0.04664550771465822, ,0.027601021475078393, ,0.0013661076748705064, ,0.2506721863644534,-0.17475772221082642,0.11944145689,1.6722772992890815,0.5465459990617618,-1.374930641364862, ,0.17067795244329276,0.09204359026039842,0.04202852643799473,0.03397799102999484,0.17001146869965242,-0.10374702738775113, ,1.3209030628204346
0.022686681554461754,0.01987884128910889,-0.10756676418680011, ,0.02387029562867654,0.019381807748560295,-0.10842154871936012, ,0.0015422844141770445, ,0.02761273937962483,-0.0026522423030749644,-0.03750074165502511,0.02750440555459938,0.002323408402380924,-0.053564565283555375, ,0.04664550771465822, ,0.027601021475078393, ,0.0013672019403320375, ,0.2506721863644534,-0.17475772221082642,0.11944145689,1.6722772992890815,0.5465459990617618,-1.374930641364862, ,0.17067795244329276,0.09204359026039842,0.04202852643799473,0.03397799102999484,0.17001146869965242,-0.10374702738775113, ,1.3247389793395996
0.022686681554461754,0.01987884128910889,-0.10756676418680011, ,0.023972411573089804,0.019379205348812125,-0.10855695902282617, ,0.0016980057617482283, ,0.027358557270037893,-0.002795481344529228,-0.036540816681469274,0.014709057897773093,-0.007094573309312812,-0.014203476202789448, ,0.045733321064561856, ,0.016328631545764232, ,0.0013692439392296682, ,0.2506721863644534,-0.17475772221082642,0.11944145689,1.6722772992890815,0.5465459990617618,-1.374930641364862, ,0.17067795244329276,0.09204359026039842,0.04202852643799473,0.03397799102999484,0.17001146869965242,-0.10374702738775113, ,1.3283770084381104
0.022967870922480114,0.019851893559143168,-0.10794321065875173, ,0.024074480607441662,0.019376942477069878,-0.10869121348072008, ,0.0014176289172015018, ,0.027358557270037893,-0.002795481344529228,-0.036540816681469274,0.014709057897773093,-0.007094573309312812,-0.014203476202789448, ,0.045733321064561856, ,0.016328631545764232, ,0.0013695407795853236, ,0.25240980126115387,-0.17383871699879372,0.11986404743000001,1.6724869892325662,0.5481856370589472,-1.375777583768376, ,0.16915675857124915,0.08944103822664541,0.04105363793814434,-0.00592519432396885,0.1659616068003638,-0.09809519635656158, ,1.3324270248413086
