NicholasDascanio/dvrk_moveit_final/test/execution/third_experiment_notsharpbends/thirdexp_300vel5.0/thirdexp_300vel5.0_11.csv
Current Position (x),Current Position (y),Current Position (z), ,Planned Position (x),Planned Position (y),Planned Position (z), ,Position Error,,Cartesian linear Velocity(x),Cartesian linear Velocity(y),Cartesian linear Velocity(z),Cartesian Angular Velocity(x),Cartesian Angular Velocity(y),Cartesian Angular Velocity(z), ,Total Linear Velocity, ,Total Angular Velocity, ,MSE, ,Joint 1 Position,Joint 2 Position,Joint 3 Position,Joint 4 Position,Joint 5 Position,Joint 6 Position, ,Joint 1 Velocity,Joint 2 Velocity,Joint 3 Velocity,Joint 4 Velocity,Joint 5 Velocity,Joint 6 Velocity, ,Time Stamp
0.009540685798705352,0.02037790406079983,-0.07990440342319495, ,0.009729428195618662,0.020341295984065425,-0.08005867026098257, ,0.000246499697597714, ,0.00011276338136284284,0.00018423247836895918,-0.0008087469547262537,0.2443755976551709,0.0019235767042055086,-0.07914736504784106, ,0.0008370954682957852, ,0.24438316815332964, ,2.0541641466476164e-05, ,0.17007002335617216,-0.24240886218903313,0.09040974605,1.6892621847113283,0.47358210818701657,-1.2972191217396278, ,-0.00031305259314545286,0.00014993647024435312,0.000837704107929866,-0.001200949276349584,0.0,-0.25755631927534983, ,0.03564906120300293
0.009594817039106817,0.020395911829985604,-0.07998960890085352, ,0.009787120898494829,0.020380897854771776,-0.08023403596098609, ,0.0003113692045021426, ,0.001618974113694511,0.0011115425494466584,-0.004704073759553246,0.26678446116592147,-0.07281691979702654,-0.10620395549218543, ,0.005097539990560223, ,0.2765434007999725, ,2.53576773681753e-05, ,0.1701163597534175,-0.2424011394561589,0.09048622716000002,1.6892621847113283,0.4692097401945225,-1.3047620574804588, ,0.002472731859979231,0.00025434056514182904,0.0047168526858158135,-0.0011158721094770981,-0.07454277872897688,-0.2868061358766101, ,0.07143402099609375
0.009657509797553882,0.020432177763973,-0.08014683809744105, ,0.00984564961449909,0.02041919249403582,-0.08040859798847941, ,0.00032261966541413596, ,0.0020642343255783285,0.0017477854512289144,-0.00662549328805889,-0.12892372580750494,-0.07810562227221243,0.021627863988051603, ,0.00715632438089112, ,0.15073757094318316, ,2.751526773481227e-05, ,0.17022447801365664,-0.24238569399041046,0.09064178196000001,1.6892621847113283,0.46593046420015194,-1.3089490419635519, ,0.0036864073574317184,-0.0015221444924243858,0.006772453877551022,-0.0010592708530297672,-0.07621558465923862,0.1306560066666474, ,0.10676312446594238
0.009703837682658492,0.020489679178542445,-0.08036805494540257, ,0.009905003368803098,0.020456196737325648,-0.08058236664241233, ,0.0002958347691314721, ,0.0003619861791453953,0.0009090398974048561,-0.0035782653008429835,0.045547661911781744,0.08437416466653962,0.012217504972711445, ,0.003709632069650984, ,0.09588320587162116, ,2.8007698491558685e-05, ,0.17044843726700915,-0.24239341672328468,0.09087900303,1.6892621847113283,0.4671601926980409,-1.305214436168667, ,0.0062977861275951685,0.0007058758829423374,0.004061400183579807,-0.0009890178505615628,0.09406614858292207,-0.04122326108588148, ,0.14337396621704102
0.009733931847692898,0.020515778371189116,-0.08047673944410283, ,0.009965171252511087,0.020491927330281823,-0.0807553521455518, ,0.00036285750908824, ,0.0012268945325937123,0.00080155252489748,-0.0032941248093983164,0.04971914299974696,-0.01210695409606722,-0.01666134997913837, ,0.0036054146646636036, ,0.05117197981049476, ,3.0180016583013817e-05, ,0.17064150558886476,-0.24237024852466202,0.09099566913000001,1.6892621847113283,0.46770673869710266,-1.305823465263734, ,0.0075508721400446635,0.00042106683563270593,0.0034962272870939426,-0.0009439334133108038,-0.004811034403107421,-0.053203891731986, ,0.17542290687561035
0.009783452661050565,0.020554549763993027,-0.08063896339502907, ,0.010026142422501503,0.020526400928911948,-0.08092756464469494, ,0.0003781287592054288, ,0.0017569345453380284,0.001563009209092967,-0.006572922213467349,-0.015395282605356485,-0.007025193280612537,0.0020043504472542287, ,0.0069809113451328175, ,0.016922412796650108, ,3.195516008231889e-05, ,0.17088863304083995,-0.24233163486029088,0.09116677941000001,1.6894718746548125,0.46757010219733725,-1.3057120473600374, ,0.007547462174244616,0.0013336784585476612,0.006922560417209909,0.0025289976190311265,0.0,0.015226366250337072, ,0.2085731029510498
0.009852349776572691,0.020602400133278326,-0.08084979461047098, ,0.010087906101268269,0.020559634099785062,-0.0810990142108796, ,0.0003455808515422515, ,0.0016435969554649823,0.0009876362514301391,-0.004774182437625111,-0.0058883120079357195,-0.008815186547079941,-0.0015110127900198969, ,0.005144866787865433, ,0.010600930604544654, ,3.2795513862049056e-05, ,0.1712824924174254,-0.24226213026442286,0.09138974129,1.6894718746548125,0.46757010219733725,-1.3055486898797564, ,0.009950212431188488,0.0028326841917444452,0.00502803393939394,0.002421483059054497,0.0005946123608644618,0.0038085663700288008, ,0.24118590354919434
0.00990086409089082,0.020636548536213436,-0.08100469653651325, ,0.010150451576762419,0.020591643320226647,-0.08126971083959729, ,0.0003668009983160407, ,0.0016920277403815248,0.0010073359177540718,-0.005046911188440579,-0.004057453146822527,-0.008775547143624165,-0.002258940528874008, ,0.005417471372275514, ,0.00966815134522914, ,3.37139930102234e-05, ,0.17154506533514904,-0.24220034840142907,0.09155307383000001,1.6894718746548125,0.46757010219733725,-1.3055486898797564, ,0.009933247266841149,0.0033822601937328577,0.005311374298099368,0.002313249100131668,0.0006323311323637067,0.0012140522399666342, ,0.27447509765625
0.009954843853685938,0.020673147952683248,-0.08117122297072753, ,0.010213768202233478,0.020622444978513187,-0.08143966445100592, ,0.0003763953216958385, ,0.0018381756771641213,0.0012224940242031922,-0.005324040707045012,-3.4752485258006915e-05,-0.010474185094400533,-0.0028243143087377407, ,0.005763574490678735, ,0.010474242542987454, ,3.455272156888809e-05, ,0.17186169738299223,-0.24213084380556105,0.09172936927000001,1.6894718746548125,0.46770673869710266,-1.3055784290433121, ,0.011012758681498293,0.001716028824059851,0.005646512414037576,0.0022151311621076007,0.0,-0.0013525159466741903, ,0.30667996406555176
0.009995696342636345,0.020696580336531677,-0.08127946315143501, ,0.010277845396070887,0.020652055374066825,-0.08160888489014, ,0.0004360151861666269, ,0.0018731468882101012,0.0010937515189639781,-0.005018247096103637,0.0022773201558870682,-0.008494357630176448,-0.0008238442791416725, ,0.005466971334075183, ,0.008794333144662332, ,3.623265223852517e-05, ,0.1721397157664643,-0.24206906194256725,0.09184473908000002,1.6896815645982974,0.46784337519686814,-1.305608168206868, ,0.012452032746158087,0.002281565606769687,0.005339863064029502,0.0001289839338306145,0.004049092747036138,-0.004404949679616483, ,0.3357229232788086
0.010076547034410752,0.020748177720827182,-0.08151634606577894, ,0.010342672641645555,0.020680490717650192,-0.08177738192712439, ,0.0003788721290007138, ,0.0023409961599728706,0.0013318295167390314,-0.006714040580233552,-0.0014624545106173012,-0.011984520739804716,0.005450622447026376, ,0.007234111818024929, ,0.012073421094086063, ,3.7096835841365093e-05, ,0.1726339706704147,-0.2419532209494539,0.09209362676,1.6898912545417817,0.468116648196399,-1.3059126827544014, ,0.01437179184589895,0.0041559476380480355,0.0070763267525544215,-0.006470216656345565,0.004199445828183244,-0.003557316070193902, ,0.36416196823120117
0.010143859447558353,0.020780840686460512,-0.08168972042696682, ,0.010408239487151165,0.02070776713156084,-0.08194516525738561, ,0.0003748181040831134, ,0.0024421560636753437,0.0010352910302383837,-0.005995174938930244,-0.0005770610714436797,-0.01221731115602542,0.00441631750357823, ,0.006555766645100752, ,0.012230931428903321, ,3.779992969138485e-05, ,0.1731127801086166,-0.24181421175771783,0.09228029252000002,1.6898912545417817,0.46838992119592987,-1.3061355185617942, ,0.017393134449866343,0.005616514372377874,0.006331006168521463,-0.005641457422427118,0.00673781226047952,-0.005652664826188946, ,0.39278292655944824
0.0102139391173511,0.020809047153804557,-0.08185578108851405, ,0.01047453554544569,0.02073390064982597,-0.0821122445018644, ,0.00037327064950673093, ,0.002331675826195787,0.0009909152996126279,-0.0059799858478091494,0.0030809316699954357,-0.006587700836895309,0.003763175247039241, ,0.006494525081133331, ,0.0072725466395507825, ,3.8395486094541586e-05, ,0.17363020321118966,-0.2416443116344849,0.09245658796,1.6898912545417817,0.46866319419546076,-1.3063583543691872, ,0.016486612501471647,0.006099401944937198,0.006325977569499604,-0.005007842691964392,0.011459950159389814,-0.0095078160096426, ,0.4222080707550049
0.010289250717149777,0.020838423741000006,-0.08202945824125951, ,0.010541550493892781,0.02075890721839719,-0.08227862920722637, ,0.00036340641847973696, ,0.0024287267399071915,0.0009365749735557572,-0.005435317187291534,0.003102688392521752,-0.009669307788758935,0.003590009015287167, ,0.006026488130304243, ,0.010154909336427589, ,3.8838340659292804e-05, ,0.1741785172452596,-0.24146668877837774,0.09264066114000001,1.6898912545417817,0.4687998306952262,-1.3064697722728837, ,0.019570414839857865,0.006691281593608164,0.00555979459685864,-0.004510360030661479,0.005352954523623898,-0.00452442027329804, ,0.4514729976654053
0.010338212433868753,0.02085611139119463,-0.08213618522420212, ,0.010609274074203258,0.02078280269534528,-0.08244432884607628, ,0.00041689455435360437, ,0.002480642308066334,0.0008731178050199227,-0.005810073447471213,0.0015566340219842231,-0.009160764854317438,0.0028623451003168955, ,0.006377528865244084, ,0.009292078108460576, ,3.992062550808799e-05, ,0.17456465388897083,-0.2413508477852644,0.09275473466,1.6898912545417817,0.4690731036947571,-1.3066109293401358, ,0.01839801115906762,0.007009452311980082,0.00615012027799228,-0.004238738738826703,0.01058481298948883,-0.008786500920413127, ,0.476823091506958
0.010418745700667748,0.02089164498036185,-0.08234069515536471, ,0.010677696092276458,0.020805602851054237,-0.08260935281716818, ,0.0003829301405945963, ,0.002745825430346151,0.0014826367133320933,-0.007463908284705457,0.009621545968170653,-0.0023457321939213175,-0.0008441617220575814, ,0.008089975018512144, ,0.009903362215846916, ,4.065456708282544e-05, ,0.17511296792304076,-0.241165502196283,0.09296732622000001,1.6896815645982974,0.46934637669428797,-1.3068337651475286, ,0.018599949345055034,0.005005780104412913,0.007980366492985972,0.0,0.01673561099053233,-0.013944026259375774, ,0.5027570724487305
0.010470050420947705,0.020915861554123713,-0.08247018050611846, ,0.010746806418041642,0.02082732336841651,-0.0827737104456183, ,0.00042019437933956793, ,0.0025514515252166316,0.0011172767157883992,-0.006600255748417696,0.0012269948487558808,-0.007990597628291175,-0.007544506512615523, ,0.007163908715896234, ,0.008084253477617688, ,4.157086714876997e-05, ,0.17546821363525508,-0.2410419384702954,0.09310862183000002,1.6901009444852664,0.46948301319405333,-1.306945183051225, ,0.017095467764091297,0.006897200119915848,0.00697103348796499,0.006599798384237052,0.00777522400288708,-0.006621231534229688, ,0.5279359817504883
0.010545635033896654,0.02094490131047306,-0.0826529648086731, ,0.010816594985299563,0.020847979843027636,-0.08293741098311723, ,0.00040462660845765356, ,0.002677341253209904,0.0011260871877024525,-0.006779922623969386,0.013546386369140007,0.004333849760363476,-0.006875610698187045, ,0.0073758782072007615, ,0.014222757225006207, ,4.230396739661683e-05, ,0.17603197313507346,-0.24083342468269134,0.09330306533,1.6901009444852664,0.4700295591931152,-1.3073091759258701, ,0.019623023481900495,0.007437083672751353,0.007220676119673619,0.005995943972740947,0.023264384335734918,-0.018979528251850803, ,0.5539951324462891
0.010603812873494985,0.020968527656331594,-0.08279513950954306, ,0.0108870517915636,0.020867587783380534,-0.08310046360814136, ,0.000428527651202247, ,0.002809760795492989,0.0010886440856925528,-0.0068613599281818006,0.00293839227931564,-0.007319790673957923,-0.006616141172723604, ,0.0074938749480667035, ,0.007887551552315955, ,4.312125060294973e-05, ,0.17643355524453314,-0.24068669275808108,0.09345343497000001,1.6901009444852664,0.4701661956928806,-1.3074205938295664, ,0.019815606923881974,0.007967932227277357,0.007263479945280439,0.005543961864558709,0.011540127474519232,-0.009406114266946252, ,0.5786240100860596
0.010660951572810754,0.020991459697136117,-0.08293707270112184, ,0.010958166897901505,0.020886162611060105,-0.08326287742616599, ,0.00045340174753301653, ,0.0030331464233351946,0.0012242453493944844,-0.007173072972396275,0.0017807218005114584,-0.011088671736994758,-0.006151648022477028, ,0.007883636836398988, ,0.01123074316470585, ,4.428002586435043e-05, ,0.1768351373539928,-0.24053223810059657,0.09360380461000001,1.6901009444852664,0.47043946869241143,-1.3076434296369595, ,0.021528344273700265,0.007310952588556126,0.007617796040172167,0.005164454222287512,0.009510592742937547,-0.007739523597145486, ,0.6014430522918701
0.010750423124933807,0.021020753679639383,-0.08313780845466517, ,0.011029930428776551,0.02090371966093815,-0.08342466146987604, ,0.00041726004693759625, ,0.003009816455788639,0.0010171382624155664,-0.006763552372351342,0.0077108170820309125,-0.0040814125974291664,-0.005788172620139022, ,0.007472563551817094, ,0.008724369014957647, ,4.515117466751994e-05, ,0.1774915696483019,-0.24027738791574718,0.09381639617000001,1.6901009444852664,0.4707127416919423,-1.3079479441844928, ,0.022844713904302063,0.008541432980446304,0.007204347137042063,0.0046893841034733085,0.018225166443811024,-0.014622845941106234, ,0.6242918968200684
0.010813293590898842,0.021037865850415102,-0.08326964597900732, ,0.011102332571888996,0.02092027418136782,-0.08358582469937961, ,0.0004442300264248365, ,0.0031032447691543967,0.0008305851075959802,-0.00658637746099792,-0.0023700595207377067,-0.012605522125253461,-0.005336487442983849, ,0.007328053478038064, ,0.012826393015477026, ,4.611408010318504e-05, ,0.17797037908650382,-0.24008431959389157,0.0939550992,1.6901009444852664,0.4709860146914732,-1.308089101251745, ,0.023512621793476407,0.010065332866619384,0.0069497432460732984,0.004417107978269807,0.010135439468127082,-0.006308198111648924, ,0.6462180614471436
0.010875548517054915,0.021055771157688016,-0.08340969446213196, ,0.011175363578017662,0.020935841334378518,-0.08374637600241878, ,0.0004665047618932194, ,0.0033060637905991987,0.0010649014291234798,-0.007648611399465429,0.015861886009878957,0.006499324769722448,-0.005056440834433302, ,0.008400317207182886, ,0.01714178007314692, ,4.7134619249820035e-05, ,0.1784646339904542,-0.2398758058062875,0.09410546884000001,1.6901009444852664,0.471532560690535,-1.3085347728665309, ,0.025620124610818248,0.01058211087069928,0.00816025180327869,0.004175364861362507,0.03215047015655933,-0.024269979348962054, ,0.6676480770111084
0.010947594608526484,0.021076339888857994,-0.08356738682528489, ,0.011249013760861088,0.02095043619586959,-0.08390632419458233, ,0.0004707268694354473, ,0.0035252959498224285,0.0008962744770526637,-0.0075574292841044605,-0.0004350565391515466,-0.010257228723717897,-0.004898335882151599, ,0.00838723773696025, ,0.010266449757821986, ,4.811336484323944e-05, ,0.178974334360153,-0.23965184655293498,0.09427139396,1.6901009444852664,0.471532560690535,-1.3083714153862496, ,0.02673906496434792,0.012091127094350788,0.008000407594173784,0.003959580651867233,0.016063586990268552,-0.010038053570174538, ,0.6891059875488281
0.011014102826136829,0.0210941939013836,-0.08372326305755536, ,0.011323273496879052,0.02096407375580621,-0.0840656780195181, ,0.00047933888023842343, ,0.0032877625233817785,0.0008433929778189625,-0.007927747751252932,0.02612200548517626,0.022551964005230775,-0.004766438181660846, ,0.00862379722237739, ,0.034510146620175944, ,4.932540573675328e-05, ,0.17949948019560028,-0.23939699636808556,0.09443731908000001,1.6901009444852664,0.47235237968912763,-1.3088765653281471, ,0.026272685924272086,0.013883970966857466,0.008441341558028618,0.003763680480518819,0.049503172512760686,-0.037145823613559975, ,0.7075750827789307
0.011089838767433082,0.021112225043711297,-0.08388723599397499, ,0.011398133225134048,0.020976768918412818,-0.08422444614914416, ,0.00047655484813316956, ,0.004208338631437477,0.0011303393818191793,-0.009226913115299497,-0.018902913015832964,-0.028594549306634957,-0.004105914363871934, ,0.010204102449124385, ,0.034277810660190915, ,5.046366226868102e-05, ,0.1800477942296702,-0.2391267007174877,0.09460972565,1.6901009444852664,0.4724890161888931,-1.308906304491703, ,0.029416286905911585,0.013965701480275317,0.009694955276932442,0.003593070007862616,0.0,0.006070423014554941, ,0.725492000579834
0.011131626019632565,0.021124805541752875,-0.08398866918741424, ,0.01147358344713255,0.02098853650236861,-0.08438263718386196, ,0.0005391798545403497, ,0.0038126999052390063,0.0010317610062231194,-0.009414655485958988,0.029780297015904175,0.019695133187205085,-0.0032179516194635977, ,0.01020964981087352, ,0.03570384135709933, ,5.1849466825187994e-05, ,0.1803567035446392,-0.238964523327129,0.09471731772000001,1.6903106344287508,0.47289892568818936,-1.3090772007225109, ,0.027919076657390636,0.014263781986843646,0.009980458345864663,0.0,0.019151509385858783,-0.018026062952212884, ,0.7438199520111084
0.011206491637244454,0.021145266270888075,-0.08416394442434169, ,0.01154961472666654,0.02099939124100165,-0.0845402596527679, ,0.0005297415690545656, ,0.004115424910055043,0.0010311233033256822,-0.009543405683013666,-0.009203277670523062,-0.012422607037218479,0.0046592500134538814, ,0.010443970963553104, ,0.015460317148101048, ,5.3125383027681516e-05, ,0.18090501757870914,-0.2386787822107827,0.09490268719000002,1.6905203243722353,0.47344547168725115,-1.3096045510774375, ,0.029280142412363704,0.01559010046960256,0.010037058298676748,-0.004735572790284962,0.018607778914707152,-0.005831428068113725, ,0.7617559432983398
0.01129549210153403,0.021162605086879435,-0.08435260204062191, ,0.011626217689654795,0.021009347782483152,-0.08469732201386516, ,0.0005016961988509303, ,0.0044701727442899115,0.0007779186338549918,-0.00930508143327252,-0.014421525506228843,-0.022051354000450434,0.003500001344777088, ,0.01035239789829024, ,0.026348482715725527, ,5.446424722555283e-05, ,0.18156144987301823,-0.2383312592314426,0.09510101956000001,1.6905203243722353,0.47371874468678205,-1.3097457081446897, ,0.0331807487966681,0.017764309539212052,0.00977227700613497,-0.0046422887367381285,0.012657712773201808,-0.003056015768930871, ,0.7757730484008789
0.011338746552967512,0.021171642935234797,-0.08444874401910739, ,0.011703383023984427,0.021018420690023035,-0.08485383265427662, ,0.0005661568817621806, ,0.004293003801365826,0.0010370368665540528,-0.010084833687363038,0.039616392972305896,0.036219401505411496,0.0035827744204257788, ,0.011009504875465837, ,0.05367777503988133, ,5.604742855673451e-05, ,0.18190897285235832,-0.23815363637533543,0.09520342647,1.6905203243722353,0.4742652906858438,-1.3101913797594753, ,0.0352776734418107,0.017502202426866613,0.010799194250847459,-0.004493675594303542,0.07494978128968803,-0.054526525794259775, ,0.790276050567627
0.011438441888302477,0.02119188878582118,-0.08466287567939905, ,0.011781101479352168,0.02102662444206357,-0.08500979989045639, ,0.0005148633866121482, ,0.005156097364634419,0.0011263190932429767,-0.011418707488560921,-0.01616279702254,-0.027133002941056864,0.002070028296299435, ,0.01257938056673344, ,0.03158220483222738, ,5.734507887988276e-05, ,0.18264263247540966,-0.2377674997316242,0.09542898093,1.6905203243722353,0.47467520018514014,-1.3103622759902835, ,0.036109947320574876,0.019655538848067686,0.011976550015037595,-0.004220600567063311,0.010318653182936564,-0.0032897841060248964, ,0.8049829006195068
0.011487069511486002,0.02120382490783575,-0.08477474266303041, ,0.011859363867105795,0.021033973432474196,-0.0851652319684018, ,0.000565627535148602, ,0.005339216943710039,0.0012013117422769856,-0.011967956241773513,-0.013868505606127372,-0.0249164952575643,0.001847729543271638, ,0.013159877054104211, ,0.028516082096599657, ,5.881984738702781e-05, ,0.18299015545474975,-0.2375821541426428,0.09554694332000001,1.6905203243722353,0.47494847318467104,-1.3105851117976766, ,0.03727295426491389,0.02034232402110842,0.0125621541955836,-0.004105074724332647,0.01377869919097187,-0.006111219619743849, ,0.8190619945526123
0.011536577666733999,0.021214334328272987,-0.08488844877842278, ,0.011938161060085651,0.021040481970746483,-0.08532013706386629, ,0.0006146939399591582, ,0.0052935845674407945,0.0006312695204385289,-0.010576295210489842,-0.013140947502949592,-0.023101279275772078,0.0013936893187613956, ,0.011843924989610176, ,0.02657731124699404, ,6.045525493190302e-05, ,0.18378559694079488,-0.23714968110168624,0.09578157181000001,1.6905203243722353,0.4759049286830291,-1.311283358383411, ,0.03992298761399696,0.022877758331357467,0.011100217087108016,-0.003879232936651189,0.01833342974762372,-0.009091178019164696, ,0.8339319229125977
0.01164633654051822,0.021228870765928054,-0.08510463818039682, ,0.012017483992465909,0.021046164282188258,-0.08547452328257064, ,0.0005549297965490436, ,0.005906289824308381,0.0006906973802801677,-0.01070206256312132,-0.02718887979732631,-0.04575314525860092,0.0008493750477958432, ,0.012243180365608338, ,0.053222038154299295, ,6.204488910957678e-05, ,0.18421806998175144,-0.23691799911545952,0.09589564533000002,1.6905203243722353,0.4760415651827945,-1.3113130975469667, ,0.04484732587829433,0.022546196616410257,0.011249160677966103,-0.003774404597899054,0.0,0.0045634427938160745, ,0.8452739715576172
0.01164633654051822,0.021228870765928054,-0.08510463818039682, ,0.012097323659596057,0.021051034508118183,-0.08562839866041601, ,0.0007136807105392977, ,0.006073829911596918,0.0007704160291093009,-0.012176342887131143,0.001995871668778946,-0.011233226043501321,0.0002641945262120271, ,0.013628949950671444, ,0.011409145603510045, ,6.426146912306655e-05, ,0.18468143395420492,-0.23667087166348433,0.09601490401000001,1.6905203243722353,0.47645147468209087,-1.311647351258056, ,0.047025243586952814,0.025928126108871796,0.01285618363196126,-0.0036767009502388552,0.03785724304158532,-0.026541773986934657, ,0.8560690879821777
0.011763675367437675,0.021246120242582194,-0.0853505135519058, ,0.012177671117842293,0.021055106706060624,-0.08578177116369501, ,0.0006275840821863552, ,0.00612840141253599,0.001247141418720403,-0.014278670412854631,0.034092056090831616,0.024322522306698804,-0.0004018534384770979, ,0.015588235767731745, ,0.04187902561349182, ,6.60656171513535e-05, ,0.18513707519378417,-0.2364082987457607,0.09615619962000001,1.6905203243722353,0.4771346571809181,-1.3121227620363975, ,0.0463590334921694,0.026514931980573,0.015141455817490494,-0.0035842352553818618,0.0738327684026734,-0.05797553188969183, ,0.8667409420013428
0.011828738425237064,0.02125916459630588,-0.08549982962393336, ,0.012258517484428947,0.02105839484994005,-0.08593464868930514, ,0.0006434952605780775, ,0.006729872750693822,0.0013637438000517524,-0.01570203589500949,0.021546462337028244,0.01364179983383809,-3.940840379686338e-06, ,0.017137821204601163, ,0.025501917328681737, ,6.789061063136996e-05, ,0.1856236073648603,-0.2361302803622886,0.09631434700000001,1.6905203243722353,0.4778178396797452,-1.3125164940745984, ,0.049245947876736265,0.02901159937587,0.016592512,-0.0034962384209825015,0.06577461060422984,-0.04801383187411218, ,0.877730131149292
0.011900617646811608,0.021274361614512394,-0.08566647813224829, ,0.012339853937279854,0.02106091283027541,-0.08608703906496003, ,0.0006444846006538268, ,0.007010467676950022,0.0013856597885956365,-0.015892254237054024,0.011376105455319243,0.006574752785735585,0.0015875481739310432, ,0.017424995117200276, ,0.01313933543912683, ,6.967527771136881e-05, ,0.18614875320030758,-0.23582909378019384,0.09649064244000001,1.6905203243722353,0.47850102217857243,-1.312746868632518, ,0.05135115885198635,0.02921703865716465,0.016802543797468355,-0.0034088750491568925,0.06065282958894,-0.037949501754748004, ,0.8887529373168945
0.011970848436397058,0.02128559612780008,-0.08581518836716688, ,0.012421671714859804,0.021062674454375107,-0.08623895004940176, ,0.00065765466942539, ,0.007313230373987306,0.0010115279913451944,-0.014935017208333035,-0.030878848267818476,-0.017249310925540117,0.008385513556568221, ,0.01666017005896066, ,0.035370061558962274, ,7.17568203378855e-05, ,0.18666617630288063,-0.23553562993097332,0.09664749353,1.6905203243722353,0.4789109316778688,-1.3128360861231858, ,0.05469564354955088,0.030621794630032523,0.015755501008902082,-0.003332046425697025,0.03960791715715745,0.0032855710945582494, ,0.8960020542144775
0.011970848436397058,0.02128559612780008,-0.08581518836716688, ,0.012503962116016013,0.02106369344653083,-0.08639038933261314, ,0.0008150503947619779, ,0.007313230373987306,0.0010115279913451944,-0.014935017208333035,-0.030878848267818476,-0.017249310925540117,0.008385513556568221, ,0.01666017005896066, ,0.035370061558962274, ,7.443226557328871e-05, ,0.18666617630288063,-0.23553562993097332,0.09664749353,1.6905203243722353,0.4789109316778688,-1.3128360861231858, ,0.05469564354955088,0.030621794630032523,0.015755501008902082,-0.003332046425697025,0.03960791715715745,0.0032855710945582494, ,0.9031801223754883
0.012045934586516309,0.021294589298396286,-0.08596803762473994, ,0.012586716499819404,0.02106398344821317,-0.08654136453603, ,0.0008211746970674575, ,0.007620341345240062,0.0007705862737838801,-0.015492910291320291,-0.0066811559697289346,0.009094388502942004,0.007302722708252789, ,0.01728275657174565, ,0.011284717750902801, ,7.708961800775858e-05, ,0.1872531040013217,-0.23520355241738167,0.09680952978000001,1.6905203243722353,0.479594114176696,-1.313148139421246, ,0.05975877931893626,0.0350173216082918,0.016404543274974256,-0.003254207152227262,0.07198673474683044,-0.02408458628659248, ,0.9102969169616699
0.012128110314099492,0.021304265699475456,-0.08614012728459888, ,0.012669926285406117,0.021063558018265028,-0.08669188321275316, ,0.0008099008203539675, ,0.008336390566848538,0.0012397289220840671,-0.01775081114386108,0.01824444328156096,0.03481475394266208,0.007638994621751686, ,0.019650028797645967, ,0.03930553447539988, ,7.96610752012427e-05, ,0.18790181356275654,-0.23482513850654466,0.09699230667000001,1.6905203243722353,0.4805505696750541,-1.3136830285266994, ,0.06576364626366651,0.03619257877897437,0.01891782840855107,-0.0031794715154289076,0.1046979876486277,-0.04888480126395963, ,0.9173920154571533
0.012128110314099492,0.021304265699475456,-0.08614012728459888, ,0.012753582951818953,0.021062430633096922,-0.08684195284776093, ,0.0009707004383298565, ,0.008336390566848538,0.0012397289220840671,-0.01775081114386108,0.01824444328156096,0.03481475394266208,0.007638994621751686, ,0.019650028797645967, ,0.03930553447539988, ,8.28181891620496e-05, ,0.18790181356275654,-0.23482513850654466,0.09699230667000001,1.6905203243722353,0.4805505696750541,-1.3136830285266994, ,0.06576364626366651,0.03619257877897437,0.01891782840855107,-0.0031794715154289076,0.1046979876486277,-0.04888480126395963, ,0.9299740791320801
0.012306941288408046,0.02133526986357776,-0.0865359965562798, ,0.012837678037848745,0.021060614686881467,-0.0869915808581208, ,0.0007514479485479313, ,0.009549382517394707,0.001619183278892915,-0.020896722599498943,0.006877354240601848,0.0014627926454793276,-0.0024059994494678226, ,0.02303227032566655, ,0.007030915944448528, ,8.508000989650453e-05, ,0.1892687372814943,-0.23406831068487066,0.09741360092000001,1.6903106344287508,0.48273675367130114,-1.31513900002528, ,0.0690661874515799,0.040108597446521885,0.022092665076282943,0.0,0.07280763842770223,-0.042903248106614014, ,0.9372091293334961
0.012405026282209939,0.02134728276584728,-0.08673551063242296, ,0.012922203141875822,0.021058123491747252,-0.08714077459320205, ,0.0007178606186985539, ,0.009971750313012447,0.0010312450769602178,-0.019358456683294833,-0.05182044943245781,-0.05026131379332987,0.0003877163136009854, ,0.021800209078649244, ,0.0721911069658948, ,8.717847962411199e-05, ,0.18997922870592293,-0.23365900584253677,0.09762359990000001,1.6901009444852664,0.4831466631705974,-1.3150648600356662, ,0.07216497456917931,0.04208290091284735,0.020343309731800766,0.0012070928837471574,0.022454934672006675,0.012970882864837146, ,0.945106029510498
0.012405026282209939,0.02134728276584728,-0.08673551063242296, ,0.013007149921711309,0.021054970277974348,-0.08728954133488767, ,0.0008688782924474388, ,0.009971750313012447,0.0010312450769602178,-0.019358456683294833,-0.05182044943245781,-0.05026131379332987,0.0003877163136009854, ,0.021800209078649244, ,0.0721911069658948, ,9.016206669595675e-05, ,0.18997922870592293,-0.23365900584253677,0.09762359990000001,1.6901009444852664,0.4831466631705974,-1.3150648600356662, ,0.07216497456917931,0.04208290091284735,0.020343309731800766,0.0012070928837471574,0.022454934672006675,0.012970882864837146, ,0.9487519264221191
0.012405026282209939,0.02134728276584728,-0.08673551063242296, ,0.013092510094438846,0.021051168194188185,-0.08743788829778705, ,0.0010264756287549869, ,0.009971750313012447,0.0010312450769602178,-0.019358456683294833,-0.05182044943245781,-0.05026131379332987,0.0003877163136009854, ,0.021800209078649244, ,0.0721911069658948, ,9.37221943083485e-05, ,0.18997922870592293,-0.23365900584253677,0.09762359990000001,1.6901009444852664,0.4831466631705974,-1.3150648600356662, ,0.07216497456917931,0.04208290091284735,0.020343309731800766,0.0012070928837471574,0.022454934672006675,0.012970882864837146, ,0.9523830413818359
0.012503463783157212,0.021355982362187692,-0.08693192886088923, ,0.013178275436255627,0.021046730307554374,-0.08758582262944745, ,0.0009892343812320792, ,0.010568858105461494,0.0007438671347493014,-0.021381540383643233,0.013776878539846686,0.01913356492369945,-0.002932709222115897, ,0.02386261446583139, ,0.023577345485648684, ,0.0005232279894760762, ,0.19072061106184848,-0.23321108733583173,0.09783100630000001,1.6901009444852664,0.4838298456694246,-1.3152952345935862, ,0.08152658209490615,0.05112981765003813,0.02262615272727273,0.0012070928837471574,0.10360833846211398,-0.05890040184768464, ,0.9560830593109131
0.012503463783157212,0.021355982362187692,-0.08693192886088923, ,0.013264437782314177,0.021041669603972836,-0.08773335141056696, ,0.0011489786945376877, ,0.010568858105461494,0.0007438671347493014,-0.021381540383643233,0.013776878539846686,0.01913356492369945,-0.002932709222115897, ,0.02386261446583139, ,0.023577345485648684, ,0.0005357430035773085, ,0.19072061106184848,-0.23321108733583173,0.09783100630000001,1.6901009444852664,0.4838298456694246,-1.3152952345935862, ,0.08152658209490615,0.05112981765003813,0.02262615272727273,0.0012070928837471574,0.10360833846211398,-0.05890040184768464, ,0.9597499370574951
0.012503463783157212,0.021355982362187692,-0.08693192886088923, ,0.01335098902656361,0.02103599898827297,-0.08788048165520586, ,0.001311655748052366, ,0.010568858105461494,0.0007438671347493014,-0.021381540383643233,0.013776878539846686,0.01913356492369945,-0.002932709222115897, ,0.02386261446583139, ,0.023577345485648684, ,0.0005509569789591723, ,0.19072061106184848,-0.23321108733583173,0.09783100630000001,1.6901009444852664,0.4838298456694246,-1.3152952345935862, ,0.08152658209490615,0.05112981765003813,0.02262615272727273,0.0012070928837471574,0.10360833846211398,-0.05890040184768464, ,0.9633851051330566
0.01261296080181095,0.02136459301475942,-0.08716324034925568, ,0.013437921121591107,0.02102973128440757,-0.0880272203110001, ,0.0012406261652737722, ,0.012052998384753363,0.0014322183111136633,-0.026184876526919906,0.10345050151290335,0.10743068798007002,-0.005630444775760378, ,0.028861285107971153, ,0.14914203523251074, ,0.0005642198479267607, ,0.19159327987663585,-0.2326627733017618,0.09807730140000001,1.6901009444852664,0.4854694836666099,-1.3166322494379434, ,0.09693252457453604,0.057166832264139024,0.02804368225352113,0.0012070928837471574,0.21043179642714685,-0.15100274063920868, ,0.9670441150665283
0.01261296080181095,0.02136459301475942,-0.08716324034925568, ,0.013525226078463366,0.021022879235647888,-0.08817357425937207, ,0.0014034852517042923, ,0.012052998384753363,0.0014322183111136633,-0.026184876526919906,0.10345050151290335,0.10743068798007002,-0.005630444775760378, ,0.028861285107971153, ,0.14914203523251074, ,0.0005800550442244501, ,0.19159327987663585,-0.2326627733017618,0.09807730140000001,1.6901009444852664,0.4854694836666099,-1.3166322494379434, ,0.09693252457453604,0.057166832264139024,0.02804368225352113,0.0012070928837471574,0.21043179642714685,-0.15100274063920868, ,0.9706110954284668
0.01261296080181095,0.02136459301475942,-0.08716324034925568, ,0.01361289596656796,0.021015455504777722,-0.08831955031574378, ,0.0015680625220932806, ,0.012052998384753363,0.0014322183111136633,-0.026184876526919906,0.10345050151290335,0.10743068798007002,-0.005630444775760378, ,0.028861285107971153, ,0.14914203523251074, ,0.0005983514789997987, ,0.19159327987663585,-0.2326627733017618,0.09807730140000001,1.6901009444852664,0.4854694836666099,-1.3166322494379434, ,0.09693252457453604,0.057166832264139024,0.02804368225352113,0.0012070928837471574,0.21043179642714685,-0.15100274063920868, ,0.9741599559783936
0.012752011730544646,0.021386141537407158,-0.08747116799703403, ,0.01370092291345491,0.02100747267428809,-0.08846515522974881, ,0.0014254238526655953, ,0.01485571641830163,0.0027021770099759524,-0.033559403992156595,0.1307390501110871,0.11674718950947907,-0.010382475016628338, ,0.03679983243444208, ,0.17527852953368994, ,0.0006133891585209949, ,0.19269763067764997,-0.23204495467182384,0.09840785535,1.6901009444852664,0.48792894066238784,-1.3183927354840572, ,0.11378530162886184,0.0629707641396621,0.03595668514672686,0.0012070928837471574,0.23724591057195593,-0.18364751379106725, ,0.9777910709381104
0.012752011730544646,0.021386141537407158,-0.08747116799703403, ,0.013789299104678096,0.0209989432465721,-0.08861039568544493, ,0.0015886243542777225, ,0.01485571641830163,0.0027021770099759524,-0.033559403992156595,0.1307390501110871,0.11674718950947907,-0.010382475016628338, ,0.03679983243444208, ,0.17527852953368994, ,0.0006308040727309365, ,0.19269763067764997,-0.23204495467182384,0.09840785535,1.6901009444852664,0.48792894066238784,-1.3183927354840572, ,0.11378530162886184,0.0629707641396621,0.03595668514672686,0.0012070928837471574,0.23724591057195593,-0.18364751379106725, ,0.9813830852508545
0.012752011730544646,0.021386141537407158,-0.08747116799703403, ,0.0138780167836366,0.02098987964411848,-0.0887552783015252, ,0.0017532398985198104, ,0.01485571641830163,0.0027021770099759524,-0.033559403992156595,0.1307390501110871,0.11674718950947907,-0.010382475016628338, ,0.03679983243444208, ,0.17527852953368994, ,0.0006504959293237238, ,0.19387148607453208,-0.23138852237751475,0.09880711267000002,1.6901009444852664,0.4901151246586349,-1.3200120644629187, ,0.12324278124476726,0.070713071206014,0.04499664271186441,0.0012070928837471574,0.19664291003684897,-0.1358654390697585, ,0.9849460124969482
0.012920414208995746,0.021420459188239663,-0.08786010236410444, ,0.013967068251416283,0.020980294209707644,-0.08889980963153182, ,0.0015395522384065658, ,0.01789553895009368,0.0039796918635975655,-0.042599209751010746,0.0732899647884626,0.06801470202491368,-0.0079603324462325, ,0.046376512730628136, ,0.09998639080579874, ,0.0006658244863768762, ,0.19387148607453208,-0.23138852237751475,0.09880711267000002,1.6901009444852664,0.4901151246586349,-1.3200120644629187, ,0.12324278124476726,0.070713071206014,0.04499664271186441,0.0012070928837471574,0.19664291003684897,-0.1358654390697585, ,0.9888260364532471
0.012920414208995746,0.021420459188239663,-0.08786010236410444, ,0.014056445866631124,0.02097019920660475,-0.08904399616406698, ,0.0017014424785461934, ,0.01789553895009368,0.0039796918635975655,-0.042599209751010746,0.0732899647884626,0.06801470202491368,-0.0079603324462325, ,0.046376512730628136, ,0.09998639080579874, ,0.00068337733370178, ,0.19387148607453208,-0.23138852237751475,0.09880711267000002,1.6901009444852664,0.4901151246586349,-1.3200120644629187, ,0.12324278124476726,0.070713071206014,0.04499664271186441,0.0012070928837471574,0.19664291003684897,-0.1358654390697585, ,0.9935789108276367
0.013108568520575632,0.021464215830814103,-0.08830853730117157, ,0.014146142045264792,0.020959606818754802,-0.08918784432300586, ,0.0014506446542259916, ,0.0198155691485751,0.004495421730281374,-0.04760488839656345,0.012273131013214502,0.03910083175697314,0.0074251834107672155, ,0.05175993621001004, ,0.040978778664536405, ,0.0006961651223771835, ,0.19517662793027604,-0.23061624909009232,0.09929840658000001,1.6903106344287508,0.4918913991555856,-1.3210521035102696, ,0.13017413108157858,0.07849209392760198,0.05040763139240506,-0.004410158904982332,0.17569665665925932,-0.0811558248282988, ,0.9972569942474365
0.013108568520575632,0.021464215830814103,-0.08830853730117157, ,0.01423614926051203,0.020948529150977606,-0.08933136046770879, ,0.0016073388898553821, ,0.0198155691485751,0.004495421730281374,-0.04760488839656345,0.012273131013214502,0.03910083175697314,0.0074251834107672155, ,0.05175993621001004, ,0.040978778664536405, ,0.0007111023972538753, ,0.19517662793027604,-0.23061624909009232,0.09929840658000001,1.6903106344287508,0.4918913991555856,-1.3210521035102696, ,0.13017413108157858,0.07849209392760198,0.05040763139240506,-0.004410158904982332,0.17569665665925932,-0.0811558248282988, ,1.001060962677002
0.0133142578203392,0.02150341018927279,-0.08879234751097334, ,0.014326460042620063,0.020936978229161327,-0.08947455089323325, ,0.0013456596742835428, ,0.020396825695741777,0.0031254980332224886,-0.04650397038246204,0.04143944285792164,0.03752563271762058,-0.006529581927791549, ,0.05064627113589455, ,0.055903336571150285, ,0.0007213371920446764, ,0.19649721525176841,-0.22978991667255028,0.09979229307000001,1.6901009444852664,0.49366767365253633,-1.3222555000379015, ,0.1375317993601026,0.08902152116179247,0.04946835875776398,-0.004167602733812889,0.18266493124066988,-0.12297255635210518, ,1.0052740573883057
0.0133142578203392,0.02150341018927279,-0.08879234751097334, ,0.014417066978730157,0.020924966000458085,-0.08961742183054633, ,0.0014938317683806635, ,0.020396825695741777,0.0031254980332224886,-0.04650397038246204,0.04143944285792164,0.03752563271762058,-0.006529581927791549, ,0.050876502412715595, ,0.055903336571150285, ,0.0007335990107166763, ,0.19649721525176841,-0.22978991667255028,0.09979229307000001,1.6901009444852664,0.49366767365253633,-1.3222555000379015, ,0.1375317993601026,0.08902152116179247,0.04946835875776398,-0.004167602733812889,0.18266493124066988,-0.12297255635210518, ,1.0091440677642822
0.0133142578203392,0.02150341018927279,-0.08879234751097334, ,0.014507962712719057,0.020912504333477525,-0.08975997944673701, ,0.0016463330961911952, ,0.020396825695741777,0.0031254980332224886,-0.04650397038246204,0.04143944285792164,0.03752563271762058,-0.006529581927791549, ,0.050876502412715595, ,0.055903336571150285, ,0.0007478604808022156, ,0.19649721525176841,-0.22978991667255028,0.09979229307000001,1.6901009444852664,0.49366767365253633,-1.3222555000379015, ,0.1375317993601026,0.08902152116179247,0.04946835875776398,-0.004167602733812889,0.18266493124066988,-0.12297255635210518, ,1.0126819610595703
0.01351517411106605,0.02152374452774342,-0.08922245220811377, ,0.01459913994504037,0.020899605018481746,-0.08990222984522826, ,0.001423597447372679, ,0.021617424939175327,0.0012424778118738467,-0.04320685679253819,0.01249827271747694,0.01799814959028219,0.009536212825353477, ,0.04832896942833337, ,0.021908665658950322, ,0.0007582564341340689, ,0.19796453449787108,-0.2288554659947691,0.10026543892,1.6896815645982974,0.49558058464925253,-1.3234886357290891, ,0.15506036202364507,0.09968166130091469,0.04603702751445087,-0.017462791606814375,0.18515256538992833,-0.10627781028706229, ,1.0163121223449707
0.01351517411106605,0.02152374452774342,-0.08922245220811377, ,0.014690591432566121,0.020886279767580066,-0.09004417906598951, ,0.0015694592154901175, ,0.021617424939175327,0.0012424778118738467,-0.04320685679253819,0.01249827271747694,0.01799814959028219,0.009536212825353477, ,0.04832896942833337, ,0.021908665658950322, ,0.0007705473853667363, ,0.19796453449787108,-0.2288554659947691,0.10026543892,1.6896815645982974,0.49558058464925253,-1.3234886357290891, ,0.15506036202364507,0.09968166130091469,0.04603702751445087,-0.017462791606814375,0.18515256538992833,-0.10627781028706229, ,1.0198650360107422
0.01351517411106605,0.02152374452774342,-0.08922245220811377, ,0.014782309988428123,0.02087254021492303,-0.0901858330857487, ,0.0017198264750045824, ,0.021617424939175327,0.0012424778118738467,-0.04320685679253819,0.01249827271747694,0.01799814959028219,0.009536212825353477, ,0.04832896942833337, ,0.021908665658950322, ,0.0007847157299881967, ,0.19796453449787108,-0.2288554659947691,0.10026543892,1.6896815645982974,0.49558058464925253,-1.3234886357290891, ,0.15506036202364507,0.09968166130091469,0.04603702751445087,-0.017462791606814375,0.18515256538992833,-0.10627781028706229, ,1.023427963256836
0.01369052540976574,0.02152858371511096,-0.08955733308146044, ,0.014874288481859618,0.02085839791689731,-0.09032719781820478, ,0.0015630533349386504, ,0.02228766490822372,-1.6743980101155994e-05,-0.040389024251689803,0.021519223745063085,0.010284090448369653,0.02465894378559073, ,0.04613039743407511, ,0.023848103271032053, ,0.000796161871237468, ,0.19926967635361503,-0.2280291335772271,0.10062062238000001,1.6894718746548125,0.49708358614667236,-1.324632553929609, ,0.17037152883028864,0.10555833321298196,0.04293480194070081,-0.03782066842423611,0.19478382662770227,-0.12428015735196168, ,1.0270869731903076
0.01369052540976574,0.02152858371511096,-0.08955733308146044, ,0.014966519838036487,0.0208438643523199,-0.09046827911423953, ,0.0017107966160227687, ,0.02228766490822372,-1.6743980101155994e-05,-0.040389024251689803,0.021519223745063085,0.010284090448369653,0.02465894378559073, ,0.04613039743407511, ,0.023848103271032053, ,0.0008094174472488492, ,0.19926967635361503,-0.2280291335772271,0.10062062238000001,1.6894718746548125,0.49708358614667236,-1.324632553929609, ,0.17037152883028864,0.10555833321298196,0.04293480194070081,-0.03782066842423611,0.19478382662770227,-0.12428015735196168, ,1.034071922302246
0.01369052540976574,0.02152858371511096,-0.08955733308146044, ,0.015058997037918947,0.020828950922632962,-0.09060908276213057, ,0.001862358191154586, ,0.02228766490822372,-1.6743980101155994e-05,-0.040389024251689803,0.021519223745063085,0.010284090448369653,0.02465894378559073, ,0.04613039743407511, ,0.023848103271032053, ,0.000824459457876074, ,0.19926967635361503,-0.2280291335772271,0.10062062238000001,1.6894718746548125,0.49708358614667236,-1.324632553929609, ,0.17037152883028864,0.10555833321298196,0.04293480194070081,-0.03782066842423611,0.19478382662770227,-0.12428015735196168, ,1.037809133529663
0.013854444229050546,0.021522516426777757,-0.08983227152107315, ,0.0151517131180929,0.02081366895209792,-0.0907496144877629, ,0.0017397958016308508, ,0.02250874873218172,-0.0019452097455879818,-0.03513085535250182,0.04836063742808383,-0.004608902822072792,0.01097356246147994, ,0.041768464279181114, ,0.04857921084791094, ,0.0008373515190557186, ,0.20055937274361052,-0.22723369209118197,0.10091358392000001,1.6894718746548125,0.4984499511443268,-1.3255016967461515, ,0.1828457448140092,0.11257051193175657,0.03747955651764706,-0.0373632477513752,0.1918815913067606,-0.15986917573680273, ,1.041935920715332
0.013854444229050546,0.021522516426777757,-0.08983227152107315, ,0.015244661170611478,0.020798029687990775,-0.09088987995484198, ,0.0018910631344458547, ,0.02250874873218172,-0.0019452097455879818,-0.03513085535250182,0.04836063742808383,-0.004608902822072792,0.01097356246147994, ,0.041768464279181114, ,0.04857921084791094, ,0.0008519864026028038, ,0.20055937274361052,-0.22723369209118197,0.10091358392000001,1.6894718746548125,0.4984499511443268,-1.3255016967461515, ,0.1828457448140092,0.11257051193175657,0.03747955651764706,-0.0373632477513752,0.1918815913067606,-0.15986917573680273, ,1.0456221103668213
0.014222695444145323,0.02143836160776159,-0.09024246537442522, ,0.01533783434283646,0.0207820443007953,-0.09102988476510487, ,0.001514700124650381, ,0.020844796651071168,-0.008157937718802376,-0.016232105066123215,-0.13775229455087099,-0.1686326124669161,-0.01089971139668187, ,0.02765029349077563, ,0.2177444637977645, ,0.0008610646727678392, ,0.20374886142066523,-0.2252335042767578,0.10135043365000002,1.6894718746548125,0.4999529526417466,-1.3260738637656877, ,0.18979388311694156,0.13071204071414708,0.01701796102564103,-0.006987091005237135,0.023538622166070645,0.010537972571319526, ,1.0491960048675537
0.014222695444145323,0.02143836160776159,-0.09024246537442522, ,0.015431225837279738,0.02076572388439893,-0.09116963445853354, ,0.001665121535668311, ,0.020844796651071168,-0.008157937718802376,-0.016232105066123215,-0.13775229455087099,-0.1686326124669161,-0.01089971139668187, ,0.02765029349077563, ,0.2177444637977645, ,0.0008719303060502779, ,0.20374886142066523,-0.2252335042767578,0.10135043365000002,1.6894718746548125,0.4999529526417466,-1.3260738637656877, ,0.18979388311694156,0.13071204071414708,0.01701796102564103,-0.006987091005237135,0.023538622166070645,0.010537972571319526, ,1.0527749061584473
0.014222695444145323,0.02143836160776159,-0.09024246537442522, ,0.015524828911444815,0.020749079456286294,-0.0913091345135667, ,0.0018189130005034986, ,0.020844796651071168,-0.008157937718802376,-0.016232105066123215,-0.13775229455087099,-0.1686326124669161,-0.01089971139668187, ,0.02765029349077563, ,0.2177444637977645, ,0.000884556741976321, ,0.20374886142066523,-0.2252335042767578,0.10135043365000002,1.6894718746548125,0.4999529526417466,-1.3260738637656877, ,0.18979388311694156,0.13071204071414708,0.01701796102564103,-0.006987091005237135,0.023538622166070645,0.010537972571319526, ,1.056365966796875
0.01444019219509341,0.021353143282782688,-0.09045852504108526, ,0.015618636877668414,0.020732121957734218,-0.09144839034731216, ,0.0016595881056834343, ,0.023112116661956734,-0.007058373766197416,-0.029539371397480686,0.14860129433993172,0.08678108851213517,-0.040915688576335756, ,0.03816497136613025, ,0.17208509381112747, ,0.0008947545230777304, ,0.20576449470083782,-0.2237430168320325,0.10157987698000001,1.6894718746548125,0.5018658636384628,-1.327388678197016, ,0.20765195089380914,0.15330685227539706,0.03160478476190477,-0.006609473055798827,0.30394448028923465,-0.29226980949157205, ,1.0599310398101807
0.01444019219509341,0.021353143282782688,-0.09045852504108526, ,0.015712643102961752,0.0207148622540061,-0.09158740731575922, ,0.0018168404373263287, ,0.023112116661956734,-0.007058373766197416,-0.029539371397480686,0.14860129433993172,0.08678108851213517,-0.040915688576335756, ,0.03816497136613025, ,0.17208509381112747, ,0.0009067296648212187, ,0.20576449470083782,-0.2237430168320325,0.10157987698000001,1.6894718746548125,0.5018658636384628,-1.327388678197016, ,0.20765195089380914,0.15330685227539706,0.03160478476190477,-0.006609473055798827,0.30394448028923465,-0.29226980949157205, ,1.0635409355163574
0.01444019219509341,0.021353143282782688,-0.09045852504108526, ,0.015806841008852057,0.020697311134546308,-0.09172619071399064, ,0.001976062004358903, ,0.023112116661956734,-0.007058373766197416,-0.029539371397480686,0.14860129433993172,0.08678108851213517,-0.040915688576335756, ,0.03816497136613025, ,0.17208509381112747, ,0.0009204390537896506, ,0.20576449470083782,-0.2237430168320325,0.10157987698000001,1.6894718746548125,0.5018658636384628,-1.327388678197016, ,0.20765195089380914,0.15330685227539706,0.03160478476190477,-0.006609473055798827,0.30394448028923465,-0.29226980949157205, ,1.0670850276947021
0.014690392243882858,0.021299891905222103,-0.09081512772266498, ,0.01590122407122412,0.020679479313174823,-0.09186474577639529, ,0.0017183490789679534, ,0.02562485556972059,-0.004051696675677929,-0.0368007173740372,0.09845974505758238,0.04772076639662315,0.000971100845395768, ,0.04502601768049783, ,0.10941446634590313, ,0.0009305391806906417, ,0.20793458263849493,-0.2222679748530556,0.10196357882000001,1.6888428048243591,0.5052817761325988,-1.3303374832697075, ,0.21421431503040805,0.13733276636537015,0.03962390925373134,-0.035463272113185736,0.2770152300144749,-0.23159815819955276, ,1.0706489086151123
0.014690392243882858,0.021299891905222103,-0.09081512772266498, ,0.01599578582016194,0.020661377428282002,-0.09200307767688046, ,0.001876959834405984, ,0.02562485556972059,-0.004051696675677929,-0.0368007173740372,0.09845974505758238,0.04772076639662315,0.000971100845395768, ,0.04502601768049783, ,0.10941446634590313, ,0.0009423694388620835, ,0.20793458263849493,-0.2222679748530556,0.10196357882000001,1.6888428048243591,0.5052817761325988,-1.3303374832697075, ,0.21421431503040805,0.13733276636537015,0.03962390925373134,-0.035463272113185736,0.2770152300144749,-0.23159815819955276, ,1.0744199752807617
0.014836416861647193,0.02127676911582612,-0.09101767208041794, ,0.016090519839789725,0.02064301604302221,-0.09214119152908352, ,0.0017990867651684218, ,0.02882196417095538,-0.0045200951934691105,-0.03934547263098565,-0.0640283379848478,-0.12150553538095518,0.06206368735100402, ,0.04898166081081264, ,0.13734310649440967, ,0.0009529461959769765, ,0.20911616076825126,-0.22151886976425583,0.10218005925000001,1.68842342493739,0.5062382316309569,-1.3311174085955826, ,0.22921966560017099,0.14465997188791277,0.04191792505263159,-0.09289129022475587,0.131641676834014,-0.09148985417602229, ,1.079176902770996
0.014836416861647193,0.02127676911582612,-0.09101767208041794, ,0.0161854197681139,0.020624405645509367,-0.09227909238658501, ,0.001958715938534719, ,0.02882196417095538,-0.0045200951934691105,-0.03934547263098565,-0.0640283379848478,-0.12150553538095518,0.06206368735100402, ,0.04898166081081264, ,0.13734310649440967, ,0.0009652116806423149, ,0.20911616076825126,-0.22151886976425583,0.10218005925000001,1.68842342493739,0.5062382316309569,-1.3311174085955826, ,0.22921966560017099,0.14465997188791277,0.04191792505263159,-0.09289129022475587,0.131641676834014,-0.09148985417602229, ,1.0829520225524902
0.014836416861647193,0.02127676911582612,-0.09101767208041794, ,0.016280479296864322,0.020605556649010856,-0.0924167852431203, ,0.0021197547345059653, ,0.02882196417095538,-0.0045200951934691105,-0.03934547263098565,-0.0640283379848478,-0.12150553538095518,0.06206368735100402, ,0.04898166081081264, ,0.13734310649440967, ,0.0009791218379177806, ,0.20911616076825126,-0.22151886976425583,0.10218005925000001,1.68842342493739,0.5062382316309569,-1.3311174085955826, ,0.22921966560017099,0.14465997188791277,0.04191792505263159,-0.09289129022475587,0.131641676834014,-0.09148985417602229, ,1.0865979194641113
0.01525094302511341,0.021224503948661023,-0.09162885244045549, ,0.01637569217133582,0.02058647939214226,-0.09255427503279268, ,0.001590139286684373, ,0.02983389849069842,-0.00333616036249562,-0.047121847141898904,-0.10993507493122653,-0.1690768560209725,0.0129637708416993, ,0.05587181707428236, ,0.20167417189301612, ,0.000986395855165002, ,0.2122129766508153,-0.21943373188821522,0.10282690796,1.6882137349939055,0.5073313236290804,-1.3318453943448727, ,0.21229740840821204,0.15015338854188412,0.04962246579439253,-0.04737647290092853,0.054959361884257,-0.04490260579238612, ,1.0902020931243896
0.01525094302511341,0.021224503948661023,-0.09162885244045549, ,0.01647105219022966,0.02056718413906151,-0.09269156663028463, ,0.0017464527351625698, ,0.02983389849069842,-0.00333616036249562,-0.047121847141898904,-0.10993507493122653,-0.1690768560209725,0.0129637708416993, ,0.05587181707428236, ,0.20167417189301612, ,0.000995337700812032, ,0.2122129766508153,-0.21943373188821522,0.10282690796,1.6882137349939055,0.5073313236290804,-1.3318453943448727, ,0.21229740840821204,0.15015338854188412,0.04962246579439253,-0.04737647290092853,0.054959361884257,-0.04490260579238612, ,1.093775987625122
0.01525094302511341,0.021224503948661023,-0.09162885244045549, ,0.016566553205495115,0.02054768107966401,-0.0928286648510708, ,0.0019048541055387577, ,0.02983389849069842,-0.00333616036249562,-0.047121847141898904,-0.10993507493122653,-0.1690768560209725,0.0129637708416993, ,0.05587181707428236, ,0.20167417189301612, ,0.0010059134729600173, ,0.2122129766508153,-0.21943373188821522,0.10282690796,1.6882137349939055,0.5073313236290804,-1.3318453943448727, ,0.21229740840821204,0.15015338854188412,0.04962246579439253,-0.04737647290092853,0.054959361884257,-0.04490260579238612, ,1.0974159240722656
0.015585686655085602,0.021182481129774763,-0.0921671904078196, ,0.016662189122170847,0.020527980329776527,-0.09296557445163034, ,0.0014915247031982242, ,0.031238440888276597,-0.004012706479567034,-0.05068086450196888,0.00872538453108546,-0.03688859632320194,-0.009696378368233418, ,0.05966985863137636, ,0.03790206471263126, ,0.0010114952112386174, ,0.2146301920404476,-0.2176575033271436,0.10339597927000001,1.6882137349939055,0.5088343251265002,-1.3329893125453929, ,0.2286673290565561,0.1659037439833405,0.05381355243243244,-0.030931050659921588,0.2037261139172762,-0.17121798932044544, ,1.1010091304779053
0.015585686655085602,0.021182481129774763,-0.0921671904078196, ,0.016757953898226506,0.02050809193135207,-0.0931023001296587, ,0.001644214545662575, ,0.031238440888276597,-0.004012706479567034,-0.05068086450196888,0.00872538453108546,-0.03688859632320194,-0.009696378368233418, ,0.05966985863137636, ,0.03790206471263126, ,0.0010186852036752534, ,0.2146301920404476,-0.2176575033271436,0.10339597927000001,1.6882137349939055,0.5088343251265002,-1.3329893125453929, ,0.2286673290565561,0.1659037439833405,0.05381355243243244,-0.030931050659921588,0.2037261139172762,-0.17121798932044544, ,1.10481595993042
0.015821152118610876,0.02114974055659662,-0.09253785479269691, ,0.016853841544404165,0.020488025852664193,-0.09323884652428029, ,0.0017997032497489443, ,0.028885485479625675,-0.004714301935573116,-0.043904831755940794,0.03987770439035889,0.013831496026533902,-0.009657887231676559, ,0.0527658048896336, ,0.04220637924950451, ,0.0010274606873390028, ,0.21639097513577077,-0.216398697868645,0.10379134772000001,1.6882137349939055,0.5106105996234509,-1.3346011027737275, ,0.22120499197778737,0.15659561313279005,0.04698764460176992,-0.024775411230937093,0.24680130958661362,-0.1899234344980328, ,1.1096949577331543
0.015821152118610876,0.02114974055659662,-0.09253785479269691, ,0.01694984612405979,0.0204677919885017,-0.0933752182162608, ,0.0015621080342235166, ,0.028885485479625675,-0.004714301935573116,-0.043904831755940794,0.03987770439035889,0.013831496026533902,-0.009657887231676559, ,0.0527658048896336, ,0.04220637924950451, ,0.0010334012134154973, ,0.21639097513577077,-0.216398697868645,0.10379134772000001,1.6882137349939055,0.5106105996234509,-1.3346011027737275, ,0.22120499197778737,0.15659561313279005,0.04698764460176992,-0.024775411230937093,0.24680130958661362,-0.1899234344980328, ,1.1136579513549805
0.015821152118610876,0.02114974055659662,-0.09253785479269691, ,0.017045961753004817,0.02044740016036303,-0.09351141972821929, ,0.0017150129318359284, ,0.028885485479625675,-0.004714301935573116,-0.043904831755940794,0.03987770439035889,0.013831496026533902,-0.009657887231676559, ,0.0527658048896336, ,0.04220637924950451, ,0.001040891452079458, ,0.21639097513577077,-0.216398697868645,0.10379134772000001,1.6882137349939055,0.5106105996234509,-1.3346011027737275, ,0.22120499197778737,0.15659561313279005,0.04698764460176992,-0.024775411230937093,0.24680130958661362,-0.1899234344980328, ,1.1174609661102295
0.015943094208707136,0.021128022334370396,-0.09271579925017032, ,0.017142182599347557,0.02042686011665057,-0.09364745552484055, ,0.0016725503993180106, ,0.02897522916871483,-0.005260072655241447,-0.040834392489978256,0.02967842201238757,-0.004632703951586074,-0.03315744880486008, ,0.05034560437360499, ,0.030035930880491377, ,0.0010477573102016162, ,0.21733314854642616,-0.2157422655743359,0.10398190235000002,1.6880040450504212,0.5115670551218091,-1.3353810280996026, ,0.22648434739491832,0.1558242061715448,0.043881023471074386,0.0,0.22775221230571518,-0.17439017296110543, ,1.121074914932251
0.015943094208707136,0.021128022334370396,-0.09271579925017032, ,0.017238502883334776,0.020406181532865685,-0.09378333001308796, ,0.0018272273276177288, ,0.02897522916871483,-0.005260072655241447,-0.040834392489978256,0.02967842201238757,-0.004632703951586074,-0.03315744880486008, ,0.05034560437360499, ,0.030035930880491377, ,0.0010561387082383485, ,0.21733314854642616,-0.2157422655743359,0.10398190235000002,1.6880040450504212,0.5115670551218091,-1.3353810280996026, ,0.22648434739491832,0.1558242061715448,0.043881023471074386,0.0,0.22775221230571518,-0.17439017296110543, ,1.124648094177246
0.015943094208707136,0.021128022334370396,-0.09271579925017032, ,0.017334916877193116,0.02038537401180249,-0.0939190475424145, ,0.0019840623287368984, ,0.02897522916871483,-0.005260072655241447,-0.040834392489978256,0.02967842201238757,-0.004632703951586074,-0.03315744880486008, ,0.05034560437360499, ,0.030035930880491377, ,0.0010660102361159927, ,0.21733314854642616,-0.2157422655743359,0.10398190235000002,1.6880040450504212,0.5115670551218091,-1.3353810280996026, ,0.22648434739491832,0.1558242061715448,0.043881023471074386,0.0,0.22775221230571518,-0.17439017296110543, ,1.128251075744629
0.016439478025329596,0.020975944950707374,-0.09324685484263476, ,0.01743141890497066,0.020364447083743263,-0.0940546124049761, ,0.0014178676346980987, ,0.02840941457837117,-0.009586937298716097,-0.029063606508468454,-0.11424375656507331,-0.1666186319390692,0.020507211671139593, ,0.04175760322066357, ,0.20202322561099373, ,0.0010697139982063307, ,0.2214107515040167,-0.21288485441087285,0.10455097366,1.687165285276483,0.5134799661185252,-1.3369408787513524, ,0.23259054303546764,0.16795918859906334,0.031050314853801175,-0.05946446871169053,0.0805934333627834,-0.059701170457966586, ,1.1321461200714111
0.016439478025329596,0.020975944950707374,-0.09324685484263476, ,0.01752800334237841,0.020343410206651945,-0.09419002883584407, ,0.0015730749345660199, ,0.02840941457837117,-0.009586937298716097,-0.029063606508468454,-0.11424375656507331,-0.1666186319390692,0.020507211671139593, ,0.04175760322066357, ,0.20202322561099373, ,0.0010749573412934107, ,0.2214107515040167,-0.21288485441087285,0.10455097366,1.687165285276483,0.5134799661185252,-1.3369408787513524, ,0.23259054303546764,0.16795918859906334,0.031050314853801175,-0.05946446871169053,0.0805934333627834,-0.059701170457966586, ,1.1357510089874268
0.016727410233624476,0.020892974376352694,-0.0935813321357754, ,0.017624664616631733,0.020322272766369408,-0.09432530101321653, ,0.0012977886754261137, ,0.02819389457932139,-0.007645681357636163,-0.034647698014651784,0.04900033420379064,-0.0021829259693950894,0.01491335677506164, ,0.04531903697881166, ,0.0490484249153813, ,0.0010772545715422015, ,0.22376618503065518,-0.21121674411004035,0.10491263857000001,1.6869555953329984,0.5155295136150068,-1.3386121473067987, ,0.22921966560017099,0.16057012108032281,0.03756795169811321,-0.060483282253777554,0.24578968073748092,-0.21196228669922368, ,1.1393280029296875
0.016727410233624476,0.020892974376352694,-0.0935813321357754, ,0.01772139720629193,0.020301044076807672,-0.09446043305863148, ,0.0014530003489051553, ,0.02819389457932139,-0.007645681357636163,-0.034647698014651784,0.04900033420379064,-0.0021829259693950894,0.01491335677506164, ,0.04531903697881166, ,0.0490484249153813, ,0.0010810887121275377, ,0.22376618503065518,-0.21121674411004035,0.10491263857000001,1.6869555953329984,0.5155295136150068,-1.3386121473067987, ,0.22921966560017099,0.16057012108032281,0.03756795169811321,-0.060483282253777554,0.24578968073748092,-0.21196228669922368, ,1.1429109573364258
0.016727410233624476,0.020892974376352694,-0.0935813321357754, ,0.01781819564110769,0.020279733380144303,-0.09459542903717838, ,0.0016106737255087136, ,0.02819389457932139,-0.007645681357636163,-0.034647698014651784,0.04900033420379064,-0.0021829259693950894,0.01491335677506164, ,0.04531903697881166, ,0.0490484249153813, ,0.0010864380556970445, ,0.22376618503065518,-0.21121674411004035,0.10491263857000001,1.6869555953329984,0.5155295136150068,-1.3386121473067987, ,0.22921966560017099,0.16057012108032281,0.03756795169811321,-0.060483282253777554,0.24578968073748092,-0.21196228669922368, ,1.1466639041900635
0.017018482883892513,0.02081165625856163,-0.09393995147169834, ,0.01791505450185669,0.02025834984701722,-0.09473029295771153, ,0.0013170528902472349, ,0.026624704479322883,-0.008337267176485297,-0.03254516218385465,0.02332721128785238,0.006446683144414674,-0.00014223735426984515, ,0.042866916079381985, ,0.024200867718333803, ,0.0010887442040425465, ,0.2259826093655576,-0.20961813840507587,0.10527819235000001,1.6869555953329984,0.5179889706107847,-1.3406993483134748, ,0.21665968392344928,0.16138935639195712,0.03539735893333334,-0.03997240894244362,0.23934273829190766,-0.18566091306765695, ,1.1504011154174805
0.017018482883892513,0.02081165625856163,-0.09393995147169834, ,0.01801196842018696,0.020236902576718955,-0.09486502877306115, ,0.0014741517286611554, ,0.026624704479322883,-0.008337267176485297,-0.03254516218385465,0.02332721128785238,0.006446683144414674,-0.00014223735426984515, ,0.042866916079381985, ,0.024200867718333803, ,0.0010925601201278792, ,0.2259826093655576,-0.20961813840507587,0.10527819235000001,1.6869555953329984,0.5179889706107847,-1.3406993483134748, ,0.21665968392344928,0.16138935639195712,0.03539735893333334,-0.03997240894244362,0.23934273829190766,-0.18566091306765695, ,1.153991937637329
0.017018482883892513,0.02081165625856163,-0.09393995147169834, ,0.018108932078458432,0.02021540059739119,-0.09499964038024634, ,0.0016332608004562292, ,0.026624704479322883,-0.008337267176485297,-0.03254516218385465,0.02332721128785238,0.006446683144414674,-0.00014223735426984515, ,0.042866916079381985, ,0.024200867718333803, ,0.0010978611071899218, ,0.2259826093655576,-0.20961813840507587,0.10527819235000001,1.6869555953329984,0.5179889706107847,-1.3406993483134748, ,0.21665968392344928,0.16138935639195712,0.03539735893333334,-0.03997240894244362,0.23934273829190766,-0.18566091306765695, ,1.1575241088867188
0.017271890318015272,0.02073501842345306,-0.09425997343347599, ,0.018205940209584486,0.020193852866219168,-0.0951341316206876, ,0.001389050717773046, ,0.02732514661945616,-0.00740717936966063,-0.03628009041483041,-0.02678337386973861,-0.04530648105018576,-0.03656501863400946, ,0.046019288396251544, ,0.05263044257567585, ,0.0011006881907878162, ,0.22809863817309511,-0.20797319630286604,0.10564504242000002,1.6867459053895137,0.5199018816075008,-1.3420958414849435, ,0.20585019860839648,0.16111535069349878,0.03885075980487805,0.0,0.16463101978358066,-0.12494880597911646, ,1.1611199378967285
0.017271890318015272,0.02073501842345306,-0.09425997343347599, ,0.018302987596873394,0.02017226826962657,-0.0952685062804185, ,0.0015482208619774908, ,0.02732514661945616,-0.00740717936966063,-0.03628009041483041,-0.02678337386973861,-0.04530648105018576,-0.03656501863400946, ,0.046019288396251544, ,0.05263044257567585, ,0.0011049913895492555, ,0.22809863817309511,-0.20797319630286604,0.10564504242000002,1.6867459053895137,0.5199018816075008,-1.3420958414849435, ,0.20585019860839648,0.16111535069349878,0.03885075980487805,0.0,0.16463101978358066,-0.12494880597911646, ,1.1646559238433838
0.017271890318015272,0.02073501842345306,-0.09425997343347599, ,0.018400069073869995,0.020150655623469765,-0.0954027680902983, ,0.0017088729662639772, ,0.02732514661945616,-0.00740717936966063,-0.03628009041483041,-0.02678337386973861,-0.04530648105018576,-0.03656501863400946, ,0.046019288396251544, ,0.05263044257567585, ,0.0011107426426608241, ,0.22809863817309511,-0.20797319630286604,0.10564504242000002,1.6867459053895137,0.5199018816075008,-1.3420958414849435, ,0.20585019860839648,0.16111535069349878,0.03885075980487805,0.0,0.16463101978358066,-0.12494880597911646, ,1.168229103088379
0.01755172218430465,0.02066671283319229,-0.09465941889276579, ,0.01849717952419684,0.02012902367323211,-0.09553692072622459, ,0.0013975008701314887, ,0.028893347576077668,-0.006183564526430377,-0.04285867616671021,-0.0352882429862888,-0.051376757910689824,-0.01742930256444929, ,0.05205697001523903, ,0.06232725517775454, ,0.0011134479089577173, ,0.23012971691901615,-0.20636686786502734,0.10607152183000002,1.686326525502545,0.5215415196046862,-1.34335117758916, ,0.20407944421176513,0.16084227382791658,0.04577244689655173,-0.020124910296167742,0.16077247292723082,-0.12072328204341044, ,1.1718060970306396
0.01755172218430465,0.02066671283319229,-0.09465941889276579, ,0.018594313881396082,0.020107381094218717,-0.09567096780934488, ,0.0015566247626513999, ,0.028893347576077668,-0.006183564526430377,-0.04285867616671021,-0.0352882429862888,-0.051376757910689824,-0.01742930256444929, ,0.05205697001523903, ,0.06232725517775454, ,0.001117589748711864, ,0.23012971691901615,-0.20636686786502734,0.10607152183000002,1.686326525502545,0.5215415196046862,-1.34335117758916, ,0.20407944421176513,0.16084227382791658,0.04577244689655173,-0.020124910296167742,0.16077247292723082,-0.12072328204341044, ,1.1753909587860107
0.01784182065745325,0.02060565203475252,-0.09509715530045763, ,0.018691467128770727,0.02008573649175096,-0.09580491290626933, ,0.0012219378571192362, ,0.028777046050002756,-0.006043722230339949,-0.04240799119106639,-0.023510117163883102,-0.04277544262902279,0.044803015465843025, ,0.05160506442804862, ,0.04880908663031104, ,0.001118555934900821, ,0.23216851839781144,-0.20479143035868555,0.10653948252,1.6852780757851225,0.5233177941016369,-1.3447996103372137, ,0.20407944421176513,0.1543039700137736,0.04551089005714286,-0.0853570979995508,0.18299167380707984,-0.1404187018864822, ,1.1803579330444336
0.01784182065745325,0.02060565203475252,-0.09509715530045763, ,0.018788634299226257,0.02006409840136094,-0.09593875952928328, ,0.0013776915794416035, ,0.028777046050002756,-0.006043722230339949,-0.04240799119106639,-0.023510117163883102,-0.04277544262902279,0.044803015465843025, ,0.05160506442804862, ,0.04880908663031104, ,0.0011209333261351403, ,0.23216851839781144,-0.20479143035868555,0.10653948252,1.6852780757851225,0.5233177941016369,-1.3447996103372137, ,0.20407944421176513,0.1543039700137736,0.04551089005714286,-0.0853570979995508,0.18299167380707984,-0.1404187018864822, ,1.1839649677276611
0.01784182065745325,0.02060565203475252,-0.09509715530045763, ,0.018885810475112185,0.02004247528898587,-0.09607251113655907, ,0.0015357088895246325, ,0.028777046050002756,-0.006043722230339949,-0.04240799119106639,-0.023510117163883102,-0.04277544262902279,0.044803015465843025, ,0.05160506442804862, ,0.04880908663031104, ,0.0011247040130750448, ,0.23216851839781144,-0.20479143035868555,0.10653948252,1.6852780757851225,0.5233177941016369,-1.3447996103372137, ,0.20407944421176513,0.1543039700137736,0.04551089005714286,-0.0853570979995508,0.18299167380707984,-0.1404187018864822, ,1.1877479553222656
0.018117392907080584,0.020544030017891575,-0.09547641128438702, ,0.01898299078806333,0.020020875551162828,-0.09620617113236836, ,0.0012471967460452274, ,0.02704391513710917,-0.006926152713213869,-0.03548668877893061,-0.0074208650361121675,-0.02998791796198919,-0.03643148708369249, ,0.04515141213564203, ,0.030891555238270734, ,0.0011258075512099112, ,0.23417642894510982,-0.20330866564683445,0.10694911016000001,1.6850683858416375,0.5250940685985876,-1.346248043085267, ,0.20020451805584552,0.15110977955170507,0.038382678361445786,0.0,0.174303306570111,-0.134432616081711, ,1.1913690567016602
0.018117392907080584,0.020544030017891575,-0.09547641128438702, ,0.019080170418841583,0.019999307515222973,-0.09633974286729496, ,0.0014032122306025466, ,0.02704391513710917,-0.006926152713213869,-0.03548668877893061,-0.0074208650361121675,-0.02998791796198919,-0.03643148708369249, ,0.04515141213564203, ,0.030891555238270734, ,0.0011282843787044884, ,0.23417642894510982,-0.20330866564683445,0.10694911016000001,1.6850683858416375,0.5250940685985876,-1.346248043085267, ,0.20020451805584552,0.15110977955170507,0.038382678361445786,0.0,0.174303306570111,-0.134432616081711, ,1.1949729919433594
0.018117392907080584,0.020544030017891575,-0.09547641128438702, ,0.01917734459717732,0.019977779439486282,-0.09647322963844676, ,0.0015613404926131968, ,0.02704391513710917,-0.006926152713213869,-0.03548668877893061,-0.0074208650361121675,-0.02998791796198919,-0.03643148708369249, ,0.04515141213564203, ,0.030891555238270734, ,0.0011321167336948309, ,0.23417642894510982,-0.20330866564683445,0.10694911016000001,1.6850683858416375,0.5250940685985876,-1.346248043085267, ,0.20020451805584552,0.15110977955170507,0.038382678361445786,0.0,0.174303306570111,-0.134432616081711, ,1.1985371112823486
0.018393089541201776,0.02046656824625754,-0.09582122750944576, ,0.01927450860161085,0.019956299513455882,-0.096606634689668, ,0.0012861330329604628, ,0.025675821280250283,-0.0073585015963735486,-0.031336607161843756,-0.04671980492123889,-0.07145704557812502,-0.03810775536461418, ,0.04117497167667396, ,0.08537458238281416, ,0.0011334677538638277, ,0.23623839862252774,-0.20174095087336685,0.10732244168,1.6850683858416375,0.5267337065957729,-1.3473400217092024, ,0.1905561075471301,0.14532456593946522,0.03389108834042554,0.004275209386188397,0.1210981198802656,-0.08986221281951456, ,1.2022130489349365
0.018393089541201776,0.02046656824625754,-0.09582122750944576, ,0.019371657759333954,0.01993487585801261,-0.09673996121175132, ,0.0014437327207651959, ,0.025675821280250283,-0.0073585015963735486,-0.031336607161843756,-0.04671980492123889,-0.07145704557812502,-0.03810775536461418, ,0.04117497167667396, ,0.08537458238281416, ,0.0011361657100977527, ,0.23623839862252774,-0.20174095087336685,0.10732244168,1.6850683858416375,0.5267337065957729,-1.3473400217092024, ,0.1905561075471301,0.14532456593946522,0.03389108834042554,0.004275209386188397,0.1210981198802656,-0.08986221281951456, ,1.2058050632476807
0.01865770080295527,0.02039232706492359,-0.0961527200310656, ,0.019468787446031453,0.01991351652560964,-0.09687321234265056, ,0.0011858457935953301, ,0.026257492847100185,-0.006792130703927905,-0.034425871721131485,0.017617277132917726,0.0009342230861566854,-0.03615504347771445, ,0.043826129350817165, ,0.01764065965907475, ,0.0011365939866796282, ,0.23821541823832923,-0.20023501796289309,0.10768281030000001,1.6852780757851225,0.5285099810927236,-1.3486250969769746, ,0.19366722767034852,0.14554745637802266,0.03747955651764706,0.0,0.19930796347123744,-0.15312625626393964, ,1.2094700336456299
0.01865770080295527,0.02039232706492359,-0.0961527200310656, ,0.019565893085722704,0.0198922295004669,-0.09700639116769352, ,0.0013430060334806515, ,0.026257492847100185,-0.006792130703927905,-0.034425871721131485,0.017617277132917726,0.0009342230861566854,-0.03615504347771445, ,0.043826129350817165, ,0.01764065965907475, ,0.001138358192207842, ,0.23821541823832923,-0.20023501796289309,0.10768281030000001,1.6852780757851225,0.5285099810927236,-1.3486250969769746, ,0.19366722767034852,0.14554745637802266,0.03747955651764706,0.0,0.19930796347123744,-0.15312625626393964, ,1.2130789756774902
0.01865770080295527,0.02039232706492359,-0.0961527200310656, ,0.01966297015060295,0.01987102269876531,-0.09713950071979276, ,0.0015020189183697062, ,0.026257492847100185,-0.006792130703927905,-0.034425871721131485,0.017617277132917726,0.0009342230861566854,-0.03615504347771445, ,0.043826129350817165, ,0.01764065965907475, ,0.0011414400627685359, ,0.23821541823832923,-0.20023501796289309,0.10768281030000001,1.6852780757851225,0.5285099810927236,-1.3486250969769746, ,0.19366722767034852,0.14554745637802266,0.03747955651764706,0.0,0.19930796347123744,-0.15312625626393964, ,1.216649055480957
0.01865770080295527,0.02039232706492359,-0.0961527200310656, ,0.019760014160885075,0.019849903968841776,-0.09727254397965883, ,0.0016623246464142856, ,0.026257492847100185,-0.006792130703927905,-0.034425871721131485,0.017617277132917726,0.0009342230861566854,-0.03615504347771445, ,0.043826129350817165, ,0.01764065965907475, ,0.0011458172441437102, ,0.23821541823832923,-0.20023501796289309,0.10768281030000001,1.6852780757851225,0.5285099810927236,-1.3486250969769746, ,0.19366722767034852,0.14554745637802266,0.03747955651764706,0.0,0.19930796347123744,-0.15312625626393964, ,1.2204480171203613
0.018906608569597364,0.020334182803334568,-0.09649611171232904, ,0.019857020684640948,0.019828881091383428,-0.09740552387601316, ,0.0014091286286137981, ,0.02629025636766706,-0.00549201053909623,-0.03714776731590315,0.023406139697680867,0.005881038242264295,-0.01731370570969596, ,0.04583989939120378, ,0.024132203517171647, ,0.0011480115056809609, ,0.24000709226514932,-0.19890670790852646,0.10805614182,1.6848586958981533,0.5304228920894398,-1.3501849476287247, ,0.1860724344283741,0.1363461804001017,0.040428455634517774,-0.01815832459854314,0.2001894967351535,-0.15423880204325185, ,1.2242560386657715
0.018906608569597364,0.020334182803334568,-0.09649611171232904, ,0.019953985337642987,0.019807961779622178,-0.09753844328579896, ,0.001568554037670008, ,0.02629025636766706,-0.00549201053909623,-0.03714776731590315,0.023406139697680867,0.005881038242264295,-0.01731370570969596, ,0.04583989939120378, ,0.024132203517171647, ,0.001151487063796573, ,0.24000709226514932,-0.19890670790852646,0.10805614182,1.6848586958981533,0.5304228920894398,-1.3501849476287247, ,0.1860724344283741,0.1363461804001017,0.040428455634517774,-0.01815832459854314,0.2001894967351535,-0.15423880204325185, ,1.227952003479004
0.019004642210481728,0.020312354537770087,-0.09663684644195067, ,0.020050903783205627,0.019787153679529,-0.09767130503439475, ,0.0015622431947482605, ,0.02635719036696395,-0.005454068952011149,-0.03804299830074619,0.020895337966913317,0.007883735412875681,0.025564106820273817, ,0.04660169601939663, ,0.022331340048048695, ,0.0011548539173289638, ,0.24070213822382952,-0.19839700753882766,0.10820910404000002,1.6844393160111841,0.5312427110880324,-1.350690097570622, ,0.18498429153698007,0.1353736684143663,0.04137353641558442,-0.06301716096895411,0.21009473281661223,-0.16102421318073362, ,1.2315549850463867
0.019004642210481728,0.020312354537770087,-0.09663684644195067, ,0.020147771732026826,0.019766464370008802,-0.09780411189582619, ,0.0017225707004641625, ,0.02635719036696395,-0.005454068952011149,-0.03804299830074619,0.020895337966913317,0.007883735412875681,0.025564106820273817, ,0.04660169601939663, ,0.022331340048048695, ,0.001159469500931689, ,0.24070213822382952,-0.19839700753882766,0.10820910404000002,1.6844393160111841,0.5312427110880324,-1.350690097570622, ,0.18498429153698007,0.1353736684143663,0.04137353641558442,-0.06301716096895411,0.21009473281661223,-0.16102421318073362, ,1.235356092453003
0.019004642210481728,0.020312354537770087,-0.09663684644195067, ,0.020244584942029742,0.01974590136309474,-0.09793686659297789, ,0.0018837143015052354, ,0.02575738385101104,-0.004517722600946271,-0.03978542108814373,-0.010735862942022825,-0.010167613600746635,0.015944592469516662, ,0.04761021289081091, ,0.01478307940665566, ,0.0011653101848072822, ,0.2436908358461544,-0.19621147413542211,0.10889484145000002,1.6836005562372458,0.5345219870824031,-1.3531190910389146, ,0.16915675857124915,0.12806604798714005,0.04305084194594595,-0.04756281122273719,0.1721226887067032,-0.11943189748937821, ,1.2393040657043457
0.019437563620739166,0.02022709498090452,-0.09726719382620068, ,0.020341339218204003,0.019725472104142744,-0.09806957179780679, ,0.001308528276493257, ,0.02575738385101104,-0.004517722600946271,-0.03978542108814373,-0.010735862942022825,-0.010167613600746635,0.015944592469516662, ,0.04761021289081091, ,0.01478307940665566, ,0.00116645592954077, ,0.2436908358461544,-0.19621147413542211,0.10889484145000002,1.6836005562372458,0.5345219870824031,-1.3531190910389146, ,0.16915675857124915,0.12806604798714005,0.04305084194594595,-0.04756281122273719,0.1721226887067032,-0.11943189748937821, ,1.2430050373077393
0.019437563620739166,0.02022709498090452,-0.09726719382620068, ,0.02043803041244728,0.01970518397202585,-0.0982022301315535, ,0.001465475279500593, ,0.02575738385101104,-0.004517722600946271,-0.03978542108814373,-0.010735862942022825,-0.010167613600746635,0.015944592469516662, ,0.04761021289081091, ,0.01478307940665566, ,0.0011688290989848955, ,0.2436908358461544,-0.19621147413542211,0.10889484145000002,1.6836005562372458,0.5345219870824031,-1.3531190910389146, ,0.16915675857124915,0.12806604798714005,0.04305084194594595,-0.04756281122273719,0.1721226887067032,-0.11943189748937821, ,1.2465529441833496
0.01969555121554992,0.020183331024115615,-0.09767271990934223, ,0.0205346544234069,0.019685044279329166,-0.09833484416495505, ,0.0011793186182438493, ,0.0256613882193475,-0.0046670985236828225,-0.0409828399782424,-0.009028882581225387,0.00807701392039681,-0.0010974792016137701, ,0.04857861491084376, ,0.012109635030940282, ,0.0011689116936247298, ,0.24535122341411267,-0.1949140550125524,0.10933298747000002,1.6836005562372458,0.5361616250795883,-1.3541293909227092, ,0.1644661032209199,0.13161850424198443,0.044246698666666674,-0.028735155089013587,0.1822168514764427,-0.11950424232412031, ,1.2501060962677002
0.01969555121554992,0.020183331024115615,-0.09767271990934223, ,0.02063120719632133,0.019665060272543815,-0.09846741641845694, ,0.0013325161266893567, ,0.0256613882193475,-0.0046670985236828225,-0.0409828399782424,-0.009028882581225387,0.00807701392039681,-0.0010974792016137701, ,0.04857861491084376, ,0.012109635030940282, ,0.0011701898532580472, ,0.24535122341411267,-0.1949140550125524,0.10933298747000002,1.6836005562372458,0.5361616250795883,-1.3541293909227092, ,0.1644661032209199,0.13161850424198443,0.044246698666666674,-0.028735155089013587,0.1822168514764427,-0.11950424232412031, ,1.2537050247192383
0.01969555121554992,0.020183331024115615,-0.09767271990934223, ,0.020727684722861538,0.019645239132261953,-0.09859994936242603, ,0.0014881521829638613, ,0.0256613882193475,-0.0046670985236828225,-0.0409828399782424,-0.009028882581225387,0.00807701392039681,-0.0010974792016137701, ,0.04857861491084376, ,0.012109635030940282, ,0.0011726546775193325, ,0.24535122341411267,-0.1949140550125524,0.10933298747000002,1.6836005562372458,0.5361616250795883,-1.3541293909227092, ,0.1644661032209199,0.13161850424198443,0.044246698666666674,-0.028735155089013587,0.1822168514764427,-0.11950424232412031, ,1.257493019104004
0.019956812844146906,0.02013610211726874,-0.09807595023647003, ,0.020824083040972625,0.019625587973370873,-0.09873244541736209, ,0.0012015690608352017, ,0.023656935361920498,-0.004888731457521517,-0.03472202219015036,0.0194405347062454,0.033363104494844115,-0.007377325525113215, ,0.0422985710273425, ,0.03861321874899492, ,0.0011728770958525315, ,0.24706567011219052,-0.19359346769106,0.10977113349,1.6836005562372458,0.53821117257607,-1.355555623257734, ,0.1602988877676871,0.12088782364136405,0.03792574171428572,-0.020261396100001328,0.20208641353883208,-0.1350090463178514, ,1.2612149715423584
0.019956812844146906,0.02013610211726874,-0.09807595023647003, ,0.02092039823471551,0.019606113845247547,-0.09886490695411021, ,0.0013534537582447438, ,0.023656935361920498,-0.004888731457521517,-0.03472202219015036,0.0194405347062454,0.033363104494844115,-0.007377325525113215, ,0.0422985710273425, ,0.03861321874899492, ,0.0011742555436570525, ,0.24706567011219052,-0.19359346769106,0.10977113349,1.6836005562372458,0.53821117257607,-1.355555623257734, ,0.1602988877676871,0.12088782364136405,0.03792574171428572,-0.020261396100001328,0.20208641353883208,-0.1350090463178514, ,1.2647709846496582
0.019956812844146906,0.02013610211726874,-0.09807595023647003, ,0.021016626434107972,0.019586823731953674,-0.09899733629407384, ,0.0015079336381907437, ,0.023656935361920498,-0.004888731457521517,-0.03472202219015036,0.0194405347062454,0.033363104494844115,-0.007377325525113215, ,0.0422985710273425, ,0.03861321874899492, ,0.0011767834080095804, ,0.24706567011219052,-0.19359346769106,0.10977113349,1.6836005562372458,0.53821117257607,-1.355555623257734, ,0.1602988877676871,0.12088782364136405,0.03792574171428572,-0.020261396100001328,0.20208641353883208,-0.1350090463178514, ,1.2683570384979248
0.020188961955275146,0.02008269665851929,-0.09838943473333293, ,0.02111276381496662,0.01956772455242924,-0.09912973570942646, ,0.0012909886448862653, ,0.024003925391069325,-0.005460865882074756,-0.030840124263606543,0.014646678129845696,0.006882398392279704,-0.021672300106373558, ,0.039460394764329505, ,0.016182233757608053, ,0.0011776420940011344, ,0.24869516674865189,-0.1924196122941779,0.11011594663000002,1.683181176350277,0.5401240835727862,-1.3567887589489216, ,0.17037152883028864,0.11906768075090436,0.03410880411134904,-0.006784757542302975,0.18255515347374401,-0.12608706878310355, ,1.2719330787658691
0.020188961955275146,0.02008269665851929,-0.09838943473333293, ,0.02120880659874822,0.019548823160688036,-0.09926210742332361, ,0.001444528169459797, ,0.024003925391069325,-0.005460865882074756,-0.030840124263606543,0.014646678129845696,0.006882398392279704,-0.021672300106373558, ,0.039460394764329505, ,0.016182233757608053, ,0.001179633781131423, ,0.24869516674865189,-0.1924196122941779,0.11011594663000002,1.683181176350277,0.5401240835727862,-1.3567887589489216, ,0.17037152883028864,0.11906768075090436,0.03410880411134904,-0.006784757542302975,0.18255515347374401,-0.12608706878310355, ,1.2754731178283691
0.020431251578207126,0.020023829377823668,-0.09870686592883683, ,0.02130475105239105,0.019530126346011277,-0.0993944536101158, ,0.0012163555542960807, ,0.02439464120819106,-0.005593723975137423,-0.033207548653581935,0.002325803954411779,0.009392277006490679,0.033357688026828036, ,0.04158280359916118, ,0.009673874598547743, ,0.001179905794265976, ,0.2504018907138555,-0.1911994205000504,0.11046594493,1.6825521065198237,0.5420369945695022,-1.3580218946401093, ,0.16825698857884888,0.12150696742441842,0.036533971376146786,-0.0642934110427541,0.1940422585338039,-0.1296648235918612, ,1.279900074005127
0.020431251578207126,0.020023829377823668,-0.09870686592883683, ,0.021400593488156743,0.019511640833142732,-0.09952677639556057, ,0.001369019363314589, ,0.02439464120819106,-0.005593723975137423,-0.033207548653581935,0.002325803954411779,0.009392277006490679,0.033357688026828036, ,0.04158280359916118, ,0.009673874598547743, ,0.001181296335214863, ,0.2504018907138555,-0.1911994205000504,0.11046594493,1.6825521065198237,0.5420369945695022,-1.3580218946401093, ,0.16825698857884888,0.12150696742441842,0.036533971376146786,-0.0642934110427541,0.1940422585338039,-0.1296648235918612, ,1.2834959030151367
0.020431251578207126,0.020023829377823668,-0.09870686592883683, ,0.02149633026347152,0.019493373282482844,-0.09965907785703482, ,0.0015239697605567142, ,0.02439464120819106,-0.005593723975137423,-0.033207548653581935,0.002325803954411779,0.009392277006490679,0.033357688026828036, ,0.04158280359916118, ,0.009673874598547743, ,0.0011837976010932707, ,0.2504018907138555,-0.1911994205000504,0.11046594493,1.6825521065198237,0.5420369945695022,-1.3580218946401093, ,0.16825698857884888,0.12150696742441842,0.036533971376146786,-0.0642934110427541,0.1940422585338039,-0.1296648235918612, ,1.2870450019836426
0.020672097935988155,0.019975275277176203,-0.09904494201151497, ,0.021591957780767862,0.019475330290283675,-0.09979136002374712, ,0.0012857787418299163, ,0.02439464120819106,-0.005593723975137423,-0.033207548653581935,0.002325803954411779,0.009392277006490679,0.033357688026828036, ,0.04158280359916118, ,0.009673874598547743, ,0.0011845365948667246, ,0.2520313873503169,-0.19004873330179095,0.11083798016000002,1.6819230366893698,0.5439499055662184,-1.3592550303312967, ,0.16418155978974183,0.11086091303559671,0.038382678361445786,-0.05244217225121735,0.18914017390970317,-0.10089828500516404, ,1.2907240390777588
0.020672097935988155,0.019975275277176203,-0.09904494201151497, ,0.021687472487325853,0.019457518388842708,-0.09992362487694967, ,0.0014391460151525802, ,0.024554713810859004,-0.004202840711255933,-0.03479111273118995,-0.012412794389268346,0.010962644623648437,0.031833251708321644, ,0.04279041207387173, ,0.016559168714951798, ,0.0011863683173148243, ,0.2520313873503169,-0.19004873330179095,0.11083798016000002,1.6819230366893698,0.5439499055662184,-1.3592550303312967, ,0.16418155978974183,0.11086091303559671,0.038382678361445786,-0.05244217225121735,0.18914017390970317,-0.10089828500516404, ,1.294377088546753
0.020672097935988155,0.019975275277176203,-0.09904494201151497, ,0.021782870875114938,0.019439944046698233,-0.10005587435015141, ,0.0015944843184937127, ,0.024554713810859004,-0.004202840711255933,-0.03479111273118995,-0.012412794389268346,0.010962644623648437,0.031833251708321644, ,0.04279041207387173, ,0.016559168714951798, ,0.0011892834316089593, ,0.2520313873503169,-0.19004873330179095,0.11083798016000002,1.6819230366893698,0.5439499055662184,-1.3592550303312967, ,0.16418155978974183,0.11086091303559671,0.038382678361445786,-0.05244217225121735,0.18914017390970317,-0.10089828500516404, ,1.2981181144714355
0.02091998289781669,0.0199361407678042,-0.09940003747126105, ,0.021878149480635142,0.01942261366882296,-0.10018811032932927, ,0.001342703284959817, ,0.025364550961688263,-0.003705655341383434,-0.036527816375642716,0.00777027271269654,-0.002580354761197637,-0.0524466769629925, ,0.044624810320828, ,0.008183540676531606, ,0.0011903715156752772, ,0.2536608839867782,-0.18894438250077686,0.11122945974000001,1.6817133467458854,0.5457261800631692,-1.3602950693786475, ,0.16361541648012204,0.1121713257192326,0.04022427151515152,0.027700290635132,0.1591479793110494,-0.10466773805984662, ,1.3017170429229736
0.02091998289781669,0.0199361407678042,-0.09940003747126105, ,0.02197330488475881,0.01940553359681927,-0.10032033465314148, ,0.0014959873265015938, ,0.025364550961688263,-0.003705655341383434,-0.036527816375642716,0.00777027271269654,-0.002580354761197637,-0.0524466769629925, ,0.044624810320828, ,0.008183540676531606, ,0.0011925237396951808, ,0.2536608839867782,-0.18894438250077686,0.11122945974000001,1.6817133467458854,0.5457261800631692,-1.3602950693786475, ,0.16361541648012204,0.1121713257192326,0.04022427151515152,0.027700290635132,0.1591479793110494,-0.10466773805984662, ,1.3053269386291504
0.02091998289781669,0.0199361407678042,-0.09940003747126105, ,0.022068333712572073,0.019388710109113357,-0.10045254911313888, ,0.001651111951417102, ,0.025364550961688263,-0.003705655341383434,-0.036527816375642716,0.00777027271269654,-0.002580354761197637,-0.0524466769629925, ,0.044624810320828, ,0.008183540676531606, ,0.0011957306502666627, ,0.2536608839867782,-0.18894438250077686,0.11122945974000001,1.6817133467458854,0.5457261800631692,-1.3602950693786475, ,0.16361541648012204,0.1121713257192326,0.04022427151515152,0.027700290635132,0.1591479793110494,-0.10466773805984662, ,1.3089370727539062
0.02118561238999092,0.01989819697784568,-0.09979518937406186, ,0.022163232633216217,0.019372149421149735,-0.10058475545397816, ,0.0013623075887713666, ,0.026397679940887243,-0.0033445997731126895,-0.04058449223073198,0.02152804639166083,0.028722688014654885,-0.02535135832200513, ,0.048529628718239445, ,0.035893446266218244, ,0.0011968874345618342, ,0.2553444397533592,-0.1877628043710205,0.11166371689000001,1.6819230366893698,0.5475024545601199,-1.3612534296858576, ,0.1650381592321231,0.1144715820970697,0.044618519663865555,0.0,0.19791637563643824,-0.12603634817423934, ,1.3125030994415283
0.02118561238999092,0.01989819697784568,-0.09979518937406186, ,0.022257998359729306,0.019355857685585575,-0.10071695537363361, ,0.0015145283536426232, ,0.026397679940887243,-0.0033445997731126895,-0.04058449223073198,0.02152804639166083,0.028722688014654885,-0.02535135832200513, ,0.048529628718239445, ,0.035893446266218244, ,0.0011990780615899778, ,0.2553444397533592,-0.1877628043710205,0.11166371689000001,1.6819230366893698,0.5475024545601199,-1.3612534296858576, ,0.1650381592321231,0.1144715820970697,0.044618519663865555,0.0,0.19791637563643824,-0.12603634817423934, ,1.3160679340362549
0.02118561238999092,0.01989819697784568,-0.09979518937406186, ,0.02235262764888777,0.019339840992485972,-0.10084915052360954, ,0.0016686881451130908, ,0.02702923029713151,-0.00282001041675981,-0.04211520316694764,0.005530733496109529,0.01003886171889607,0.0033754194902789235, ,0.05012207185461593, ,0.01145579609359994, ,0.0012022945690113689, ,0.25703571825281435,-0.18661211717276105,0.11213297387000001,1.6815036568024009,0.5494153655568361,-1.3626499228573266, ,0.16475163465012285,0.11008925934857398,0.046304684651162796,-0.028526337500239148,0.1838955718392912,-0.11323514712206781, ,1.3196630477905273
0.021460647065274247,0.019865968750311474,-0.10022249939687511, ,0.022447117301047734,0.019324105369517505,-0.10098134250915243, ,0.001357417518143626, ,0.02702923029713151,-0.00282001041675981,-0.04211520316694764,0.005530733496109529,0.01003886171889607,0.0033754194902789235, ,0.05012207185461593, ,0.01145579609359994, ,0.0012033498271687313, ,0.25703571825281435,-0.18661211717276105,0.11213297387000001,1.6815036568024009,0.5494153655568361,-1.3626499228573266, ,0.16475163465012285,0.11008925934857398,0.046304684651162796,-0.028526337500239148,0.1838955718392912,-0.11323514712206781, ,1.3237171173095703
0.021460647065274247,0.019865968750311474,-0.10022249939687511, ,0.022541464159986573,0.019308656782142983,-0.10111353288946334, ,0.0015075486416697194, ,0.02702923029713151,-0.00282001041675981,-0.04211520316694764,0.005530733496109529,0.01003886171889607,0.0033754194902789235, ,0.05012207185461593, ,0.01145579609359994, ,0.0012054052245640081, ,0.25703571825281435,-0.18661211717276105,0.11213297387000001,1.6815036568024009,0.5494153655568361,-1.3626499228573266, ,0.16475163465012285,0.11008925934857398,0.046304684651162796,-0.028526337500239148,0.1838955718392912,-0.11323514712206781, ,1.3274319171905518
0.021549730281262138,0.019856129657859132,-0.10036139696435448, ,0.022635665112744636,0.019293501133816747,-0.10124572317791075, ,0.001509250862605621, ,0.027135106869091798,-0.0027326517139099425,-0.04156815546036142,-0.010256552881203489,-0.005659647786555846,0.013362875188089717, ,0.04971612372825684, ,0.011709157994162974, ,0.0012074444570340861, ,0.2575840322868843,-0.1862491487276725,0.11228593609000001,1.6812939668589162,0.5500985480556632,-1.363125333635668, ,0.16561420865352666,0.10759290426130474,0.04577244689655173,-0.0364291927637961,0.170234945969607,-0.09714262389622877, ,1.3311529159545898
0.021549730281262138,0.019856129657859132,-0.10036139696435448, ,0.02272971708946646,0.01927864426617796,-0.10137791484224143, ,0.0016610740023265578, ,0.027135106869091798,-0.0027326517139099425,-0.04156815546036142,-0.010256552881203489,-0.005659647786555846,0.013362875188089717, ,0.04971612372825684, ,0.011709157994162974, ,0.0012104686540027026, ,0.2575840322868843,-0.1862491487276725,0.11228593609000001,1.6812939668589162,0.5500985480556632,-1.363125333635668, ,0.16561420865352666,0.10759290426130474,0.04577244689655173,-0.0364291927637961,0.170234945969607,-0.09714262389622877, ,1.334778070449829
0.021549730281262138,0.019856129657859132,-0.10036139696435448, ,0.022823617063242346,0.01926409195924595,-0.10151010930479445, ,0.0018146173731567144, ,0.027135106869091798,-0.0027326517139099425,-0.04156815546036142,-0.010256552881203489,-0.005659647786555846,0.013362875188089717, ,0.04971612372825684, ,0.011709157994162974, ,0.0012144696388977623, ,0.2575840322868843,-0.1862491487276725,0.11228593609000001,1.6812939668589162,0.5500985480556632,-1.363125333635668, ,0.16561420865352666,0.10759290426130474,0.04577244689655173,-0.0364291927637961,0.170234945969607,-0.09714262389622877, ,1.3384149074554443
0.022017567108358213,0.01979402099448709,-0.10105994761710337, ,0.022917362049950128,0.019249849931614528,-0.10164230794271265, ,0.0012020385315895641, ,0.026005397458251478,-0.004197375306064167,-0.03684308907718842,-0.005548337265124562,-0.021077114288958382,0.027717049210578916, ,0.04529141054517103, ,0.02179359784807286, ,0.0012143878552970506, ,0.2604491661832216,-0.18431846550911637,0.11305463606,1.6802455171414936,0.5528312780509721,-1.3648636192687529, ,0.16333380646896864,0.11008925934857398,0.04073864838874681,-0.06049519823339242,0.15636894646400273,-0.11204596946974657, ,1.341953992843628
0.022017567108358213,0.01979402099448709,-0.10105994761710337, ,0.02301094910809626,0.019235923840646284,-0.10177451208815422, ,0.001344947067291852, ,0.026005397458251478,-0.004197375306064167,-0.03684308907718842,-0.005548337265124562,-0.021077114288958382,0.027717049210578916, ,0.04529141054517103, ,0.02179359784807286, ,0.001215241183480023, ,0.2604491661832216,-0.18431846550911637,0.11305463606,1.6802455171414936,0.5528312780509721,-1.3648636192687529, ,0.16333380646896864,0.11008925934857398,0.04073864838874681,-0.06049519823339242,0.15636894646400273,-0.11204596946974657, ,1.3455030918121338
0.022017567108358213,0.01979402099448709,-0.10105994761710337, ,0.023104375338657678,0.01922231928266731,-0.10190672302850659, ,0.0014916512910534486, ,0.026005397458251478,-0.004197375306064167,-0.03684308907718842,-0.005548337265124562,-0.021077114288958382,0.027717049210578916, ,0.04529141054517103, ,0.02179359784807286, ,0.001217036054308422, ,0.2604491661832216,-0.18431846550911637,0.11305463606,1.6802455171414936,0.5528312780509721,-1.3648636192687529, ,0.16333380646896864,0.11008925934857398,0.04073864838874681,-0.06049519823339242,0.15636894646400273,-0.11204596946974657, ,1.349081039428711
0.022258751784205923,0.01975313325736782,-0.10139024189129547, ,0.023197637884923135,0.019209041793161647,-0.10203894200659737, ,0.001264260444344709, ,0.024990767696784506,-0.004620399442325731,-0.032688484560766944,0.026750969610611595,-0.0017701100209259078,-0.03275474500541831, ,0.04140559846157028, ,0.026808773597803225, ,0.0012173407277925271, ,0.26200915822381493,-0.1832836193039703,0.11342278242,1.6800358271980091,0.5546075525479227,-1.3659853370562443, ,0.16333380646896864,0.1087021094598749,0.036533971376146786,0.0,0.16466622680392431,-0.12792677194980112, ,1.3526520729064941
0.022258751784205923,0.01975313325736782,-0.10139024189129547, ,0.023290733932334738,0.01919609684696583,-0.1021711702209071, ,0.0014089449146649096, ,0.024990767696784506,-0.004620399442325731,-0.032688484560766944,0.026750969610611595,-0.0017701100209259078,-0.03275474500541831, ,0.04140559846157028, ,0.026808773597803225, ,0.0012185689597596578, ,0.26200915822381493,-0.1832836193039703,0.11342278242,1.6800358271980091,0.5546075525479227,-1.3659853370562443, ,0.16333380646896864,0.1087021094598749,0.036533971376146786,0.0,0.16466622680392431,-0.12792677194980112, ,1.3564589023590088
0.022258751784205923,0.01975313325736782,-0.10139024189129547, ,0.023383660708329528,0.019183489858463243,-0.10230340882578214, ,0.0015568518040353914, ,0.024990767696784506,-0.004620399442325731,-0.032688484560766944,0.026750969610611595,-0.0017701100209259078,-0.03275474500541831, ,0.04140559846157028, ,0.026808773597803225, ,0.0012207236275575924, ,0.26200915822381493,-0.1832836193039703,0.11342278242,1.6800358271980091,0.5546075525479227,-1.3659853370562443, ,0.16333380646896864,0.1087021094598749,0.036533971376146786,0.0,0.16466622680392431,-0.12792677194980112, ,1.3601999282836914
0.02251173130182074,0.01970555275186319,-0.10170919584241678, ,0.023476415482180824,0.01917122618177886,-0.1024356589316459, ,0.0013205563491753818, ,0.024472741043748903,-0.004704243083884421,-0.0305028977739179,-0.0367506965370522,-0.05097523560647771,-0.025001740054400895, ,0.03938872592243563, ,0.0628415621616734, ,0.0012213554802260594, ,0.26365410032602477,-0.18220243670157885,0.11377926217,1.6800358271980091,0.5558372810458118,-1.3666613832289496, ,0.15895635101921404,0.10439707542186004,0.03403592205128206,0.0020411561558893792,0.10950806728458087,-0.06584794633446571, ,1.364569902420044
0.02251173130182074,0.01970555275186319,-0.10170919584241678, ,0.02356899556483995,0.019159311110973458,-0.10256792160521158, ,0.00146751408435728, ,0.024472741043748903,-0.004704243083884421,-0.0305028977739179,-0.0367506965370522,-0.05097523560647771,-0.025001740054400895, ,0.03938872592243563, ,0.0628415621616734, ,0.0012229036475476394, ,0.26365410032602477,-0.18220243670157885,0.11377926217,1.6800358271980091,0.5558372810458118,-1.3666613832289496, ,0.15895635101921404,0.10439707542186004,0.03403592205128206,0.0020411561558893792,0.10950806728458087,-0.06584794633446571, ,1.3681120872497559
0.022756136664290362,0.01965688736563132,-0.10201703268697714, ,0.02366139830877762,0.0191477498802387,-0.10270019786969531, ,0.0012431549746069696, ,0.024405949888454223,-0.0051122969766829035,-0.03111478092033039,0.005609420602936144,-0.005965488586088925,-0.026938372908986628, ,0.039873745272493474, ,0.00818678755483664, ,0.0012230302183417602, ,0.265244983298115,-0.18112897683206164,0.11412407531000002,1.6802455171414936,0.5572036460434662,-1.3673671685652111, ,0.15895635101921404,0.10895171246667139,0.034855167439824954,-0.001972985552362326,0.15638995730057484,-0.1069393070944892, ,1.3716480731964111
0.022756136664290362,0.01965688736563132,-0.10201703268697714, ,0.0237536211078254,0.019136547664090543,-0.10283248870502647, ,0.001389495281556157, ,0.024405949888454223,-0.0051122969766829035,-0.03111478092033039,0.005609420602936144,-0.005965488586088925,-0.026938372908986628, ,0.039873745272493474, ,0.00818678755483664, ,0.001224064162833775, ,0.265244983298115,-0.18112897683206164,0.11412407531000002,1.6802455171414936,0.5572036460434662,-1.3673671685652111, ,0.15895635101921404,0.10895171246667139,0.034855167439824954,-0.001972985552362326,0.15638995730057484,-0.1069393070944892, ,1.375216007232666
0.022756136664290362,0.01965688736563132,-0.10201703268697714, ,0.023845661397017288,0.019125709577565222,-0.10296479504806244, ,0.0015386576873523447, ,0.024405949888454223,-0.0051122969766829035,-0.03111478092033039,0.005609420602936144,-0.005965488586088925,-0.026938372908986628, ,0.039873745272493474, ,0.00818678755483664, ,0.0012260060981703095, ,0.265244983298115,-0.18112897683206164,0.11412407531000002,1.6802455171414936,0.5572036460434662,-1.3673671685652111, ,0.15895635101921404,0.10895171246667139,0.034855167439824954,-0.001972985552362326,0.15638995730057484,-0.1069393070944892, ,1.3788650035858154
0.023007321777571275,0.01960856994716863,-0.10234929450416393, ,0.023937516652431243,0.019115240676412387,-0.10309711779279879, ,0.0012914627155381983, ,0.025404456141651974,-0.0040606175789113215,-0.03453715243298803,0.04050750456280058,0.026218308965007823,-0.019426611176864297, ,0.043066110866373034, ,0.0482515130454425, ,0.0012264076725099899, ,0.2668590344688279,-0.1800477942296702,0.11449611054000002,1.6798261372545245,0.5589799205404169,-1.368733922573124, ,0.16111535069349878,0.10439707542186004,0.03875623240875913,-0.011346591621940093,0.19302765695338148,-0.13923668348926221, ,1.3824739456176758
