NicholasDascanio/dvrk_moveit_final/test/execution/third_experiment_notsharpbends/thirdexp_300vel5.0/thirdexp_300vel5.0_8.csv
Current Position (x),Current Position (y),Current Position (z), ,Planned Position (x),Planned Position (y),Planned Position (z), ,Position Error,,Cartesian linear Velocity(x),Cartesian linear Velocity(y),Cartesian linear Velocity(z),Cartesian Angular Velocity(x),Cartesian Angular Velocity(y),Cartesian Angular Velocity(z), ,Total Linear Velocity, ,Total Angular Velocity, ,MSE, ,Joint 1 Position,Joint 2 Position,Joint 3 Position,Joint 4 Position,Joint 5 Position,Joint 6 Position, ,Joint 1 Velocity,Joint 2 Velocity,Joint 3 Velocity,Joint 4 Velocity,Joint 5 Velocity,Joint 6 Velocity, ,Time Stamp
0.010146043660466826,0.020140555290916448,-0.08004379179242166, ,0.010295234588633247,0.02011087006179047,-0.08012229467775216, ,0.00017117782823903666, ,2.9802233459457102e-05,2.9025640651969677e-06,4.507026614479424e-06,0.1393004878228956,0.0003351050405217509,-0.044194039473651595, ,3.028054303060272e-05, ,0.13930089089121028, ,1.4264819019919721e-05, ,0.17788542902488735,-0.23892590966275787,0.09058474520000001,1.6896815645982974,0.48068720617481947,-1.3012159204487492, ,0.0003832646859790494,-0.00010590128524125678,-0.00038149338267617054,-0.0014838131348126203,0.0,-0.2007704796907226, ,0.03606891632080078
0.010180217735662722,0.02014642437174593,-0.08006726210108078, ,0.010321395268878306,0.020163631560313915,-0.08019701477877758, ,0.0001925173773786167, ,0.0008564992214901325,0.00037739387088842627,-0.0010441270022772278,0.029415500485790457,-0.07568773553769251,-0.031232926173496184, ,0.0014022190439021227, ,0.0812028631247198, ,1.653160025534788e-05, ,0.17788542902488735,-0.238964523327129,0.09059900439000002,1.6894718746548125,0.4769980206811526,-1.3058037598820182, ,0.0003318135417339307,-0.0019109384005155713,0.0009062496968925909,0.001046607422618647,-0.07860078453670932,-0.03493785308679076, ,0.07172083854675293
0.010223258166088883,0.02016643985776858,-0.0801179259620452, ,0.01034874444549404,0.020214805428313005,-0.08027444038282956, ,0.0002063559997831446, ,0.0011233969212925247,0.000725833112472113,-0.0023158853785085753,-0.0711588512424588,-0.08121358050668089,-0.0005576025932544465, ,0.0026743558918588765, ,0.10797790407669015, ,1.7814100168774936e-05, ,0.1779008744906358,-0.23904947338874546,0.09064307825000001,1.6901009444852664,0.47303556218795484,-1.3106588359487377, ,0.00025298697236424936,-0.0023338848587738433,0.0022318637410676757,0.001335383523637145,-0.08389291803159662,0.07069329087616168, ,0.10725879669189453
0.01023286813744998,0.02019326528065678,-0.08018128049823256, ,0.010377270154526944,0.020264411820463107,-0.08035453374974949, ,0.00023649621946977915, ,-0.0001281325898682406,0.000857616856402194,-0.0020965757270925093,0.018655330651568578,0.07148559439040622,0.01522346327400841, ,0.002268822252272092, ,0.07387971011738285, ,1.9203510115966123e-05, ,0.17794721088788115,-0.23917303711473306,0.0907143742,1.6901009444852664,0.47371874468678205,-1.30688695223977, ,0.001310712621284563,-0.002966813271857328,0.002456633485502776,0.001335383523637145,0.07508422386367675,-0.0026439392538187556, ,0.1435718536376953
0.010248723068255892,0.020225900885539744,-0.08026010831799674, ,0.010406960496333948,0.020312470781909703,-0.0804372573557451, ,0.00025281458062665957, ,0.00045665215747452793,0.0012425140854089708,-0.0025339187771312253,0.025720217057089843,0.016643065576281927,-0.00939981099457439, ,0.0028588663512770294, ,0.03063529332544039, ,2.0771804029357583e-05, ,0.1779935472851265,-0.2393120463064691,0.09080122563000001,1.6903106344287508,0.47399201768631294,-1.30670139434646, ,0.0015777642813006715,-0.006504159859906321,0.002860777931034483,0.009880696871157744,0.016370480931161557,-0.017198749748364165, ,0.17567896842956543
0.010276069140049174,0.02027272281958182,-0.08036858672087141, ,0.010437803635434489,0.02035900224851228,-0.08052257389289684, ,0.00023940391810181044, ,0.0005581740714182301,0.00119547375327895,-0.002659487950127094,0.01640860970742543,0.006601055914665955,-0.004533738925597532, ,0.002968769432888596, ,0.0176866167365644, ,2.1646098726650786e-05, ,0.1780862200796172,-0.23952056009407316,0.09092048431000001,1.69073001431572,0.47399201768631294,-1.3066197156063195, ,0.0016701552196329535,-0.0058987498918536135,0.00294923375671172,0.004695054251945275,0.007372054351334449,-0.00969606297466714, ,0.20812177658081055
0.01029599106802808,0.020306503877983162,-0.0804368984044872, ,0.010469787800362323,0.020404026047087968,-0.08061044626866427, ,0.00026426263223806434, ,0.0007498781045341313,0.001162024421207128,-0.002275342930698097,0.011821694730335766,0.0013534549821682725,-0.0026221472786469528, ,0.002662668469678354, ,0.011898920397456988, ,2.265258776575524e-05, ,0.17817889287410787,-0.23971362841592878,0.09099696542,1.69073001431572,0.47399201768631294,-1.3064563581260384, ,0.004626580039742562,-0.0065743537303228775,0.002586685859045145,0.0039099616312021305,0.005214913107570025,-0.004495856576073567, ,0.24020695686340332
0.010321316959586567,0.02034858568174023,-0.08052394612735192, ,0.01050290128351694,0.020447561895656424,-0.08070083760539057, ,0.0002721392155150236, ,0.0008145108143110056,0.0014275596995578861,-0.0030157706333575132,0.009478024648975656,0.00020617815692100283,0.0018959012765515626, ,0.0034345635931589554, ,0.009480266896534445, ,2.3527791940411988e-05, ,0.17829473386722125,-0.2399375876692813,0.09109418717000001,1.6909397042592043,0.47399201768631294,-1.306538036866179, ,0.003689565253790082,-0.007736645901601083,0.003368325548741806,0.0,0.004031480385832457,-0.001634905705727969, ,0.2721388339996338
0.0103486848871828,0.02039255268618093,-0.08061779058156067, ,0.010537132441015822,0.020489629403683044,-0.08079371123981008, ,0.0002754713190616053, ,0.0008656560085956933,0.0014046082067685468,-0.0026414325892099447,0.009584955757890524,-0.002376526314492996,-0.007746951018297121, ,0.0031143941085032467, ,0.009875183748954203, ,2.4260219430042992e-05, ,0.1784337430589573,-0.2401615469226338,0.09119918666000001,1.6911493942026892,0.47412865418607836,-1.3064860972895942, ,0.004660191536433255,-0.008057746168872717,0.002993574801728999,0.00960075416227965,0.0,0.0, ,0.30418992042541504
0.010372254591816045,0.02042738737774087,-0.08068131359221954, ,0.010572469692545798,0.020530248072323527,-0.0808890307225534, ,0.00030628877760111793, ,0.000797615602962825,0.0011564316687821287,-0.002109318130765044,-0.01732579268751335,-0.0030090049409404484,0.0008361433563556911, ,0.002534314075134751, ,0.017585141538911195, ,2.5441345979103774e-05, ,0.17858047498356755,-0.2403777834431121,0.0912717789,1.6911493942026892,0.47412865418607836,-1.3059143461086102, ,0.0049950382188105715,-0.0067265304943989294,0.002412359763743753,0.00889800163200022,0.0,0.026751277232802385, ,0.3330669403076172
0.010405000726490872,0.020472565179510828,-0.0807846314666899, ,0.01060890152121502,0.020569437294667287,-0.08098675981765284, ,0.00030301090912213146, ,0.0011604435642989723,0.0016117533685379808,-0.004094589545861957,0.017441037493251998,-0.0034902873675948173,-0.008143334388304897, ,0.00455082868673371, ,0.017786846083510027, ,2.640717259356301e-05, ,0.17873492964105206,-0.24057857449784192,0.09138455613,1.691568774089658,0.47399201768631294,-1.3054762132443516, ,0.005050096526276233,-0.006377085699830396,0.004468109823281908,0.006340326067252668,0.0,0.01241030509565285, ,0.3621678352355957
0.010441443024498157,0.020515715220416605,-0.08090494544623747, ,0.010646416473404745,0.02060721635598185,-0.08108686250204888, ,0.00028892972806806173, ,0.001105435486834308,0.0012310695246038415,-0.0033241988274501223,0.002159032747095587,-0.00455491526495911,-0.004356553843215465, ,0.0037131950708765224, ,0.005040701842806592, ,2.7106923470315782e-05, ,0.1789125524971592,-0.24072530642245218,0.09151677771000001,1.691568774089658,0.47399201768631294,-1.3053128557640705, ,0.006051572399017862,-0.004149347583896141,0.0036392075668265945,0.006340326067252668,0.0,0.0031701215542038847, ,0.3910038471221924
0.010474919446945058,0.020551964891164707,-0.08100450206193364, ,0.010685003158620858,0.020643604433956554,-0.08118930296509566, ,0.0002944220533928738, ,0.0010658012491431812,0.0012025067442409567,-0.003425636923855481,0.00219603642110787,-0.0040548854873034895,-0.003837470133061608, ,0.0037837736595497085, ,0.00461136333487532, ,2.7758744189898535e-05, ,0.1790978980861406,-0.24084114741556556,0.09162566607000001,1.6917784640331426,0.47399201768631294,-1.3053128557640705, ,0.005341880659805113,-0.003581733545388781,0.0037251663985032745,0.0054415172323561915,0.0,0.0023826207523429325, ,0.4202258586883545
0.010497420138085994,0.020574918469819157,-0.08107923130705467, ,0.010724650249345755,0.02067862059894676,-0.08129404560806709, ,0.0003294432257129809, ,0.0011739954548063182,0.0012049953376898153,-0.0038112422179024785,-6.276679944978108e-05,-0.00464139275568658,-0.0031709176058734917, ,0.004166034845663474, ,0.004641817055799488, ,2.883122051040402e-05, ,0.17920601634637975,-0.24088748381281092,0.09170603605000001,1.6917784640331426,0.47399201768631294,-1.3051494982837895, ,0.005797400718584143,-0.002506314342227927,0.004110661037419356,0.004914162082286527,0.0,0.0035474593571875185, ,0.4461359977722168
0.010522224080662076,0.020599950541442157,-0.08115798468754988, ,0.010765346480890059,0.020712283814217206,-0.08140105504366135, ,0.00036167729218894364, ,0.0013394147118589383,0.0011560675655443533,-0.0039175043649004445,-0.004638576533838214,-0.006985078273586677,2.9426913953753837e-05, ,0.004298530497212023, ,0.008384969279951774, ,3.003316598872068e-05, ,0.1793450255381158,-0.24093382021005624,0.09179159119000001,1.691988153976627,0.47412865418607836,-1.3050158799670641, ,0.00755894182218615,-0.0016948718172717957,0.0042217894301616755,0.002538194349870763,0.0,0.0070811039301573895, ,0.47111082077026367
0.010574178689923311,0.02064792522164076,-0.0813189343859124, ,0.010807080651244323,0.020744612936186596,-0.08151029609550874, ,0.0003165614342128641, ,0.001565307013869941,0.001424100691769062,-0.004680017840135172,-0.011267925325953377,-0.006473267355849264,-0.0030612471307729233, ,0.005136225833425847, ,0.012994973226846436, ,3.079266079080511e-05, ,0.1796307666544621,-0.24100332480592426,0.09196529405000001,1.6921978439201113,0.4742652906858438,-1.3047189041700575, ,0.00855030717561856,-0.002247064819052839,0.005050352415979709,0.00864922773299978,8.454290061548028e-05,0.015729981904707428, ,0.496567964553833
0.010605372960903732,0.02067667822207078,-0.0814147519748471, ,0.010849841620930712,0.020775626714670765,-0.0816217337976749, ,0.00033525692372315903, ,0.0016378458153432154,0.0013536036223818295,-0.00470560089976091,-0.00797531926857444,-0.006490447433122241,0.0057159061435999164, ,0.00516308643247362, ,0.010282588341982278, ,3.1607002955346075e-05, ,0.17980838951056927,-0.2410419384702954,0.09206899725,1.6924075338635962,0.4744019271856092,-1.304666964593473, ,0.009768167498326777,-0.0017845635945620416,0.005080960612440192,-0.0013725025830775275,0.003785628211548835,0.010269879038107513, ,0.5230059623718262
0.010654715512587992,0.020711407797525807,-0.08153630028355129, ,0.010893618312854684,0.020805343793127425,-0.08173533339416862, ,0.0003248271823092197, ,0.0017781156908728253,0.0011131304912298265,-0.0038997271058340242,0.007289502826357356,-0.01000258523115301,0.0005162683586326632, ,0.004428162869702323, ,0.012376936691282937, ,3.2279588420422685e-05, ,0.18014818975703514,-0.24108055213466653,0.09220121883000001,1.6924075338635962,0.47453856368537467,-1.304288310056326, ,0.013150906535264798,-0.0012275423730594855,0.00426360051391863,-0.0013725025830775275,0.003577818407702881,-0.006345267259974549, ,0.5479228496551514
0.010691125574266143,0.020735043923049267,-0.08162599003267149, ,0.010938399712156764,0.020833782708899115,-0.08185106033844596, ,0.00034864091791134486, ,0.0018845504665651045,0.001310648489042695,-0.0046879091478000305,-0.00409487799685558,-0.004635966749093145,-0.0009448296580171731, ,0.0052197530689571765, ,0.006185483913464453, ,3.324810959160274e-05, ,0.18040303994188456,-0.24109599760041497,0.09229844058000002,1.6921978439201113,0.47467520018514014,-1.304481406700163, ,0.013010274411635697,-0.0008796313288348502,0.005098851318822024,0.005281771129359511,0.007411163689873065,0.006767612446851363, ,0.5696020126342773
0.010730883229962237,0.020763045591438822,-0.0817248969789942, ,0.010984174866064187,0.020860961893457663,-0.08196888029291634, ,0.0003650645320935431, ,0.0021407656384729527,0.001483044740151771,-0.005536990035356588,-0.0013048536904328796,-0.005420285670503512,-0.004056218558193287, ,0.006118869002666791, ,0.005575135397362604, ,3.424555461897579e-05, ,0.18067333559248241,-0.2411037203332892,0.09240603265000001,1.6926172238070805,0.47481183668490556,-1.3045928246038594, ,0.014157383493729789,-0.0002833681607363323,0.0059905270853704414,0.007378660757011491,0.007252362158753319,0.0035990154048576133, ,0.5913548469543457
0.010780296048308395,0.020795873033091657,-0.08185011326359203, ,0.011030932883742628,0.020886899672647768,-0.08208875912844844, ,0.00035784985845803045, ,0.0022612953797402505,0.0014866649244938573,-0.005641392405440566,0.006413541269272142,-0.007634473196617875,-0.007001339432785043, ,0.0062569111919794276, ,0.009970891980592709, ,3.5131464681441925e-05, ,0.18097452217457716,-0.2411037203332892,0.09253566165,1.6926172238070805,0.47481183668490556,-1.3044294671235783, ,0.0149656113481266,-0.00021478678479848237,0.0061548730757341585,0.007378660757011491,0.006036801615726784,-0.00492260693306761, ,0.6127979755401611
0.010823102698826564,0.020823106888271423,-0.08195552775125017, ,0.011078662936147784,0.020911614266930917,-0.08221066292387544, ,0.00037180444764335077, ,0.0023258833636918075,0.0013785753955908803,-0.005218681785348575,0.0018177115653815596,-0.01400607670477406,-0.006524729420684783, ,0.005877486122446897, ,0.01412353553909596, ,3.6036047038490804e-05, ,0.18127570875667193,-0.24111144306616342,0.09265103146,1.6926172238070805,0.47494847318467104,-1.3045408850272748, ,0.016339005089268385,0.0,0.005660558464818764,0.006874538101500582,0.0007268808965006158,-0.0005927226316840875, ,0.6340088844299316
0.010867902478659479,0.020849702228166365,-0.08206083060236113, ,0.011127354255877223,0.020935123791629342,-0.0823345579655002, ,0.00038670238884311157, ,0.0022516806487908555,0.0013977515668286548,-0.0053640775539944945,0.00821605518598439,-0.006104099419549568,-0.0056398966130454115, ,0.005983068041730657, ,0.010235408545922479, ,3.696260196573084e-05, ,0.18160006353738933,-0.2411037203332892,0.09276899385000001,1.6926172238070805,0.4750851096844364,-1.3045706241908306, ,0.015871707904076063,0.00019843934381055946,0.005824062712979892,0.005940797681980921,0.008630692758805856,-0.0070377512325389205, ,0.6558468341827393
0.010913453369956784,0.020877224367603125,-0.08216982761243548, ,0.011176996137021849,0.020957446257169585,-0.08246041074660146, ,0.0004004109133123731, ,0.00226867307437481,0.0014215874322366705,-0.005487125570364387,0.002650229133417264,-0.010451172933084195,-0.00459384179460284, ,0.006105434904315432, ,0.010781962954983243, ,3.810333161379284e-05, ,0.1819012501194841,-0.24109599760041497,0.09288306737,1.6926172238070805,0.4752217461842019,-1.304518684614246, ,0.014975057844164554,0.00019149724038733306,0.005750473472924188,0.005246093438444218,0.0037172214718317314,-0.001715138083724309, ,0.6738429069519043
0.010960693941756305,0.02090929530135467,-0.08229306067626468, ,0.011227577935017795,0.020978599569326333,-0.08258818796693895, ,0.0004038938785362082, ,0.002559935175320097,0.0016945554157761131,-0.006638718809160203,0.009610321922505964,-0.0040075532246748825,-0.00042157990037892045, ,0.007314189879000597, ,0.010412432828489223, ,3.92032141935209e-05, ,0.18223332763307576,-0.24108827486754075,0.09302047411000001,1.6928269137505652,0.47549501918373277,-1.3046598416814983, ,0.017135597970110286,0.00028802493716132685,0.0071816102434625806,0.0010568486305736725,0.013318772548254532,-0.009112674334698128, ,0.6915628910064697
0.011017650116244348,0.020947933168211714,-0.08244887459935367, ,0.011279089066497884,0.020998601529466556,-0.08271785653225903, ,0.00037850876842079753, ,0.00290296116316579,0.0019914924113721023,-0.00795997312928424,0.005378760910406899,-0.014026915862544275,-0.002096068955593998, ,0.008703700233712594, ,0.01502282948015472, ,4.012026292444147e-05, ,0.18258085061241586,-0.24107282940179228,0.09318769552,1.6928269137505652,0.4756316556834982,-1.3046079021049133, ,0.017253989374267416,0.0005967584946588387,0.008531768355650778,0.0010568486305736725,0.0030607341078287493,-0.005817068978148283, ,0.7091999053955078
0.011073880179824403,0.020986221910996902,-0.08260513409745364, ,0.011331519009143424,0.02101746983479303,-0.08284938355379952, ,0.0003563874240762458, ,0.0029040186619366487,0.0019776499541223212,-0.00817477718032554,0.011562708058382913,-0.003117036440571111,-0.001153903469127582, ,0.008897831515481035, ,0.011975479001190281, ,4.0883920323725975e-05, ,0.1829438190575044,-0.24104966120316962,0.09335621322000001,1.6928269137505652,0.4760415651827945,-1.3047787983357217, ,0.01787809750536375,0.0014688235233745583,0.008781042734288865,0.0010568486305736725,0.014997636243257147,-0.012245424973026085, ,0.7277917861938477
0.011103603738585405,0.02100504429134299,-0.08268339192838699, ,0.011384857301535878,0.021035222078587986,-0.08298273634779596, ,0.000411851122308335, ,0.00287525299320293,0.0017754986334725341,-0.007627136661332179,0.013252233760726586,0.008970961221334959,0.002013103215177471, ,0.008342223254206436, ,0.016003119042001475, ,4.2077744559367466e-05, ,0.18313688737936,-0.24103421573742118,0.09344047207,1.6928269137505652,0.47617820168256,-1.304890216239418, ,0.020130874322967923,0.0023850562644532054,0.008257548740279938,0.0010568486305736725,0.02986867019540092,-0.013769197809323272, ,0.741919994354248
0.011133625316858402,0.021022631874204396,-0.08275706677998958, ,0.011439093543008379,0.02105187575045725,-0.08311788243498645, ,0.0004736601929403934, ,0.0029876983843077813,0.0018753772365491439,-0.007665318037846017,0.015130972766499558,0.0011728482364975323,-0.00020663996114443512, ,0.008438037807232766, ,0.015176359358643516, ,4.351807104381522e-05, ,0.18332995570121563,-0.24101877027167273,0.09351954576,1.6928269137505652,0.47617820168256,-1.304726858759137, ,0.020602896560675377,0.0013241949886242325,0.008304906944734099,0.0010823946037396392,0.022254968169166108,-0.015252434887957612, ,0.756328821182251
0.011196880775934035,0.021061555496690778,-0.08293050846308876, ,0.011494217393497522,0.02106744823657397,-0.08325478954011784, ,0.00044000227891064615, ,0.0033564259639858327,0.002097175852371262,-0.00901798428811659,0.010434335374078701,-0.004182715606854319,-0.0032760999904477973, ,0.009848237529030513, ,0.011241459198219584, ,4.474922842684941e-05, ,0.18374698327642375,-0.24094154294293046,0.09370621152000001,1.6930366036940496,0.4767247476816217,-1.3051725303739226, ,0.021363561809651235,0.002740512826691893,0.009689058102189783,0.0036962221584032526,0.01685772305429877,-0.011730721575467423, ,0.7715768814086914
0.011232379962118106,0.021082446103019035,-0.08302495613194089, ,0.011550218573394989,0.021081956819922146,-0.08339342559144998, ,0.0004866121297371138, ,0.003410628737122194,0.0020234784481854514,-0.009421804198329352,0.023797750687605243,0.011207011329545092,-0.0036567026535461685, ,0.010222389533001143, ,0.02630456170485316, ,4.614747940880267e-05, ,0.18397094252977628,-0.24090292927855936,0.09380732214000001,1.6930366036940496,0.4768613841813871,-1.305283948277619, ,0.022729806361310365,0.004867317145569189,0.010132831755725191,0.003622794278423329,0.03419340242704315,-0.026564737625380995, ,0.785653829574585
0.011306074990599605,0.02111838568159205,-0.08320336073497553, ,0.01160708686339912,0.021095418680540545,-0.08353375872026154, ,0.0004475471588387414, ,0.003683086059702357,0.0016373171512534203,-0.008349179373355381,-0.004504299758178014,-0.023502586961562877,0.002381067646251918, ,0.009271177195233916, ,0.023930321135037964, ,4.732139566417558e-05, ,0.18445747470085241,-0.24077936555257176,0.09399787677000002,1.693246293637534,0.4769980206811526,-1.3053953661813154, ,0.025178281124561098,0.005686359179764931,0.00892370393277311,-0.0033950088897940034,0.0025717466642680166,-0.0015663327024274427, ,0.7999119758605957
0.01134380598090743,0.021135723623423835,-0.0832938058332512, ,0.011664812104366668,0.02110785089576655,-0.08367575726035577, ,0.0004997086280149653, ,0.003989993564475544,0.0018275694063434916,-0.009702311251317337,0.0036212707535763114,-0.013941740098125203,0.0020139090599807954, ,0.010648704249672724, ,0.014404361591497947, ,4.889736236471495e-05, ,0.18472777035145027,-0.24070986095670374,0.09409509852,1.693246293637534,0.4772712936806835,-1.3056182019887084, ,0.02686015894663764,0.007478148036010426,0.01035683453836151,-0.003239864091013919,0.01415642416661578,-0.010978417811967789, ,0.811133861541748
0.011379889602483907,0.021154247564774905,-0.0833917121466956, ,0.01172338419716431,0.02111927044047981,-0.08381938974756523, ,0.0005496544970108064, ,0.003852795597231313,0.002051927643053337,-0.010888651342934545,0.046115659455783976,0.03493127639082975,0.002110149668521256, ,0.011731034440080793, ,0.057851948664425244, ,5.0649372842613475e-05, ,0.18497489780342546,-0.2406326336279615,0.09420009801000001,1.693246293637534,0.4776812031799798,-1.3059524556997975, ,0.027474505373037285,0.008665470357789704,0.011729610839469811,-0.003109712184314753,0.06528070362683482,-0.052652644870017556, ,0.8221538066864014
0.011425312008617305,0.021177019526516287,-0.0835120492898644, ,0.01178279310252044,0.021129694187346244,-0.08396462491925795, ,0.0005786684029275382, ,0.00450253039727122,0.0023267863908917326,-0.0122165189513996,0.011216800084748398,-0.008240655975883852,0.0005302188531829605, ,0.01322611243627907, ,0.01391850361743509, ,5.248079037222591e-05, ,0.18526836165264599,-0.24053996083347082,0.09432843072000001,1.693246293637534,0.4779544761795107,-1.3060936127670497, ,0.02785351968255673,0.008975212740765546,0.012992505318107668,-0.0029778835952968367,0.02099503165046115,-0.019895026154991256, ,0.8331530094146729
0.011475995470816727,0.02120283191344352,-0.08364813162905621, ,0.011843028840876598,0.021139138907061338,-0.08411143171384157, ,0.0005944890767386966, ,0.00509014599880469,0.0026052165119908707,-0.014035186476725482,0.0024461145634099794,-0.017795433705053033,5.866900933342058e-05, ,0.015155302662763126, ,0.01796275013998655, ,5.4332683192658195e-05, ,0.18555410276899229,-0.2404472880389801,0.09446583746000001,1.693246293637534,0.4779544761795107,-1.3060936127670497, ,0.029794958103130542,0.010483143723092822,0.014735255800185015,-0.0028622155843956894,0.013380315267144081,-0.01346627459644036, ,0.8436868190765381
0.011527593797247214,0.021229076241465493,-0.08379582268871977, ,0.011904081492239359,0.021147621268594093,-0.08425977927026929, ,0.0006030204031781131, ,0.005457745819350314,0.002716328785382982,-0.01523384026452242,0.003964529688750274,-0.015424993842155761,-0.0003552727551216794, ,0.01640839177689028, ,0.01592630246614765, ,5.640980519598928e-05, ,0.18586301208396128,-0.2403160015801183,0.09462398484000001,1.693246293637534,0.478364385678807,-1.306427866478139, ,0.03159019359469733,0.013042460357129025,0.01604109921450151,-0.0027521606399127803,0.017648889341438698,-0.016754608096494584, ,0.8515219688415527
0.011549264450018231,0.02123992669191986,-0.08385692776293685, ,0.011965941196031712,0.021155157839431227,-0.0844096369275454, ,0.0006973468933485698, ,0.00547494791766616,0.0026573191395978576,-0.015074615264996491,0.011561316779715404,-0.007775453988207678,-0.0003549139447124407, ,0.016256704004763554, ,0.013932729522704324, ,5.884533554164174e-05, ,0.18600974400857154,-0.2402542197171245,0.09469398450000001,1.693246293637534,0.47850102217857243,-1.3065392843818355, ,0.033238858689481884,0.01339406373443483,0.01597674174523571,-0.002706951892266328,0.02697525142873423,-0.0242842589881807, ,0.8626539707183838
0.011637390938202452,0.02128168057889621,-0.08409749801455663, ,0.01202859815094481,0.02116176508582027,-0.08456097422423015, ,0.0006182499540757135, ,0.006017960803272224,0.0025854980566861036,-0.0158678261403402,0.001732684498144262,-0.018938572367250005,-0.0010592161599990082, ,0.017166495240756405, ,0.01901764214892908, ,6.0913762330866664e-05, ,0.18655805804264147,-0.240030260463772,0.09494935363000001,1.693246293637534,0.47904756817763416,-1.3069849559966211, ,0.03685318118775564,0.016386969704450145,0.016767170021052633,-0.002558535577207216,0.019134821541566812,-0.017661297597061643, ,0.8697779178619385
0.011637390938202452,0.02128168057889621,-0.08409749801455663, ,0.012092042614789644,0.021167459373013498,-0.084713760897945, ,0.0007742961786932639, ,0.006017960803272224,0.0025854980566861036,-0.0158678261403402,0.001732684498144262,-0.018938572367250005,-0.0010592161599990082, ,0.017166495240756405, ,0.01901764214892908, ,6.358781419165163e-05, ,0.18655805804264147,-0.240030260463772,0.09494935363000001,1.693246293637534,0.47904756817763416,-1.3069849559966211, ,0.03685318118775564,0.016386969704450145,0.016767170021052633,-0.002558535577207216,0.019134821541566812,-0.017661297597061643, ,0.8769059181213379
0.011701197197570387,0.02130563169957993,-0.0842674802350436, ,0.012156264904348516,0.021172256965512053,-0.0848679668848781, ,0.0007651533533020995, ,0.006666703119641285,0.002565691285933106,-0.017488967657437526,-0.0017626986282148647,-0.02112136118932875,-0.004368777940942851, ,0.018891577276210787, ,0.021194748613806345, ,6.61812195775004e-05, ,0.18695191741922693,-0.23982174667616793,0.09512824165000001,1.6930366036940496,0.4793208411771651,-1.307207791804014, ,0.04074578856095783,0.021272571521737452,0.018414811005780348,0.0,0.020269411312022683,-0.018459411285308716, ,0.8840188980102539
0.011766283817489566,0.021332457759984918,-0.08444757923545919, ,0.012221255395226789,0.021176174027308987,-0.0850235623192894, ,0.0007504533659771118, ,0.006671179337911179,0.0027331946994581333,-0.018857016839209564,0.04319420130066807,0.03044673978909511,-0.00433282263638596, ,0.020188166610615045, ,0.05284638687238032, ,6.867352170178309e-05, ,0.18736122226156082,-0.23960551015568965,0.09531879628,1.6930366036940496,0.47986738717622685,-1.3076534634187997, ,0.042842863006081616,0.02356517048881817,0.019985961756587206,0.0,0.07571634576253952,-0.06356352157437127, ,0.8917899131774902
0.01184054670355166,0.021360120541373734,-0.0846504157594433, ,0.012287004521704413,0.021179226622133694,-0.08518051753301585, ,0.0007162786355549743, ,0.007576626571559734,0.0029103965048023614,-0.02122364246441936,0.018780473059654055,0.004898289297548646,-0.005328601830523275, ,0.02272264679735914, ,0.01940863467978238, ,7.098924807038873e-05, ,0.1878245862340143,-0.2393352145050918,0.09553268413,1.6930366036940496,0.48041393317528863,-1.3080991350335853, ,0.04566744059599171,0.027919076657390636,0.022340549116409536,0.0,0.05223369634966352,-0.0443144875684812, ,0.899000883102417
0.01184054670355166,0.021360120541373734,-0.0846504157594433, ,0.012353502776587583,0.021181430713695167,-0.08533880305497688, ,0.0008768871398488245, ,0.007576626571559734,0.0029103965048023614,-0.02122364246441936,0.018780473059654055,0.004898289297548646,-0.005328601830523275, ,0.02272264679735914, ,0.01940863467978238, ,7.419999664321118e-05, ,0.1878245862340143,-0.2393352145050918,0.09553268413,1.6930366036940496,0.48041393317528863,-1.3080991350335853, ,0.04566744059599171,0.027919076657390636,0.022340549116409536,0.0,0.05223369634966352,-0.0443144875684812, ,0.9026198387145996
0.01184054670355166,0.021360120541373734,-0.0846504157594433, ,0.012420740711060379,0.021182802165925958,-0.08549838961067936, ,0.0010426536073886543, ,0.007576626571559734,0.0029103965048023614,-0.02122364246441936,0.018780473059654055,0.004898289297548646,-0.005328601830523275, ,0.02272264679735914, ,0.01940863467978238, ,7.804306652712166e-05, ,0.1878245862340143,-0.2393352145050918,0.09553268413,1.6930366036940496,0.48041393317528863,-1.3080991350335853, ,0.04566744059599171,0.027919076657390636,0.022340549116409536,0.0,0.05223369634966352,-0.0443144875684812, ,0.9062387943267822
0.011915863370314828,0.02138599967587139,-0.08485541114776489, ,0.012488708934536252,0.021183356743225714,-0.08565924812172274, ,0.0010076557345150721, ,0.008768716960366648,0.0028923577293340514,-0.02389710974401358,-0.012009449340443477,-0.02678182062178885,-0.006909087031823475, ,0.02561889897093333, ,0.02935106464644403, ,0.0004398831595606326, ,0.18828022747359355,-0.23904175065587124,0.09574786827000001,1.6930366036940496,0.48082384267458494,-1.3084333887446746, ,0.05069281066157627,0.03526456393848784,0.024966789216300942,0.0,0.024694811890957267,-0.02177610794167521, ,0.9100258350372314
0.011915863370314828,0.02138599967587139,-0.08485541114776489, ,0.012557398114509713,0.02118311011070529,-0.08582134970530467, ,0.0011771866039861788, ,0.008768716960366648,0.0028923577293340514,-0.02389710974401358,-0.012009449340443477,-0.02678182062178885,-0.006909087031823475, ,0.02561889897093333, ,0.02935106464644403, ,0.0004552436479861648, ,0.18828022747359355,-0.23904175065587124,0.09574786827000001,1.6930366036940496,0.48082384267458494,-1.3084333887446746, ,0.05069281066157627,0.03526456393848784,0.024966789216300942,0.0,0.024694811890957267,-0.02177610794167521, ,0.913679838180542
0.011915863370314828,0.02138599967587139,-0.08485541114776489, ,0.01262679897640799,0.021182077834429946,-0.08598466567372591, ,0.001349899751030191, ,0.008768716960366648,0.0028923577293340514,-0.02389710974401358,-0.012009449340443477,-0.02678182062178885,-0.006909087031823475, ,0.02561889897093333, ,0.02935106464644403, ,0.00047350193580338984, ,0.18828022747359355,-0.23904175065587124,0.09574786827000001,1.6930366036940496,0.48082384267458494,-1.3084333887446746, ,0.05069281066157627,0.03526456393848784,0.024966789216300942,0.0,0.024694811890957267,-0.02177610794167521, ,0.9172508716583252
0.012014180428605751,0.021421119452790474,-0.08514480941565632, ,0.012696902303442512,0.021180275381663196,-0.08614916753389554, ,0.0012380832987528797, ,0.010258324884490843,0.004181103985744497,-0.03179036471975538,0.06513950888131279,0.06070746154166625,-0.0032915815232320597, ,0.03366514739297067, ,0.08904223174699534, ,0.0004887935630623797, ,0.18885170970628615,-0.23862472308066313,0.09605120013000001,1.6928269137505652,0.48164366167317757,-1.3091018961668532, ,0.05953384037545218,0.043134973435668536,0.03346388974789917,-0.004605861889350987,0.12530144626047585,-0.1037299808637378, ,0.9208559989929199
0.012014180428605751,0.021421119452790474,-0.08514480941565632, ,0.012767698936460554,0.021177718121110887,-0.0863148269868359, ,0.0014127899584906814, ,0.010258324884490843,0.004181103985744497,-0.03179036471975538,0.06513950888131279,0.06070746154166625,-0.0032915815232320597, ,0.03366514739297067, ,0.08904223174699534, ,0.0005069111394433268, ,0.18885170970628615,-0.23862472308066313,0.09605120013000001,1.6928269137505652,0.48164366167317757,-1.3091018961668532, ,0.05953384037545218,0.043134973435668536,0.03346388974789917,-0.004605861889350987,0.12530144626047585,-0.1037299808637378, ,0.9245178699493408
0.012014180428605751,0.021421119452790474,-0.08514480941565632, ,0.012839179773796859,0.02117442132316481,-0.08648161592718884, ,0.0015901369551086803, ,0.01289057189797728,0.00543138205089663,-0.04068388850982042,0.056734085969761525,0.05382813641002052,-0.0017207080372574736, ,0.0430214544049736, ,0.07820558370049606, ,0.0005277424051291988, ,0.18885170970628615,-0.23862472308066313,0.09605120013000001,1.6928269137505652,0.48164366167317757,-1.3091018961668532, ,0.05953384037545218,0.043134973435668536,0.03346388974789917,-0.004605861889350987,0.12530144626047585,-0.1037299808637378, ,0.9282338619232178
0.01213196233577263,0.021470155545551536,-0.08551465106462171, ,0.012911335771125158,0.021170400160145823,-0.08664950644271951, ,0.0014089616644928442, ,0.01289057189797728,0.00543138205089663,-0.04068388850982042,0.056734085969761525,0.05382813641002052,-0.0017207080372574736, ,0.0430214544049736, ,0.07820558370049606, ,0.0005443691836077582, ,0.18951586473346946,-0.238138190909587,0.09644008713,1.6926172238070805,0.483010026670832,-1.310297753943958, ,0.06998299524960973,0.05337285801938739,0.04270458852546917,-0.007901871264368678,0.12974433684942832,-0.10579780697735633, ,0.9323508739471436
0.01213196233577263,0.021470155545551536,-0.08551465106462171, ,0.012984157941309788,0.02116566970654827,-0.08681847081382219, ,0.0015871026793045126, ,0.01289057189797728,0.00543138205089663,-0.04068388850982042,0.056734085969761525,0.05382813641002052,-0.0017207080372574736, ,0.0430214544049736, ,0.07820558370049606, ,0.000563679063157698, ,0.18951586473346946,-0.238138190909587,0.09644008713,1.6926172238070805,0.483010026670832,-1.310297753943958, ,0.06998299524960973,0.05337285801938739,0.04270458852546917,-0.007901871264368678,0.12974433684942832,-0.10579780697735633, ,0.9359369277954102
0.012274689971269554,0.021527626614127177,-0.08596417648236786, ,0.013057637354257367,0.021160244939283406,-0.086988481513026, ,0.0013405881900755592, ,0.014990096305229907,0.006081682392897649,-0.04685279351141817,0.022181414172889706,0.014458067780126696,0.04103017164112009, ,0.049566865018797965, ,0.026473101118167235, ,0.0005778046836471138, ,0.19027269255514348,-0.23755126321114592,0.09691064040000001,1.691988153976627,0.484239755168721,-1.311300515077226, ,0.0778481883170392,0.06025202638633065,0.049011727753846164,-0.05399883936552797,0.10834320336307342,-0.08729826945201935, ,0.9395749568939209
0.012274689971269554,0.021527626614127177,-0.08596417648236786, ,0.013131765136768215,0.021154140737922954,-0.08715951120449913, ,0.001517529122281102, ,0.014990096305229907,0.006081682392897649,-0.04685279351141817,0.022181414172889706,0.014458067780126696,0.04103017164112009, ,0.049566865018797965, ,0.026473101118167235, ,0.0005945854771941492, ,0.19027269255514348,-0.23755126321114592,0.09691064040000001,1.691988153976627,0.484239755168721,-1.311300515077226, ,0.0778481883170392,0.06025202638633065,0.049011727753846164,-0.05399883936552797,0.10834320336307342,-0.08729826945201935, ,0.9431478977203369
0.012274689971269554,0.021527626614127177,-0.08596417648236786, ,0.01320653247238806,0.021147371884943394,-0.08733153274355454, ,0.0016978183798521704, ,0.014990096305229907,0.006081682392897649,-0.04685279351141817,0.022181414172889706,0.014458067780126696,0.04103017164112009, ,0.049566865018797965, ,0.026473101118167235, ,0.0006139404403986759, ,0.19027269255514348,-0.23755126321114592,0.09691064040000001,1.691988153976627,0.484239755168721,-1.311300515077226, ,0.0778481883170392,0.06025202638633065,0.049011727753846164,-0.05399883936552797,0.10834320336307342,-0.08729826945201935, ,0.9466948509216309
0.012437201762338998,0.02159295324773619,-0.0864723606915634, ,0.013281930601259572,0.021139953065968584,-0.08750451917615526, ,0.0014085904703995933, ,0.016503309921815243,0.006118066098837291,-0.05167944975819557,0.0756068106026407,0.07786950384779069,0.02950399050430706, ,0.05459446399109609, ,0.10853423796242255, ,0.0006276413029848985, ,0.19113763863705663,-0.23686393998533994,0.09744341559000001,1.691988153976627,0.4857427566661408,-1.3125261120178866, ,0.09029204715363537,0.07339283956571599,0.054179631020408174,-0.04438265909173838,0.18419323550702388,-0.14918342625351813, ,0.9502658843994141
0.012437201762338998,0.02159295324773619,-0.0864723606915634, ,0.013357950819973853,0.02113189887001453,-0.08767844373841883, ,0.0015858708277359374, ,0.016503309921815243,0.006118066098837291,-0.05167944975819557,0.0756068106026407,0.07786950384779069,0.02950399050430706, ,0.05459446399109609, ,0.10853423796242255, ,0.0006438824813705095, ,0.19113763863705663,-0.23686393998533994,0.09744341559000001,1.691988153976627,0.4857427566661408,-1.3125261120178866, ,0.09029204715363537,0.07339283956571599,0.054179631020408174,-0.04438265909173838,0.18419323550702388,-0.14918342625351813, ,0.9538319110870361
0.012437201762338998,0.02159295324773619,-0.0864723606915634, ,0.013434584481422249,0.021123223789732613,-0.08785327985612364, ,0.0017670188994722076, ,0.016503309921815243,0.006118066098837291,-0.05167944975819557,0.0756068106026407,0.07786950384779069,0.02950399050430706, ,0.05459446399109609, ,0.10853423796242255, ,0.0006626014216722044, ,0.19113763863705663,-0.23686393998533994,0.09744341559000001,1.691988153976627,0.4857427566661408,-1.3125261120178866, ,0.09029204715363537,0.07339283956571599,0.054179631020408174,-0.04438265909173838,0.18419323550702388,-0.14918342625351813, ,0.957460880279541
0.012605977139087652,0.02165115929654978,-0.0869909333455233, ,0.0135118229946477,0.0211139422216532,-0.08802900114421301, ,0.001478764232145296, ,0.018213556561261796,0.005412724496835971,-0.05429310706392121,0.04282046839021376,0.046871804620541586,0.015843698849283567, ,0.05752193237142979, ,0.06348296479351184, ,0.0006759811398766813, ,0.19206436658196355,-0.23607622123216904,0.09798656110000001,1.691988153976627,0.48751903116309153,-1.31397454476594, ,0.10031389171085707,0.08770512158823549,0.05668616199288257,-0.03333918767211647,0.15981696133137485,-0.12934887400708256, ,0.9611527919769287
0.012605977139087652,0.02165115929654978,-0.0869909333455233, ,0.013589657824696278,0.021104068466429645,-0.08820558140630132, ,0.0016559909357218116, ,0.018213556561261796,0.005412724496835971,-0.05429310706392121,0.04282046839021376,0.046871804620541586,0.015843698849283567, ,0.05752193237142979, ,0.06348296479351184, ,0.0006917877494870866, ,0.19206436658196355,-0.23607622123216904,0.09798656110000001,1.691988153976627,0.48751903116309153,-1.31397454476594, ,0.10031389171085707,0.08770512158823549,0.05668616199288257,-0.03333918767211647,0.15981696133137485,-0.12934887400708256, ,0.9648799896240234
0.012605977139087652,0.02165115929654978,-0.0869909333455233, ,0.013668080492468976,0.0210936167290817,-0.08838299463417816, ,0.0018375940463481572, ,0.018213556561261796,0.005412724496835971,-0.05429310706392121,0.04282046839021376,0.046871804620541586,0.015843698849283567, ,0.05752193237142979, ,0.06348296479351184, ,0.0007099751510245639, ,0.1931146582528581,-0.23514177055438787,0.09854526209000002,1.691568774089658,0.48902203266051136,-1.3152001417066006, ,0.11138138680571688,0.0978318985138874,0.0539959712542373,-0.018289702636960392,0.1511920657845967,-0.1223561598418909, ,0.968721866607666
0.01279232365425412,0.02169747051677517,-0.08752698163867342, ,0.01374708257457313,0.02108260111923925,-0.08856121500731447, ,0.0015359907658464324, ,0.01891772627634422,0.0038525266712952783,-0.05179296681395951,0.02828354190398218,0.031053746067941247,-0.0007589035820464915, ,0.055274168836913655, ,0.041999061800965326, ,0.0007228816450061556, ,0.1931146582528581,-0.23514177055438787,0.09854526209000002,1.691568774089658,0.48902203266051136,-1.3152001417066006, ,0.11138138680571688,0.0978318985138874,0.0539959712542373,-0.018289702636960392,0.1511920657845967,-0.1223561598418909, ,0.9729549884796143
0.01279232365425412,0.02169747051677517,-0.08752698163867342, ,0.013826655703173986,0.021071035651385954,-0.08874021689236704, ,0.0017129516072566051, ,0.01891772627634422,0.0038525266712952783,-0.05179296681395951,0.02828354190398218,0.031053746067941247,-0.0007589035820464915, ,0.055274168836913655, ,0.041999061800965326, ,0.0007381134905792393, ,0.1931146582528581,-0.23514177055438787,0.09854526209000002,1.691568774089658,0.48902203266051136,-1.3152001417066006, ,0.11138138680571688,0.0978318985138874,0.0539959712542373,-0.018289702636960392,0.1511920657845967,-0.1223561598418909, ,0.9765019416809082
0.012973734007289453,0.021721077841661506,-0.08800445479990916, ,0.013906791565846215,0.02105893424510333,-0.0889199748426837, ,0.0014653352854431614, ,0.01943691213882183,0.0014195869573803283,-0.04916576504217754,0.01120945594874279,0.01227557002052422,0.09003005944297236, ,0.052887439272519626, ,0.016614879966373373, ,0.0007491320026226322, ,0.19422673178674643,-0.2341455380136129,0.09904174116000002,1.69073001431572,0.4905250341579312,-1.3165074173874016, ,0.12356372598759216,0.11177496061068408,0.05105388307692308,-0.11689554971158508,0.16780185050419852,-0.1371092881954991, ,0.9800269603729248
0.012973734007289453,0.021721077841661506,-0.08800445479990916, ,0.01398748190542564,0.021046310725313773,-0.08910046359780929, ,0.0016383622149434057, ,0.01943691213882183,0.0014195869573803283,-0.04916576504217754,0.01120945594874279,0.01227557002052422,0.09003005944297236, ,0.052887439272519626, ,0.016614879966373373, ,0.0007624040953438377, ,0.19422673178674643,-0.2341455380136129,0.09904174116000002,1.69073001431572,0.4905250341579312,-1.3165074173874016, ,0.12356372598759216,0.11177496061068408,0.05105388307692308,-0.11689554971158508,0.16780185050419852,-0.1371092881954991, ,0.9836058616638184
0.012973734007289453,0.021721077841661506,-0.08800445479990916, ,0.014068718519860569,0.02103317882252498,-0.08928165808299007, ,0.0018175379967451184, ,0.01943691213882183,0.0014195869573803283,-0.04916576504217754,0.01120945594874279,0.01227557002052422,0.09003005944297236, ,0.052887439272519626, ,0.016614879966373373, ,0.0007779207703644447, ,0.19422673178674643,-0.2341455380136129,0.09904174116000002,1.69073001431572,0.4905250341579312,-1.3165074173874016, ,0.12356372598759216,0.11177496061068408,0.05105388307692308,-0.11689554971158508,0.16780185050419852,-0.1371092881954991, ,0.9872159957885742
0.013183700175771591,0.021727634407218522,-0.08850609034906239, ,0.01415049326206351,0.021019552173072983,-0.0894635334086786, ,0.0015338730502951192, ,0.019748607234486213,-0.00024065959786692052,-0.045518025780366206,0.021258707778636546,0.025043635571392078,0.029964530453013026, ,0.04961810229831577, ,0.032846932009123773, ,0.0007888766005083676, ,0.1956091009712326,-0.2328867325551143,0.09956284974000001,1.6903106344287508,0.492301308654882,-1.3178741713953146, ,0.1338461799132169,0.12197550328852286,0.04726650302670624,-0.056809785810203094,0.17700983276071972,-0.14577535489601726, ,0.9907948970794678
0.013183700175771591,0.021727634407218522,-0.08850609034906239, ,0.014232798039762708,0.02100544431936606,-0.08964606487004048, ,0.0017093000788926183, ,0.019748607234486213,-0.00024065959786692052,-0.045518025780366206,0.021258707778636546,0.025043635571392078,0.029964530453013026, ,0.04961810229831577, ,0.032846932009123773, ,0.0008020255073424283, ,0.1956091009712326,-0.2328867325551143,0.09956284974000001,1.6903106344287508,0.492301308654882,-1.3178741713953146, ,0.1338461799132169,0.12197550328852286,0.04726650302670624,-0.056809785810203094,0.17700983276071972,-0.14577535489601726, ,0.994330883026123
0.013393328721830317,0.021715868603362574,-0.08897302651198609, ,0.014315624815353619,0.02099086871012852,-0.08982922794645738, ,0.001452355268420379, ,0.020483239300608268,-0.0022720628740112315,-0.044772880549861005,0.026122605703118362,0.04244106634733064,0.0022113641004775125, ,0.04928829673139015, ,0.049834272576049506, ,0.0008111850814421178, ,0.19706869748446104,-0.23151208610350235,0.10004766220000001,1.6903106344287508,0.49435085615136354,-1.3196271186909017, ,0.1437832447855618,0.14184894104405196,0.046304684651162796,-0.0326474814966472,0.19931022188007272,-0.16491448406785555, ,1.0009608268737793
0.013393328721830317,0.021715868603362574,-0.08897302651198609, ,0.014398965605750476,0.020975838700644338,-0.09001299830103378, ,0.0016249588060110506, ,0.020483239300608268,-0.0022720628740112315,-0.044772880549861005,0.026122605703118362,0.04244106634733064,0.0022113641004775125, ,0.04928829673139015, ,0.049834272576049506, ,0.000822487494283353, ,0.19706869748446104,-0.23151208610350235,0.10004766220000001,1.6903106344287508,0.49435085615136354,-1.3196271186909017, ,0.1437832447855618,0.14184894104405196,0.046304684651162796,-0.0326474814966472,0.19931022188007272,-0.16491448406785555, ,1.0046617984771729
0.013393328721830317,0.021715868603362574,-0.08897302651198609, ,0.014482812482237935,0.02096036755300076,-0.09019735178010163, ,0.0018046409790969287, ,0.020483239300608268,-0.0022720628740112315,-0.044772880549861005,0.026122605703118362,0.04244106634733064,0.0022113641004775125, ,0.04928829673139015, ,0.049834272576049506, ,0.0008359416516095664, ,0.1985051257990668,-0.2300524895902739,0.10049747483000002,1.6898912545417817,0.49626376714807974,-1.321432005563073, ,0.14532456593946522,0.15039134953798858,0.044618519663865555,-0.013584663077080658,0.17302836494702045,-0.15724560379293445, ,1.0087428092956543
0.013597010183489995,0.021685373182956998,-0.08940917611384612, ,0.014567157570322462,0.020944468436331947,-0.09038226441272587, ,0.001561097893524324, ,0.02070039835535894,-0.003478793298109272,-0.04334427165852143,0.012098284617685954,0.01993069111136668,-0.02229335943785956, ,0.048159468233040334, ,0.023311970110894545, ,0.0008457410602840901, ,0.1985051257990668,-0.2300524895902739,0.10049747483000002,1.6898912545417817,0.49626376714807974,-1.321432005563073, ,0.14532456593946522,0.15039134953798858,0.044618519663865555,-0.013584663077080658,0.17302836494702045,-0.15724560379293445, ,1.0129458904266357
0.013597010183489995,0.021685373182956998,-0.08940917611384612, ,0.01465199304958397,0.020928154427062754,-0.09056771241020882, ,0.001740280276857634, ,0.02070039835535894,-0.003478793298109272,-0.04334427165852143,0.012098284617685954,0.01993069111136668,-0.02229335943785956, ,0.048159468233040334, ,0.023311970110894545, ,0.000857668249838404, ,0.1985051257990668,-0.2300524895902739,0.10049747483000002,1.6898912545417817,0.49626376714807974,-1.321432005563073, ,0.14532456593946522,0.15039134953798858,0.044618519663865555,-0.013584663077080658,0.17302836494702045,-0.15724560379293445, ,1.016645908355713
0.013800493355959308,0.021640400881963624,-0.08981485515943308, ,0.014737311153527397,0.020911438509152377,-0.09075367216559618, ,0.0015134038119008378, ,0.02151649118846342,-0.005641730742015967,-0.041305879697128005,-0.0818281187178522,-0.08173549207975707,0.0782213165071506, ,0.046914435053427246, ,0.11565643706919358, ,0.0008662963493392254, ,0.19993383138079834,-0.22855427941267437,0.10091228763000001,1.6890524947678438,0.4974934956459687,-1.322434766696341, ,0.15135078398480187,0.16138935639195712,0.04202852643799473,-0.1211928782771246,0.09964819268826142,-0.09737073520911985, ,1.0202507972717285
0.013800493355959308,0.021640400881963624,-0.08981485515943308, ,0.014823104169434168,0.020894333574337752,-0.0909401202531816, ,0.0016936855772405651, ,0.02151649118846342,-0.005641730742015967,-0.041305879697128005,-0.0818281187178522,-0.08173549207975707,0.0782213165071506, ,0.046914435053427246, ,0.11565643706919358, ,0.0008770416639872948, ,0.19993383138079834,-0.22855427941267437,0.10091228763000001,1.6890524947678438,0.4974934956459687,-1.322434766696341, ,0.15135078398480187,0.16138935639195712,0.04202852643799473,-0.1211928782771246,0.09964819268826142,-0.09737073520911985, ,1.023789882659912
0.013800493355959308,0.021640400881963624,-0.08981485515943308, ,0.014909364438213755,0.02087685242237775,-0.09112703342801276, ,0.0018800034935416712, ,0.02151649118846342,-0.005641730742015967,-0.041305879697128005,-0.0818281187178522,-0.08173549207975707,0.0782213165071506, ,0.046914435053427246, ,0.11565643706919358, ,0.0008899001489815816, ,0.19993383138079834,-0.22855427941267437,0.10091228763000001,1.6890524947678438,0.4974934956459687,-1.322434766696341, ,0.15135078398480187,0.16138935639195712,0.04202852643799473,-0.1211928782771246,0.09964819268826142,-0.09737073520911985, ,1.0273637771606445
0.01402895792281706,0.021579464805805037,-0.09024616342533864, ,0.014996084354255234,0.02085900776129655,-0.09131438862539538, ,0.0016110546127939011, ,0.02298832716803855,-0.006155703293449828,-0.04387863384445331,-0.05936013747711013,-0.05673099796628739,0.011276587076556547, ,0.049916834605946044, ,0.08210888744390285, ,0.0008990286864981932, ,0.20154788255151126,-0.22682438724884807,0.10135172994000001,1.68842342493739,0.4985865876440922,-1.3236528248864745, ,0.16138935639195712,0.17508660804145898,0.04474385258426967,-0.05640613262373455,0.12038137117305016,-0.12045288309935523, ,1.0309779644012451
0.01402895792281706,0.021579464805805037,-0.09024616342533864, ,0.015083256365278781,0.020840812207626958,-0.09150216296039919, ,0.0017985237553740407, ,0.02298832716803855,-0.006155703293449828,-0.04387863384445331,-0.05936013747711013,-0.05673099796628739,0.011276587076556547, ,0.049916834605946044, ,0.08210888744390285, ,0.0009102723748591413, ,0.20154788255151126,-0.22682438724884807,0.10135172994000001,1.68842342493739,0.4985865876440922,-1.3236528248864745, ,0.16138935639195712,0.17508660804145898,0.04474385258426967,-0.05640613262373455,0.12038137117305016,-0.12045288309935523, ,1.034749984741211
0.01402895792281706,0.021579464805805037,-0.09024616342533864, ,0.015170872972187267,0.020822278286654786,-0.09169033372736304, ,0.0019907107439330004, ,0.02298832716803855,-0.006155703293449828,-0.04387863384445331,-0.05936013747711013,-0.05673099796628739,0.011276587076556547, ,0.049916834605946044, ,0.08210888744390285, ,0.0009236111201563495, ,0.20321599285234374,-0.22501726775627953,0.10182098692000001,1.68842342493739,0.5002262256412775,-1.325479912171675, ,0.1676624409160261,0.18110103350853202,0.047126661301775154,-0.030007597529717937,0.17571111858208383,-0.19063205857982443, ,1.038484811782837
0.014265423637180776,0.021519178025158656,-0.09070416536569037, ,0.015258926728917722,0.02080341843266195,-0.09187887839940015, ,0.0016968532344046599, ,0.02373353602912178,-0.006232172271588826,-0.045962988098295465,0.010633046126991534,-0.002995271485432504,-0.023661091286025983, ,0.05210294596846164, ,0.011037580599826515, ,0.0009330409020374264, ,0.20321599285234374,-0.22501726775627953,0.10182098692000001,1.68842342493739,0.5002262256412775,-1.325479912171675, ,0.1676624409160261,0.18110103350853202,0.047126661301775154,-0.030007597529717937,0.17571111858208383,-0.19063205857982443, ,1.0421249866485596
0.014265423637180776,0.021519178025158656,-0.09070416536569037, ,0.015347410242292926,0.020784244989170253,-0.09206777462790247, ,0.0018895109952101038, ,0.02373353602912178,-0.006232172271588826,-0.045962988098295465,0.010633046126991534,-0.002995271485432504,-0.023661091286025983, ,0.05210294596846164, ,0.011037580599826515, ,0.0009445646380997479, ,0.20321599285234374,-0.22501726775627953,0.10182098692000001,1.68842342493739,0.5002262256412775,-1.325479912171675, ,0.1676624409160261,0.18110103350853202,0.047126661301775154,-0.030007597529717937,0.17571111858208383,-0.19063205857982443, ,1.0456929206848145
0.014515011784095644,0.02145418723962478,-0.09118633841844465, ,0.015436316171872893,0.020764770209185376,-0.09225700024204748, ,0.0015717551836459955, ,0.025229302082754517,-0.0061518359661490345,-0.04931422274847947,0.03554634136116514,0.01120165104584373,-0.05865607807065947, ,0.055733789882116726, ,0.03726563726814709, ,0.0009520311922133937, ,0.20497677594766694,-0.22312519820209453,0.10231616970000001,1.6882137349939055,0.5021391366379937,-1.3278565502248305, ,0.17541024317647097,0.18828758245728333,0.05072869910828026,0.0,0.19125815691882994,-0.21681833222098512, ,1.0492548942565918
0.014515011784095644,0.02145418723962478,-0.09118633841844465, ,0.015525637229806401,0.020745006255440016,-0.09244653324830143, ,0.0017641974008157691, ,0.025229302082754517,-0.0061518359661490345,-0.04931422274847947,0.03554634136116514,0.01120165104584373,-0.05865607807065947, ,0.055733789882116726, ,0.03726563726814709, ,0.0009615860887851863, ,0.20497677594766694,-0.22312519820209453,0.10231616970000001,1.6882137349939055,0.5021391366379937,-1.3278565502248305, ,0.17541024317647097,0.18828758245728333,0.05072869910828026,0.0,0.19125815691882994,-0.21681833222098512, ,1.0528178215026855
0.014515011784095644,0.02145418723962478,-0.09118633841844465, ,0.015615366180682592,0.020724965200637813,-0.09263635182992673, ,0.001960888439894134, ,0.025229302082754517,-0.0061518359661490345,-0.04931422274847947,0.03554634136116514,0.01120165104584373,-0.05865607807065947, ,0.055733789882116726, ,0.03726563726814709, ,0.0009732058835655228, ,0.20497677594766694,-0.22312519820209453,0.10231616970000001,1.6882137349939055,0.5021391366379937,-1.3278565502248305, ,0.17541024317647097,0.18828758245728333,0.05072869910828026,0.0,0.19125815691882994,-0.21681833222098512, ,1.056391954421997
0.014762541403903918,0.021392321218854274,-0.09168143954282781, ,0.01570549584138239,0.02070465902769719,-0.092826434346485, ,0.0016349481523000296, ,0.026305502403292644,-0.006543478167780107,-0.05431235106858943,-0.02524249288660914,-0.021453467543216892,0.09972698231531679, ,0.06070113707188323, ,0.033120418438225364, ,0.0009808121165394827, ,0.20666033171424789,-0.22129491051090333,0.10282431538000002,1.687165285276483,0.5039154111349443,-1.3296316979334462, ,0.17476416493272703,0.1948602496067162,0.055695145174825184,-0.16000153422556487,0.1931006853219771,-0.19338066859980937, ,1.0599877834320068
0.014762541403903918,0.021392321218854274,-0.09168143954282781, ,0.015796019080930108,0.020684099629994367,-0.09301675933334369, ,0.0018310469329818025, ,0.026305502403292644,-0.006543478167780107,-0.05431235106858943,-0.02524249288660914,-0.021453467543216892,0.09972698231531679, ,0.06070113707188323, ,0.033120418438225364, ,0.0009904738758172364, ,0.20666033171424789,-0.22129491051090333,0.10282431538000002,1.687165285276483,0.5039154111349443,-1.3296316979334462, ,0.17476416493272703,0.1948602496067162,0.055695145174825184,-0.16000153422556487,0.1931006853219771,-0.19338066859980937, ,1.0636539459228516
0.014762541403903918,0.021392321218854274,-0.09168143954282781, ,0.015886928820344953,0.020663298811608024,-0.09320730550118082, ,0.002030760363848628, ,0.026305502403292644,-0.006543478167780107,-0.05431235106858943,-0.02524249288660914,-0.021453467543216892,0.09972698231531679, ,0.06070113707188323, ,0.033120418438225364, ,0.0010021624880423082, ,0.20666033171424789,-0.22129491051090333,0.10282431538000002,1.687165285276483,0.5039154111349443,-1.3296316979334462, ,0.17476416493272703,0.1948602496067162,0.055695145174825184,-0.16000153422556487,0.1931006853219771,-0.19338066859980937, ,1.0674569606781006
0.014888646797109831,0.021362395982078466,-0.09194667917463609, ,0.015978218032492504,0.020642268287562018,-0.09339805173549082, ,0.0019524937090256952, ,0.027352909514214548,-0.00600849734165277,-0.057282525155991505,-0.026991562029127635,-0.043474554366696616,0.08454885915755878, ,0.06376183331307418, ,0.051166048761483805, ,0.0010127217238310126, ,0.2074866641317899,-0.22036045983312216,0.10309653628000001,1.6865362154460295,0.5048718666333024,-1.3307383382198834, ,0.1760611160639532,0.1956637970277748,0.058777902287822884,-0.15016085534398368,0.1692425427140628,-0.19223324747518297, ,1.071246862411499
0.014888646797109831,0.021362395982078466,-0.09194667917463609, ,0.016069879741936303,0.020621019684069215,-0.0935889770960876, ,0.002154551588613575, ,0.027352909514214548,-0.00600849734165277,-0.057282525155991505,-0.026991562029127635,-0.043474554366696616,0.08454885915755878, ,0.06376183331307418, ,0.051166048761483805, ,0.0010252693047626891, ,0.2074866641317899,-0.22036045983312216,0.10309653628000001,1.6865362154460295,0.5048718666333024,-1.3307383382198834, ,0.1760611160639532,0.1956637970277748,0.058777902287822884,-0.15016085534398368,0.1692425427140628,-0.19223324747518297, ,1.0748469829559326
0.014888646797109831,0.021362395982078466,-0.09194667917463609, ,0.01616190702478933,0.020599564538775896,-0.09378006081661303, ,0.0023588962807676787, ,0.027352909514214548,-0.00600849734165277,-0.057282525155991505,-0.026991562029127635,-0.043474554366696616,0.08454885915755878, ,0.06376183331307418, ,0.051166048761483805, ,0.0010397652501540477, ,0.2074866641317899,-0.22036045983312216,0.10309653628000001,1.6865362154460295,0.5048718666333024,-1.3307383382198834, ,0.1760611160639532,0.1956637970277748,0.058777902287822884,-0.15016085534398368,0.1692425427140628,-0.19223324747518297, ,1.0784058570861816
0.01531976248879442,0.02127851166040156,-0.09285471364810438, ,0.016254293008565568,0.020577914301004238,-0.09397128230403938, ,0.0016158309056936377, ,0.027790553674060154,-0.005519514199959238,-0.059139809961704266,-0.047487900819694014,-0.02820404717973467,-0.01692195929229703, ,0.06557665005793499, ,0.05522540689211434, ,0.0010459595045146884, ,0.21018189790489425,-0.21731770308067772,0.10402986508,1.6861168355590603,0.5071946871293149,-1.333122515023566, ,0.17098548028553293,0.19647399908586083,0.06079699053435115,-0.03477206882359795,0.15393153035658763,-0.1483214103659318, ,1.0820448398590088
0.01531976248879442,0.02127851166040156,-0.09285471364810438, ,0.016347030872031466,0.020556080331996893,-0.09416262113817608, ,0.0018132317441641723, ,0.027790553674060154,-0.005519514199959238,-0.059139809961704266,-0.047487900819694014,-0.02820404717973467,-0.01692195929229703, ,0.06557665005793499, ,0.05522540689211434, ,0.0010541219751492574, ,0.21018189790489425,-0.21731770308067772,0.10402986508,1.6861168355590603,0.5071946871293149,-1.333122515023566, ,0.17098548028553293,0.19647399908586083,0.06079699053435115,-0.03477206882359795,0.15393153035658763,-0.1483214103659318, ,1.085627794265747
0.015598888807659982,0.021217507851411254,-0.09344103509378901, ,0.016440113845057426,0.02053407390516015,-0.09435405707117411, ,0.00141716288888077, ,0.027243289532732275,-0.0064661796283464945,-0.056084755200736025,-0.005375281720527201,-0.0014507937938305665,-0.057899117952912124, ,0.06268578841712696, ,0.005517566870773156, ,0.0010579434584516944, ,0.21191179006872055,-0.21530979253337934,0.10463263993000001,1.6859071456155759,0.5088343251265002,-1.335031281048907, ,0.17129411833658983,0.19852916644031546,0.05771308521739131,0.0,0.17384996178865528,-0.1857310139953549, ,1.0895028114318848
0.015598888807659982,0.021217507851411254,-0.09344103509378901, ,0.01653353520846954,0.020511906206307804,-0.09454557002703179, ,0.0016097934634208772, ,0.027243289532732275,-0.0064661796283464945,-0.056084755200736025,-0.005375281720527201,-0.0014507937938305665,-0.057899117952912124, ,0.06268578841712696, ,0.005517566870773156, ,0.0010636918960034568, ,0.21191179006872055,-0.21530979253337934,0.10463263993000001,1.6859071456155759,0.5088343251265002,-1.335031281048907, ,0.17129411833658983,0.19852916644031546,0.05771308521739131,0.0,0.17384996178865528,-0.1857310139953549, ,1.0931198596954346
0.015598888807659982,0.021217507851411254,-0.09344103509378901, ,0.0166272882939008,0.0204895883339046,-0.09473714010109953, ,0.001807584166019081, ,0.027243289532732275,-0.0064661796283464945,-0.056084755200736025,-0.005375281720527201,-0.0014507937938305665,-0.057899117952912124, ,0.06268578841712696, ,0.005517566870773156, ,0.0010713608884778446, ,0.21191179006872055,-0.21530979253337934,0.10463263993000001,1.6859071456155759,0.5088343251265002,-1.335031281048907, ,0.17129411833658983,0.19852916644031546,0.05771308521739131,0.0,0.17384996178865528,-0.1857310139953549, ,1.0967249870300293
0.015877398710702744,0.02113974007624214,-0.0940081686458978, ,0.01672136648364284,0.02046713129931004,-0.09492874755958566, ,0.001418502627736125, ,0.027189554815397213,-0.008213225664961897,-0.054114620537766604,-0.08849848059084393,-0.07778713368122056,0.08601385392864713, ,0.061115637301999474, ,0.11782340673375742, ,0.0010749031511233373, ,0.21364940496542106,-0.2132478228559614,0.10521337785000001,1.6846490059546686,0.5103373266239201,-1.3364202354698487, ,0.16976197058760426,0.20233889458096116,0.055308373333333334,-0.14850457464695882,0.1261633834036791,-0.13813906866830866, ,1.100376844406128
0.015877398710702744,0.02113974007624214,-0.0940081686458978, ,0.016815763210497332,0.020444546027022194,-0.095120372839061, ,0.0016127060698823505, ,0.027189554815397213,-0.008213225664961897,-0.054114620537766604,-0.08849848059084393,-0.07778713368122056,0.08601385392864713, ,0.061115637301999474, ,0.11782340673375742, ,0.0010803355038380748, ,0.21364940496542106,-0.2132478228559614,0.10521337785000001,1.6846490059546686,0.5103373266239201,-1.3364202354698487, ,0.16976197058760426,0.20233889458096116,0.055308373333333334,-0.14850457464695882,0.1261633834036791,-0.13813906866830866, ,1.104036808013916
0.015877398710702744,0.02113974007624214,-0.0940081686458978, ,0.0169104719576276,0.02042184335492079,-0.09531199654596437, ,0.0018117900620623273, ,0.027189554815397213,-0.008213225664961897,-0.054114620537766604,-0.08849848059084393,-0.07778713368122056,0.08601385392864713, ,0.061115637301999474, ,0.11782340673375742, ,0.0010876500494203173, ,0.21364940496542106,-0.2132478228559614,0.10521337785000001,1.6846490059546686,0.5103373266239201,-1.3364202354698487, ,0.16976197058760426,0.20233889458096116,0.055308373333333334,-0.14850457464695882,0.1261633834036791,-0.13813906866830866, ,1.1076560020446777
0.016121396075558826,0.021066284318939688,-0.09448835152172236, ,0.01700548625841003,0.02039903403451133,-0.09550359945610758, ,0.0015025201368890375, ,0.026447609278267014,-0.008299474651409436,-0.050845574076086246,-0.03996568831955128,-0.0601559310516,-0.019162448306558937, ,0.05791053202269892, ,0.07221947417672961, ,0.0010917576740487205, ,0.2151707833416433,-0.21143298063051863,0.10570467176000001,1.6838102461807307,0.5114304186220436,-1.3377199724001227, ,0.16648586238328208,0.19852916644031546,0.052054939607843145,-0.047935843171176315,0.11869879854168167,-0.1638893536326668, ,1.1114039421081543
0.016121396075558826,0.021066284318939688,-0.09448835152172236, ,0.01710079969628565,0.02037612873116859,-0.09569516251418128, ,0.001700570186479868, ,0.026447609278267014,-0.008299474651409436,-0.050845574076086246,-0.03996568831955128,-0.0601559310516,-0.019162448306558937, ,0.05791053202269892, ,0.07221947417672961, ,0.0010977264241705945, ,0.2151707833416433,-0.21143298063051863,0.10570467176000001,1.6838102461807307,0.5114304186220436,-1.3377199724001227, ,0.16648586238328208,0.19852916644031546,0.052054939607843145,-0.047935843171176315,0.11869879854168167,-0.1638893536326668, ,1.1150720119476318
0.016121396075558826,0.021066284318939688,-0.09448835152172236, ,0.017196405904611668,0.02035313802438052,-0.09588666683325968, ,0.001902500849009904, ,0.026447609278267014,-0.008299474651409436,-0.050845574076086246,-0.03996568831955128,-0.0601559310516,-0.019162448306558937, ,0.05791053202269892, ,0.07221947417672961, ,0.0011055397681010732, ,0.2151707833416433,-0.21143298063051863,0.10570467176000001,1.6838102461807307,0.5114304186220436,-1.3377199724001227, ,0.16648586238328208,0.19852916644031546,0.052054939607843145,-0.047935843171176315,0.11869879854168167,-0.1638893536326668, ,1.1185879707336426
0.01640250849088794,0.020972364185571996,-0.09501327498526542, ,0.017292298566512907,0.02033007240799113,-0.09607809369430557, ,0.0015290859980232017, ,0.025723257697439102,-0.009090639047984897,-0.04708187271797,-0.019304835347708386,-0.04266269422289844,-0.04242217361805205, ,0.054415332797849686, ,0.046824681489748485, ,0.0011096123280041705, ,0.2169701801013376,-0.20928606089148422,0.10624263211000001,1.6838102461807307,0.512796783619698,-1.3395692600983522, ,0.16648586238328208,0.19729093879099954,0.048269125818181824,-0.02533327382528507,0.1317474322789508,-0.17838451206685982, ,1.122168779373169
0.01640250849088794,0.020972364185571996,-0.09501327498526542, ,0.01738847141473337,0.02030694229044502,-0.09626942454567616, ,0.001729977139684887, ,0.025723257697439102,-0.009090639047984897,-0.04708187271797,-0.019304835347708386,-0.04266269422289844,-0.04242217361805205, ,0.054415332797849686, ,0.046824681489748485, ,0.0011155205643058918, ,0.2169701801013376,-0.20928606089148422,0.10624263211000001,1.6838102461807307,0.512796783619698,-1.3395692600983522, ,0.16648586238328208,0.19729093879099954,0.048269125818181824,-0.02533327382528507,0.1317474322789508,-0.17838451206685982, ,1.1257379055023193
0.016661750417064504,0.020880609509578187,-0.095496310918505, ,0.017484918231487723,0.020283757995030502,-0.09646064100262797, ,0.0014013456005799508, ,0.025607279327011404,-0.008820484923355786,-0.04829280749565313,-0.007812222638389401,-0.014888467690328495,-0.0640235912880843, ,0.054415332797849686, ,0.016805791312287766, ,0.0011182170269122508, ,0.2169701801013376,-0.20928606089148422,0.10624263211000001,1.6838102461807307,0.512796783619698,-1.3395692600983522, ,0.16648586238328208,0.19729093879099954,0.048269125818181824,-0.02533327382528507,0.1317474322789508,-0.17838451206685982, ,1.1298298835754395
0.016661750417064504,0.020880609509578187,-0.095496310918505, ,0.017581632848312868,0.020260529760123304,-0.0966517248468218, ,0.0016017689998098679, ,0.025607279327011404,-0.008820484923355786,-0.04829280749565313,-0.007812222638389401,-0.014888467690328495,-0.0640235912880843, ,0.055369025317653406, ,0.016805791312287766, ,0.0011227362042290508, ,0.21862284493642165,-0.20728587307706006,0.10673781489,1.6836005562372458,0.5141631486173524,-1.341500226536722, ,0.16221699411704404,0.19647399908586083,0.04962246579439253,0.0,0.1505181603620458,-0.1826440663654068, ,1.135307788848877
0.016661750417064504,0.020880609509578187,-0.095496310918505, ,0.01767860914591936,0.020237267739430492,-0.09684265802582885, ,0.0018056967743960777, ,0.025607279327011404,-0.008820484923355786,-0.04829280749565313,-0.007812222638389401,-0.014888467690328495,-0.0640235912880843, ,0.055369025317653406, ,0.016805791312287766, ,0.0011290599132120788, ,0.21862284493642165,-0.20728587307706006,0.10673781489,1.6836005562372458,0.5141631486173524,-1.341500226536722, ,0.16221699411704404,0.19647399908586083,0.04962246579439253,0.0,0.1505181603620458,-0.1826440663654068, ,1.1390259265899658
0.016873023914667454,0.02080780629671407,-0.09590151363315486, ,0.017775841054043045,0.020213982002233313,-0.09703342265263457, ,0.001564903865496349, ,0.0250450825089334,-0.008540570823654016,-0.048689870528706276,-0.019536903128610734,-0.05186419432068233,0.04581821529222384, ,0.05541571076847532, ,0.05541941526102035, ,0.0011330584815816593, ,0.21994343225791405,-0.2056949901049698,0.10715392398000001,1.682761796463308,0.5153928771152414,-1.3431564175911141, ,0.15305958315882384,0.18717345475043548,0.049933578432601884,-0.12062841232193326,0.12828254042884082,-0.18940611616492994, ,1.1434299945831299
0.016873023914667454,0.02080780629671407,-0.09590151363315486, ,0.01787332255129641,0.02019068253363227,-0.09722400100514533, ,0.0017692970215529866, ,0.0250450825089334,-0.008540570823654016,-0.048689870528706276,-0.019536903128610734,-0.05186419432068233,0.04581821529222384, ,0.05541571076847532, ,0.05541941526102035, ,0.0011388424683086713, ,0.21994343225791405,-0.2056949901049698,0.10715392398000001,1.682761796463308,0.5153928771152414,-1.3431564175911141, ,0.15305958315882384,0.18717345475043548,0.049933578432601884,-0.12062841232193326,0.12828254042884082,-0.18940611616492994, ,1.1469697952270508
0.01715659665943749,0.020709106484369515,-0.09645011624322297, ,0.01797104766502027,0.020167379234789177,-0.09741437552569254, ,0.00137353369716997, ,0.025202629831236858,-0.008418256623079273,-0.04871415562996644,-0.09119209146481787,-0.06783488712913967,-0.008949421633406621, ,0.05548971574736132, ,0.11365427895998037, ,0.0011409568037038182, ,0.22164243349024343,-0.20357123856455808,0.10771521755,1.6815036568024009,0.516485969113365,-1.3447011907418103, ,0.14944400245428469,0.18717345475043548,0.049933578432601884,-0.04374873058029008,0.09234179875152589,-0.09955905352368012, ,1.1505169868469238
0.01715659665943749,0.020709106484369515,-0.09645011624322297, ,0.018069010471135093,0.020144081923171745,-0.09760452882053886, ,0.001576204338656121, ,0.025202629831236858,-0.008418256623079273,-0.04871415562996644,-0.09119209146481787,-0.06783488712913967,-0.008949421633406621, ,0.05548971574736132, ,0.11365427895998037, ,0.0011448429424087496, ,0.22164243349024343,-0.20357123856455808,0.10771521755,1.6815036568024009,0.516485969113365,-1.3447011907418103, ,0.14944400245428469,0.18717345475043548,0.049933578432601884,-0.04374873058029008,0.09234179875152589,-0.09955905352368012, ,1.1541588306427002
0.01715659665943749,0.020709106484369515,-0.09645011624322297, ,0.01816720509399268,0.020120800332796965,-0.09779444365938254, ,0.0017817546794692207, ,0.025202629831236858,-0.008418256623079273,-0.04871415562996644,-0.09119209146481787,-0.06783488712913967,-0.008949421633406621, ,0.05548971574736132, ,0.11365427895998037, ,0.0011504793294623821, ,0.22164243349024343,-0.20357123856455808,0.10771521755,1.6815036568024009,0.516485969113365,-1.3447011907418103, ,0.14944400245428469,0.18717345475043548,0.049933578432601884,-0.04374873058029008,0.09234179875152589,-0.09955905352368012, ,1.1577789783477783
0.01740893725587459,0.02062928255341022,-0.0969437654262994, ,0.01826562570622761,0.020097544114474782,-0.09798410297486296, ,0.0014487798602137551, ,0.025623982868192636,-0.0074293452943529825,-0.05091825065128078,-0.017043033201243032,-0.018796837066694966,-0.05909601844841587, ,0.057484362385946404, ,0.025366193951056576, ,0.0011530960007847626, ,0.22314064366784297,-0.2017255054076184,0.10822336323000001,1.6812939668589162,0.5177156976112539,-1.3461940243159212, ,0.15015338854188412,0.18249411838167456,0.05257033504950496,0.0,0.1340316143445585,-0.15980445905621865, ,1.1613678932189941
0.01740893725587459,0.02062928255341022,-0.0969437654262994, ,0.018364266528608675,0.02007432283605152,-0.09817348986206618, ,0.0016531353529446462, ,0.025623982868192636,-0.0074293452943529825,-0.05091825065128078,-0.017043033201243032,-0.018796837066694966,-0.05909601844841587, ,0.057484362385946404, ,0.025366193951056576, ,0.0011574441690644136, ,0.22314064366784297,-0.2017255054076184,0.10822336323000001,1.6812939668589162,0.5177156976112539,-1.3461940243159212, ,0.15015338854188412,0.18249411838167456,0.05257033504950496,0.0,0.1340316143445585,-0.15980445905621865, ,1.1649689674377441
0.01740893725587459,0.02062928255341022,-0.0969437654262994, ,0.018463121829890485,0.020051145982653975,-0.09836258757803, ,0.001859732052952874, ,0.025623982868192636,-0.0074293452943529825,-0.05091825065128078,-0.017043033201243032,-0.018796837066694966,-0.05909601844841587, ,0.057484362385946404, ,0.025366193951056576, ,0.0011634983749600038, ,0.22314064366784297,-0.2017255054076184,0.10822336323000001,1.6812939668589162,0.5177156976112539,-1.3461940243159212, ,0.15015338854188412,0.18249411838167456,0.05257033504950496,0.0,0.1340316143445585,-0.15980445905621865, ,1.1686789989471436
0.017663952043689476,0.02055885475442762,-0.0974506037073315, ,0.01856218592666501,0.020028022956932633,-0.09855137954124898, ,0.0015166785889877284, ,0.02572135524015761,-0.006926469508129488,-0.051618639358156686,0.009763113724498439,0.02699457049061065,-0.049061409921911055, ,0.05808655631404631, ,0.028699455750075955, ,0.0011665170092679332, ,0.22463885384544255,-0.19994155411367256,0.10874836068000002,1.6815036568024009,0.5192186991086737,-1.3477463362171442, ,0.15183510649355325,0.17737746085695474,0.05363236202020203,-0.004987354937882544,0.18376431520871475,-0.18039751387035624, ,1.1724247932434082
0.017663952043689476,0.02055885475442762,-0.0974506037073315, ,0.018661453183212932,0.020004963079305247,-0.09873984933117982, ,0.0017216151688843032, ,0.02572135524015761,-0.006926469508129488,-0.051618639358156686,0.009763113724498439,0.02699457049061065,-0.049061409921911055, ,0.05808655631404631, ,0.028699455750075955, ,0.0011712212309595972, ,0.22463885384544255,-0.19994155411367256,0.10874836068000002,1.6815036568024009,0.5192186991086737,-1.3477463362171442, ,0.15183510649355325,0.17737746085695474,0.05363236202020203,-0.004987354937882544,0.18376431520871475,-0.18039751387035624, ,1.1760509014129639
0.01793841415928185,0.020486326345668972,-0.09800032075106793, ,0.018760918011355338,0.019981975588200848,-0.0989279806877468, ,0.0013384450796926413, ,0.02572135524015761,-0.006926469508129488,-0.051618639358156686,0.009763113724498439,0.02699457049061065,-0.049061409921911055, ,0.05808655631404631, ,0.028699455750075955, ,0.0011726264733859255, ,0.22625290501615547,-0.19811898915535558,0.10932002457000001,1.6804552070849783,0.5211316101053899,-1.3497962593097372, ,0.14897479051565274,0.16532568215761462,0.0539959712542373,-0.12568474050774978,0.165620255327325,-0.18578454820599383, ,1.1798338890075684
0.01793841415928185,0.020486326345668972,-0.09800032075106793, ,0.018860574870305066,0.019959069640303223,-0.09911575751084659, ,0.001540317881274345, ,0.025762182236096977,-0.006388713746187067,-0.05188828800254691,-0.0011655205162078744,-0.011390835264496845,0.06281281607137373, ,0.05828293171016575, ,0.0114338719833278, ,0.0011756905684516621, ,0.22625290501615547,-0.19811898915535558,0.10932002457000001,1.6804552070849783,0.5211316101053899,-1.3497962593097372, ,0.14897479051565274,0.16532568215761462,0.0539959712542373,-0.12568474050774978,0.165620255327325,-0.18578454820599383, ,1.1837449073791504
0.01793841415928185,0.020486326345668972,-0.09800032075106793, ,0.018960418266518272,0.019936254310794422,-0.09930316385985435, ,0.001744841484167376, ,0.025762182236096977,-0.006388713746187067,-0.05188828800254691,-0.0011655205162078744,-0.011390835264496845,0.06281281607137373, ,0.05828293171016575, ,0.0114338719833278, ,0.001180394295027825, ,0.22625290501615547,-0.19811898915535558,0.10932002457000001,1.6804552070849783,0.5211316101053899,-1.3497962593097372, ,0.14897479051565274,0.16532568215761462,0.0539959712542373,-0.12568474050774978,0.165620255327325,-0.18578454820599383, ,1.1873359680175781
0.018206698906572737,0.020421678889094567,-0.09854122459628681, ,0.01906044275354606,0.0199135385935982,-0.09949018395312732, ,0.001373902826653729, ,0.026223132369944238,-0.006178088449080742,-0.053553322368181125,-0.0616103106337309,-0.017374878970989816,0.02098956264133093, ,0.05994814246368782, ,0.06400997039255993, ,0.0011819804305329554, ,0.22767388786501278,-0.19652810618326533,0.10984242944000001,1.67961644731104,0.5224979751030443,-1.351237153307264, ,0.14667224352159317,0.1667784561660295,0.05550108543554008,-0.06946421867025541,0.14211918445601623,-0.10976281170718707, ,1.1909129619598389
0.018206698906572737,0.020421678889094567,-0.09854122459628681, ,0.0191606429318858,0.01989093140162459,-0.09967680216751243, ,0.001575194755945075, ,0.026223132369944238,-0.006178088449080742,-0.053553322368181125,-0.0616103106337309,-0.017374878970989816,0.02098956264133093, ,0.05994814246368782, ,0.06400997039255993, ,0.0011851772949672003, ,0.22767388786501278,-0.19652810618326533,0.10984242944000001,1.67961644731104,0.5224979751030443,-1.351237153307264, ,0.14667224352159317,0.1667784561660295,0.05550108543554008,-0.06946421867025541,0.14211918445601623,-0.10976281170718707, ,1.194464921951294
0.018206698906572737,0.020421678889094567,-0.09854122459628681, ,0.019261013448832746,0.019868441567012077,-0.09986300303784905, ,0.0017789741249227438, ,0.026223132369944238,-0.006178088449080742,-0.053553322368181125,-0.0616103106337309,-0.017374878970989816,0.02098956264133093, ,0.05994814246368782, ,0.06400997039255993, ,0.001189965979079745, ,0.22767388786501278,-0.19652810618326533,0.10984242944000001,1.67961644731104,0.5224979751030443,-1.351237153307264, ,0.14667224352159317,0.1667784561660295,0.05550108543554008,-0.06946421867025541,0.14211918445601623,-0.10976281170718707, ,1.1980907917022705
0.018449021235328492,0.020371009503962423,-0.09903643384122482, ,0.019361548998331483,0.019846077841372493,-0.10004877125647609, ,0.0014605092300147523, ,0.025571797864718002,-0.0052760682186141165,-0.05253905588443365,0.0027884977324192633,0.015417668868356712,-0.016390096430104757, ,0.05866946509990618, ,0.015655028240787183, ,0.0011921303250872254, ,0.22912576164536697,-0.19489860954680396,0.11039983414000001,1.67961644731104,0.5241376131002295,-1.3529008831121832, ,0.1420612897581898,0.15659561313279005,0.05492693627586208,-0.03313049886257316,0.16728628275826804,-0.15967289026548004, ,1.201758861541748
0.018449021235328492,0.020371009503962423,-0.09903643384122482, ,0.01946224432082755,0.019823848896034148,-0.10023409167273643, ,0.0016614421546469111, ,0.025571797864718002,-0.0052760682186141165,-0.05253905588443365,0.0027884977324192633,0.015417668868356712,-0.016390096430104757, ,0.05866946509990618, ,0.015655028240787183, ,0.0011958550221472229, ,0.22912576164536697,-0.19489860954680396,0.11039983414000001,1.67961644731104,0.5241376131002295,-1.3529008831121832, ,0.1420612897581898,0.15659561313279005,0.05492693627586208,-0.03313049886257316,0.16728628275826804,-0.15967289026548004, ,1.2054378986358643
0.018449021235328492,0.020371009503962423,-0.09903643384122482, ,0.01956309420311879,0.019801763322285157,-0.1004189492924823, ,0.0018645505533186517, ,0.025571797864718002,-0.0052760682186141165,-0.05253905588443365,0.0027884977324192633,0.015417668868356712,-0.016390096430104757, ,0.05866946509990618, ,0.015655028240787183, ,0.001201120341290305, ,0.22912576164536697,-0.19489860954680396,0.11039983414000001,1.67961644731104,0.5241376131002295,-1.3529008831121832, ,0.1420612897581898,0.15659561313279005,0.05492693627586208,-0.03313049886257316,0.16728628275826804,-0.15967289026548004, ,1.2091968059539795
0.01871659773348358,0.02031671154091143,-0.09958031855564922, ,0.01966409347820695,0.01977982963161756,-0.10060332927758034, ,0.0014941691028735507, ,0.025749297762179747,-0.004929215697053279,-0.0522419054531391,-0.0032368820691051803,0.007425698819354098,-0.03620170601125932, ,0.058451177815405875, ,0.00807646446095929, ,0.0012034097847401742, ,0.2306085263572181,-0.19329228110896526,0.11096890545000002,1.6791970674240708,0.5257772510974149,-1.3541562192163996, ,0.14163722620667282,0.1520784319847288,0.05473818391752577,-0.009872685070031353,0.1540561644738041,-0.1441926586751257, ,1.2129418849945068
0.01871659773348358,0.02031671154091143,-0.09958031855564922, ,0.019765237025149183,0.01975805625597079,-0.10078721694541717, ,0.0016936185564174482, ,0.025749297762179747,-0.004929215697053279,-0.0522419054531391,-0.0032368820691051803,0.007425698819354098,-0.03620170601125932, ,0.058451177815405875, ,0.00807646446095929, ,0.0012072098527376725, ,0.2306085263572181,-0.19329228110896526,0.11096890545000002,1.6791970674240708,0.5257772510974149,-1.3541562192163996, ,0.14163722620667282,0.1520784319847288,0.05473818391752577,-0.009872685070031353,0.1540561644738041,-0.1441926586751257, ,1.2166738510131836
0.01871659773348358,0.02031671154091143,-0.09958031855564922, ,0.019866519768909543,0.019736451547975327,-0.10097059776840472, ,0.0018952304969001668, ,0.025749297762179747,-0.004929215697053279,-0.0522419054531391,-0.0032368820691051803,0.007678854073112739,0.09538376278299, ,0.058451177815405875, ,0.00807646446095929, ,0.00121250231923123, ,0.2320604001375723,-0.1917631799998688,0.11153019902000001,1.6781486177066482,0.5274168890946002,-1.3557382702811784, ,0.1427021677570989,0.14781455071412894,0.05436454443686007,-0.14962232956154223,0.18240584772284837,-0.17208579582479477, ,1.2205548286437988
0.01898046940527277,0.020264142054519225,-0.10011592257984475, ,0.019967936680210525,0.019715023781196203,-0.10115345737348497, ,0.0015339820550398554, ,0.02562478667375258,-0.005362806972802014,-0.05178849085635318,-0.0024271715441611594,0.007678854073112739,0.09538376278299, ,0.05802962326158458, ,0.008030157362711803, ,0.0012149563630160286, ,0.2320604001375723,-0.1917631799998688,0.11153019902000001,1.6781486177066482,0.5274168890946002,-1.3557382702811784, ,0.1427021677570989,0.14781455071412894,0.05436454443686007,-0.14962232956154223,0.18240584772284837,-0.17208579582479477, ,1.2241418361663818
0.01898046940527277,0.020264142054519225,-0.10011592257984475, ,0.020069482775384475,0.01969378115037659,-0.10133578154163574, ,0.001731853795191221, ,0.02562478667375258,-0.005362806972802014,-0.05178849085635318,-0.0024271715441611594,0.007678854073112739,0.09538376278299, ,0.05802962326158458, ,0.008030157362711803, ,0.0012188722526537195, ,0.2320604001375723,-0.1917631799998688,0.11153019902000001,1.6781486177066482,0.5274168890946002,-1.3557382702811784, ,0.1427021677570989,0.14781455071412894,0.05436454443686007,-0.14962232956154223,0.18240584772284837,-0.17208579582479477, ,1.2276887893676758
0.01923278583925693,0.020215453663215924,-0.10061686975583423, ,0.02017115311622518,0.019672731771681794,-0.10151755620737526, ,0.0014093673339568998, ,0.02619251309895943,-0.004593025562110089,-0.05091888375681641,-0.0009624509865724736,-0.017085694193865915,-0.015602401655958272, ,0.057444550214041545, ,0.017102776612613127, ,0.0012203045464981045, ,0.23347366025355537,-0.1903421971510115,0.11205778905000001,1.6773098579327104,0.5291931635915509,-1.357350060509513, ,0.1444397892822995,0.1424879002379441,0.05363236202020203,-0.033834423731761994,0.136196434194192,-0.14384118439897484, ,1.231278896331787
0.01923278583925693,0.020215453663215924,-0.10061686975583423, ,0.020272942809839403,0.019651883682942267,-0.10169876745826824, ,0.001603134518575703, ,0.02619251309895943,-0.004593025562110089,-0.05091888375681641,-0.0009624509865724736,-0.017085694193865915,-0.015602401655958272, ,0.057444550214041545, ,0.017102776612613127, ,0.0012231614865882358, ,0.23347366025355537,-0.1903421971510115,0.11205778905000001,1.6773098579327104,0.5291931635915509,-1.357350060509513, ,0.1444397892822995,0.1424879002379441,0.05363236202020203,-0.033834423731761994,0.136196434194192,-0.14384118439897484, ,1.2348289489746094
0.01923278583925693,0.020215453663215924,-0.10061686975583423, ,0.02037484700849832,0.019631244843897958,-0.10187940153443069, ,0.0017998861494060822, ,0.02619251309895943,-0.004593025562110089,-0.05091888375681641,-0.0009624509865724736,-0.017085694193865915,-0.015602401655958272, ,0.057444550214041545, ,0.017102776612613127, ,0.0012274335211276272, ,0.23347366025355537,-0.1903421971510115,0.11205778905000001,1.6773098579327104,0.5291931635915509,-1.357350060509513, ,0.1444397892822995,0.1424879002379441,0.05363236202020203,-0.033834423731761994,0.136196434194192,-0.14384118439897484, ,1.2385280132293701
0.019501489666685693,0.020168388867994873,-0.10113043765788447, ,0.02047686090948904,0.019610823136441396,-0.10205944482803503, ,0.0014578350141499729, ,0.026273128246142034,-0.004636255961706595,-0.05025473380904132,-0.020127656763495573,0.0005460754208738004,-0.04482479832601527, ,0.05689736731517801, ,0.02012710170881307, ,0.0012291276497527915, ,0.2349641476982807,-0.1888980461035315,0.11259963827000001,1.6771001679892257,0.5305595285892053,-1.3587092757668988, ,0.14577103157983223,0.1422742752001061,0.053096038400000004,0.008692098824189975,0.14754989724464182,-0.11264217864890669, ,1.2424848079681396
0.019501489666685693,0.020168388867994873,-0.10113043765788447, ,0.020578979754966076,0.0195906263648614,-0.10223888388281559, ,0.0016502870762184262, ,0.026273128246142034,-0.004636255961706595,-0.05025473380904132,-0.020127656763495573,0.0005460754208738004,-0.04482479832601527, ,0.05689736731517801, ,0.02012710170881307, ,0.001232201806150351, ,0.2349641476982807,-0.1888980461035315,0.11259963827000001,1.6771001679892257,0.5305595285892053,-1.3587092757668988, ,0.14577103157983223,0.1422742752001061,0.053096038400000004,0.008692098824189975,0.14754989724464182,-0.11264217864890669, ,1.2460827827453613
0.019501489666685693,0.020168388867994873,-0.10113043765788447, ,0.020681198831803038,0.019570662256086863,-0.10241770539357362, ,0.0018455484388634033, ,0.026273128246142034,-0.004636255961706595,-0.05025473380904132,-0.020127656763495573,0.0005460754208738004,-0.04482479832601527, ,0.05689736731517801, ,0.02012710170881307, ,0.001236646346967112, ,0.2349641476982807,-0.1888980461035315,0.11259963827000001,1.6771001679892257,0.5305595285892053,-1.3587092757668988, ,0.14577103157983223,0.1422742752001061,0.053096038400000004,0.008692098824189975,0.14754989724464182,-0.11264217864890669, ,1.2496240139007568
0.019762920361238483,0.020119455093532274,-0.10162329446999302, ,0.02078351347144392,0.019550938459930563,-0.10259589620568313, ,0.0015201235461461805, ,0.025237406402722498,-0.004969513964528361,-0.047151567478999123,0.052297709490113864,0.0419284078661685,-0.0332389885401463, ,0.05371120057033196, ,0.06702841738519866, ,0.001238685751277753, ,0.23644691241013183,-0.1874770632546742,0.11312204314000002,1.6771001679892257,0.532335803086156,-1.3603210659952336, ,0.145102357123044,0.1375317993601026,0.05009060226415095,-0.01616627002082437,0.19361785283139096,-0.18680151584252205, ,1.253220796585083
0.019762920361238483,0.020119455093532274,-0.10162329446999302, ,0.020885919049754554,0.01953146254933189,-0.1027734433145949, ,0.0017116377102597067, ,0.025237406402722498,-0.004969513964528361,-0.047151567478999123,0.052297709490113864,0.0419284078661685,-0.0332389885401463, ,0.05371120057033196, ,0.06702841738519866, ,0.0012420639795561953, ,0.23644691241013183,-0.1874770632546742,0.11312204314000002,1.6771001679892257,0.532335803086156,-1.3603210659952336, ,0.145102357123044,0.1375317993601026,0.05009060226415095,-0.01616627002082437,0.19361785283139096,-0.18680151584252205, ,1.2569458484649658
0.01995548430376646,0.02008048132386762,-0.1019798105499496, ,0.02098841098687447,0.019512242020601728,-0.1029503338653436, ,0.0015270065304955204, ,0.025712346620021965,-0.005221916747017731,-0.04745756755355398,0.022573627087440498,0.013788627479027345,0.03792731946683673, ,0.05422742757425506, ,0.026447195677689113, ,0.0012440848487117935, ,0.23755126321114592,-0.18644993978240235,0.11350055982000001,1.676471098158772,0.5337021680838104,-1.3615169237723383, ,0.14712704117592368,0.1363461804001017,0.05040763139240506,-0.08920662102141241,0.18069765230063983,-0.1730481478075167, ,1.260739803314209
0.01995548430376646,0.02008048132386762,-0.1019798105499496, ,0.021090984747068085,0.01949328429366535,-0.103126555152051, ,0.0017173190709548584, ,0.025712346620021965,-0.005221916747017731,-0.04745756755355398,0.022573627087440498,0.013788627479027345,0.03792731946683673, ,0.05422742757425506, ,0.026447195677689113, ,0.0012474174840797023, ,0.23755126321114592,-0.18644993978240235,0.11350055982000001,1.676471098158772,0.5337021680838104,-1.3615169237723383, ,0.14712704117592368,0.1363461804001017,0.05040763139240506,-0.08920662102141241,0.18069765230063983,-0.1730481478075167, ,1.2643349170684814
0.01995548430376646,0.02008048132386762,-0.1019798105499496, ,0.021193635838576218,0.019474596712305826,-0.10330209461743275, ,0.001910117938976265, ,0.025712346620021965,-0.005221916747017731,-0.04745756755355398,0.022573627087440498,0.013788627479027345,0.03792731946683673, ,0.05422742757425506, ,0.026447195677689113, ,0.001252051752995063, ,0.23755126321114592,-0.18644993978240235,0.11350055982000001,1.676471098158772,0.5337021680838104,-1.3615169237723383, ,0.14712704117592368,0.1363461804001017,0.05040763139240506,-0.08920662102141241,0.18069765230063983,-0.1730481478075167, ,1.26790189743042
0.01995548430376646,0.02008048132386762,-0.1019798105499496, ,0.02129635981346787,0.019456186544408147,-0.1034769398523028, ,0.002104539677017743, ,0.025712346620021965,-0.005221916747017731,-0.04745756755355398,0.022573627087440498,0.013788627479027345,0.03792731946683673, ,0.05422742757425506, ,0.026447195677689113, ,0.0012579718080229982, ,0.23942016456670825,-0.1847663840158214,0.11414740853000001,1.6754226484413495,0.535751715580292,-1.363351549808066, ,0.15110977955170507,0.133469678703897,0.05239740631578948,-0.049856995804352745,0.153256684614658,-0.148909179805831, ,1.2714619636535645
0.020286728664711037,0.020019675729181015,-0.10258812956716283, ,0.021399152267491395,0.019438060982202934,-0.10365107859507905, ,0.0016448776920711288, ,0.027006364800849097,-0.004551557173147837,-0.04919406297630164,0.00963861522318643,-0.00962447068965299,0.0021799893461280297, ,0.05630378534852969, ,0.013610482213076695, ,0.0012606401244647095, ,0.23942016456670825,-0.1847663840158214,0.11414740853000001,1.6754226484413495,0.535751715580292,-1.363351549808066, ,0.15110977955170507,0.133469678703897,0.05239740631578948,-0.049856995804352745,0.153256684614658,-0.148909179805831, ,1.2751328945159912
0.020286728664711037,0.020019675729181015,-0.10258812956716283, ,0.021502008839926232,0.019420227142509298,-0.10382449873128839, ,0.001834353625213616, ,0.027006364800849097,-0.004551557173147837,-0.04919406297630164,0.00963861522318643,-0.00962447068965299,0.0021799893461280297, ,0.05630378534852969, ,0.013610482213076695, ,0.0012645696689903869, ,0.23942016456670825,-0.1847663840158214,0.11414740853000001,1.6754226484413495,0.535751715580292,-1.363351549808066, ,0.15110977955170507,0.133469678703897,0.05239740631578948,-0.049856995804352745,0.153256684614658,-0.148909179805831, ,1.278939962387085
0.020569899364309488,0.019975115041390417,-0.10309776463974696, ,0.021604925213434236,0.019402692066979373,-0.10399718829307213, ,0.0014859035897899922, ,0.027778011155320134,-0.004098400369973813,-0.04977586191834193,0.028117129664752535,0.003745626472479738,-0.052478903997698056, ,0.0571493763662521, ,0.02836013293435744, ,0.0012660753419209965, ,0.2410110475387985,-0.18339946029708365,0.11469185033000001,1.675212958497865,0.5373913535774772,-1.364688564652423, ,0.15556875665323078,0.13180130772009832,0.05327361712374583,0.007967854851723124,0.16060591219338563,-0.15197183250818525, ,1.2825307846069336
0.020569899364309488,0.019975115041390417,-0.10309776463974696, ,0.021707897113911374,0.019385462722341294,-0.10416913545869083, ,0.0016704981793295767, ,0.027778011155320134,-0.004098400369973813,-0.04977586191834193,0.028117129664752535,0.003745626472479738,-0.052478903997698056, ,0.0571493763662521, ,0.02836013293435744, ,0.0012688079286602436, ,0.2410110475387985,-0.18339946029708365,0.11469185033000001,1.675212958497865,0.5373913535774772,-1.364688564652423, ,0.15556875665323078,0.13180130772009832,0.05327361712374583,0.007967854851723124,0.16060591219338563,-0.15197183250818525, ,1.2861309051513672
0.020569899364309488,0.019975115041390417,-0.10309776463974696, ,0.021810920310339127,0.019368546000643132,-0.10434032855203024, ,0.0018579623424025875, ,0.027778011155320134,-0.004098400369973813,-0.04977586191834193,0.028117129664752535,0.003745626472479738,-0.052478903997698056, ,0.0571493763662521, ,0.02836013293435744, ,0.0012727619851283132, ,0.2410110475387985,-0.18339946029708365,0.11469185033000001,1.675212958497865,0.5373913535774772,-1.364688564652423, ,0.15556875665323078,0.13180130772009832,0.05327361712374583,0.007967854851723124,0.16060591219338563,-0.15197183250818525, ,1.2897539138793945
0.02084054447544812,0.019937933875892398,-0.10358241868782601, ,0.021913990614636,0.019351948719496557,-0.1045107560421062, ,0.0015354072621313096, ,0.02806521654658648,-0.0038290548843655427,-0.04993908326630424,0.03521943432969363,0.011599697567174045,-0.04368956575938731, ,0.0574128041345582, ,0.03707628537446168, ,0.0012745129536416665, ,0.2425247031821465,-0.18214065483858505,0.11521166262000002,1.6754226484413495,0.5390309915746625,-1.36602557949678, ,0.1571141416530973,0.12823911021414972,0.05363236202020203,0.0,0.17171903679182332,-0.15699992103393437, ,1.2933228015899658
0.02084054447544812,0.019937933875892398,-0.10358241868782601, ,0.022017103881509018,0.019335677622320177,-0.10468040654256931, ,0.0017183078769885827, ,0.02806521654658648,-0.0038290548843655427,-0.04993908326630424,0.03521943432969363,0.011599697567174045,-0.04368956575938731, ,0.0574128041345582, ,0.03707628537446168, ,0.0012774519928691296, ,0.2425247031821465,-0.18214065483858505,0.11521166262000002,1.6754226484413495,0.5390309915746625,-1.36602557949678, ,0.1571141416530973,0.12823911021414972,0.05363236202020203,0.0,0.17171903679182332,-0.15699992103393437, ,1.296895980834961
0.021138878872009645,0.019892299635804328,-0.10409962350520681, ,0.022120256008305226,0.019319739378583237,-0.1048492688112113, ,0.0013612106437312953, ,0.02806521654658648,-0.0038290548843655427,-0.04993908326630424,0.03521943432969363,0.011599697567174045,-0.04368956575938731, ,0.0574128041345582, ,0.03707628537446168, ,0.0012780030366248017, ,0.2425247031821465,-0.18214065483858505,0.11521166262000002,1.6754226484413495,0.5390309915746625,-1.36602557949678, ,0.1571141416530973,0.12823911021414972,0.05363236202020203,0.0,0.17171903679182332,-0.15699992103393437, ,1.3005948066711426
0.021138878872009645,0.019892299635804328,-0.10409962350520681, ,0.022223442934863273,0.019304140584049365,-0.10501733174946924, ,0.0015376601374107685, ,0.02858193235818289,-0.004278737558586469,-0.0489648937098307,0.017944343950738035,-0.0064676105343696635,0.0027757445870539438, ,0.05685767554550589, ,0.019066934757653968, ,0.0012797001418586968, ,0.24421598168160166,-0.18078917658559576,0.11576777103000001,1.674793578610896,0.5408072660716132,-1.3674740122448332, ,0.16221699411704404,0.12754965263235318,0.05274440900662252,-0.04782649250011076,0.1672069457256618,-0.1504403227200533, ,1.30454683303833
0.021138878872009645,0.019892299635804328,-0.10409962350520681, ,0.02232666064336486,0.019288887761020595,-0.10518458440193194, ,0.0017181593565255696, ,0.02858193235818289,-0.004278737558586469,-0.0489648937098307,0.017944343950738035,-0.0064676105343696635,0.0027757445870539438, ,0.05685767554550589, ,0.019066934757653968, ,0.001282547279616274, ,0.24421598168160166,-0.18078917658559576,0.11576777103000001,1.674793578610896,0.5408072660716132,-1.3674740122448332, ,0.16221699411704404,0.12754965263235318,0.05274440900662252,-0.04782649250011076,0.1672069457256618,-0.1504403227200533, ,1.308304786682129
0.02140783251737566,0.01984744460967169,-0.10455550224982085, ,0.022429905158186193,0.019273987358579887,-0.10535101595584369, ,0.0014164489960437573, ,0.02861822783103196,-0.004963313780247786,-0.048257431284813315,0.006613743515378611,-0.004413306658265462,0.05898211798013332, ,0.056324214349412184, ,0.007934555345635207, ,0.0012834111616577416, ,0.24575280552357234,-0.17957670752434252,0.11625906494000002,1.6739548188369582,0.5424469040687986,-1.3688927058293312, ,0.16389799923742793,0.12911148511356568,0.052054939607843145,-0.10572229771026159,0.1813978210939819,-0.15400538587087761, ,1.312060832977295
0.02140783251737566,0.01984744460967169,-0.10455550224982085, ,0.02253317254574959,0.019259445752835766,-0.10551661574061087, ,0.0015924421425218443, ,0.02861822783103196,-0.004963313780247786,-0.048257431284813315,0.006613743515378611,-0.004413306658265462,0.05898211798013332, ,0.056324214349412184, ,0.007934555345635207, ,0.0012853921294837935, ,0.24575280552357234,-0.17957670752434252,0.11625906494000002,1.6739548188369582,0.5424469040687986,-1.3688927058293312, ,0.16389799923742793,0.12911148511356568,0.052054939607843145,-0.10572229771026159,0.1813978210939819,-0.15400538587087761, ,1.3158559799194336
0.02140783251737566,0.01984744460967169,-0.10455550224982085, ,0.02263645891437495,0.019245269247165454,-0.10568137322730653, ,0.0017719264794447658, ,0.02861822783103196,-0.004963313780247786,-0.048257431284813315,0.006613743515378611,-0.004413306658265462,0.05898211798013332, ,0.056324214349412184, ,0.007934555345635207, ,0.0012884910743880037, ,0.24575280552357234,-0.17957670752434252,0.11625906494000002,1.6739548188369582,0.5424469040687986,-1.3688927058293312, ,0.16389799923742793,0.12911148511356568,0.052054939607843145,-0.10572229771026159,0.1813978210939819,-0.15400538587087761, ,1.3194458484649658
0.02169877121056152,0.019800828365512863,-0.10503431224305078, ,0.022739760414131203,0.01923146407245867,-0.10584527802817556, ,0.0014371846522965625, ,0.027831680923253492,-0.004737562859826991,-0.044877537990821746,-0.006855962931514462,-0.028405519576641912,0.0076609011954509405, ,0.053019245382995156, ,0.02921807213416628, ,0.0012894321729823616, ,0.24742863855727906,-0.17828701113434703,0.11677758094000001,1.6737451288934733,0.5442231785657493,-1.3703411385773845, ,0.15975916087284645,0.12244766652705909,0.04856344975609757,-0.048365495994618486,0.1422868233912239,-0.12109769489721188, ,1.3230299949645996
0.02169877121056152,0.019800828365512863,-0.10503431224305078, ,0.022843073236687862,0.019218036387361317,-0.10600831989614051, ,0.0016117582092460428, ,0.027831680923253492,-0.004737562859826991,-0.044877537990821746,-0.006855962931514462,-0.028405519576641912,0.0076609011954509405, ,0.053019245382995156, ,0.02921807213416628, ,0.001291459380757605, ,0.24742863855727906,-0.17828701113434703,0.11677758094000001,1.6737451288934733,0.5442231785657493,-1.3703411385773845, ,0.15975916087284645,0.12244766652705909,0.04856344975609757,-0.048365495994618486,0.1422868233912239,-0.12109769489721188, ,1.3265888690948486
0.02169877121056152,0.019800828365512863,-0.10503431224305078, ,0.022946393615166587,0.01920499227851866,-0.10617048872430604, ,0.0017895472342452077, ,0.027831680923253492,-0.004737562859826991,-0.044877537990821746,-0.006855962931514462,-0.028405519576641912,0.0076609011954509405, ,0.053019245382995156, ,0.02921807213416628, ,0.0012945724298419024, ,0.24742863855727906,-0.17828701113434703,0.11677758094000001,1.6737451288934733,0.5442231785657493,-1.3703411385773845, ,0.15975916087284645,0.12244766652705909,0.04856344975609757,-0.048365495994618486,0.1422868233912239,-0.12109769489721188, ,1.3301479816436768
0.02198727183522903,0.019752540183298622,-0.10548297741814386, ,0.023049717823992576,0.01919233776081962,-0.10633177454546522, ,0.0014707395406869579, ,0.028284040052446165,-0.00482344814382827,-0.043559745800469424,-0.003887683317123093,-0.033003716226393996,-0.009951039609965974, ,0.05216036836417178, ,0.033229543138817645, ,0.0012956666354993253, ,0.24910447159098578,-0.17703592840872265,0.11726498598000001,1.6737451288934733,0.5455895435634037,-1.3714553176143487, ,0.1650381592321231,0.12104201729396784,0.04740717714285715,-0.029517050475840693,0.13956080024550732,-0.11816894267362557, ,1.3336927890777588
0.02198727183522903,0.019752540183298622,-0.10548297741814386, ,0.023153042178746183,0.019180078777639744,-0.10649216753160357, ,0.001644748381941096, ,0.028284040052446165,-0.00482344814382827,-0.043559745800469424,-0.003887683317123093,-0.033003716226393996,-0.009951039609965974, ,0.05216036836417178, ,0.033229543138817645, ,0.0012978214610946447, ,0.24910447159098578,-0.17703592840872265,0.11726498598000001,1.6737451288934733,0.5455895435634037,-1.3714553176143487, ,0.1650381592321231,0.12104201729396784,0.04740717714285715,-0.029517050475840693,0.13956080024550732,-0.11816894267362557, ,1.337324857711792
0.022247018006764967,0.01970991591094952,-0.10588363304521642, ,0.023256363036014353,0.01916822120108532,-0.10665165799340513, ,0.00182149263953455, ,0.028539203943875453,-0.004541105270666496,-0.04445115816086709,0.03157875294505587,0.004374667206396628,-0.039872677420997954, ,0.053018989623264345, ,0.03187760662931712, ,0.0013010341677108404, ,0.2506181272343338,-0.17593930034058278,0.11770183571000001,1.673535438949989,0.5469559085610581,-1.372569496651313, ,0.1661942934474094,0.12058061189132248,0.04856344975609757,0.0,0.1734509589854582,-0.1453552525917547, ,1.3413128852844238
