NicholasDascanio/dvrk_moveit_final/test/execution/third_experiment_notsharpbends/thirdexp_300vel5.0/thirdexp_300vel5.0_6.csv
Current Position (x),Current Position (y),Current Position (z), ,Planned Position (x),Planned Position (y),Planned Position (z), ,Position Error,,Cartesian linear Velocity(x),Cartesian linear Velocity(y),Cartesian linear Velocity(z),Cartesian Angular Velocity(x),Cartesian Angular Velocity(y),Cartesian Angular Velocity(z), ,Total Linear Velocity, ,Total Angular Velocity, ,MSE, ,Joint 1 Position,Joint 2 Position,Joint 3 Position,Joint 4 Position,Joint 5 Position,Joint 6 Position, ,Joint 1 Velocity,Joint 2 Velocity,Joint 3 Velocity,Joint 4 Velocity,Joint 5 Velocity,Joint 6 Velocity, ,Time Stamp
0.009630593503576113,0.019727751677237813,-0.07808832210446323, ,0.00974777360705208,0.019716109219225276,-0.078306760086891, ,0.0002481569576826833, ,-0.0019181572836690654,9.327058597960907e-05,0.0003101522344756003,-0.44643836044071133,0.22089428623631374,0.20704259617734205, ,0.0019453074758638735, ,0.4980978772940525, ,2.067974647355694e-05, ,0.17453376295747391,-0.23998392406652663,0.08848994056000001,1.6894718746548125,0.4679800116966335,-1.3004104680014277, ,0.0004703883149343538,-0.0002952179920590952,0.0,-0.0010430387340628902,0.22161949697963731,0.5392758095261239, ,0.036218881607055664
0.009605721644891516,0.019771154732301482,-0.07824016412744053, ,0.009827156933456906,0.019800571124596583,-0.07859987762567325, ,0.0004234297013301205, ,0.001007352579745265,0.002167102222815968,-0.008386104946631098,0.15118580780866217,0.06953321718421374,-0.02761767348988995, ,0.008719968316454134, ,0.16640918464215948, ,3.052666631876381e-05, ,0.17457237662184505,-0.23999936953227508,0.08866882858000001,1.6894718746548125,0.47467520018514014,-1.2942715641825928, ,0.0015534818496686217,-0.00044594203186929535,0.00900441578292821,-0.0010430387340628902,0.07295288831649216,-0.1528640690462264, ,0.0724329948425293
0.00969836855566034,0.019834033512155402,-0.07850516756701928, ,0.009906683604850437,0.01988305187545024,-0.0788904391823824, ,0.0004407177977614252, ,0.004325598163901003,0.00241647488429419,-0.010183565553605155,0.12866595299993958,-0.26447849834078296,-0.1172021672782071, ,0.011324979369806455, ,0.2941152893619383, ,3.475951427419466e-05, ,0.17467277214920995,-0.24000709226514932,0.08893327174000001,1.6892621847113283,0.4700295591931152,-1.3047771349815127, ,0.0038319460626249483,-0.000529487207820334,0.009912141580584942,0.0013293789223056433,-0.27141760574163154,-0.15575215316049232, ,0.10841703414916992
0.00977685282623621,0.01991216840834181,-0.07881345282008748, ,0.009986352440084067,0.019963573244142135,-0.07917846788255914, ,0.0004239912041272219, ,0.0014126309251948105,0.0019769040262293913,-0.007631889955217456,0.0020946388092227333,0.04229268374102775,0.011851767708557859, ,0.00800933330235968, ,0.042344522477742015, ,3.657846811670121e-05, ,0.17485811773819135,-0.24000709226514932,0.08925475166,1.6896815645982974,0.4689364671949916,-1.3029056468702547, ,0.004628966430169919,-0.000354699770909862,0.00695277674378001,0.0015161034302294415,0.04926384996089288,0.07615107131001243, ,0.14525794982910156
0.009848042876121132,0.019994411112959062,-0.0791349339406046, ,0.0100661622621532,0.020042156896633297,-0.0794639867331373, ,0.0003976574740844727, ,0.002070421132616251,0.0022680825796160733,-0.008876242433623144,0.013306348994465454,0.007953543794577305,-0.0009778300710663135, ,0.009392471559434927, ,0.015502184599452734, ,3.719140644203699e-05, ,0.17510524519016654,-0.24002253773089777,0.08959567593000001,1.6896815645982974,0.4696196496938188,-1.3026459489873312, ,0.007782266701366643,-0.00031437247926391864,0.00941419120567376,0.0014425809318454772,0.015898892322570024,-0.01212092157186589, ,0.18155288696289062
0.009914280300205877,0.020060885174519955,-0.07938831084193365, ,0.010146111898194685,0.02011882439270273,-0.0797470186227013, ,0.00043101521413161736, ,0.002177762246633739,0.002222870280789809,-0.008498093030035965,0.007901833548710045,-0.0006869546674330982,-0.0002734922484752039, ,0.009049938443725881, ,0.007931635129394609, ,3.8769972936353134e-05, ,0.17536781810789018,-0.24004570592952043,0.08986400796,1.6898912545417817,0.4696196496938188,-1.3026459489873312, ,0.009141516600632256,-0.000938204180470279,0.009024822390934847,0.0006585440493041059,0.008572243462797075,-0.006523657501190119, ,0.2162458896636963
0.009997769695737485,0.020140399564124403,-0.07969891510315318, ,0.010226200179483728,0.02019359718615934,-0.08002758632174292, ,0.0004037762286514437, ,0.002118742547067535,0.0018360224835155918,-0.007527047920427219,-0.0008954375313003536,-0.009441355426735028,-0.0006645312701130403, ,0.008032216315384984, ,0.009483721658975836, ,3.955349396812835e-05, ,0.17573078655297872,-0.24006115139526887,0.09019326562,1.6898912545417817,0.4697562861935842,-1.3027573668910275, ,0.009596492811926136,0.0007275508707663453,0.007956449310689312,0.0006585440493041059,0.0,0.0003052714244756061, ,0.25083398818969727
0.010064319606022536,0.020201322787300423,-0.07993642847335358, ,0.01030642594143097,0.020266496625054663,-0.08030571248291862, ,0.0004463561207073901, ,0.00236714219033591,0.0020320896570481736,-0.008105134750007648,0.001416657559361321,-0.008727585213764384,-0.00613352017346718, ,0.008684812020955432, ,0.008841811314742754, ,4.069747719590348e-05, ,0.17605514133369615,-0.24006115139526887,0.09044604217,1.6901009444852664,0.4700295591931152,-1.3029802026984205, ,0.011400781913453147,0.0004628317536751547,0.008596228559093363,0.006413666424589123,0.0011871415028937371,-0.000725248898607147, ,0.2830049991607666
0.010140378314853283,0.020270271366016897,-0.0802067315623078, ,0.010386788023578907,0.020337543951894868,-0.08058141964130569, ,0.00045346940570239677, ,0.002716561252435062,0.0024956176988448027,-0.009694837915189243,0.0015219901894721606,-0.010648896536799471,-0.001987574696457867, ,0.010372930875061777, ,0.010757107694132352, ,4.168829663839513e-05, ,0.1765107825732754,-0.2400688741281431,0.09083104030000001,1.6903106344287508,0.4700295591931152,-1.3029802026984205, ,0.012105019084739951,-0.0005153915426272111,0.010283286972240156,0.0022402948378953784,0.0009548329384734595,-0.0005875396112605372, ,0.3153378963470459
0.010242971505784222,0.020363987068101132,-0.08056993410367243, ,0.010467285269598513,0.02040676030385292,-0.08085473021465912, ,0.00036504114722364975, ,0.0024194727948932816,0.0020375809846809125,-0.007833805066460725,0.006086672605734226,-0.005729803579206456,-0.001498790644012906, ,0.008448318571980326, ,0.008359318331230367, ,4.1583621148478564e-05, ,0.17688147375123817,-0.24008431959389157,0.09111881668,1.6903106344287508,0.470302832192646,-1.3032847172459538, ,0.013060410343857801,-0.000501695499166468,0.008365972436974792,0.0019736108148094454,0.007091485813778937,-0.0049495900817519214, ,0.3482208251953125
0.01031445508944332,0.020423085104157964,-0.08079698621857286, ,0.01054791652728546,0.020474166712981013,-0.08112566650366818, ,0.0004063795067785916, ,0.0024042183679617965,0.0019703268037257584,-0.007927665484499911,0.0024537997505344133,-0.008295054894943399,0.00022819896861308347, ,0.008515299977596577, ,0.008650377888434117, ,4.2285626268390594e-05, ,0.1772676103949494,-0.2400920423267658,0.09136122291000001,1.6905203243722353,0.47043946869241143,-1.3033961351496504, ,0.012319478327725663,0.00041083310963510356,0.008427942603174603,-5.365859764500085e-05,0.00417423293716204,-0.002675574655175429, ,0.377133846282959
0.010399036137761896,0.020497880365851703,-0.08109238596278756, ,0.010628680648556165,0.02053978410642215,-0.0813942506922121, ,0.0003815951253387305, ,0.0029782536634406047,0.0026732823754550793,-0.010512364603955061,0.002520696108056153,-0.009591247116026007,-0.004818418885035862, ,0.011248388467207352, ,0.009916945181277136, ,4.266890162406852e-05, ,0.17766146977153485,-0.24008431959389157,0.09167492509000001,1.69073001431572,0.4705761051921769,-1.3035075530533466, ,0.013373300670584946,0.0,0.011154629915966389,0.005264153211629222,0.002617345006901129,-0.001487494835393713, ,0.4063730239868164
0.010487123724158194,0.02057277797127752,-0.08138862978162091, ,0.010709576489443819,0.020603633306622703,-0.08166050484761636, ,0.00035263768376694383, ,0.002865497548679246,0.0024159323279341754,-0.009459857818320419,0.006318421984940781,-0.006575118823890994,-0.004808402482015963, ,0.010175299266236948, ,0.00911891266385529, ,4.276217824203873e-05, ,0.1780939428124914,-0.24008431959389157,0.09198992356,1.69073001431572,0.4707127416919423,-1.3036189709570432, ,0.014619772232086088,2.455613092809042e-05,0.010081526278481015,0.005264153211629222,0.007021345293017977,-0.005143402857922032, ,0.4351928234100342
0.010543267687749696,0.020620544835593394,-0.08157686340770152, ,0.01079060291009428,0.02066573503154394,-0.08192445092090937, ,0.00042899177773042307, ,0.0027659039028563918,0.0023198539841544656,-0.009172760665076416,0.007990138072550668,-0.00398290151136083,-0.004765373210398959, ,0.009857559795730721, ,0.008927807453648098, ,4.343577786834968e-05, ,0.17838740666171196,-0.24008431959389157,0.09219084851,1.69073001431572,0.4709860146914732,-1.303841806764436, ,0.01419975184175831,0.00031083361313032857,0.009778275948434624,0.005173031551572181,0.00928747632046401,-0.007027476548250325, ,0.4638099670410156
0.010627016103720008,0.02068969475572861,-0.08184546500625074, ,0.010871758774761599,0.020726109894874247,-0.08218611074707721, ,0.00042102797784800876, ,0.002653883450444821,0.002122282115352075,-0.008299316085407895,0.007943431485911187,-0.004638844225839102,-0.0056483468195740886, ,0.008968044727319241, ,0.009198746661843971, ,4.3972578999015465e-05, ,0.17881987970266852,-0.24007659686101734,0.0924773286,1.6911493942026892,0.47112265119123864,-1.303871545927992, ,0.014595038689398767,0.0001431617166896704,0.008873989704735376,0.006111496045438677,0.008790127491153646,-0.006669424355219841, ,0.4925839900970459
0.010707321623047888,0.020753680984242247,-0.08209588702330942, ,0.010953042951803646,0.020784778406240666,-0.08244550604531986, ,0.00042846176213517896, ,0.0029272610471968784,0.0022433834823899677,-0.009057211003599148,0.009136115352699176,-0.0062172047036006635,0.007798220110509825, ,0.009779299456055827, ,0.011050890331302712, ,4.481045197916874e-05, ,0.17927552094224777,-0.2400688741281431,0.09274566063,1.6913590841461734,0.471532560690535,-1.3041241208989405, ,0.016587474490206394,0.0003170425020813096,0.009683168097264439,-0.008113984489581286,0.012713002688044355,-0.010366601249449875, ,0.5174539089202881
0.010771997527271917,0.02080695090730457,-0.08231171276940473, ,0.01103445431367761,0.020841760971421187,-0.08270265841930714, ,0.00047215866662789023, ,0.0031905556344817587,0.0028764232729434863,-0.011326827038139845,0.010305791489296381,-0.004000900379009005,0.007912704986091737, ,0.01211406070868848, ,0.01105515063771825, ,4.586002484521979e-05, ,0.179592152990091,-0.24005342866239465,0.09297510396000001,1.6913590841461734,0.4716691971903004,-1.304235538802637, ,0.014781455071412894,-0.0005085905354685461,0.012058146495079488,-0.008074490451801548,0.013126877559617271,-0.010704088455741318, ,0.542949914932251
0.010870519736326693,0.02089265309087544,-0.0826481619175415, ,0.011115991736935239,0.020897077892556213,-0.08295758935743389, ,0.00039499547150699505, ,0.003139376670640217,0.002528084201137349,-0.010231170741849274,0.003892697456184458,-0.011169168753392167,0.006483996574425803, ,0.010996533560948785, ,0.011828073047698997, ,4.632822293123534e-05, ,0.1800477942296702,-0.24006115139526887,0.09333288000000001,1.6913590841461734,0.4718058336900659,-1.3043469567063335, ,0.01575052971924826,0.00039975817447079583,0.010887772740943269,-0.006804401974092876,0.006407214719915908,-0.005224653982291531, ,0.5693788528442383
0.010930796491825844,0.02094004661452259,-0.08283937135603667, ,0.011197654102218145,0.02095074936836062,-0.08321032023307522, ,0.00045708927195917354, ,0.0030647246587942193,0.0022603843225896857,-0.009253961217358435,0.0069295701894731025,-0.008778773868844368,0.005836527769369219, ,0.010006881269027058, ,0.011184173898295197, ,4.713302118239005e-05, ,0.1803875944761361,-0.24004570592952043,0.09353769382,1.6913590841461734,0.47221574318936216,-1.3046812104174226, ,0.017260265834570892,0.0007834854238356135,0.0098875304283054,-0.006166123073741152,0.010280340784405678,-0.008382928583867423, ,0.5941379070281982
0.01102493470540764,0.021010460468445572,-0.08312985868181637, ,0.01127944029425281,0.02100279549433519,-0.0834608723048429, ,0.00041761449353523906, ,0.003123369697473649,0.0023450790809531902,-0.00960676236463113,0.009954555675319702,-0.0034412839390736798,-0.007978763508629078, ,0.01037037691183469, ,0.010532593793435307, ,4.764280807342789e-05, ,0.18089729484583492,-0.24000709226514932,0.09384750713000001,1.6913590841461734,0.4724890161888931,-1.3046590100043938, ,0.017163490967348663,0.0015201535553031357,0.010263409484536084,0.008292317155713996,0.012145186660094981,-0.00952067515951799, ,0.6202659606933594
0.011085533231760054,0.02105682427124598,-0.08331316736409108, ,0.011361349201845889,0.021053236262978496,-0.08370926671683913, ,0.00048268211113023637, ,0.0029400506287519754,0.0020742265603969617,-0.008490957235894511,0.027469294323805616,0.014366230807810795,-0.005247110119468583, ,0.009221858180717727, ,0.030999204411341554, ,4.847622960759684e-05, ,0.18125254055804924,-0.23999164679940085,0.09404454321000001,1.691568774089658,0.47289892568818936,-1.3049115849753425, ,0.019390466195028766,0.0015433698098284863,0.009180871193083574,0.005693680018359951,0.03349129297072102,-0.026683218409545482, ,0.6454758644104004
0.011154432976364204,0.02110225893691518,-0.08350526668890676, ,0.011443379717878828,0.02110209156399883,-0.083955524498913, ,0.0005349975167393076, ,0.0031471396280092654,0.002230542423634685,-0.009647859999647105,0.007157364521075897,0.0012281271657883228,-0.0033487009098281963, ,0.010390428764714719, ,0.0072619611423347845, ,4.97959060351305e-05, ,0.18163867720176047,-0.23995303313502975,0.09424546816000001,1.691568774089658,0.47289892568818936,-1.3045848700147802, ,0.017867998787134395,0.0028876358405191265,0.010237025398457585,0.005351704678901961,0.01851803868012327,-0.00809789686212704, ,0.6678318977355957
0.011256889426627666,0.021181765539820353,-0.08383590712917466, ,0.011525530739303076,0.021149381184525605,-0.08419966656691504, ,0.00045336280161590117, ,0.003406465183643708,0.002855746460237664,-0.01213474350934685,0.023391606249887537,0.02375217415429276,-0.001251870432506089, ,0.012923284912520198, ,0.033336657854172315, ,5.0605263969188705e-05, ,0.1822101594344531,-0.23989897400491017,0.0946032442,1.691568774089658,0.47371874468678205,-1.3051716986968183, ,0.017560499918295853,0.002871998415053779,0.012971344885993488,0.004474310267409136,0.041637226017697954,-0.02335651862087859, ,0.6901648044586182
0.01133290628268197,0.021238165185075663,-0.08407756718524703, ,0.011607801167134604,0.02119512480932106,-0.08444171372295246, ,0.0004582819790982158, ,0.003948079060479783,0.002794170934721995,-0.012294426058427803,-0.013169352137867277,-0.01853291643292321,-0.0013142595782068556, ,0.01321164757274401, ,0.022735446913302995, ,5.139029135641248e-05, ,0.18258857334529008,-0.2398449148747906,0.09485990962000002,1.691568774089658,0.47385538118654746,-1.305201437860374, ,0.019331216451104253,0.0037289833049678187,0.01309935157894737,0.00404323319921496,0.0,0.010745184665842006, ,0.7115259170532227
0.01140958788549724,0.021291018900753505,-0.08431220624545278, ,0.011690189906448935,0.021239342020992,-0.08468168665564421, ,0.00046682305810583747, ,0.003861550065009725,0.0024810705807577415,-0.011218291574729991,-0.0036096943164740836,-0.010954761540238193,-0.0015023906264815814, ,0.01212094657965854, ,0.011534145646032183, ,5.217098746462609e-05, ,0.18301332365337242,-0.23976768754604835,0.09511009359000001,1.691568774089658,0.4742652906858438,-1.3055356915714633, ,0.021592023107729414,0.0043417993212321385,0.01194063832083958,0.0036855676537753262,0.010126814040764088,0.0007938736103705766, ,0.7327790260314941
0.011481085017810998,0.021338430608211566,-0.08452681048103462, ,0.01177269586637554,0.021282052300201377,-0.08491960594037573, ,0.0004924466199433363, ,0.0033429477509034173,0.002103307761975847,-0.010144855150798854,0.01363821076209954,0.01200323928265981,0.0021820300124391766, ,0.010886564620556299, ,0.01816806094806449, ,5.3029459690250875e-05, ,0.18343035122858056,-0.23967501475155767,0.09533953692000001,1.6917784640331426,0.47481183668490556,-1.3057363269658273, ,0.01997830348599385,0.005489903865358693,0.010835926204081634,0.0,0.03308852366936755,-0.017334145646482658, ,0.7558298110961914
0.011588197230789923,0.02140070420226453,-0.0848348931576363, ,0.011855317960092612,0.021323275025879756,-0.08515549203955411, ,0.0004244200801868043, ,0.002952080919387124,0.0019231202586775648,-0.009830691394689037,0.09136316955314341,0.07717272581893607,-0.0037871931286820168, ,0.010442972114372357, ,0.11959455785822656, ,5.377372502546373e-05, ,0.18409450625576387,-0.23948966916257627,0.09566879458000001,1.6917784640331426,0.47576829218326366,-1.3056177861501561, ,0.02256227806906105,0.007156401735884403,0.010704846451612904,0.0,0.10298519630648093,-0.095023939268392, ,0.77919602394104
0.011623557235827319,0.0214230077107897,-0.08494513670750024, ,0.01193805510482164,0.021363029475437122,-0.08538936530286301, ,0.0005475813576592548, ,0.0034598614850139876,0.0019407614879547713,-0.010155198177871244,0.019902708805377457,0.020401606428184643,0.002242552823055082, ,0.010902533956858427, ,0.02850163599931859, ,5.504638590460499e-05, ,0.1843261882419906,-0.23942788729958248,0.09578027552000001,1.6917784640331426,0.47645147468209087,-1.3059298394482166, ,0.022391916365849644,0.006845090670803217,0.010777274370771315,0.0,0.05761446589960383,-0.03648808728746665, ,0.7968358993530273
0.011691212251852181,0.021458416811373178,-0.08513439019487018, ,0.012020906221821854,0.021401334824974607,-0.08562124596751647, ,0.0005907495326824939, ,0.004116737291388688,0.002327210891032597,-0.012103272736042277,-0.022412093139361926,-0.0075657213198994456,0.007372396149123852, ,0.012994331355659488, ,0.023654635872331856, ,5.645494663299547e-05, ,0.18471232488570183,-0.23928115537497222,0.09598768192000001,1.6917784640331426,0.4765881111818563,-1.3055511849110695, ,0.02272436340001695,0.008264237064306791,0.012814812164119069,0.0,0.01579457906462184,0.016233057787152498, ,0.8149068355560303
0.011801898648856887,0.021526211206513116,-0.08548062166859316, ,0.012103870236384616,0.021438210149495353,-0.08585115415851564, ,0.0004860301963853858, ,0.004589031061319389,0.0029693449566304967,-0.015143490229587052,0.045668484883796774,0.02840185737769308,-0.007991126953261478, ,0.016099736391842555, ,0.053779877442095905, ,5.734470848111953e-05, ,0.1852992525841429,-0.23904947338874546,0.09635453199,1.691988153976627,0.4772712936806835,-1.3056998807288487, ,0.02497287935749231,0.009959214239949964,0.01610597726996967,0.004046035449184153,0.05410531555340889,-0.05311380616990091, ,0.8326129913330078
0.011893969669568696,0.02157819896715286,-0.08575764729698634, ,0.01218694607782806,0.021473674423117036,-0.08607910988890155, ,0.0004473239923179808, ,0.004477808897642323,0.0022030347094351343,-0.012740087803560365,-0.021796394009831042,-0.00806500639649813,0.0023952665728516546, ,0.013682615674541482, ,0.02324062788257504, ,5.8031035190146804e-05, ,0.18579350748809326,-0.23884868233401563,0.09664749353,1.691988153976627,0.4776812031799798,-1.3061158131800787, ,0.02521842720129439,0.011503212619911956,0.01345338810810811,0.0038656163410077664,0.01689711424690892,0.013066007516608311, ,0.851254940032959
0.01193978289290656,0.021598221982464076,-0.08587828022230232, ,0.012270132679491078,0.02150774651928251,-0.0863051330600107, ,0.0005472843282920235, ,0.004431333819574314,0.0019847136883448893,-0.01156403678086042,0.019528626710259615,-0.014461015844298835,-0.011572601469437333, ,0.01254203948783049, ,0.024299959539868726, ,5.935523765876629e-05, ,0.1860560804058169,-0.23873284134090228,0.09677452995000001,1.691988153976627,0.4776812031799798,-1.305870776959657, ,0.026633999876079364,0.010681477083023055,0.012243513850883937,0.0037068025567373545,0.011575986778823445,-0.029870954384075644, ,0.8654398918151855
0.011981403968302601,0.02161728053905319,-0.08599406544133274, ,0.012353428978728025,0.021540445210972058,-0.08652924346172952, ,0.0006562939810322712, ,0.004574848951379004,0.0020522930365570358,-0.012446899443892531,0.019382209554359302,-0.008668761525424224,-0.010486598977311414, ,0.013418884283061922, ,0.02123245569511813, ,6.108611794966383e-05, ,0.18631865332354053,-0.2386170003477889,0.09689767750000002,1.691988153976627,0.4780911126792762,-1.3062050306707462, ,0.02688298627718719,0.012341909423653373,0.013153436432700248,0.003563460074521953,0.017867898849211868,-0.03095872108881344, ,0.8796689510345459
0.012079186374878922,0.02166584778864654,-0.08627618657330496, ,0.012436833916902744,0.02157178917091451,-0.08675146077274913, ,0.0006021995952694057, ,0.005388904075163139,0.0027956983681712774,-0.015839159041188346,0.011095709254275539,-0.005208336536154122,-0.006497745982743217, ,0.016962758491152433, ,0.012257264638107073, ,6.254081357352868e-05, ,0.18689785828910735,-0.2383621501629395,0.09719712049000001,1.691988153976627,0.4789109316778688,-1.3068735380929248, ,0.02921703865716465,0.01341489137100237,0.016731944873949585,0.0033043823784330894,0.023972951727376287,-0.02294212101448113, ,0.8943238258361816
0.012135581411664232,0.021696026797896936,-0.08644394280676602, ,0.012520346439382893,0.021601796971798683,-0.08697180456081957, ,0.0006599707706211964, ,0.005788712893134688,0.0031577999424536552,-0.017519622361579494,0.00230198287284343,-0.013837563714818823,-0.006306615371668751, ,0.018719456859857347, ,0.014027674225525344, ,6.418004363883701e-05, ,0.18717587667257943,-0.23823086370407767,0.09737341593000001,1.691988153976627,0.4789109316778688,-1.3068735380929248, ,0.02920804603215475,0.01387990954489846,0.018457487276940906,0.0031896320382735393,0.015084469911585806,-0.0149201027729382, ,0.9084789752960205
0.012247705420087514,0.021755103994963557,-0.08678061667700371, ,0.012603965495534226,0.02163048708648517,-0.08719029428300494, ,0.0005570335322894922, ,0.005204319924753103,0.0027929520104827484,-0.015798601913789782,0.0547313498926589,0.04349182071794775,-0.005482827012843284, ,0.016866574911417076, ,0.06990749706728372, ,6.536237969290844e-05, ,0.1877936953025174,-0.23794512258773137,0.09772989568000001,1.691988153976627,0.4797307506764614,-1.3075420455151032, ,0.03173810754463906,0.013630701171857338,0.016873741016949155,0.0029845471854540425,0.07694737718577438,-0.06481108318541662, ,0.9226570129394531
0.012307604407873684,0.021782105224246697,-0.08694511137188882, ,0.012687690038714564,0.021657877888217977,-0.08740694928593672, ,0.0006108942434174815, ,0.006027940710271616,0.002542371486979745,-0.015893586773629436,0.01741778540930335,0.0013854623370190297,-0.005474544861304928, ,0.01718737392725387, ,0.017472771396792715, ,6.67168166101404e-05, ,0.18816438648048017,-0.23778294519737264,0.09790489483,1.691988153976627,0.48027729667552316,-1.307987717129889, ,0.037170756583811505,0.016443760450263523,0.016873741016949155,0.002884447756225932,0.039109876080653104,-0.03157993821103585, ,0.9367129802703857
0.012366067761118121,0.021805779857151326,-0.08709473850941869, ,0.012771519026268158,0.02168398765083542,-0.08762178880606941, ,0.0006760222519493519, ,0.006051603406458002,0.0023016650612866702,-0.014910731132563425,-0.014142804453732115,-0.031864376835709064,-0.00501273278115587, ,0.016255751866677777, ,0.03486196626552214, ,6.854008021979148e-05, ,0.18851190945982027,-0.23762849053988816,0.09806304221,1.691988153976627,0.48041393317528863,-1.3080174562934448, ,0.036178780617030414,0.016100600875207125,0.015739932332015812,0.002799289161713929,0.00378454472920322,-0.0009217671052456475, ,0.9479219913482666
0.012427124187727451,0.021826827286906696,-0.08723924589994358, ,0.012855451419519636,0.021708834548981964,-0.08783483196993473, ,0.0007430405577525566, ,0.006249316973317925,0.002150432270812185,-0.014678797297240422,-0.020961104604389588,-0.037787702833936065,-0.004335666142097395, ,0.01609799402651842, ,0.04321200886586039, ,7.057576323908384e-05, ,0.1888980461035315,-0.23745859041665524,0.09821600443,1.691988153976627,0.4805505696750541,-1.30796551671686, ,0.03840426611026741,0.01710471188869336,0.015494952840466926,0.0027154029073774137,0.0,0.004882393655466084, ,0.9586279392242432
0.01248494036498419,0.021850643042907212,-0.08739614633053794, ,0.012939486183768235,0.021732436658319903,-0.0880460977943956, ,0.0008018862488545186, ,0.006046193957574928,0.002667543042978832,-0.017683284438997256,0.057252842824280274,0.05431590748078796,-0.0016549125259228378, ,0.01887778577612435, ,0.07891833809606578, ,7.278609641937322e-05, ,0.1892687372814943,-0.23727324482767384,0.09838322584,1.6921978439201113,0.48123375217388126,-1.3085226062353421, ,0.03829577948283728,0.01995309957074659,0.01885066452071006,0.0,0.09565012066003188,-0.07306331239137746, ,0.9693689346313477
0.0125491846216178,0.021880695343141892,-0.08758718531695911, ,0.013023622288281671,0.021754811955740465,-0.08825560518690063, ,0.0008292905698883603, ,0.006776630710022474,0.003233940033418979,-0.0200223317174811,0.027465498357183257,0.034574124749653955,0.002484781384841525, ,0.021383986048550893, ,0.04415563932622599, ,7.50488085698556e-05, ,0.18966259665807975,-0.237072453772944,0.09858674337000001,1.6921978439201113,0.4821902076722393,-1.309139174080936, ,0.03952392401435684,0.019886198985429752,0.021266771054739654,0.0,0.07658857632989409,-0.04326789446920781, ,0.9802579879760742
0.012637790218340134,0.021923764139997273,-0.08784316030304352, ,0.013107858706290368,0.021775978319575444,-0.0884633729457387, ,0.000792129253493708, ,0.007463657810399141,0.00344496742009117,-0.021571962018889758,-0.0353077866272149,-0.018712344096079865,0.006264424449003137, ,0.02308513664201804, ,0.03995981664960883, ,7.712566874488909e-05, ,0.19014912882915588,-0.23684077178671725,0.09885766798000001,1.6921978439201113,0.48273675367130114,-1.3090947732548783, ,0.038544655385244014,0.021187082285883185,0.022690614700854702,0.0,0.02063422113397689,0.01683230558892941, ,0.9909679889678955
0.012713182445999513,0.021954488498810754,-0.08805397094373203, ,0.013192194414981352,0.021795953529808735,-0.08866941976029352, ,0.0007958410950882517, ,0.008040014246146905,0.003134106737806997,-0.02176195617767253,-0.034517979658562646,-0.01589416834982152,0.0066990877163022764, ,0.023410407745298928, ,0.038001455583393635, ,7.945872240888354e-05, ,0.19055843367148978,-0.2366013670676163,0.09907933357000001,1.6921978439201113,0.483010026670832,-1.3089092153615685, ,0.045189019789747986,0.02517160253540339,0.022919153266187053,0.0,0.030418316029336655,0.012668196627367198, ,0.9980700016021729
0.012791277594337002,0.021986604476954892,-0.08827340207575957, ,0.013276628395492256,0.021814755268287658,-0.08887376421129728, ,0.0007909059643781964, ,0.007699873612555748,0.003153749027101936,-0.021768750248640344,0.03581456246374234,0.04836519261564741,0.004624564525731775, ,0.023304777921339604, ,0.06018197282251183, ,8.174026941090675e-05, ,0.1910372431096917,-0.23633879414989267,0.09931266577000002,1.6924075338635962,0.4839664821691901,-1.309525783207162, ,0.04737740467222705,0.025332872813259688,0.023152342325581398,-0.001506358213184805,0.09931368045930439,-0.056140352554852446, ,1.0050959587097168
0.012791277594337002,0.021986604476954892,-0.08827340207575957, ,0.013361159632905297,0.02183240111893445,-0.08907642477108554, ,0.0009966893511601969, ,0.007699873612555748,0.003153749027101936,-0.021768750248640344,0.03581456246374234,0.04836519261564741,0.004624564525731775, ,0.023304777921339604, ,0.06018197282251183, ,8.472668092466439e-05, ,0.1910372431096917,-0.23633879414989267,0.09931266577000002,1.6924075338635962,0.4839664821691901,-1.309525783207162, ,0.04737740467222705,0.025332872813259688,0.023152342325581398,-0.001506358213184805,0.09931368045930439,-0.056140352554852446, ,1.012341022491455
0.012873513888518795,0.022017970121741268,-0.08849697239771706, ,0.013445787116241194,0.02184890856795757,-0.08927741980385094, ,0.000982434023167293, ,0.00897173149142538,0.0033833146718203035,-0.02423976106393384,0.026082395179816937,0.03249233567779023,0.003299337070427845, ,0.026067312875695324, ,0.041665751496030176, ,8.761985053789558e-05, ,0.1915392207465163,-0.23606849849929482,0.09954988684,1.6924075338635962,0.4847863011677827,-1.3100309331490596, ,0.055076576644498415,0.02938895681587822,0.02573313654281099,-0.001506358213184805,0.0908581612085638,-0.05078362761431135, ,1.0198209285736084
0.012974473522847276,0.02205686837530098,-0.08876845356373222, ,0.01353050983845311,0.021864295004063627,-0.08947676756589787, ,0.000920852655556872, ,0.009760518723659803,0.003887913896019751,-0.026678862800530955,-0.0007099056911120949,0.012741720137073573,0.00619311399952124, ,0.028673076579734714, ,0.01276095147327396, ,9.025452528871213e-05, ,0.1921415939107058,-0.2357518664514516,0.09983766322000001,1.6924075338635962,0.48560612016637533,-1.3104544043508164, ,0.05648627473718499,0.030126013193165324,0.028242573617021278,-0.001506358213184805,0.0719703471141569,-0.024925321578900105, ,1.0272068977355957
0.013073542001347836,0.022097099809022542,-0.08904656323172506, ,0.013615326796420593,0.021878577718668146,-0.0896744862058971, ,0.0008576537352789541, ,0.010461766209350905,0.004119233073896453,-0.028735027589880204,0.017361428304668556,0.014208727447933747,0.00032773332299372506, ,0.030856416576254854, ,0.022434070905671663, ,9.263047155082276e-05, ,0.1927053534105242,-0.2354352344036084,0.10013192105000002,1.6924075338635962,0.486425939164968,-1.3110412330328545, ,0.05983413717431954,0.03295032693002458,0.030398495267175574,-0.001506358213184805,0.07684502410018175,-0.046417980663964964, ,1.034317970275879
0.013073542001347836,0.022097099809022542,-0.08904656323172506, ,0.013700236990943474,0.021891773906107713,-0.08987059376513884, ,0.0010554296075012573, ,0.010461766209350905,0.004119233073896453,-0.028735027589880204,0.017361428304668556,0.014208727447933747,0.00032773332299372506, ,0.030856416576254854, ,0.022434070905671663, ,9.566241811667506e-05, ,0.1927053534105242,-0.2354352344036084,0.10013192105000002,1.6924075338635962,0.486425939164968,-1.3110412330328545, ,0.05983413717431954,0.03295032693002458,0.030398495267175574,-0.001506358213184805,0.07684502410018175,-0.046417980663964964, ,1.0414438247680664
0.013181129145580093,0.022139501441339682,-0.08934628966453435, ,0.013785239426735619,0.02190390066385083,-0.09006510817778843, ,0.0009680687027003601, ,0.01109851288576315,0.004133781264015978,-0.030458684167542785,0.013694230850518126,0.002057226782289984,-0.0035021383695961576, ,0.03268021690613913, ,0.013846946424008888, ,9.83501131563533e-05, ,0.19330000384183949,-0.2350877114242683,0.10044821581,1.6924075338635962,0.48710912166379516,-1.3112716075907742, ,0.06174166659627246,0.03699685830739601,0.03211453935483872,-0.001506358213184805,0.06621971860523686,-0.047573770451481014, ,1.0486218929290771
0.013181129145580093,0.022139501441339682,-0.08934628966453435, ,0.013870333112418923,0.02191497499270944,-0.09025804727113886, ,0.0011647815963699197, ,0.01109851288576315,0.004133781264015978,-0.030458684167542785,0.013694230850518126,0.002057226782289984,-0.0035021383695961576, ,0.03268021690613913, ,0.013846946424008888, ,0.00010202746309846904, ,0.19330000384183949,-0.2350877114242683,0.10044821581,1.6924075338635962,0.48710912166379516,-1.3112716075907742, ,0.06174166659627246,0.03699685830739601,0.03211453935483872,-0.001506358213184805,0.06621971860523686,-0.047573770451481014, ,1.0524938106536865
0.013291012027320616,0.02217762389826203,-0.08964746911375673, ,0.013955517060517123,0.0219250137970508,-0.09044942876586627, ,0.0010716893607706903, ,0.011030235798949871,0.0036247482666805133,-0.02984337476117754,0.009924377402525707,0.01983636668360619,0.003351369719710309, ,0.032022365916860786, ,0.022179969291625634, ,0.00010535963456813303, ,0.19392554520465166,-0.2347015747805571,0.10076580686000002,1.6921978439201113,0.48792894066238784,-1.3118584362728123, ,0.06373199567392263,0.04062369073564674,0.031479864664031625,-0.003531380364677055,0.08717382244815915,-0.04613429915304522, ,1.056100845336914
0.013291012027320616,0.02217762389826203,-0.08964746911375673, ,0.01404079028744961,0.02193403388500833,-0.09063927027628393, ,0.0012669542532819829, ,0.011030235798949871,0.0036247482666805133,-0.02984337476117754,0.009924377402525707,0.01983636668360619,0.003351369719710309, ,0.032022365916860786, ,0.022179969291625634, ,0.000591233479863124, ,0.19392554520465166,-0.2347015747805571,0.10076580686000002,1.6921978439201113,0.48792894066238784,-1.3118584362728123, ,0.06373199567392263,0.04062369073564674,0.031479864664031625,-0.003531380364677055,0.08717382244815915,-0.04613429915304522, ,1.0597310066223145
0.013291012027320616,0.02217762389826203,-0.08964746911375673, ,0.014126151813525148,0.021942051968693428,-0.09082758931059574, ,0.001464799056352021, ,0.011030235798949871,0.0036247482666805133,-0.02984337476117754,0.009924377402525707,0.01983636668360619,0.003351369719710309, ,0.032022365916860786, ,0.022179969291625634, ,0.0006071164903447403, ,0.1946283138962061,-0.23424593354097784,0.10110154597000001,1.6921978439201113,0.48888539616074594,-1.3123933253782656, ,0.07646812373768798,0.04916939977122838,0.03563492510067114,-0.003531380364677055,0.1210289934906567,-0.10728235210005342, ,1.0634818077087402
0.013410827516411969,0.022214260056230693,-0.08996578139553221, ,0.014211600662935956,0.021949084664406752,-0.09101440327115076, ,0.0013457947312456948, ,0.012743844762747734,0.0037836689301708006,-0.03372338446459239,0.062317890682910174,0.04010699421514286,-0.008456795385271507, ,0.03624897777395748, ,0.07410834546218736, ,0.0006203071732179716, ,0.1946283138962061,-0.23424593354097784,0.10110154597000001,1.6921978439201113,0.48888539616074594,-1.3123933253782656, ,0.07646812373768798,0.04916939977122838,0.03563492510067114,-0.003531380364677055,0.1210289934906567,-0.10728235210005342, ,1.067497968673706
0.013410827516411969,0.022214260056230693,-0.08996578139553221, ,0.014297135863751174,0.02195514849284978,-0.09119972945469766, ,0.001541203783267817, ,0.012743844762747734,0.0037836689301708006,-0.03372338446459239,0.062317890682910174,0.04010699421514286,-0.008456795385271507, ,0.03624897777395748, ,0.07410834546218736, ,0.000636463254096039, ,0.1946283138962061,-0.23424593354097784,0.10110154597000001,1.6921978439201113,0.48888539616074594,-1.3123933253782656, ,0.07646812373768798,0.04916939977122838,0.03563492510067114,-0.003531380364677055,0.1210289934906567,-0.10728235210005342, ,1.071079969406128
0.013547938462072005,0.022256737147969802,-0.09033705081720839, ,0.014382756447910905,0.021960259879335694,-0.09138358505263812, ,0.0013711505191711648, ,0.014781987366478268,0.005076362214295527,-0.04122980912214986,0.08335135097865683,0.07416931585316154,-0.006059234108963395, ,0.04409278585077566, ,0.11157246965251193, ,0.0006491302759076791, ,0.1954469235808739,-0.23371306497265634,0.10149432184000001,1.6921978439201113,0.4903883976581658,-1.3135372435787855, ,0.08564705916829492,0.054885449137345735,0.043640579506849325,-0.003531380364677055,0.1656455230574222,-0.13180107871416213, ,1.0746629238128662
0.013547938462072005,0.022256737147969802,-0.09033705081720839, ,0.014468461451219803,0.02196443515400177,-0.09156598715128164, ,0.0015630379209835878, ,0.014781987366478268,0.005076362214295527,-0.04122980912214986,0.08335135097865683,0.07416931585316154,-0.006059234108963395, ,0.04409278585077566, ,0.11157246965251193, ,0.0006646202359937115, ,0.1954469235808739,-0.23371306497265634,0.10149432184000001,1.6921978439201113,0.4903883976581658,-1.3135372435787855, ,0.08564705916829492,0.054885449137345735,0.043640579506849325,-0.003531380364677055,0.1656455230574222,-0.13180107871416213, ,1.0782489776611328
0.013547938462072005,0.022256737147969802,-0.09033705081720839, ,0.014554249913340908,0.02196769055201977,-0.09174695273209922, ,0.0017561418169379343, ,0.014781987366478268,0.005076362214295527,-0.04122980912214986,0.08335135097865683,0.07416931585316154,-0.006059234108963395, ,0.04409278585077566, ,0.11157246965251193, ,0.000682812262342782, ,0.1954469235808739,-0.23371306497265634,0.10149432184000001,1.6921978439201113,0.4903883976581658,-1.3135372435787855, ,0.08564705916829492,0.054885449137345735,0.043640579506849325,-0.003531380364677055,0.1656455230574222,-0.13180107871416213, ,1.0817928314208984
0.013706692599627831,0.022314555795677576,-0.09077417176409042, ,0.014640120877789459,0.02197004221380806,-0.09192649867197737, ,0.001522443845008628, ,0.01734488236969754,0.006211391892916008,-0.04769735487824492,0.0826151164220758,0.07299361469054594,-0.0048220227357318535, ,0.051131829578524385, ,0.11024100133448086, ,0.000696576714517632, ,0.19637365152578085,-0.23317247367146063,0.10195839366000001,1.6921978439201113,0.4921646721551165,-1.3150673550669796, ,0.09874811816698312,0.058687038687984396,0.0502486167823344,-0.003531380364677055,0.1778850139512932,-0.1338662764658338, ,1.0853538513183594
0.013706692599627831,0.022314555795677576,-0.09077417176409042, ,0.014726073391926478,0.021971506185242812,-0.0921046417434728, ,0.0017108391511081967, ,0.01734488236969754,0.006211391892916008,-0.04769735487824492,0.0826151164220758,0.07299361469054594,-0.0048220227357318535, ,0.051131829578524385, ,0.11024100133448086, ,0.0007129357860755442, ,0.19637365152578085,-0.23317247367146063,0.10195839366000001,1.6921978439201113,0.4921646721551165,-1.3150673550669796, ,0.09874811816698312,0.058687038687984396,0.0502486167823344,-0.003531380364677055,0.1778850139512932,-0.1338662764658338, ,1.0890498161315918
0.013706692599627831,0.022314555795677576,-0.09077417176409042, ,0.014812106506952739,0.021972098417869117,-0.09228139861506537, ,0.0019002499157801985, ,0.01734488236969754,0.006211391892916008,-0.04769735487824492,0.0826151164220758,0.07299361469054594,-0.0048220227357318535, ,0.051131829578524385, ,0.11024100133448086, ,0.0007317820421026023, ,0.19637365152578085,-0.23317247367146063,0.10195839366000001,1.6921978439201113,0.4921646721551165,-1.3150673550669796, ,0.09874811816698312,0.058687038687984396,0.0502486167823344,-0.003531380364677055,0.1778850139512932,-0.1338662764658338, ,1.0926358699798584
0.013902816522180783,0.022381322962362084,-0.09131996110668406, ,0.014898219277902169,0.021971834769113005,-0.09245678585141327, ,0.0015655279386637515, ,0.019366479306031442,0.006593746526328929,-0.05413306138354938,0.056083638620024835,0.05095546639146644,-0.006853204718768929, ,0.05786990883628161, ,0.07577182343007935, ,0.0007448093217363703, ,0.19747027959392072,-0.23246198224703196,0.10253524271000002,1.691988153976627,0.49407758315183264,-1.3165455269785888, ,0.10462727845476381,0.07081861310333641,0.057092514408602156,-0.003868488500617652,0.1612817971953265,-0.12010918940199324, ,1.0962128639221191
0.013902816522180783,0.022381322962362084,-0.09131996110668406, ,0.014984410763635917,0.021970731002492323,-0.09263081991360678, ,0.0017483657147020065, ,0.019366479306031442,0.006593746526328929,-0.05413306138354938,0.056083638620024835,0.05095546639146644,-0.006853204718768929, ,0.05786990883628161, ,0.07577182343007935, ,0.0007602486508589186, ,0.19747027959392072,-0.23246198224703196,0.10253524271000002,1.691988153976627,0.49407758315183264,-1.3165455269785888, ,0.10462727845476381,0.07081861310333641,0.057092514408602156,-0.003868488500617652,0.1612817971953265,-0.12010918940199324, ,1.0997538566589355
0.01411059108330203,0.022447639267187035,-0.09188980366322354, ,0.015070680026835722,0.02196880278782822,-0.09280351715942144, ,0.0014092294016924902, ,0.019366479306031442,0.006593746526328929,-0.05413306138354938,0.056083638620024835,0.05095546639146644,-0.006853204718768929, ,0.05786990883628161, ,0.07577182343007935, ,0.0007700816925382151, ,0.19859007586068328,-0.23169743169248375,0.10313542498000002,1.6917784640331426,0.49558058464925253,-1.3174444089586874, ,0.11433366452827805,0.07888357569282692,0.06102992919540231,-0.008778504973939111,0.1567919762205496,-0.11383679501108855, ,1.103834867477417
0.01411059108330203,0.022447639267187035,-0.09188980366322354, ,0.01515702613399798,0.02196606570145703,-0.09297489384357352, ,0.0015825170185583789, ,0.02121291702643506,0.006643711365609333,-0.057927899870208,0.040878617415713685,0.035805219297508656,-0.0031745401089737215, ,0.062046501374797836, ,0.05433620159220711, ,0.0007822075929265757, ,0.19859007586068328,-0.23169743169248375,0.10313542498000002,1.6917784640331426,0.49558058464925253,-1.3174444089586874, ,0.11433366452827805,0.07888357569282692,0.06102992919540231,-0.008778504973939111,0.1567919762205496,-0.11383679501108855, ,1.1076509952545166
0.01411059108330203,0.022447639267187035,-0.09188980366322354, ,0.015243448155427069,0.02196253522644097,-0.09314496611797288, ,0.001759012184160264, ,0.02121291702643506,0.006643711365609333,-0.057927899870208,0.040878617415713685,0.035805219297508656,-0.0031745401089737215, ,0.062046501374797836, ,0.05433620159220711, ,0.0007965723663270711, ,0.19859007586068328,-0.23169743169248375,0.10313542498000002,1.6917784640331426,0.49558058464925253,-1.3174444089586874, ,0.11433366452827805,0.07888357569282692,0.06102992919540231,-0.008778504973939111,0.1567919762205496,-0.11383679501108855, ,1.111274003982544
0.014317752957029629,0.022503381343863326,-0.09244130116553492, ,0.015329945165229314,0.02195822675278001,-0.0933137500319775, ,0.0014432233434490728, ,0.021942434848876778,0.005347712815735418,-0.056405334923452524,0.013053061593204218,0.03274503840816591,0.014534919392764193, ,0.06075878773711368, ,0.035242715610209016, ,0.0008059441196186944, ,0.19974076305894273,-0.23088654474069017,0.1037161629,1.6913590841461734,0.4972202226464378,-1.318454708842482, ,0.12470031742243204,0.08730169416602647,0.05943586388059702,-0.020618803026257484,0.1671881269460505,-0.09497783701210227, ,1.1148769855499268
0.014317752957029629,0.022503381343863326,-0.09244130116553492, ,0.01541651624130649,0.021953155577623302,-0.09348126153264778, ,0.001609828162840622, ,0.021942434848876778,0.005347712815735418,-0.056405334923452524,0.013053061593204218,0.03274503840816591,0.014534919392764193, ,0.06075878773711368, ,0.035242715610209016, ,0.0008174281773790076, ,0.19974076305894273,-0.23088654474069017,0.1037161629,1.6913590841461734,0.4972202226464378,-1.318454708842482, ,0.12470031742243204,0.08730169416602647,0.05943586388059702,-0.020618803026257484,0.1671881269460505,-0.09497783701210227, ,1.118607997894287
0.014317752957029629,0.022503381343863326,-0.09244130116553492, ,0.015503160465349625,0.02194733690548021,-0.09364751646499936, ,0.001780261701801254, ,0.021942434848876778,0.005347712815735418,-0.056405334923452524,0.013053061593204218,0.03274503840816591,0.014534919392764193, ,0.06075878773711368, ,0.035242715610209016, ,0.0008309892129342505, ,0.19974076305894273,-0.23088654474069017,0.1037161629,1.6913590841461734,0.4972202226464378,-1.318454708842482, ,0.12470031742243204,0.08730169416602647,0.05943586388059702,-0.020618803026257484,0.1671881269460505,-0.09497783701210227, ,1.1224758625030518
0.014547363306841435,0.022547298256252832,-0.09298843327048775, ,0.015589876922832625,0.021940785848432162,-0.09381253057225872, ,0.001460762918188177, ,0.022765802420223184,0.002813074008912452,-0.05028188101741181,-0.03506579189217165,-0.03503129860967924,0.035035941792217105, ,0.05526719373973512, ,0.04956289170983833, ,0.0008397360699516662, ,0.20110768677768046,-0.22995981679578323,0.10429301195000001,1.6911493942026892,0.49872322414385767,-1.3193535908225804, ,0.1407966491965442,0.0962443626353659,0.052919639601328915,-0.04603352087655242,0.11986022980829514,-0.0625035536224244, ,1.1260948181152344
0.014547363306841435,0.022547298256252832,-0.09298843327048775, ,0.015676664703005848,0.02193351742634352,-0.09397631949611578, ,0.001621100781977678, ,0.022765802420223184,0.002813074008912452,-0.05028188101741181,-0.03506579189217165,-0.03503129860967924,0.035035941792217105, ,0.05526719373973512, ,0.04956289170983833, ,0.0008504396961438033, ,0.20110768677768046,-0.22995981679578323,0.10429301195000001,1.6911493942026892,0.49872322414385767,-1.3193535908225804, ,0.1407966491965442,0.0962443626353659,0.052919639601328915,-0.04603352087655242,0.11986022980829514,-0.0625035536224244, ,1.1297788619995117
0.014547363306841435,0.022547298256252832,-0.09298843327048775, ,0.015763522898889937,0.021925546567073732,-0.09413889877697902, ,0.0017858303945097514, ,0.022765802420223184,0.002813074008912452,-0.05028188101741181,-0.03506579189217165,-0.03503129860967924,0.035035941792217105, ,0.05526719373973512, ,0.04956289170983833, ,0.0008630801109865864, ,0.20110768677768046,-0.22995981679578323,0.10429301195000001,1.6911493942026892,0.49872322414385767,-1.3193535908225804, ,0.1407966491965442,0.0962443626353659,0.052919639601328915,-0.04603352087655242,0.11986022980829514,-0.0625035536224244, ,1.1333580017089844
0.014780192974084762,0.0225614306435652,-0.09346545561760247, ,0.0158504506072693,0.021916888106687817,-0.09430028385422826, ,0.001502605958959906, ,0.02310909565633163,0.00018345123255107763,-0.04369832507832346,-0.011996031908557468,-0.04180130122790158,-0.03864791090580188, ,0.04943285922399232, ,0.04348671321462898, ,0.0008716071222928973, ,0.20260589695528,-0.22890952512488869,0.10479467618,1.6909397042592043,0.49981631614198113,-1.3199998978317302, ,0.1558242061715448,0.10932827368487416,0.04603702751445087,0.018451327100039747,0.1130261545783485,-0.08751286326590382, ,1.137821912765503
0.014780192974084762,0.0225614306435652,-0.09346545561760247, ,0.015937446928685893,0.02190755678966877,-0.09446049006647007, ,0.0016603858848721225, ,0.02310909565633163,0.00018345123255107763,-0.04369832507832346,-0.011996031908557468,-0.04180130122790158,-0.03864791090580188, ,0.04943285922399232, ,0.04348671321462898, ,0.0008819857902215713, ,0.20260589695528,-0.22890952512488869,0.10479467618,1.6909397042592043,0.49981631614198113,-1.3199998978317302, ,0.1558242061715448,0.10932827368487416,0.04603702751445087,0.018451327100039747,0.1130261545783485,-0.08751286326590382, ,1.1414148807525635
0.01500190579897775,0.02255504409718949,-0.09386736220022429, ,0.01602451096743273,0.021897567269127987,-0.09461953265179043, ,0.0014296004680321934, ,0.022515186352089055,-0.001354273801961301,-0.039138785621567265,0.004796980587075037,-0.022952336331804688,-0.00690796138715552, ,0.0451731359762744, ,0.023446298744447702, ,0.0008890976691541768, ,0.20414272079725068,-0.22782061978962304,0.10521856301000002,1.6911493942026892,0.5010460446398701,-1.3209209802248574, ,0.16084227382791658,0.11190677070574384,0.04137353641558442,-0.015237453203850603,0.14545203451317945,-0.11224999126209034, ,1.1450259685516357
0.01500190579897775,0.02255504409718949,-0.09386736220022429, ,0.01611164183154767,0.02188693410701736,-0.09477742674800928, ,0.0015830674344723668, ,0.022515186352089055,-0.001354273801961301,-0.039138785621567265,0.004796980587075037,-0.022952336331804688,-0.00690796138715552, ,0.0451731359762744, ,0.023446298744447702, ,0.0008979947174274869, ,0.20414272079725068,-0.22782061978962304,0.10521856301000002,1.6911493942026892,0.5010460446398701,-1.3209209802248574, ,0.16084227382791658,0.11190677070574384,0.04137353641558442,-0.015237453203850603,0.14545203451317945,-0.11224999126209034, ,1.148603916168213
0.01500190579897775,0.02255504409718949,-0.09386736220022429, ,0.016198838632807022,0.021875671774340362,-0.09493418739293455, ,0.001741353196095861, ,0.022515186352089055,-0.001354273801961301,-0.039138785621567265,0.004796980587075037,-0.022952336331804688,-0.00690796138715552, ,0.0451731359762744, ,0.023446298744447702, ,0.0009086701412080993, ,0.20414272079725068,-0.22782061978962304,0.10521856301000002,1.6911493942026892,0.5010460446398701,-1.3209209802248574, ,0.16084227382791658,0.11190677070574384,0.04137353641558442,-0.015237453203850603,0.14545203451317945,-0.11224999126209034, ,1.1521308422088623
0.015234846415343837,0.022526106713116056,-0.0942505240411122, ,0.016286100486719007,0.021863794651363597,-0.09508982952461639, ,0.0014994085781953733, ,0.022448516715078883,-0.0038870418380248946,-0.03564427409026638,0.033265817173894575,-0.002633982092867698,-0.027684269079119646, ,0.04230318276890956, ,0.03336907125906781, ,0.0009160543716704402, ,0.20585716749532854,-0.22656953706399866,0.10562300549,1.6909397042592043,0.5026856826370554,-1.3221763163290738, ,0.16825698857884888,0.12893606190009615,0.03756795169811321,-0.004690318162248117,0.17134451416993307,-0.155526132779729, ,1.155716896057129
0.015234846415343837,0.022526106713116056,-0.0942505240411122, ,0.016373426512517567,0.02185131702782794,-0.09524436798159981, ,0.0016551228157134802, ,0.022448516715078883,-0.0038870418380248946,-0.03564427409026638,0.033265817173894575,-0.002633982092867698,-0.027684269079119646, ,0.04230318276890956, ,0.03336907125906781, ,0.0009251786734487494, ,0.20585716749532854,-0.22656953706399866,0.10562300549,1.6909397042592043,0.5026856826370554,-1.3221763163290738, ,0.16825698857884888,0.12893606190009615,0.03756795169811321,-0.004690318162248117,0.17134451416993307,-0.155526132779729, ,1.159301996231079
0.015234846415343837,0.022526106713116056,-0.0942505240411122, ,0.01646081583315597,0.021838253103160322,-0.09539781750318034, ,0.001814504309789332, ,0.022448516715078883,-0.0038870418380248946,-0.03564427409026638,0.033265817173894575,-0.002633982092867698,-0.027684269079119646, ,0.04230318276890956, ,0.03336907125906781, ,0.0009360241080382686, ,0.20585716749532854,-0.22656953706399866,0.10562300549,1.6909397042592043,0.5026856826370554,-1.3221763163290738, ,0.16825698857884888,0.12893606190009615,0.03756795169811321,-0.004690318162248117,0.17134451416993307,-0.155526132779729, ,1.1630098819732666
0.015234846415343837,0.022526106713116056,-0.0942505240411122, ,0.016548267575300337,0.021824616986684694,-0.0955501927296567, ,0.001976436611605142, ,0.022448516715078883,-0.0038870418380248946,-0.03564427409026638,0.033265817173894575,-0.002633982092867698,-0.027684269079119646, ,0.04230318276890956, ,0.03336907125906781, ,0.0009485591984426888, ,0.20585716749532854,-0.22656953706399866,0.10562300549,1.6909397042592043,0.5026856826370554,-1.3221763163290738, ,0.16825698857884888,0.12893606190009615,0.03756795169811321,-0.004690318162248117,0.17134451416993307,-0.155526132779729, ,1.1667430400848389
0.015588954316202799,0.022457209367745902,-0.09480786194770364, ,0.01663578086932344,0.02181042269783394,-0.0957015082025858, ,0.0015207835012121707, ,0.024776223784411786,-0.004767166018469678,-0.03833936125292871,-0.08139842154408795,-0.11864640315862275,0.04485940921177424, ,0.04589655497034037, ,0.14388394342436844, ,0.0009553713925232778, ,0.20846745120681642,-0.2245307355852034,0.10620763228,1.6898912545417817,0.5048718666333024,-1.3241223602684977, ,0.17671683716661224,0.13894134928033788,0.040022139497487445,-0.07931233618341464,0.07778805722079776,-0.06829081126442973, ,1.1703979969024658
0.015588954316202799,0.022457209367745902,-0.09480786194770364, ,0.016723354849297937,0.021795684166360737,-0.09585177836503571, ,0.0016775701618500574, ,0.024776223784411786,-0.004767166018469678,-0.03833936125292871,-0.08139842154408795,-0.11864640315862275,0.04485940921177424, ,0.04589655497034037, ,0.14388394342436844, ,0.0009638678486330047, ,0.20846745120681642,-0.2245307355852034,0.10620763228,1.6898912545417817,0.5048718666333024,-1.3241223602684977, ,0.17671683716661224,0.13894134928033788,0.040022139497487445,-0.07931233618341464,0.07778805722079776,-0.06829081126442973, ,1.1739709377288818
0.015588954316202799,0.022457209367745902,-0.09480786194770364, ,0.016810988652990477,0.0217804152325493,-0.09600101756183979, ,0.0018371277966622843, ,0.024776223784411786,-0.004767166018469678,-0.03833936125292871,-0.08139842154408795,-0.11864640315862275,0.04485940921177424, ,0.04589655497034037, ,0.14388394342436844, ,0.0009740220340752056, ,0.20846745120681642,-0.2245307355852034,0.10620763228,1.6898912545417817,0.5048718666333024,-1.3241223602684977, ,0.17671683716661224,0.13894134928033788,0.040022139497487445,-0.07931233618341464,0.07778805722079776,-0.06829081126442973, ,1.1775519847869873
0.01584813799131527,0.022411698529262458,-0.09521376432746008, ,0.016898681421854966,0.021764629647426672,-0.09614924003985123, ,0.0015483715464203213, ,0.026135035529913312,-0.0044089936488870135,-0.04096739010115409,-0.0424671795473417,-0.07487042617510353,-0.03176541215759846, ,0.04879350734314859, ,0.08607512217913699, ,0.000980623752607908, ,0.21030546163088185,-0.2230865845377234,0.10663281540000001,1.6896815645982974,0.5058283221316605,-1.3249022855943728, ,0.18570830050581366,0.1444397892822995,0.04305084194594595,0.0,0.11387018121391529,-0.09529268135512564, ,1.1811509132385254
0.01584813799131527,0.022411698529262458,-0.09521376432746008, ,0.016986432301026234,0.021748341072974162,-0.09629645994819634, ,0.0017052820463181793, ,0.026135035529913312,-0.0044089936488870135,-0.04096739010115409,-0.0424671795473417,-0.07487042617510353,-0.03176541215759846, ,0.04879350734314859, ,0.08607512217913699, ,0.0009888585059455246, ,0.21030546163088185,-0.2230865845377234,0.10663281540000001,1.6896815645982974,0.5058283221316605,-1.3249022855943728, ,0.18570830050581366,0.1444397892822995,0.04305084194594595,0.0,0.11387018121391529,-0.09529268135512564, ,1.1847989559173584
0.01584813799131527,0.022411698529262458,-0.09521376432746008, ,0.017074240439313708,0.021731563082338503,-0.0964426913385288, ,0.0018644497948951332, ,0.026135035529913312,-0.0044089936488870135,-0.04096739010115409,-0.0424671795473417,-0.07487042617510353,-0.03176541215759846, ,0.04879350734314859, ,0.08607512217913699, ,0.000998696610315745, ,0.21030546163088185,-0.2230865845377234,0.10663281540000001,1.6896815645982974,0.5058283221316605,-1.3249022855943728, ,0.18570830050581366,0.1444397892822995,0.04305084194594595,0.0,0.11387018121391529,-0.09529268135512564, ,1.18833589553833
0.01611381170432645,0.022367463771463873,-0.09564366615496084, ,0.017162104989195008,0.021714309160043913,-0.09658794816528359, ,0.0015547341485086248, ,0.026910026084206975,-0.004745662607024856,-0.0446380383003042,0.01302546696832584,-0.011168432462146174,-0.022888015873924677, ,0.0523376086646289, ,0.01715282624506298, ,0.0010048748051845549, ,0.2121820857193184,-0.22158837436012385,0.10708522061,1.6898912545417817,0.5073313236290804,-1.3262912400153146, ,0.18979388311694156,0.1548074087413879,0.04698764460176992,-0.014901982383151985,0.18687554942922713,-0.16191332590247162, ,1.191884994506836
0.01611381170432645,0.022367463771463873,-0.09564366615496084, ,0.01725002510680946,0.021696592702202467,-0.09673224428593048, ,0.0017105704413380126, ,0.026910026084206975,-0.004745662607024856,-0.0446380383003042,0.01302546696832584,-0.011168432462146174,-0.022888015873924677, ,0.0523376086646289, ,0.01715282624506298, ,0.0010126297022851423, ,0.2121820857193184,-0.22158837436012385,0.10708522061,1.6898912545417817,0.5073313236290804,-1.3262912400153146, ,0.18979388311694156,0.1548074087413879,0.04698764460176992,-0.014901982383151985,0.18687554942922713,-0.16191332590247162, ,1.1968159675598145
0.01611381170432645,0.022367463771463873,-0.09564366615496084, ,0.01733799995195168,0.021678427016726443,-0.09687559346122834, ,0.001868436084785972, ,0.026910026084206975,-0.004745662607024856,-0.0446380383003042,0.01302546696832584,-0.011168432462146174,-0.022888015873924677, ,0.0523376086646289, ,0.01715282624506298, ,0.0010219319455731948, ,0.2121820857193184,-0.22158837436012385,0.10708522061,1.6898912545417817,0.5073313236290804,-1.3262912400153146, ,0.18979388311694156,0.1548074087413879,0.04698764460176992,-0.014901982383151985,0.18687554942922713,-0.16191332590247162, ,1.2005119323730469
0.016443882108197486,0.02230904282475705,-0.09618632831142442, ,0.0174260286880653,0.021659825323539085,-0.09701800935547938, ,0.0014414536507547171, ,0.027942070141880767,-0.004934303714738155,-0.04439980291077338,-0.002596804735341094,-0.044853826207345786,-0.02417439623770694, ,0.0526920215542978, ,0.04492701385744275, ,0.0010264429316504157, ,0.21449890558158577,-0.21971947300456152,0.10765688450000001,1.6894718746548125,0.5095175076253274,-1.328318962694879, ,0.19606806107122063,0.1545552794111902,0.046849445647058834,-0.016581864509212577,0.15893750633928333,-0.14772532716133352, ,1.204164981842041
0.016443882108197486,0.02230904282475705,-0.09618632831142442, ,0.017514110482236476,0.021640800754786495,-0.09715950553678218, ,0.0015934271707962401, ,0.027942070141880767,-0.004934303714738155,-0.04439980291077338,-0.002596804735341094,-0.044853826207345786,-0.02417439623770694, ,0.0526920215542978, ,0.04492701385744275, ,0.0010324746788753713, ,0.21449890558158577,-0.21971947300456152,0.10765688450000001,1.6894718746548125,0.5095175076253274,-1.328318962694879, ,0.19606806107122063,0.1545552794111902,0.046849445647058834,-0.016581864509212577,0.15893750633928333,-0.14772532716133352, ,1.2078328132629395
0.016443882108197486,0.02230904282475705,-0.09618632831142442, ,0.017602244505187402,0.02162136635504856,-0.09730009547728599, ,0.0017479072256565227, ,0.027942070141880767,-0.004934303714738155,-0.04439980291077338,-0.002596804735341094,-0.044853826207345786,-0.02417439623770694, ,0.0526920215542978, ,0.04492701385744275, ,0.0010400055477888571, ,0.21449890558158577,-0.21971947300456152,0.10765688450000001,1.6894718746548125,0.5095175076253274,-1.328318962694879, ,0.19606806107122063,0.1545552794111902,0.046849445647058834,-0.016581864509212577,0.15893750633928333,-0.14772532716133352, ,1.2115049362182617
0.01673860353735313,0.022248393456844203,-0.0966376521427505, ,0.017690429931270013,0.021601535081550622,-0.0974397925534457, ,0.0014027930996103975, ,0.027648211477222587,-0.006277003241636515,-0.0410715017598058,-0.08403989355280476,-0.13380220069249352,0.04729020638797578, ,0.049906839455033304, ,0.1580051130456097, ,0.0010437845847869982, ,0.2165608752590037,-0.21808225363522593,0.10813132664000001,1.6886331148808746,0.5107472361232164,-1.3294850813084278, ,0.1924887252707318,0.15506036202364507,0.04305084194594595,-0.09160043008032144,0.0804774482556465,-0.08505261661182527, ,1.2152400016784668
0.01673860353735313,0.022248393456844203,-0.0966376521427505, ,0.017778665938459545,0.021581319804374863,-0.09757861004627333, ,0.0015530997496027465, ,0.027648211477222587,-0.006277003241636515,-0.0410715017598058,-0.08403989355280476,-0.13380220069249352,0.04729020638797578, ,0.049906839455033304, ,0.1580051130456097, ,0.0010490352565892223, ,0.2165608752590037,-0.21808225363522593,0.10813132664000001,1.6886331148808746,0.5107472361232164,-1.3294850813084278, ,0.1924887252707318,0.15506036202364507,0.04305084194594595,-0.09160043008032144,0.0804774482556465,-0.08505261661182527, ,1.2189159393310547
0.01673860353735313,0.022248393456844203,-0.0966376521427505, ,0.017866951708348032,0.021560733306671638,-0.09771656114159444, ,0.0017058987967957932, ,0.027648211477222587,-0.006277003241636515,-0.0410715017598058,-0.08403989355280476,-0.13380220069249352,0.04729020638797578, ,0.049906839455033304, ,0.1580051130456097, ,0.0010557379457750036, ,0.2165608752590037,-0.21808225363522593,0.10813132664000001,1.6886331148808746,0.5107472361232164,-1.3294850813084278, ,0.1924887252707318,0.15506036202364507,0.04305084194594595,-0.09160043008032144,0.0804774482556465,-0.08505261661182527, ,1.2224948406219482
0.01701566454721139,0.022180244724267488,-0.09703757386242523, ,0.01795528642613794,0.021539788284870784,-0.09785365893030051, ,0.0013996673048018108, ,0.0271942963906551,-0.007181702181559452,-0.03897824248957056,-0.05211274728872631,-0.09595453091432975,0.00035498489353527954, ,0.04806672435254119, ,0.1091921263652359, ,0.0010592119797045675, ,0.2185147266761825,-0.21647592519738723,0.10855132460000001,1.68842342493739,0.5117036916215745,-1.3303466853744432, ,0.19287996251721704,0.1602988877676871,0.04094810159383034,-0.045220138262526965,0.10934349495813551,-0.11164284006869092, ,1.2268989086151123
0.01701566454721139,0.022180244724267488,-0.09703757386242523, ,0.018043669280635794,0.021518497348893172,-0.09798991640860336, ,0.0015497288943614653, ,0.0271942963906551,-0.007181702181559452,-0.03897824248957056,-0.05211274728872631,-0.09595453091432975,0.00035498489353527954, ,0.04806672435254119, ,0.1091921263652359, ,0.0010641171488511363, ,0.2185147266761825,-0.21647592519738723,0.10855132460000001,1.68842342493739,0.5117036916215745,-1.3303466853744432, ,0.19287996251721704,0.1602988877676871,0.04094810159383034,-0.045220138262526965,0.10934349495813551,-0.11164284006869092, ,1.2304728031158447
0.01728841921858831,0.022103630740177956,-0.09742441727724906, ,0.01813209946424561,0.02149687302236206,-0.09812534647828905, ,0.0012534963222571016, ,0.025670093560621894,-0.007580949377155486,-0.03525994182502117,0.03125993455956352,-0.009330979939604741,-0.059826906115709066, ,0.04426836335775192, ,0.032622020076384, ,0.0010659921901719875, ,0.22049174629198398,-0.21482326036230318,0.10895965595000001,1.6882137349939055,0.5133433296187598,-1.3320920939195033, ,0.18979388311694156,0.15789840525535903,0.03739157633802818,0.014758703281061216,0.18183180559455658,-0.1780295744538214, ,1.2340450286865234
0.01728841921858831,0.022103630740177956,-0.09742441727724906, ,0.018220576172962688,0.02147492774281461,-0.09825996194697174, ,0.0014008279486018857, ,0.025670093560621894,-0.007580949377155486,-0.03525994182502117,0.03125993455956352,-0.009330979939604741,-0.059826906115709066, ,0.04426836335775192, ,0.032622020076384, ,0.001069274893686006, ,0.22049174629198398,-0.21482326036230318,0.10895965595000001,1.6882137349939055,0.5133433296187598,-1.3320920939195033, ,0.18979388311694156,0.15789840525535903,0.03739157633802818,0.014758703281061216,0.18183180559455658,-0.1780295744538214, ,1.241609811782837
0.017541727492035322,0.022024341551359624,-0.0977649355431959, ,0.018309098606366918,0.02145267386191284,-0.09839377552834731, ,0.0011450336681483057, ,0.02510243564102368,-0.008029830879057063,-0.03338118937324351,0.05998337937022291,-0.02595549686270827,-0.04546888447012448, ,0.04253133272106977, ,0.06535787763951392, ,0.0010700104157681644, ,0.22238381584616898,-0.2132478228559614,0.10932132086000002,1.6882137349939055,0.5152562406154759,-1.3341420170120966, ,0.18680500306785586,0.1558242061715448,0.03555538285714287,-0.015157579454364125,0.17093671149988207,-0.21760532945950775, ,1.2469499111175537
0.017541727492035322,0.022024341551359624,-0.0977649355431959, ,0.018397665967616574,0.02143012364565533,-0.09852679984244729, ,0.001290799288779539, ,0.02510243564102368,-0.008029830879057063,-0.03338118937324351,0.05998337937022291,-0.02595549686270827,-0.04546888447012448, ,0.04253133272106977, ,0.06535787763951392, ,0.001072133385700966, ,0.22238381584616898,-0.2132478228559614,0.10932132086000002,1.6882137349939055,0.5152562406154759,-1.3341420170120966, ,0.18680500306785586,0.1558242061715448,0.03555538285714287,-0.015157579454364125,0.17093671149988207,-0.21760532945950775, ,1.2505450248718262
0.01780629963848822,0.021933492371520584,-0.09810828344616802, ,0.01848627746344177,0.021407289274588976,-0.09865904741589362, ,0.0010210781027898313, ,0.023237188493982954,-0.008637158931765504,-0.028727487533001344,-0.09194022821881725,-0.14109372413196444,0.01796219706926397, ,0.03794517075302492, ,0.16840553728716265, ,0.0010716471449113362, ,0.22431449906472511,-0.21159515802087733,0.10968298577,1.687584665163452,0.516485969113365,-1.3354714931059266, ,0.1667784561660295,0.14712704117592368,0.02999776180790961,-0.06421299512133917,0.0400242310576729,-0.06579384561985568, ,1.2543718814849854
0.01780629963848822,0.021933492371520584,-0.09810828344616802, ,0.018574932304138002,0.021384182844019557,-0.09879053068215113, ,0.0011653318938027396, ,0.023237188493982954,-0.008637158931765504,-0.028727487533001344,-0.09194022821881725,-0.14109372413196444,0.01796219706926397, ,0.03794517075302492, ,0.16840553728716265, ,0.0010725309632971041, ,0.22431449906472511,-0.21159515802087733,0.10968298577,1.687584665163452,0.516485969113365,-1.3354714931059266, ,0.1667784561660295,0.14712704117592368,0.02999776180790961,-0.06421299512133917,0.0400242310576729,-0.06579384561985568, ,1.2579870223999023
0.01780629963848822,0.021933492371520584,-0.09810828344616802, ,0.01866362970355986,0.021360816364223954,-0.09892126198178298, ,0.0013129762942184458, ,0.023237188493982954,-0.008637158931765504,-0.028727487533001344,-0.09194022821881725,-0.14109372413196444,0.01796219706926397, ,0.03794517075302492, ,0.16840553728716265, ,0.0010747781159225374, ,0.22431449906472511,-0.21159515802087733,0.10968298577,1.687584665163452,0.516485969113365,-1.3354714931059266, ,0.1667784561660295,0.14712704117592368,0.02999776180790961,-0.06421299512133917,0.0400242310576729,-0.06579384561985568, ,1.261612892150879
0.018033730119538852,0.021842736724432852,-0.09837769245536959, ,0.018752368879114297,0.021337201760660778,-0.09905125356270242, ,0.0011071096746355302, ,0.023176685773192634,-0.00976086170213304,-0.026645542577492295,-0.1303167037474071,-0.14199430882922354,0.018155377667192555, ,0.03663902460282522, ,0.19272989800243812, ,0.001075077482206917, ,0.22596716389980914,-0.210104670576152,0.10996428070000001,1.6873749752199676,0.5168958786126612,-1.3358874255571564, ,0.16976197058760426,0.15330685227539706,0.027798972984293194,-0.05477374662181102,0.04021886991575243,-0.02975580246424455, ,1.2652218341827393
0.018033730119538852,0.021842736724432852,-0.09837769245536959, ,0.018841149051754692,0.02131335087418268,-0.09918051758042919, ,0.0012556683049167957, ,0.023176685773192634,-0.00976086170213304,-0.026645542577492295,-0.1303167037474071,-0.14199430882922354,0.018155377667192555, ,0.03663902460282522, ,0.19272989800243812, ,0.0010767342787455397, ,0.22596716389980914,-0.210104670576152,0.10996428070000001,1.6873749752199676,0.5168958786126612,-1.3358874255571564, ,0.16976197058760426,0.15330685227539706,0.027798972984293194,-0.05477374662181102,0.04021886991575243,-0.02975580246424455, ,1.2688369750976562
0.018033730119538852,0.021842736724432852,-0.09837769245536959, ,0.01892996944597383,0.021289275461246687,-0.0993090660983418, ,0.0014060658458690894, ,0.023176685773192634,-0.00976086170213304,-0.026645542577492295,-0.1303167037474071,-0.14199430882922354,0.018155377667192555, ,0.03663902460282522, ,0.19272989800243812, ,0.0010797282020830266, ,0.22596716389980914,-0.210104670576152,0.10996428070000001,1.6873749752199676,0.5168958786126612,-1.3358874255571564, ,0.16976197058760426,0.15330685227539706,0.027798972984293194,-0.05477374662181102,0.04021886991575243,-0.02975580246424455, ,1.2724878787994385
0.018033730119538852,0.021842736724432852,-0.09837769245536959, ,0.019018829289797787,0.021264987194126398,-0.09943691108793129, ,0.0015576132403713203, ,0.023176685773192634,-0.00976086170213304,-0.026645542577492295,-0.1303167037474071,-0.14199430882922354,0.018155377667192555, ,0.03663902460282522, ,0.19272989800243812, ,0.0010840334726982363, ,0.22596716389980914,-0.210104670576152,0.10996428070000001,1.6873749752199676,0.5168958786126612,-1.3358874255571564, ,0.16976197058760426,0.15330685227539706,0.027798972984293194,-0.05477374662181102,0.04021886991575243,-0.02975580246424455, ,1.2763628959655762
0.01823479520857948,0.021759849721661038,-0.0986266901390014, ,0.019107727814779565,0.02124049766112313,-0.0995640644290561, ,0.0013821752629127057, ,0.021480861104938433,-0.008821559000605217,-0.028122482811237668,0.03625524426304476,0.025473420246354943,-0.007612581219012456, ,0.03647082856858579, ,0.04430937017743297, ,0.0010866954529680085, ,0.22747309681028294,-0.20873002412454006,0.11022742757000001,1.6873749752199676,0.5182622436103156,-1.3372466408145423, ,0.16138935639195712,0.1480451506372399,0.02982923505617978,-0.036995669323494,0.1994852484704688,-0.18364504863888978, ,1.2816009521484375
0.01823479520857948,0.021759849721661038,-0.0986266901390014, ,0.019196664255992393,0.02121581836677716,-0.09969053791019544, ,0.0015339277231155141, ,0.021480861104938433,-0.008821559000605217,-0.028122482811237668,0.03625524426304476,0.025473420246354943,-0.007612581219012456, ,0.03647082856858579, ,0.04430937017743297, ,0.001090653260668429, ,0.22747309681028294,-0.20873002412454006,0.11022742757000001,1.6873749752199676,0.5182622436103156,-1.3372466408145423, ,0.16138935639195712,0.1480451506372399,0.02982923505617978,-0.036995669323494,0.1994852484704688,-0.18364504863888978, ,1.28535795211792
0.01852075164104929,0.02165338116281072,-0.09901719422205382, ,0.019285637852023498,0.02119096073207936,-0.09981634322870306, ,0.0011989673495657496, ,0.021152872523999493,-0.007238857364810478,-0.02946027580458323,0.07124205367424079,0.07266794215544199,-0.03716413363313455, ,0.036983143760999496, ,0.1017646197726095, ,0.0010916033842552474, ,0.22961229381644313,-0.2068225091046066,0.11064483295000001,1.687165285276483,0.5214048831049207,-1.3399726100798413, ,0.15633763024459765,0.1363461804001017,0.03160478476190477,0.0,0.23482367959688563,-0.19738016993187796, ,1.288985013961792
0.01852075164104929,0.02165338116281072,-0.09901719422205382, ,0.019374647844967466,0.021165936094682453,-0.09994149199106109, ,0.0013494694465975329, ,0.021152872523999493,-0.007238857364810478,-0.02946027580458323,0.07124205367424079,0.07266794215544199,-0.03716413363313455, ,0.036983143760999496, ,0.1017646197726095, ,0.0010938456978408326, ,0.22961229381644313,-0.2068225091046066,0.11064483295000001,1.687165285276483,0.5214048831049207,-1.3399726100798413, ,0.15633763024459765,0.1363461804001017,0.03160478476190477,0.0,0.23482367959688563,-0.19738016993187796, ,1.292585849761963
0.018742883070099504,0.02158276988230865,-0.09933198402284306, ,0.01946369348041999,0.021140755709112335,-0.10006599571313395, ,0.0011196951988896322, ,0.02267147097960574,-0.006613500542980202,-0.033472527724918474,-0.05662734261618101,-0.048626599523535034,-0.0032061235334586453, ,0.040965157122932416, ,0.07464020427556861, ,0.0010940685383671153, ,0.23116456312416225,-0.2054710308516173,0.11097927577000001,1.6865362154460295,0.5229078846023405,-1.3411982070205017, ,0.15135078398480187,0.13576100366018712,0.03539735893333334,-0.027610360758222936,0.11111504770546593,-0.07794041826306011, ,1.2966728210449219
0.018742883070099504,0.02158276988230865,-0.09933198402284306, ,0.019552774007471387,0.021115430746979726,-0.10018986582042305, ,0.001268972173243438, ,0.02267147097960574,-0.006613500542980202,-0.033472527724918474,-0.05662734261618101,-0.048626599523535034,-0.0032061235334586453, ,0.040965157122932416, ,0.07464020427556861, ,0.001095563441229306, ,0.23116456312416225,-0.2054710308516173,0.11097927577000001,1.6865362154460295,0.5229078846023405,-1.3411982070205017, ,0.15135078398480187,0.13576100366018712,0.03539735893333334,-0.027610360758222936,0.11111504770546593,-0.07794041826306011, ,1.300238847732544
0.018742883070099504,0.02158276988230865,-0.09933198402284306, ,0.01964188867869997,0.021089972297191333,-0.10031311364831917, ,0.0014190404808106967, ,0.02267147097960574,-0.006613500542980202,-0.033472527724918474,-0.05662734261618101,-0.048626599523535034,-0.0032061235334586453, ,0.040965157122932416, ,0.07464020427556861, ,0.0010983047720732162, ,0.23116456312416225,-0.2054710308516173,0.11097927577000001,1.6865362154460295,0.5229078846023405,-1.3411982070205017, ,0.15135078398480187,0.13576100366018712,0.03539735893333334,-0.027610360758222936,0.11111504770546593,-0.07794041826306011, ,1.3037679195404053
0.018980300358598816,0.0215167682357034,-0.09970153176224789, ,0.019731036750165742,0.021064391366161107,-0.1004357504423572, ,0.0011433840264501133, ,0.02323479164724658,-0.0056993731273160845,-0.037195769817655044,-0.059073406480797425,-0.05281495327268605,0.04719319901195725, ,0.04422514770199541, ,0.07924023879600299, ,0.0010986835893368875, ,0.23270910969900716,-0.20408093893425688,0.11136945906000001,1.6854877657286067,0.5241376131002295,-1.3422009681537694, ,0.14758466805360929,0.13125441432706886,0.039330398814814815,-0.08077971843226804,0.11387005010440907,-0.08327889849073516, ,1.3073549270629883
0.018980300358598816,0.0215167682357034,-0.09970153176224789, ,0.019820217481404077,0.02103869887802222,-0.10055778735847015, ,0.0012911950782113113, ,0.02323479164724658,-0.0056993731273160845,-0.037195769817655044,-0.059073406480797425,-0.05281495327268605,0.04719319901195725, ,0.04422514770199541, ,0.07924023879600299, ,0.0011002878517441745, ,0.23270910969900716,-0.20408093893425688,0.11136945906000001,1.6854877657286067,0.5241376131002295,-1.3422009681537694, ,0.14758466805360929,0.13125441432706886,0.039330398814814815,-0.08077971843226804,0.11387005010440907,-0.08327889849073516, ,1.310999870300293
0.019178433435856193,0.021473470858186672,-0.10002263167209456, ,0.019909430135419005,0.02101290567483776,-0.1006792354632429, ,0.001085175101739486, ,0.02245104861971181,-0.005041754628285205,-0.03688718407816209,-0.008934007378137439,-0.0004643663589508352,0.010863013323344353, ,0.04347566242247165, ,0.008942249758295984, ,0.0011001629529838054, ,0.2339601924246315,-0.2029765881332428,0.11171038333000001,1.6854877657286067,0.5252307050983531,-1.3430923113833408, ,0.1427021677570989,0.12535923587644754,0.03923352591133005,-0.04291446056957303,0.15457317013754357,-0.1180856734207452, ,1.3174870014190674
0.019178433435856193,0.021473470858186672,-0.10002263167209456, ,0.019998673978676895,0.020987022516812635,-0.10080010573416569, ,0.001230403370486983, ,0.02245104861971181,-0.005041754628285205,-0.03688718407816209,-0.008934007378137439,-0.0004643663589508352,0.010863013323344353, ,0.04347566242247165, ,0.008942249758295984, ,0.0011012304973895691, ,0.2339601924246315,-0.2029765881332428,0.11171038333000001,1.6854877657286067,0.5252307050983531,-1.3430923113833408, ,0.1427021677570989,0.12535923587644754,0.03923352591133005,-0.04291446056957303,0.15457317013754357,-0.1180856734207452, ,1.3213858604431152
0.019178433435856193,0.021473470858186672,-0.10002263167209456, ,0.020087948281100027,0.020961060082504715,-0.10092040905988803, ,0.0013768755553016255, ,0.02245104861971181,-0.005041754628285205,-0.03688718407816209,-0.008934007378137439,-0.0004643663589508352,0.010863013323344353, ,0.04347566242247165, ,0.008942249758295984, ,0.0011034715141205616, ,0.2339601924246315,-0.2029765881332428,0.11171038333000001,1.6854877657286067,0.5252307050983531,-1.3430923113833408, ,0.1427021677570989,0.12535923587644754,0.03923352591133005,-0.04291446056957303,0.15457317013754357,-0.1180856734207452, ,1.3249518871307373
0.01941937187726917,0.02142185760653485,-0.10040937770142433, ,0.02017725231606009,0.020935028969036224,-0.10104015624047312, ,0.001099666516319932, ,0.020614355526931222,-0.004689176755947776,-0.03204405806094907,0.005408987620980329,0.0066489004248576015,-0.0034376440240542565, ,0.03838960392414483, ,0.008569202873285432, ,0.0011034408286544274, ,0.23551246173235066,-0.2016560008117504,0.11212389984000001,1.6854877657286067,0.5270069795953038,-1.3445407441313943, ,0.1346055908630791,0.1120388920406975,0.034329335172413794,-0.02538502084690504,0.14989840838824733,-0.11569696520247291, ,1.3285348415374756
0.01941937187726917,0.02142185760653485,-0.10040937770142433, ,0.02026658536037169,0.020908939692305114,-0.10115935798765151, ,0.0012423066861358715, ,0.020614355526931222,-0.004689176755947776,-0.03204405806094907,0.005408987620980329,0.0066489004248576015,-0.0034376440240542565, ,0.03838960392414483, ,0.008569202873285432, ,0.001104551755514279, ,0.23551246173235066,-0.2016560008117504,0.11212389984000001,1.6854877657286067,0.5270069795953038,-1.3445407441313943, ,0.1346055908630791,0.1120388920406975,0.034329335172413794,-0.02538502084690504,0.14989840838824733,-0.11569696520247291, ,1.3321609497070312
0.01941937187726917,0.02142185760653485,-0.10040937770142433, ,0.020355946694286066,0.020882802687196982,-0.10127802492507436, ,0.0013864705525497081, ,0.020614355526931222,-0.004689176755947776,-0.03204405806094907,0.005408987620980329,0.0066489004248576015,-0.0034376440240542565, ,0.03838960392414483, ,0.008569202873285432, ,0.0011067892062844014, ,0.23551246173235066,-0.2016560008117504,0.11212389984000001,1.6854877657286067,0.5270069795953038,-1.3445407441313943, ,0.1346055908630791,0.1120388920406975,0.034329335172413794,-0.02538502084690504,0.14989840838824733,-0.11569696520247291, ,1.3358018398284912
0.01962959102868952,0.021369977364698495,-0.10073625430688617, ,0.020445335601484385,0.020856628307795243,-0.10139616758856784, ,0.0011680975993501625, ,0.021269231743043775,-0.005585954330588659,-0.032457459879416936,-0.015508238914903714,-0.011971758973392695,-0.012294085335507734, ,0.03920548184306224, ,0.019590621857376544, ,0.0011072719495368877, ,0.2368871081839626,-0.20046669994911984,0.11247389814000001,1.6854877657286067,0.5286466175924891,-1.3458777589757513, ,0.1375317993601026,0.12088782364136405,0.03462785113043479,-0.018462690542024623,0.1323719530997998,-0.10232788401799173, ,1.339318037033081
0.01962959102868952,0.021369977364698495,-0.10073625430688617, ,0.020534751369071506,0.02083042682759405,-0.10151379642638735, ,0.001309580761728161, ,0.021269231743043775,-0.005585954330588659,-0.032457459879416936,-0.015508238914903714,-0.011971758973392695,-0.012294085335507734, ,0.03920548184306224, ,0.019590621857376544, ,0.001108852487132132, ,0.2368871081839626,-0.20046669994911984,0.11247389814000001,1.6854877657286067,0.5286466175924891,-1.3458777589757513, ,0.1375317993601026,0.12088782364136405,0.03462785113043479,-0.018462690542024623,0.1323719530997998,-0.10232788401799173, ,1.3429088592529297
0.019838919278311183,0.021315011677464586,-0.10105878915193925, ,0.02062419328756942,0.020804208439708507,-0.10163092179947054, ,0.0010976843734379052, ,0.020840761177358284,-0.00492565726742774,-0.03142565114880039,0.012475646514256393,0.010945183261695107,-0.012979821401247071, ,0.03802855474632118, ,0.016595425370254106, ,0.0011087659126073706, ,0.23824630916982611,-0.1992928445522377,0.11281871128000001,1.6848586958981533,0.530149619089909,-1.347103355916412, ,0.1365423619546342,0.1121713257192326,0.03381913273885351,-0.016705984155923063,0.154366694151116,-0.12094123534730243, ,1.347381830215454
0.019838919278311183,0.021315011677464586,-0.10105878915193925, ,0.020713660650910806,0.020777983257086685,-0.10174755398169179, ,0.001236110425461698, ,0.020840761177358284,-0.00492565726742774,-0.03142565114880039,0.012475646514256393,0.010945183261695107,-0.012979821401247071, ,0.03802855474632118, ,0.016595425370254106, ,0.001109745485783173, ,0.23824630916982611,-0.1992928445522377,0.11281871128000001,1.6848586958981533,0.530149619089909,-1.347103355916412, ,0.1365423619546342,0.1121713257192326,0.03381913273885351,-0.016705984155923063,0.154366694151116,-0.12094123534730243, ,1.3516879081726074
0.019838919278311183,0.021315011677464586,-0.10105878915193925, ,0.020803152756432554,0.02075176131272061,-0.10186370316011577, ,0.0013765477595321736, ,0.020840761177358284,-0.00492565726742774,-0.03142565114880039,0.012475646514256393,0.010945183261695107,-0.012979821401247071, ,0.03802855474632118, ,0.016595425370254106, ,0.0011117821443614097, ,0.23824630916982611,-0.1992928445522377,0.11281871128000001,1.6848586958981533,0.530149619089909,-1.347103355916412, ,0.1365423619546342,0.1121713257192326,0.03381913273885351,-0.016705984155923063,0.154366694151116,-0.12094123534730243, ,1.3555479049682617
0.02000650400231445,0.021272451378396055,-0.10130633057226837, ,0.020892668904869377,0.020725552559858133,-0.10197937943525137, ,0.001239911821139338, ,0.019854674338000804,-0.005403432266610327,-0.028992062043349275,0.018862359213413008,0.02151769647064793,0.0908443451601796, ,0.03555200184030889, ,0.02861432112432911, ,0.0011127528237309394, ,0.23936610543658868,-0.19840473027170188,0.11308574702000002,1.684019936124215,0.5315159840875633,-1.3482175349533763, ,0.13498853706752598,0.10674571603877478,0.03135592818897638,-0.12564681971001773,0.18542596762652025,-0.1467082290622574, ,1.3595819473266602
0.02000650400231445,0.021272451378396055,-0.10130633057226837, ,0.020982208400347216,0.020699366872213715,-0.1020945928213053, ,0.0013790512306740086, ,0.019854674338000804,-0.005403432266610327,-0.028992062043349275,0.018862359213413008,0.02151769647064793,0.0908443451601796, ,0.03555200184030889, ,0.02861432112432911, ,0.0011147550673921655, ,0.23936610543658868,-0.19840473027170188,0.11308574702000002,1.684019936124215,0.5315159840875633,-1.3482175349533763, ,0.13498853706752598,0.10674571603877478,0.03135592818897638,-0.12564681971001773,0.18542596762652025,-0.1467082290622574, ,1.3632190227508545
0.02000650400231445,0.021272451378396055,-0.10130633057226837, ,0.021071770550376966,0.020673214044180443,-0.10220935324643715, ,0.0015196473772562504, ,0.019854674338000804,-0.005403432266610327,-0.028992062043349275,0.018862359213413008,0.02151769647064793,0.0908443451601796, ,0.03555200184030889, ,0.02861432112432911, ,0.001117776651794136, ,0.23936610543658868,-0.19840473027170188,0.11308574702000002,1.684019936124215,0.5315159840875633,-1.3482175349533763, ,0.13498853706752598,0.10674571603877478,0.03135592818897638,-0.12564681971001773,0.18542596762652025,-0.1467082290622574, ,1.3668599128723145
0.0202415244141707,0.021205616281463113,-0.10162433074596994, ,0.021161354665847894,0.020647103791041076,-0.10232367055301128, ,0.001283393961171151, ,0.017103053845461652,-0.005415656764710598,-0.02132126402195731,-0.021518952633988554,-0.03173943391515694,-0.04508905392061909, ,0.027864674563467046, ,0.038346480692666406, ,0.0011190034466784103, ,0.2409801566073016,-0.19713047934745484,0.11343056016000001,1.6833908662937616,0.5332922585845141,-1.3495842889612892, ,0.11744670984959255,0.09683361383517426,0.023051825643994214,0.0215288166501779,0.08331587906229135,-0.06522770405095166, ,1.3704719543457031
0.0202415244141707,0.021205616281463113,-0.10162433074596994, ,0.021250960061021222,0.020621045749179424,-0.10243755449785244, ,0.0014219760556960226, ,0.017103053845461652,-0.005415656764710598,-0.02132126402195731,-0.021518952633988554,-0.03173943391515694,-0.04508905392061909, ,0.027864674563467046, ,0.038346480692666406, ,0.0011212311864505988, ,0.2409801566073016,-0.19713047934745484,0.11343056016000001,1.6833908662937616,0.5332922585845141,-1.3495842889612892, ,0.11744670984959255,0.09683361383517426,0.023051825643994214,0.0215288166501779,0.08331587906229135,-0.06522770405095166, ,1.374013900756836
0.0202415244141707,0.021205616281463113,-0.10162433074596994, ,0.021340586053523597,0.0205950494762918,-0.10255101475249818, ,0.0015618807760611644, ,0.017103053845461652,-0.005415656764710598,-0.02132126402195731,-0.021518952633988554,-0.03173943391515694,-0.04508905392061909, ,0.027864674563467046, ,0.038346480692666406, ,0.0011244476068127196, ,0.2409801566073016,-0.19713047934745484,0.11343056016000001,1.6833908662937616,0.5332922585845141,-1.3495842889612892, ,0.11744670984959255,0.09683361383517426,0.023051825643994214,0.0215288166501779,0.08331587906229135,-0.06522770405095166, ,1.3776218891143799
0.02043962629178521,0.021137883192089164,-0.1018750472201569, ,0.02143023196434068,0.020569124451598503,-0.10266406090345444, ,0.0013882826426251766, ,0.020260927740020047,-0.006649509658051966,-0.02794917731287703,0.017883478718169796,0.018918122610750474,-0.010307159490424489, ,0.03515505204156979, ,0.026032616453921575, ,0.001126359454898317, ,0.24234708032603933,-0.19594890121769848,0.11370148477000001,1.6838102461807307,0.5345219870824031,-1.3505053713544166, ,0.13733276636537015,0.11951755863787251,0.030168203636363643,-0.024567968328864584,0.16467425230064028,-0.1354744100742233, ,1.3811869621276855
0.02043962629178521,0.021137883192089164,-0.1018750472201569, ,0.021519897117810764,0.020543280076055066,-0.10277670245244744, ,0.0015275863579766258, ,0.020260927740020047,-0.006649509658051966,-0.02794917731287703,0.017883478718169796,0.018918122610750474,-0.010307159490424489, ,0.03515505204156979, ,0.026032616453921575, ,0.0011292459793808948, ,0.24234708032603933,-0.19594890121769848,0.11370148477000001,1.6838102461807307,0.5345219870824031,-1.3505053713544166, ,0.13733276636537015,0.11951755863787251,0.030168203636363643,-0.024567968328864584,0.16467425230064028,-0.1354744100742233, ,1.384760856628418
0.020653821146015855,0.021083290858584732,-0.1021960278057704, ,0.021609580841618202,0.020517525672563854,-0.10288894881667929, ,0.0013090860815126407, ,0.020260927740020047,-0.006649509658051966,-0.02794917731287703,0.017883478718169796,0.018918122610750474,-0.010307159490424489, ,0.03515505204156979, ,0.026032616453921575, ,0.0011305305515389788, ,0.24376806317489666,-0.1947827685536906,0.11405018678,1.6836005562372458,0.5367081710786501,-1.3522880578135592, ,0.13793160110242844,0.10292509930419824,0.035476194922048995,-0.022024090635278874,0.24189444015527045,-0.1984928046741955, ,1.3884468078613281
0.020653821146015855,0.021083290858584732,-0.1021960278057704, ,0.021699282466786995,0.020491870486185223,-0.10300080932908072, ,0.0014458356512340477, ,0.0209135405623921,-0.003962807717999243,-0.03239733048894797,0.09951645266263337,0.09442264271289173,-0.01147725185305745, ,0.03876424959514593, ,0.13718281276265923, ,0.001132766757919795, ,0.24376806317489666,-0.1947827685536906,0.11405018678,1.6836005562372458,0.5367081710786501,-1.3522880578135592, ,0.13793160110242844,0.10292509930419824,0.035476194922048995,-0.022024090635278874,0.24189444015527045,-0.1984928046741955, ,1.392421007156372
0.020653821146015855,0.021083290858584732,-0.1021960278057704, ,0.021789001327674223,0.02046632368434891,-0.10311229323856458, ,0.0015839270444840442, ,0.0209135405623921,-0.003962807717999243,-0.03239733048894797,0.09951645266263337,0.09442264271289173,-0.01147725185305745, ,0.03876424959514593, ,0.13718281276265923, ,0.0011359439430364444, ,0.24376806317489666,-0.1947827685536906,0.11405018678,1.6836005562372458,0.5367081710786501,-1.3522880578135592, ,0.13793160110242844,0.10292509930419824,0.035476194922048995,-0.022024090635278874,0.24189444015527045,-0.1984928046741955, ,1.3963549137115479
0.020871598663482496,0.021043795317847083,-0.10252564632411036, ,0.02187873676196373,0.020440894357065635,-0.10322340971028164, ,0.0013655366933937733, ,0.022997592719968655,-0.00396312007898021,-0.0339893763940989,0.06435456046200601,0.04550645299292099,0.007256871206601359, ,0.04122951975628262, ,0.07881815369424804, ,0.0011375494867452368, ,0.2451427096265086,-0.19380198147866406,0.1143975925,1.6829714864067924,0.5388943550748971,-1.354070744272702, ,0.15015338854188412,0.10509074369708835,0.03730400824355972,-0.04156384523360296,0.21070665877910372,-0.1729429136434634, ,1.4000699520111084
0.020871598663482496,0.021043795317847083,-0.10252564632411036, ,0.02196848811065968,0.020415591517138548,-0.10333416782587256, ,0.0015005044129775531, ,0.022997592719968655,-0.00396312007898021,-0.0339893763940989,0.06435456046200601,0.04550645299292099,0.007256871206601359, ,0.04122951975628262, ,0.07881815369424804, ,0.0011400700070662946, ,0.2451427096265086,-0.19380198147866406,0.1143975925,1.6829714864067924,0.5388943550748971,-1.354070744272702, ,0.15015338854188412,0.10509074369708835,0.03730400824355972,-0.04156384523360296,0.21070665877910372,-0.1729429136434634, ,1.4037079811096191
0.020871598663482496,0.021043795317847083,-0.10252564632411036, ,0.022058254718079904,0.02039042410037406,-0.10344457658372234, ,0.0016369115314412723, ,0.022997592719968655,-0.00396312007898021,-0.0339893763940989,0.06435456046200601,0.04550645299292099,0.007256871206601359, ,0.04122951975628262, ,0.07881815369424804, ,0.0011434965003378462, ,0.2451427096265086,-0.19380198147866406,0.1143975925,1.6829714864067924,0.5388943550748971,-1.354070744272702, ,0.15015338854188412,0.10509074369708835,0.03730400824355972,-0.04156384523360296,0.21070665877910372,-0.1729429136434634, ,1.4072988033294678
0.021104699274825136,0.021002253967034475,-0.10287007940294686, ,0.02214803593184959,0.020365400965793992,-0.1035546448992142, ,0.0014009864538102185, ,0.023952532543401614,-0.0042397421858286245,-0.036292592168818236,-0.0005267998444009981,-0.021486056947151916,0.055266885058674955, ,0.04369040484336549, ,0.021491049242780957, ,0.0011452601301561503, ,0.2466872562013535,-0.1927053534105242,0.11478777579,1.6823424165763388,0.5406706295718479,-1.355437498280615, ,0.1482764711851106,0.10832984196172464,0.03942775128712872,-0.09181872274386015,0.14739905252988214,-0.12312520027825921, ,1.4109368324279785
0.021104699274825136,0.021002253967034475,-0.10287007940294686, ,0.0222378311028948,0.020340530895846507,-0.10366438160498347, ,0.0015338778148493892, ,0.023952532543401614,-0.0042397421858286245,-0.036292592168818236,-0.0005267998444009981,-0.021486056947151916,0.055266885058674955, ,0.04369040484336549, ,0.021491049242780957, ,0.0011479037878751519, ,0.2466872562013535,-0.1927053534105242,0.11478777579,1.6823424165763388,0.5406706295718479,-1.355437498280615, ,0.1482764711851106,0.10832984196172464,0.03942775128712872,-0.09181872274386015,0.14739905252988214,-0.12312520027825921, ,1.4146130084991455
0.021353682574861817,0.020961849533689812,-0.10325633100294243, ,0.022327639585435877,0.02031582259661756,-0.10377379545117155, ,0.0012781676404331227, ,0.02538052838666809,-0.004326160830016139,-0.038792170354012286,-0.017888198987199667,-0.04182909937437359,0.01285639695875175, ,0.046558773281609775, ,0.045492563917638396, ,0.0011487839490410842, ,0.24818546637895306,-0.1915701116780132,0.11520647746000001,1.6821327266328545,0.5420369945695022,-1.356551677317579, ,0.15232253861712805,0.11488733844851184,0.04202852643799473,-0.04830651001785588,0.12217918337938431,-0.1023430370262158, ,1.419111967086792
0.021353682574861817,0.020961849533689812,-0.10325633100294243, ,0.02241746073698126,0.02029128469804239,-0.10388289510567959, ,0.0014049426151440851, ,0.02538052838666809,-0.004326160830016139,-0.038792170354012286,-0.017888198987199667,-0.04182909937437359,0.01285639695875175, ,0.046558773281609775, ,0.045492563917638396, ,0.0011505031347196278, ,0.24818546637895306,-0.1915701116780132,0.11520647746000001,1.6821327266328545,0.5420369945695022,-1.356551677317579, ,0.15232253861712805,0.11488733844851184,0.04202852643799473,-0.04830651001785588,0.12217918337938431,-0.1023430370262158, ,1.4231820106506348
0.021353682574861817,0.020961849533689812,-0.10325633100294243, ,0.02250729391832069,0.020266925754116715,-0.1039916891544223, ,0.0015344346848663998, ,0.02538052838666809,-0.004326160830016139,-0.038792170354012286,-0.017888198987199667,-0.04182909937437359,0.01285639695875175, ,0.046558773281609775, ,0.045492563917638396, ,0.0011530626783872728, ,0.24818546637895306,-0.1915701116780132,0.11520647746000001,1.6821327266328545,0.5420369945695022,-1.356551677317579, ,0.15232253861712805,0.11488733844851184,0.04202852643799473,-0.04830651001785588,0.12217918337938431,-0.1023430370262158, ,1.4267628192901611
0.021628037156470797,0.02091328225978433,-0.10365137552838954, ,0.022597138493518992,0.020242754243108518,-0.10410018610158189, ,0.0012610297987062176, ,0.023330083811515218,-0.004898688147751823,-0.0313760886066284,0.018940487684077825,-0.008724778189330987,-0.003760970338105131, ,0.039404934874609866, ,0.020852659775976064, ,0.0011537776924291203, ,0.2498921903441567,-0.19033447441813728,0.11563814203000002,1.6821327266328545,0.543539996066922,-1.3577772742582397, ,0.15159255840011304,0.10674571603877478,0.034552736485900216,-0.03004383950557268,0.151649030843853,-0.12617017721653534, ,1.430802822113037
0.021628037156470797,0.02091328225978433,-0.10365137552838954, ,0.0226869938299094,0.02021877856776905,-0.10420839436986194, ,0.0013834719383486829, ,0.023330083811515218,-0.004898688147751823,-0.0313760886066284,0.018940487684077825,-0.008724778189330987,-0.003760970338105131, ,0.039404934874609866, ,0.020852659775976064, ,0.001155288838783854, ,0.2498921903441567,-0.19033447441813728,0.11563814203000002,1.6821327266328545,0.543539996066922,-1.3577772742582397, ,0.15159255840011304,0.10674571603877478,0.034552736485900216,-0.03004383950557268,0.151649030843853,-0.12617017721653534, ,1.4350969791412354
0.021628037156470797,0.02091328225978433,-0.10365137552838954, ,0.022776859298087326,0.02019500705554434,-0.10431632230074095, ,0.001509260014760524, ,0.023330083811515218,-0.004898688147751823,-0.0313760886066284,0.018940487684077825,-0.008724778189330987,-0.003760970338105131, ,0.039404934874609866, ,0.020852659775976064, ,0.0011576023758817406, ,0.2498921903441567,-0.19033447441813728,0.11563814203000002,1.6821327266328545,0.543539996066922,-1.3577772742582397, ,0.15159255840011304,0.10674571603877478,0.034552736485900216,-0.03004383950557268,0.151649030843853,-0.12617017721653534, ,1.4387178421020508
0.021878287177985886,0.02085005643527126,-0.10395679765156583, ,0.02286673427190369,0.020171447958786615,-0.10442397815472704, ,0.0012867768821226617, ,0.02287272528639755,-0.006936668642755668,-0.025785284051108342,0.009952593793220133,-0.018317775837558965,-0.034648405839773695, ,0.03515906437154922, ,0.020846669662938234, ,0.0011584411713768117, ,0.25157574611073763,-0.1891451735555067,0.11597647372000001,1.6819230366893698,0.5450429975643419,-1.3590028711989004, ,0.15869053772319527,0.11615292724415029,0.0287005612972973,0.0,0.1432787020803765,-0.1191737461144928, ,1.4422969818115234
0.021878287177985886,0.02085005643527126,-0.10395679765156583, ,0.02295661812845859,0.020148109454965896,-0.10453137011161083, ,0.0014091347393877353, ,0.02287272528639755,-0.006936668642755668,-0.025785284051108342,0.009952593793220133,-0.018317775837558965,-0.034648405839773695, ,0.03515906437154922, ,0.020846669662938234, ,0.0011600585492349466, ,0.25157574611073763,-0.1891451735555067,0.11597647372000001,1.6819230366893698,0.5450429975643419,-1.3590028711989004, ,0.15869053772319527,0.11615292724415029,0.0287005612972973,0.0,0.1432787020803765,-0.1191737461144928, ,1.4459350109100342
0.021878287177985886,0.02085005643527126,-0.10395679765156583, ,0.02304651024809475,0.020124999646880866,-0.1046385062707195, ,0.001534659287709803, ,0.02287272528639755,-0.006936668642755668,-0.025785284051108342,0.009952593793220133,-0.018317775837558965,-0.034648405839773695, ,0.03515906437154922, ,0.020846669662938234, ,0.0011624598360200418, ,0.25157574611073763,-0.1891451735555067,0.11597647372000001,1.6819230366893698,0.5450429975643419,-1.3590028711989004, ,0.15869053772319527,0.11615292724415029,0.0287005612972973,0.0,0.1432787020803765,-0.1191737461144928, ,1.4495530128479004
0.022116436474423108,0.02077274936596336,-0.10421853793969721, ,0.02313641001439112,0.02010212656287093,-0.10474539465117146, ,0.0013295333620063415, ,0.02372164524806804,-0.007486879856984017,-0.025489524736729677,0.002918466568532744,-0.02632530320789651,0.03706836560495858, ,0.035615806807827, ,0.02648637906902466, ,0.0011635239986059417, ,0.2532438564115701,-0.18794042722712767,0.11626813897000002,1.6810842769154317,0.5465459990617618,-1.360228468139561, ,0.1676624409160261,0.1171567179734207,0.02859750721723519,-0.07655583271560285,0.1587610649389188,-0.13165801802744362, ,1.4531400203704834
0.022116436474423108,0.02077274936596336,-0.10421853793969721, ,0.02322631681415619,0.020079498157026757,-0.10485204319212878, ,0.0014538777500451919, ,0.02372164524806804,-0.007486879856984017,-0.025489524736729677,0.002918466568532744,-0.02632530320789651,0.03706836560495858, ,0.035615806807827, ,0.02648637906902466, ,0.0011653616805770762, ,0.2532438564115701,-0.18794042722712767,0.11626813897000002,1.6810842769154317,0.5465459990617618,-1.360228468139561, ,0.1676624409160261,0.1171567179734207,0.02859750721723519,-0.07655583271560285,0.1587610649389188,-0.13165801802744362, ,1.4567029476165771
0.02234977275959791,0.020701615787696664,-0.10446142369429529, ,0.02331623003742203,0.020057122309402757,-0.10495845975305247, ,0.001263509539784907, ,0.02441464377955154,-0.007450505217851662,-0.025044061571222877,0.01086677358734187,-0.023423937366769582,0.02094727997796874, ,0.035760171683967515, ,0.025821652890050565, ,0.0011659789627104587, ,0.2549119667124026,-0.1868206309603651,0.11654295245000001,1.6804552070849783,0.5481856370589472,-1.3616471617240586, ,0.17444290727660072,0.11658100928559063,0.028393603422459897,-0.05938704987653815,0.1652236955132264,-0.1347288449767189, ,1.461076021194458
0.02234977275959791,0.020701615787696664,-0.10446142369429529, ,0.023406149077437217,0.020035006826227643,-0.10506465211395537, ,0.001387149220051016, ,0.02441464377955154,-0.007450505217851662,-0.025044061571222877,0.01086677358734187,-0.023423937366769582,0.02094727997796874, ,0.035760171683967515, ,0.025821652890050565, ,0.0011673612768188372, ,0.2549119667124026,-0.1868206309603651,0.11654295245000001,1.6804552070849783,0.5481856370589472,-1.3616471617240586, ,0.17444290727660072,0.11658100928559063,0.028393603422459897,-0.05938704987653815,0.1652236955132264,-0.1347288449767189, ,1.4646940231323242
0.02234977275959791,0.020701615787696664,-0.10446142369429529, ,0.02349607333066072,0.02001315944011601,-0.10517062797565618, ,0.0015135877425652108, ,0.02441464377955154,-0.007450505217851662,-0.025044061571222877,0.01086677358734187,-0.023423937366769582,0.02094727997796874, ,0.035760171683967515, ,0.025821652890050565, ,0.0011695117517613613, ,0.2549119667124026,-0.1868206309603651,0.11654295245000001,1.6804552070849783,0.5481856370589472,-1.3616471617240586, ,0.17444290727660072,0.11658100928559063,0.028393603422459897,-0.05938704987653815,0.1652236955132264,-0.1347288449767189, ,1.4683709144592285
0.02234977275959791,0.020701615787696664,-0.10446142369429529, ,0.02358600219675548,0.019991587810279914,-0.10527639496003402, ,0.0016421270090919411, ,0.02441464377955154,-0.007450505217851662,-0.025044061571222877,0.01086677358734187,-0.023423937366769582,0.02094727997796874, ,0.035760171683967515, ,0.025821652890050565, ,0.0011724291298930314, ,0.2549119667124026,-0.1868206309603651,0.11654295245000001,1.6804552070849783,0.5481856370589472,-1.3616471617240586, ,0.17444290727660072,0.11658100928559063,0.028393603422459897,-0.05938704987653815,0.1652236955132264,-0.1347288449767189, ,1.4721159934997559
0.02268530392871913,0.020593618717045136,-0.10480253003068007, ,0.02367593507858153,0.01997029952273995,-0.10538196061028074, ,0.001305992607040074, ,0.023683885046665652,-0.008056347978643722,-0.02412553560500742,-0.002871595046704355,-0.030687063021372262,-0.048702657359549026, ,0.034754461898944, ,0.030820994823779625, ,0.0011732485377282894, ,0.257298291170538,-0.1851525206595326,0.11692924687000002,1.6802455171414936,0.5503718210551941,-1.3632664907029204, ,0.1661942934474094,0.12244766652705909,0.027182272218430035,0.013445336425805374,0.13562669229574523,-0.10913482036427785, ,1.4757428169250488
