NicholasDascanio/dvrk_moveit_final/test/execution/third_experiment_notsharpbends/thirdexp_300vel5.0/thirdexp_300vel5.0_7.csv
Current Position (x),Current Position (y),Current Position (z), ,Planned Position (x),Planned Position (y),Planned Position (z), ,Position Error,,Cartesian linear Velocity(x),Cartesian linear Velocity(y),Cartesian linear Velocity(z),Cartesian Angular Velocity(x),Cartesian Angular Velocity(y),Cartesian Angular Velocity(z), ,Total Linear Velocity, ,Total Angular Velocity, ,MSE, ,Joint 1 Position,Joint 2 Position,Joint 3 Position,Joint 4 Position,Joint 5 Position,Joint 6 Position, ,Joint 1 Velocity,Joint 2 Velocity,Joint 3 Velocity,Joint 4 Velocity,Joint 5 Velocity,Joint 6 Velocity, ,Time Stamp
0.007792436434320021,0.019685615365770674,-0.07322545098108828, ,0.008088214653114429,0.01965387108319672,-0.07372177901429089, ,0.0005786483999218354, ,0.0014931426398141583,0.0010195349034804024,-0.00606780795044688,0.24068167770913218,-0.0053010864606443196,-0.08102554371609241, ,0.006331446887225096, ,0.24074004962681295, ,4.822069999348629e-05, ,0.16078729844135428,-0.25510503503425824,0.08357311259000001,1.6926172238070805,0.4626511882057813,-1.2849568610981508, ,0.00325370851657679,0.007697983632543377,0.0049361052122714605,-0.001517342153263431,0.0,-0.28356429469289735, ,0.0362391471862793
0.007919195722267021,0.0197843878411723,-0.07370871292539634, ,0.008277634153396787,0.01968818660071992,-0.0743064917917988, ,0.0007036137865994034, ,0.00536303773552469,0.004281651556764345,-0.021059521883104892,0.052033395399614366,-0.1254338731472173,-0.057126822459640784, ,0.02214945091308537, ,0.13579810980722595, ,5.8284644841874484e-05, ,0.1611039304891975,-0.25475751205491814,0.08406570279,1.6926172238070805,0.45964518521094166,-1.2935322971358056, ,0.0130766076282859,0.015357977271155652,0.02149637182186235,-0.00147108327474005,-0.11712398585849407,-0.08069814786434426, ,0.07193613052368164
0.008115562141319733,0.019902725571232176,-0.0744215862422426, ,0.008466152765250605,0.019722133223450903,-0.07488597810542172, ,0.0006092513309401668, ,0.006499049325753988,0.00162036447670308,-0.01607899301154395,-0.15477251004433876,-0.22276912540974037,-0.021758133276347107, ,0.01741830185297131, ,0.27125746446232274, ,5.910979742066892e-05, ,0.16184531284512305,-0.25392345690450185,0.08479162519000001,1.691988153976627,0.456639182216102,-1.302679484354444, ,0.029471099862879126,0.031611239693028245,0.015849563701492538,-0.002189381795947066,-0.19993176076676797,0.1127706583014042, ,0.10752201080322266
0.008261679656639676,0.019917660678029213,-0.07489171170227002, ,0.008653772153674372,0.019755711997496248,-0.07546026282923837, ,0.0007093759830543012, ,0.0025639084310284813,0.0005145391899827647,-0.01399595716779257,0.11296311731677877,0.25001446251428344,0.03129762211530356, ,0.014238159785007726, ,0.27434995316781535, ,6.19259404884692e-05, ,0.16303461370775363,-0.252517919521393,0.08527254878000001,1.691988153976627,0.4592352757116453,-1.2954850481486522, ,0.035369713588695784,0.04245948168164241,0.014942599924953096,-0.002189381795947066,0.29664122069217885,-0.138390170441613, ,0.14410114288330078
0.00848868808978506,0.01993650072078689,-0.07556646846776517, ,0.008840493990966376,0.019788923974231473,-0.07602937077224223, ,0.0005998540086721506, ,0.0065812652165375945,0.0005535223701597239,-0.01733288286380897,0.05293130816166162,-0.05244991562570561,-0.034327556374570974, ,0.018548538142807845, ,0.07451654493081439, ,6.155275979207417e-05, ,0.16471816947433457,-0.2505254544398431,0.0859569899,1.6917784640331426,0.4608749137088306,-1.2988640314965232, ,0.04775890365297976,0.049502838580318606,0.017523445016501653,-0.00821559797975672,-0.003384559009265836,-0.1085312823579353, ,0.1797940731048584
0.008704544176278316,0.019945053315748102,-0.07611661386967904, ,0.009026319956676822,0.019821770210252946,-0.07659332667850652, ,0.0005882121037957176, ,0.006314977206848981,0.0005290454185036533,-0.016629033826812373,-0.01327635869602967,-0.04725134272756587,-0.01109003189815551, ,0.017795605979879753, ,0.04908105355662945, ,6.211402644235369e-05, ,0.16630905244642483,-0.24884962140613637,0.08651180202000001,1.691568774089658,0.46073827720906524,-1.3003045096554975, ,0.045470503861270134,0.046885840690944064,0.01683806714587738,-0.007947235331384632,0.0,-0.03593870084047657, ,0.2122650146484375
0.008889154682783763,0.019973021553354592,-0.07665849678057667, ,0.009211251737562145,0.019854251767332146,-0.0771521552273367, ,0.0006012914741007563, ,0.005921469235575712,0.0012561044398527769,-0.018311013156792975,0.008890148704083839,0.004828994674565953,0.014057091582311321, ,0.019285611193320604, ,0.01011691034830105, ,6.271781552977616e-05, ,0.1675987488364203,-0.24749042042027286,0.08706402156000001,1.69073001431572,0.46155809620765786,-1.3011363745579572, ,0.041989797149765834,0.04223272877546541,0.018806152916174736,-0.023990371080456537,0.05445874769140335,-0.05267852792566145, ,0.24431705474853516
0.009065610094012435,0.0200030394078869,-0.07717301129825643, ,0.009395291027541585,0.019886369712371895,-0.07770588103341797, ,0.0006373786083916998, ,0.0057254420172517485,0.0009678141211713603,-0.01640190668505723,-0.007150160026593346,-0.008952464194881316,0.007159630265995103, ,0.01739942221372237, ,0.011457321524214272, ,6.364083158830419e-05, ,0.16883438609629622,-0.24621616949602582,0.08759031530000001,1.69073001431572,0.4625145517060159,-1.3020796573641131, ,0.04117003972167929,0.039589879665611505,0.01682028671594509,-0.01487697323920557,0.03705752886360837,-0.03298870830906511, ,0.2764861583709717
0.009236424054291474,0.020038997699469256,-0.07768014007493759, ,0.00957843952765555,0.01991812511736469,-0.07825452864695141, ,0.0006793430626606517, ,0.00534769515353415,0.0012095927128275236,-0.016212442857927792,-0.018314768926635482,-0.021234770474748504,-0.007911510837096954, ,0.017114445985997675, ,0.028041845835977235, ,6.485191770609866e-05, ,0.16998507329455567,-0.24506548229776637,0.08811012759,1.6905203243722353,0.46333437070460853,-1.303074879746854, ,0.033687235200025124,0.03598670517954902,0.016575246118626433,0.0,0.012844331200860398,-0.01696014295125588, ,0.3092310428619385
0.009454231132567362,0.02009360586178423,-0.07835904080676212, ,0.009760698946025412,0.019949519059353008,-0.07879812255378525, ,0.0005545054624523535, ,0.005663279368149807,0.0012268326210688775,-0.016928028462070376,-0.0008211268341301673,-0.02151802834254195,-0.00297048865677755, ,0.01789234470645183, ,0.021533657445344207, ,6.455128062462923e-05, ,0.17135199701329343,-0.24363677671603484,0.08880623532000001,1.6901009444852664,0.46429082620296663,-1.304589913733994, ,0.03604137544947618,0.03693925323412642,0.01733276552774755,-0.010705220247169274,0.017566676696809173,-0.037771315676635234, ,0.34130001068115234
0.009617248584552401,0.020131644737554702,-0.07886194784474626, ,0.009942070997814915,0.01998055262039016,-0.07933668717553931, ,0.000594740161943665, ,0.005805922582455204,0.001566477607071921,-0.01800590526462165,-0.03717643594557884,-0.035247741849020714,0.0022013832273377804, ,0.018983551130530102, ,0.051229764809155066, ,6.468126775974246e-05, ,0.17237912048556528,-0.24254787138076916,0.08932215874,1.6901009444852664,0.46511064520155926,-1.3059118510772971, ,0.033215590324981024,0.03558190534625826,0.018414811005780348,-0.00844700651111099,0.0,0.0007504097242070507, ,0.37363600730895996
0.009752348690753393,0.020167433125970583,-0.07929328937319849, ,0.01012255740519268,0.020011226887503897,-0.07987024686972526, ,0.0007030894921566783, ,0.0055123423320959505,0.001178287494617938,-0.016912584279105927,-0.01367879516642615,-0.012593888470186502,0.006634903899209345, ,0.01782722037795155, ,0.018593388079617988, ,6.630968311131035e-05, ,0.1732054529031073,-0.24168292529885604,0.08976548992000001,1.6896815645982974,0.46593046420015194,-1.3068253947198973, ,0.03422176038891842,0.036512867086752894,0.01733276552774755,-0.014153087856899185,0.02583264487523653,-0.02380606598041376, ,0.4029080867767334
0.00989404931970958,0.020194292746379038,-0.07972352565838453, ,0.010302159897295785,0.0200415429526601,-0.08039882592986079, ,0.0008036897409291949, ,0.005655470174640168,0.001252422229308975,-0.01787387087255503,0.0331953154924967,0.020356921275380295,-0.000742229010303229, ,0.01878904373046917, ,0.038940100027757635, ,6.854912799687355e-05, ,0.17413218084801424,-0.24070986095670374,0.09020752481000001,1.6894718746548125,0.46702355619827546,-1.3079617741698903, ,0.037170756583811505,0.03852900591086918,0.018436124444444448,-0.012342081919906326,0.062358885351147086,-0.07185672918541154, ,0.43145108222961426
0.010083561675972429,0.020241857044209475,-0.08030212628746036, ,0.010480880210194346,0.020071501912728353,-0.08092244858558018, ,0.0007560969792314009, ,0.006654921950801873,0.0017785887306409859,-0.020869452825583053,-0.005023696392170514,-0.01067373589143971,-0.001201377396762727, ,0.021976929387047324, ,0.011796703124013493, ,7.014685072961519e-05, ,0.1752828680462737,-0.23954372829269585,0.09080252192,1.6894718746548125,0.46784337519686814,-1.30879363907235, ,0.03908440756114941,0.04053692505701443,0.021323710200803217,-0.009074510807001753,0.031678131045244716,-0.03577730875734236, ,0.4598820209503174
0.010305221657081842,0.020288668879521375,-0.08096968577085477, ,0.01065872008685683,0.020101104869448397,-0.08144113900274133, ,0.000618392713075052, ,0.006333711088306751,0.0004967431704166257,-0.0163742125699659,-0.041321847776288605,-0.043905559464833,0.0030157885660195716, ,0.017563527186016045, ,0.06029255408835503, ,7.056147324583353e-05, ,0.17671157362800524,-0.2381459136424612,0.09149085191,1.6888428048243591,0.4696196496938188,-1.3104871080408251, ,0.04124160867382476,0.04162146559582052,0.01667938379057592,-0.011325618672341987,0.0,-0.001663751347990996, ,0.4887111186981201
0.010482448532045092,0.020306935233088838,-0.08145274929261674, ,0.010835681277116163,0.020130352929397157,-0.08195492128352998, ,0.0006388516186292937, ,0.0062673916972261715,0.0006556507667302776,-0.016539004188469316,-0.017653034788651507,-0.017429823206633582,0.0012651025880020988, ,0.017698834316433924, ,0.024807803948744548, ,7.107078716818027e-05, ,0.1779240426892585,-0.23694116731408219,0.09198733098,1.6888428048243591,0.4708493781917078,-1.311653226654374, ,0.04228918964281229,0.04017652055820101,0.016981675394456292,-0.008541368458562336,0.02772699844565866,-0.022328810695496377, ,0.5174710750579834
0.010620887880507742,0.02032770836988464,-0.08183957572480408, ,0.011011765537636617,0.020159247203957387,-0.08246381946655978, ,0.0007555426899846866, ,0.007011898898939224,0.0012665593331557606,-0.019848804348455495,-0.026385702101809055,-0.032076533442024636,0.005940920160576124, ,0.02108900027921226, ,0.04153439769882573, ,7.27573700427386e-05, ,0.17878898877117164,-0.23608394396504326,0.09238399572000001,1.68842342493739,0.4712592876910041,-1.3119058016253227, ,0.042383627315082974,0.04167630283639472,0.020369324194373404,-0.01557377738127212,0.014367703142081278,-0.017044418362407738, ,0.5424489974975586
0.010817476813809448,0.020377250665462567,-0.08244876948855726, ,0.01118697463188092,0.020187788809285945,-0.08296785752697042, ,0.0006647381620827059, ,0.007535853385262421,0.0018296406451250925,-0.021848635007216344,-0.03324673793662402,-0.03366504662045127,0.00010398334130626088, ,0.023184035947457993, ,0.04731464856278261, ,7.372884861638571e-05, ,0.180040071496796,-0.23491008856816115,0.09301658524,1.6882137349939055,0.47358210818701657,-1.3140449422085836, ,0.04333193678468985,0.0406759286577243,0.022498321355932206,-0.0070545116271479085,0.01167195690550829,-0.007487854129417897, ,0.5676209926605225
0.010965176076951393,0.020412075568381982,-0.08287892570995031, ,0.011361310330078226,0.020215978866284345,-0.08346705937652384, ,0.0007357156195372906, ,0.006803315519404065,0.0012537102888398083,-0.019743022895938853,-0.01931265801836043,-0.018146326921528837,-0.0023209848709367636, ,0.020919938924730944, ,0.026500281901204254, ,7.504390058777847e-05, ,0.18089729484583492,-0.23409147888349333,0.09345991642000001,1.6882137349939055,0.47399201768631294,-1.3142975171795324, ,0.03993979021821161,0.04106315082582033,0.020291479643312103,-0.005842026564898024,0.023863584981187246,-0.021335310086261442, ,0.592736005783081
0.011165045787929557,0.02044559413316322,-0.0834587830709667, ,0.01153477440919228,0.02024381850056846,-0.08396144886369791, ,0.0006558090869086445, ,0.006948392360706436,0.0009556180320743786,-0.018205297999848286,-0.02212254055597336,-0.02494033544669302,-0.018628019966120072, ,0.01950964472984655, ,0.03333804332940403, ,7.579391083372212e-05, ,0.18215610030433352,-0.23287900982224008,0.09405880240000002,1.6873749752199676,0.4756316556834982,-1.3156345320238891, ,0.04355068451513115,0.040588939930911366,0.01873977825882353,0.011199996610277863,0.01650243202866444,-0.015332783439525292, ,0.6184790134429932
0.011296958774283548,0.020466363529573976,-0.08382475952269977, ,0.011707368652890224,0.02027130884243952,-0.08445104977377807, ,0.0007737713344566245, ,0.006552482999480905,0.0012814035554978241,-0.019218763151452746,0.03889331196244412,0.04273329052273717,-0.019020889448891857, ,0.020345463514065406, ,0.0577825337999464, ,7.713763436201256e-05, ,0.18299787818762397,-0.2320912910690692,0.09443731908000001,1.6873749752199676,0.4765881111818563,-1.316496136089905, ,0.04293979256039402,0.03980576407653976,0.020011069748743723,0.011199996610277863,0.08559583760196023,-0.07323455833812549, ,0.6439449787139893
0.01151320798730688,0.02050805638369739,-0.08444419608220578, ,0.011879094851511405,0.020298451026856058,-0.08493588582894704, ,0.0006477394615618866, ,0.007104395641823544,0.0014915865857485708,-0.02039008192399223,-0.009476651280288913,-0.011613151283976334,-0.001989661290523016, ,0.021643768360557297, ,0.014988951856428151, ,7.771091106960723e-05, ,0.1843261882419906,-0.23084793107631904,0.09507898263,1.6873749752199676,0.47822774917904154,-1.3178331509342618, ,0.04118790866253071,0.03879678722750236,0.02106985650793651,-0.006277099795118826,0.03193163049053852,-0.028807254251187738, ,0.6691751480102539
0.01165620912247119,0.02053544548256286,-0.08485345229771867, ,0.012049954802036881,0.020325246193405304,-0.08541598068837468, ,0.000718093024358986, ,0.007138917599804938,0.001289974812682229,-0.02019430836309068,-0.008288431453070743,-0.01167037382868115,0.02583580583300777, ,0.021457825373922528, ,0.014314061714159988, ,7.900899126518117e-05, ,0.18516024339240683,-0.23006793505602235,0.09550157317,1.6867459053895137,0.4789109316778688,-1.3183902404527439, ,0.04251655087745106,0.03887625627139319,0.020876555072083886,-0.035305026723096586,0.04003494259669486,-0.03500061675223165, ,0.6919550895690918
0.011796377093826551,0.020562756164180622,-0.08525328315497535, ,0.01221995030805899,0.02035169548627599,-0.08589135794830409, ,0.0007944182270405648, ,0.0071604133791577556,0.001744912380670375,-0.02083438901174147,0.023669738367644792,0.025784358000562686,-0.03507126961587863, ,0.02209950235795394, ,0.035001224354496915, ,8.061081266242855e-05, ,0.18600974400857154,-0.22929566176859992,0.09591638597,1.6865362154460295,0.48000402367599226,-1.3192815836823155, ,0.042842863006081616,0.03838873040391213,0.02170137809264305,0.028386037604139106,0.06398432362927409,-0.05422438964524831, ,0.71315598487854
0.01194458416493401,0.020600463180458946,-0.0856955799703073, ,0.01238908317975088,0.02037780005423143,-0.08636204114213861, ,0.0008314618064068463, ,0.0073884657769016865,0.002068575385202309,-0.02270304773947167,-0.0005606917937080773,0.0007875926783827838,-0.0077029538633024775, ,0.023964490550008398, ,0.0009636628442310288, ,8.229914727617747e-05, ,0.1868206309603651,-0.22852338848117745,0.09636619860000001,1.6867459053895137,0.48096047917435036,-1.3200615090081902, ,0.03908440756114941,0.0377024003013392,0.02363325151335312,0.0,0.041683249831766384,-0.035801311789153537, ,0.7356081008911133
0.01209347959322472,0.02063667941655565,-0.08615437211900268, ,0.012557355233837086,0.020403561050582126,-0.08682805374052599, ,0.000850512615829995, ,0.0076856793326651445,0.0015132246707653123,-0.022029294485517444,0.005659745583778401,0.006194061746192435,0.004043851896956166, ,0.023380533168394987, ,0.008390109233686962, ,8.398177808831392e-05, ,0.18765468611078137,-0.22771250152938388,0.09685101106,1.686326525502545,0.4821902076722393,-1.321064270141458, ,0.04478383273169929,0.04131342688657849,0.0228533881205165,-0.013059369141110696,0.055475213956089016,-0.046852050134569286, ,0.7569751739501953
0.012248226138589512,0.020663904601223256,-0.08658694360310387, ,0.012724768293563258,0.020428979633160184,-0.08728941915144303, ,0.0008807690174505798, ,0.007403737748265155,0.001269615844777837,-0.021060305924310553,0.006728827439398673,0.009884215263148463,0.009995806522480671, ,0.022359869021618788, ,0.011957035042053952, ,8.57105778540052e-05, ,0.18853507765844296,-0.22687844637896765,0.09729823111000001,1.6861168355590603,0.48287339017106656,-1.3217030384000807, ,0.04311537553769685,0.04200838493070862,0.02161304141112619,-0.018807902904385256,0.021776895600339977,-0.017662162024268756, ,0.778594970703125
0.012473921475888846,0.02070147202606279,-0.08722329973323019, ,0.012891324188666954,0.020454056964292623,-0.08774616072027802, ,0.0007133181963204728, ,0.00763510273672521,0.001197828060810703,-0.02140071387576799,-0.011036600899441196,-0.008409126767673147,0.005262588196158201, ,0.022753464357238063, ,0.013874994900689464, ,8.659921503791787e-05, ,0.1898479422470611,-0.22561964092046904,0.09795804272000001,1.6861168355590603,0.4845130281682518,-1.323040053244438, ,0.04290096815482405,0.041952670892338985,0.022123349333333337,-0.014004123198248909,0.038700128862919854,-0.03146034237443057, ,0.8002190589904785
0.012550883716862745,0.02071317587116363,-0.08743896299107007, ,0.013057024755347816,0.02047879421077624,-0.08819830172991382, ,0.0009421830150631625, ,0.00767417592321181,0.0009609932081170689,-0.021014984208670887,-0.01333885905501759,-0.010265697648381936,0.003438120895319412, ,0.02239299098684983, ,0.01683168471678018, ,8.88227387928243e-05, ,0.1902804152880177,-0.22518716787951248,0.09818100460000001,1.6861168355590603,0.4849229376675481,-1.323374306955527, ,0.04381206904823212,0.04343109453476923,0.02170137809264305,-0.012413114300514956,0.0373557195440927,-0.030363942946157428, ,0.8178160190582275
0.01273825394500333,0.02074354084784496,-0.08796573351677216, ,0.013221871836238592,0.02050319254385164,-0.08864586540080842, ,0.000868465860951379, ,0.00812200025889148,0.0013943622350796464,-0.021943946114954857,0.01513158616476122,0.014394671401283459,0.001949865386805173, ,0.023440305146138603, ,0.020884596627696754, ,9.063620959191514e-05, ,0.19136932062328335,-0.2241832126058633,0.09872803898000002,1.6854877657286067,0.486425939164968,-1.3246815826363285, ,0.048941176667597105,0.04106315082582033,0.022886223448275865,-0.0108262098285492,0.0675740787072209,-0.05529037803990381, ,0.8365871906280518
0.012912348058386341,0.020770850116810933,-0.08843585662418604, ,0.01338586728037569,0.020527253139178605,-0.08908887489107657, ,0.0008426107037046903, ,0.009469309777196346,0.0023371526609434244,-0.026999076939365173,-0.0002992017178844079,0.0020607101461544725,-0.040806584678635426, ,0.02870679825049846, ,0.0020788702508917193, ,9.226562237745954e-05, ,0.1923578304311841,-0.22329509832532748,0.09921544402000002,1.6850683858416375,0.48724575816356064,-1.3253500900585067, ,0.05023660220141386,0.045038890155895,0.028093142010582012,0.03368373293190095,0.04607933376500099,-0.03609871943411982, ,0.8541209697723389
0.013094938120607283,0.02081979171596331,-0.08897675692811709, ,0.013549012943170166,0.020550977176810706,-0.08952735329656915, ,0.0007626280626215756, ,0.00928614546149346,0.0022450126197204215,-0.026714266286655106,0.008217878531370636,0.00951768929034038,-0.00046248177806608215, ,0.028371193179509337, ,0.012574034015744499, ,9.350045824112462e-05, ,0.1933463402390848,-0.22243787497628856,0.09978062646000001,1.6852780757851225,0.48888539616074594,-1.326687104902864, ,0.04994575871498462,0.042978687300032056,0.027847572587412592,-0.008329760966489755,0.0629938073573866,-0.04989133848559781, ,0.8727631568908691
0.013184204847798395,0.020838707741821973,-0.08922675666060277, ,0.013711310686378767,0.020574365841170606,-0.08996132365095337, ,0.0009419691443026313, ,0.009742951897359225,0.0019513591472829638,-0.027237876678027254,-0.03105067567621514,-0.031029399192873543,-0.0015435455297611088, ,0.028993703456498304, ,0.04389707372923456, ,9.540594761099211e-05, ,0.1938097042115383,-0.2220131246682062,0.10003988446,1.6852780757851225,0.48915866916027684,-1.3269099407102567, ,0.049788531772545004,0.046885840690944064,0.02819258676106195,-0.007577155516435979,0.02099716255540515,-0.015645890642945345, ,0.8904581069946289
0.01337424828907031,0.02086981877518318,-0.08973420401586227, ,0.013872762378074692,0.020597420321026207,-0.09039080892579257, ,0.0008682437575402189, ,0.008869868005987918,0.0009218214618490267,-0.022618323307743347,0.021580750581700944,0.022244399583689112,0.006413006096243902, ,0.024312812723022804, ,0.03099251827097175, ,9.732934669042394e-05, ,0.19487544134818127,-0.2210941194561735,0.10056747449000002,1.6848586958981533,0.4901151246586349,-1.3277715447762723, ,0.05510856071920487,0.04620104262827205,0.02363325151335312,-0.016857036905662447,0.0832492918885676,-0.06746940456871144, ,0.9049780368804932
0.013464912743397901,0.02087870953332263,-0.08997051497816969, ,0.014033369892619234,0.02062014180946538,-0.090815832030623, ,0.0010509813116749169, ,0.009507900367703317,0.0011468678661688363,-0.024696203398412254,0.016476738765880516,0.017210958898926296,0.006760131065683521, ,0.026488071609695796, ,0.0238262636613639, ,9.99039144916427e-05, ,0.1954237553822512,-0.22060758728509736,0.10081376959,1.6846490059546686,0.4909349436572275,-1.328440052198451, ,0.056995160095177654,0.04859034385994407,0.0257747759223301,-0.01775670200887353,0.08019056484387621,-0.06500452670655248, ,0.9195091724395752
0.01367283564652783,0.020920984477842092,-0.09053300991924906, ,0.014193135110632455,0.02064253150387275,-0.09123641581303413, ,0.0009181652588023002, ,0.011070678248395876,0.0026459215319968366,-0.03080109925976591,-0.022232517938496135,-0.028271460001940404,0.005549580838436906, ,0.03283699945553707, ,0.03596571398026919, ,0.00010189069457147309, ,0.19656671984763643,-0.21966541387444197,0.10140098896000001,1.6846490059546686,0.4921646721551165,-1.3294428133317187, ,0.05578891332067653,0.046701250766963964,0.03204992257545272,-0.015627594465265442,0.03175230233334886,-0.025551931664358676, ,0.933866024017334
0.013789209132921948,0.02094434319012396,-0.0908568162830556, ,0.014352059918964585,0.02066459060590503,-0.09165258305874471, ,0.0010140548688392708, ,0.011136033822060853,0.002280552403783274,-0.03144761170813017,-0.03328608476572594,-0.03320230625469977,-0.003148250118238271, ,0.033438966053061674, ,0.047014102384930166, ,0.00010417934396978773, ,0.19714592481320328,-0.21913254530612047,0.10173672807,1.6844393160111841,0.49243794515464734,-1.3296656491391112, ,0.05388809855676932,0.0519414020571816,0.03257425668711657,-0.007539269203856128,0.022920935299107964,-0.018371480294524137, ,0.9480280876159668
0.014012610154593375,0.020994741387695127,-0.09148990186351814, ,0.014510146210667554,0.020686320321467645,-0.09206435649168174, ,0.000820160838497741, ,0.011703946800284972,0.0025045707343935276,-0.031980910667781075,0.0023988579751213386,-0.0032550981986895424,0.002473844032408877, ,0.03414723843018751, ,0.0040393971579503075, ,0.00010567913379364865, ,0.1982811665457143,-0.2181363127653455,0.10239653968000001,1.6842296260676997,0.49366767365253633,-1.3305867315322386, ,0.06146174971403549,0.05039667634544386,0.033393734842767295,-0.014285140603268775,0.06290772051704624,-0.05270663248120115, ,0.9644341468811035
0.014127778403821685,0.021013849918492172,-0.09179471778553508, ,0.014667395884965883,0.020707721860691232,-0.09247175877405682, ,0.0009183060023041778, ,0.01091919764753893,0.0015024368197658659,-0.028050610902113707,-0.007122509436325612,-0.011822886713644532,-0.0013027609118432435, ,0.030138396865878388, ,0.013801935532433009, ,0.00010749447982709036, ,0.19889898517565224,-0.21761116692989824,0.10271413073,1.684019936124215,0.49421421965159806,-1.3310324031470242, ,0.06013747880764941,0.051323386456717565,0.029227177100917434,-0.01042320312729367,0.0518816699903349,-0.04369716361741135, ,0.9791421890258789
0.01423225889279935,0.021023620902762698,-0.0920500665330532, ,0.014823810847228324,0.020728796437907628,-0.09287481250644304, ,0.001056911112860763, ,0.010635893281257415,0.0006442434518864129,-0.025080701679890793,-0.022784702999855348,-0.02945918462208766,-0.002951221595133552, ,0.027250300406991335, ,0.03724213104970613, ,0.00011015544965817547, ,0.19949363560696753,-0.21710918929307363,0.10297987018000002,1.6838102461807307,0.49462412915089443,-1.3313666568581137, ,0.061661430512326684,0.05301505114998367,0.026070067954173493,-0.008843080822517134,0.034987151029182685,-0.02990365054936378, ,0.9900979995727539
0.01434273200603132,0.02103074079941223,-0.092316545068301, ,0.014979393008939124,0.02074954527162656,-0.09327354022785167, ,0.0011833207058416747, ,0.011092228455728112,0.0008083476646405399,-0.026892045090650265,-0.00905347410116876,-0.015626172360483158,-0.004450081437592968, ,0.02910108326537968, ,0.01805903074936834, ,0.00011321227531002903, ,0.20013462243552818,-0.21654542979325525,0.10325727624000001,1.6838102461807307,0.49517067514995616,-1.3319756859531804, ,0.06360384822953806,0.05536577687191993,0.027994396344463976,-0.008843080822517134,0.05115481055514277,-0.04556844680850805, ,1.0009241104125977
0.01445392059289217,0.02104388052174679,-0.09260104680742, ,0.01513414428766939,0.02076996958451305,-0.09366796441580902, ,0.0012946214348461818, ,0.011306398264890076,0.0015847605599058744,-0.029772517030167263,0.017896493055926818,0.017006509373854468,-0.004225129087979117, ,0.03188649993442589, ,0.024687697993602303, ,0.00011659874555441235, ,0.20075244106546614,-0.21600483849205954,0.10355412665000001,1.6838102461807307,0.49585385764878337,-1.3326961329519438, ,0.06202414480945802,0.053857515072911914,0.031110960000000003,-0.008843080822517134,0.08301624492451082,-0.07001517436336131, ,1.0117621421813965
0.014574831154708421,0.021061509673860418,-0.09292456753052766, ,0.015288066607048614,0.020790070603363256,-0.09405810748643093, ,0.001366490691917238, ,0.012643299986300592,0.0022550603758664644,-0.034446873406911195,-5.4550281050210385e-05,-0.010283667793083952,-0.004145880589863456, ,0.03676309860925976, ,0.010281454089559435, ,0.00012016609452021586, ,0.20138570516115253,-0.2154333562593669,0.10389116205000001,1.6836005562372458,0.4965370401476106,-1.3334982586908475, ,0.06339141052670058,0.05706370508627226,0.035875701621621625,-0.011824034706772369,0.057013805924097855,-0.05696001964165584, ,1.0223770141601562
0.014859133335293635,0.021122788448823107,-0.09371434816609792, ,0.015441161896735943,0.020809849559082286,-0.09444399179450086, ,0.0009844124234871438, ,0.014447120781885139,0.0033728217712033883,-0.04061895321549744,0.00636369692701405,-0.016788499581365857,-0.004178801376668013, ,0.04324343402077881, ,0.01795103855385163, ,0.0001223324630616273, ,0.20272173794839338,-0.21427494632823324,0.10469875072000001,1.6829714864067924,0.4976301321457341,-1.3345529594007, ,0.06841884755477344,0.05901551091944699,0.042476830720000004,-0.015568346470081967,0.05551035375522605,-0.0674572304864701, ,1.0342481136322021
0.014859133335293635,0.021122788448823107,-0.09371434816609792, ,0.01559343209239174,0.02082930768666059,-0.09482563963354373, ,0.0013639260786615938, ,0.014447120781885139,0.0033728217712033883,-0.04061895321549744,0.00636369692701405,-0.016788499581365857,-0.004178801376668013, ,0.04324343402077881, ,0.01795103855385163, ,0.00012619198427727676, ,0.20272173794839338,-0.21427494632823324,0.10469875072000001,1.6829714864067924,0.4976301321457341,-1.3345529594007, ,0.06841884755477344,0.05901551091944699,0.042476830720000004,-0.015568346470081967,0.05551035375522605,-0.0674572304864701, ,1.0414741039276123
0.014997928537711753,0.021154082126577104,-0.09410073790318534, ,0.015744879135648985,0.020848446225151567,-0.09520307323590241, ,0.0013661960641706767, ,0.014470471124485493,0.00273767255884698,-0.039259315177960406,0.006138830692929774,-0.01468339061686805,-0.004405643216084711, ,0.041930695365644303, ,0.015912068953419366, ,0.00013000640926226348, ,0.20340906117419935,-0.21368029589691795,0.10511745239,1.6829714864067924,0.4981766781447959,-1.3351619884957668, ,0.070713071206014,0.06174166659627246,0.04094810159383034,-0.015568346470081967,0.06072538829957723,-0.0688095592574171, ,1.048539161682129
0.015151451073723838,0.021184735090663497,-0.09452263727026455, ,0.015895504974084748,0.020867266417648335,-0.09557631477281253, ,0.001328397095888137, ,0.01583938847922145,0.0033993571468708024,-0.043495869493073554,0.03937578474852737,0.005136319125296328,-0.009581442477620425, ,0.04641478772294625, ,0.039707411349975436, ,0.0001336403693893506, ,0.20415816626299912,-0.2130238636026089,0.10555819099000001,1.6829714864067924,0.4989964971433885,-1.336075532138367, ,0.07734062066705036,0.06433690953116662,0.04551089005714286,-0.015568346470081967,0.0877581367539175,-0.1044399061685149, ,1.0557401180267334
0.015151451073723838,0.021184735090663497,-0.09452263727026455, ,0.016045311561191523,0.02088576951126146,-0.09594538635447789, ,0.0017066288247164466, ,0.01583938847922145,0.0033993571468708024,-0.043495869493073554,0.03937578474852737,0.005136319125296328,-0.009581442477620425, ,0.04641478772294625, ,0.039707411349975436, ,0.000138503031841843, ,0.20415816626299912,-0.2130238636026089,0.10555819099000001,1.6829714864067924,0.4989964971433885,-1.336075532138367, ,0.07734062066705036,0.06433690953116662,0.04551089005714286,-0.015568346470081967,0.0877581367539175,-0.1044399061685149, ,1.0628571510314941
0.015320073414392427,0.021224373538847017,-0.09498641635777809, ,0.016194300856348886,0.020903956757095898,-0.09631031003014544, ,0.0016185286497408021, ,0.01781209688837971,0.0045223784340974685,-0.04942508954765077,0.04944266174735552,0.01849857413772067,-0.008113815359984023, ,0.052731036203127225, ,0.052787111147651625, ,0.00014300478548632997, ,0.20497677594766694,-0.2123674313082998,0.10604429974000001,1.6829714864067924,0.4999529526417466,-1.337018814944523, ,0.08595737460006411,0.0659923098459463,0.05188537954397395,-0.015568346470081967,0.11031670299476556,-0.1151249920094625, ,1.0702450275421143
0.015499525769402145,0.021272358371922023,-0.09548404973736592, ,0.01634247482479476,0.02092182941022891,-0.09667110778818014, ,0.0014975114286628352, ,0.017869310679531108,0.004939114396833798,-0.049939893684750464,0.04500182233718474,-0.0016000840338181548,-0.011546244124051643, ,0.05327006754670764, ,0.04502681041773484, ,0.00014704312501196388, ,0.20582627656383162,-0.21173416721261337,0.10656670461000001,1.682761796463308,0.5009094081401047,-1.3380437764908197, ,0.08251907961606154,0.06214599971085185,0.05239740631578948,-0.014869396989939063,0.08593720009040047,-0.10811171475461193, ,1.0775480270385742
0.015686758048996642,0.02131462363005824,-0.09599553721339894, ,0.01648983543759699,0.020939388729686988,-0.09702780155613967, ,0.0013606263983297288, ,0.019116395049907926,0.004144731353415762,-0.05277354447198328,0.0014542399509066865,-0.021433932542064094,-0.0010478156228900806, ,0.056281989604424335, ,0.02147368018652201, ,0.00015057471490701618, ,0.2067066681114932,-0.21103912125393318,0.10710207238000001,1.6821327266328545,0.5017292271386973,-1.3387939626531389, ,0.0870614142738264,0.07513613741763323,0.055116994878892746,-0.022682665254505577,0.07198081524176633,-0.0784400553069739, ,1.0847141742706299
0.015686758048996642,0.02131462363005824,-0.09599553721339894, ,0.016636384671624697,0.02095663597842372,-0.09738041320084889, ,0.0017169238136103295, ,0.019116395049907926,0.004144731353415762,-0.05277354447198328,0.0014542399509066865,-0.021433932542064094,-0.0010478156228900806, ,0.056281989604424335, ,0.02147368018652201, ,0.00015523186748529348, ,0.2067066681114932,-0.21103912125393318,0.10710207238000001,1.6821327266328545,0.5017292271386973,-1.3387939626531389, ,0.0870614142738264,0.07513613741763323,0.055116994878892746,-0.022682665254505577,0.07198081524176633,-0.0784400553069739, ,1.0917940139770508
0.015876987554871512,0.021360319572163357,-0.09653190112338951, ,0.01678212450951987,0.020973572423297553,-0.09772896452847499, ,0.0015497764547252515, ,0.01949321715080752,0.004979411152017443,-0.05607588165019992,0.02750431854927323,0.024368486483437028,0.03517908195782377, ,0.05957587223999831, ,0.03673902828277713, ,0.00015928190905311918, ,0.20756389146053214,-0.21031318436375607,0.10766336595,1.6819230366893698,0.5026856826370554,-1.3397372454592948, ,0.08746261894789933,0.07211013796236382,0.058777902287822884,-0.05580894441060131,0.1264441785587554,-0.10592788906695394, ,1.098905086517334
0.015876987554871512,0.021360319572163357,-0.09653190112338951, ,0.016927056939668617,0.020990199335049045,-0.09807347728460103, ,0.0019016024199672676, ,0.01949321715080752,0.004979411152017443,-0.05607588165019992,0.02750431854927323,0.024368486483437028,0.03517908195782377, ,0.05957587223999831, ,0.03673902828277713, ,0.0001649572201635887, ,0.20756389146053214,-0.21031318436375607,0.10766336595,1.6819230366893698,0.5026856826370554,-1.3397372454592948, ,0.08746261894789933,0.07211013796236382,0.058777902287822884,-0.05580894441060131,0.1264441785587554,-0.10592788906695394, ,1.1026840209960938
0.016089183324311473,0.021409409749723895,-0.09711707175616704, ,0.017071183956172766,0.021006517988278888,-0.09841397315430078, ,0.0016758878986666982, ,0.020578422929408407,0.004321573531801597,-0.054164686288403874,0.017560935909792106,0.003924463033756284,-0.03209828391783797, ,0.058103018241512865, ,0.017981147643749657, ,0.00016986283924963776, ,0.2085601240013071,-0.20951774287771094,0.10827780741000001,1.6817133467458854,0.5040520476347098,-1.3410147819765401, ,0.09885098079007372,0.07690189753522753,0.05688861257142858,0.013410671288130241,0.10234535254549472,-0.0874544780877549, ,1.1063029766082764
0.016089183324311473,0.021409409749723895,-0.09711707175616704, ,0.01721450755882108,0.02102252966142564,-0.09875047376221326, ,0.0020208990446957224, ,0.020578422929408407,0.004321573531801597,-0.054164686288403874,0.017560935909792106,0.003924463033756284,-0.03209828391783797, ,0.058103018241512865, ,0.017981147643749657, ,0.0009533097111155114, ,0.2085601240013071,-0.20951774287771094,0.10827780741000001,1.6817133467458854,0.5040520476347098,-1.3410147819765401, ,0.09885098079007372,0.07690189753522753,0.05688861257142858,0.013410671288130241,0.10234535254549472,-0.0874544780877549, ,1.1098849773406982
0.016089183324311473,0.021409409749723895,-0.09711707175616704, ,0.017357029753060995,0.021038235636743216,-0.09908300067261622, ,0.0023685610174895063, ,0.020578422929408407,0.004321573531801597,-0.054164686288403874,0.017560935909792106,0.003924463033756284,-0.03209828391783797, ,0.058103018241512865, ,0.017981147643749657, ,0.0009777105957081665, ,0.2085601240013071,-0.20951774287771094,0.10827780741000001,1.6817133467458854,0.5040520476347098,-1.3410147819765401, ,0.09885098079007372,0.07690189753522753,0.05688861257142858,0.013410671288130241,0.10234535254549472,-0.0874544780877549, ,1.1134841442108154
0.016307958447514745,0.02145089084840989,-0.09767457300746178, ,0.017498752549969663,0.021053637200279057,-0.09941157538950064, ,0.002143123498682086, ,0.024187130262428757,0.004466860355965599,-0.06157186401704297,-0.03459619549976399,-0.06013572457124676,-0.01023059594746111, ,0.06630282460276202, ,0.06937086692186051, ,0.000997463356775521, ,0.20961041567220165,-0.20869913319304315,0.10886243420000001,1.6819230366893698,0.5047352301335369,-1.3414901927548817, ,0.11433366452827805,0.08935681879328698,0.06448911546558705,-0.012124462361006177,0.05803740813209178,-0.05397466219079413, ,1.1170389652252197
0.016307958447514745,0.02145089084840989,-0.09767457300746178, ,0.017639677966225682,0.021068735641851962,-0.09973621935664422, ,0.0024839293765146144, ,0.024187130262428757,0.004466860355965599,-0.06157186401704297,-0.03459619549976399,-0.06013572457124676,-0.01023059594746111, ,0.06630282460276202, ,0.06937086692186051, ,0.0010222377904378394, ,0.20961041567220165,-0.20869913319304315,0.10886243420000001,1.6819230366893698,0.5047352301335369,-1.3414901927548817, ,0.11433366452827805,0.08935681879328698,0.06448911546558705,-0.012124462361006177,0.05803740813209178,-0.05397466219079413, ,1.1206490993499756
0.01657467822077764,0.021512022929700825,-0.09838664702741366, ,0.01777980802408017,0.021083532255029916,-0.10005695395768634, ,0.0021037745464770807, ,0.028110606100694897,0.007688812190969288,-0.07822552514245412,0.09626823399870038,0.07817638779838341,-0.021764629627544288, ,0.08347788205308723, ,0.1240007714930488, ,0.001039967901192581, ,0.210861498397826,-0.20776468251526198,0.10961168982000001,1.6817133467458854,0.5062382316309569,-1.342797468435683, ,0.1284126408098387,0.09331066033281296,0.08253270217616582,-0.005739809126360145,0.2126540880510061,-0.1833318762074739, ,1.1246700286865234
0.01657467822077764,0.021512022929700825,-0.09838664702741366, ,0.01791914475132847,0.021098028337107902,-0.10037380051620129, ,0.0024346993166443364, ,0.028110606100694897,0.007688812190969288,-0.07822552514245412,0.09626823399870038,0.07817638779838341,-0.021764629627544288, ,0.08347788205308723, ,0.1240007714930488, ,0.0010624635691837384, ,0.210861498397826,-0.20776468251526198,0.10961168982000001,1.6817133467458854,0.5062382316309569,-1.342797468435683, ,0.1284126408098387,0.09331066033281296,0.08253270217616582,-0.005739809126360145,0.2126540880510061,-0.1833318762074739, ,1.128486156463623
0.01657467822077764,0.021512022929700825,-0.09838664702741366, ,0.01805769018128123,0.021112225189085974,-0.10068678029577144, ,0.0027658227999283803, ,0.028110606100694897,0.007688812190969288,-0.07822552514245412,0.09626823399870038,0.07817638779838341,-0.021764629627544288, ,0.08347788205308723, ,0.1240007714930488, ,0.001089501017290796, ,0.210861498397826,-0.20776468251526198,0.10961168982000001,1.6817133467458854,0.5062382316309569,-1.342797468435683, ,0.1284126408098387,0.09331066033281296,0.08253270217616582,-0.005739809126360145,0.2126540880510061,-0.1833318762074739, ,1.1322779655456543
0.0168482495357154,0.021589712513613888,-0.09915925724881677, ,0.018195446352735994,0.021126124115647828,-0.10099591450006286, ,0.0023244705472588775, ,0.030745312166019407,0.009092399392911807,-0.08720121533756789,0.11717689841845587,0.09072327909112585,0.01877251183839667, ,0.09290854591077771, ,0.14817589809981233, ,0.0011087974161965472, ,0.21208941292482772,-0.2068920137004746,0.11042705623000001,1.6810842769154317,0.508424415627204,-1.3447435123751068, ,0.13576100366018712,0.09537381061152843,0.09207405502890174,-0.052245491222413544,0.24255840929178452,-0.21559335912411876, ,1.1359190940856934
0.0168482495357154,0.021589712513613888,-0.09915925724881677, ,0.018332415309948343,0.021139726425137603,-0.1013012242728968, ,0.0026444769345700288, ,0.030745312166019407,0.009092399392911807,-0.08720121533756789,0.11717689841845587,0.09072327909112585,0.01877251183839667, ,0.09290854591077771, ,0.14817589809981233, ,0.0011324232549407545, ,0.21208941292482772,-0.2068920137004746,0.11042705623000001,1.6810842769154317,0.508424415627204,-1.3447435123751068, ,0.13576100366018712,0.09537381061152843,0.09207405502890174,-0.052245491222413544,0.24255840929178452,-0.21559335912411876, ,1.139557123184204
0.0168482495357154,0.021589712513613888,-0.09915925724881677, ,0.018468599102603404,0.021153033429538982,-0.101602730698325, ,0.0029642509745016975, ,0.030745312166019407,0.009092399392911807,-0.08720121533756789,0.11717689841845587,0.09072327909112585,0.01877251183839667, ,0.09290854591077771, ,0.14817589809981233, ,0.0011601782203886476, ,0.21208941292482772,-0.2068920137004746,0.11042705623000001,1.6810842769154317,0.508424415627204,-1.3447435123751068, ,0.13576100366018712,0.09537381061152843,0.09207405502890174,-0.052245491222413544,0.24255840929178452,-0.21559335912411876, ,1.1431820392608643
0.01720064563795389,0.021692378200305347,-0.10014506148712185, ,0.018603999785787088,0.021166046444452944,-0.1019004548007028, ,0.002308210056910767, ,0.03426727025049328,0.009546679932168834,-0.09584392810545815,0.012523626586110228,0.004027629354523125,0.04415923912551375, ,0.1022323014650059, ,0.012844273374361682, ,0.0011773130239188287, ,0.21361079130104993,-0.2058185538309574,0.11146668081000001,1.6806648970284628,0.5106105996234509,-1.3466078775743902, ,0.14291708066034756,0.10579369181546351,0.10081526278481012,-0.07120148634898837,0.16517164810058946,-0.1260205445169203, ,1.1467909812927246
0.01720064563795389,0.021692378200305347,-0.10014506148712185, ,0.018738619419957445,0.021178766789075622,-0.10219441754476234, ,0.0026132394239455907, ,0.03426727025049328,0.009546679932168834,-0.09584392810545815,0.012523626586110228,0.004027629354523125,0.04415923912551375, ,0.1022323014650059, ,0.012844273374361682, ,0.0011984295886251046, ,0.21361079130104993,-0.2058185538309574,0.11146668081000001,1.6806648970284628,0.5106105996234509,-1.3466078775743902, ,0.14291708066034756,0.10579369181546351,0.10081526278481012,-0.07120148634898837,0.16517164810058946,-0.1260205445169203, ,1.1503751277923584
0.01720064563795389,0.021692378200305347,-0.10014506148712185, ,0.018872460070915895,0.021191195786176988,-0.10248463983568708, ,0.002918865217780155, ,0.03426727025049328,0.009546679932168834,-0.09584392810545815,0.012523626586110228,0.004027629354523125,0.04415923912551375, ,0.1022323014650059, ,0.012844273374361682, ,0.0012233634383230039, ,0.21361079130104993,-0.2058185538309574,0.11146668081000001,1.6806648970284628,0.5106105996234509,-1.3466078775743902, ,0.14291708066034756,0.10579369181546351,0.10081526278481012,-0.07120148634898837,0.16517164810058946,-0.1260205445169203, ,1.1539039611816406
0.017565047361992256,0.02178466223457266,-0.10114343906018666, ,0.019005523809778716,0.02120333476207839,-0.10277114251918378, ,0.0022499627946557777, ,0.037033165630605755,0.009218075428870006,-0.10041647082198854,-0.027936044825536323,-0.04278300021592091,0.013883430712415127, ,0.10742390741161621, ,0.05099605603221447, ,0.0012380291434134722, ,0.21512444694439795,-0.20462925296832685,0.11251537942,1.6806648970284628,0.5119769646211053,-1.3477220566113544, ,0.15330685227539706,0.11730153468290579,0.10548881801324504,-0.0416792005406688,0.1217037462990352,-0.09189442423478605, ,1.1574511528015137
0.017565047361992256,0.02178466223457266,-0.10114343906018666, ,0.019137812712948007,0.02121518504663102,-0.10305394638155775, ,0.0025392781143004826, ,0.037033165630605755,0.009218075428870006,-0.10041647082198854,-0.027936044825536323,-0.04278300021592091,0.013883430712415127, ,0.10742390741161621, ,0.05099605603221447, ,0.0012563565937076554, ,0.21512444694439795,-0.20462925296832685,0.11251537942,1.6806648970284628,0.5119769646211053,-1.3477220566113544, ,0.15330685227539706,0.11730153468290579,0.10548881801324504,-0.0416792005406688,0.1217037462990352,-0.09189442423478605, ,1.1610419750213623
0.017934695817496137,0.021872941075503284,-0.10211990929921408, ,0.01926932886208329,0.021226747973194217,-0.10333307214978506, ,0.0019158744716659514, ,0.037809580983472785,0.007997687687864725,-0.09606908007761333,0.021370746222230008,-0.00305101995230651,-0.00046336449533238087, ,0.10355093224813233, ,0.0213970654799832, ,0.0012655165642348539, ,0.21672305264936242,-0.20346312030431893,0.11354463368,1.6806648970284628,0.5136166026182906,-1.3490590714557114, ,0.17067795244329276,0.11936722208612675,0.10145739821656052,-0.02967019891643238,0.17753123682981276,-0.13938919641528053, ,1.165235996246338
0.017934695817496137,0.021872941075503284,-0.10211990929921408, ,0.0194000743440725,0.02123802487861323,-0.10360854049158642, ,0.0021832259686364007, ,0.037809580983472785,0.007997687687864725,-0.09606908007761333,0.021370746222230008,-0.00305101995230651,-0.00046336449533238087, ,0.10355093224813233, ,0.0213970654799832, ,0.0012780879259389848, ,0.21672305264936242,-0.20346312030431893,0.11354463368,1.6806648970284628,0.5136166026182906,-1.3490590714557114, ,0.17067795244329276,0.11936722208612675,0.10145739821656052,-0.02967019891643238,0.17753123682981276,-0.13938919641528053, ,1.169435977935791
0.017934695817496137,0.021872941075503284,-0.10211990929921408, ,0.01953005125100355,0.021249017103197966,-0.10388037201550006, ,0.002456352795889036, ,0.037809580983472785,0.007997687687864725,-0.09606908007761333,0.021370746222230008,-0.00305101995230651,-0.00046336449533238087, ,0.10355093224813233, ,0.0213970654799832, ,0.001294010424181553, ,0.21672305264936242,-0.20346312030431893,0.11354463368,1.6806648970284628,0.5136166026182906,-1.3490590714557114, ,0.17067795244329276,0.11936722208612675,0.10145739821656052,-0.02967019891643238,0.17753123682981276,-0.13938919641528053, ,1.173084020614624
0.018168363598563365,0.02191489926845856,-0.10269402073244302, ,0.019659261680135216,0.021259725990700667,-0.10414858727095612, ,0.0021835276340098435, ,0.036850838683498484,0.005907961005789665,-0.08738478481592675,0.0429364870221344,0.014705965655993747,-0.030494670768378092, ,0.09502099206095978, ,0.045328930431044905, ,0.0013058706536459303, ,0.21781195798462807,-0.2026985697497707,0.11415129740000002,1.6804552070849783,0.5147096946164142,-1.3499504146852828, ,0.17905083312919012,0.1221324859182378,0.09260936930232559,0.0,0.19806795737018845,-0.1569426668991408, ,1.176743984222412
0.018168363598563365,0.02191489926845856,-0.10269402073244302, ,0.019787707733868693,0.021270152888294633,-0.10441320674834875, ,0.0024481776652375683, ,0.036850838683498484,0.005907961005789665,-0.08738478481592675,0.0429364870221344,0.014705965655993747,-0.030494670768378092, ,0.09502099206095978, ,0.045328930431044905, ,0.0013209010090616097, ,0.21781195798462807,-0.2026985697497707,0.11415129740000002,1.6804552070849783,0.5147096946164142,-1.3499504146852828, ,0.17905083312919012,0.1221324859182378,0.09260936930232559,0.0,0.19806795737018845,-0.1569426668991408, ,1.180366039276123
0.018168363598563365,0.02191489926845856,-0.10269402073244302, ,0.019915391519718485,0.021280299146552117,-0.10467425087911043, ,0.0027159041414950005, ,0.036850838683498484,0.005907961005789665,-0.08738478481592675,0.0429364870221344,0.014705965655993747,-0.030494670768378092, ,0.09502099206095978, ,0.045328930431044905, ,0.001339017932859446, ,0.21781195798462807,-0.2026985697497707,0.11415129740000002,1.6804552070849783,0.5147096946164142,-1.3499504146852828, ,0.17905083312919012,0.1221324859182378,0.09260936930232559,0.0,0.19806795737018845,-0.1569426668991408, ,1.1839680671691895
0.018682560559883286,0.021954992027486263,-0.10379818717388932, ,0.020042315150283933,0.021290166119422974,-0.10493174003578457, ,0.0018909965956761285, ,0.03577051966502901,0.0002940632398213879,-0.06967451841792807,-0.022462263145892492,-0.0626567797880511,0.023452925602316717, ,0.07832084695063914, ,0.06654910466283515, ,0.0013460945823827368, ,0.2204994690248582,-0.20087600479145373,0.11532314356000001,1.67961644731104,0.5171691516121921,-1.3518742582116778, ,0.19811470053960498,0.13498853706752598,0.07408749544186047,-0.05850346649315927,0.15029984017889736,-0.11790122231277403, ,1.1875371932983398
0.018682560559883286,0.021954992027486263,-0.10379818717388932, ,0.020168480743220286,0.021299755164212345,-0.10518569453209911, ,0.002135994102830722, ,0.03577051966502901,0.0002940632398213879,-0.06967451841792807,-0.022462263145892492,-0.0626567797880511,0.023452925602316717, ,0.07832084695063914, ,0.06654910466283515, ,0.0013560933104896733, ,0.2204994690248582,-0.20087600479145373,0.11532314356000001,1.67961644731104,0.5171691516121921,-1.3518742582116778, ,0.19811470053960498,0.13498853706752598,0.07408749544186047,-0.05850346649315927,0.15029984017889736,-0.11790122231277403, ,1.1911239624023438
0.019035569390149075,0.021948415092475936,-0.10445368511687994, ,0.02029389042120981,0.0213090676415597,-0.10543613462303968, ,0.0017196929994497115, ,0.03577051966502901,0.0002940632398213879,-0.06967451841792807,-0.022462263145892492,-0.0626567797880511,0.023452925602316717, ,0.07832084695063914, ,0.06654910466283515, ,0.0013606383066016737, ,0.22250737957215658,-0.19950908107271598,0.11602184387000002,1.6794067573675557,0.5186721531096119,-1.3530181764121978, ,0.20765195089380914,0.13673910887387722,0.06807184410256412,-0.06321601454079084,0.15085410709287084,-0.11699331668419062, ,1.1949360370635986
0.019035569390149075,0.021948415092475936,-0.10445368511687994, ,0.02041854631193311,0.021318104915416355,-0.10568308050492285, ,0.0019548220137990333, ,0.03574980456624306,-0.0012999790570411211,-0.06369865457451929,-0.026107848075708196,-0.07249137484855317,0.02757340142172426, ,0.07305653336066012, ,0.07704265350121249, ,0.001367973907925098, ,0.22250737957215658,-0.19950908107271598,0.11602184387000002,1.6794067573675557,0.5186721531096119,-1.3530181764121978, ,0.20765195089380914,0.13673910887387722,0.06807184410256412,-0.06321601454079084,0.15085410709287084,-0.11699331668419062, ,1.198801040649414
0.019035569390149075,0.021948415092475936,-0.10445368511687994, ,0.02054245054804029,0.021326868353024272,-0.10592655231546926, ,0.002196895299737996, ,0.03574980456624306,-0.0012999790570411211,-0.06369865457451929,-0.026107848075708196,-0.07249137484855317,0.02757340142172426, ,0.07305653336066012, ,0.07704265350121249, ,0.0013780827053862309, ,0.22250737957215658,-0.19950908107271598,0.11602184387000002,1.6794067573675557,0.5186721531096119,-1.3530181764121978, ,0.20765195089380914,0.13673910887387722,0.06807184410256412,-0.06321601454079084,0.15085410709287084,-0.11699331668419062, ,1.2026681900024414
0.01940253191655272,0.021928807133587153,-0.10509664572581455, ,0.02066560526712191,0.021335359324894387,-0.10616657013387677, ,0.0017584859480608958, ,0.034174452826384316,-0.0024142947208091086,-0.059516134666934534,0.007843631320975339,-0.024833788778173643,-0.05456061044369045, ,0.06867235492302838, ,0.026028693209654934, ,0.0013826658769847209, ,0.2246620220440652,-0.1980572072923618,0.11671017386000002,1.6791970674240708,0.5204484276065626,-1.3543849304201108, ,0.20062778342171414,0.1407966491965442,0.06371524608000001,0.020815473585314256,0.17534397648893796,-0.13601987217403075, ,1.2065811157226562
0.01940253191655272,0.021928807133587153,-0.10509664572581455, ,0.020788012611680458,0.02134357920478447,-0.1064031539808938, ,0.001992238014347819, ,0.034174452826384316,-0.0024142947208091086,-0.059516134666934534,0.007843631320975339,-0.024833788778173643,-0.05456061044369045, ,0.06867235492302838, ,0.026028693209654934, ,0.0013899226881438054, ,0.2246620220440652,-0.1980572072923618,0.11671017386000002,1.6791970674240708,0.5204484276065626,-1.3543849304201108, ,0.20062778342171414,0.1407966491965442,0.06371524608000001,0.020815473585314256,0.17534397648893796,-0.13601987217403075, ,1.2102291584014893
0.01940253191655272,0.021928807133587153,-0.10509664572581455, ,0.020909674729101255,0.0213515293696781,-0.10663632381889228, ,0.002230546503533162, ,0.034174452826384316,-0.0024142947208091086,-0.059516134666934534,0.007843631320975339,-0.024833788778173643,-0.05456061044369045, ,0.06867235492302838, ,0.026028693209654934, ,0.0013998123800895625, ,0.2246620220440652,-0.1980572072923618,0.11671017386000002,1.6791970674240708,0.5204484276065626,-1.3543849304201108, ,0.20062778342171414,0.1407966491965442,0.06371524608000001,0.020815473585314256,0.17534397648893796,-0.13601987217403075, ,1.2137641906738281
0.01975473047758882,0.021896027696910778,-0.1056937605298625, ,0.021030593771623862,0.0213592111997627,-0.10686609955194126, ,0.0018139398775496591, ,0.03434397144974434,-0.003280745631235765,-0.05813003478020805,-0.012205549625785721,-0.0470531736067114,-0.050373518121109975, ,0.06759713463147624, ,0.04860362991183752, ,0.0014046278161065405, ,0.2267394371872316,-0.1965821653133849,0.11734924483000002,1.6791970674240708,0.522088065603748,-1.3556402665243272, ,0.2010528422848957,0.14422027592472764,0.06222192000000001,0.015156530729361756,0.15423997829878724,-0.12105912318227414, ,1.2173411846160889
0.01975473047758882,0.021896027696910778,-0.1056937605298625, ,0.021150771896312755,0.02136662607840737,-0.1070925010258791, ,0.0020458916617610823, ,0.03434397144974434,-0.003280745631235765,-0.05813003478020805,-0.012205549625785721,-0.0470531736067114,-0.050373518121109975, ,0.06759713463147624, ,0.04860362991183752, ,0.0014119986649071673, ,0.2267394371872316,-0.1965821653133849,0.11734924483000002,1.6791970674240708,0.522088065603748,-1.3556402665243272, ,0.2010528422848957,0.14422027592472764,0.06222192000000001,0.015156530729361756,0.15423997829878724,-0.12105912318227414, ,1.2210760116577148
0.01975473047758882,0.021896027696910778,-0.1056937605298625, ,0.02127021126502895,0.02137377539214217,-0.10731554802838741, ,0.0022802684441328353, ,0.03434397144974434,-0.003280745631235765,-0.05813003478020805,-0.012205549625785721,-0.0470531736067114,-0.050373518121109975, ,0.06759713463147624, ,0.04860362991183752, ,0.0014218653669438226, ,0.2267394371872316,-0.1965821653133849,0.11734924483000002,1.6791970674240708,0.522088065603748,-1.3556402665243272, ,0.2010528422848957,0.14422027592472764,0.06222192000000001,0.015156530729361756,0.15423997829878724,-0.12105912318227414, ,1.2247591018676758
0.020087436592043057,0.021867704280895697,-0.10625982442565828, ,0.021388914044400787,0.0213806605306359,-0.10753526028906411, ,0.0018862109678730245, ,0.03761875995455594,-0.0029001159496826264,-0.06460143738954112,-0.018187395384475103,-0.05226631359504864,-0.03615795466127951, ,0.07481261582002668, ,0.05533013407212853, ,0.001427082733246398, ,0.22867012040578774,-0.19521524159464715,0.11795590855000002,1.6794067573675557,0.5235910671011678,-1.3566208272445661, ,0.21567486717834267,0.15110977955170507,0.06925570226086958,0.0,0.16693522846751577,-0.12440533292150129, ,1.2292699813842773
0.020087436592043057,0.021867704280895697,-0.10625982442565828, ,0.0215068824057952,0.02138728288667451,-0.10775165747949601, ,0.002114520511777256, ,0.03761875995455594,-0.0029001159496826264,-0.06460143738954112,-0.018187395384475103,-0.05226631359504864,-0.03615795466127951, ,0.07481261582002668, ,0.05533013407212853, ,0.0014347209307856298, ,0.22867012040578774,-0.19521524159464715,0.11795590855000002,1.6794067573675557,0.5235910671011678,-1.3566208272445661, ,0.21567486717834267,0.15110977955170507,0.06925570226086958,0.0,0.16693522846751577,-0.12440533292150129, ,1.23284912109375
0.020476236148449834,0.02184716090033354,-0.1069354109811913, ,0.021624118525288717,0.021393643856139528,-0.1079647592133322, ,0.0016071308109308837, ,0.037458403532380564,-0.0014836853552245078,-0.06431809839552176,-0.04721280979282095,-0.06171351129541821,-0.022810871071380703, ,0.07444562511419987, ,0.07769495603007381, ,0.0014366155448531602, ,0.2308710992749417,-0.19373247688279605,0.11868183095000001,1.6794067573675557,0.5253673415981185,-1.3574975088116357, ,0.2108820923521573,0.13615056177685905,0.06925570226086958,0.0,0.1525437223039152,-0.07957197148304707, ,1.2369470596313477
0.020476236148449834,0.02184716090033354,-0.1069354109811913, ,0.02174062458363868,0.02139974483798667,-0.10817458504635746, ,0.001826037133156306, ,0.037458403532380564,-0.0014836853552245078,-0.06431809839552176,-0.04721280979282095,-0.06171351129541821,-0.022810871071380703, ,0.07444562511419987, ,0.07769495603007381, ,0.0014408483882042812, ,0.2308710992749417,-0.19373247688279605,0.11868183095000001,1.6794067573675557,0.5253673415981185,-1.3574975088116357, ,0.2108820923521573,0.13615056177685905,0.06925570226086958,0.0,0.1525437223039152,-0.07957197148304707, ,1.2408580780029297
0.020476236148449834,0.02184716090033354,-0.1069354109811913, ,0.021856402766254154,0.02140558723422367,-0.10838115447656449, ,0.0020469541885242593, ,0.037458403532380564,-0.0014836853552245078,-0.06431809839552176,-0.04721280979282095,-0.06171351129541821,-0.022810871071380703, ,0.07444562511419987, ,0.07769495603007381, ,0.0014473656548743886, ,0.2308710992749417,-0.19373247688279605,0.11868183095000001,1.6794067573675557,0.5253673415981185,-1.3574975088116357, ,0.2108820923521573,0.13615056177685905,0.06925570226086958,0.0,0.1525437223039152,-0.07957197148304707, ,1.2444450855255127
0.020851652530799323,0.02182633945220105,-0.10755672687636988, ,0.021971455263167183,0.021411172449888955,-0.10858448694422748, ,0.001575630843919346, ,0.038070193665535025,-0.0025432612076890593,-0.06051812870350667,-0.06902246080283768,-0.0811474538942936,-0.006719398324739278, ,0.07154195779454234, ,0.10652791938815291, ,0.001448730178162101, ,0.2330102962811019,-0.19238099862980676,0.11935201288000001,1.6789873774805866,0.5267337065957729,-1.3581216154077567, ,0.22120499197778737,0.1371343086105069,0.06555066469135803,-0.01326150454770453,0.14584524995769704,-0.061295267295441165, ,1.2479991912841797
0.020851652530799323,0.02182633945220105,-0.10755672687636988, ,0.022085784269003747,0.02141650189303032,-0.10878460183197558, ,0.0017884979392647294, ,0.038070193665535025,-0.0025432612076890593,-0.06051812870350667,-0.06902246080283768,-0.0811474538942936,-0.006719398324739278, ,0.07154195779454234, ,0.10652791938815291, ,0.0014523066809105495, ,0.2330102962811019,-0.19238099862980676,0.11935201288000001,1.6789873774805866,0.5267337065957729,-1.3581216154077567, ,0.22120499197778737,0.1371343086105069,0.06555066469135803,-0.01326150454770453,0.14584524995769704,-0.061295267295441165, ,1.2515320777893066
0.020851652530799323,0.02182633945220105,-0.10755672687636988, ,0.022199391982954886,0.021421576974682825,-0.10898151846486501, ,0.0020025646967700506, ,0.038070193665535025,-0.0025432612076890593,-0.06051812870350667,-0.06902246080283768,-0.0811474538942936,-0.006719398324739278, ,0.07154195779454234, ,0.10652791938815291, ,0.0014580385352424192, ,0.2330102962811019,-0.19238099862980676,0.11935201288000001,1.6789873774805866,0.5267337065957729,-1.3581216154077567, ,0.22120499197778737,0.1371343086105069,0.06555066469135803,-0.01326150454770453,0.14584524995769704,-0.061295267295441165, ,1.2551040649414062
0.021219813664979506,0.021796414868502454,-0.10813427049568662, ,0.02231228060874771,0.021426399108847357,-0.10917525611045223, ,0.001553720288780547, ,0.03628544529326077,-0.003040133902154763,-0.05634212947828351,-0.03691805729919308,-0.056361167461212384,0.009241720832309567, ,0.06708436113149557, ,0.06737177740258618, ,0.001459024945072709, ,0.235180384218759,-0.1910372431096917,0.11997941724000001,1.6785679975936174,0.5285099810927236,-1.3591616544551073, ,0.21325155406397928,0.13180130772009832,0.061264659692307696,-0.034517342065331524,0.1670099528413975,-0.09328385802970679, ,1.2594761848449707
0.021219813664979506,0.021796414868502454,-0.10813427049568662, ,0.0224244523546165,0.02143096971246933,-0.10936583397886816, ,0.0017610943040463959, ,0.03628544529326077,-0.003040133902154763,-0.05634212947828351,-0.03691805729919308,-0.056361167461212384,0.009241720832309567, ,0.06708436113149557, ,0.06737177740258618, ,0.0014621072854703997, ,0.235180384218759,-0.1910372431096917,0.11997941724000001,1.6785679975936174,0.5285099810927236,-1.3591616544551073, ,0.21325155406397928,0.13180130772009832,0.061264659692307696,-0.034517342065331524,0.1670099528413975,-0.09328385802970679, ,1.2630059719085693
0.021588976369346802,0.021768647049327634,-0.10869408302297516, ,0.02253590943327376,0.021435290205416374,-0.10955327122288933, ,0.0013213679940926057, ,0.0356069592290947,-0.002479049951204072,-0.05319302130363504,-0.05199949752867176,-0.08699571918961496,0.011833014389403347, ,0.06405855719271196, ,0.10134977569898823, ,0.0014606856764665837, ,0.23735047215641608,-0.189739823986822,0.12058996983000002,1.6785679975936174,0.5300129825901435,-1.359978857695065, ,0.20902410034905458,0.11997084899933096,0.05813434861313869,-0.034517342065331524,0.13135962761844944,-0.06771080125038786, ,1.266606092453003
0.021588976369346802,0.021768647049327634,-0.10869408302297516, ,0.02264665406188124,0.021439362010457545,-0.10973758693801242, ,0.0015218446565949907, ,0.0356069592290947,-0.002479049951204072,-0.05319302130363504,-0.05199949752867176,-0.08699571918961496,0.011833014389403347, ,0.06405855719271196, ,0.10134977569898823, ,0.0014612972662678679, ,0.23735047215641608,-0.189739823986822,0.12058996983000002,1.6785679975936174,0.5300129825901435,-1.359978857695065, ,0.20902410034905458,0.11997084899933096,0.05813434861313869,-0.034517342065331524,0.13135962761844944,-0.06771080125038786, ,1.2703001499176025
0.021588976369346802,0.021768647049327634,-0.10869408302297516, ,0.022756688462020967,0.021443186553241223,-0.10991880016252648, ,0.0017231970687652197, ,0.0356069592290947,-0.002479049951204072,-0.05319302130363504,-0.05199949752867176,-0.08699571918961496,0.011833014389403347, ,0.06405855719271196, ,0.10134977569898823, ,0.0014638903336193269, ,0.23735047215641608,-0.189739823986822,0.12058996983000002,1.6785679975936174,0.5300129825901435,-1.359978857695065, ,0.20902410034905458,0.11997084899933096,0.05813434861313869,-0.034517342065331524,0.13135962761844944,-0.06771080125038786, ,1.274151086807251
0.021930910219819993,0.02174463937589678,-0.10918842804508361, ,0.02286601485966627,0.02144676526227352,-0.11009692987758615, ,0.0013373575642622126, ,0.03266765991607592,-0.002290542642603036,-0.046271371104367943,-0.025646387185632193,-0.05086207780554625,-0.04579186541521349, ,0.056687409306371665, ,0.056960302176439846, ,0.0014626498162726882, ,0.23938927363521134,-0.1886123049871852,0.12113311534000001,1.678358307650133,0.5313793475877979,-1.3606029642911859, ,0.19647399908586083,0.10783743358917133,0.05105388307692308,0.031484299120926214,0.1427800351762068,-0.06619366724225198, ,1.2778379917144775
0.021930910219819993,0.02174463937589678,-0.10918842804508361, ,0.022974635485152866,0.021450099568896895,-0.1102719950072844, ,0.0015330471254905286, ,0.03266765991607592,-0.002290542642603036,-0.046271371104367943,-0.025646387185632193,-0.05086207780554625,-0.04579186541521349, ,0.056687409306371665, ,0.056960302176439846, ,0.0014633332852942206, ,0.23938927363521134,-0.1886123049871852,0.12113311534000001,1.678358307650133,0.5313793475877979,-1.3606029642911859, ,0.19647399908586083,0.10783743358917133,0.05105388307692308,0.031484299120926214,0.1427800351762068,-0.06619366724225198, ,1.2814459800720215
0.021930910219819993,0.02174463937589678,-0.10918842804508361, ,0.02308255257314972,0.021453190907268462,-0.11044401441872562, ,0.0017285020860629923, ,0.03266765991607592,-0.002290542642603036,-0.046271371104367943,-0.025646387185632193,-0.05086207780554625,-0.04579186541521349, ,0.056687409306371665, ,0.056960302176439846, ,0.0014658829853016126, ,0.23938927363521134,-0.1886123049871852,0.12113311534000001,1.678358307650133,0.5313793475877979,-1.3606029642911859, ,0.19647399908586083,0.10783743358917133,0.05105388307692308,0.031484299120926214,0.1427800351762068,-0.06619366724225198, ,1.2850120067596436
0.02226898155068134,0.021720118702037595,-0.10966559524525633, ,0.023189768362630345,0.02145604071433852,-0.11061300692209948, ,0.0013472840910755033, ,0.03213969607904551,-0.0024425502938829214,-0.04620333450406788,-0.00026160305009505073,-0.02395128267830293,-0.009668255478296505, ,0.05633537286009875, ,0.023948315652411598, ,0.0014647534720232688, ,0.24142807511400663,-0.18750023145329686,0.12166070537000001,1.6785679975936174,0.5330189855849832,-1.3615315854348402, ,0.1924887252707318,0.10650610724856428,0.05105388307692308,-0.009990506517024617,0.17407469439737516,-0.09951915836224626, ,1.2892720699310303
0.02226898155068134,0.021720118702037595,-0.10966559524525633, ,0.023296285096843554,0.021458650429828603,-0.1107789912707518, ,0.0015373252560595373, ,0.03213969607904551,-0.0024425502938829214,-0.04620333450406788,-0.00026160305009505073,-0.02395128267830293,-0.009668255478296505, ,0.05633537286009875, ,0.023948315652411598, ,0.001465438111495309, ,0.24142807511400663,-0.18750023145329686,0.12166070537000001,1.6785679975936174,0.5330189855849832,-1.3615315854348402, ,0.1924887252707318,0.10650610724856428,0.05105388307692308,-0.009990506517024617,0.17407469439737516,-0.09951915836224626, ,1.292860984802246
0.02259158256961968,0.021702633723265714,-0.1101453411709324, ,0.02340210502328456,0.021461021496210375,-0.11094198616125994, ,0.0011618805260316346, ,0.03106151882355347,-0.0008839057972926864,-0.04794546079070339,0.002349625581892827,0.0012233813431468189,-0.0033744082634125866, ,0.05713463443059148, ,0.0026007773099690308, ,0.0014626011247152748, ,0.24332786740106585,-0.1864653852481508,0.12219088798000001,1.6785679975936174,0.5349318965816994,-1.3622746486851844, ,0.17837770969637368,0.09480213941905173,0.052919639601328915,-0.008439871671073736,0.18511084364855898,-0.08927530867003439, ,1.296450138092041
0.02259158256961968,0.021702633723265714,-0.1101453411709324, ,0.023507230393665965,0.02146315535868359,-0.1111020102335039, ,0.0013457252765943911, ,0.03106151882355347,-0.0008839057972926864,-0.04794546079070339,0.002349625581892827,0.0012233813431468189,-0.0033744082634125866, ,0.05713463443059148, ,0.0026007773099690308, ,0.0014615189409363776, ,0.24332786740106585,-0.1864653852481508,0.12219088798000001,1.6785679975936174,0.5349318965816994,-1.3622746486851844, ,0.17837770969637368,0.09480213941905173,0.052919639601328915,-0.008439871671073736,0.18511084364855898,-0.08927530867003439, ,1.3001329898834229
0.02259158256961968,0.021702633723265714,-0.1101453411709324, ,0.023611663463888863,0.02146505346515499,-0.11125908207074048, ,0.0015288650044403135, ,0.03106151882355347,-0.0008839057972926864,-0.04794546079070339,0.002349625581892827,0.0012233813431468189,-0.0033744082634125866, ,0.05713463443059148, ,0.0026007773099690308, ,0.0014621367947299916, ,0.24332786740106585,-0.1864653852481508,0.12219088798000001,1.6785679975936174,0.5349318965816994,-1.3622746486851844, ,0.17837770969637368,0.09480213941905173,0.052919639601328915,-0.008439871671073736,0.18511084364855898,-0.08927530867003439, ,1.3039100170135498
0.022910665466603176,0.02170246548501201,-0.1106420275360934, ,0.023715406494013654,0.02146671726621622,-0.11141322019967514, ,0.0011392644417453626, ,0.02999743394121001,0.00015454861003406174,-0.04663421155005011,-0.019175720405653036,0.01450183756840642,0.0096894672849924, ,0.055449252611959966, ,0.024037283285440292, ,0.0014592015915210403, ,0.2451427096265086,-0.1855618255018665,0.12274051494000002,1.6785679975936174,0.5368448075784156,-1.3629360331953881, ,0.17067795244329276,0.08280710432676333,0.05171692051948052,-0.007210218070047578,0.19068161808504216,-0.05389639561870185, ,1.3077771663665771
0.022910665466603176,0.02170246548501201,-0.1106420275360934, ,0.023818461748231188,0.021468148215122704,-0.11156444309053627, ,0.0013152372892311795, ,0.02999743394121001,0.00015454861003406174,-0.04663421155005011,-0.019175720405653036,0.01450183756840642,0.0096894672849924, ,0.055449252611959966, ,0.024037283285440292, ,0.0014579046158247355, ,0.2451427096265086,-0.1855618255018665,0.12274051494000002,1.6785679975936174,0.5368448075784156,-1.3629360331953881, ,0.17067795244329276,0.08280710432676333,0.05171692051948052,-0.007210218070047578,0.19068161808504216,-0.05389639561870185, ,1.311690092086792
0.022910665466603176,0.02170246548501201,-0.1106420275360934, ,0.02392083149483371,0.021469347767771523,-0.1117127691571468, ,0.0014903915236401924, ,0.02999743394121001,0.00015454861003406174,-0.04663421155005011,-0.019175720405653036,0.01450183756840642,0.0096894672849924, ,0.055449252611959966, ,0.024037283285440292, ,0.001458194677501659, ,0.2451427096265086,-0.1855618255018665,0.12274051494000002,1.6785679975936174,0.5368448075784156,-1.3629360331953881, ,0.17067795244329276,0.08280710432676333,0.05171692051948052,-0.007210218070047578,0.19068161808504216,-0.05389639561870185, ,1.3153190612792969
0.023197922837948276,0.02170174720826319,-0.11108296757293444, ,0.024022518006185708,0.021470317382680553,-0.11185821675699813, ,0.0011552178379167885, ,0.027515132875155605,-0.00029371350794824534,-0.04174749797431626,-0.0065720372499495795,0.019515824069497756,0.005761256844687285, ,0.05000022391827621, ,0.02058961517582764, ,0.0014555134665318813, ,0.24678765172871844,-0.18475866128294716,0.12323051256000002,1.6785679975936174,0.5387577185751317,-1.3634340602253108, ,0.15789840525535903,0.07753018101182253,0.04643968373177843,-0.006301917560683068,0.1825017600729919,-0.0620297424552463, ,1.3188800811767578
0.023197922837948276,0.02170174720826319,-0.11108296757293444, ,0.024123523558695133,0.021471058520966257,-0.11200080419132233, ,0.0013237741585132997, ,0.027515132875155605,-0.00029371350794824534,-0.04174749797431626,-0.0065720372499495795,0.019515824069497756,0.005761256844687285, ,0.05000022391827621, ,0.02058961517582764, ,0.0014543578585668063, ,0.24678765172871844,-0.18475866128294716,0.12323051256000002,1.6785679975936174,0.5387577185751317,-1.3634340602253108, ,0.15789840525535903,0.07753018101182253,0.04643968373177843,-0.006301917560683068,0.1825017600729919,-0.0620297424552463, ,1.3224961757659912
0.023197922837948276,0.02170174720826319,-0.11108296757293444, ,0.024223850432784157,0.021471572646322306,-0.11214054970516553, ,0.0014913040351400076, ,0.027515132875155605,-0.00029371350794824534,-0.04174749797431626,-0.0065720372499495795,0.019515824069497756,0.005761256844687285, ,0.05000022391827621, ,0.02058961517582764, ,0.0014546791296674428, ,0.24678765172871844,-0.18475866128294716,0.12323051256000002,1.6785679975936174,0.5387577185751317,-1.3634340602253108, ,0.15789840525535903,0.07753018101182253,0.04643968373177843,-0.006301917560683068,0.1825017600729919,-0.0620297424552463, ,1.3261730670928955
0.023472871502871046,0.02169865567654456,-0.11148869013102666, ,0.024323500912860365,0.021471861224998397,-0.1122774714874611, ,0.001182024595619506, ,0.025113580197899815,-0.00020001654295549205,-0.0349239472753991,-0.03197589005989501,-0.017451513075934375,0.009163783143999477, ,0.04301643883759624, ,0.03642747452192625, ,0.0014523286595463398, ,0.24837081196793445,-0.18400183346127316,0.12368291777000001,1.6785679975936174,0.5403973565723169,-1.3637092514478406, ,0.14758466805360929,0.06455574255678284,0.03923352591133005,-0.005558603871475238,0.1340920357626206,-0.0250905115126343, ,1.3297929763793945
0.023472871502871046,0.02169865567654456,-0.11148869013102666, ,0.024422477287287504,0.021471925725777764,-0.11241158767110171, ,0.001343464731896034, ,0.025113580197899815,-0.00020001654295549205,-0.0349239472753991,-0.03197589005989501,-0.017451513075934375,0.009163783143999477, ,0.04301643883759624, ,0.03642747452192625, ,0.0014513981986262517, ,0.24837081196793445,-0.18400183346127316,0.12368291777000001,1.6785679975936174,0.5403973565723169,-1.3637092514478406, ,0.14758466805360929,0.06455574255678284,0.03923352591133005,-0.005558603871475238,0.1340920357626206,-0.0250905115126343, ,1.3334200382232666
0.023739313535197065,0.021698505397473294,-0.11184662661389416, ,0.024520781848356505,0.02147176761995662,-0.1125429163330129, ,0.0010709444977102754, ,0.025113580197899815,-0.00020001654295549205,-0.0349239472753991,-0.03197589005989501,-0.017451513075934375,0.009163783143999477, ,0.04301643883759624, ,0.03642747452192625, ,0.0014481740147201843, ,0.2499539722071505,-0.18335312389983832,0.12408736025000001,1.6785679975936174,0.5417637215699714,-1.36417000056368, ,0.15355492161564852,0.06102697206332526,0.03962390925373134,-0.0049676942169080765,0.14225847949715711,-0.06594689387126279, ,1.3371691703796387
0.023739313535197065,0.021698505397473294,-0.11184662661389416, ,0.024618416892256675,0.021471388381321937,-0.11267147549422593, ,0.0012266949607802034, ,0.025901752449295344,0.00022557712368950577,-0.03500717193288406,0.011083268888576112,-0.015173983255564403,-0.0011658614812572468, ,0.04354829217916375, ,0.018789253348328164, ,0.0014463128461996802, ,0.2499539722071505,-0.18335312389983832,0.12408736025000001,1.6785679975936174,0.5417637215699714,-1.36417000056368, ,0.15355492161564852,0.06102697206332526,0.03962390925373134,-0.0049676942169080765,0.14225847949715711,-0.06594689387126279, ,1.3412530422210693
0.023739313535197065,0.021698505397473294,-0.11184662661389416, ,0.024715384719046177,0.02147078948612995,-0.11279728311995058, ,0.0013814185769443392, ,0.025901752449295344,0.00022557712368950577,-0.03500717193288406,0.011083268888576112,-0.015173983255564403,-0.0011658614812572468, ,0.04354829217916375, ,0.018789253348328164, ,0.0014457720606225525, ,0.2499539722071505,-0.18335312389983832,0.12408736025000001,1.6785679975936174,0.5417637215699714,-1.36417000056368, ,0.15355492161564852,0.06102697206332526,0.03962390925373134,-0.0049676942169080765,0.14225847949715711,-0.06594689387126279, ,1.344938039779663
0.023977925185562413,0.021705922340845597,-0.11217776997965574, ,0.024811687632623564,0.021469972413085077,-0.1129203571196482, ,0.0011411695084525175, ,0.023463217523722883,0.0012935852815158903,-0.032657636806510675,0.06934009296287284,0.027244729005580278,-0.006205265036388884, ,0.04023328449470726, ,0.07450024566190992, ,0.0014432546841583373, ,0.25136723232313357,-0.18282025533151683,0.12446328435000001,1.6785679975936174,0.5434033595671567,-1.3652619791876155, ,0.13894134928033788,0.04751975040484265,0.037216849345794396,-0.004518435951691329,0.17043392877577448,-0.11140531495872766, ,1.3486251831054688
0.023977925185562413,0.021705922340845597,-0.11217776997965574, ,0.024907327940698276,0.021468938643317552,-0.11304071534710429, ,0.0012902036511144687, ,0.023463217523722883,0.0012935852815158903,-0.032657636806510675,0.06934009296287284,0.027244729005580278,-0.006205265036388884, ,0.04023328449470726, ,0.07450024566190992, ,0.0014420001674940433, ,0.25136723232313357,-0.18282025533151683,0.12446328435000001,1.6785679975936174,0.5434033595671567,-1.3652619791876155, ,0.13894134928033788,0.04751975040484265,0.037216849345794396,-0.004518435951691329,0.17043392877577448,-0.11140531495872766, ,1.352220058441162
0.023977925185562413,0.021705922340845597,-0.11217776997965574, ,0.025002307954761827,0.021467689660362384,-0.11315837560050146, ,0.0014379507124783833, ,0.023463217523722883,0.0012935852815158903,-0.032657636806510675,0.06934009296287284,0.027244729005580278,-0.006205265036388884, ,0.04023328449470726, ,0.07450024566190992, ,0.001441967245095542, ,0.25136723232313357,-0.18282025533151683,0.12446328435000001,1.6785679975936174,0.5434033595671567,-1.3652619791876155, ,0.13894134928033788,0.04751975040484265,0.037216849345794396,-0.004518435951691329,0.17043392877577448,-0.11140531495872766, ,1.3557941913604736
0.02422681882683966,0.021722505943105718,-0.11252952878407257, ,0.025096629990058666,0.021466226950137807,-0.11327335562249337, ,0.0011728293769564782, ,0.025345131276888328,0.00203109103863914,-0.03620802402537098,0.03659669130542303,-0.02887754231194134,-0.00787374449973329, ,0.04424389239286916, ,0.046617250358607185, ,0.001439796778417001, ,0.25280366063773935,-0.18233372316044066,0.12486254167000001,1.6785679975936174,0.5449063610645766,-1.3661608611677138, ,0.1424879002379441,0.046701250766963964,0.04094810159383034,-0.004121759321637255,0.11667707810555139,-0.07952697194150257, ,1.3593831062316895
0.02422681882683966,0.021722505943105718,-0.11252952878407257, ,0.025190296365557262,0.02146455200092352,-0.11338567310027588, ,0.001314462739703141, ,0.025345131276888328,0.00203109103863914,-0.03620802402537098,0.03659669130542303,-0.02887754231194134,-0.00787374449973329, ,0.04424389239286916, ,0.046617250358607185, ,0.0014387941061072902, ,0.25280366063773935,-0.18233372316044066,0.12486254167000001,1.6785679975936174,0.5449063610645766,-1.3661608611677138, ,0.1424879002379441,0.046701250766963964,0.04094810159383034,-0.004121759321637255,0.11667707810555139,-0.07952697194150257, ,1.3629271984100342
0.02422681882683966,0.021722505943105718,-0.11252952878407257, ,0.025283309403920748,0.021462666303339137,-0.11349534566566129, ,0.0014548165611570772, ,0.025345131276888328,0.00203109103863914,-0.03620802402537098,0.03659669130542303,-0.02887754231194134,-0.00787374449973329, ,0.04424389239286916, ,0.046617250358607185, ,0.0014389212684489552, ,0.25280366063773935,-0.18233372316044066,0.12486254167000001,1.6785679975936174,0.5449063610645766,-1.3661608611677138, ,0.1424879002379441,0.046701250766963964,0.04094810159383034,-0.004121759321637255,0.11667707810555139,-0.07952697194150257, ,1.3665111064910889
0.024466579462424122,0.021748991374705755,-0.112885637314879, ,0.025375671431478126,0.02146057135032243,-0.11360239089515042, ,0.001193050717067668, ,0.02520493543694939,0.0034527616166386797,-0.03950184658272211,0.02189404921396872,-0.020554181847058827,0.00011058398999961918, ,0.046985170177482966, ,0.03002877956052586, ,0.0014369852798554017, ,0.25411652522635747,-0.181932141050981,0.12526439157000002,1.6785679975936174,0.5459994530627,-1.366725489436723, ,0.13309528970332507,0.03945818775819991,0.044369948523676886,-0.0038134805165503972,0.11559725623938302,-0.05677957142493006, ,1.3700661659240723
0.024466579462424122,0.021748991374705755,-0.112885637314879, ,0.02546738477819523,0.02145826863710831,-0.11370682631000685, ,0.001326831698427105, ,0.02520493543694939,0.0034527616166386797,-0.03950184658272211,0.02189404921396872,-0.020554181847058827,0.00011058398999961918, ,0.046985170177482966, ,0.03002877956052586, ,0.001436124705000493, ,0.25411652522635747,-0.181932141050981,0.12526439157000002,1.6785679975936174,0.5459994530627,-1.366725489436723, ,0.13309528970332507,0.03945818775819991,0.044369948523676886,-0.0038134805165503972,0.11559725623938302,-0.05677957142493006, ,1.3738281726837158
0.024719176944784333,0.02178357398095704,-0.11328443776749102, ,0.02555845177764542,0.021455759661206754,-0.1138086693763275, ,0.0010424314140559234, ,0.024486314005540383,0.003323501017335975,-0.0384937584748607,0.016350505779375114,0.015342077164898844,0.009339458263612828, ,0.04574270077412424, ,0.02241949715121059, ,0.0014330728190241784, ,0.25545255801359834,-0.18153055894152131,0.12571290791,1.6785679975936174,0.5473658180603544,-1.3672679172927034, ,0.13053224423448526,0.038765090505911266,0.0434027561852861,-0.0035296812326396673,0.14965042695554015,-0.048116211769561316, ,1.3790500164031982
0.024719176944784333,0.02178357398095704,-0.11328443776749102, ,0.025648874766980807,0.02145304592238141,-0.11390793750511785, ,0.0011671926837173764, ,0.024486314005540383,0.003323501017335975,-0.0384937584748607,0.016350505779375114,0.015342077164898844,0.009339458263612828, ,0.04574270077412424, ,0.02241949715121059, ,0.0014310275872141261, ,0.25545255801359834,-0.18153055894152131,0.12571290791,1.6785679975936174,0.5473658180603544,-1.3672679172927034, ,0.13053224423448526,0.038765090505911266,0.0434027561852861,-0.0035296812326396673,0.14965042695554015,-0.048116211769561316, ,1.3826491832733154
0.024719176944784333,0.02178357398095704,-0.11328443776749102, ,0.025738656086902872,0.021450128922628,-0.11400464805236364, ,0.0012919853646907596, ,0.024486314005540383,0.003323501017335975,-0.0384937584748607,0.016350505779375114,0.015342077164898844,0.009339458263612828, ,0.04574270077412424, ,0.02241949715121059, ,0.0014299661962024976, ,0.25545255801359834,-0.18153055894152131,0.12571290791,1.6785679975936174,0.5473658180603544,-1.3672679172927034, ,0.13053224423448526,0.038765090505911266,0.0434027561852861,-0.0035296812326396673,0.14965042695554015,-0.048116211769561316, ,1.386234998703003
0.02496415039154007,0.021815347541288294,-0.11365424091959395, ,0.02582779808163382,0.021447010166152903,-0.11409881831910407, ,0.0010388497575112027, ,0.02215906194587567,0.002610020428570165,-0.031347024096660306,0.042044622072203046,0.007267959859002814,0.0011208324131648786, ,0.03847690414619283, ,0.04266782415187547, ,0.0014270031928790786, ,0.2567963135337134,-0.18115214503068433,0.12613290587,1.6785679975936174,0.5490054560575397,-1.3680331809560764, ,0.12486439678746157,0.03297322500294329,0.035875701621621625,-0.0032774151121020482,0.13544896423600547,-0.06998549094085525, ,1.3897969722747803
0.02496415039154007,0.021815347541288294,-0.11365424091959395, ,0.02591630309888691,0.02144369115935126,-0.1141904655515043, ,0.0011542357212501477, ,0.02215906194587567,0.002610020428570165,-0.031347024096660306,0.042044622072203046,0.007267959859002814,0.0011208324131648786, ,0.03847690414619283, ,0.04266782415187547, ,0.0014249523096337483, ,0.2567963135337134,-0.18115214503068433,0.12613290587,1.6785679975936174,0.5490054560575397,-1.3680331809560764, ,0.12486439678746157,0.03297322500294329,0.035875701621621625,-0.0032774151121020482,0.13544896423600547,-0.06998549094085525, ,1.39335298538208
0.02496415039154007,0.021815347541288294,-0.11365424091959395, ,0.026004173489838092,0.02144017341078579,-0.114279606940929, ,0.0012702308191160205, ,0.02215906194587567,0.002610020428570165,-0.031347024096660306,0.042044622072203046,0.007267959859002814,0.0011208324131648786, ,0.03847690414619283, ,0.04266782415187547, ,0.00142379767164481, ,0.2567963135337134,-0.18115214503068433,0.12613290587,1.6785679975936174,0.5490054560575397,-1.3680331809560764, ,0.12486439678746157,0.03297322500294329,0.035875701621621625,-0.0032774151121020482,0.13544896423600547,-0.06998549094085525, ,1.39689302444458
0.025178333892444393,0.021836808934088948,-0.11393999189828304, ,0.026091411609096272,0.021436458431164575,-0.11436625962401444, ,0.0010842949856188703, ,0.021384163648296678,0.0016730480838965454,-0.027255172657617555,-0.012577777080371002,-0.01257622639322171,0.01291547270128162, ,0.034683223342485144, ,0.01778614367101831, ,0.0014212828369335067, ,0.2580319507935893,-0.1808277902499669,0.12646216353,1.6785679975936174,0.5502351845554286,-1.3682191546879385, ,0.12535923587644754,0.034147873896535,0.031542201029702975,-0.0030700198618232783,0.11582657833490505,-0.015131871358505893, ,1.4012870788574219
0.025178333892444393,0.021836808934088948,-0.11393999189828304, ,0.026178019814674786,0.02143254773332071,-0.1144504406827427, ,0.0011930452728662706, ,0.021384163648296678,0.0016730480838965454,-0.027255172657617555,-0.012577777080371002,-0.01257622639322171,0.01291547270128162, ,0.034683223342485144, ,0.01778614367101831, ,0.0014196046195506593, ,0.2580319507935893,-0.1808277902499669,0.12646216353,1.6785679975936174,0.5502351845554286,-1.3682191546879385, ,0.12535923587644754,0.034147873896535,0.031542201029702975,-0.0030700198618232783,0.11582657833490505,-0.015131871358505893, ,1.4048330783843994
0.025391956703260568,0.021849300143043683,-0.11419227200252816, ,0.02626400046796194,0.02142844283218938,-0.11453216714451289, ,0.0010262114359131265, ,0.020418367983247507,0.0007428124958480367,-0.021545580666410734,-0.0010154114004609735,0.006694014764497473,0.01516233395423725, ,0.029692988528541665, ,0.006770247488938362, ,0.0014167331364584145, ,0.25932936991645905,-0.1804802672706268,0.12675771765000002,1.6785679975936174,0.5514649130533176,-1.3683234496796604, ,0.13089233318409763,0.033134406968739795,0.025816550275526744,-0.0028842581222090834,0.14110486676371864,-0.024637439326083144, ,1.4084601402282715
0.025391956703260568,0.021849300143043683,-0.11419227200252816, ,0.026349355933692066,0.02142414524478703,-0.11461145598221506, ,0.001128310765156746, ,0.020418367983247507,0.0007428124958480367,-0.021545580666410734,-0.0010154114004609735,0.006694014764497473,0.01516233395423725, ,0.029692988528541665, ,0.006770247488938362, ,0.0014146431192750691, ,0.25932936991645905,-0.1804802672706268,0.12675771765000002,1.6785679975936174,0.5514649130533176,-1.3683234496796604, ,0.13089233318409763,0.033134406968739795,0.025816550275526744,-0.0028842581222090834,0.14110486676371864,-0.024637439326083144, ,1.4124081134796143
0.025391956703260568,0.021849300143043683,-0.11419227200252816, ,0.026434088579916522,0.021419656490189735,-0.11468832411430317, ,0.0012315438337211547, ,0.020418367983247507,0.0007428124958480367,-0.021545580666410734,-0.0010154114004609735,0.006694014764497473,0.01516233395423725, ,0.029692988528541665, ,0.006770247488938362, ,0.0014133258582279186, ,0.25932936991645905,-0.1804802672706268,0.12675771765000002,1.6785679975936174,0.5514649130533176,-1.3683234496796604, ,0.13089233318409763,0.033134406968739795,0.025816550275526744,-0.0028842581222090834,0.14110486676371864,-0.024637439326083144, ,1.4160571098327637
0.02557925595482624,0.021852159570241,-0.11436913056056378, ,0.02651820077797442,0.021414978089511257,-0.11476278840486706, ,0.0011080214467199291, ,0.01850249980743105,-0.0001313558816210112,-0.015324618737429168,0.05621870743146656,0.04139891109344394,0.006059306606638557, ,0.02402506384880564, ,0.06981698976473637, ,0.001411145112431433, ,0.26059589810783185,-0.1801713579556578,0.12697549437000002,1.6785679975936174,0.5531045510505029,-1.3688436771226118, ,0.13053224423448526,0.03072092637049879,0.01944909831501832,-0.002725343873126478,0.17594425411269837,-0.08000062777085495, ,1.4196271896362305
0.02557925595482624,0.021852159570241,-0.11436913056056378, ,0.0266016949024637,0.02141011156588217,-0.11483486566370665, ,0.0012073512438818808, ,0.01850249980743105,-0.0001313558816210112,-0.015324618737429168,0.05621870743146656,0.04139891109344394,0.006059306606638557, ,0.02402506384880564, ,0.06981698976473637, ,0.0014096997658459751, ,0.26059589810783185,-0.1801713579556578,0.12697549437000002,1.6785679975936174,0.5531045510505029,-1.3688436771226118, ,0.13053224423448526,0.03072092637049879,0.01944909831501832,-0.002725343873126478,0.17594425411269837,-0.08000062777085495, ,1.4232239723205566
0.02557925595482624,0.021852159570241,-0.11436913056056378, ,0.026684573331212116,0.021405058444427687,-0.11490457264640362, ,0.0013070287474009942, ,0.01850249980743105,-0.0001313558816210112,-0.015324618737429168,0.05621870743146656,0.04139891109344394,0.006059306606638557, ,0.02402506384880564, ,0.06981698976473637, ,0.0014089767305048133, ,0.26059589810783185,-0.1801713579556578,0.12697549437000002,1.6785679975936174,0.5531045510505029,-1.3688436771226118, ,0.13053224423448526,0.03072092637049879,0.01944909831501832,-0.002725343873126478,0.17594425411269837,-0.08000062777085495, ,1.4270761013031006
0.025760782196991287,0.021843835542034933,-0.1145053545882414, ,0.02676683844524783,0.021399820252246002,-0.11497192605439464, ,0.0011945658982453675, ,0.01871738827447749,-0.0011448290739168195,-0.013927203071613036,-0.012416043614046279,-0.0068151816508767215,0.013431072054367579, ,0.023358472613250643, ,0.01416348530463173, ,0.0014074773540554465, ,0.26190876269645,-0.17983155770919193,0.12715178981,1.6785679975936174,0.5548808255474537,-1.3694753224692595, ,0.13180130772009832,0.036625604615388184,0.017523445016501653,-0.002580377992288887,0.14111916120007037,-0.02406174103881508, ,1.4315099716186523
0.025760782196991287,0.021843835542034933,-0.1145053545882414, ,0.026848492628770718,0.021394398518387613,-0.11503694253504494, ,0.001291392026773264, ,0.01871738827447749,-0.0011448290739168195,-0.013927203071613036,-0.012416043614046279,-0.0068151816508767215,0.013431072054367579, ,0.023358472613250643, ,0.01416348530463173, ,0.0014066712059493203, ,0.26190876269645,-0.17983155770919193,0.12715178981,1.6785679975936174,0.5548808255474537,-1.3694753224692595, ,0.13180130772009832,0.036625604615388184,0.017523445016501653,-0.002580377992288887,0.14111916120007037,-0.02406174103881508, ,1.4350810050964355
0.02595613367078553,0.02183502982371024,-0.11466042207686648, ,0.02692953826912291,0.021388794773832695,-0.11509963868172043, ,0.0011573907973467753, ,0.019469660587930218,-0.0004987460020693189,-0.016503069265948963,-0.01843096326424399,-0.028132769258212544,0.010925188228236814, ,0.025527783416906622, ,0.033632601577410194, ,0.0014049520307175785, ,0.26324479548369084,-0.17946086653122917,0.12734623331,1.6785679975936174,0.5559739175455772,-1.3693865208171443, ,0.1303529417011961,0.03518611107099398,0.02044776831835687,-0.002445553991645805,0.10489446847124495,-0.010598778429405167, ,1.4386160373687744
0.02595613367078553,0.02183502982371024,-0.11466042207686648, ,0.027009977756760055,0.02138301055146996,-0.11516003103386069, ,0.0012508068955394156, ,0.019469660587930218,-0.0004987460020693189,-0.016503069265948963,-0.01843096326424399,-0.028132769258212544,0.010925188228236814, ,0.025527783416906622, ,0.033632601577410194, ,0.001403896242120468, ,0.26324479548369084,-0.17946086653122917,0.12734623331,1.6785679975936174,0.5559739175455772,-1.3693865208171443, ,0.1303529417011961,0.03518611107099398,0.02044776831835687,-0.002445553991645805,0.10489446847124495,-0.010598778429405167, ,1.442162036895752
0.02595613367078553,0.02183502982371024,-0.11466042207686648, ,0.027089813485221922,0.021377047386075394,-0.11521813607705189, ,0.0013438834550828054, ,0.019469660587930218,-0.0004987460020693189,-0.016503069265948963,-0.01843096326424399,-0.028132769258212544,0.010925188228236814, ,0.025527783416906622, ,0.033632601577410194, ,0.0014034879918685109, ,0.26324479548369084,-0.17946086653122917,0.12734623331,1.6785679975936174,0.5559739175455772,-1.3693865208171443, ,0.1303529417011961,0.03518611107099398,0.02044776831835687,-0.002445553991645805,0.10489446847124495,-0.010598778429405167, ,1.4458470344543457
0.02615483746506028,0.021832196619053616,-0.11483773833789829, ,0.02716904785110358,0.02137090681429022,-0.11527397024309993, ,0.0011965405409983458, ,0.020758415398223668,-6.713544778565406e-05,-0.01893981601236103,0.06908828096230818,0.006078906585046296,-0.00990661504055361, ,0.028100408317240626, ,0.0693551817420017, ,0.0014020896982815504, ,0.26457310553805746,-0.17911334355188904,0.12756530632000002,1.678358307650133,0.5573402825432316,-1.370010627413265, ,0.13773141009937706,0.03587786070263546,0.02335602862170088,0.0,0.14653027293950538,-0.09983949419082365, ,1.4496150016784668
0.02615483746506028,0.021832196619053616,-0.11483773833789829, ,0.02724768325402608,0.0213645903745995,-0.11532754991010283, ,0.001285644933322669, ,0.020758415398223668,-6.713544778565406e-05,-0.01893981601236103,0.06908828096230818,0.006078906585046296,-0.00990661504055361, ,0.028100408317240626, ,0.0693551817420017, ,0.0014013081897918936, ,0.26457310553805746,-0.17911334355188904,0.12756530632000002,1.678358307650133,0.5573402825432316,-1.370010627413265, ,0.13773141009937706,0.03587786070263546,0.02335602862170088,0.0,0.14653027293950538,-0.09983949419082365, ,1.4532771110534668
0.02615483746506028,0.021832196619053616,-0.11483773833789829, ,0.027325722096607406,0.021358099607310624,-0.1153788914025244, ,0.001374258140340133, ,0.020758415398223668,-6.713544778565406e-05,-0.01893981601236103,0.06908828096230818,0.006078906585046296,-0.00990661504055361, ,0.028100408317240626, ,0.0693551817420017, ,0.0014011278561288818, ,0.26457310553805746,-0.17911334355188904,0.12756530632000002,1.678358307650133,0.5573402825432316,-1.370010627413265, ,0.13773141009937706,0.03587786070263546,0.02335602862170088,0.0,0.14653027293950538,-0.09983949419082365, ,1.4569389820098877
0.026378573682450727,0.021832316304374457,-0.11504642179159583, ,0.02740316678443361,0.02135143605453179,-0.11542801099126596, ,0.0011944233573672886, ,0.02203259762991705,-4.849778003903623e-05,-0.02068560926368384,0.047556920255263,0.0048511545282195236,-0.0037049782655620023, ,0.03022138549051479, ,0.047803666982968326, ,0.0013997589521635731, ,0.2660481475170344,-0.17872720690817784,0.12782197174,1.678358307650133,0.5589799205404169,-1.3708575698167786, ,0.14400142876854444,0.03859168017831264,0.02536434955414013,0.0,0.1517571544749746,-0.07973603084396005, ,1.4604980945587158
0.026378573682450727,0.021832316304374457,-0.11504642179159583, ,0.027480019726029318,0.021344601260150114,-0.11547492489374034, ,0.0012785398937167171, ,0.02203259762991705,-4.849778003903623e-05,-0.02068560926368384,0.047556920255263,0.0048511545282195236,-0.0037049782655620023, ,0.03022138549051479, ,0.047803666982968326, ,0.0013989614583580017, ,0.2660481475170344,-0.17872720690817784,0.12782197174,1.678358307650133,0.5589799205404169,-1.3708575698167786, ,0.14400142876854444,0.03859168017831264,0.02536434955414013,0.0,0.1517571544749746,-0.07973603084396005, ,1.4640960693359375
0.026378573682450727,0.021832316304374457,-0.11504642179159583, ,0.027556283332829005,0.021337596769810552,-0.11551964927394377, ,0.0013622377503661495, ,0.02203259762991705,-4.849778003903623e-05,-0.02068560926368384,0.047556920255263,0.0048511545282195236,-0.0037049782655620023, ,0.03022138549051479, ,0.047803666982968326, ,0.0013987214341227609, ,0.2674768530987659,-0.17831790206584394,0.12807474829,1.678358307650133,0.5602096490383058,-1.3714519372493437, ,0.15110977955170507,0.04191561022900653,0.025609021736334413,0.0,0.11966068842842462,-0.06401402742844738, ,1.4677000045776367
0.02660033696819004,0.021828828698580275,-0.115253827548062, ,0.0276319600191477,0.021330424130893796,-0.11556220024252996, ,0.0011864851246650187, ,0.023279337653709053,-0.00041652845019781126,-0.020845854418869915,0.027505846048157426,-0.03372316580973136,-0.006361665336964884, ,0.0312514112321018, ,0.04351803698079803, ,0.0013973432762691392, ,0.2674768530987659,-0.17831790206584394,0.12807474829,1.678358307650133,0.5602096490383058,-1.3714519372493437, ,0.15110977955170507,0.04191561022900653,0.025609021736334413,0.0,0.11966068842842462,-0.06401402742844738, ,1.4719891548156738
0.02660033696819004,0.021828828698580275,-0.115253827548062, ,0.02770705220215185,0.021323084892495115,-0.11560259385688157, ,0.0012657935632022594, ,0.023279337653709053,-0.00041652845019781126,-0.020845854418869915,0.027505846048157426,-0.03372316580973136,-0.006361665336964884, ,0.0312514112321018, ,0.04351803698079803, ,0.0013964945684429011, ,0.2674768530987659,-0.17831790206584394,0.12807474829,1.678358307650133,0.5602096490383058,-1.3714519372493437, ,0.15110977955170507,0.04191561022900653,0.025609021736334413,0.0,0.11966068842842462,-0.06401402742844738, ,1.4757301807403564
0.026835891499860823,0.021825668115700834,-0.11544957148580072, ,0.027781562301830418,0.021315580605402742,-0.11564084612118417, ,0.0010913608569125936, ,0.02270970072830402,-0.0007554199579975899,-0.017174816366973673,0.008306096255783308,-0.047077384399089164,-0.0019603191900967546, ,0.028482898092036562, ,0.04780449625811136, ,0.0013945385831125785, ,0.26903684513935927,-0.17791631995638427,0.12831974710000002,1.6785679975936174,0.5614393775361948,-1.3718829472016276, ,0.15330685227539706,0.03906831682110777,0.021880235604395604,0.0007471747569582638,0.1082324913087535,-0.0414847040770188, ,1.479464054107666
0.026835891499860823,0.021825668115700834,-0.11544957148580072, ,0.02785549274096563,0.02130791282207614,-0.11567697298649879, ,0.00116591967024259, ,0.02270970072830402,-0.0007554199579975899,-0.017174816366973673,0.008306096255783308,-0.047077384399089164,-0.0019603191900967546, ,0.028482898092036562, ,0.04780449625811136, ,0.0013930824116930244, ,0.26903684513935927,-0.17791631995638427,0.12831974710000002,1.6785679975936174,0.5614393775361948,-1.3718829472016276, ,0.15330685227539706,0.03906831682110777,0.021880235604395604,0.0007471747569582638,0.1082324913087535,-0.0414847040770188, ,1.4831311702728271
0.026835891499860823,0.021825668115700834,-0.11544957148580072, ,0.027928845945103836,0.021300083096624216,-0.11571099035083438, ,0.0012406163204833774, ,0.02270970072830402,-0.0007554199579975899,-0.017174816366973673,0.008306096255783308,-0.047077384399089164,-0.0019603191900967546, ,0.028482898092036562, ,0.04780449625811136, ,0.001392117436432204, ,0.26903684513935927,-0.17791631995638427,0.12831974710000002,1.6785679975936174,0.5614393775361948,-1.3718829472016276, ,0.15330685227539706,0.03906831682110777,0.021880235604395604,0.0007471747569582638,0.1082324913087535,-0.0414847040770188, ,1.4868190288543701
0.02705129739037262,0.021805294285885585,-0.11559073491457128, ,0.028001624342526604,0.021292092984784485,-0.11574291405922094, ,0.0010907132453163112, ,0.020865914346907526,-0.002880059794051625,-0.011520872169017562,-0.01110981028756317,-0.022460857507298936,0.004219116141190602, ,0.024008573916095836, ,0.025058288082412918, ,0.001390221812588708, ,0.27055050078270726,-0.17746840144967924,0.12850511657000002,1.6785679975936174,0.5626691060340837,-1.3721505996736303, ,0.1520784319847288,0.04778295143931056,0.015802392380952386,0.000742647045623607,0.13218568152040422,-0.028523928608742373, ,1.4904510974884033
0.02705129739037262,0.021805294285885585,-0.11559073491457128, ,0.028073830364221425,0.021283944043900816,-0.11577275990378327, ,0.0011621156801813154, ,0.020865914346907526,-0.002880059794051625,-0.011520872169017562,-0.01110981028756317,-0.022460857507298936,0.004219116141190602, ,0.024008573916095836, ,0.025058288082412918, ,0.0013887961492611617, ,0.27055050078270726,-0.17746840144967924,0.12850511657000002,1.6785679975936174,0.5626691060340837,-1.3721505996736303, ,0.1520784319847288,0.04778295143931056,0.015802392380952386,0.000742647045623607,0.13218568152040422,-0.028523928608742373, ,1.4939851760864258
0.02705129739037262,0.021805294285885585,-0.11559073491457128, ,0.028145466443852674,0.02127563783290209,-0.11580054362381212, ,0.0012335970048009187, ,0.020865914346907526,-0.002880059794051625,-0.011520872169017562,-0.01110981028756317,-0.022460857507298936,0.004219116141190602, ,0.024008573916095836, ,0.025058288082412918, ,0.0013878321794197938, ,0.27055050078270726,-0.17746840144967924,0.12850511657000002,1.6785679975936174,0.5626691060340837,-1.3721505996736303, ,0.1520784319847288,0.04778295143931056,0.015802392380952386,0.000742647045623607,0.13218568152040422,-0.028523928608742373, ,1.4975221157073975
0.02725719798069419,0.021771715976754067,-0.11567954696449105, ,0.028216535017732507,0.021267175912280743,-0.11582628090583845, ,0.0010938094335100363, ,0.019033493642172054,-0.003533138282387614,-0.006189791817917119,0.019106488173456063,-0.0010803740955020714,0.0005718942870845546, ,0.020324135137767377, ,0.01913700837180388, ,0.0013860172241981286, ,0.2721182155561748,-0.17698959201147732,0.12863733815,1.6785679975936174,0.5641721075315036,-1.372641087953026, ,0.15015338854188412,0.04497485381918047,0.010283286972240156,0.0007251572973520603,0.15192394182215385,-0.056170494712292386, ,1.5018620491027832
0.02725719798069419,0.021771715976754067,-0.11567954696449105, ,0.028287038524791856,0.021258559844070813,-0.11584998738370543, ,0.0011631640895762667, ,0.019033493642172054,-0.003533138282387614,-0.006189791817917119,0.019106488173456063,-0.0010803740955020714,0.0005718942870845546, ,0.020324135137767377, ,0.01913700837180388, ,0.0013846500270532091, ,0.2721182155561748,-0.17698959201147732,0.12863733815,1.6785679975936174,0.5641721075315036,-1.372641087953026, ,0.15015338854188412,0.04497485381918047,0.010283286972240156,0.0007251572973520603,0.15192394182215385,-0.056170494712292386, ,1.5054690837860107
