NicholasDascanio/dvrk_moveit_final/test/execution/third_experiment_notsharpbends/thirdexp_300vel5.0/thirdexp_300vel5.0_23.csv
Current Position (x),Current Position (y),Current Position (z), ,Planned Position (x),Planned Position (y),Planned Position (z), ,Position Error,,Cartesian linear Velocity(x),Cartesian linear Velocity(y),Cartesian linear Velocity(z),Cartesian Angular Velocity(x),Cartesian Angular Velocity(y),Cartesian Angular Velocity(z), ,Total Linear Velocity, ,Total Angular Velocity, ,MSE, ,Joint 1 Position,Joint 2 Position,Joint 3 Position,Joint 4 Position,Joint 5 Position,Joint 6 Position, ,Joint 1 Velocity,Joint 2 Velocity,Joint 3 Velocity,Joint 4 Velocity,Joint 5 Velocity,Joint 6 Velocity, ,Time Stamp
0.010084333239895608,0.019777982011761,-0.07989336401120993, ,0.01026327986960122,0.01976845934365802,-0.08002959459656626, ,0.00022510297616274683, ,0.0001373019663110833,0.00015724253839834187,-0.0006104270668024528,0.31336729043414285,0.002033578930034734,-0.10250527478861979, ,0.0006451342881291383, ,0.3133738887611746, ,1.875858134689557e-05, ,0.1776769152372833,-0.23519582968450745,0.09035270929000001,1.6877943551069365,0.48273675367130114,-1.3033772614450392, ,0.0003425547442451867,-0.0001222008615485477,0.0006431805208480118,-0.0006052822399889309,0.0,-0.32988802667908024, ,0.03554487228393555
0.010143120574426246,0.019799888726860674,-0.07995492931897047, ,0.010303601495030158,0.019856291219920306,-0.08016546410542395, ,0.0002706663322399648, ,0.0013173491381793636,0.0010344247918876695,-0.002735910038806147,0.08103839786881506,-0.08875708550935861,-0.06673842210605965, ,0.0032079038549142976, ,0.12018752912472523, ,2.253496856375962e-05, ,0.17770008343590596,-0.23529622521187235,0.0904032646,1.6882137349939055,0.4771346571809181,-1.3100807935328833, ,0.00037562067963177703,-0.004107310964733764,0.0026838772569502956,0.018083152739789346,-0.09639877793643704,-0.08518533049224408, ,0.07138204574584961
0.010199674450053854,0.019852679904549374,-0.08010199398170371, ,0.01034470439141496,0.019941871095761256,-0.08030187758035756, ,0.0002625684777192649, ,0.0023054490201676356,0.0019105536553522488,-0.006489291668729665,-0.05603965660839998,-0.12861819834873567,0.01116619221784633, ,0.007146762680851799, ,0.1402964149497572, ,2.3698055816311767e-05, ,0.1777386971002771,-0.2354970162666022,0.09055233795,1.6886331148808746,0.47385538118654746,-1.314104420535695, ,0.001307546066005142,-0.008087359074693636,0.004504754389140273,-0.022697960225074334,-0.04950315204948475,0.1194541721619965, ,0.1117238998413086
0.010220131382162611,0.019913040101292516,-0.08024145208061707, ,0.01038658123318569,0.020025225438836197,-0.08043882751485068, ,0.0002815105058506696, ,0.00021496625461991673,0.0016456536708658721,-0.0029658065409589734,0.010578284335397096,0.05498687609706883,0.01778707225827232, ,0.0033985871966825663, ,0.05599514838060029, ,2.475829266601538e-05, ,0.17779275623039667,-0.23580592558157118,0.09070659646000001,1.68842342493739,0.47494847318467104,-1.3099316818765518, ,0.0019995431186460716,-0.010277660127383778,0.0034433228534370953,0.0,0.059039109160623195,0.0041315670684862055, ,0.14804291725158691
0.010238141584561024,0.019967873390032125,-0.08033469565264027, ,0.010429224737094858,0.02010638057513154,-0.08057630642812369, ,0.0003377466185413706, ,0.0009104925821420381,0.0020878991124943904,-0.004148928288031466,0.012822935498464137,-0.005251788821140983,-0.012501446009485414, ,0.00473306722805817, ,0.013856729750928663, ,2.701166491203954e-05, ,0.17783136989476778,-0.23614572582803706,0.09081418853,1.6890524947678438,0.4752217461842019,-1.3101545176839446, ,0.0011790854713267871,-0.011875477607116856,0.004585150120898101,0.013517193719566322,-0.007490621626038947,0.0006597177244583724, ,0.18004584312438965
0.010287070251127697,0.020062917902329117,-0.08052580697761903, ,0.010472627662109869,0.020185362689283816,-0.08071430686512637, ,0.00029147295966018506, ,0.0012248939396572755,0.002337580041732206,-0.004104532998355207,-0.032704135583294616,-0.003772433645193605,0.008828675071770258, ,0.004879737364807726, ,0.03292099237102255, ,2.7817797836236694e-05, ,0.1779935472851265,-0.236694039862107,0.09102678009000001,1.6892621847113283,0.4750851096844364,-1.3097980635598265, ,0.005845197407694804,-0.014832282206700654,0.004669836270888303,0.009956771183135243,0.0,0.05147829400659268, ,0.2118978500366211
0.010322849324457754,0.020136259994515317,-0.08065622181716973, ,0.010516782809305287,0.020262197824898832,-0.08085282139652808, ,0.0003035159440139728, ,0.0011206166710518782,0.0024916058534280214,-0.004564652761436433,0.003920353395686295,-0.0018546557969348692,-0.0004943723601835994, ,0.0053197684427769435, ,0.004336924819554685, ,2.8588171220118468e-05, ,0.17814027920973677,-0.23714968110168624,0.09117455715000002,1.6896815645982974,0.4750851096844364,-1.3094713485992644, ,0.003574236318839873,-0.015440439563695212,0.005138326296774195,0.007597468686176193,0.0,0.013216325320857092, ,0.24482989311218262
0.01035438389108136,0.020200289487817807,-0.08075990059426082, ,0.010561683021754809,0.020336911884871522,-0.08099184261870969, ,0.00033975831359969993, ,0.0010299151884917658,0.0018770060578151974,-0.002884976563883088,0.011722645109352262,-0.006198868248278801,0.002818841198751803, ,0.003592626728553308, ,0.013260707964489915, ,2.9645411894716338e-05, ,0.17829473386722125,-0.2375821541426428,0.09129381583000001,1.6898912545417817,0.4750851096844364,-1.3092263123788426, ,0.006170325456354989,-0.013356360528989553,0.0033605087594936714,0.0,-2.1899726246419412e-05,0.0014915994944462846, ,0.2788538932800293
0.010390948073158978,0.020267631748598088,-0.08088360392463306, ,0.010607321184423254,0.020409530631704233,-0.08113136315375441, ,0.00035824189023585506, ,0.0013327635931635732,0.0023724641513966104,-0.005236257722122876,-0.025002809941105444,-0.002167612589499698,0.0032478009027293014, ,0.00590112191684054, ,0.025096594297887232, ,3.1053302535159646e-05, ,0.1784646339904542,-0.23798373625210248,0.09143381515000001,1.6903106344287508,0.4750851096844364,-1.3083278462372965, ,0.004606377313590704,-0.011810336133513752,0.0057838821786492375,0.011714508383581094,-0.000132980538288624,0.040574375441854854, ,0.30831289291381836
0.010431374481280583,0.02033755472539239,-0.08104380922060356, ,0.010653690224058262,0.02048007968782611,-0.08127137564943818, ,0.0003486031180813882, ,0.0014640303253557144,0.0023863853310130446,-0.00529952664621229,0.004192160403654076,-0.004287130482076408,-0.00308565577669792, ,0.005993596784531762, ,0.005996139794920231, ,3.2119012086224655e-05, ,0.17860364318219024,-0.2383312592314426,0.09161011059000002,1.6903106344287508,0.4750851096844364,-1.3079194525365936, ,0.006049382442577773,-0.011863587570296647,0.0058648054197349055,0.008372637210057104,-0.0001741055073758178,0.009361693211601236, ,0.33721184730529785
0.010474982134401501,0.020408624872571116,-0.08119119373224121, ,0.010700783109081926,0.020548584535911383,-0.0814118727792206, ,0.00034536072345402023, ,0.0011909579863005216,0.0020612520886157757,-0.004218708611283804,-0.0010487586103843502,-0.0017242885373400412,-0.0079823233934178, ,0.0048440317345033995, ,0.0020181834026116213, ,3.2985763329011155e-05, ,0.17880443423692008,-0.23869422767653115,0.09177473942000001,1.6909397042592043,0.4750851096844364,-1.3075927375760314, ,0.0050463021242199615,-0.010844413485947411,0.004711272262644188,0.015113677979208503,-0.00018910853958593177,0.01503490703452895, ,0.3658769130706787
0.010515746808201146,0.020474156806863732,-0.08133493850766386, ,0.010748592849482128,0.02061507051919862,-0.08155284724223555, ,0.0003486519322574553, ,0.0015899010251755126,0.0023264446398817916,-0.005444196839152994,-0.0037423008505090317,-0.004827732804698192,-0.00363508677873768, ,0.006130204658551973, ,0.006108339783167291, ,3.375636174378721e-05, ,0.17898205709302722,-0.23903402792299702,0.09193418309000001,1.6909397042592043,0.4750851096844364,-1.3071843438753286, ,0.007181382896554493,-0.010498871192823092,0.006006339185520362,0.011056214723958154,-0.0001912340348314717,0.016770354825030826, ,0.3953070640563965
0.010547225802103627,0.020520645047140976,-0.08144429988836908, ,0.01079711249670399,0.020679562841808975,-0.08169429176328122, ,0.00038754891707050275, ,0.0015863018205121186,0.0023088126852392173,-0.005655199339937123,-0.0002785851518543554,-0.006595263628657202,0.0036821604496496568, ,0.006310962609278149, ,0.006601144312478838, ,3.5049134263992274e-05, ,0.17912106628476326,-0.23924254171060108,0.09205473806000002,1.6911493942026892,0.4750851096844364,-1.3070209863950475, ,0.006718669584968657,-0.010147387227600675,0.006205224589014414,0.0015089122216447707,-0.00018937725192926324,0.011035886785666716, ,0.42035603523254395
0.010598577600887246,0.020592936185723068,-0.08160916511597312, ,0.010846335143540985,0.02074208656906428,-0.08183619909281092, ,0.0003676602554416782, ,0.001819278061631026,0.0024664312453956073,-0.005942185473877751,0.0029720676957771318,-0.007378289531197807,-0.0019919017268194427, ,0.006686002090917967, ,0.007954390950032105, ,3.603555616394173e-05, ,0.17937591646961268,-0.23957461922419274,0.09223751495000002,1.691568774089658,0.4750851096844364,-1.3066942714344851, ,0.008858515407797328,-0.010939742068080788,0.006446301707810603,0.007046648607494612,-0.0001841324122353769,0.010680939177991653, ,0.4458889961242676
0.010637184179047087,0.020642136949543144,-0.08172685097288467, ,0.010896253924026109,0.020802666627805895,-0.08197856200692247, ,0.00039527883199460265, ,0.0018135166707085708,0.0022788545625928034,-0.005215879947832359,-0.0031794757996974547,-0.009033964864184844,0.001111811414574821, ,0.00597389525038627, ,0.009577138594994752, ,3.712738775819371e-05, ,0.17956126205859407,-0.23979085574467102,0.09236325508000001,1.691568774089658,0.47494847318467104,-1.306337817310367, ,0.01009433943348443,-0.010751463716439563,0.005750473472924188,0.005766288686523131,0.0,0.015614614257386916, ,0.47040605545043945
0.010697023520919042,0.020716307307517376,-0.08190490666888875, ,0.010946862013322851,0.020861327806712758,-0.0821213733073493, ,0.00036098202592358406, ,0.002084102989020581,0.002482229237331407,-0.00589054461198279,0.003688093732524469,-0.007641087418771366,-0.012608220398063946, ,0.006723352071791783, ,0.008484588689444714, ,3.785992624816638e-05, ,0.17989333957218573,-0.24009976505964,0.09256418003000001,1.6921978439201113,0.47494847318467104,-1.3060927810899454, ,0.011966827434863906,-0.01034654815447895,0.006538920985221676,0.01836718312500786,0.0,0.010165630915268845, ,0.4969310760498047
0.010736849867906585,0.020759999942721118,-0.08200980451222072, ,0.010998152627616054,0.020918094756619474,-0.08226462582144958, ,0.00039775243814520357, ,0.002007854521695412,0.00220667137670943,-0.005200855144871779,0.0009934129533444083,-0.009084480748306464,-0.008992166601444553, ,0.00599581292094914, ,0.009138635344352877, ,3.9044599030501134e-05, ,0.18014046702416092,-0.24029283338149562,0.09268084613000001,1.6921978439201113,0.47494847318467104,-1.305766066129383, ,0.012542551091524027,-0.009291735825032309,0.00579862086639971,0.014729909583394337,0.0,0.011243596226340313, ,0.5184478759765625
0.010780844259535018,0.020805896794363225,-0.08212301099016107, ,0.011050119024002754,0.0209729919908345,-0.08240831240219645, ,0.00042641130281960193, ,0.002245309200449917,0.002336624797514912,-0.005847042933648291,1.9775634826771886e-05,-0.01114351149560417,-0.006341061623880038, ,0.0066849936363405065, ,0.011143528736190067, ,4.032555708807844e-05, ,0.180418485407633,-0.24048590170335124,0.09280658626,1.6921978439201113,0.47494847318467104,-1.3056843873892428, ,0.013945178774205848,-0.00899955288753717,0.006483032771672773,0.011970611454013286,0.0,0.011461582249840601, ,0.5407190322875977
0.010830338734479696,0.020857603108148624,-0.08225824569842331, ,0.011102754500382794,0.021026043885458246,-0.08255242592816835, ,0.000434884642803217, ,0.0025687617217269297,0.002707336604996295,-0.007413136628824401,0.005764302016487735,-0.014430485585609143,0.0027528480005678323, ,0.008299566431650534, ,0.015539178536397276, ,4.156229619240373e-05, ,0.18085095844858956,-0.2407561973539491,0.09303214072,1.6928269137505652,0.47494847318467104,-1.3053576724286804, ,0.014496935771229878,-0.00788352220407881,0.007736188207867897,0.011935108919587238,0.0,0.007749286630090762, ,0.5624480247497559
0.010908239275135317,0.02093602611053036,-0.08247532040360302, ,0.011156052395349666,0.021077274679700587,-0.0826969593035373, ,0.00036122887870031943, ,0.0027378440004179817,0.0025838219990381894,-0.007162414148920167,-0.0018351137636052465,-0.014453924418604444,-0.004560682087682306, ,0.008091483320998087, ,0.014569953835709979, ,4.2252759782193216e-05, ,0.181175313229307,-0.24091065201143358,0.09319417697000001,1.6928269137505652,0.4750851096844364,-1.305224054111955, ,0.016816753776089096,-0.007999040158500328,0.007873856411270391,0.010105757648668421,0.0,0.012038739151491463, ,0.5842618942260742
0.010959859319947512,0.02098433365089968,-0.08260921824640229, ,0.011210006088080834,0.021126708476199515,-0.08284190545806067, ,0.0003701180013942269, ,0.002613992135284238,0.002324960416643593,-0.006935497067384377,-0.011272128342734125,-0.015529084082603839,0.00591796994163751, ,0.007767851401384085, ,0.019188885162324244, ,4.294681598874719e-05, ,0.18150739074289865,-0.24105738393604384,0.09334195403000001,1.6930366036940496,0.4752217461842019,-1.3050087570550892, ,0.01586374817092457,-0.006157009515037885,0.007577931265461467,0.0008505926454798405,0.00021155026835939335,0.018357401193054717, ,0.6056549549102783
0.010983935082550389,0.021006805321658866,-0.08267520453192287, ,0.011264608998228409,0.021174369241338153,-0.08298725734706841, ,0.00045192087090615337, ,0.002635631684507026,0.0023906950523193814,-0.006939613161732841,-0.0069475563789493985,-0.01439424337523162,0.005318928344912192, ,0.00779873118167676, ,0.01598320261679816, ,4.431783790182475e-05, ,0.18182402279074186,-0.24119639312777988,0.09349232367000002,1.6930366036940496,0.4753583826839673,-1.304875138738364, ,0.015610617134145549,-0.006845265309359944,0.007968389954977489,0.0008505926454798405,0.0017577368200867858,0.015568063832159515, ,0.6237890720367432
0.01104492669442237,0.021061967499232347,-0.08283895364930911, ,0.01131985458580947,0.02122028080556333,-0.08313300795145512, ,0.00043256951006118946, ,0.003005963847111611,0.002562815042693032,-0.00848129235886379,-0.008885612641421983,-0.012632400109687247,-0.0055268905022159845, ,0.009356076082937603, ,0.015444468286743444, ,4.5503120601555457e-05, ,0.1820248138454717,-0.24125817499077368,0.09359343429000001,1.693246293637534,0.4753583826839673,-1.3047934599982234, ,0.01712014099918289,-0.0038499661035406867,0.009180871193083574,0.011947261641047174,0.0017577368200867858,0.015642380059708673, ,0.642085075378418
0.011103503057019414,0.0211152087608686,-0.08300565399980496, ,0.011375736351096417,0.021264466863702522,-0.08327915027766747, ,0.0004137501198431776, ,0.0030168410147197737,0.002484281389977968,-0.008155701644588564,-0.004709021108053288,-0.012679282321444739,-0.0013605931417216318, ,0.00904369686843997, ,0.01352549606852404, ,4.6520795556940165e-05, ,0.18236461409193758,-0.24136629325101283,0.09377491489,1.6934559835810188,0.47549501918373277,-1.3044964842012172, ,0.01813432859898161,-0.0040649581634697295,0.008859183270300336,0.00667023666227625,0.004048137441176075,0.010695910606861902, ,0.6599390506744385
0.011163235310326855,0.021162799389669328,-0.08316014804132621, ,0.01143224783450739,0.021306950975282214,-0.0834256773576947, ,0.00040454077130965243, ,0.0028979908919154296,0.0021840809023316596,-0.007043174923538455,-0.001446487500239193,-0.01207450632709418,0.0038093988479552137, ,0.007923059611104512, ,0.01216083927200904, ,4.743535296930692e-05, ,0.18274302800277456,-0.24144352057975507,0.09394343259000001,1.6936656735245033,0.4756316556834982,-1.3044445446246322, ,0.01944211054260823,-0.004017422103885398,0.007713710179176756,0.0008080742775120291,0.0074694180095170185,0.006418418850037776, ,0.6775100231170654
0.011192352798855883,0.021186208648482356,-0.08323462419026366, ,0.011489382616496313,0.021347756564844937,-0.0835725822490581, ,0.0004780586693625641, ,0.0030387602978939107,0.0023822750133965015,-0.007900137127560256,-0.008356197162553617,-0.009685480280799677,0.006598731311662737, ,0.008793262478839443, ,0.012791971252156325, ,4.8937005352043044e-05, ,0.18293609632463018,-0.24148985697700043,0.09402509886,1.6936656735245033,0.47576829218326366,-1.3043926050480477, ,0.019438128135696595,-0.003804252256655717,0.008614825051379124,0.0008080742775120291,0.009972967141238968,0.013650297841477567, ,0.6934230327606201
0.011257827594941965,0.021236537935636575,-0.08340729414548206, ,0.011547134317443293,0.021386906922267617,-0.08371985803479975, ,0.00045166956586680516, ,0.0032265166272767505,0.0024896311795402875,-0.008672310287848463,-0.0009756929052164072,-0.00541567523749216,-0.004035616223142756, ,0.009582152090472933, ,0.005502859790083606, ,5.0242727517648315e-05, ,0.18335312389983832,-0.24154391610711998,0.09421306091000001,1.693875363467988,0.4760415651827945,-1.3043704046350189, ,0.020084008795443548,-0.0023343779966971483,0.009419758438793615,0.010094768562036276,0.012740309255689584,0.006341323292027972, ,0.7089779376983643
0.01129001981258918,0.021261084519810423,-0.08349668372426537, ,0.011605496597544682,0.02142442520307839,-0.08386749782347205, ,0.0005135259261485922, ,0.0033921618781455986,0.0026960893859029997,-0.0096124008252371,0.00922297369669515,0.0027423035640144716,-0.004904318741401351, ,0.010543903916924792, ,0.009622026324110482, ,5.180550259803831e-05, ,0.18356163768744238,-0.24155936157286845,0.09431028266000001,1.693875363467988,0.4763148381823254,-1.3045932404424117, ,0.02081073279791026,-0.0019111775180485372,0.010431441728880159,0.010094768562036276,0.021920448278666318,-0.004048309086775819, ,0.723046064376831
0.011363923283158491,0.021316366872471657,-0.08370330272067039, ,0.011664463156703093,0.021460334428774375,-0.08401549474912749, ,0.0004566341374559512, ,0.004326354263102828,0.00292090770099689,-0.011021224728817305,-0.01995584352147638,-0.03912018642904637,-0.0070139016843340975, ,0.012194934912934345, ,0.04391610768597589, ,5.302811106403732e-05, ,0.18400183346127316,-0.2415825297714911,0.09453324454,1.693875363467988,0.4765881111818563,-1.304489361289242, ,0.024816145805039432,-0.0006365101754171701,0.01181662575667656,0.009834223245530588,-0.017198151522485574,0.022030403798628292, ,0.7374138832092285
0.011409307736157965,0.021348570139383842,-0.0838228898158538, ,0.011724027734417667,0.021494657487139558,-0.0841638419713075, ,0.00048645509842883594, ,0.004310269550217183,0.0031176332610980398,-0.01190000109661001,-0.018260557659823547,-0.013300881668202856,0.0025346268260370655, ,0.013034879625280537, ,0.02259117483806009, ,5.460961234537416e-05, ,0.18425668364612258,-0.24159025250436533,0.09466157725,1.6940850534114722,0.47645147468209087,-1.304132907165124, ,0.025326111971836346,-0.0002761854268737934,0.012814812164119069,0.0071369589530790025,0.01078890602168139,0.021646845874840066, ,0.7480359077453613
0.011454110820443196,0.0213829329432005,-0.08394981706488651, ,0.011784184109673823,0.021527417132561615,-0.08431253267503126, ,0.0005112598860477366, ,0.004635534983564853,0.0032960242089102665,-0.012759794216762268,-0.005714282270706357,-0.008596895239888791,-0.0013280264900557889, ,0.013970121997452132, ,0.010322755998282751, ,5.6264045912096135e-05, ,0.18452697929672043,-0.24159797523723955,0.09479898399000002,1.6942947433549567,0.4767247476816217,-1.304192385492236, ,0.027812702684194248,0.0003559633795099714,0.0137554503626943,0.008851529333914657,0.017776453495037103,0.008726823608261991, ,0.7592308521270752
0.011500977747288418,0.02141912082919502,-0.08408623188101859, ,0.011844926100833474,0.021558635986349998,-0.08446156007078569, ,0.0005278600183914105, ,0.004383629820193878,0.0035214257396474816,-0.013495937394244744,0.0286301975831599,0.0320919389793699,-0.003325599102995103, ,0.014620430082241714, ,0.04300674730059604, ,5.79498106100075e-05, ,0.18481272041306673,-0.24159797523723955,0.09494676105000001,1.6945044332984414,0.4771346571809181,-1.3044449604631845, ,0.02702846526871854,0.00031375258535605284,0.014640451764705886,0.01167395200762854,0.058375206158906436,-0.023416358759471744, ,0.7705459594726562
0.011548561230386969,0.021454041912699798,-0.0842212432131091, ,0.011906247565524825,0.021588336537052617,-0.08461091739451396, ,0.0005457293542846676, ,0.004633365362563696,0.0032672117758608746,-0.012975619350982927,0.013095329434684744,-0.001680850388713361,0.01757862994541061, ,0.0141601357660487, ,0.013202747562829574, ,5.967147691766789e-05, ,0.1850830160636646,-0.24159025250436533,0.09509194553000001,1.6947141232419258,0.4772712936806835,-1.3044746996267405, ,0.02857480926180993,0.00029599429663246756,0.014009508812664908,-0.014523219023511296,0.031470058474738764,-0.014196004112538614, ,0.7811849117279053
0.011599245914081043,0.021487190184643862,-0.08435276549371576, ,0.011968142400532334,0.02161654114077392,-0.08476059790760523, ,0.00056492792937399, ,0.005092988256591529,0.003383214420318119,-0.013470924341821764,-0.00046089390266748745,-0.015589023686415774,0.018675518486752817, ,0.014793595635230599, ,0.015595821206008944, ,6.171544469536815e-05, ,0.18538420264575936,-0.2415825297714911,0.09523324114000001,1.6947141232419258,0.4772712936806835,-1.3043930208865997, ,0.03166397783065425,0.0004085246486236277,0.014533587153284672,-0.014523219023511296,0.020286363141395397,-0.0010103126921808042, ,0.7882678508758545
0.011653954372371288,0.021523701637393214,-0.08449931005166167, ,0.012030604541686555,0.021643272021491907,-0.08491059489688269, ,0.0007222225754164293, ,0.005976324710726273,0.0038692413059807666,-0.015608667607709924,-0.0049077078375047885,-0.03062820960248564,0.01667891745887842, ,0.01715569846493923, ,0.03101889574447795, ,6.443722508639403e-05, ,0.18572400289222524,-0.24156708430574267,0.09539138852000001,1.6947141232419258,0.47754456668021433,-1.304370820473571, ,0.036068772922261794,0.001025314315180515,0.016784838271865124,-0.014523219023511296,0.009259848271125762,0.002113379936925247, ,0.7958779335021973
0.011653954372371288,0.021523701637393214,-0.08449931005166167, ,0.012093627963754086,0.02166855127137522,-0.08506090167459394, ,0.0007277907902494203, ,0.005976324710726273,0.0038692413059807666,-0.015608667607709924,-0.0049077078375047885,-0.03062820960248564,0.01667891745887842, ,0.01715569846493923, ,0.03101889574447795, ,6.713504643809057e-05, ,0.18572400289222524,-0.24156708430574267,0.09539138852000001,1.6947141232419258,0.47754456668021433,-1.304370820473571, ,0.036068772922261794,0.001025314315180515,0.016784838271865124,-0.014523219023511296,0.009259848271125762,0.002113379936925247, ,0.8033199310302734
0.011711847458515699,0.021564850922343448,-0.08466336003683524, ,0.012157206680327146,0.021692400851101138,-0.0852115115783989, ,0.0007176934814370355, ,0.005941705584679657,0.004299118879859017,-0.01741220959958656,0.07092679883964759,0.03165959548782411,0.010865513824176687, ,0.018893684964508856, ,0.07767199739637061, ,6.973961513702296e-05, ,0.18608697133731378,-0.24155163883999423,0.09556898025,1.6947141232419258,0.4780911126792762,-1.3047348133482162, ,0.03783769599620047,0.0018104753080180642,0.018872999431279625,-0.014523219023511296,0.07546931096083606,-0.07286038493037723, ,0.8122189044952393
0.011782029093604776,0.02161309408695993,-0.08485866774276603, ,0.01222133474371376,0.021714842590172305,-0.08536241797135988, ,0.0006760965204258858, ,0.007074281715142744,0.0049086988415083825,-0.020122935400648863,0.007076367970679614,-0.01405383554696966,0.01836919121742231, ,0.02188774349357457, ,0.015734737928319753, ,7.211402792530544e-05, ,0.18649627617964767,-0.24152847064137153,0.09577897923,1.6947141232419258,0.478364385678807,-1.3048759704154684, ,0.04064108846187185,0.002352507565318569,0.02161304141112619,-0.014523219023511296,0.03116178396206564,-0.010058045400522384, ,0.8196718692779541
0.011857673653237564,0.02166288085784126,-0.08506952025771156, ,0.01228600624482703,0.02173589818723395,-0.08551361424192916, ,0.000621304922101583, ,0.007918067914763495,0.005141219309512191,-0.0217385263065384,-0.01625812986883873,-0.04092739819149534,-0.007461930251726328, ,0.023700030832709273, ,0.04403832257239462, ,7.420647032114303e-05, ,0.18692102648773004,-0.24148985697700043,0.09600453369,1.6945044332984414,0.47850102217857243,-1.3049057095790242, ,0.0435307071369132,0.005323319344267957,0.023219841865889216,0.01110045984485326,0.0,0.01366585973078678, ,0.826746940612793
0.011857673653237564,0.02166288085784126,-0.08506952025771156, ,0.012351215313075337,0.021755589210391967,-0.08566509380393987, ,0.0007790289196140672, ,0.007918067914763495,0.005141219309512191,-0.0217385263065384,-0.01625812986883873,-0.04092739819149534,-0.007461930251726328, ,0.023700030832709273, ,0.04403832257239462, ,7.728429761063178e-05, ,0.18692102648773004,-0.24148985697700043,0.09600453369,1.6945044332984414,0.47850102217857243,-1.3049057095790242, ,0.0435307071369132,0.005323319344267957,0.023219841865889216,0.01110045984485326,0.0,0.01366585973078678, ,0.8303749561309814
0.011857673653237564,0.02166288085784126,-0.08506952025771156, ,0.012416956116251735,0.021773937097528926,-0.08581685009659314, ,0.0009400171540411013, ,0.007918067914763495,0.005141219309512191,-0.0217385263065384,-0.01625812986883873,-0.04092739819149534,-0.007461930251726328, ,0.023700030832709273, ,0.04403832257239462, ,8.103531002989469e-05, ,0.18692102648773004,-0.24148985697700043,0.09600453369,1.6945044332984414,0.47850102217857243,-1.3049057095790242, ,0.0435307071369132,0.005323319344267957,0.023219841865889216,0.01110045984485326,0.0,0.01366585973078678, ,0.8339889049530029
0.01193593275405199,0.021717108538077103,-0.08529825931778878, ,0.012483222860423835,0.021790963156622187,-0.08596887658444836, ,0.0008687395947894357, ,0.008323594853127673,0.005753969896664084,-0.02403803300673615,0.06796440510091696,0.038972400895793874,-0.007581588996352808, ,0.026080978349817832, ,0.07834539148148757, ,0.0004536479279457027, ,0.18738439046018351,-0.24143579784688085,0.09625082879,1.6945044332984414,0.47918420467739964,-1.3053811203573658, ,0.05143465667125787,0.005758592259467307,0.025985010636215337,0.009793144575471252,0.0911181118089962,-0.06799690230653957, ,0.8375959396362305
0.01193593275405199,0.021717108538077103,-0.08529825931778878, ,0.012550009789823341,0.02180668856606092,-0.08612116675741109, ,0.001030675429735789, ,0.008323594853127673,0.005753969896664084,-0.02403803300673615,0.06796440510091696,0.038972400895793874,-0.007581588996352808, ,0.026080978349817832, ,0.07834539148148757, ,0.00046676218935002287, ,0.18738439046018351,-0.24143579784688085,0.09625082879,1.6945044332984414,0.47918420467739964,-1.3053811203573658, ,0.05143465667125787,0.005758592259467307,0.025985010636215337,0.009793144575471252,0.0911181118089962,-0.06799690230653957, ,0.8413360118865967
0.01193593275405199,0.021717108538077103,-0.08529825931778878, ,0.012617311186735779,0.0218211343749632,-0.08627371413072296, ,0.0011944078178507214, ,0.008323594853127673,0.005753969896664084,-0.02403803300673615,0.06796440510091696,0.038972400895793874,-0.007581588996352808, ,0.026080978349817832, ,0.07834539148148757, ,0.00048293209220559395, ,0.18738439046018351,-0.24143579784688085,0.09625082879,1.6945044332984414,0.47918420467739964,-1.3053811203573658, ,0.05143465667125787,0.005758592259467307,0.025985010636215337,0.009793144575471252,0.0911181118089962,-0.06799690230653957, ,0.8451108932495117
0.012032202544216516,0.02178139795203421,-0.0855752733588247, ,0.012685121371390188,0.021834321503493154,-0.08642651224494986, ,0.0010741096491645907, ,0.01056304995634935,0.006974953247401123,-0.030938635701711126,0.048004991928942004,0.02092167329443296,-0.010924702989427966, ,0.033427940054196546, ,0.05236570744888569, ,0.0004957837782264417, ,0.1879558726928761,-0.24133540231951592,0.09654897549000001,1.6949238131854105,0.48000402367599226,-1.305886270299263, ,0.06067579383533937,0.011708444362550374,0.033185024,0.01407988077086351,0.08098603978854955,-0.05317132337384268, ,0.8487448692321777
0.012032202544216516,0.02178139795203421,-0.0855752733588247, ,0.012753434701848627,0.021846270743178364,-0.08657955466597114, ,0.0012381297379989188, ,0.01056304995634935,0.006974953247401123,-0.030938635701711126,0.048004991928942004,0.02092167329443296,-0.010924702989427966, ,0.033427940054196546, ,0.05236570744888569, ,0.0005115783731152178, ,0.1879558726928761,-0.24133540231951592,0.09654897549000001,1.6949238131854105,0.48000402367599226,-1.305886270299263, ,0.06067579383533937,0.011708444362550374,0.033185024,0.01407988077086351,0.08098603978854955,-0.05317132337384268, ,0.852323055267334
0.012148640165624051,0.02185705445185841,-0.08591582320827222, ,0.012822245573895866,0.021857002757226806,-0.08673283498496849, ,0.0010588921059228686, ,0.01056304995634935,0.006974953247401123,-0.030938635701711126,0.048004991928942004,0.02092167329443296,-0.010924702989427966, ,0.033427940054196546, ,0.05236570744888569, ,0.0005229807425487106, ,0.18860458225431098,-0.2412041158606541,0.09691323298000001,1.6949238131854105,0.48068720617481947,-1.306280002337464, ,0.06886570504968853,0.014225294792155717,0.040531327022900764,0.013824716231983378,0.0604852120217409,-0.0331280034736143, ,0.8562328815460205
0.012148640165624051,0.02185705445185841,-0.08591582320827222, ,0.012891548420928859,0.021866538080843913,-0.08688634681841483, ,0.0012222596667087566, ,0.012833999165927432,0.008502971700452926,-0.03794774187107931,0.024794368122109136,-0.007153434758882056,-0.010365474437076288, ,0.04095171761286449, ,0.0258041397373818, ,0.0005372517410009564, ,0.18860458225431098,-0.2412041158606541,0.09691323298000001,1.6949238131854105,0.48068720617481947,-1.306280002337464, ,0.06886570504968853,0.014225294792155717,0.040531327022900764,0.013824716231983378,0.0604852120217409,-0.0331280034736143, ,0.8598589897155762
0.012148640165624051,0.02185705445185841,-0.08591582320827222, ,0.012961337713846452,0.021874897121550243,-0.08704008380806284, ,0.0013873563212059123, ,0.012833999165927432,0.008502971700452926,-0.03794774187107931,0.024794368122109136,-0.007153434758882056,-0.010365474437076288, ,0.04095171761286449, ,0.0258041397373818, ,0.0005542538326050555, ,0.18860458225431098,-0.2412041158606541,0.09691323298000001,1.6949238131854105,0.48068720617481947,-1.306280002337464, ,0.06886570504968853,0.014225294792155717,0.040531327022900764,0.013824716231983378,0.0604852120217409,-0.0331280034736143, ,0.8634178638458252
0.012292641575160981,0.021949621158927186,-0.08633926077776577, ,0.013031607960938905,0.021882100159497948,-0.08719403962093455, ,0.0011319351904603805, ,0.014696242609367702,0.00950801558222241,-0.04383217749676806,0.05465494280194601,0.020207832311139325,-0.009942552739510226, ,0.047197899225001096, ,0.05826969593492966, ,0.0005655809180531992, ,0.1893923010074819,-0.24102649300454695,0.09736563819,1.6949238131854105,0.4815070251734121,-1.306866831019502, ,0.08014944388384355,0.01976196200717842,0.046849445647058834,0.012317263664371908,0.10081689336157801,-0.06718248870866791, ,0.8669848442077637
0.012292641575160981,0.021949621158927186,-0.08633926077776577, ,0.01310235370777732,0.021888167347788347,-0.08734820794930932, ,0.0012951388742429607, ,0.014696242609367702,0.00950801558222241,-0.04383217749676806,0.05465494280194601,0.020207832311139325,-0.009942552739510226, ,0.047197899225001096, ,0.05826969593492966, ,0.0005796108787491562, ,0.1893923010074819,-0.24102649300454695,0.09736563819,1.6949238131854105,0.4815070251734121,-1.306866831019502, ,0.08014944388384355,0.01976196200717842,0.046849445647058834,0.012317263664371908,0.10081689336157801,-0.06718248870866791, ,0.8706350326538086
0.012292641575160981,0.021949621158927186,-0.08633926077776577, ,0.013173569537103373,0.021893118712788616,-0.08750258251071302, ,0.0014603232706832483, ,0.014696242609367702,0.00950801558222241,-0.04383217749676806,0.05465494280194601,0.020207832311139325,-0.009942552739510226, ,0.047197899225001096, ,0.05826969593492966, ,0.0005962280936913088, ,0.1893923010074819,-0.24102649300454695,0.09736563819,1.6949238131854105,0.4815070251734121,-1.306866831019502, ,0.08014944388384355,0.01976196200717842,0.046849445647058834,0.012317263664371908,0.10081689336157801,-0.06718248870866791, ,0.8743820190429688
0.012352100869393347,0.021987367133955618,-0.0865164679246997, ,0.013245250068718621,0.02189697415444972,-0.08765715704790765, ,0.0014515708934820376, ,0.015358995771394992,0.009644210008916144,-0.045594904533502026,0.06063491672924531,0.026038204470756048,-0.010158529754337894, ,0.04906938818877785, ,0.06598775770173487, ,0.0006120677751689148, ,0.1897166557881993,-0.24094154294293046,0.09755489653,1.6949238131854105,0.48191693467270846,-1.3072010847305915, ,0.08442788394881742,0.0231795167460847,0.04871196183486239,0.011825610906534442,0.11138495739370491,-0.07622070436565505, ,0.8784868717193604
0.012352100869393347,0.021987367133955618,-0.0865164679246997, ,0.01331738995937417,0.021899753446622316,-0.0878119253288784, ,0.0016179212191839048, ,0.015358995771394992,0.009644210008916144,-0.045594904533502026,0.06063491672924531,0.026038204470756048,-0.010158529754337894, ,0.04906938818877785, ,0.06598775770173487, ,0.000630356019605551, ,0.1897166557881993,-0.24094154294293046,0.09755489653,1.6949238131854105,0.48191693467270846,-1.3072010847305915, ,0.08442788394881742,0.0231795167460847,0.04871196183486239,0.011825610906534442,0.11138495739370491,-0.07622070436565505, ,0.8822500705718994
0.012352100869393347,0.021987367133955618,-0.08726154375728133, ,0.013389983902660102,0.021901476237374998,-0.08796688114682448, ,0.0017855746838966984, ,0.016748687157495626,0.008044145835258205,-0.04456533421798888,0.019182572913877687,-0.02412581910171766,-0.0014631181274376954, ,0.04906938818877785, ,0.06598775770173487, ,0.0006509849243250359, ,0.19112991590418238,-0.24045501077185433,0.09834822601000001,1.695133503128895,0.4834199361701283,-1.3083450029311114, ,0.09753025853902444,0.03673904047946991,0.04740717714285715,-0.001825028633650693,0.07639897688624958,-0.05215202306808424, ,0.8867759704589844
0.012609789526894736,0.02213462310319303,-0.08726154375728133, ,0.013463026628894982,0.021902162049310423,-0.08812201832014656, ,0.0012338833685320886, ,0.016748687157495626,0.008044145835258205,-0.04456533421798888,0.019182572913877687,-0.02412581910171766,-0.0014631181274376954, ,0.04828349425714352, ,0.03081964412992891, ,0.0006612112128198965, ,0.19112991590418238,-0.24045501077185433,0.09834822601000001,1.695133503128895,0.4834199361701283,-1.3083450029311114, ,0.09753025853902444,0.03673904047946991,0.04740717714285715,-0.001825028633650693,0.07639897688624958,-0.05215202306808424, ,0.8903899192810059
0.012609789526894736,0.02213462310319303,-0.08726154375728133, ,0.013536512905015317,0.021901830279883135,-0.0882773306924359, ,0.0013945722698270344, ,0.016748687157495626,0.008044145835258205,-0.04456533421798888,0.019182572913877687,-0.02412581910171766,-0.0014631181274376954, ,0.04828349425714352, ,0.03081964412992891, ,0.0006738553689751919, ,0.19112991590418238,-0.24045501077185433,0.09834822601000001,1.695133503128895,0.4834199361701283,-1.3083450029311114, ,0.09753025853902444,0.03673904047946991,0.04740717714285715,-0.001825028633650693,0.07639897688624958,-0.05215202306808424, ,0.893949031829834
0.012782261062254534,0.022208363211753488,-0.08770366502433907, ,0.01361043753446504,0.02190050020171631,-0.08843281213246326, ,0.0011455616122051477, ,0.017544089496199976,0.007038799313745284,-0.04415632802553417,0.04032588031520546,-0.011641504926546111,-0.00642230565272054, ,0.04803250021317264, ,0.04197062536314049, ,0.0006818503900468861, ,0.19218020757507692,-0.24002253773089777,0.09881877928,1.695133503128895,0.4843763916684864,-1.3090432495168458, ,0.10832984196172464,0.046540922784929266,0.04698764460176992,-0.001825028633650693,0.1004161697972916,-0.08249797046265075, ,0.8975348472595215
0.012782261062254534,0.022208363211753488,-0.08770366502433907, ,0.013684795357084913,0.021898190962918618,-0.0885884565341678, ,0.0013013957865143312, ,0.017544089496199976,0.007038799313745284,-0.04415632802553417,0.04032588031520546,-0.011641504926546111,-0.00642230565272054, ,0.04803250021317264, ,0.04197062536314049, ,0.0006921761466546769, ,0.19218020757507692,-0.24002253773089777,0.09881877928,1.695133503128895,0.4843763916684864,-1.3090432495168458, ,0.10832984196172464,0.046540922784929266,0.04698764460176992,-0.001825028633650693,0.1004161697972916,-0.08249797046265075, ,0.9011099338531494
0.012782261062254534,0.022208363211753488,-0.08770366502433907, ,0.013759581249002156,0.021894921587401847,-0.08874425781664559, ,0.0014615860421818751, ,0.017544089496199976,0.007038799313745284,-0.04415632802553417,0.04032588031520546,-0.011641504926546111,-0.00642230565272054, ,0.04803250021317264, ,0.04197062536314049, ,0.0007047894236305326, ,0.19218020757507692,-0.24002253773089777,0.09881877928,1.695133503128895,0.4843763916684864,-1.3090432495168458, ,0.10832984196172464,0.046540922784929266,0.04698764460176992,-0.001825028633650693,0.1004161697972916,-0.08249797046265075, ,0.9046919345855713
0.01294428448335408,0.022264415662716763,-0.08809712204073816, ,0.013834790122519543,0.021890710975197306,-0.08890020992413891, ,0.0012560277207628026, ,0.018299108700092,0.005566240315265367,-0.04216109966803617,0.06395906811063813,0.010938539965944375,0.0017808350070248474, ,0.04629685449016108, ,0.06488667685409553, ,0.0007136803639068596, ,0.19322277651309724,-0.23954372829269585,0.09923748095000001,1.6949238131854105,0.4854694836666099,-1.3099345927464172, ,0.12372482602147429,0.05682451590327592,0.04499664271186441,-0.012222764328024233,0.1421805430332358,-0.11659740471197567, ,0.9082679748535156
0.01294428448335408,0.022264415662716763,-0.08809712204073816, ,0.013910416926005253,0.021885577902773245,-0.08905630682602414, ,0.0014131402610591253, ,0.018299108700092,0.005566240315265367,-0.04216109966803617,0.06395906811063813,0.010938539965944375,0.0017808350070248474, ,0.04629685449016108, ,0.06488667685409553, ,0.0007247829019568956, ,0.19322277651309724,-0.23954372829269585,0.09923748095000001,1.6949238131854105,0.4854694836666099,-1.3099345927464172, ,0.12372482602147429,0.05682451590327592,0.04499664271186441,-0.012222764328024233,0.1421805430332358,-0.11659740471197567, ,0.9119288921356201
0.01294428448335408,0.022264415662716763,-0.08809712204073816, ,0.01398645664378197,0.021879541023351875,-0.08921254251680143, ,0.0015742979827270275, ,0.018299108700092,0.005566240315265367,-0.04216109966803617,0.06395906811063813,0.010938539965944375,0.0017808350070248474, ,0.04629685449016108, ,0.06488667685409553, ,0.0007380565750939288, ,0.19322277651309724,-0.23954372829269585,0.09923748095000001,1.6949238131854105,0.4854694836666099,-1.3099345927464172, ,0.12372482602147429,0.05682451590327592,0.04499664271186441,-0.012222764328024233,0.1421805430332358,-0.11659740471197567, ,0.9156820774078369
0.01310915019048967,0.022305470287457708,-0.08845729479170619, ,0.014062904296016502,0.02187261886722658,-0.08936891101608305, ,0.0013885429004364634, ,0.018092542799864806,0.0038497021415459,-0.03860356039784605,0.10310584181528287,0.056200485747092584,0.002027708504298945, ,0.042806485337314376, ,0.117427524387858, ,0.0007480640570222755, ,0.19441980010860202,-0.23898769152575167,0.09962377537000001,1.6947141232419258,0.48724575816356064,-1.3113830254944707, ,0.13309528970332507,0.06580925212099221,0.04137353641558442,-0.013999827208779287,0.1989795341452634,-0.16282136226124455, ,0.9193849563598633
0.01310915019048967,0.022305470287457708,-0.08845729479170619, ,0.014139754938609066,0.0218648298420783,-0.0895254063685823, ,0.001548280494486444, ,0.018092542799864806,0.0038497021415459,-0.03860356039784605,0.10310584181528287,0.056200485747092584,0.002027708504298945, ,0.042806485337314376, ,0.117427524387858, ,0.0007601885484990053, ,0.19441980010860202,-0.23898769152575167,0.09962377537000001,1.6947141232419258,0.48724575816356064,-1.3113830254944707, ,0.13309528970332507,0.06580925212099221,0.04137353641558442,-0.013999827208779287,0.1989795341452634,-0.16282136226124455, ,0.9230029582977295
0.013323407724226244,0.022339667625457117,-0.08888715998809386, ,0.014217003663082723,0.021856192233293416,-0.08968202264410216, ,0.0012899879064104441, ,0.019532944113316793,0.002435653832859627,-0.038386191318001146,0.017514984496042565,-0.029555857498188072,-0.0043806525939031424, ,0.04313893831829508, ,0.03435462196270847, ,0.0007680960016021611, ,0.19599523761494383,-0.23816908184108387,0.10008266203,1.6945044332984414,0.48902203266051136,-1.3129131369826648, ,0.14058806156810486,0.07941166657612617,0.04073864838874681,-0.009904671199931358,0.11708210651415982,-0.09279296735471036, ,0.9271440505981445
0.013323407724226244,0.022339667625457117,-0.08888715998809386, ,0.014294645596472852,0.021846724204280025,-0.08983875393752383, ,0.0014463150644170224, ,0.019532944113316793,0.002435653832859627,-0.038386191318001146,0.017514984496042565,-0.029555857498188072,-0.0043806525939031424, ,0.04313893831829508, ,0.03435462196270847, ,0.0007780698113494385, ,0.19599523761494383,-0.23816908184108387,0.10008266203,1.6945044332984414,0.48902203266051136,-1.3129131369826648, ,0.14058806156810486,0.07941166657612617,0.04073864838874681,-0.009904671199931358,0.11708210651415982,-0.09279296735471036, ,0.9307689666748047
0.013323407724226244,0.022339667625457117,-0.08888715998809386, ,0.014372675901216521,0.021836443796785513,-0.08999559436879628, ,0.0016071168922360826, ,0.019532944113316793,0.002435653832859627,-0.038386191318001146,0.017514984496042565,-0.029555857498188072,-0.0043806525939031424, ,0.04313893831829508, ,0.03435462196270847, ,0.0007900849864347522, ,0.19599523761494383,-0.23816908184108387,0.10008266203,1.6945044332984414,0.48902203266051136,-1.3129131369826648, ,0.14058806156810486,0.07941166657612617,0.04073864838874681,-0.009904671199931358,0.11708210651415982,-0.09279296735471036, ,0.9343860149383545
0.01351498438923875,0.022353649328583795,-0.08925780795996051, ,0.0144510897750417,0.02182536893121343,-0.09015253808292432, ,0.0013985404765375672, ,0.020443374078260274,0.0011442031480138652,-0.03997755952055856,0.0037274543351025697,-0.035697028057615696,0.01646781711584461, ,0.04491598835345173, ,0.03588968674818027, ,0.0007987772077219353, ,0.19737760679943,-0.2373195812249192,0.10047414161000001,1.6940850534114722,0.4901151246586349,-1.3137228014720956, ,0.1464458974667759,0.0954697601191859,0.04213971301587302,-0.035841810516918045,0.12301184675760089,-0.09962114502782843, ,0.9379360675811768
0.01351498438923875,0.022353649328583795,-0.08925780795996051, ,0.014529882450856995,0.02181351740694005,-0.09030957924995706, ,0.001558198772530655, ,0.020443374078260274,0.0011442031480138652,-0.03997755952055856,0.0037274543351025697,-0.035697028057615696,0.01646781711584461, ,0.04491598835345173, ,0.03588968674818027, ,0.0008094732860995229, ,0.19737760679943,-0.2373195812249192,0.10047414161000001,1.6940850534114722,0.4901151246586349,-1.3137228014720956, ,0.1464458974667759,0.0954697601191859,0.04213971301587302,-0.035841810516918045,0.12301184675760089,-0.09962114502782843, ,0.9415469169616699
0.01351498438923875,0.022353649328583795,-0.08925780795996051, ,0.014609049196640632,0.02180090690263229,-0.09046671206497814, ,0.0017216129435417677, ,0.020443374078260274,0.0011442031480138652,-0.03997755952055856,0.0037274543351025697,-0.035697028057615696,0.01646781711584461, ,0.04491598835345173, ,0.03588968674818027, ,0.0008221418924528874, ,0.19737760679943,-0.2373195812249192,0.10047414161000001,1.6940850534114722,0.4901151246586349,-1.3137228014720956, ,0.1464458974667759,0.0954697601191859,0.04213971301587302,-0.035841810516918045,0.12301184675760089,-0.09962114502782843, ,0.9451620578765869
0.013705317867101975,0.022362621315521247,-0.08962714620160837, ,0.014688585315330151,0.02178755497656382,-0.09062393074809247, ,0.0015136365485335474, ,0.021011627734897974,0.0007170155607193682,-0.04071163014043938,0.04428766986005057,0.005026880770630736,0.013418051458423277, ,0.04581964033115253, ,0.044570790806585575, ,0.000831614421988239, ,0.1987599759839162,-0.2364160214786349,0.10086432490000001,1.693875363467988,0.4914814896562893,-1.314755301768919, ,0.15405347655595905,0.10171162010554209,0.04305084194594595,-0.03529944287840042,0.17265247949227044,-0.14466890496356272, ,0.9490978717803955
0.013705317867101975,0.022362621315521247,-0.08962714620160837, ,0.014768486144711625,0.021773479066932666,-0.09078122954441686, ,0.0016761037371641108, ,0.021011627734897974,0.0007170155607193682,-0.04071163014043938,0.04428766986005057,0.005026880770630736,0.013418051458423277, ,0.04581964033115253, ,0.044570790806585575, ,0.0008430264397608859, ,0.1987599759839162,-0.2364160214786349,0.10086432490000001,1.693875363467988,0.4914814896562893,-1.314755301768919, ,0.15405347655595905,0.10171162010554209,0.04305084194594595,-0.03529944287840042,0.17265247949227044,-0.14466890496356272, ,0.9527368545532227
0.013705317867101975,0.022362621315521247,-0.08962714620160837, ,0.01484874705730896,0.021758696492177713,-0.09093860272406712, ,0.001841758321704427, ,0.021011627734897974,0.0007170155607193682,-0.04071163014043938,0.04428766986005057,0.005026880770630736,0.013418051458423277, ,0.04581964033115253, ,0.044570790806585575, ,0.0008563428648534666, ,0.1987599759839162,-0.2364160214786349,0.10086432490000001,1.693875363467988,0.4914814896562893,-1.314755301768919, ,0.15405347655595905,0.10171162010554209,0.04305084194594595,-0.03529944287840042,0.17265247949227044,-0.14466890496356272, ,0.9563970565795898
0.01395389028047064,0.02236236472405211,-0.09010698419312724, ,0.014929363460273456,0.02174322445129643,-0.09109604458214834, ,0.0015208954779974784, ,0.022373162817003783,-0.0005897218991834617,-0.04265254239606781,0.05905601774804629,0.030884440898103622,0.0035631442744270764, ,0.04816788929570092, ,0.06664323489770935, ,0.0008650869781843089, ,0.20059798640798163,-0.23511087962289098,0.10137117429,1.693875363467988,0.4938043101523018,-1.3166494061317584, ,0.1659037439833405,0.12012271083350731,0.04499664271186441,-0.029055301829738155,0.20995239578813707,-0.17500053305349544, ,0.9605789184570312
0.01395389028047064,0.02236236472405211,-0.09010698419312724, ,0.015010330795272949,0.021727080024161016,-0.09125354943874235, ,0.00168352756843597, ,0.022373162817003783,-0.0005897218991834617,-0.04265254239606781,0.05905601774804629,0.030884440898103622,0.0035631442744270764, ,0.04816788929570092, ,0.06664323489770935, ,0.0008757160767590057, ,0.20059798640798163,-0.23511087962289098,0.10137117429,1.693875363467988,0.4938043101523018,-1.3166494061317584, ,0.1659037439833405,0.12012271083350731,0.04499664271186441,-0.029055301829738155,0.20995239578813707,-0.17500053305349544, ,0.9641730785369873
0.014187331929483321,0.02235328234960125,-0.0905501349556022, ,0.015091644538381372,0.021710280171836065,-0.09141111163889755, ,0.0014044621548482646, ,0.023547569546412222,-0.0015738074549879744,-0.04304248787090961,0.026256880478394303,-0.0016584293715787319,-0.003907250492702596, ,0.04908788713690881, ,0.02630639512114168, ,0.000882494872631945, ,0.20231243310605948,-0.23384435143151816,0.10183783869000002,1.6934559835810188,0.49585385764878337,-1.3183206746872047, ,0.17348618200817328,0.13053224423448526,0.04525230545454546,-0.023869951215144767,0.18282335271889122,-0.1524699847388766, ,0.9677109718322754
0.014187331929483321,0.02235328234960125,-0.0905501349556022, ,0.015173300199967899,0.0216928417368952,-0.09156872555261666, ,0.0015639188078798011, ,0.023547569546412222,-0.0015738074549879744,-0.04304248787090961,0.026256880478394303,-0.0016584293715787319,-0.003907250492702596, ,0.04908788713690881, ,0.02630639512114168, ,0.0008911204920654622, ,0.20231243310605948,-0.23384435143151816,0.10183783869000002,1.6934559835810188,0.49585385764878337,-1.3183206746872047, ,0.17348618200817328,0.13053224423448526,0.04525230545454546,-0.023869951215144767,0.18282335271889122,-0.1524699847388766, ,0.9713058471679688
0.014187331929483321,0.02235328234960125,-0.0905501349556022, ,0.015255293324586456,0.02167478144373839,-0.09172638557484628, ,0.001727562022029724, ,0.023547569546412222,-0.0015738074549879744,-0.04304248787090961,0.026256880478394303,-0.0016584293715787319,-0.003907250492702596, ,0.04908788713690881, ,0.02630639512114168, ,0.0009015760111900156, ,0.20231243310605948,-0.23384435143151816,0.10183783869000002,1.6934559835810188,0.49585385764878337,-1.3183206746872047, ,0.17348618200817328,0.13053224423448526,0.04525230545454546,-0.023869951215144767,0.18282335271889122,-0.1524699847388766, ,0.9749388694763184
0.01441659864171331,0.022331488578693187,-0.09096050314258791, ,0.015337619490864934,0.021656115898908288,-0.09188408612546506, ,0.0014688135305177654, ,0.024544773038607748,-0.002849317296066341,-0.04349875080636422,-0.013322346857595356,-0.042370259053417764,0.05631934771827068, ,0.050027050825374474, ,0.04441360201417111, ,0.0009085789435273952, ,0.20400371160551464,-0.2325623777743969,0.10226820697000001,1.6926172238070805,0.4974934956459687,-1.3195760107914212, ,0.18007009783391037,0.1407966491965442,0.04551089005714286,-0.0898452244840492,0.16314475132187967,-0.13680993950532494, ,0.978708028793335
0.01441659864171331,0.022331488578693187,-0.09096050314258791, ,0.015420274311394639,0.021636861591408027,-0.09204182164927269, ,0.0016306812117253679, ,0.024544773038607748,-0.002849317296066341,-0.04349875080636422,-0.013322346857595356,-0.042370259053417764,0.05631934771827068, ,0.050027050825374474, ,0.04441360201417111, ,0.0009173850687493217, ,0.20400371160551464,-0.2325623777743969,0.10226820697000001,1.6926172238070805,0.4974934956459687,-1.3195760107914212, ,0.18007009783391037,0.1407966491965442,0.04551089005714286,-0.0898452244840492,0.16314475132187967,-0.13680993950532494, ,0.9823498725891113
0.01441659864171331,0.022331488578693187,-0.09096050314258791, ,0.015503253432619591,0.021617034893017778,-0.09219958661597885, ,0.001796271292874577, ,0.024544773038607748,-0.002849317296066341,-0.04349875080636422,-0.013322346857595356,-0.042370259053417764,0.05631934771827068, ,0.050027050825374474, ,0.04441360201417111, ,0.0009279740594014331, ,0.20400371160551464,-0.2325623777743969,0.10226820697000001,1.6926172238070805,0.4974934956459687,-1.3195760107914212, ,0.18007009783391037,0.1407966491965442,0.04551089005714286,-0.0898452244840492,0.16314475132187967,-0.13680993950532494, ,0.9860010147094727
0.014674937129968653,0.02229763408646079,-0.09141723215328526, ,0.015586552534725783,0.021596652058611603,-0.09235737552019171, ,0.0014853578693016266, ,0.024151426825660165,-0.004039539684504025,-0.04339923170969241,-0.020382255734445073,-0.02998716625482666,0.019943238889445335, ,0.04983073962494909, ,0.03625620675142495, ,0.000934609580947864, ,0.2058803356939512,-0.231017831199552,0.10274524169000002,1.6924075338635962,0.499133133643154,-1.3209130256357782, ,0.1738039222682615,0.15281311040011397,0.04512411195467422,-0.05461570774009577,0.16095827717154687,-0.13472198685378778, ,0.9898149967193604
0.014674937129968653,0.02229763408646079,-0.09141723215328526, ,0.0156701673315306,0.02157572922647479,-0.09251518288140632, ,0.0016483705840477792, ,0.024151426825660165,-0.004039539684504025,-0.04339923170969241,-0.020382255734445073,-0.02998716625482666,0.019943238889445335, ,0.04983073962494909, ,0.03625620675142495, ,0.0009430067692196277, ,0.2058803356939512,-0.231017831199552,0.10274524169000002,1.6924075338635962,0.499133133643154,-1.3209130256357782, ,0.1738039222682615,0.15281311040011397,0.04512411195467422,-0.05461570774009577,0.16095827717154687,-0.13472198685378778, ,0.9948680400848389
0.014674937129968653,0.02229763408646079,-0.09141723215328526, ,0.015754093570372222,0.02155428241862073,-0.09267300324399406, ,0.0018149686931749215, ,0.024151426825660165,-0.004039539684504025,-0.04339923170969241,-0.020382255734445073,-0.02998716625482666,0.019943238889445335, ,0.04983073962494909, ,0.03625620675142495, ,0.0009531458613586427, ,0.2058803356939512,-0.231017831199552,0.10274524169000002,1.6924075338635962,0.499133133643154,-1.3209130256357782, ,0.1738039222682615,0.15281311040011397,0.04512411195467422,-0.05461570774009577,0.16095827717154687,-0.13472198685378778, ,0.9988980293273926
0.014911032530929517,0.022254001079604575,-0.09183018671708178, ,0.015838327031998667,0.021532327541107513,-0.09283083117719083, ,0.0015433655184132178, ,0.024432267546783258,-0.004768905009036887,-0.043074864434635096,0.00421205228430577,0.0014095764678286136,-0.0012966899102583326, ,0.04975059897654507, ,0.004424929109542988, ,0.0009599299953477758, ,0.2076102278577775,-0.22948873009045553,0.10317560997000001,1.6924075338635962,0.5009094081401047,-1.3223614583838317, ,0.17837770969637368,0.15949065808146348,0.0448698916056338,-0.034192532736184486,0.19311370739322847,-0.16070160813012302, ,1.002776861190796
0.014911032530929517,0.022254001079604575,-0.09183018671708178, ,0.015922863530457465,0.021509880384355657,-0.09298866127508618, ,0.0017086781096060629, ,0.024432267546783258,-0.004768905009036887,-0.043074864434635096,0.00421205228430577,0.0014095764678286136,-0.0012966899102583326, ,0.04975059897654507, ,0.004424929109542988, ,0.0009684384966461655, ,0.2076102278577775,-0.22948873009045553,0.10317560997000001,1.6924075338635962,0.5009094081401047,-1.3223614583838317, ,0.17837770969637368,0.15949065808146348,0.0448698916056338,-0.034192532736184486,0.19311370739322847,-0.16070160813012302, ,1.0063788890838623
0.015155559542588546,0.02219963382046574,-0.09224512706100069, ,0.01600769891298472,0.021486956623464396,-0.09314648815661189, ,0.001430560071575573, ,0.0236333329690121,-0.0053967217700834165,-0.0396126929214599,-0.025476340903727846,-0.029278752065570058,-0.01919719807476487, ,0.04644162436411721, ,0.03880968604371127, ,0.0009736308738925633, ,0.2094096246174718,-0.2278746789197426,0.10360727454000002,1.691988153976627,0.5026856826370554,-1.3238098911318852, ,0.17222675418960212,0.15659561313279005,0.041159719689922485,-0.01520513272670075,0.15064433156801796,-0.1258501828284616, ,1.0100820064544678
0.015155559542588546,0.02219963382046574,-0.09224512706100069, ,0.016092829059894516,0.02146357181852889,-0.09330430646553048, ,0.0015944034714420099, ,0.0236333329690121,-0.0053967217700834165,-0.0396126929214599,-0.025476340903727846,-0.029278752065570058,-0.01919719807476487, ,0.04644162436411721, ,0.03880968604371127, ,0.0009805283471986683, ,0.2094096246174718,-0.2278746789197426,0.10360727454000002,1.691988153976627,0.5026856826370554,-1.3238098911318852, ,0.17222675418960212,0.15659561313279005,0.041159719689922485,-0.01520513272670075,0.15064433156801796,-0.1258501828284616, ,1.0136640071868896
0.015394381537623156,0.022126096846071683,-0.09263587750162733, ,0.016178249884468313,0.02143974141495731,-0.0934621108704242, ,0.0013297349144545288, ,0.024186845350133598,-0.008018374949134157,-0.04012313059853687,-0.05574601320748181,-0.04341922732187304,0.08715124137302162, ,0.047530657830956086, ,0.07065934689729671, ,0.0009843657820036776, ,0.21117813044566922,-0.22616795495453898,0.10401042073000001,1.6909397042592043,0.5043253206342407,-1.3251469059762422, ,0.17737746085695474,0.17804304232358495,0.04126635108808291,-0.13202049421019693,0.16817445652762403,-0.1399545354443124, ,1.0172998905181885
0.015394381537623156,0.022126096846071683,-0.09263587750162733, ,0.016263957332844137,0.021415480743787706,-0.09361989606468393, ,0.0014931275367159554, ,0.024186845350133598,-0.008018374949134157,-0.04012313059853687,-0.05574601320748181,-0.04341922732187304,0.08715124137302162, ,0.047530657830956086, ,0.07065934689729671, ,0.0009898958010766373, ,0.21117813044566922,-0.22616795495453898,0.10401042073000001,1.6909397042592043,0.5043253206342407,-1.3251469059762422, ,0.17737746085695474,0.17804304232358495,0.04126635108808291,-0.13202049421019693,0.16817445652762403,-0.1399545354443124, ,1.020914077758789
0.015394381537623156,0.022126096846071683,-0.09263587750162733, ,0.01634994738390598,0.02139080502200512,-0.09377765676649713, ,0.0016605481151740135, ,0.024186845350133598,-0.008018374949134157,-0.04012313059853687,-0.05574601320748181,-0.04341922732187304,0.08715124137302162, ,0.047530657830956086, ,0.07065934689729671, ,0.0009971071162819852, ,0.21117813044566922,-0.22616795495453898,0.10401042073000001,1.6909397042592043,0.5043253206342407,-1.3251469059762422, ,0.17737746085695474,0.17804304232358495,0.04126635108808291,-0.13202049421019693,0.16817445652762403,-0.1399545354443124, ,1.0244789123535156
0.01563975681452091,0.02204736829201859,-0.09304980617581406, ,0.016436216049173002,0.021365729352858107,-0.09393538771883783, ,0.0013723095952396444, ,0.023989020120965352,-0.0075881424725630225,-0.0410279921337202,-0.020854188483514845,0.0001963402509151317,0.01712320321379444, ,0.048128464873426015, ,0.020852325399419794, ,0.0010010986320155774, ,0.21295435900674087,-0.22433766726334778,0.10443690014000001,1.6905203243722353,0.5061015951311915,-1.3265953387242957, ,0.17316960138407075,0.17770962838664942,0.04236386042553192,-0.05911110244481676,0.19170477145638531,-0.15897235151408973, ,1.028127908706665
0.01563975681452091,0.02204736829201859,-0.09304980617581406, ,0.01652275937268894,0.0213402687261762,-0.09409308368945422, ,0.0015388668832010748, ,0.023989020120965352,-0.0075881424725630225,-0.0410279921337202,-0.020854188483514845,0.0001963402509151317,0.01712320321379444, ,0.048128464873426015, ,0.020852325399419794, ,0.001006759350449109, ,0.21295435900674087,-0.22433766726334778,0.10443690014000001,1.6905203243722353,0.5061015951311915,-1.3265953387242957, ,0.17316960138407075,0.17770962838664942,0.04236386042553192,-0.05911110244481676,0.19170477145638531,-0.15897235151408973, ,1.0319628715515137
0.01563975681452091,0.02204736829201859,-0.09304980617581406, ,0.016609573430911483,0.021314438018686852,-0.09425073947085795, ,0.0017087925076317426, ,0.023989020120965352,-0.0075881424725630225,-0.0410279921337202,-0.020854188483514845,0.0001963402509151317,0.01712320321379444, ,0.048128464873426015, ,0.020852325399419794, ,0.0010140721958364282, ,0.21295435900674087,-0.22433766726334778,0.10443690014000001,1.6905203243722353,0.5061015951311915,-1.3265953387242957, ,0.17316960138407075,0.17770962838664942,0.04236386042553192,-0.05911110244481676,0.19170477145638531,-0.15897235151408973, ,1.0368728637695312
0.015855920475072793,0.021979261332747285,-0.09342390020452082, ,0.01669665433260147,0.02128825199433215,-0.09440834988031294, ,0.0014674700982095588, ,0.02348293054588451,-0.0075465524273585,-0.04127134518228378,0.009617543919200569,0.039987290313079044,-0.00754850736188311, ,0.04808037451722818, ,0.04112615708468027, ,0.0010187464010155327, ,0.21452207378020843,-0.22270817062688641,0.10482449085000001,1.6905203243722353,0.508151142627673,-1.3281849285396015, ,0.16825698857884888,0.17770962838664942,0.04270458852546917,-0.03401293247059214,0.22173657014233125,-0.1833261896250524, ,1.041090965270996
0.015855920475072793,0.021979261332747285,-0.09342390020452082, ,0.016783998218712008,0.021261725304585626,-0.09456590975982362, ,0.0016371841907224037, ,0.02348293054588451,-0.0075465524273585,-0.04127134518228378,0.009617543919200569,0.039987290313079044,-0.00754850736188311, ,0.04808037451722818, ,0.04112615708468027, ,0.0010250569907064191, ,0.21452207378020843,-0.22270817062688641,0.10482449085000001,1.6905203243722353,0.508151142627673,-1.3281849285396015, ,0.16825698857884888,0.17770962838664942,0.04270458852546917,-0.03401293247059214,0.22173657014233125,-0.1833261896250524, ,1.0446679592132568
0.016114886309377498,0.021893250497687786,-0.09387594588838467, ,0.016871601262278223,0.02123487248876987,-0.09472341397612401, ,0.0013131189140008722, ,0.023195141625284084,-0.008004933847683264,-0.04085788144370885,-0.027216578203430854,0.00865718460765112,-0.04093481504930663, ,0.04765983672853842, ,0.02855827572397379, ,0.0010279667071033329, ,0.21629057960840584,-0.22079293287407872,0.10527689606000001,1.6903106344287508,0.5103373266239201,-1.3299676149987443, ,0.16057012108032281,0.1804124364229482,0.04202852643799473,0.0,0.1758894173311585,-0.145799457559691, ,1.0482299327850342
0.016114886309377498,0.021893250497687786,-0.09387594588838467, ,0.01695945966830623,0.021207707974373036,-0.09488085742066661, ,0.0014809185992478275, ,0.023195141625284084,-0.008004933847683264,-0.04085788144370885,-0.027216578203430854,0.00865718460765112,-0.04093481504930663, ,0.04765983672853842, ,0.02855827572397379, ,0.0010324962260247778, ,0.21629057960840584,-0.22079293287407872,0.10527689606000001,1.6903106344287508,0.5103373266239201,-1.3299676149987443, ,0.16057012108032281,0.1804124364229482,0.04202852643799473,0.0,0.1758894173311585,-0.145799457559691, ,1.0517640113830566
0.016114886309377498,0.021893250497687786,-0.09387594588838467, ,0.017047569673662527,0.021180246077365527,-0.09503823500961081, ,0.0016520258965082078, ,0.023195141625284084,-0.008004933847683264,-0.04085788144370885,-0.027216578203430854,0.00865718460765112,-0.04093481504930663, ,0.04765983672853842, ,0.02855827572397379, ,0.0010386301831582772, ,0.21629057960840584,-0.22079293287407872,0.10527689606000001,1.6903106344287508,0.5103373266239201,-1.3299676149987443, ,0.16057012108032281,0.1804124364229482,0.04202852643799473,0.0,0.1758894173311585,-0.145799457559691, ,1.0553209781646729
0.016352842892268567,0.021805063665288588,-0.09429095334422295, ,0.017135927546963237,0.021152501002517685,-0.09519554168381167, ,0.0013628424961751053, ,0.024207613578709663,-0.009025038610130426,-0.04247168950420643,-0.1498131027665142,-0.12027300794429063,0.10016487146923317, ,0.04971221466030448, ,0.19211825525908002, ,0.0010418087352466773, ,0.21795868990923833,-0.21888541785414528,0.10571504208000002,1.6892621847113283,0.5115670551218091,-1.330970376132012, ,0.15789840525535903,0.18570830050581366,0.04316751089430895,-0.14866286887538727,0.07176364706337147,-0.06076881114481462, ,1.0588860511779785
0.016352842892268567,0.021805063665288588,-0.09429095334422295, ,0.017224529588463527,0.02112448684371621,-0.09535277240880892, ,0.0015331282504419067, ,0.024207613578709663,-0.009025038610130426,-0.04247168950420643,-0.1498131027665142,-0.12027300794429063,0.10016487146923317, ,0.04971221466030448, ,0.19211825525908002, ,0.0010465788276272138, ,0.21795868990923833,-0.21888541785414528,0.10571504208000002,1.6892621847113283,0.5115670551218091,-1.330970376132012, ,0.15789840525535903,0.18570830050581366,0.04316751089430895,-0.14866286887538727,0.07176364706337147,-0.06076881114481462, ,1.0625178813934326
0.016352842892268567,0.021805063665288588,-0.09429095334422295, ,0.017313372129946845,0.021096217584281277,-0.0955099221748151, ,0.0017061547974757257, ,0.024207613578709663,-0.009025038610130426,-0.04247168950420643,-0.1498131027665142,-0.12027300794429063,0.10016487146923317, ,0.04971221466030448, ,0.19211825525908002, ,0.0010529209042603725, ,0.21795868990923833,-0.21888541785414528,0.10571504208000002,1.6892621847113283,0.5115670551218091,-1.330970376132012, ,0.15789840525535903,0.18570830050581366,0.04316751089430895,-0.14866286887538727,0.07176364706337147,-0.06076881114481462, ,1.0671470165252686
0.016591193970043036,0.021717883193066233,-0.09471155639665585, ,0.01740245153461422,0.021067707097283637,-0.09566698599670528, ,0.0014119892040138588, ,0.023922967842019346,-0.008436539566403202,-0.04355946598092959,-0.07718386853940276,-0.04113377163051616,0.03150042528887626, ,0.05040744654085883, ,0.0874595901384426, ,0.0010563406023532628, ,0.21951868194983168,-0.21705513016295408,0.10614411407000002,1.6882137349939055,0.5125235106201671,-1.3320770164184492, ,0.1558242061715448,0.1842659059387782,0.044618519663865555,-0.0783847590386028,0.1349633407165077,-0.11551942731883426, ,1.0715210437774658
0.016591193970043036,0.021717883193066233,-0.09471155639665585, ,0.017491764196973403,0.0210389691458611,-0.09582395891400453, ,0.0015841055450094039, ,0.023922967842019346,-0.008436539566403202,-0.04355946598092959,-0.07718386853940276,-0.04113377163051616,0.03150042528887626, ,0.05040744654085883, ,0.0874595901384426, ,0.0010613195169066226, ,0.21951868194983168,-0.21705513016295408,0.10614411407000002,1.6882137349939055,0.5125235106201671,-1.3320770164184492, ,0.1558242061715448,0.1842659059387782,0.044618519663865555,-0.0783847590386028,0.1349633407165077,-0.11551942731883426, ,1.075181007385254
0.016829867917318993,0.021638509502856704,-0.09514755735987257, ,0.017581306542728582,0.021010017383536365,-0.09598083599087806, ,0.0012860853893484714, ,0.023577352244431575,-0.0079482416079495,-0.042756655039899776,-0.021778247216807527,-0.01813400784471431,-0.018321916258783388, ,0.049469158409228366, ,0.02833710283055984, ,0.0010634201325369203, ,0.2210709512575508,-0.21523256520463707,0.10659263041000001,1.6882137349939055,0.514026512117587,-1.3337110070598128, ,0.15330685227539706,0.17804304232358495,0.04400224176795581,-0.03545381925647159,0.14626340083247708,-0.15685275775054902, ,1.0788400173187256
0.016829867917318993,0.021638509502856704,-0.09514755735987257, ,0.017671075028669023,0.020980865354532745,-0.09613761231611824, ,0.0014561366853414633, ,0.023577352244431575,-0.0079482416079495,-0.042756655039899776,-0.021778247216807527,-0.01813400784471431,-0.018321916258783388, ,0.049469158409228366, ,0.02833710283055984, ,0.00106705639691474, ,0.2210709512575508,-0.21523256520463707,0.10659263041000001,1.6882137349939055,0.514026512117587,-1.3337110070598128, ,0.15330685227539706,0.17804304232358495,0.04400224176795581,-0.03545381925647159,0.14626340083247708,-0.15685275775054902, ,1.08243989944458
0.016829867917318993,0.021638509502856704,-0.09514755735987257, ,0.017761066142559106,0.02095152649409235,-0.09629428300313529, ,0.001629127217235525, ,0.023577352244431575,-0.0079482416079495,-0.042756655039899776,-0.021778247216807527,-0.01813400784471431,-0.018321916258783388, ,0.049469158409228366, ,0.02833710283055984, ,0.0010722130099452061, ,0.2210709512575508,-0.21523256520463707,0.10659263041000001,1.6882137349939055,0.514026512117587,-1.3337110070598128, ,0.15330685227539706,0.17804304232358495,0.04400224176795581,-0.03545381925647159,0.14626340083247708,-0.15685275775054902, ,1.0860049724578857
0.01705597267292563,0.02155830282229404,-0.09555765302041726, ,0.01785127640302711,0.020922014128792583,-0.09645084318994443, ,0.0013546807755080517, ,0.02383677277627529,-0.00856829354815373,-0.043119493692414745,-0.036733338255097586,-0.026222267255396624,-0.05350080397133274, ,0.050008980463565805, ,0.04513088052457978, ,0.0010747808987230502, ,0.22253054777077924,-0.21348722757506233,0.10701392466000001,1.6880040450504212,0.5153928771152414,-1.3350702223171986, ,0.1520784319847288,0.18498429153698007,0.044246698666666674,0.0,0.1289424196480714,-0.1414953440397852, ,1.089555025100708
0.01705597267292563,0.02155830282229404,-0.09555765302041726, ,0.017941702359454574,0.020892341476862555,-0.0966072880391552, ,0.0015263535841241332, ,0.02383677277627529,-0.00856829354815373,-0.043119493692414745,-0.036733338255097586,-0.026222267255396624,-0.05350080397133274, ,0.050008980463565805, ,0.04513088052457978, ,0.0010788491211140509, ,0.22253054777077924,-0.21348722757506233,0.10701392466000001,1.6880040450504212,0.5153928771152414,-1.3350702223171986, ,0.1520784319847288,0.18498429153698007,0.044246698666666674,0.0,0.1289424196480714,-0.1414953440397852, ,1.0931589603424072
0.01705597267292563,0.02155830282229404,-0.09555765302041726, ,0.018032340591865734,0.020862521648500967,-0.0967636127379603, ,0.0017005130388435122, ,0.02383677277627529,-0.00856829354815373,-0.043119493692414745,-0.036733338255097586,-0.026222267255396624,-0.05350080397133274, ,0.050008980463565805, ,0.04513088052457978, ,0.001084399691808064, ,0.22253054777077924,-0.21348722757506233,0.10701392466000001,1.6880040450504212,0.5153928771152414,-1.3350702223171986, ,0.1520784319847288,0.18498429153698007,0.044246698666666674,0.0,0.1289424196480714,-0.1414953440397852, ,1.0968918800354004
0.017291591932632952,0.021472154427612508,-0.09599104590253663, ,0.01812318771081673,0.020832567646192287,-0.09691981249812456, ,0.0014011531602007576, ,0.023523199974985847,-0.008168889096237586,-0.044022501330302166,-0.037070001824636885,-0.01603586708414201,-0.023239360546650076, ,0.05057719159370417, ,0.04038772994459586, ,0.0010872028198469373, ,0.22402103521550457,-0.21166466261674535,0.10745855213000001,1.6873749752199676,0.5167592421128957,-1.3364294375745844, ,0.1464458974667759,0.18007009783391037,0.04525230545454546,-0.0285923453958093,0.13976471040967586,-0.14186841448783147, ,1.1013269424438477
0.017291591932632952,0.021472154427612508,-0.09599104590253663, ,0.018214240357284896,0.020802492365024215,-0.09707588255597266, ,0.0015737210547682881, ,0.023523199974985847,-0.008168889096237586,-0.044022501330302166,-0.037070001824636885,-0.01603586708414201,-0.023239360546650076, ,0.05057719159370417, ,0.04038772994459586, ,0.001091470523662037, ,0.22402103521550457,-0.21166466261674535,0.10745855213000001,1.6873749752199676,0.5167592421128957,-1.3364294375745844, ,0.1464458974667759,0.18007009783391037,0.04525230545454546,-0.0285923453958093,0.13976471040967586,-0.14186841448783147, ,1.105098009109497
0.017526639102898228,0.021383374488913767,-0.0964252628657991, ,0.018305495202558045,0.020772308593004392,-0.09723181817237894, ,0.0012769298397691776, ,0.02244290188665113,-0.008656220406541574,-0.04100405740493188,0.00742787119314528,-0.02173530986252305,0.03788245828657838, ,0.047538896921230984, ,0.022966955648131056, ,0.0010930832133673163, ,0.22550379992735567,-0.20985754312417682,0.10790447589,1.6861168355590603,0.5182622436103156,-1.338226785696229, ,0.1420612897581898,0.17316960138407075,0.04213971301587302,-0.1082115729936471,0.14593504158534013,-0.19942667656950847, ,1.1088578701019287
0.017526639102898228,0.021383374488913767,-0.0964252628657991, ,0.018396948948123795,0.020742029011377446,-0.09738761463275535, ,0.0014473714698088583, ,0.02244290188665113,-0.008656220406541574,-0.04100405740493188,0.00742787119314528,-0.02173530986252305,0.03788245828657838, ,0.047538896921230984, ,0.022966955648131056, ,0.001096137422474571, ,0.22550379992735567,-0.20985754312417682,0.10790447589,1.6861168355590603,0.5182622436103156,-1.338226785696229, ,0.1420612897581898,0.17316960138407075,0.04213971301587302,-0.1082115729936471,0.14593504158534013,-0.19942667656950847, ,1.1124398708343506
0.017526639102898228,0.021383374488913767,-0.0964252628657991, ,0.01848859832555884,0.02071166619494202,-0.09754326724704121, ,0.0016206453574822593, ,0.02244290188665113,-0.008656220406541574,-0.04100405740493188,0.00742787119314528,-0.02173530986252305,0.03788245828657838, ,0.047538896921230984, ,0.022966955648131056, ,0.0011006203962780556, ,0.22550379992735567,-0.20985754312417682,0.10790447589,1.6861168355590603,0.5182622436103156,-1.338226785696229, ,0.1420612897581898,0.17316960138407075,0.04213971301587302,-0.1082115729936471,0.14593504158534013,-0.19942667656950847, ,1.1160318851470947
0.017758129452206457,0.021296836429685308,-0.09684074735967056, ,0.018580440096418144,0.020681232612367213,-0.0976987713496905, ,0.0013384199725535286, ,0.02221341148347353,-0.008685438776771774,-0.040125808347718186,-0.03779959302522493,-0.01224433560272601,-0.018029509050949633, ,0.046679256549745675, ,0.03973196404302589, ,0.0011026356469244578, ,0.2269633964405841,-0.2080813145631052,0.10833225159000001,1.6859071456155759,0.5196286086079701,-1.3398310371740367, ,0.13934940023270306,0.17348618200817328,0.04126635108808291,-0.03218068613096123,0.13691049788866444,-0.1355434742949406, ,1.1196000576019287
0.017758129452206457,0.021296836429685308,-0.09684074735967056, ,0.0186724710521244,0.020650740626510476,-0.09785412229966148, ,0.0015100957311449592, ,0.02221341148347353,-0.008685438776771774,-0.040125808347718186,-0.03779959302522493,-0.01224433560272601,-0.018029509050949633, ,0.046679256549745675, ,0.03973196404302589, ,0.0011060596812456386, ,0.2269633964405841,-0.2080813145631052,0.10833225159000001,1.6859071456155759,0.5196286086079701,-1.3398310371740367, ,0.13934940023270306,0.17348618200817328,0.04126635108808291,-0.03218068613096123,0.13691049788866444,-0.1355434742949406, ,1.1232059001922607
0.017758129452206457,0.021296836429685308,-0.09684074735967056, ,0.01876468801385716,0.020620202494733654,-0.09800931548040581, ,0.001684204581622792, ,0.02221341148347353,-0.008685438776771774,-0.040125808347718186,-0.03779959302522493,-0.01224433560272601,-0.018029509050949633, ,0.046679256549745675, ,0.03973196404302589, ,0.0011108775554154484, ,0.2269633964405841,-0.2080813145631052,0.10833225159000001,1.6859071456155759,0.5196286086079701,-1.3398310371740367, ,0.13934940023270306,0.17348618200817328,0.04126635108808291,-0.03218068613096123,0.13691049788866444,-0.1355434742949406, ,1.1267938613891602
0.017981730857669007,0.021210902286888073,-0.09725098882739969, ,0.01885708783244224,0.020589630369220548,-0.09816434629985615, ,0.0014094149500620812, ,0.022407555621061875,-0.008345736951831191,-0.04160707101634636,0.0009313814138515113,0.010997321874682608,-0.03584333300522931, ,0.047988521885336616, ,0.011031041137512562, ,0.001113344806610875, ,0.22835348835794453,-0.20632825420065623,0.10875484213000002,1.6859071456155759,0.5211316101053899,-1.3415467065555409, ,0.1381323749031598,0.17253989374267414,0.04293480194070081,-0.02020218803977802,0.15684191726878852,-0.17099873428644538, ,1.130357027053833
0.017981730857669007,0.021210902286888073,-0.09725098882739969, ,0.018949667388240898,0.020559036297293547,-0.09831921019041584, ,0.0015820642452219467, ,0.022407555621061875,-0.008345736951831191,-0.04160707101634636,0.0009313814138515113,0.010997321874682608,-0.03584333300522931, ,0.047988521885336616, ,0.011031041137512562, ,0.0011171867692224412, ,0.22835348835794453,-0.20632825420065623,0.10875484213000002,1.6859071456155759,0.5211316101053899,-1.3415467065555409, ,0.1381323749031598,0.17253989374267414,0.04293480194070081,-0.02020218803977802,0.15684191726878852,-0.17099873428644538, ,1.1360619068145752
0.017981730857669007,0.021210902286888073,-0.09725098882739969, ,0.019042423591039213,0.020528432221730376,-0.09847390260894716, ,0.0017568018048600268, ,0.022407555621061875,-0.008345736951831191,-0.04160707101634636,0.0009313814138515113,0.010997321874682608,-0.03584333300522931, ,0.047988521885336616, ,0.011031041137512562, ,0.001122386891463397, ,0.22835348835794453,-0.20632825420065623,0.10875484213000002,1.6859071456155759,0.5211316101053899,-1.3415467065555409, ,0.1381323749031598,0.17253989374267414,0.04293480194070081,-0.02020218803977802,0.15684191726878852,-0.17099873428644538, ,1.1418139934539795
0.017981730857669007,0.021210902286888073,-0.09725098882739969, ,0.019135353379937364,0.0204978299810819,-0.09862841903676015, ,0.0019330367349978987, ,0.022407555621061875,-0.008345736951831191,-0.04160707101634636,0.0009313814138515113,0.010997321874682608,-0.03584333300522931, ,0.047988521885336616, ,0.011031041137512562, ,0.0011289243902015784, ,0.22835348835794453,-0.20632825420065623,0.10875484213000002,1.6859071456155759,0.5211316101053899,-1.3415467065555409, ,0.1381323749031598,0.17253989374267414,0.04293480194070081,-0.02020218803977802,0.15684191726878852,-0.17099873428644538, ,1.1455678939819336
0.01821573678752479,0.021123974019387152,-0.09767990052233605, ,0.01922845372323868,0.020467241309988032,-0.09878275497960139, ,0.001634986665813045, ,0.022888727384707586,-0.008185508698999951,-0.04152051982125938,-0.027881735668378916,0.009095353453959069,-0.009086228486404942, ,0.04811288767243616, ,0.02932564131760421, ,0.0011329728884064702, ,0.22980536213829875,-0.20457519383820727,0.10919817331000001,1.6850683858416375,0.5227712481025752,-1.3431287576203195, ,0.1422742752001061,0.16885576789763485,0.04305084194594595,-0.03703955651761148,0.16266456512898894,-0.14067277385734042, ,1.1492009162902832
0.01847824189752053,0.021025096081841547,-0.09814925840242088, ,0.01932172161833938,0.020436677839495515,-0.09893690596764276, ,0.0012954083349887033, ,0.021503508243461603,-0.008034271774412597,-0.036849448372389126,-0.05087723474219695,-0.05226657155660908,0.006446811768375801, ,0.043414654611906286, ,0.0729398352938462, ,0.0011342620586174404, ,0.23144258150763433,-0.20265995608539958,0.10968428206000001,1.6836005562372458,0.5245475225995259,-1.344740547848654, ,0.1327229951866724,0.1548074087413879,0.038107204593301434,-0.05739880711976655,0.09391607222885481,-0.11184670835131025, ,1.1537370681762695
0.01847824189752053,0.021025096081841547,-0.09814925840242088, ,0.019415154091617454,0.02040615109737429,-0.09909086755547035, ,0.0014654436701392619, ,0.021503508243461603,-0.008034271774412597,-0.036849448372389126,-0.05087723474219695,-0.05226657155660908,0.006446811768375801, ,0.043414654611906286, ,0.0729398352938462, ,0.0011368697878420216, ,0.23144258150763433,-0.20265995608539958,0.10968428206000001,1.6836005562372458,0.5245475225995259,-1.344740547848654, ,0.1327229951866724,0.1548074087413879,0.038107204593301434,-0.05739880711976655,0.09391607222885481,-0.11184670835131025, ,1.1573388576507568
0.018692590783915095,0.020939417172731355,-0.09850048723630904, ,0.019508748198322073,0.02037567250843472,-0.09924463532207224, ,0.0012400311871721011, ,0.022152134007468294,-0.009218357035578191,-0.03540380955117785,-0.08168378028424138,-0.0521181424892667,-0.0476096415715811, ,0.04276826952609024, ,0.0968941954691973, ,0.001137675736274288, ,0.2327863370277494,-0.2010845185790578,0.11004724326000001,1.6833908662937616,0.5253673415981185,-1.3455724127511135, ,0.14058806156810486,0.16532568215761462,0.03661795751724139,0.006764024281483573,0.08909528362364247,-0.07543826009597643, ,1.160912036895752
0.018692590783915095,0.020939417172731355,-0.09850048723630904, ,0.019602501022462932,0.020345253394844536,-0.09939820487082844, ,0.0014095617008467668, ,0.022152134007468294,-0.009218357035578191,-0.03540380955117785,-0.08168378028424138,-0.0521181424892667,-0.0476096415715811, ,0.04276826952609024, ,0.0968941954691973, ,0.0011397833794105088, ,0.2327863370277494,-0.2010845185790578,0.11004724326000001,1.6833908662937616,0.5253673415981185,-1.3455724127511135, ,0.14058806156810486,0.16532568215761462,0.03661795751724139,0.006764024281483573,0.08909528362364247,-0.07543826009597643, ,1.1645128726959229
0.018692590783915095,0.020939417172731355,-0.09850048723630904, ,0.019696409676699514,0.02031490497644569,-0.0995515718294991, ,0.001581912347401713, ,0.022152134007468294,-0.009218357035578191,-0.03540380955117785,-0.08168378028424138,-0.0521181424892667,-0.0476096415715811, ,0.04276826952609024, ,0.0968941954691973, ,0.0011431843714719795, ,0.2327863370277494,-0.2010845185790578,0.11004724326000001,1.6833908662937616,0.5253673415981185,-1.3455724127511135, ,0.14058806156810486,0.16532568215761462,0.03661795751724139,0.006764024281483573,0.08909528362364247,-0.07543826009597643, ,1.1680519580841064
0.01890990820260706,0.02085362514243535,-0.0988604067328138, ,0.019790471302230234,0.02028463837107165,-0.09970473185021334, ,0.0013461137478967405, ,0.02203138367335839,-0.008012479090190677,-0.03790567158758516,0.024728433667483826,0.04485331405376969,-0.047445014893521, ,0.04456929016979434, ,0.05121754539855224, ,0.001144733450681329, ,0.2341687062122356,-0.1994781901412191,0.11042187107000001,1.6836005562372458,0.5267337065957729,-1.3467682705282185, ,0.1403800910628266,0.15789840525535903,0.03972272199501248,0.0,0.18943153095687187,-0.17418651299452115, ,1.1717309951782227
0.01890990820260706,0.02085362514243535,-0.0988604067328138, ,0.019884683068681974,0.020254464594863474,-0.09985768060945731, ,0.0015178058460598904, ,0.02203138367335839,-0.008012479090190677,-0.03790567158758516,0.024728433667483826,0.04485331405376969,-0.047445014893521, ,0.04456929016979434, ,0.05121754539855224, ,0.0011475597567069242, ,0.2341687062122356,-0.1994781901412191,0.11042187107000001,1.6836005562372458,0.5267337065957729,-1.3467682705282185, ,0.1403800910628266,0.15789840525535903,0.03972272199501248,0.0,0.18943153095687187,-0.17418651299452115, ,1.175550937652588
0.01890990820260706,0.02085362514243535,-0.0988604067328138, ,0.019979042173999137,0.02022439456258819,-0.10001041380806448, ,0.0016915953548428864, ,0.02203138367335839,-0.008012479090190677,-0.03790567158758516,0.024728433667483826,0.04485331405376969,-0.047445014893521, ,0.04456929016979434, ,0.05121754539855224, ,0.0011516502499259917, ,0.2341687062122356,-0.1994781901412191,0.11042187107000001,1.6836005562372458,0.5267337065957729,-1.3467682705282185, ,0.1403800910628266,0.15789840525535903,0.03972272199501248,0.0,0.18943153095687187,-0.17418651299452115, ,1.1793029308319092
0.019132199671101267,0.020776643762491265,-0.0992484180852757, ,0.02007354584433295,0.020194439087953986,-0.10016292717120234, ,0.0014357652207632643, ,0.022067277846404127,-0.006959597901673128,-0.03795081973296005,0.0382905217858408,0.037682833399982775,-0.021457246900269254, ,0.044448458611148725, ,0.05372226045064617, ,0.0011537705109023893, ,0.2355896890610929,-0.1979336435663742,0.11083020242000001,1.683181176350277,0.52891989059202,-1.3488776719479234, ,0.13934940023270306,0.14554745637802266,0.040022139497487445,-0.028218927203882336,0.1865937912380307,-0.1828232166886913, ,1.1830799579620361
0.019132199671101267,0.020776643762491265,-0.0992484180852757, ,0.020168191333931,0.020164608883928854,-0.10031521644836285, ,0.0016080808952024287, ,0.022067277846404127,-0.006959597901673128,-0.03795081973296005,0.0382905217858408,0.037682833399982775,-0.021457246900269254, ,0.044448458611148725, ,0.05372226045064617, ,0.0011571357730083155, ,0.2355896890610929,-0.1979336435663742,0.11083020242000001,1.683181176350277,0.52891989059202,-1.3488776719479234, ,0.13934940023270306,0.14554745637802266,0.040022139497487445,-0.028218927203882336,0.1865937912380307,-0.1828232166886913, ,1.1866788864135742
0.019366509144659143,0.020701549909648762,-0.09964294356415149, ,0.02026297592502609,0.02013491456305638,-0.10046727741335035, ,0.0013432254461721452, ,0.02389354369621706,-0.007588698049844906,-0.040684334267120474,-0.05836178871475809,-0.03815562451835113,0.08551944048747846, ,0.047788124290597, ,0.06972688577586507, ,0.0011585040794286378, ,0.2370492855743213,-0.19643543338877462,0.11124501522000001,1.6821327266328545,0.5304228920894398,-1.3503483051090057, ,0.14599529470533967,0.15110977955170507,0.04270458852546917,-0.13251466262666023,0.136611219498403,-0.11581746919427502, ,1.1903328895568848
0.019366509144659143,0.020701549909648762,-0.09964294356415149, ,0.02035789692772589,0.020105366637773018,-0.10061910586426993, ,0.0015136634587156429, ,0.02389354369621706,-0.007588698049844906,-0.040684334267120474,-0.05836178871475809,-0.03815562451835113,0.08551944048747846, ,0.047788124290597, ,0.06972688577586507, ,0.0011610964836570102, ,0.2370492855743213,-0.19643543338877462,0.11124501522000001,1.6821327266328545,0.5304228920894398,-1.3503483051090057, ,0.14599529470533967,0.15110977955170507,0.04270458852546917,-0.13251466262666023,0.136611219498403,-0.11581746919427502, ,1.1938798427581787
0.019366509144659143,0.020701549909648762,-0.09964294356415149, ,0.020452951679902128,0.02007597552072553,-0.10077069762351777, ,0.0016862769395561963, ,0.02389354369621706,-0.007588698049844906,-0.040684334267120474,-0.05836178871475809,-0.03815562451835113,0.08551944048747846, ,0.047788124290597, ,0.06972688577586507, ,0.0011649021391345405, ,0.2370492855743213,-0.19643543338877462,0.11124501522000001,1.6821327266328545,0.5304228920894398,-1.3503483051090057, ,0.14599529470533967,0.15110977955170507,0.04270458852546917,-0.13251466262666023,0.136611219498403,-0.11581746919427502, ,1.197484016418457
0.019599090830370928,0.02063687505237308,-0.10005399288596797, ,0.020548137547079705,0.020046751525087052,-0.10092204853776743, ,0.001415081645196909, ,0.024975409234738993,-0.006027323173514401,-0.04528248703417664,0.00744319603872385,0.011572637001720539,-0.006626977874285287, ,0.05206345477473661, ,0.013752697963592811, ,0.0011667019916961404, ,0.23843937749168173,-0.19499900507416887,0.11167797608,1.6815036568024009,0.5319258935868597,-1.3515739020496662, ,0.1464458974667759,0.1482764711851106,0.04783426882882884,-0.041404290677601534,0.16950383379851014,-0.15786074000493364, ,1.201024055480957
0.019599090830370928,0.02063687505237308,-0.10005399288596797, ,0.020643451922326035,0.020017704864874666,-0.10107315447796097, ,0.001585166288460045, ,0.024975409234738993,-0.006027323173514401,-0.04528248703417664,0.00744319603872385,0.011572637001720539,-0.006626977874285287, ,0.05206345477473661, ,0.013752697963592811, ,0.001169691022387311, ,0.23843937749168173,-0.19499900507416887,0.11167797608,1.6815036568024009,0.5319258935868597,-1.3515739020496662, ,0.1464458974667759,0.1482764711851106,0.04783426882882884,-0.041404290677601534,0.16950383379851014,-0.15786074000493364, ,1.2046160697937012
0.019599090830370928,0.02063687505237308,-0.10005399288596797, ,0.02073889222614061,0.019988845655266454,-0.10122401133929594, ,0.0017572798588844252, ,0.024975409234738993,-0.006027323173514401,-0.04528248703417664,0.00744319603872385,0.011572637001720539,-0.006626977874285287, ,0.05206345477473661, ,0.013752697963592811, ,0.0011738583191000566, ,0.23843937749168173,-0.19499900507416887,0.11167797608,1.6815036568024009,0.5319258935868597,-1.3515739020496662, ,0.1464458974667759,0.1482764711851106,0.04783426882882884,-0.041404290677601534,0.16950383379851014,-0.15786074000493364, ,1.208155870437622
0.01985326692936286,0.020579945359296706,-0.10052017724217249, ,0.020834455906343852,0.019960183912917626,-0.10137461504121491, ,0.0014411453817708135, ,0.025135355801205597,-0.005505126654400206,-0.04650203795400044,0.03877797194694898,0.04396470209306976,-0.024604836429283315, ,0.05314632691550268, ,0.05862088952063646, ,0.0011757406223583014, ,0.23992214220353283,-0.19350851762944354,0.11217186257000002,1.6815036568024009,0.5338388045835759,-1.3532971101816975, ,0.14577103157983223,0.14532456593946522,0.04931520594427245,-0.023338398342900118,0.1982964237980759,-0.1814379606461152, ,1.2118470668792725
0.01985326692936286,0.020579945359296706,-0.10052017724217249, ,0.020930140437966715,0.019931729556278664,-0.10152496152739432, ,0.0016091711346664908, ,0.025135355801205597,-0.005505126654400206,-0.04650203795400044,0.03877797194694898,0.04396470209306976,-0.024604836429283315, ,0.05314632691550268, ,0.05862088952063646, ,0.001178771604961855, ,0.23992214220353283,-0.19350851762944354,0.11217186257000002,1.6815036568024009,0.5338388045835759,-1.3532971101816975, ,0.14577103157983223,0.14532456593946522,0.04931520594427245,-0.023338398342900118,0.1982964237980759,-0.1814379606461152, ,1.2157938480377197
0.01985326692936286,0.020579945359296706,-0.10052017724217249, ,0.0210259433231397,0.01990349240591113,-0.10167504676573252, ,0.0017794611934833819, ,0.025135355801205597,-0.005505126654400206,-0.04650203795400044,0.03877797194694898,0.04396470209306976,-0.024604836429283315, ,0.05314632691550268, ,0.05862088952063646, ,0.001182943060437699, ,0.23992214220353283,-0.19350851762944354,0.11217186257000002,1.6815036568024009,0.5338388045835759,-1.3532971101816975, ,0.14577103157983223,0.14532456593946522,0.04931520594427245,-0.023338398342900118,0.1982964237980759,-0.1814379606461152, ,1.2197320461273193
0.020015354835491682,0.020543665052241068,-0.1008179268507157, ,0.021121862090982397,0.019875482184805327,-0.10182486674833928, ,0.0016385220804781483, ,0.025004437179583613,-0.005212919563963588,-0.045107475338387236,0.03699580870776724,0.0318910241576297,-0.02944481125366439, ,0.05183705952743954, ,0.04884199567491033, ,0.00118608498471384, ,0.24087203834706244,-0.1925817896845366,0.11248815733,1.6810842769154317,0.5352051695812303,-1.3546563254390833, ,0.14577103157983223,0.13934940023270306,0.047978347951807235,-0.01751048523543853,0.18471819182297378,-0.1730204088361525, ,1.2242720127105713
0.020015354835491682,0.020543665052241068,-0.1008179268507157, ,0.02121789429749264,0.01984770851869717,-0.10197441749152412, ,0.0018077409262749692, ,0.025004437179583613,-0.005212919563963588,-0.045107475338387236,0.03699580870776724,0.0318910241576297,-0.02944481125366439, ,0.05183705952743954, ,0.04884199567491033, ,0.0011903429021217931, ,0.24087203834706244,-0.1925817896845366,0.11248815733,1.6810842769154317,0.5352051695812303,-1.3546563254390833, ,0.14577103157983223,0.13934940023270306,0.047978347951807235,-0.01751048523543853,0.18471819182297378,-0.1730204088361525, ,1.2278690338134766
0.020356016734289512,0.020457070207001878,-0.10139786777136664, ,0.02131403752543571,0.01982018093638474,-0.10212369503578465, ,0.0013602415215939237, ,0.024247493871668302,-0.0073074745358198655,-0.038180043905015934,-0.03992507245722966,-0.05292595579777566,0.055455525706954806, ,0.04581545476951191, ,0.06629545291875849, ,0.0011914986750433721, ,0.2428953943601093,-0.19065882919885468,0.11310389508000002,1.6798261372545245,0.5372547170777118,-1.3564909514748107, ,0.1482764711851106,0.1403800910628266,0.040531327022900764,-0.10544113907461262,0.11752580266493225,-0.11964230313522431, ,1.2313659191131592
0.020356016734289512,0.020457070207001878,-0.10139786777136664, ,0.021410289384233738,0.019792908870045752,-0.10227269544579631, ,0.0015224731727934647, ,0.024247493871668302,-0.0073074745358198655,-0.038180043905015934,-0.03992507245722966,-0.05292595579777566,0.055455525706954806, ,0.04581545476951191, ,0.06629545291875849, ,0.0011937349892173592, ,0.2428953943601093,-0.19065882919885468,0.11310389508000002,1.6798261372545245,0.5372547170777118,-1.3564909514748107, ,0.1482764711851106,0.1403800910628266,0.040531327022900764,-0.10544113907461262,0.11752580266493225,-0.11964230313522431, ,1.2349059581756592
0.020356016734289512,0.020457070207001878,-0.10139786777136664, ,0.02150664750985496,0.019765901655554044,-0.10242141481040026, ,0.0016879910216891973, ,0.024247493871668302,-0.0073074745358198655,-0.038180043905015934,-0.03992507245722966,-0.05292595579777566,0.055455525706954806, ,0.04581545476951191, ,0.06629545291875849, ,0.0011970521437977073, ,0.2428953943601093,-0.19065882919885468,0.11310389508000002,1.6798261372545245,0.5372547170777118,-1.3564909514748107, ,0.1482764711851106,0.1403800910628266,0.040531327022900764,-0.10544113907461262,0.11752580266493225,-0.11964230313522431, ,1.2384898662567139
0.020595422436907016,0.020389450313230258,-0.1017691039721203, ,0.02160310956470296,0.019739168532796957,-0.1025698492425923, ,0.001442044635117934, ,0.025328071418892234,-0.007013333245666471,-0.039419594652420335,0.022894334984537575,-0.0013716428274758528,-0.013325830059520438, ,0.04737723596387195, ,0.022933311909262302, ,0.0011986854270731753, ,0.2443781590719604,-0.18929190548011696,0.11350055982000001,1.67961644731104,0.5386210820753663,-1.3577684879920562, ,0.15763611554563253,0.1424879002379441,0.04225148944297083,-0.03864284176534399,0.16664792294165748,-0.16802053625988178, ,1.2420880794525146
0.020595422436907016,0.020389450313230258,-0.1017691039721203, ,0.02169967323750596,0.01971271864599188,-0.10271799487951142, ,0.001605530919725987, ,0.025328071418892234,-0.007013333245666471,-0.039419594652420335,0.022894334984537575,-0.0013716428274758528,-0.013325830059520438, ,0.04737723596387195, ,0.022933311909262302, ,0.001201379768084121, ,0.2443781590719604,-0.18929190548011696,0.11350055982000001,1.67961644731104,0.5386210820753663,-1.3577684879920562, ,0.15763611554563253,0.1424879002379441,0.04225148944297083,-0.03864284176534399,0.16664792294165748,-0.16802053625988178, ,1.2457070350646973
0.020595422436907016,0.020389450313230258,-0.1017691039721203, ,0.02179633624320606,0.019686561044003584,-0.10286584788242926, ,0.0017717489945682091, ,0.025328071418892234,-0.007013333245666471,-0.039419594652420335,0.022894334984537575,-0.0013716428274758528,-0.013325830059520438, ,0.04737723596387195, ,0.022933311909262302, ,0.001205132197205727, ,0.2443781590719604,-0.18929190548011696,0.11350055982000001,1.67961644731104,0.5386210820753663,-1.3577684879920562, ,0.15763611554563253,0.1424879002379441,0.04225148944297083,-0.03864284176534399,0.16664792294165748,-0.16802053625988178, ,1.2495088577270508
0.020865055645157404,0.020320336108748064,-0.10218673843565104, ,0.02189309632284866,0.01966070468066077,-0.10301340443673805, ,0.0019399256061746126, ,0.025203028846008266,-0.00651311919129519,-0.03916394718737706,0.021591717997424178,0.02869729103212312,-0.017786852967823244, ,0.04702582422359445, ,0.03591162293800725, ,0.0012099347685061773, ,0.24606171483854133,-0.18781686350114007,0.11395037245000002,1.67961644731104,0.5405339930720824,-1.3596550536043681, ,0.15763611554563253,0.1371343086105069,0.04225148944297083,-0.02315900810698745,0.19449271384665454,-0.15559075950172063, ,1.2538318634033203
0.020865055645157404,0.020320336108748064,-0.10218673843565104, ,0.02198995124347152,0.019635158415073267,-0.10316066075193979, ,0.0016381035550847294, ,0.025203028846008266,-0.00651311919129519,-0.03916394718737706,0.021591717997424178,0.02869729103212312,-0.017786852967823244, ,0.04702582422359445, ,0.03591162293800725, ,0.001212715085302142, ,0.24606171483854133,-0.18781686350114007,0.11395037245000002,1.67961644731104,0.5405339930720824,-1.3596550536043681, ,0.15763611554563253,0.1371343086105069,0.04225148944297083,-0.02315900810698745,0.19449271384665454,-0.15559075950172063, ,1.257462978363037
0.021103634163850093,0.020253193814983278,-0.10253695620800901, ,0.02208689879799424,0.019609931011949196,-0.10330761306163429, ,0.0014051720039075287, ,0.024179756266813023,-0.00719846422234318,-0.0337423247171812,-0.010081735493226487,-0.03515846794864758,-0.020074805646771207, ,0.04213102155897167, ,0.0365747934981426, ,0.0012139567428415315, ,0.24758309321476354,-0.1865271671111446,0.11432888913000001,1.6789873774805866,0.5421736310692676,-1.3612371046691472, ,0.1545552794111902,0.13235277762687694,0.03645036961098399,-0.02419527673836017,0.12621175713409158,-0.12216135010726106, ,1.261051893234253
0.021103634163850093,0.020253193814983278,-0.10253695620800901, ,0.022183936805107496,0.01958503114191147,-0.10345425762350911, ,0.0015668238705332114, ,0.024179756266813023,-0.00719846422234318,-0.0337423247171812,-0.010081735493226487,-0.03515846794864758,-0.020074805646771207, ,0.04213102155897167, ,0.0365747934981426, ,0.001216218711608786, ,0.24758309321476354,-0.1865271671111446,0.11432888913000001,1.6789873774805866,0.5421736310692676,-1.3612371046691472, ,0.1545552794111902,0.13235277762687694,0.03645036961098399,-0.02419527673836017,0.12621175713409158,-0.12216135010726106, ,1.264693021774292
0.021103634163850093,0.020253193814983278,-0.10253695620800901, ,0.022281063109162048,0.019560467381814776,-0.10360059071932701, ,0.0017313368263094993, ,0.024179756266813023,-0.00719846422234318,-0.0337423247171812,-0.010081735493226487,-0.03515846794864758,-0.020074805646771207, ,0.04213102155897167, ,0.0365747934981426, ,0.0012194997187087906, ,0.24758309321476354,-0.1865271671111446,0.11432888913000001,1.6789873774805866,0.5421736310692676,-1.3612371046691472, ,0.1545552794111902,0.13235277762687694,0.03645036961098399,-0.02419527673836017,0.12621175713409158,-0.12216135010726106, ,1.2682619094848633
0.021361749252293765,0.020172501210589933,-0.10291285932651739, ,0.022378275580058567,0.019536248215063067,-0.10374660865491586, ,0.0014605757741249863, ,0.026816435256259714,-0.007553906847109743,-0.041390661300368004,-0.009671525397817083,-0.0222618388746282,0.06399614590219031, ,0.04989358226655771, ,0.024269453879939906, ,0.0012210255165278803, ,0.24914308525535692,-0.18513707519378417,0.11471777613000002,1.677938927763164,0.543539996066922,-1.3622696049659706, ,0.16333380646896864,0.145102357123044,0.044369948523676886,-0.11847106771355465,0.16219098441004445,-0.15426531681602995, ,1.2718329429626465
0.021361749252293765,0.020172501210589933,-0.10291285932651739, ,0.022475572113136392,0.019512382031925964,-0.10389230776015619, ,0.0016234771108744174, ,0.026816435256259714,-0.007553906847109743,-0.041390661300368004,-0.009671525397817083,-0.0222618388746282,0.06399614590219031, ,0.04989358226655771, ,0.024269453879939906, ,0.0012235566586306886, ,0.24914308525535692,-0.18513707519378417,0.11471777613000002,1.677938927763164,0.543539996066922,-1.3622696049659706, ,0.16333380646896864,0.145102357123044,0.044369948523676886,-0.11847106771355465,0.16219098441004445,-0.15426531681602995, ,1.27543306350708
0.021361749252293765,0.020172501210589933,-0.10291285932651739, ,0.02257295062906302,0.019488877129855805,-0.10403768438897074, ,0.00178873756598627, ,0.026816435256259714,-0.007553906847109743,-0.041390661300368004,-0.009671525397817083,-0.0222618388746282,0.06399614590219031, ,0.04989358226655771, ,0.024269453879939906, ,0.001227089039301661, ,0.24914308525535692,-0.18513707519378417,0.11471777613000002,1.677938927763164,0.543539996066922,-1.3622696049659706, ,0.16333380646896864,0.145102357123044,0.044369948523676886,-0.11847106771355465,0.16219098441004445,-0.15426531681602995, ,1.2790658473968506
0.021627686419299023,0.0201094955354776,-0.10333637302952717, ,0.02267040907372349,0.01946574171380482,-0.10418273491931278, ,0.0014893011668060264, ,0.027037456128223947,-0.00567946075584166,-0.04302731241037869,0.037540074305462086,0.011147024574504314,-0.026547907972653353, ,0.05113345208005331, ,0.03915821573832578, ,0.0012287176860563465, ,0.25078030462469253,-0.18371609234492686,0.11518962569,1.6775195478761948,0.5453162705638728,-1.3638813951943054, ,0.1602988877676871,0.133469678703897,0.04657547228070176,-0.022229999067946562,0.17862703489683282,-0.1696501354939355, ,1.282702922821045
0.021627686419299023,0.0201094955354776,-0.10333637302952717, ,0.02276794541810939,0.019442983896541803,-0.10432745575315525, ,0.0016512641564204534, ,0.027037456128223947,-0.00567946075584166,-0.04302731241037869,0.037540074305462086,0.011147024574504314,-0.026547907972653353, ,0.05113345208005331, ,0.03915821573832578, ,0.001231325997601804, ,0.25078030462469253,-0.18371609234492686,0.11518962569,1.6775195478761948,0.5453162705638728,-1.3638813951943054, ,0.1602988877676871,0.133469678703897,0.04657547228070176,-0.022229999067946562,0.17862703489683282,-0.1696501354939355, ,1.2864768505096436
0.021899129004214535,0.020048751577352378,-0.10376127468378125, ,0.02286555765820839,0.01942061169896944,-0.10447184331647913, ,0.0013540501585426713, ,0.026865842751641673,-0.005866409765781182,-0.041302132429084815,0.0671844638378979,0.038162927198976904,-0.06637427396737208, ,0.04961909323522196, ,0.07726604043970334, ,0.0012320789065646315, ,0.25078030462469253,-0.18371609234492686,0.11518962569,1.6775195478761948,0.5453162705638728,-1.3638813951943054, ,0.1602988877676871,0.133469678703897,0.04657547228070176,-0.022229999067946562,0.17862703489683282,-0.1696501354939355, ,1.2909059524536133
