NicholasDascanio/dvrk_moveit_final/test/execution/third_experiment_notsharpbends/thirdexp_700vel5.0/thirdexp_700vel5.0_29.csv
Current Position (x),Current Position (y),Current Position (z), ,Planned Position (x),Planned Position (y),Planned Position (z), ,Position Error,,Cartesian linear Velocity(x),Cartesian linear Velocity(y),Cartesian linear Velocity(z),Cartesian Angular Velocity(x),Cartesian Angular Velocity(y),Cartesian Angular Velocity(z), ,Total Linear Velocity, ,Total Angular Velocity, ,MSE, ,Joint 1 Position,Joint 2 Position,Joint 3 Position,Joint 4 Position,Joint 5 Position,Joint 6 Position, ,Joint 1 Velocity,Joint 2 Velocity,Joint 3 Velocity,Joint 4 Velocity,Joint 5 Velocity,Joint 6 Velocity, ,Time Stamp
0.007618845783169298,0.020404908558961446,-0.07379825089526072, ,0.007746656013890846,0.020302726035029934,-0.07372096757997375, ,0.00018096804716815455, ,7.184962486863688e-06,6.990000356712509e-06,-7.792715922836567e-06,0.002155154728527787,0.007025054723112988,0.07318234220400545, ,1.2696858366482237e-05, ,0.007348202893675962, ,1.5080670597346212e-05, ,0.0632105685755276,-0.16141283980416649,0.08949845418,3.485046860712795,1.2868425547909181,-0.26840338252898116, ,0.0002951556194376716,0.0,1.0104403594677262e-05,-0.0018482007634719288,0.0,0.07180309961290532, ,0.016360998153686523
0.007648602387152363,0.020397087125810558,-0.0738079136395123, ,0.007832652171702276,0.020303329970173048,-0.07395759738428646, ,0.0002550881237449614, ,0.002732686246014606,-0.0002987107526696974,-0.00250486723482032,0.2128410856424287,0.08630723835800569,0.7712129230795944, ,0.003719027036335484, ,0.22967426309957908, ,1.982073504150527e-05, ,0.06326462770564718,-0.16136650340692113,0.08951789853000001,3.4879825199215784,1.2879356467890417,-0.2597383131621068, ,0.003758086762858698,0.005003870908045624,0.004123430370178619,0.2598634440824763,0.17893949793432085,1.0328252657461197, ,0.03296494483947754
0.00767319506228146,0.0204100216597241,-0.07383682497404437, ,0.007918474827561516,0.020303930102127846,-0.07419334490625643, ,0.0004455603706721773, ,0.0015726606885875455,0.0019153752044974576,-0.001511765790059487,0.7792888117767864,-0.2080554138525326,0.623122619567521, ,0.0029029914948939337, ,0.8065842221329502, ,2.7550516924540413e-05, ,0.0633341323015152,-0.16132788974255,0.08960604625000002,3.4894503495259697,1.2943575622780172,-0.24961935148941283, ,0.006918797187549549,0.002005228407567964,0.008958836625421823,0.03376007894292091,0.8064309842064037,0.6560921066831229, ,0.04995989799499512
0.00773571282940224,0.020452295295257154,-0.07397735975411093, ,0.008004123990102748,0.020304526455644203,-0.07442821189783425, ,0.0005451126825245022, ,0.003802349541630486,0.002068754130181462,-0.012644899497726602,0.4679554017639992,-0.07736409389374502,0.48147496947388174, ,0.013365294197865115, ,0.4743073483942954, ,3.3969743431185603e-05, ,0.06350403242474814,-0.1612274942151851,0.08989511892,3.492805388621722,1.310344032750574,-0.23913176906141242, ,0.010987250977526612,0.005262495952458515,0.01714619108719053,0.21763479510355355,0.4697787658415591,0.6967487605491637, ,0.06649494171142578
0.007796405376896685,0.02048622553704632,-0.07425547569127544, ,0.00808959966872595,0.020305119055593113,-0.07466220010912297, ,0.0005330921144221128, ,0.003574754443418947,0.0022535948793207423,-0.019673488961346085,-0.02676768523542467,-0.020133230036716646,-0.46574026208897124, ,0.02012221973647665, ,0.033494073765254345, ,3.768887189484439e-05, ,0.06375115987672332,-0.16111165322207172,0.09019974707,3.495531357887021,1.3128034897463519,-0.2323159873927672, ,0.017911842498767608,0.007290610831496863,0.019787343503105594,0.12037940590775463,-0.01954465631759301,-0.34786877598077437, ,0.08752298355102539
0.007838419384657739,0.0205009784780467,-0.07444168641232767, ,0.00817490187359565,0.020305707926965892,-0.07489531128838285, ,0.0005976006874639095, ,0.003134540173405875,0.0007269762295831531,-0.014851213759800723,-0.299215803351322,-0.003967420308764985,-1.3019524015669834, ,0.015195801613484185, ,0.29924210378325794, ,4.124874235477125e-05, ,0.06400601006157274,-0.1610035349618326,0.09037604251,3.496999187491413,1.3114371247486976,-0.24476047921913624, ,0.020139418836687347,0.009678412200225387,0.012434669414519907,0.10936336494984372,-0.2830870526248073,-1.1968489930812214, ,0.10431194305419922
0.007938639749823655,0.020495316233682663,-0.07484453746696301, ,0.008260030615639256,0.020306293094873275,-0.0751275471820327, ,0.00046809863753153436, ,0.004095439254263837,0.00016857492491721433,-0.012387288281702843,-0.06333043170457747,0.046668204494192275,0.1672271249236324, ,0.013047833198071186, ,0.07866806594125075, ,4.2021120326768775e-05, ,0.06466244235588182,-0.16064828924961824,0.09065863373000001,3.5014026763045876,1.2979101112719187,-0.24590023903413438, ,0.02921703865716465,0.01645516586760374,0.011834183893016346,0.1401328282599162,-0.06963950677755969,0.30816597831886616, ,0.12533807754516602
0.008022820964163171,0.020498925940802153,-0.07505451659754471, ,0.008344985906545935,0.020306874584544724,-0.07535890953465386, ,0.00048304144097866485, ,0.0033897645502512794,0.0001634349302278978,-0.011155635134747873,0.04092947466721926,-0.01525465390290884,0.24608574641008718, ,0.011660420658886199, ,0.04367981443940453, ,4.278734273787825e-05, ,0.06530342918444246,-0.16023126167441012,0.09090233625000001,3.503709265682917,1.3015992967655858,-0.2423742232226928, ,0.02987938965946813,0.021272571521737452,0.011626869722627739,0.04321936702334512,0.05426185308459697,0.2911507390355794, ,0.14229607582092285
0.00812998768546468,0.020491276451004663,-0.07530308992824845, ,0.008429767758765123,0.020307452421327803,-0.07558940008899219, ,0.00045346761116948843, ,0.0054576804364060965,-0.00035276748524310257,-0.012637561972152316,-0.007259273430800347,-0.005821925637849092,-0.11941577277495034, ,0.01377021035585749, ,0.009305457889543576, ,4.3065540387777225e-05, ,0.06604481154036801,-0.15976789770195665,0.09115381651000001,3.507903064552608,1.3018725697651168,-0.23810472832235463, ,0.040710828639412604,0.023742041921058485,0.01270240153110048,0.186639870326839,0.0024707877957621596,0.06630786262094776, ,0.16286897659301758
0.008214048408898342,0.020492770835416247,-0.07553664719588067, ,0.008514376185505228,0.020308026630687336,-0.07581902058596146, ,0.00045173213966716086, ,0.004027719639448354,0.0002791722372384011,-0.01206583051543528,-0.018142718214210995,-0.03352714108075086,-0.03387954724963484, ,0.012723392969615135, ,0.03812121663216207, ,4.327217505237907e-05, ,0.06680936209491624,-0.1593431473938743,0.09138974129,3.5091612042135147,1.302009206264882,-0.23797111000562926, ,0.038765090505911266,0.020364150549028064,0.01215012320366133,0.03301089869478806,0.0,0.0, ,0.1810460090637207
0.008266970710717445,0.020488359716690906,-0.07566734425193036, ,0.008598811200732505,0.02030859723820477,-0.07604777276464517, ,0.0005358717316404279, ,0.006325628085663091,-0.000928283866699403,-0.012711220388773542,-0.027389358533384922,0.011420464699219398,-0.24382303671343358, ,0.014228506786984932, ,0.029674966604373538, ,4.419315702663476e-05, ,0.06723411240299858,-0.15908057447615068,0.091518074,3.510629033817907,1.301735933265351,-0.23750323797781486, ,0.0424025654863587,0.026754141967429035,0.012522650566037737,0.2751171136338614,-0.021187268138692934,0.02926030739101216, ,0.19742202758789062
0.00838578776462004,0.020479994560691103,-0.0759379462239333, ,0.00868307281916939,0.020309164269577632,-0.07627565836229983, ,0.0004812596808589081, ,0.0047797655724036645,0.00019334512839332607,-0.014482727428768301,-0.03466368104441998,0.0001514594418028578,0.043369429720746235, ,0.01525230917080448, ,0.034664002745600185, ,4.4515518588868865e-05, ,0.06803727662191793,-0.1586172105036972,0.09178640603,3.5154519025180506,1.3013260237660549,-0.23496365828293037, ,0.03882853582588821,0.02258375572548091,0.014337364104410442,0.10316264940353857,-0.025115125666867032,0.14737721396155185, ,0.2162458896636963
0.008483385192261753,0.02048882149472776,-0.07624678687105677, ,0.008767161056293677,0.02030972775061887,-0.07650267911435682, ,0.0004220001781600811, ,0.00577170163135049,-0.00013192244784337136,-0.01504658557339888,-0.018991083059259777,0.007446140668584085,-0.05191391763543803, ,0.016116131070179163, ,0.020398663568469373, ,4.467857592368002e-05, ,0.06883271810796306,-0.15816929199699217,0.09209751563000002,3.5173391120094117,1.3013260237660549,-0.23243161733857293, ,0.04106315082582033,0.024363784739016885,0.015013017455230917,0.1945094456369661,-0.012942866426172591,0.14214385094883747, ,0.23138189315795898
0.00853466997697919,0.020486259428835564,-0.07636625658269092, ,0.008851075928336904,0.020310287707255976,-0.07672883675442427, ,0.0005123896503486875, ,0.006019782940776137,-0.00046787608093827896,-0.012772518670582631,-0.0060624087049394,0.02464402259106438,-0.15022979940732503, ,0.014127771511160401, ,0.02537873733758065, ,4.546630783107693e-05, ,0.06917251835442893,-0.1579839464080108,0.09221547802,3.519436011444257,1.301052750766524,-0.23114695790935286, ,0.03645675818612016,0.020272792471367394,0.012783957881219905,0.2861274597304439,-0.01001597501844439,0.1337612696833949, ,0.2462320327758789
0.008599173637171087,0.020482715652574826,-0.07651532976880927, ,0.00893481745228328,0.020310844165530743,-0.07695413301429072, ,0.0005785714017533698, ,0.005157953111527738,-6.168797647308115e-05,-0.013000827746936002,-0.015105306150056183,0.004341786344368159,-0.03393734637852159, ,0.01398677260173558, ,0.015716902084566334, ,4.660305032284658e-05, ,0.06958954592963705,-0.15775226442178406,0.09236325508000001,3.5221619807095554,1.300779477766993,-0.2294539047794299, ,0.03777744488792627,0.020351049015327208,0.013013734901960786,0.1651820166523327,-0.010823216019674195,0.13091103173752722, ,0.26375508308410645
0.008706215748726967,0.02049046397008183,-0.07682435347932917, ,0.009018385645868553,0.020311397151598524,-0.07717856962392541, ,0.0005049594511005296, ,0.004742113781746092,0.0004160376157818454,-0.013335065779594717,-0.025294637097007598,-0.001565892435049749,-0.030019473083477462, ,0.01415926233117, ,0.025343051578577542, ,4.7144392083573854e-05, ,0.07040815561430486,-0.15733523684657594,0.09267436468000001,3.5248879499748544,1.3006428412672275,-0.22713716089193825, ,0.03671061568993066,0.01638414046244316,0.013329549389121339,0.11999032600477517,-0.021495084333402498,0.08992763841963981, ,0.27943992614746094
0.008814047549266457,0.020493784724384324,-0.0771139416163381, ,0.009101780527578497,0.020311946691727596,-0.07740214831148223, ,0.0004460027309946553, ,0.005373143995053155,2.9727652344632097e-05,-0.01432612455088382,-0.014975554832917985,0.017439757172355644,-0.09253107616174325, ,0.015300634129745272, ,0.022987208819933706, ,4.727435137843907e-05, ,0.07114181523735619,-0.15695682293573893,0.09296343735000001,3.5286623689575762,1.3002329317679313,-0.22492429615761622, ,0.03359183771981267,0.019202133055133706,0.01431160064690027,0.21560681701328438,-0.015785195925528545,0.1219556033652031, ,0.29451489448547363
0.0088699237208742,0.020497181315607384,-0.07726852347883018, ,0.009185002116648052,0.020312492812298657,-0.07762487080329987, ,0.0005102623387969669, ,0.005032670390097493,0.0003233478499839555,-0.013901087462841341,-0.028300218416303865,0.0237496861453144,-0.028577281856089758, ,0.014787581199676235, ,0.036945222090548985, ,4.775613078975166e-05, ,0.07148161548382206,-0.15679464554538022,0.09311639957000001,3.530968958335906,1.299823022268635,-0.22328318260427793, ,0.032745666514310136,0.015291160418702992,0.013791178805194806,0.1865712669584645,-0.033470048403315314,0.15733213383052322, ,0.3103199005126953
0.008967631387975721,0.020504223253192122,-0.07754243058977968, ,0.009268050433059862,0.020313035539804312,-0.07784673882390566, ,0.0004684099121032795, ,0.005132827603727977,0.0003236060290741803,-0.014286775904281117,-0.014779735708658337,0.009541526349779499,-0.0403156594802083, ,0.015184288123280345, ,0.017592064048599667, ,4.7964805032970655e-05, ,0.0721534932438796,-0.15646256803178857,0.09339380563,3.534114307488174,1.299823022268635,-0.22083282040006103, ,0.03490141285710584,0.017089310563383895,0.014337364104410442,0.17053985018336956,-0.014975299646742735,0.12967937174574903, ,0.3262670040130615
0.009021609210536205,0.02050771127685981,-0.07769217255467453, ,0.009350925497543237,0.02031357490084862,-0.0780677540960158, ,0.0005359101077374227, ,0.0052651849077485855,0.0004149938648125885,-0.014912429936885884,-0.009318574925631817,0.012415699005606958,-0.054251235553155024, ,0.01582008086714938, ,0.015523681360305937, ,4.850205690122161e-05, ,0.07250873895609392,-0.1562849451756814,0.09354547156000001,3.536001516979534,1.299823022268635,-0.21952596055781204, ,0.03394025091504678,0.01642099698191223,0.015013017455230917,0.1889528141728785,-0.011448740517365974,0.1338388766012741, ,0.3412308692932129
0.009122101649524369,0.020512158209481893,-0.07797243231344385, ,0.00943362733157298,0.02031411092214626,-0.07828791834053828, ,0.00048559490513048234, ,0.004626665633648655,0.00023952980262824343,-0.013326138980591054,-0.01640863586578145,0.0013413841457579102,-0.0019642085099351326, ,0.01410848643696272, ,0.0164633599893455, ,4.874381253185948e-05, ,0.07318833944902568,-0.1559374221963413,0.09382417391,3.5393565560752864,1.2992764762695732,-0.21662992673880938, ,0.033867573718226546,0.01801042732178227,0.013363096912751681,0.12309877152597819,-0.012042489867335578,0.12132560026415812, ,0.3584580421447754
0.009170609037887072,0.020516617829304407,-0.07811979301050388, ,0.009516155957368128,0.020314643630522523,-0.07850723327657458, ,0.0005570513533861694, ,0.004654720075644585,0.0003444153140840945,-0.014314205256728614,-0.019356821746712955,-0.004302068531558291,-0.023404636865199658, ,0.015055946101887503, ,0.019829113465740247, ,4.93021004592153e-05, ,0.07355903062698846,-0.15574435387448568,0.09397324726,3.540405005792709,1.2992764762695732,-0.21564978185712264, ,0.034432852524844265,0.01906709695769957,0.01435028064864865,0.1108705450390782,-0.012042489867335578,0.0877584826039092, ,0.37276792526245117
0.009263413557418975,0.020516474942101938,-0.07836339901064944, ,0.009598511397890938,0.020315173052912385,-0.07872570062142044, ,0.0005329873079610019, ,0.005677612285400585,0.0001102956272610936,-0.01508874655715241,-0.012870134158219733,0.01786341436543614,-0.0996826292234786, ,0.01612196387090305, ,0.022016837736956722, ,4.9706029888301566e-05, ,0.07412279012680685,-0.1554277218266425,0.09421694978,3.5441794247754306,1.2990032032700423,-0.21387504998705914, ,0.03486294693551461,0.018462439991920387,0.015127076467236471,0.2246144805946805,-0.016051908222968644,0.12372520369689116, ,0.39044690132141113
0.009380113763898426,0.020522979093841254,-0.07871601836687941, ,0.009680693676845514,0.02031569921636019,-0.0789433220905689, ,0.0004300932625361021, ,0.004834391596363511,-2.425986540445903e-05,-0.013681914464434515,-0.03556724606018353,0.003788105071501846,-0.007695326582455824, ,0.014510917064753763, ,0.03576839740466826, ,4.963098203413368e-05, ,0.07494912254434886,-0.15496435785418902,0.09456824437000001,3.5473247739276985,1.2984566572709806,-0.21089733742791605, ,0.0362894613990328,0.021272571521737452,0.013533399762107054,0.11798844882823373,-0.028895339611593684,0.1109411613900142, ,0.40483808517456055
0.009435871996711084,0.020518635677446356,-0.07884858580376063, ,0.009762702818676985,0.020316222148019213,-0.07916009939771106, ,0.0004948033369915497, ,0.005638273957023494,-0.00045671361649203936,-0.013498414728318246,-0.01755802260745757,0.023411861678771472,-0.09457142773761454, ,0.014635775371315916, ,0.02926429525906592, ,5.004171934807688e-05, ,0.07531209098943742,-0.1547403986008365,0.09470176224000001,3.549421673362544,1.2984566572709806,-0.20975383506594825, ,0.03432077452385923,0.02136837233921882,0.013419386284751476,0.2365361949438291,-0.01992903177640161,0.14096230308712254, ,0.4196929931640625
0.009507028290377556,0.020514820049660036,-0.07902054858336943, ,0.00984453884857011,0.020316741875151218,-0.07937603425473816, ,0.0005286949996516608, ,0.005416294676666503,-0.00022835887963324223,-0.013368324386898448,-0.0032929744765487394,0.003628869180690974,-0.0440937157356919, ,0.014425688639220556, ,0.004900198513942509, ,5.056351302639821e-05, ,0.07576773222901667,-0.15447782568311286,0.09487416881,3.552147642627842,1.298320020771215,-0.20760044865873772, ,0.03701128765930997,0.021172900838570007,0.013498992813559325,0.17992756432210646,0.0,0.1354752085596663, ,0.43911099433898926
0.009584603829657456,0.020517756692375475,-0.07924355129983081, ,0.009926201792448155,0.020317258425125852,-0.07959112837174243, ,0.0005269711038297166, ,0.003559127795179669,0.00013269147981573868,-0.011078652686045075,-0.016640932843847947,-0.024843130928839503,0.0801077452886919, ,0.011637076223401217, ,0.029901532291326135, ,5.104565082017195e-05, ,0.07640099632470307,-0.15413802543664698,0.09509842698000001,3.5534057822887495,1.2981833842714496,-0.20610049217265164, ,0.033556202814169295,0.0196799961755435,0.011162446755430976,0.0033870649650500147,0.0,0.08538479139853422, ,0.45209407806396484
0.009700493263926893,0.020503783141847434,-0.07950422588713979, ,0.010007691676972049,0.020317771825420435,-0.07980538345701987, ,0.0006130784697440573, ,0.006248533378535032,-0.0005188922917530193,-0.015080211095682805,-0.06655271443939281,0.062348608617431994,-0.099054825784778, ,0.016331753894896345, ,0.09119546050042371, ,5.182699915293028e-05, ,0.0771037650162575,-0.15370555239569042,0.09535249982,3.558438340932378,1.2972269287730915,-0.20327859834326267, ,0.03473533732008447,0.020351049015327208,0.014493914030937218,0.29591463676905455,-0.08208104824886714,0.1958022524975239, ,0.4660799503326416
0.009725513238281,0.020502905281420937,-0.07956827778462872, ,0.010089008529538885,0.020318282103619252,-0.08001880121707028, ,0.00060760670480762, ,0.005617715255417676,-2.931806727330278e-05,-0.015680743852915523,-0.04517049454707672,0.03423813531964212,-0.01122769657077814, ,0.01665668970776514, ,0.05668000123270213, ,5.254177956620501e-05, ,0.07725049694086777,-0.15362060233407396,0.09541601803000001,3.559486790649801,1.2970902922733263,-0.20259542925858248, ,0.03533020906867862,0.020381645523726538,0.015390156057971019,0.20133144101685255,-0.05074668335149007,0.19014701739399148, ,0.4798760414123535
0.009802764910117162,0.020516771673964575,-0.07984984449038807, ,0.010170152378281106,0.02031878928741336,-0.08023138335659971, ,0.0005654577646283535, ,0.0042198861091884456,0.0013515877746681322,-0.01816973766566626,-0.004466451456828644,-0.026457756424757284,0.12597799941878304, ,0.018702235030238636, ,0.02683207191574882, ,5.306380664569679e-05, ,0.07783742463930883,-0.15330397028623075,0.09569860925000001,3.5605352403672237,1.2968170192737953,-0.20000390998711315, ,0.034633920276814154,0.01845167053441003,0.018500361811846694,0.0,0.010626564519674428,0.12799213338086246, ,0.49334287643432617
0.009932655062870308,0.020521631046357833,-0.08020651022031526, ,0.01025112325206526,0.02031929340460018,-0.08044313157852186, ,0.0004453674617219972, ,0.006723760577571805,-0.00010048008656318719,-0.01604745364949185,0.014193007166252613,0.018743655025244187,-0.13111306420076976, ,0.017399420139329175, ,0.02351095472133231, ,5.3136733249040927e-05, ,0.07857880699523438,-0.1529101109096453,0.09606027416000001,3.5657774889543368,1.2968170192737953,-0.19706347534205298, ,0.03852900591086918,0.019303690308883396,0.016354015934291585,0.2913667663516901,0.006074689212731507,0.1582616567267332, ,0.5068020820617676
0.009968375828501873,0.020522509078542552,-0.08029982848439009, ,0.010331921180490864,0.020319794483082878,-0.08065404758395878, ,0.0005465616165304991, ,0.006723760577571805,-0.00010048008656318719,-0.01604745364949185,0.014193007166252613,0.018743655025244187,-0.13111306420076976, ,0.017399420139329175, ,0.02351095472133231, ,5.3549888863116335e-05, ,0.0788027662485869,-0.15279426991653192,0.09615619962000001,3.5670356286152436,1.2969536557735608,-0.1961947483640627, ,0.03882853582588821,0.019774315807141236,0.01602496128772636,0.1476214205460297,0.0,0.1703553959143207, ,0.5264689922332764
0.010075186562015951,0.020531360478092564,-0.08061111339318203, ,0.010412546193889516,0.020320292550870037,-0.08086413307224305, ,0.0004715719978031179, ,0.004157551341362529,2.118745831722812e-05,-0.010886427504464481,-0.012261929140340017,-0.020953279718058795,0.059056443908100546, ,0.011653325099490533, ,0.02427745217849455, ,5.3692845442249405e-05, ,0.07969088052912271,-0.15236951960844958,0.09647119809000002,3.568293768276151,1.2968170192737953,-0.1926528233744625, ,0.0365550622336174,0.018662132066562594,0.011038677422037424,0.038993113089039716,0.0,0.09948759972478471, ,0.5402388572692871
0.010132889967565728,0.020523275893757412,-0.08071730600596058, ,0.01049299832332349,0.02032078763607545,-0.08107338974091827, ,0.0005454128240947864, ,0.006627377597901003,-0.0010411645682796289,-0.011997328005688578,0.006405390442614369,0.029360450505652773,-0.21917483143166638, ,0.013745618820536253, ,0.03005103712123977, ,5.4066619831142284e-05, ,0.08004612624133704,-0.15217645128659396,0.09658008645,3.5708100475979654,1.2969536557735608,-0.19170241765633167, ,0.03605506898118191,0.020203734630289714,0.0121131646539924,0.34164280370430067,-0.004853130602464376,0.11973341831616449, ,0.5534329414367676
0.01023494286754935,0.020517485484195123,-0.08094818014051779, ,0.010573277600584904,0.020321279766917638,-0.08128181928574116, ,0.0005140838008496219, ,0.004911896597872237,0.0003535813500428692,-0.014520641189846441,-0.020616310149316988,-0.0015369416782772677,0.08269448416640648, ,0.015332996071334266, ,0.02067350450084884, ,5.432306902045198e-05, ,0.08070255853564613,-0.1518443737730023,0.09681212236000002,3.5745844665806867,1.2966803827740299,-0.18894754090458138, ,0.03755320204134183,0.018769173567735515,0.014600193877176905,0.0856021155763728,-0.015839348761000856,0.16960635057456086, ,0.5705490112304688
0.010298547511398345,0.02052450567027505,-0.08116169702426759, ,0.01065338405819457,0.020321768971719244,-0.08148942340068291, ,0.0005238470403485074, ,0.0050962384092257795,0.0005482868910498132,-0.016178237046578173,0.025966290531570933,-0.021015128821859,-0.0026386644319174994, ,0.016970787205484596, ,0.03340483161269866, ,5.459688033390257e-05, ,0.08115047704235115,-0.1515972463210271,0.09702471392,3.5758426062415936,1.2962704732747337,-0.18665299743011876, ,0.0344954349540061,0.019450080253837012,0.016714387743966424,0.11473439562470994,0.035623843948573077,0.11222028515405516, ,0.5835440158843994
0.01035208819210561,0.020526939536767156,-0.08131238165702832, ,0.010733317729400822,0.02032225527890701,-0.08169620377792924, ,0.0005784038606501179, ,0.005991282481563583,0.00022770765714703097,-0.015626567835370767,0.027587301847847738,-0.008394176900770038,-0.09140753395730385, ,0.016737291861721786, ,0.028836097123150436, ,5.518614669520227e-05, ,0.08149027728881703,-0.15141962346491997,0.09717767614000002,3.57752012578947,1.2962704732747337,-0.18534613758786977, ,0.03749385284807221,0.01829514971244858,0.016154981257606494,0.20143326575471024,0.02856254983485286,0.10883766256402691, ,0.5952389240264893
0.010418341999928539,0.02052935610966712,-0.08148433488142218, ,0.010813078648178482,0.020322738717011166,-0.08190216210788301, ,0.0006108087749791221, ,0.006303866800091771,4.508748490493226e-05,-0.015854209347694312,0.0009984780328933813,0.0057605562033178565,-0.04337661325276095, ,0.017061556891301333, ,0.005846363355773476, ,5.584645771906317e-05, ,0.08189958213115092,-0.15122655514306435,0.09735397158,3.5798267151678,1.296407109774499,-0.18398733816903617, ,0.038749261559195905,0.0177942886852561,0.016008855798994977,0.22377636771320678,-0.0002163198298665052,0.14196207710799547, ,0.6114959716796875
0.010538983904625154,0.020531326820782514,-0.08179096049107175, ,0.010892666849227836,0.02032321931466513,-0.08210730007916442, ,0.0005181419635581168, ,0.005831758437150789,0.00031577345534403774,-0.015445224994102802,-0.010303803350456064,0.007682608021310128,0.007649031578308528, ,0.016512543549157932, ,0.012852624266263681, ,5.62130766225925e-05, ,0.08269502361719605,-0.15085586396510156,0.09766378489000001,3.5836011341505216,1.296133836774968,-0.1807423889764423, ,0.03949102853036654,0.017169701747506923,0.015631807183513247,0.16383266800610727,-0.013685379462728426,0.17155128633859945, ,0.6238479614257812
0.010591950248231546,0.020536156284966495,-0.08194367913721955, ,0.010972082367973503,0.020323697100605314,-0.0823116193786134, ,0.0005701046875056321, ,0.0047247942474971955,0.00039329122867770875,-0.014543713085379972,-0.02029431934417761,-0.012316382178777811,0.06749366991940828, ,0.01529699150099751, ,0.02373925055522273, ,5.671198382922381e-05, ,0.0830579920622846,-0.15068596384186864,0.09780896937000001,3.584649583867944,1.296133836774968,-0.17943552913419325, ,0.03705464332622834,0.01839088014699046,0.014428271304347828,0.07065108128707781,-0.011162069811613442,0.13181613710142015, ,0.6354210376739502
0.010652642162875557,0.020535913361971796,-0.08210467877697686, ,0.011051325240563471,0.020324172103670508,-0.08251512169128918, ,0.000610119613527469, ,0.005979346906406115,-0.0002761216583926874,-0.014743394379510551,-0.003847758388223963,0.01705224187581722,-0.1120664275275163, ,0.015912149773904382, ,0.017480946799278224, ,5.73023875043565e-05, ,0.08349046510324118,-0.15045428185564189,0.09798267223000001,3.58632710341582,1.296133836774968,-0.17804699055180367, ,0.03458343351256224,0.019494030722775425,0.014872839887955186,0.23755424367978067,-0.00908331862354868,0.12437968875954497, ,0.6472330093383789
0.010780586243111179,0.02053246156401,-0.08243513540630944, ,0.011130395503867756,0.02032464435280164,-0.08271780870047295, ,0.0004954378905763396, ,0.005651136231613981,0.0003225130156471693,-0.016969085412328715,-0.04365505482893646,0.019415571392508303,0.013634325625059777, ,0.017888242369904016, ,0.04777789046851329, ,5.755869505339412e-05, ,0.0842241247262925,-0.1500526997461822,0.09831192989000001,3.591359662059449,1.2954506542761408,-0.17422275142769916, ,0.03755320204134183,0.019374630779597952,0.01682028671594509,0.1438626716352597,-0.0463042449507445,0.15837687551540608, ,0.6640770435333252
0.010832404695428392,0.02053881384557824,-0.08260358589980422, ,0.011209293195477704,0.020325113877041574,-0.08291968208766798, ,0.000536310934070889, ,0.004843400001112953,0.0005822759445986243,-0.015976562562628534,-0.03954354948563201,-0.005787053780506028,0.02886378895466074, ,0.01670473346581809, ,0.03996475017390462, ,5.7914428569919795e-05, ,0.08459481590425529,-0.14985963142432662,0.09848304017000001,3.592198421833387,1.2954506542761408,-0.1734059640262935, ,0.03673904047946991,0.018662132066562594,0.01594475627627628,0.05745317722464399,-0.031890527885892056,0.08788462761371219, ,0.6752798557281494
0.010888201264193133,0.02054026756495518,-0.08275127562563468, ,0.011288018353704594,0.020325580705534557,-0.08312074353260172, ,0.0005851928630391118, ,0.006400502997229475,-0.00026038254429349133,-0.015440901928173543,-0.01945533835320829,0.013299681550446482,-0.12569082976674995, ,0.016716928247808856, ,0.023566731679346056, ,5.838508789727496e-05, ,0.08497322981509228,-0.14967428583534523,0.09863340981,3.5936662514377784,1.2954506542761408,-0.17258917662488782, ,0.03990619914149318,0.02041672580862108,0.015494952840466926,0.2240716568831818,-0.023600070771902182,0.09761033706457163, ,0.6865479946136475
0.010953798994695653,0.020535104593520447,-0.08290556275637496, ,0.011366571017578809,0.020326044867526063,-0.08332099471322535, ,0.0006218282903506715, ,0.0065258340271979005,-0.00039888946381409687,-0.015126197545796577,-0.008484208174003024,0.0238522041119237,-0.07987866932572607, ,0.016478697604766532, ,0.025316173436676765, ,5.893298680490927e-05, ,0.08579183949976008,-0.14926498099301133,0.09894970457,3.598489120137922,1.2946308352775482,-0.16865351959708702, ,0.04129544889402558,0.019155620015839883,0.01652366340248963,0.18864005286388089,-0.05177334222298364,0.23990829051767104, ,0.6991150379180908
0.011083883831408372,0.020537132599080913,-0.08324486679175656, ,0.011444951226848625,0.02032650639236225,-0.08352043730571672, ,0.0005006717199632553, ,0.005978415086190736,0.000647739401839543,-0.01789628011607373,-0.0012351045919877482,-0.003445560784079876,0.051377682941437665, ,0.01887956183994916, ,0.003659991354995266, ,5.9155564613820614e-05, ,0.08618569887634553,-0.14907191267115572,0.09912081485000002,3.5999569497423143,1.294494198777783,-0.16666349067015757, ,0.04024467411300712,0.018754336276377626,0.01814215435079727,0.13266526444639873,0.0,0.18092487216304493, ,0.7106630802154541
0.011140641591358764,0.02054296609850375,-0.08340595472033145, ,0.011523159021979226,0.020326965309490037,-0.08371907298447998, ,0.0005394617437097935, ,0.006803104568503245,0.0003952166198908135,-0.01828766781318393,0.005751658064786629,0.00668312831185709,-0.03459565364666134, ,0.019516075988579035, ,0.008817240444946481, ,5.9466663351818255e-05, ,0.08657183552005675,-0.14890973528079698,0.09929192513000001,3.60163446929019,1.294494198777783,-0.16494823712720574, ,0.042101571232684466,0.01859630444022551,0.01867387048065651,0.21127973651221263,0.0,0.17614667208942486, ,0.7222819328308105
0.011216745466199269,0.020545141912505095,-0.08361635425474168, ,0.011601194444151657,0.020327421648456218,-0.08391690342214746, ,0.000534352816081713, ,0.006791633430035214,9.665962425641026e-05,-0.018178874346286802,0.006052770644014112,0.013011353220003288,-0.050785192371690095, ,0.01940636751762209, ,0.01435023901349792, ,5.9754678406986516e-05, ,0.08701975402676178,-0.14867033056169604,0.09950710927,3.604150748612005,1.2946308352775482,-0.16318104400766925, ,0.03975573588540879,0.020629769904015386,0.018500361811846694,0.23426974201080306,0.0,0.1828261844490884, ,0.7341809272766113
0.011276092128258756,0.020547300436244496,-0.08377391662139339, ,0.011679057535261748,0.02032787543890771,-0.08411393028958036, ,0.0005710847075971302, ,0.006524635997011797,0.0002574215816278525,-0.017343634633599524,0.004520995527755301,0.006514785986937689,-0.000824247398816064, ,0.018532101960327726, ,0.007929707922557875, ,6.026563186168654e-05, ,0.08738272247185033,-0.1485004304384631,0.09966784923000001,3.6060379581033652,1.2946308352775482,-0.16146579046471743, ,0.041116525805229974,0.019078597016178284,0.01769867946666667,0.193447564888271,0.0,0.1924918810317362, ,0.7446599006652832
0.011338744375473695,0.02054984849705118,-0.08394563837863778, ,0.011756748337919003,0.020328326710590833,-0.08431015525587013, ,0.0005972200333912007, ,0.0055875474239025814,0.00033448569643751164,-0.015938155574146642,-0.00564798568213839,-0.009943555303317529,0.059632701704263234, ,0.016892524086150752, ,0.011435602558190766, ,6.0823987885907115e-05, ,0.08780747277993267,-0.14829191665085903,0.09984284838000002,3.607505787707757,1.2946308352775482,-0.15950550070134395, ,0.04017652055820101,0.01988203259134104,0.016237320611620795,0.09827044854528277,0.0,0.1590719918350528, ,0.7544538974761963
0.011400172367010946,0.020549273949424872,-0.08409816839449728, ,0.011834266895445556,0.02032877549335126,-0.08450557998833857, ,0.0006348557596367973, ,0.007506525316501215,-0.00019029180547463186,-0.017312992530614486,0.007448327278368216,0.008212777433600214,-0.09744343905495302, ,0.018871243829266197, ,0.011087187964171607, ,6.145462300815327e-05, ,0.08821677762226657,-0.1480911255961292,0.09999840318000001,3.609183307255633,1.2946308352775482,-0.15811696211895454, ,0.04620104262827205,0.021060129063131552,0.01769867946666667,0.2604145524100454,0.0,0.16186815116714368, ,0.764293909072876
0.011489217562902217,0.020547651480007527,-0.08430446531746036, ,0.011911613251875267,0.020329221817133564,-0.08470020615254029, ,0.0006186602009471829, ,0.007919548512316426,4.680358863969839e-05,-0.018887635453753215,0.009070658794143113,0.01617612771052939,-0.0819200269850812, ,0.020480825477717405, ,0.018545661350421724, ,6.203050425907093e-05, ,0.08874192345771384,-0.1478671663427767,0.10020710587000001,3.612538346351385,1.2943575622780172,-0.1557704790679068, ,0.047118640297155304,0.01976196200717842,0.019307650327272732,0.28377997367310365,-0.0037048516868810476,0.20056730822718744, ,0.7743668556213379
0.011562601939990785,0.0205497610017085,-0.08449184214938639, ,0.01198878745195243,0.020329665711980957,-0.08489403541226238, ,0.0006259676092811021, ,0.007534993816614563,0.0003309249322724188,-0.01953667472058924,-0.007326901412664021,0.011001203757334358,0.02008560469917425, ,0.02094199852605596, ,0.013217682183391524, ,6.260728740390428e-05, ,0.08919756469729309,-0.14767409802092107,0.10039636421,3.6148449357297157,1.2940842892784865,-0.15366903223728107, ,0.048865572378203284,0.0206387432706548,0.01986136099750624,0.20777038180875593,-0.014907442246301554,0.22807140088478495, ,0.7850449085235596
0.011639903657164281,0.020554535806477148,-0.084711604550645, ,0.012065789541131005,0.020330107208035013,-0.08508706942952649, ,0.0006105086872717772, ,0.007056770619796033,0.0005496467939891383,-0.020999324852476523,0.01966634653958148,-0.015760498008864598,0.027645682857323592, ,0.02216013915656662, ,0.025202269744168046, ,6.313389045961808e-05, ,0.08969954233411769,-0.1474346933018201,0.10061932609000002,3.616732145221076,1.293947652778721,-0.15118893086950846, ,0.04562352959541864,0.023730167931600595,0.02161304141112619,0.15690850318380606,0.025476352554703357,0.18506167036902915, ,0.7946150302886963
0.011713033611498856,0.02055986120423359,-0.08492520493178335, ,0.012142619565573193,0.020330546335535406,-0.08527930986458879, ,0.0006020960923151447, ,0.007665802304960833,0.00048010087138032533,-0.021577107781651006,0.024556427691610302,-0.005031954222767631,-0.05102438943324813, ,0.02290341900342452, ,0.025066591856221704, ,6.362790096748851e-05, ,0.09015518357369692,-0.1472107340484676,0.10083710281000001,3.6186193547124366,1.293947652778721,-0.14922864110613493, ,0.04553596044072494,0.022135978903305525,0.022215915648535565,0.22720250747073586,0.022485539630489465,0.17548922802220124, ,0.8045918941497803
0.011791703271853554,0.02056295584812622,-0.08513465658539358, ,0.012219277572148796,0.020330983124819523,-0.08547075837594126, ,0.0005912660486114888, ,0.00779285209236172,0.0003158486274381384,-0.02103831475047285,0.0002701200881367171,0.007220544621925722,-0.04104215441248623, ,0.02243744619222171, ,0.007225310235870769, ,6.408532158497009e-05, ,0.0906185475461504,-0.14699449752798932,0.10105228695000001,3.6211356340342506,1.2940842892784865,-0.14746144798659844, ,0.047543557895025436,0.02216182661337477,0.021438508102288024,0.2294058174375182,-0.005624968217076293,0.18808250177674046, ,0.8147649765014648
0.011791703271853554,0.02056295584812622,-0.08513465658539358, ,0.012295763608433872,0.020331417606322247,-0.08566141662031365, ,0.0007649594203094238, ,0.00779285209236172,0.0003158486274381384,-0.02103831475047285,0.0002701200881367171,0.007220544621925722,-0.04104215441248623, ,0.02243744619222171, ,0.007225310235870769, ,6.49052515220382e-05, ,0.0906185475461504,-0.14699449752798932,0.10105228695000001,3.6211356340342506,1.2940842892784865,-0.14746144798659844, ,0.047543557895025436,0.02216182661337477,0.021438508102288024,0.2294058174375182,-0.005624968217076293,0.18808250177674046, ,0.8263850212097168
0.011824314934623657,0.02056426441833667,-0.08522354792794952, ,0.012372077722709852,0.020331849810575644,-0.08585128625267267, ,0.0008649370070929474, ,0.007683453683479606,0.0002278808460279471,-0.020322585689028026,-0.0012631144882896761,0.004983409269163645,-0.0015339293268822243, ,0.0217277444589642, ,0.005140657509081757, ,6.591696534748653e-05, ,0.09082706133375446,-0.1468941020006244,0.10114302725,3.621974393808189,1.2940842892784865,-0.14656298184505218, ,0.04874008297815653,0.02281724971350584,0.02071366907672302,0.2094188942220101,-0.00546778025398936,0.20807311066490164, ,0.8380060195922852
0.012007772488614891,0.02056358931621021,-0.08566541339625924, ,0.012448219963962382,0.020332279768208717,-0.08604036892622442, ,0.000622968486352321, ,0.00568344626212244,-9.020268689724758e-05,-0.01302752342713603,-0.017525950227374347,-0.03176402509512978,-0.001170715449808163, ,0.014213587322830753, ,0.03627825583426353, ,6.639483655393065e-05, ,0.0921013122580015,-0.14631489703505757,0.10159543246000001,3.6261681926778797,1.2940842892784865,-0.1423973660978835, ,0.04683955654416129,0.020971699791927242,0.013329549389121339,0.05402570598184603,-0.003958436280926541,0.0543362282552642, ,0.8477959632873535
0.01207508337644566,0.020553975802887987,-0.0857985717414853, ,0.012524190381880306,0.02033270750994706,-0.08622866629241445, ,0.000660028849771296, ,0.00807748832950594,-0.0013782264541610696,-0.014163225696654572,-0.005617832481504123,0.005329695957919246,-0.19016748832616584, ,0.01636283251783231, ,0.007743715573164126, ,6.693769927270184e-05, ,0.09258784442907765,-0.14606004685020815,0.10172895033000001,3.627845712225756,1.2938110162789558,-0.1413577428890851, ,0.051912987723452285,0.026418970367057565,0.014402180397830021,0.29113093165400605,-0.01075537179108028,0.0997801377695332, ,0.8578839302062988
0.01215904424797924,0.020542686220060412,-0.08596652685118374, ,0.012599989026854741,0.02033313306661267,-0.0864161800009293, ,0.0006637264325108335, ,0.008182614200830897,-0.000827373564774257,-0.017619837280170133,-0.062028545583107476,0.05917479550150431,-0.08843466717605095, ,0.019444752195772512, ,0.08572744713054171, ,6.747478992203509e-05, ,0.09310526753165069,-0.14581291939823296,0.10189228287,3.630991061378024,1.2928545607805975,-0.13918927898082067, ,0.04844152197982173,0.022916431190164403,0.017257650617551468,0.31187911150958514,-0.08597341297700153,0.22340513520463678, ,0.8682820796966553
0.012215037594889386,0.02054016305728602,-0.08609548201935999, ,0.01267561594997778,0.020333556469123645,-0.08660291169969682, ,0.0007157538570868952, ,0.007509561150194521,6.967961646740621e-05,-0.01895085550552985,-0.01369417877601291,0.00606855534319651,-0.027147594791070578, ,0.020384633631952597, ,0.014978499659892851, ,6.8242294805355e-05, ,0.09344506777811656,-0.14565846474074848,0.10202191187000001,3.632878270869384,1.2925812877810665,-0.1378229408114599, ,0.04841680691758713,0.021855583039721505,0.019237695072463774,0.1976578360756708,-0.01865327791203989,0.17084028058953848, ,0.8769950866699219
0.012298585650945038,0.020546644284287423,-0.08632960242215147, ,0.012751071203041824,0.020333977748493645,-0.08678886303488721, ,0.0006788891961971898, ,0.006581126446617824,0.0008127914892939988,-0.019695221991477566,0.0001592684309580858,-0.030386925758534,0.07473592042347577, ,0.020781569348945303, ,0.03038729438418919, ,6.892036252055665e-05, ,0.09403971820943186,-0.14539589182302484,0.10226042923,3.6341364105302914,1.2924446512813013,-0.13575123314439003, ,0.04817103632409685,0.02149908055244014,0.020265663511450382,0.06390873458677634,0.01184956982856792,0.14033965290505235, ,0.8851718902587891
0.012389764566974281,0.020548142448468757,-0.08656805688519761, ,0.01282635483853798,0.02033439693583225,-0.08697403565091472, ,0.0006333379568678082, ,0.009099265823961113,-2.091177242185497e-05,-0.023219442562778334,0.01472031511509843,0.01937398703507608,-0.11646420167982488, ,0.024938716662320348, ,0.02433171390222581, ,6.949439064036781e-05, ,0.09458030951062757,-0.1451333189053012,0.10250542804000001,3.6368623797955903,1.2925812877810665,-0.13390236128471295, ,0.049528675134901244,0.024006309526554716,0.023738914336810735,0.3298348727006957,0.0,0.21191846081229818, ,0.8933210372924805
0.012472120045493643,0.020549055785747762,-0.08677530700454697, ,0.012901466909655662,0.020334814062344057,-0.0871584311904373, ,0.0006140214879194998, ,0.009265572246443103,0.000272201423784175,-0.023512796657605937,0.008660569319677477,0.033731510707008895,-0.06618936173178713, ,0.025274028751488983, ,0.03482546609812474, ,7.001909444886715e-05, ,0.09502050528445836,-0.1449479733163198,0.10271542702000001,3.6400077289478583,1.2923080147815358,-0.13155587823366538, ,0.05013044984599618,0.020182250437786212,0.023989173975903617,0.34110008280882126,-0.015278570625349193,0.27351193297096704, ,0.9018669128417969
0.012472120045493643,0.020549055785747762,-0.08677530700454697, ,0.012976407470281061,0.020335229159328685,-0.0873420512943585, ,0.0007881793723502693, ,0.009265572246443103,0.000272201423784175,-0.023512796657605937,0.008660569319677477,0.033731510707008895,-0.06618936173178713, ,0.025274028751488983, ,0.03482546609812474, ,7.087305916642259e-05, ,0.09502050528445836,-0.1449479733163198,0.10271542702000001,3.6400077289478583,1.2923080147815358,-0.13155587823366538, ,0.05013044984599618,0.020182250437786212,0.023989173975903617,0.34110008280882126,-0.015278570625349193,0.27351193297096704, ,0.9119350910186768
0.01264526817166129,0.020562568182864276,-0.08724752738309205, ,0.013051176574996352,0.02033564225818046,-0.08752489760182762, ,0.0005414713708341758, ,0.007609151542530461,0.0009616223420996911,-0.02196182881161031,0.02366751308944254,-0.017733393806748345,0.04635397128296579, ,0.0232625413374484, ,0.029573963594121563, ,7.123426780542271e-05, ,0.0960707969553529,-0.1445309457411117,0.10319764690000001,3.6446209077045175,1.292034741782005,-0.12602392431713616, ,0.04844152197982173,0.019291917373139008,0.02275544502857143,0.15303392260130916,0.023742504139300524,0.1997339431528406, ,0.920849084854126
0.01264526817166129,0.020562568182864276,-0.08724752738309205, ,0.013125774279078467,0.02033605339038832,-0.08770697175024113, ,0.0007023419373643082, ,0.007609151542530461,0.0009616223420996911,-0.02196182881161031,0.02366751308944254,-0.017733393806748345,0.04635397128296579, ,0.0232625413374484, ,0.029573963594121563, ,7.189616187490109e-05, ,0.0960707969553529,-0.1445309457411117,0.10319764690000001,3.6446209077045175,1.292034741782005,-0.12602392431713616, ,0.04844152197982173,0.019291917373139008,0.02275544502857143,0.15303392260130916,0.023742504139300524,0.1997339431528406, ,0.9288690090179443
0.012731996241176272,0.02057274210241574,-0.08748568713331703, ,0.013200200638498284,0.020336462587535267,-0.08788827537524345, ,0.0006611510110112706, ,0.008215496025439258,0.00046452093921525543,-0.020975477333314566,-0.0015407252360548724,-0.00017601898953590548,-0.032901491813581166, ,0.02253177321045485, ,0.0015494375195632185, ,7.24675069537586e-05, ,0.09660366552367439,-0.14433015468638186,0.10342968281,3.646298427252394,1.292034741782005,-0.12414531329390333, ,0.05208394157984127,0.01966368453345851,0.02149637182186235,0.20730127313976493,0.01856813950572584,0.1539457827692114, ,0.9369568824768066
0.012817514085245844,0.02057229099424662,-0.08768335388611591, ,0.013274455709919327,0.020336869881298344,-0.08806881011072737, ,0.0006424914395326744, ,0.008850133565074293,-6.628123183984123e-05,-0.02033994289668363,0.006080287377600673,0.01932849527126332,-0.1300943508498339, ,0.02218203179065659, ,0.020262209718778713, ,7.29931240358672e-05, ,0.09713653409199588,-0.14412936363165202,0.10364616324,3.6492340864611776,1.292034741782005,-0.12234838101081091, ,0.0502898471428038,0.019474028639128005,0.020821975843137257,0.3139600372289309,-0.01312948343873491,0.18227497942095897, ,0.9450259208679199
0.012817514085245844,0.02057229099424662,-0.08768335388611591, ,0.013348539550696994,0.020337275303448168,-0.08824857758883564, ,0.0008103692084447001, ,0.008850133565074293,-6.628123183984123e-05,-0.02033994289668363,0.006080287377600673,0.01932849527126332,-0.1300943508498339, ,0.02218203179065659, ,0.020262209718778713, ,7.382101174639762e-05, ,0.09713653409199588,-0.14412936363165202,0.10364616324,3.6492340864611776,1.292034741782005,-0.12234838101081091, ,0.0502898471428038,0.019474028639128005,0.020821975843137257,0.3139600372289309,-0.01312948343873491,0.18227497942095897, ,0.9532549381256104
0.012983997000183323,0.02057296177628507,-0.08808375990441486, ,0.013422452218877279,0.02033767888584893,-0.08842757943996102, ,0.0006048246773695052, ,0.00770240170970689,0.00024694191165343035,-0.019989446343297787,-0.04939766572807504,0.03265361542305738,0.050430484167609084, ,0.021423490320603877, ,0.05921473455157584, ,7.425511785806891e-05, ,0.09814048936564507,-0.14372778152219234,0.10405190201000002,3.654266645104806,1.2913515592831777,-0.11819742692614416, ,0.04916939977122838,0.01985291664403154,0.019960916691729325,0.18546577683171261,-0.06482030329327285,0.23741629107597712, ,0.9649209976196289
0.01306057838559796,0.020576892506461428,-0.0882866391851471, ,0.013496193773195842,0.020338080660457915,-0.08860581729274797, ,0.0005904799133546598, ,0.007784420016510374,0.00036478234144715106,-0.020793659638936573,-0.033636669465305205,0.012275703920265214,0.03688626489419414, ,0.022206002394173044, ,0.03580662720917968, ,7.465512574869723e-05, ,0.09863474426959544,-0.1435269904674625,0.10425671583000001,3.6559441646526825,1.2909416497838813,-0.11614791967210275, ,0.05071990462772356,0.021460185788889818,0.020986576442687747,0.1612653921617288,-0.040785624007003266,0.19962920621214386, ,0.9738719463348389
0.013140404993969894,0.020578116557487362,-0.0884845475775798, ,0.013569764273076972,0.020338480659325395,-0.08878329277409312, ,0.0005753463710522787, ,0.008286565516778761,1.0710011119187748e-05,-0.020060000192728904,0.0029163028669133874,0.007097678131049431,-0.06262893514070252, ,0.021704167583680527, ,0.007673239796495562, ,7.515644072706224e-05, ,0.09912899917354581,-0.14331847667985845,0.10445893707000001,3.6580410640875276,1.290805013284116,-0.11440292696559523, ,0.049502838580318606,0.02103678598059649,0.02055330518709678,0.24288448947866687,-0.00781997671503441,0.17983535097254177, ,0.9805469512939453
0.013140404993969894,0.020578116557487362,-0.0884845475775798, ,0.013643163778632528,0.020338878914594277,-0.08896000750914537, ,0.0007321633641864547, ,0.008286565516778761,1.0710011119187748e-05,-0.020060000192728904,0.0029163028669133874,0.007097678131049431,-0.06262893514070252, ,0.021704167583680527, ,0.007673239796495562, ,7.59325874919511e-05, ,0.09912899917354581,-0.14331847667985845,0.10445893707000001,3.6580410640875276,1.290805013284116,-0.11440292696559523, ,0.049502838580318606,0.02103678598059649,0.02055330518709678,0.24288448947866687,-0.00781997671503441,0.17983535097254177, ,0.9870438575744629
0.013233062704714756,0.02057708861715233,-0.08869454251700391, ,0.013716392350660835,0.020339275458499808,-0.08913596312130824, ,0.0006964300359569857, ,0.008963521328695712,-0.00020589054391775743,-0.019993931291265744,0.01258751220924808,0.01892077870542112,-0.0438318421396692, ,0.02191219737967676, ,0.022725275252227603, ,7.66338369312175e-05, ,0.09967731320761575,-0.14310224015938017,0.1046754175,3.6609767232963106,1.290805013284116,-0.1121159222416594, ,0.052227265579785784,0.020679220213220915,0.02055330518709678,0.29762618890698295,-0.006738292685324682,0.2529204453983085, ,0.993980884552002
0.013325219660672351,0.02057705140587999,-0.08890819510373667, ,0.013789450050645842,0.020339670323369644,-0.08931116123223981, ,0.0006589699037357728, ,0.00955373091973554,0.0001802111105646976,-0.022967403415524685,0.015586537996509954,0.008925063530884257,-0.01995201646571729, ,0.02487584913490466, ,0.017960805518800565, ,7.725872089577584e-05, ,0.10023334997455992,-0.1428860036389019,0.10489449051000001,3.6637026925616096,1.2906683767843505,-0.10947246339360561, ,0.05672261898294727,0.02212049919777874,0.023668367786032693,0.2788892273434622,0.0,0.25842084132556126, ,1.0038139820098877
0.013325219660672351,0.02057705140587999,-0.08890819510373667, ,0.013862336940755771,0.020340063541623172,-0.08948560346185318, ,0.0008234431567461244, ,0.009620206412470605,0.0006379995324621857,-0.025317745041852885,-0.0073653788568011904,0.015947245254721507,0.010772444519127962, ,0.027091393999316996, ,0.01756567774726013, ,7.816436926402058e-05, ,0.1007662185428814,-0.14268521258417205,0.10512652642,3.6662189718834237,1.2902584672850541,-0.10676952621843999, ,0.05744366922425592,0.021533229307572222,0.02585846025974026,0.24877613466667697,-0.02397062282504646,0.25984014584723963, ,1.0108158588409424
0.013415091005546744,0.02058075655160491,-0.08913705063439428, ,0.013935053083842353,0.020340455145771534,-0.08965929142831806, ,0.0007751391974020707, ,0.009620206412470605,0.0006379995324621857,-0.025317745041852885,-0.0073653788568011904,0.015947245254721507,0.010772444519127962, ,0.027091393999316996, ,0.01756567774726013, ,7.897290374014994e-05, ,0.1007662185428814,-0.14268521258417205,0.10512652642,3.6662189718834237,1.2902584672850541,-0.10676952621843999, ,0.05744366922425592,0.021533229307572222,0.02585846025974026,0.24877613466667697,-0.02397062282504646,0.25984014584723963, ,1.0174200534820557
0.013507037667739724,0.020589748470934543,-0.0893913678278178, ,0.014007598543439553,0.020340845168417356,-0.08983222674806143, ,0.0007119484755540421, ,0.008998635598045611,0.0009104135959660878,-0.025270627884230852,-0.02641287863119974,0.016610111545738746,0.04371767710495395, ,0.026840434594197604, ,0.031201372684307813, ,7.9660502456458e-05, ,0.10132225530982557,-0.142476698796568,0.10538708071000001,3.668315871318269,1.2901218307852886,-0.10445278233094851, ,0.05510856071920487,0.020469573243846156,0.02565026009661836,0.19460279124140314,-0.040181166452684464,0.23948789284343502, ,1.0241529941558838
0.013610201201713518,0.020595635102395062,-0.08966486086878328, ,0.014079973383762896,0.020341233642254337,-0.09000441103576816, ,0.0006330089429452205, ,0.009727410938783519,0.00017758902886691984,-0.025291486016389222,-0.014383754585119934,0.013907033553723946,-0.05782075236190014, ,0.02709821629466321, ,0.02000718945440377, ,8.020251441011211e-05, ,0.10194007393976352,-0.14222184861171858,0.10566837564,3.670832150640084,1.2901218307852886,-0.10232913508729385, ,0.057029411994273305,0.025434720331940705,0.02573313654281099,0.2611861844930287,-0.026916571699710352,0.20360806228420952, ,1.031209945678711
0.013610201201713518,0.020595635102395062,-0.08966486086878328, ,0.014152177669707989,0.020341620600067233,-0.09017584590438195, ,0.0007869990888548656, ,0.009727410938783519,0.00017758902886691984,-0.025291486016389222,-0.014383754585119934,0.013907033553723946,-0.05782075236190014, ,0.02709821629466321, ,0.02000718945440377, ,8.10007832991779e-05, ,0.10194007393976352,-0.14222184861171858,0.10566837564,3.670832150640084,1.2901218307852886,-0.10232913508729385, ,0.057029411994273305,0.025434720331940705,0.02573313654281099,0.2611861844930287,-0.026916571699710352,0.20360806228420952, ,1.037843942642212
0.013704942097440411,0.020597276479719484,-0.08990813783288391, ,0.014224211466849756,0.02034200607473157,-0.09034653296510581, ,0.0007259434892781418, ,0.010111040014312362,0.00013006363398959924,-0.02515913545598785,0.007880631900951205,0.019844164102629708,-0.10373747062363615, ,0.027115164458521312, ,0.021351466639830452, ,8.168435533332998e-05, ,0.1024652197752108,-0.14199788935836605,0.10591596703000002,3.6737678098488664,1.2898485577857577,-0.10030936699680848, ,0.055430456517798356,0.02276798022036247,0.0257747759223301,0.3273206094155148,-0.013111604133145086,0.2224359835920926, ,1.0473248958587646
0.013838852761722965,0.020598571876995896,-0.0902306795526247, ,0.014296074841441167,0.020342390099213164,-0.09051647382740344, ,0.0005969585420664166, ,0.009531637113952256,0.0002868411157215195,-0.023917135933872742,-0.0473645433004003,0.025085556067164807,0.011662868332927305, ,0.025748082941785922, ,0.053597362427137765, ,8.214080992916292e-05, ,0.10324521579550747,-0.14170442550914553,0.10624263211000001,3.6777519187750727,1.2891653752869305,-0.09697520031354728, ,0.06025202638633065,0.02318517995564886,0.024098050711043876,0.21355198780760298,-0.06388210857796962,0.22674999039317398, ,1.053783893585205
0.013838852761722965,0.020598571876995896,-0.0902306795526247, ,0.01436776786041263,0.020342772706568202,-0.09068567009899989, ,0.0007431021427126845, ,0.009531637113952256,0.0002868411157215195,-0.023917135933872742,-0.0473645433004003,0.025085556067164807,0.011662868332927305, ,0.025748082941785922, ,0.053597362427137765, ,8.283634500130391e-05, ,0.10324521579550747,-0.14170442550914553,0.10624263211000001,3.6777519187750727,1.2891653752869305,-0.09697520031354728, ,0.06025202638633065,0.02318517995564886,0.024098050711043876,0.21355198780760298,-0.06388210857796962,0.22674999039317398, ,1.060180902481079
0.013935391927432067,0.020600927255585613,-0.09047336494653992, ,0.014439290591370404,0.020343153929942893,-0.0908541233858822, ,0.000682156829520982, ,0.009377698862058807,1.5750300356678036e-05,-0.022396399146752278,-0.004934726709744524,-0.017639662865330266,-0.04871382452265882, ,0.024280448487622022, ,0.01831675732056152, ,8.356029791368633e-05, ,0.10387075715831966,-0.1414418525914219,0.10649022350000001,3.6796391282664334,1.2888921022873998,-0.09520046844348401, ,0.061105564429150536,0.026120820687715603,0.023051825643994214,0.1897342887419622,-0.0047105246602209975,0.1417409101912705, ,1.0650980472564697
0.013935391927432067,0.020600927255585613,-0.09047336494653992, ,0.014510643102595994,0.02034353380257309,-0.09102183529229986, ,0.0008354549804503069, ,0.009377698862058807,1.5750300356678036e-05,-0.022396399146752278,-0.004934726709744524,-0.017639662865330266,-0.04871382452265882, ,0.024280448487622022, ,0.01831675732056152, ,8.453168343978142e-05, ,0.10387075715831966,-0.1414418525914219,0.10649022350000001,3.6796391282664334,1.2888921022873998,-0.09520046844348401, ,0.061105564429150536,0.026120820687715603,0.023051825643994214,0.1897342887419622,-0.0047105246602209975,0.1417409101912705, ,1.0700910091400146
0.01403526451744239,0.020599426120985646,-0.0907014844382911, ,0.014581825463044887,0.020343912357784263,-0.0911888074207666, ,0.0007755642073304096, ,0.01079780643247059,-0.0002350079693332445,-0.02451003347300493,-0.013898682370560016,0.028992050546910182,-0.10109996024897056, ,0.026784129505111335, ,0.032151260023685915, ,8.539444237698979e-05, ,0.10449629852113185,-0.1411947251394467,0.10672225941,3.6821554075882474,1.2884821927881034,-0.09323263992958325, ,0.06230921967069651,0.024146804467804265,0.024966789216300942,0.3365399166238112,-0.03953096138129936,0.23487689932684083, ,1.0752079486846924
0.01403526451744239,0.020599426120985646,-0.0907014844382911, ,0.014652837742345496,0.02034428962899112,-0.09135504137206003, ,0.0009346806852299609, ,0.01079780643247059,-0.0002350079693332445,-0.02451003347300493,-0.013898682370560016,0.028992050546910182,-0.10109996024897056, ,0.026784129505111335, ,0.032151260023685915, ,8.651039197912629e-05, ,0.10449629852113185,-0.1411947251394467,0.10672225941,3.6821554075882474,1.2884821927881034,-0.09323263992958325, ,0.06230921967069651,0.024146804467804265,0.024966789216300942,0.3365399166238112,-0.03953096138129936,0.23487689932684083, ,1.0819768905639648
0.01414069523440704,0.02059508534248006,-0.09094601640732132, ,0.014723680010798271,0.02034466564969753,-0.09152053874522352, ,0.0008559539641743827, ,0.012018103489124628,-0.00037450386177317885,-0.028548134854293552,-0.06929764962840662,0.09694182093647151,-0.048192312466182205, ,0.030976944140388072, ,0.11916317354074371, ,8.74865340220674e-05, ,0.10506778075382446,-0.1409707658860942,0.10696466564000001,3.6859298265709692,1.2873891007899798,-0.08997261323593547, ,0.06433690953116662,0.025285622584191522,0.028343080996441283,0.42858782859910766,-0.12137931245508543,0.38086528852827883, ,1.0880420207977295
0.01414069523440704,0.02059508534248006,-0.09094601640732132, ,0.014794352339374546,0.020345040453495982,-0.09168530113756632, ,0.0010180039144104395, ,0.012018103489124628,-0.00037450386177317885,-0.028548134854293552,-0.06929764962840662,0.09694182093647151,-0.048192312466182205, ,0.030976944140388072, ,0.11916317354074371, ,8.871706221806777e-05, ,0.10506778075382446,-0.1409707658860942,0.10696466564000001,3.6859298265709692,1.2873891007899798,-0.08997261323593547, ,0.06433690953116662,0.025285622584191522,0.028343080996441283,0.42858782859910766,-0.12137931245508543,0.38086528852827883, ,1.0932519435882568
0.014299718704516975,0.020595648953404856,-0.09134722992703444, ,0.014864854799715492,0.020345414074067758,-0.09184933014466401, ,0.0007963045456838375, ,0.009570802569771901,0.0010167170751522866,-0.02664200699889809,0.025420888367229676,-0.03692022358381704,0.11707306585762106, ,0.028327204457372655, ,0.044825339399927645, ,8.957630591179489e-05, ,0.1059636177672345,-0.1405923519752572,0.10737040441000001,3.690543005327629,1.2865692817913872,-0.085220168806729, ,0.06214599971085185,0.02541428536648923,0.02775054271777004,0.12306001948128745,0.03245926445479663,0.24183340693144767, ,1.0981590747833252
0.014299718704516975,0.020595648953404856,-0.09134722992703444, ,0.014935187464131198,0.02034578654518237,-0.09201262736036074, ,0.0009534178054586622, ,0.009570802569771901,0.0010167170751522866,-0.02664200699889809,0.025420888367229676,-0.03692022358381704,0.11707306585762106, ,0.028327204457372655, ,0.044825339399927645, ,9.06806428274776e-05, ,0.1059636177672345,-0.1405923519752572,0.10737040441000001,3.690543005327629,1.2865692817913872,-0.085220168806729, ,0.06214599971085185,0.02541428536648923,0.02775054271777004,0.12306001948128745,0.03245926445479663,0.24183340693144767, ,1.1029889583587646
0.014406874464251939,0.02060447432806392,-0.0916365669448742, ,0.015005350405599426,0.020346157900697583,-0.09217519437676842, ,0.0008455887531229595, ,0.012045428925773231,0.0007034490324187292,-0.032213720170779295,0.012486163431560697,-0.002194715701079919,-0.011884699057145013, ,0.03439928728605199, ,0.012676212535276102, ,9.160126373380268e-05, ,0.1066277727944178,-0.14032205632465933,0.10767114369000001,3.6924302148189896,1.2868425547909181,-0.08282928492962377, ,0.0695215689073046,0.02866977086358634,0.033185024,0.28311944023050606,0.0,0.2715607040591618, ,1.108227014541626
0.014406874464251939,0.02060447432806392,-0.0916365669448742, ,0.015075343697764752,0.020346528174558887,-0.09233703278426827, ,0.0010020178273959512, ,0.012045428925773231,0.0007034490324187292,-0.032213720170779295,0.012486163431560697,-0.002194715701079919,-0.011884699057145013, ,0.03439928728605199, ,0.012676212535276102, ,9.276294749769173e-05, ,0.1066277727944178,-0.14032205632465933,0.10767114369000001,3.6924302148189896,1.2868425547909181,-0.08282928492962377, ,0.0695215689073046,0.02866977086358634,0.033185024,0.28311944023050606,0.0,0.2715607040591618, ,1.1130268573760986
0.01452924221830404,0.020605480444364905,-0.0919421687585557, ,0.015145167414937441,0.020346897400799566,-0.09249814417151153, ,0.000869101661532655, ,0.014566920780490239,7.86869178057148e-05,-0.03555229235785668,0.032931845844881624,0.05416173107271226,-0.1374898569581968, ,0.038420917018658296, ,0.06338724465450422, ,9.370223655816801e-05, ,0.10725331415723,-0.14006720613980994,0.10798484587000001,3.6966240136886803,1.2867059182911527,-0.07977743238086704, ,0.07167442715896584,0.02719110073308618,0.036533971376146786,0.5437159792230081,-0.016918091696782288,0.403468399376654, ,1.1182160377502441
0.01452924221830404,0.020605480444364905,-0.0919421687585557, ,0.015214821632092451,0.02034726561354039,-0.0926585301254205, ,0.001024630489203109, ,0.014566920780490239,7.86869178057148e-05,-0.03555229235785668,0.032931845844881624,0.05416173107271226,-0.1374898569581968, ,0.038420917018658296, ,0.06338724465450422, ,9.487869823463731e-05, ,0.10725331415723,-0.14006720613980994,0.10798484587000001,3.6966240136886803,1.2867059182911527,-0.07977743238086704, ,0.07167442715896584,0.02719110073308618,0.036533971376146786,0.5437159792230081,-0.016918091696782288,0.403468399376654, ,1.1230518817901611
0.014685113475474198,0.020609887405590548,-0.09232738861273655, ,0.015284306424868324,0.02034763284698916,-0.09281819223118845, ,0.0008177394670653466, ,0.013553564952644925,0.0006362399703204857,-0.03411037786252298,0.013764826999582728,0.010070746732714533,-0.06441199049819193, ,0.036709968702649365, ,0.01705415563272722, ,9.586920623242292e-05, ,0.10807192384189779,-0.13976601955771517,0.10838280690000002,3.7016565723323085,1.2867059182911527,-0.07593853159426056, ,0.07640655520005699,0.027739532756056937,0.03516293933774835,0.36163789832109966,-0.0114340484023142,0.2965971442818164, ,1.1270339488983154
0.014685113475474198,0.020609887405590548,-0.09232738861273655, ,0.015353621869566191,0.020347999135440782,-0.09297713207228145, ,0.000968326134231057, ,0.013553564952644925,0.0006362399703204857,-0.03411037786252298,0.013764826999582728,0.010070746732714533,-0.06441199049819193, ,0.036709968702649365, ,0.01705415563272722, ,9.709025610941382e-05, ,0.10807192384189779,-0.13976601955771517,0.10838280690000002,3.7016565723323085,1.2867059182911527,-0.07593853159426056, ,0.07640655520005699,0.027739532756056937,0.03516293933774835,0.36163789832109966,-0.0114340484023142,0.2965971442818164, ,1.131213903427124
0.014685113475474198,0.020609887405590548,-0.09232738861273655, ,0.0154227680431487,0.020348364513276953,-0.09313535123043847, ,0.0011248698040301605, ,0.013553564952644925,0.0006362399703204857,-0.03411037786252298,0.013764826999582728,0.010070746732714533,-0.06441199049819193, ,0.036709968702649365, ,0.01705415563272722, ,9.854901675488612e-05, ,0.10807192384189779,-0.13976601955771517,0.10838280690000002,3.7016565723323085,1.2867059182911527,-0.07593853159426056, ,0.07640655520005699,0.027739532756056937,0.03516293933774835,0.36163789832109966,-0.0114340484023142,0.2965971442818164, ,1.1356589794158936
0.01475001508890941,0.020614510390496766,-0.09249671822907807, ,0.015491745023239087,0.020348729014965886,-0.09329285128567245, ,0.0011201030661783385, ,0.012850061421716191,0.0009893380574531301,-0.0343678781971902,0.004952811012878318,-0.000993259973577874,0.048049419899623545, ,0.03670495770479385, ,0.005046677626472197, ,9.999121211843076e-05, ,0.10845033775273479,-0.13962701036597913,0.10855780605000001,3.7031244019367002,1.2867059182911527,-0.07430495679144933, ,0.07573578735711954,0.028782815152705726,0.03539735893333334,0.2681975664566432,-0.009979222373016364,0.31728447196918513, ,1.1390869617462158
0.01475001508890941,0.020614510390496766,-0.09249671822907807, ,0.015560552888119921,0.02034909267506197,-0.09344963381627117, ,0.0012788534724241139, ,0.012850061421716191,0.0009893380574531301,-0.0343678781971902,0.004952811012878318,-0.000993259973577874,0.048049419899623545, ,0.03670495770479385, ,0.005046677626472197, ,0.00010167169661716479, ,0.10845033775273479,-0.13962701036597913,0.10855780605000001,3.7031244019367002,1.2867059182911527,-0.07430495679144933, ,0.07573578735711954,0.028782815152705726,0.03539735893333334,0.2681975664566432,-0.009979222373016364,0.31728447196918513, ,1.1423580646514893
0.01475001508890941,0.020614510390496766,-0.09249671822907807, ,0.0156291917167323,0.02034945552820582,-0.09360570039879747, ,0.0014398079995921846, ,0.012850061421716191,0.0009893380574531301,-0.0343678781971902,0.004952811012878318,-0.000993259973577874,0.048049419899623545, ,0.03670495770479385, ,0.005046677626472197, ,0.00010359167271399375, ,0.10845033775273479,-0.13962701036597913,0.10855780605000001,3.7031244019367002,1.2867059182911527,-0.07430495679144933, ,0.07573578735711954,0.028782815152705726,0.03539735893333334,0.2681975664566432,-0.009979222373016364,0.31728447196918513, ,1.1457080841064453
0.014959597373865659,0.020628623891999428,-0.09305362122468763, ,0.015697661588674524,0.020349817609123935,-0.0937610526080908, ,0.0010596843354395648, ,0.015146524349180322,0.000812921685825323,-0.03869487273988625,-0.024204775044613273,0.052357371315235685,0.030451975096067174, ,0.04156165562009759, ,0.05768083491485893, ,0.00010491133368924389, ,0.10965508408111381,-0.1391790918592741,0.10912687736000001,3.707947270636844,1.2860227357923255,-0.06843874916383086, ,0.08427792323132396,0.028861600230678464,0.03942775128712872,0.40450078893843566,-0.06818968470919066,0.43569237491925505, ,1.1493380069732666
0.014959597373865659,0.020628623891999428,-0.09305362122468763, ,0.01576596258420145,0.020350178952628282,-0.09391569201726707, ,0.0012128159333220465, ,0.015146524349180322,0.000812921685825323,-0.03869487273988625,-0.024204775044613273,0.052357371315235685,0.030451975096067174, ,0.04156165562009759, ,0.05768083491485893, ,0.00010645916280335433, ,0.10965508408111381,-0.1391790918592741,0.10912687736000001,3.707947270636844,1.2860227357923255,-0.06843874916383086, ,0.08427792323132396,0.028861600230678464,0.03942775128712872,0.40450078893843566,-0.06818968470919066,0.43569237491925505, ,1.1526849269866943
0.014959597373865659,0.020628623891999428,-0.09305362122468763, ,0.015834094784223065,0.02035053959361638,-0.0940696201977204, ,0.001369061909094196, ,0.015146524349180322,0.000812921685825323,-0.03869487273988625,-0.024204775044613273,0.052357371315235685,0.030451975096067174, ,0.04156165562009759, ,0.05768083491485893, ,0.00010823784523948892, ,0.10965508408111381,-0.1391790918592741,0.10912687736000001,3.707947270636844,1.2860227357923255,-0.06843874916383086, ,0.08427792323132396,0.028861600230678464,0.03942775128712872,0.40450078893843566,-0.06818968470919066,0.43569237491925505, ,1.155946969985962
0.015110826342803429,0.020630476895287138,-0.09342552409818851, ,0.015902058270303665,0.020350899567070917,-0.09422283871912329, ,0.0011575500206490589, ,0.01690149346588669,0.00013118143822507013,-0.041341079901573,-0.0064548825969669155,0.07481021386423535,-0.1210609390312131, ,0.044662764999218174, ,0.07508736812308349, ,0.00010968121077655959, ,0.11043508010141048,-0.13890107347580202,0.10950409775000002,3.712979829280473,1.2852029167937329,-0.06425805591560818, ,0.08611337709480106,0.03141242686477021,0.04213971301587302,0.5713237307179236,-0.0674298561598218,0.4487602301340982, ,1.1591930389404297
0.015110826342803429,0.020630476895287138,-0.09342552409818851, ,0.01596985312466078,0.020351258908059455,-0.09437534914942769, ,0.0013107468574447127, ,0.01690149346588669,0.00013118143822507013,-0.041341079901573,-0.0064548825969669155,0.07481021386423535,-0.1210609390312131, ,0.044662764999218174, ,0.07508736812308349, ,0.00011134999431767824, ,0.11043508010141048,-0.13890107347580202,0.10950409775000002,3.712979829280473,1.2852029167937329,-0.06425805591560818, ,0.08611337709480106,0.03141242686477021,0.04213971301587302,0.5713237307179236,-0.0674298561598218,0.4487602301340982, ,1.1624679565429688
0.015110826342803429,0.020630476895287138,-0.09342552409818851, ,0.01603747943016392,0.020351617651734478,-0.0945271530548653, ,0.0014662996897695489, ,0.01690149346588669,0.00013118143822507013,-0.041341079901573,-0.0064548825969669155,0.07481021386423535,-0.1210609390312131, ,0.044662764999218174, ,0.07508736812308349, ,0.0001132457255694072, ,0.11043508010141048,-0.13890107347580202,0.10950409775000002,3.712979829280473,1.2852029167937329,-0.06425805591560818, ,0.08611337709480106,0.03141242686477021,0.04213971301587302,0.5713237307179236,-0.0674298561598218,0.4487602301340982, ,1.1657230854034424
0.015298351883193463,0.020634153233254838,-0.09388762231787637, ,0.016104937270333936,0.02035197583333286,-0.09467825199994884, ,0.0011641732542664292, ,0.01732136315200044,0.0007243040109120649,-0.04506925300211282,0.004860242015301233,0.046499147321384555,-0.08728348963369575, ,0.04828863017224818, ,0.046750472742616185, ,0.00011467077390242788, ,0.111415867176437,-0.1385458277635877,0.10997724360000001,3.7188511476980395,1.284656370794671,-0.059646768553653695, ,0.08986452799097612,0.03378317606211135,0.04617046817391306,0.5092233252051057,-0.04290201080970702,0.42106503909227505, ,1.1692109107971191
0.015298351883193463,0.020634153233254838,-0.09388762231787637, ,0.016172226729341637,0.020352333488175813,-0.09482864754747242, ,0.001314765415647673, ,0.01732136315200044,0.0007243040109120649,-0.04506925300211282,0.004860242015301233,0.046499147321384555,-0.08728348963369575, ,0.04828863017224818, ,0.046750472742616185, ,0.00011631535552037157, ,0.111415867176437,-0.1385458277635877,0.10997724360000001,3.7188511476980395,1.284656370794671,-0.059646768553653695, ,0.08986452799097612,0.03378317606211135,0.04617046817391306,0.5092233252051057,-0.04290201080970702,0.42106503909227505, ,1.1736340522766113
0.015298351883193463,0.020634153233254838,-0.09388762231787637, ,0.016239347892006845,0.020352690651668604,-0.09497834125851268, ,0.0014677746696610807, ,0.01732136315200044,0.0007243040109120649,-0.04506925300211282,0.004860242015301233,0.046499147321384555,-0.08728348963369575, ,0.04828863017224818, ,0.046750472742616185, ,0.00011818113189290984, ,0.111415867176437,-0.1385458277635877,0.10997724360000001,3.7188511476980395,1.284656370794671,-0.059646768553653695, ,0.08986452799097612,0.03378317606211135,0.04617046817391306,0.5092233252051057,-0.04290201080970702,0.42106503909227505, ,1.1772658824920654
0.015458492993041736,0.020644010075162075,-0.09431931992903417, ,0.016306300843797573,0.020353047359300415,-0.09512733469242933, ,0.001206783042509864, ,0.017773460314529966,0.001422197246493397,-0.04867128508698198,-0.014276976894770867,0.03987648932103823,-0.0020185062677530803, ,0.05183447239606456, ,0.04235201699071826, ,0.00011964260896930146, ,0.1122653677926017,-0.13822147298287027,0.11041927849000001,3.7230449465677298,1.2842464612953748,-0.05571865027637962, ,0.09537381061152843,0.034684554663183764,0.049777536000000004,0.436575741365272,-0.05660530781169321,0.4352871965746179, ,1.1808390617370605
0.015458492993041736,0.020644010075162075,-0.09431931992903417, ,0.01637308567082844,0.020353403646644033,-0.09527562940686599, ,0.001354791378754689, ,0.017773460314529966,0.001422197246493397,-0.04867128508698198,-0.014276976894770867,0.03987648932103823,-0.0020185062677530803, ,0.05183447239606456, ,0.04235201699071826, ,0.00012131754314470099, ,0.1122653677926017,-0.13822147298287027,0.11041927849000001,3.7230449465677298,1.2842464612953748,-0.05571865027637962, ,0.09537381061152843,0.034684554663183764,0.049777536000000004,0.436575741365272,-0.05660530781169321,0.4352871965746179, ,1.1842269897460938
0.015458492993041736,0.020644010075162075,-0.09431931992903417, ,0.01643970245986027,0.020353759549355723,-0.09542322695775077, ,0.0015052003566153854, ,0.017773460314529966,0.001422197246493397,-0.04867128508698198,-0.014276976894770867,0.03987648932103823,-0.0020185062677530803, ,0.05183447239606456, ,0.04235201699071826, ,0.00012320761091465007, ,0.1122653677926017,-0.13822147298287027,0.11041927849000001,3.7230449465677298,1.2842464612953748,-0.05571865027637962, ,0.09537381061152843,0.034684554663183764,0.049777536000000004,0.436575741365272,-0.05660530781169321,0.4352871965746179, ,1.1874499320983887
0.015677788944581626,0.020667297933110142,-0.09491874813478778, ,0.016506151298298584,0.020354115103174857,-0.09557012889929713, ,0.001099347340195336, ,0.01643609718532364,0.0017597459164886663,-0.04468843946832341,-0.010357849428897708,-0.008574168018084584,0.036196715709957035, ,0.047647650713230426, ,0.013439612121965748, ,0.00012466671364900087, ,0.11350872778535184,-0.13780444540766215,0.11103501624,3.727448435380905,1.283699915296313,-0.050944005434144235, ,0.09614685061648508,0.033065136431522923,0.04603702751445087,0.2847615100384385,-0.028389342789701497,0.322725819741209, ,1.1891229152679443
0.015677788944581626,0.020667297933110142,-0.09491874813478778, ,0.016572432274192805,0.020354470343924007,-0.09571633678400507, ,0.0012387071652065521, ,0.01643609718532364,0.0017597459164886663,-0.04468843946832341,-0.010357849428897708,-0.008574168018084584,0.036196715709957035, ,0.047647650713230426, ,0.013439612121965748, ,0.00012632946059162406, ,0.11350872778535184,-0.13780444540766215,0.11103501624,3.727448435380905,1.283699915296313,-0.050944005434144235, ,0.09614685061648508,0.033065136431522923,0.04603702751445087,0.2847615100384385,-0.028389342789701497,0.322725819741209, ,1.1908109188079834
0.015677788944581626,0.020667297933110142,-0.09491874813478778, ,0.016638545476235063,0.020354825307508283,-0.09586185216266098, ,0.0013820772273125414, ,0.01643609718532364,0.0017597459164886663,-0.04468843946832341,-0.010357849428897708,-0.008574168018084584,0.036196715709957035, ,0.047647650713230426, ,0.013439612121965748, ,0.0001282009177700457, ,0.11350872778535184,-0.13780444540766215,0.11103501624,3.727448435380905,1.283699915296313,-0.050944005434144235, ,0.09614685061648508,0.033065136431522923,0.04603702751445087,0.2847615100384385,-0.028389342789701497,0.322725819741209, ,1.1924669742584229
0.015677788944581626,0.020667297933110142,-0.09491874813478778, ,0.01670449099375922,0.020355180029915487,-0.09600667658433917, ,0.0015281109235338272, ,0.01643609718532364,0.0017597459164886663,-0.04468843946832341,-0.010357849428897708,-0.008574168018084584,0.036196715709957035, ,0.047647650713230426, ,0.013439612121965748, ,0.00013028411718338467, ,0.11350872778535184,-0.13780444540766215,0.11103501624,3.727448435380905,1.283699915296313,-0.050944005434144235, ,0.09614685061648508,0.033065136431522923,0.04603702751445087,0.2847615100384385,-0.028389342789701497,0.322725819741209, ,1.194153070449829
0.015677788944581626,0.020667297933110142,-0.09491874813478778, ,0.01677026891674001,0.020355534547215632,-0.09615081159640218, ,0.0016759144583769383, ,0.01643609718532364,0.0017597459164886663,-0.04468843946832341,-0.010357849428897708,-0.008574168018084584,0.036196715709957035, ,0.047647650713230426, ,0.013439612121965748, ,0.00013258074473344937, ,0.11350872778535184,-0.13780444540766215,0.11103501624,3.727448435380905,1.283699915296313,-0.050944005434144235, ,0.09614685061648508,0.033065136431522923,0.04603702751445087,0.2847615100384385,-0.028389342789701497,0.322725819741209, ,1.1958730220794678
0.015677788944581626,0.020667297933110142,-0.09491874813478778, ,0.01683587933579145,0.020355888895560982,-0.09629425874450218, ,0.0018248776343406433, ,0.01643609718532364,0.0017597459164886663,-0.04468843946832341,-0.010357849428897708,-0.008574168018084584,0.036196715709957035, ,0.047647650713230426, ,0.013439612121965748, ,0.00013509157097915737, ,0.11350872778535184,-0.13780444540766215,0.11103501624,3.727448435380905,1.283699915296313,-0.050944005434144235, ,0.09614685061648508,0.033065136431522923,0.04603702751445087,0.2847615100384385,-0.028389342789701497,0.322725819741209, ,1.1976029872894287
0.01583620417105945,0.020673848603979007,-0.0953216735728487, ,0.016901322342166486,0.020356243111185723,-0.09643701957258069, ,0.0015745941275747933, ,0.020551674631548014,3.727570655947393e-05,-0.049033388037534736,-3.9855499349622514e-05,0.029895474992392493,-0.1838761703113677, ,0.05316620977725202, ,0.029890760688601307, ,0.0007530594550205436, ,0.11440456479876189,-0.13746464516119627,0.11144853275000001,3.7310131644201423,1.2832900057970167,-0.047914353298416645, ,0.11177496061068408,0.042612007884360474,0.05040763139240506,0.5650592161267183,-0.04615406823123039,0.3803096521133127, ,1.1992549896240234
0.01583620417105945,0.020673848603979007,-0.0953216735728487, ,0.016966598027755467,0.02035659723040567,-0.09657909562287036, ,0.001720333955129335, ,0.020551674631548014,3.727570655947393e-05,-0.049033388037534736,-3.9855499349622514e-05,0.029895474992392493,-0.1838761703113677, ,0.05316620977725202, ,0.029890760688601307, ,0.0007608600558278726, ,0.11440456479876189,-0.13746464516119627,0.11144853275000001,3.7310131644201423,1.2832900057970167,-0.047914353298416645, ,0.11177496061068408,0.042612007884360474,0.05040763139240506,0.5650592161267183,-0.04615406823123039,0.3803096521133127, ,1.2008929252624512
0.01583620417105945,0.020673848603979007,-0.0953216735728487, ,0.0170317064850853,0.020356951289617998,-0.09672048843589463, ,0.0018671723840525828, ,0.020551674631548014,3.727570655947393e-05,-0.049033388037534736,-3.9855499349622514e-05,0.029895474992392493,-0.1838761703113677, ,0.05316620977725202, ,0.029890760688601307, ,0.0007697105544536703, ,0.11440456479876189,-0.13746464516119627,0.11144853275000001,3.7310131644201423,1.2832900057970167,-0.047914353298416645, ,0.11177496061068408,0.042612007884360474,0.05040763139240506,0.5650592161267183,-0.04615406823123039,0.3803096521133127, ,1.2025160789489746
0.01583620417105945,0.020673848603979007,-0.0953216735728487, ,0.017096647807318274,0.020357305325301434,-0.0968611995504699, ,0.002014710411754464, ,0.020551674631548014,3.727570655947393e-05,-0.049033388037534736,-3.9855499349622514e-05,0.029895474992392493,-0.1838761703113677, ,0.05316620977725202, ,0.029890760688601307, ,0.0007795915057020893, ,0.11440456479876189,-0.13746464516119627,0.11144853275000001,3.7310131644201423,1.2832900057970167,-0.047914353298416645, ,0.11177496061068408,0.042612007884360474,0.05040763139240506,0.5650592161267183,-0.04615406823123039,0.3803096521133127, ,1.2041850090026855
0.01583620417105945,0.020673848603979007,-0.0953216735728487, ,0.017161422088251208,0.020357659374015423,-0.09700123050370503, ,0.0021626580037487604, ,0.020551674631548014,3.727570655947393e-05,-0.049033388037534736,-3.9855499349622514e-05,0.029895474992392493,-0.1838761703113677, ,0.05316620977725202, ,0.029890760688601307, ,0.0007904817930882836, ,0.11440456479876189,-0.13746464516119627,0.11144853275000001,3.7310131644201423,1.2832900057970167,-0.047914353298416645, ,0.11177496061068408,0.042612007884360474,0.05040763139240506,0.5650592161267183,-0.04615406823123039,0.3803096521133127, ,1.2058250904083252
0.01583620417105945,0.020673848603979007,-0.0953216735728487, ,0.017226029422314326,0.020358013472400446,-0.0971405828310027, ,0.0023108000668087404, ,0.020551674631548014,3.727570655947393e-05,-0.049033388037534736,-3.9855499349622514e-05,0.029895474992392493,-0.1838761703113677, ,0.05316620977725202, ,0.029890760688601307, ,0.0008023592796017247, ,0.11440456479876189,-0.13746464516119627,0.11144853275000001,3.7310131644201423,1.2832900057970167,-0.047914353298416645, ,0.11177496061068408,0.042612007884360474,0.05040763139240506,0.5650592161267183,-0.04615406823123039,0.3803096521133127, ,1.2074809074401855
0.0161169377995556,0.020660761327689948,-0.09597219426991148, ,0.017290469904570067,0.020358367657177523,-0.0972792580660599, ,0.0017824239957618354, ,0.02750513729323273,-0.0011107424055574674,-0.06543535821041005,-0.1338740112101231,0.2782205631153375,-0.2732649230719304, ,0.0709898051154936, ,0.30875189545326603, ,0.0008099566805021906, ,0.11577148851749962,-0.13696266752437167,0.11209797404,3.741497661594368,1.2805572758017079,-0.04013184089493005, ,0.12686756892843687,0.04486853028769304,0.0650155572244898,1.0950573844189695,-0.30560416984305283,0.8204911082285798, ,1.2092678546905518
0.0161169377995556,0.020660761327689948,-0.09597219426991148, ,0.017354743630712155,0.020358721965148197,-0.09741725774086907, ,0.0019265511898897965, ,0.02750513729323273,-0.0011107424055574674,-0.06543535821041005,-0.1338740112101231,0.2782205631153375,-0.2732649230719304, ,0.0709898051154936, ,0.30875189545326603, ,0.0008185458690359415, ,0.11577148851749962,-0.13696266752437167,0.11209797404,3.741497661594368,1.2805572758017079,-0.04013184089493005, ,0.12686756892843687,0.04486853028769304,0.0650155572244898,1.0950573844189695,-0.30560416984305283,0.8204911082285798, ,1.2112739086151123
0.0161169377995556,0.020660761327689948,-0.09597219426991148, ,0.017418850697064704,0.020359076433193964,-0.09755458338571805, ,0.0020712185500547067, ,0.02750513729323273,-0.0011107424055574674,-0.06543535821041005,-0.1338740112101231,0.2782205631153375,-0.2732649230719304, ,0.0709898051154936, ,0.30875189545326603, ,0.0008281082559139474, ,0.11577148851749962,-0.13696266752437167,0.11209797404,3.741497661594368,1.2805572758017079,-0.04013184089493005, ,0.12686756892843687,0.04486853028769304,0.0650155572244898,1.0950573844189695,-0.30560416984305283,0.8204911082285798, ,1.2146210670471191
0.0161169377995556,0.020660761327689948,-0.09597219426991148, ,0.01748279120058091,0.02035943109827648,-0.097691236529192, ,0.0022161817861906198, ,0.02750513729323273,-0.0011107424055574674,-0.06543535821041005,-0.1338740112101231,0.2782205631153375,-0.2732649230719304, ,0.0709898051154936, ,0.30875189545326603, ,0.0008386239644766495, ,0.11577148851749962,-0.13696266752437167,0.11209797404,3.741497661594368,1.2805572758017079,-0.04013184089493005, ,0.12686756892843687,0.04486853028769304,0.0650155572244898,1.0950573844189695,-0.30560416984305283,0.8204911082285798, ,1.2163870334625244
0.0161169377995556,0.020660761327689948,-0.09597219426991148, ,0.017546565238842182,0.020359785997437093,-0.09782721869817303, ,0.0023612573756431146, ,0.02750513729323273,-0.0011107424055574674,-0.06543535821041005,-0.1338740112101231,0.2782205631153375,-0.2732649230719304, ,0.0709898051154936, ,0.30875189545326603, ,0.0008500723359891793, ,0.11626574342144999,-0.13679276740113874,0.11235593575000001,3.7456914604640583,1.2793275473038188,-0.036842075037726296, ,0.13309528970332507,0.043490807313689636,0.06955812890829695,1.105866963750144,-0.3102918701012257,0.8594316615388314, ,1.2185039520263672
0.016224149875228917,0.020657757533919602,-0.09623195464376776, ,0.01761017291005696,0.020360141167796726,-0.09796253141784157, ,0.0022370809832059865, ,0.028735764507954197,-0.00046985778280814183,-0.06980250539640949,-0.13102806787166232,0.2814200568588243,-0.24514514990814035, ,0.07548744722010702, ,0.3104254271937542, ,0.0008604231467893048, ,0.11626574342144999,-0.13679276740113874,0.11235593575000001,3.7456914604640583,1.2793275473038188,-0.036842075037726296, ,0.13309528970332507,0.043490807313689636,0.06955812890829695,1.105866963750144,-0.3102918701012257,0.8594316615388314, ,1.220210075378418
0.016224149875228917,0.020657757533919602,-0.09623195464376776, ,0.01767361431305989,0.020360496646555617,-0.09809717621167703, ,0.002380832352159013, ,0.028735764507954197,-0.00046985778280814183,-0.06980250539640949,-0.13102806787166232,0.2814200568588243,-0.24514514990814035, ,0.07548744722010702, ,0.3104254271937542, ,0.0008716854371994508, ,0.11626574342144999,-0.13679276740113874,0.11235593575000001,3.7456914604640583,1.2793275473038188,-0.036842075037726296, ,0.13309528970332507,0.043490807313689636,0.06955812890829695,1.105866963750144,-0.3102918701012257,0.8594316615388314, ,1.2219178676605225
0.016224149875228917,0.020657757533919602,-0.09623195464376776, ,0.01773688954731041,0.02036085247099312,-0.09823115460145827, ,0.0025245463756307525, ,0.028735764507954197,-0.00046985778280814183,-0.06980250539640949,-0.13102806787166232,0.2814200568588243,-0.24514514990814035, ,0.07548744722010702, ,0.3104254271937542, ,0.0008838388264526221, ,0.11626574342144999,-0.13679276740113874,0.11235593575000001,3.7456914604640583,1.2793275473038188,-0.036842075037726296, ,0.13309528970332507,0.043490807313689636,0.06955812890829695,1.105866963750144,-0.3102918701012257,0.8594316615388314, ,1.2236130237579346
0.016224149875228917,0.020657757533919602,-0.09623195464376776, ,0.01779999871289217,0.02036120867846754,-0.09836446810726496, ,0.00266811814858926, ,0.028735764507954197,-0.00046985778280814183,-0.06980250539640949,-0.13102806787166232,0.2814200568588243,-0.24514514990814035, ,0.07548744722010702, ,0.3104254271937542, ,0.0008968627631105537, ,0.11626574342144999,-0.13679276740113874,0.11235593575000001,3.7456914604640583,1.2793275473038188,-0.036842075037726296, ,0.13309528970332507,0.043490807313689636,0.06955812890829695,1.105866963750144,-0.3102918701012257,0.8594316615388314, ,1.2252368927001953
0.016224149875228917,0.020657757533919602,-0.09623195464376776, ,0.017862941910511708,0.020361565306415787,-0.09849711824747748, ,0.0028114649779272007, ,0.028735764507954197,-0.00046985778280814183,-0.06980250539640949,-0.13102806787166232,0.2814200568588243,-0.24514514990814035, ,0.07548744722010702, ,0.3104254271937542, ,0.000910736692203428, ,0.11626574342144999,-0.13679276740113874,0.11235593575000001,3.7456914604640583,1.2793275473038188,-0.036842075037726296, ,0.13309528970332507,0.043490807313689636,0.06955812890829695,1.105866963750144,-0.3102918701012257,0.8594316615388314, ,1.2268638610839844
0.01664079756438969,0.020693639560062056,-0.09734025487792047, ,0.017925719241497284,0.020361922392353335,-0.09862910653877845, ,0.0018499185385713723, ,0.026531972199305042,0.004244337853447487,-0.07629830273358311,0.007333640794755677,-0.002506665115152431,0.2824609984939545, ,0.08089122914521943, ,0.007581555225125619, ,0.0009174933961341326, ,0.1184126631604844,-0.13614405783970387,0.11348889321000001,3.7563856475817694,1.2774146363071028,-0.025480775569108993, ,0.14758466805360929,0.045081682450579946,0.07885550257425744,0.3976342632002832,-0.03475985227962925,0.6842081824445013, ,1.2286450862884521
0.01664079756438969,0.020693639560062056,-0.09734025487792047, ,0.017988330807798197,0.020362279973873892,-0.09876043449615247, ,0.0019855868566978963, ,0.026531972199305042,0.004244337853447487,-0.07629830273358311,0.007333640794755677,-0.002506665115152431,0.2824609984939545, ,0.08089122914521943, ,0.007581555225125619, ,0.0009251226351381594, ,0.1184126631604844,-0.13614405783970387,0.11348889321000001,3.7563856475817694,1.2774146363071028,-0.025480775569108993, ,0.14758466805360929,0.045081682450579946,0.07885550257425744,0.3976342632002832,-0.03475985227962925,0.6842081824445013, ,1.2305960655212402
0.01664079756438969,0.020693639560062056,-0.09734025487792047, ,0.018050776711983314,0.020362638088649274,-0.09889110363288875, ,0.0021219648987466587, ,0.026531972199305042,0.004244337853447487,-0.07629830273358311,0.007333640794755677,-0.002506665115152431,0.2824609984939545, ,0.08089122914521943, ,0.007581555225125619, ,0.000933610878142475, ,0.1184126631604844,-0.13614405783970387,0.11348889321000001,3.7563856475817694,1.2774146363071028,-0.025480775569108993, ,0.14758466805360929,0.045081682450579946,0.07885550257425744,0.3976342632002832,-0.03475985227962925,0.6842081824445013, ,1.2322208881378174
0.01664079756438969,0.020693639560062056,-0.09734025487792047, ,0.018113057057240475,0.020362996774429154,-0.09902111546057935, ,0.002258797238425055, ,0.026531972199305042,0.004244337853447487,-0.07629830273358311,0.007333640794755677,-0.002506665115152431,0.2824609984939545, ,0.08089122914521943, ,0.007581555225125619, ,0.0009429431764543243, ,0.1184126631604844,-0.13614405783970387,0.11348889321000001,3.7563856475817694,1.2774146363071028,-0.025480775569108993, ,0.14758466805360929,0.045081682450579946,0.07885550257425744,0.3976342632002832,-0.03475985227962925,0.6842081824445013, ,1.2339580059051514
0.01664079756438969,0.020693639560062056,-0.09734025487792047, ,0.018175171947375147,0.020363356069040734,-0.09915047148912201, ,0.002395887332716881, ,0.026531972199305042,0.004244337853447487,-0.07629830273358311,0.007333640794755677,-0.002506665115152431,0.2824609984939545, ,0.08089122914521943, ,0.007581555225125619, ,0.000953103625099517, ,0.1184126631604844,-0.13614405783970387,0.11348889321000001,3.7563856475817694,1.2774146363071028,-0.025480775569108993, ,0.14758466805360929,0.045081682450579946,0.07885550257425744,0.3976342632002832,-0.03475985227962925,0.6842081824445013, ,1.235625982284546
0.01664079756438969,0.020693639560062056,-0.09734025487792047, ,0.01823712148680938,0.020363716010388735,-0.09927917322671966, ,0.0025330819128540974, ,0.026531972199305042,0.004244337853447487,-0.07629830273358311,0.007333640794755677,-0.002506665115152431,0.2824609984939545, ,0.08089122914521943, ,0.007581555225125619, ,0.0009640756965422571, ,0.1184126631604844,-0.13614405783970387,0.11348889321000001,3.7563856475817694,1.2774146363071028,-0.025480775569108993, ,0.14758466805360929,0.045081682450579946,0.07885550257425744,0.3976342632002832,-0.03475985227962925,0.6842081824445013, ,1.2372620105743408
0.01695141006360619,0.02072110038353811,-0.09818452910113872, ,0.018298905780580854,0.02036407663645512,-0.09940722217988184, ,0.0018542354295106578, ,0.033202116693086155,0.0016878339307029692,-0.087457334286905,0.08648810823127225,0.05484351670569808,-0.19585607653606746, ,0.09356289145195541, ,0.10238597361678387, ,0.0009702147291834186, ,0.12000354613257466,-0.13558802107275972,0.11436259267000001,3.763515105660243,1.2772779998073371,-0.01801827105276177, ,0.15816156926411795,0.05758309560586819,0.09050461090909093,0.9560927738544844,-0.009296251331778721,0.7567427773967763, ,1.2389419078826904
0.01695141006360619,0.02072110038353811,-0.09818452910113872, ,0.018360524934341944,0.020364437985298724,-0.09953461985342517, ,0.0019838240407495603, ,0.033202116693086155,0.0016878339307029692,-0.087457334286905,0.08648810823127225,0.05484351670569808,-0.19585607653606746, ,0.09356289145195541, ,0.10238597361678387, ,0.0009771572587146935, ,0.12000354613257466,-0.13558802107275972,0.11436259267000001,3.763515105660243,1.2772779998073371,-0.01801827105276177, ,0.15816156926411795,0.05758309560586819,0.09050461090909093,0.9560927738544844,-0.009296251331778721,0.7567427773967763, ,1.240591049194336
0.01695141006360619,0.02072110038353811,-0.09818452910113872, ,0.018421979054358342,0.020364800095055344,-0.09966136775047377, ,0.0021143735356612104, ,0.033202116693086155,0.0016878339307029692,-0.087457334286905,0.08648810823127225,0.05484351670569808,-0.19585607653606746, ,0.09356289145195541, ,0.10238597361678387, ,0.0009848934238639896, ,0.12000354613257466,-0.13558802107275972,0.11436259267000001,3.763515105660243,1.2772779998073371,-0.01801827105276177, ,0.15816156926411795,0.05758309560586819,0.09050461090909093,0.9560927738544844,-0.009296251331778721,0.7567427773967763, ,1.2422258853912354
0.01695141006360619,0.02072110038353811,-0.09818452910113872, ,0.018483268247508323,0.02036516300393731,-0.09978746737246082, ,0.0022455939115196485, ,0.033202116693086155,0.0016878339307029692,-0.087457334286905,0.08648810823127225,0.05484351670569808,-0.19585607653606746, ,0.09356289145195541, ,0.10238597361678387, ,0.0009934116704022034, ,0.12000354613257466,-0.13558802107275972,0.11436259267000001,3.763515105660243,1.2772779998073371,-0.01801827105276177, ,0.15816156926411795,0.05758309560586819,0.09050461090909093,0.9560927738544844,-0.009296251331778721,0.7567427773967763, ,1.2438440322875977
0.01695141006360619,0.02072110038353811,-0.09818452910113872, ,0.018544392621281616,0.020365526750233214,-0.09991292021912832, ,0.002377259324201953, ,0.033202116693086155,0.0016878339307029692,-0.087457334286905,0.08648810823127225,0.05484351670569808,-0.19585607653606746, ,0.09356289145195541, ,0.10238597361678387, ,0.0010026992385485107, ,0.12000354613257466,-0.13558802107275972,0.11436259267000001,3.763515105660243,1.2772779998073371,-0.01801827105276177, ,0.15816156926411795,0.05758309560586819,0.09050461090909093,0.9560927738544844,-0.009296251331778721,0.7567427773967763, ,1.245516061782837
0.01695141006360619,0.02072110038353811,-0.09818452910113872, ,0.01860535228377823,0.020365891372307866,-0.10003772778852878, ,0.0025091918388738294, ,0.033202116693086155,0.0016878339307029692,-0.087457334286905,0.08648810823127225,0.05484351670569808,-0.19585607653606746, ,0.09356289145195541, ,0.10238597361678387, ,0.0010127425225506794, ,0.12000354613257466,-0.13558802107275972,0.11436259267000001,3.763515105660243,1.2772779998073371,-0.01801827105276177, ,0.15816156926411795,0.05758309560586819,0.09050461090909093,0.9560927738544844,-0.009296251331778721,0.7567427773967763, ,1.2471768856048584
0.01727164798117164,0.020737184081916674,-0.09902327871083001, ,0.018666147343707588,0.02036625690860222,-0.10016189157702533, ,0.0018381117210555331, ,0.035435539353735196,0.001865701980947737,-0.0908689932885855,0.060276486547948156,0.11398167594818526,-0.18161667124223704, ,0.09755169006456435, ,0.12891424184636938, ,0.0010182085437328307, ,0.12148631084442577,-0.1350860434359351,0.11522721810000001,3.773370533004016,1.2767314538082757,-0.01030319156546633, ,0.1667784561660295,0.0519414020571816,0.09369889129411767,1.0727185784920212,-0.07694359429110256,0.887113588713689, ,1.248960018157959
0.01727164798117164,0.020737184081916674,-0.09902327871083001, ,0.018726777910387373,0.020366623397632684,-0.10028541307929265, ,0.0019615558864562004, ,0.035435539353735196,0.001865701980947737,-0.0908689932885855,0.060276486547948156,0.11398167594818526,-0.18161667124223704, ,0.09755169006456435, ,0.12891424184636938, ,0.0010244147762507475, ,0.12148631084442577,-0.1350860434359351,0.11522721810000001,3.773370533004016,1.2767314538082757,-0.01030319156546633, ,0.1667784561660295,0.0519414020571816,0.09369889129411767,1.0727185784920212,-0.07694359429110256,0.887113588713689, ,1.2508299350738525
0.01727164798117164,0.020737184081916674,-0.09902327871083001, ,0.018787244093742377,0.020366990877991393,-0.10040829378831728, ,0.0020862265815435907, ,0.035435539353735196,0.001865701980947737,-0.0908689932885855,0.060276486547948156,0.11398167594818526,-0.18161667124223704, ,0.09755169006456435, ,0.12891424184636938, ,0.00103135472269057, ,0.12148631084442577,-0.1350860434359351,0.11522721810000001,3.773370533004016,1.2767314538082757,-0.01030319156546633, ,0.1667784561660295,0.0519414020571816,0.09369889129411767,1.0727185784920212,-0.07694359429110256,0.887113588713689, ,1.252676010131836
0.01727164798117164,0.020737184081916674,-0.09902327871083001, ,0.018847546004303814,0.020367359388345756,-0.10053053519539992, ,0.002211797231566392, ,0.035435539353735196,0.001865701980947737,-0.0908689932885855,0.060276486547948156,0.11398167594818526,-0.18161667124223704, ,0.09755169006456435, ,0.12891424184636938, ,0.0010390199337871663, ,0.12148631084442577,-0.1350860434359351,0.11522721810000001,3.773370533004016,1.2767314538082757,-0.01030319156546633, ,0.1667784561660295,0.0519414020571816,0.09369889129411767,1.0727185784920212,-0.07694359429110256,0.887113588713689, ,1.2544739246368408
0.01727164798117164,0.020737184081916674,-0.09902327871083001, ,0.01890768375320797,0.020367728967438277,-0.10065213879015358, ,0.0023380109681117285, ,0.035435539353735196,0.001865701980947737,-0.0908689932885855,0.060276486547948156,0.11398167594818526,-0.18161667124223704, ,0.09755169006456435, ,0.12891424184636938, ,0.0010474005211053893, ,0.12148631084442577,-0.1350860434359351,0.11522721810000001,3.773370533004016,1.2767314538082757,-0.01030319156546633, ,0.1667784561660295,0.0519414020571816,0.09369889129411767,1.0727185784920212,-0.07694359429110256,0.887113588713689, ,1.2561728954315186
0.01727164798117164,0.020737184081916674,-0.09902327871083001, ,0.01896765745219502,0.020368099654086407,-0.10077310606050692, ,0.00246466370816489, ,0.035435539353735196,0.001865701980947737,-0.0908689932885855,0.060276486547948156,0.11398167594818526,-0.18161667124223704, ,0.09755169006456435, ,0.12891424184636938, ,0.0010564855415352578, ,0.12148631084442577,-0.1350860434359351,0.11522721810000001,3.773370533004016,1.2767314538082757,-0.01030319156546633, ,0.1667784561660295,0.0519414020571816,0.09369889129411767,1.0727185784920212,-0.07694359429110256,0.887113588713689, ,1.2578279972076416
0.01764560256505019,0.02076163951781735,-0.09996248627955324, ,0.019027467213608467,0.02036847148718226,-0.10089343849270312, ,0.001711958828481926, ,0.034027414872249986,0.0025115855208274855,-0.0839589727837066,0.01742331940179467,0.027111253066835338,0.033932291978793896, ,0.09062716003280603, ,0.03216240329287, ,0.0010606605306240902, ,0.12338610313148499,-0.13452228393611673,0.11619813931000002,3.7828065804608197,1.275911634809683,-0.0015484888693719778, ,0.18355307844965332,0.05376597255437438,0.08704268590163934,0.7070993483912831,-0.06711425334849996,0.7421240443668768, ,1.2595288753509521
0.01764560256505019,0.02076163951781735,-0.09996248627955324, ,0.019087113150393673,0.020368844505692412,-0.10101313757130163, ,0.0018265018001798127, ,0.034027414872249986,0.0025115855208274855,-0.0839589727837066,0.01742331940179467,0.027111253066835338,0.033932291978793896, ,0.09062716003280603, ,0.03216240329287, ,0.0010655076272668479, ,0.12338610313148499,-0.13452228393611673,0.11619813931000002,3.7828065804608197,1.275911634809683,-0.0015484888693719778, ,0.18355307844965332,0.05376597255437438,0.08704268590163934,0.7070993483912831,-0.06711425334849996,0.7421240443668768, ,1.2611839771270752
0.01764560256505019,0.02076163951781735,-0.09996248627955324, ,0.019146595376096955,0.02036921874865782,-0.10113220477917854, ,0.0019429912113150395, ,0.034027414872249986,0.0025115855208274855,-0.0839589727837066,0.01742331940179467,0.027111253066835338,0.033932291978793896, ,0.09062716003280603, ,0.03216240329287, ,0.0010710263919463962, ,0.12338610313148499,-0.13452228393611673,0.11619813931000002,3.7828065804608197,1.275911634809683,-0.0015484888693719778, ,0.18355307844965332,0.05376597255437438,0.08704268590163934,0.7070993483912831,-0.06711425334849996,0.7421240443668768, ,1.262829065322876
0.01764560256505019,0.02076163951781735,-0.09996248627955324, ,0.01920591400486457,0.020369594255193434,-0.10125064159752747, ,0.0020609743813028753, ,0.034027414872249986,0.0025115855208274855,-0.0839589727837066,0.01742331940179467,0.027111253066835338,0.033932291978793896, ,0.09062716003280603, ,0.03216240329287, ,0.0010772135668798742, ,0.12338610313148499,-0.13452228393611673,0.11619813931000002,3.7828065804608197,1.275911634809683,-0.0015484888693719778, ,0.18355307844965332,0.05376597255437438,0.08704268590163934,0.7070993483912831,-0.06711425334849996,0.7421240443668768, ,1.2645180225372314
0.01764560256505019,0.02076163951781735,-0.09996248627955324, ,0.01926506915144162,0.02036997106448805,-0.10136844950586017, ,0.0021800937584193613, ,0.034027414872249986,0.0025115855208274855,-0.0839589727837066,0.01742331940179467,0.027111253066835338,0.033932291978793896, ,0.09062716003280603, ,0.03216240329287, ,0.0010840637544049642, ,0.12338610313148499,-0.13452228393611673,0.11619813931000002,3.7828065804608197,1.275911634809683,-0.0015484888693719778, ,0.18355307844965332,0.05376597255437438,0.08704268590163934,0.7070993483912831,-0.06711425334849996,0.7421240443668768, ,1.2662558555603027
0.01764560256505019,0.02076163951781735,-0.09996248627955324, ,0.019324060931171075,0.020370349215804245,-0.10148562998200739, ,0.002300064635086676, ,0.034027414872249986,0.0025115855208274855,-0.0839589727837066,0.01742331940179467,0.027111253066835338,0.033932291978793896, ,0.09062716003280603, ,0.03216240329287, ,0.0010915699326807771, ,0.12338610313148499,-0.13452228393611673,0.11619813931000002,3.7828065804608197,1.275911634809683,-0.0015484888693719778, ,0.18355307844965332,0.05376597255437438,0.08704268590163934,0.7070993483912831,-0.06711425334849996,0.7421240443668768, ,1.2679400444030762
0.017989475035237658,0.02078251859836284,-0.10077903125338583, ,0.019382889459992503,0.020370728748477812,-0.1016021845021191, ,0.001669956858868915, ,0.03395598736202223,0.0015574132503560177,-0.07648671841248605,0.02213730229249072,-0.048348130936237105,0.09193400169023476, ,0.08369977722355736, ,0.053150580014910714, ,0.0010951183187310112, ,0.125347677281538,-0.133912188039053,0.11704850555000001,3.788677898878386,1.2755017253103864,0.005483421533243327, ,0.19936332260182937,0.0614219686462594,0.08004427899497489,0.5440603939057929,-0.02164646374010342,0.6392189163831291, ,1.2696080207824707
