NicholasDascanio/dvrk_moveit_final/test/execution/third_experiment_notsharpbends/thirdexp_700vel5.0/thirdexp_700vel5.0_21.csv
Current Position (x),Current Position (y),Current Position (z), ,Planned Position (x),Planned Position (y),Planned Position (z), ,Position Error,,Cartesian linear Velocity(x),Cartesian linear Velocity(y),Cartesian linear Velocity(z),Cartesian Angular Velocity(x),Cartesian Angular Velocity(y),Cartesian Angular Velocity(z), ,Total Linear Velocity, ,Total Angular Velocity, ,MSE, ,Joint 1 Position,Joint 2 Position,Joint 3 Position,Joint 4 Position,Joint 5 Position,Joint 6 Position, ,Joint 1 Velocity,Joint 2 Velocity,Joint 3 Velocity,Joint 4 Velocity,Joint 5 Velocity,Joint 6 Velocity, ,Time Stamp
0.007800304048265585,0.021411851863284204,-0.07668766293427381, ,0.00790361909761636,0.02127249690561989,-0.07657727250371721, ,0.00020562064781156727, ,3.184165242034498e-05,-7.496907068245353e-06,1.1455807014891004e-06,0.004272381666958127,0.0144726389643502,0.14253590058988944, ,3.273235096340611e-05, ,0.015090080307956864, ,1.7135053984297272e-05, ,0.06388244633558514,-0.1678767672198924,0.09256029116,3.478756162408259,1.2852029167937329,-0.2848723330352668, ,0.00033003034275557466,6.848453567163735e-05,0.0,0.0007800996807260535,0.0,0.1441208899092421, ,0.017586946487426758
0.007833488651739785,0.021398313793264113,-0.0766926791188979, ,0.007980672640679509,0.02125424616588145,-0.07673504776385022, ,0.00021027056364354544, ,0.0012544312947445064,-0.0002031951375701503,0.0006723868485254011,0.2284360558394986,0.09124516546818155,1.2261593976503495, ,0.001437703102603751, ,0.24598518619791415, ,1.8904145975232394e-05, ,0.06392105999995627,-0.16780726262402437,0.09256936519,3.4823208914474955,1.2857494627927948,-0.2691456141022213, ,0.0017940438730661282,0.0027257027684064565,0.001052686346321184,0.12045919423159092,0.1931199432056634,1.3515355037489885, ,0.03670191764831543
0.007846087353373294,0.02140382105837195,-0.07669077112594257, ,0.008057643731273921,0.0212360208024763,-0.07689240732841343, ,0.0003370017582386634, ,0.0012734780086125323,0.0010938403682442788,-0.0011475831105494058,0.5995270804891437,-0.10664108191261855,0.9893263115749157, ,0.002033514195976701, ,0.6089376327599798, ,2.35279053029305e-05, ,0.06396739639720161,-0.16776092622677902,0.09260955018000001,3.4829499612779493,1.2903951037848196,-0.2561080023589436, ,0.006706367515624662,0.006494398110054933,0.006687158488664989,0.020277699587971734,0.6094335060318447,1.0121490041884993, ,0.052748918533325195
0.007898987745481324,0.021422627298856488,-0.07672299191763558, ,0.00813453182885871,0.021217821211973832,-0.07704935167946708, ,0.0004515941126509417, ,0.0031799917206081223,0.0010021127713813543,-0.004755103535819206,0.5727463602629947,-0.18094459704949906,-0.20765537851459603, ,0.0058075456938419465, ,0.600649099219738, ,2.867826386535042e-05, ,0.06411412832181188,-0.1676296397679172,0.09277158643000001,3.4863050003737017,1.3046052997604254,-0.24637731316668482, ,0.01026270947850089,0.00794032619514839,0.01030991036893204,0.19237548945902494,0.6035188027022762,-0.02037135135216306, ,0.07071495056152344
0.007950113658637896,0.02143186121832759,-0.07691288628949636, ,0.008211336395277742,0.021199647789647617,-0.07720588129919005, ,0.0004560772635226702, ,0.001857150822619026,4.537248902538541e-06,-0.01138567033308684,-0.40134592571565836,0.0668216655326931,-0.7989272914161725, ,0.011536139679213143, ,0.4068706021351106, ,3.1933929728219e-05, ,0.06436125577378707,-0.16742884871318736,0.09296084477000001,3.4886115897520313,1.3048785727599563,-0.25525809542897715, ,0.012928738631944247,0.01045694117672117,0.0076913623949782725,0.05332580956602415,-0.3825448414485606,-0.7198099944009524, ,0.08848810195922852
0.008006320133353324,0.021416758108420822,-0.07713521779164345, ,0.008288056894756585,0.02118150092947647,-0.07736199666987988, ,0.00043145127486776994, ,0.003822730970532236,-0.0009521075907448456,-0.01254875736271149,-0.41360910880845925,0.1801031856106421,-0.023768691653231144, ,0.01315260781311547, ,0.45112044073091506, ,3.374218743121222e-05, ,0.06467788782163027,-0.1671585530625895,0.09309695522000001,3.4917569389042993,1.2950407447768446,-0.2586710299825134, ,0.021253514346801967,0.017704653275834103,0.008490837697228146,0.2105010560274883,-0.44079530299756686,0.18703810908395505, ,0.11001706123352051
0.008095393771708542,0.02140470038217553,-0.07736085597403945, ,0.008364692793899594,0.021163381024146017,-0.07751769827395198, ,0.00039415289286606097, ,0.002604587352055359,-0.000880130495013504,-0.005557607598061653,0.05941099270772985,-0.02692172283761659,0.22778578217719997, ,0.006200444111253006, ,0.06522610834444578, ,3.453011824446137e-05, ,0.0653188746501909,-0.166625684494268,0.09332380597,3.4946925981130827,1.2954506542761408,-0.2541045592851689, ,0.02582229702271314,0.02438256463475611,0.006068118674285715,0.01956602635972053,0.08001712175932944,0.2494732966253187, ,0.13559389114379883
0.008163680295533538,0.021375184546328214,-0.07745328562506475, ,0.008441243561686832,0.021145288465049865,-0.0776729865939411, ,0.0004220925143022978, ,0.004488924036342442,-0.0019099662221399843,-0.0045368890638809636,0.0400754836728449,-0.013027236158692085,-0.22621730012218813, ,0.006661964601506923, ,0.04213968760710771, ,3.54665979012624e-05, ,0.06583629775276395,-0.1661159841245692,0.09342362030000001,3.497208877434897,1.2968170192737953,-0.2505630501341213, ,0.02974825754184037,0.02678434703880067,0.004800726799276674,0.22131909161672514,0.05604875545475551,-0.006924239079723074, ,0.1522378921508789
0.008242880104152972,0.021346889001455614,-0.07758183026365473, ,0.008517708669471222,0.02112722364229058,-0.07782786211249985, ,0.0004293195557835014, ,0.0038794884937789305,-0.0010984403767580605,-0.008665612870558009,-0.03403313934383513,-0.003451905242817641,-0.023668103794723463, ,0.009557711475925402, ,0.034207750211574246, ,3.627804982268498e-05, ,0.06643094818407923,-0.16559856102199616,0.09354936043,3.5001445366436807,1.2969536557735608,-0.2501027168568337, ,0.03209230353685181,0.027707136221451323,0.008330968368200839,0.09844595121468003,-0.01600223257512868,0.07547255418682686, ,0.17215895652770996
0.008289393663907383,0.02133426502062172,-0.07768231321289377, ,0.008594087590975482,0.021109186944681203,-0.07798232531239964, ,0.00048322436746420634, ,0.004833642571974169,-0.0012109496523458646,-0.00971414930829125,-0.016376203883304456,0.006322769347773019,-0.15202391207425348, ,0.010917655259161328, ,0.017554411962556523, ,3.745887207011004e-05, ,0.06708738047838832,-0.165042524255052,0.09372435958000001,3.5026608159654944,1.2966803827740299,-0.24922645112831637, ,0.032354906770702616,0.02762647498063196,0.009521106706515244,0.20088699099903334,-0.0037132154816092535,0.047778492596300716, ,0.18921589851379395
0.008378361439030304,0.021311424428161328,-0.07787581251473898, ,0.008670379802289166,0.021091178759746393,-0.07813637667653028, ,0.00044908413615483343, ,0.004736656759615444,-0.0011108282310754608,-0.010779330769003764,-0.06516975871413495,0.025168586078958718,-0.08561686858677416, ,0.011826403867827117, ,0.06986096929287738, ,3.8124009708089804e-05, ,0.06743490345772842,-0.16474133767295723,0.09383065536000001,3.50475771540034,1.296133836774968,-0.24812734959240612, ,0.032813603581767214,0.027723325024385268,0.010126390031786397,0.18080574221273035,-0.05585645031159018,0.09492117325851715, ,0.205657958984375
0.008487818009083286,0.021293876241692877,-0.07812235212831488, ,0.008746584781865881,0.02107319947372369,-0.07829001668789974, ,0.000379169992428768, ,0.0045644329464706885,-0.0006637630975861873,-0.009951195708719529,-0.01928512600080965,0.0008740185499596029,0.0023802217025328297, ,0.010968177861695272, ,0.019304918951119424, ,3.842197586557708e-05, ,0.06824579040952199,-0.1641544099745162,0.09407306159,3.5083224444395773,1.295860563775437,-0.24553583032093707, ,0.03589143024147911,0.02368279050623179,0.009832599703703704,0.13025008194336998,-0.008923095847483204,0.13287253357315826, ,0.22736310958862305
0.00852479544760482,0.021285843680361287,-0.0781996160473464, ,0.008822702010520026,0.02105524947156478,-0.07844324582963444, ,0.00044863958828457716, ,0.003911565726905513,-0.0010866138982033916,-0.007198653536157031,-0.013918953799715906,-0.007312757175793037,-0.0065321753653199794, ,0.008264483585397017, ,0.015723030021584504, ,3.921306667707233e-05, ,0.0688790545052084,-0.16369876873493694,0.09421565349000001,3.5102096539309375,1.2957239272756718,-0.24370915887428896, ,0.03267801017853677,0.024445373920265526,0.007082619617607827,0.10224742760864518,0.0007395809223379242,0.09624772142481072, ,0.2425990104675293
0.008612211376457523,0.021260949707799626,-0.07835005282324549, ,0.008898730971424067,0.021037329136936903,-0.07859606458497878, ,0.0004388865740984567, ,0.004840564835351509,-0.0013563815341767148,-0.008001099660141214,-0.004967893882121471,0.018097394862108963,-0.12633348589662532, ,0.009449255767678692, ,0.018766876075377612, ,3.9831548504445035e-05, ,0.06921113201880005,-0.16342847308433908,0.09429731976000001,3.5123065533657827,1.295860563775437,-0.24267707441601732, ,0.029983235879453642,0.024183726187174,0.007881648451261752,0.2344895878378928,0.0,0.10665998495538863, ,0.2582850456237793
0.008690561341423552,0.021245369606956395,-0.0784994967389295, ,0.008974671150105503,0.02101943885222379,-0.0787484734372952, ,0.0004401732450438377, ,0.004367588785507834,-0.0005783659824875344,-0.009922730877049545,-0.044049231314944176,0.01849855050185148,-0.004016724433164519, ,0.010856837802387258, ,0.04777584173943164, ,4.038350329163309e-05, ,0.06975172331999577,-0.1630655046392505,0.09444120795000001,3.5154519025180506,1.2953140177763756,-0.24051614925827997, ,0.03213577431712522,0.02083815141819736,0.009555375836832634,0.14297330654589874,-0.03996000560576413,0.13907260030486163, ,0.27513790130615234
0.008739701329076218,0.021237687082865754,-0.07861266120393946, ,0.00905052203444391,0.02100157899852716,-0.0789004728700643, ,0.0004849660746205481, ,0.0032316612555820076,-0.0005632958569769036,-0.007420450105184804,-0.000559724051285437,-0.025507364521624713,0.01659022512239853, ,0.008113200136620223, ,0.02551350452905768, ,4.1157481285237235e-05, ,0.07014558269658122,-0.16279520898865266,0.0945513926,3.516710042178958,1.2950407447768446,-0.23914981108891903, ,0.030212334147873537,0.021253514346801967,0.007513590339622642,0.03680206854068969,0.017651987066855446,0.054466611460811186, ,0.29010796546936035
0.00883759994260016,0.02121362839367595,-0.07878248186534002, ,0.009126283114668069,0.02098374995566817,-0.07905206336688388, ,0.00045700793873928124, ,0.005609158725533022,-0.0011637769388953248,-0.009998728114363134,-0.025110390504779596,0.04190834949255523,-0.1208768886555958, ,0.011523523865410421, ,0.04885531054610397, ,4.167911144892486e-05, ,0.07077884679226763,-0.16233184501619918,0.09471731772000001,3.5211135309921326,1.2947674717773137,-0.23688500677801216, ,0.03215755389985455,0.02238663400766001,0.009700859634591961,0.2912604803040178,-0.03037753932134519,0.16842928587540157, ,0.3053700923919678
0.008891562602378035,0.021206109370452975,-0.07889898635611346, ,0.00920195388335288,0.020965952102188275,-0.07920324541146916, ,0.0004965801381162024, ,0.004265743612790102,-0.00038747280872082884,-0.011119891639374912,-0.05280289993851204,0.02078608160701819,0.0795524360911511, ,0.011916320481549565, ,0.056746870049977666, ,4.237321507792989e-05, ,0.07114181523735619,-0.16209244029709824,0.09483139124000001,3.523210430426978,1.294494198777783,-0.23502859616780813, ,0.03290462606049611,0.021621540569257414,0.010690477530201345,0.11061703286013468,-0.04829452922916501,0.1912203691044999, ,0.3228449821472168
0.008996280866782688,0.021196757208943706,-0.07916619098779996, ,0.009277533835416619,0.02094818581535087,-0.07935401948765317, ,0.0004197267151792784, ,0.003251079075021038,-5.029555430499568e-05,-0.010454607726767247,-0.010346904350828606,-0.02977604856808252,0.055264047505078566, ,0.010948555499032916, ,0.031522553403568514, ,4.25817356185707e-05, ,0.0719372567234013,-0.1615441262630283,0.09509842698000001,3.5259363996922772,1.294494198777783,-0.23274159144387235, ,0.03289322064418398,0.023477719336583564,0.010250200463320465,0.3136676112479992,-0.011604531748731758,0.05608837001793912, ,0.33779406547546387
0.009052672381076122,0.021182833934511862,-0.07926805277077031, ,0.009353022468117752,0.02093045147114233,-0.07950438607938566, ,0.0004579961957958442, ,0.005077010741652109,-0.0012484817814554872,-0.010044992447821333,-0.018545129998543707,0.026448673707759128,-0.08405476002135699, ,0.011324160812451614, ,0.03230253992014309, ,4.296909611198369e-05, ,0.07225388877124451,-0.1612892760781789,0.09519824131000001,3.5288720589010607,1.2943575622780172,-0.23148667117820798, ,0.030860794002754727,0.025696436923496015,0.009808381477832513,0.2335106567146151,-0.01531200807483881,0.14852021403921578, ,0.35516905784606934
0.009141243541996781,0.021165515744193116,-0.07948356584719572, ,0.009428419281052203,0.020912749444273574,-0.0796543456707334, ,0.0004189587755431363, ,0.0035827266307394898,-0.000775748650414729,-0.00929676719866155,-0.011605179199695273,-0.014278996997276147,0.10047318702990982, ,0.009993377628476748, ,0.018400268206122845, ,4.312868477799995e-05, ,0.07295665746279895,-0.16074096204410895,0.09540824029000002,3.530968958335906,1.293947652778721,-0.22755855290093419, ,0.03186599783696131,0.026574332556278574,0.009244812257690076,0.04207103363706125,0.007923161166305743,0.14450809539214704, ,0.3713109493255615
0.009201919595939757,0.021148826976613577,-0.07958703521029081, ,0.009503723776150337,0.02089508010818111,-0.07980389874587943, ,0.0004500033660983635, ,0.005503920805627379,-0.001534353967675998,-0.009026234182078619,0.004345335467558862,0.019203167801706472,-0.11329510927229092, ,0.010682709854829227, ,0.01968866511552972, ,4.342179000594481e-05, ,0.07334279410651016,-0.16043977546201418,0.0955106472,3.5336949276012044,1.293947652778721,-0.22576162061784177, ,0.03377115357952697,0.026426327362425724,0.00900441578292821,0.26171764524310687,0.007687350771128272,0.1469986602895596, ,0.3860349655151367
0.009288948891780674,0.021124228176683704,-0.07975658064489967, ,0.009578935457674057,0.020877443835028504,-0.07995304578912338, ,0.00042847785541340534, ,0.004559387206212139,-0.0010816113835945967,-0.010202607279441354,-0.010430243867492521,-0.005551773662555352,0.0007612040753071114, ,0.011227247667162333, ,0.011815755049354483, ,4.379212578387105e-05, ,0.0739528900035739,-0.15993007509231538,0.09567786861000001,3.5368402767534723,1.293947652778721,-0.22298454345306268, ,0.03486294693551461,0.028583416132069512,0.010139281680458308,0.1226482367394508,0.005596155951710676,0.12422089564711108, ,0.4041459560394287
0.009342812004504323,0.021112315264829887,-0.07987421657954928, ,0.009654053832213813,0.020859840995707427,-0.0801017872848809, ,0.00046087217079142037, ,0.004851018403041288,-0.0011335104069344912,-0.010573720535445405,-0.007369599101563838,0.0024390480520401227,-0.06525706549988981, ,0.011688489695036476, ,0.007762719507107642, ,4.427906483462194e-05, ,0.07432358118153669,-0.1596288885102206,0.09579453471,3.538727486244833,1.293947652778721,-0.22175936235095428, ,0.03315756169059077,0.027829015119786152,0.010514067009900992,0.1714146585812913,0.0047914958911879,0.10608692807994621, ,0.4194529056549072
0.009429605217033066,0.021088513566577698,-0.08006232511033382, ,0.009729078408685664,0.02084227195983938,-0.08025012371768339, ,0.0004307986053019463, ,0.0053423572488200365,-0.002152846076664908,-0.008206091076374374,-0.01141542719337039,0.01246239940998811,-0.17326413202127364, ,0.010025739771088346, ,0.016900394665490145, ,4.460487796919628e-05, ,0.07503407260596534,-0.15904196081177954,0.09598120047000001,3.540614695736194,1.2940842892784865,-0.22031888419197987, ,0.03373513741858186,0.032124895585128904,0.007988370872617855,0.2473273084879397,0.0,0.07303831315883653, ,0.4338419437408447
0.009497550006330253,0.021063960210498694,-0.08016096044401788, ,0.009804008698328441,0.020824737095776695,-0.0803980555721776, ,0.00045536658673601895, ,0.0060523481587805225,-0.0017302517731675642,-0.00919235340248525,-0.006552941097493568,0.038494210418294365,-0.1413419460285714, ,0.01114109736560208, ,0.039047985954725424, ,4.501034119134628e-05, ,0.07538931831817966,-0.15872532876393636,0.09607453335,3.5445988046623995,1.29367437977919,-0.21843273441821998, ,0.03423410590132423,0.02549622287976109,0.009035060419739083,0.32209458187064577,-0.011808517350058579,0.17873717705164333, ,0.4468119144439697
0.00957923202637887,0.02104528969294111,-0.0803371201089914, ,0.00987884421470079,0.020807236770603817,-0.08054558333312557, ,0.0004357677971589802, ,0.0038751727691527607,-0.0007151307350461559,-0.010792059025658312,-0.04116469350920198,0.002373085015653413,0.1218055712481037, ,0.011488990990173321, ,0.04123303745547535, ,4.531187532532321e-05, ,0.07598396874949495,-0.15826196479148288,0.09624823621,3.547115083984214,1.2935377432794248,-0.2154625606096039, ,0.03287043351523061,0.026814620389508555,0.01047259140039448,0.05139140949697213,-0.026055717918841117,0.1755639971267133, ,0.46360111236572266
0.009621541209983745,0.021037210414491175,-0.08044418231676315, ,0.009953584473678164,0.020789771350138826,-0.08069270748540402, ,0.0004829529780220683, ,0.00472394653162962,-0.0010379827240047605,-0.01137794199741169,-0.031532684958359106,0.009651681852872128,-0.011548277274390222, ,0.012363278006479211, ,0.03297673411037377, ,4.577696403350654e-05, ,0.07630060079733815,-0.15799939187375925,0.09635453199,3.548163533701637,1.2935377432794248,-0.21415570076735496, ,0.033520643432875585,0.028159329839308835,0.011107957824267782,0.14297748994202442,-0.020116082687691005,0.13223739193387118, ,0.47806501388549805
0.009726667377732994,0.02101232964904701,-0.08067010543731402, ,0.010028228993450008,0.020772341198934636,-0.0808394285140047, ,0.00042095625492584617, ,0.005056686893932152,-0.0012207345993420706,-0.010539246627440386,-0.021855179356901244,0.01168831211906985,-0.06323193285178318, ,0.01175312702132116, ,0.024784377637613528, ,4.598198479252449e-05, ,0.07696475582452146,-0.15743563237394084,0.09657879016000001,3.5523573325713276,1.2935377432794248,-0.21203205352370036, ,0.03417246725188001,0.02708246049043116,0.010350104951267057,0.18331741568107435,-0.013850158387814442,0.12010878389689507, ,0.49132609367370605
0.009769919189343567,0.021002328667127697,-0.08076123115331779, ,0.010102777294516701,0.020754946680280217,-0.08098574690403279, ,0.0004715927140183312, ,0.005124150224495326,-0.001124705865505938,-0.011070170208179545,-0.009706001436431142,0.005606383977408766,-0.03368554420795603, ,0.01225032845458296, ,0.011208828615532629, ,4.635920964953589e-05, ,0.07726594240661622,-0.15720395038771412,0.09666823417,3.553825162175719,1.2934011067796591,-0.210777133258036, ,0.03521222321279064,0.027658683054057352,0.011015775601659753,0.17364774705354402,0.0,0.14018541689605551, ,0.5077309608459473
0.009878191236122321,0.02098158404150827,-0.08100383615877875, ,0.010177228899686792,0.020737588156202212,-0.08113166314070762, ,0.00040656764945753884, ,0.003876492322188601,-0.0007776256726556765,-0.009607856280791294,-0.025176128885954503,-0.009799426104405536,0.06931654085125023, ,0.010389552286941968, ,0.027016034790221265, ,4.6485336759999674e-05, ,0.07801504749541599,-0.15664791362076996,0.09690675153000002,3.5573898912149557,1.292991197280363,-0.2072574086814647, ,0.03327382242583127,0.025373513785687377,0.0094757950743605,0.051447788684430014,-0.0086512801589093,0.12268718906829898, ,0.5212690830230713
0.009926829390326838,0.020968496024503777,-0.08110319994923179, ,0.010251583334073954,0.02072026598746592,-0.08127717770936213, ,0.0004442426547362273, ,0.00523473912250144,-0.0016664503506427474,-0.009645518479122215,-0.016543996232355848,0.014380338841987075,-0.10005978374972273, ,0.011100251221611726, ,0.021920261701399244, ,4.673399641861215e-05, ,0.07837029320763032,-0.15636217250442364,0.09700526957000001,3.5588577208193475,1.292991197280363,-0.2060322275793562, ,0.03373513741858186,0.029136303825136867,0.009453300605341247,0.21479162592301446,-0.0086512801589093,0.11442988555294006, ,0.5345480442047119
0.010032175636335397,0.02094034486027144,-0.0812918141324234, ,0.010325840125094066,0.02070298053357691,-0.08142229109544256, ,0.00039950581150183993, ,0.005568813601863234,-0.001474141452069817,-0.009697942624349549,-0.011176504860160363,0.017798057340833236,-0.0777782784772193, ,0.011279843487308823, ,0.021016303676298642, ,4.681972832547818e-05, ,0.0787100934540962,-0.15608415412095156,0.09710119503,3.5613740001411616,1.292991197280363,-0.20480704647724784, ,0.03623403648662496,0.026287241428939272,0.009595669590361447,0.22978277744895007,-0.0086512801589093,0.15146387792358884, ,0.5517539978027344
0.010077749837667084,0.020931323998090147,-0.08139428964295167, ,0.010399998802462456,0.020685732152782056,-0.08156700378450682, ,0.00044044287312505564, ,0.004372450652705367,-0.0008526552908979627,-0.010161649765737227,-0.010904898745882068,-0.021668341936823144,-0.040190446631575366, ,0.011095245455461871, ,0.02425765344383038, ,4.718804458314716e-05, ,0.07942058487852485,-0.1555898992170012,0.09729304595,3.56409996940646,1.292717924280832,-0.20164377602479472, ,0.0352776734418107,0.02625088286541377,0.01020423543882127,0.08189303792176678,0.008097285312740343,0.04269938363892945, ,0.5632359981536865
0.010126030188705063,0.02091967169683269,-0.08148931440391716, ,0.010474058898190728,0.02066852120207122,-0.08171131626222648, ,0.00048320324785537455, ,0.005249343371850178,-0.001421705520313097,-0.009384703523906914,-0.014295005548969128,-0.0001382182171754539,-0.08369672247613803, ,0.010846636006325048, ,0.014295671202339896, ,4.767650124695977e-05, ,0.07979127605648763,-0.15531960356640334,0.09738897141000001,3.565358109067368,1.2928545607805975,-0.20093840652708572, ,0.037762412080569345,0.027292764325128206,0.009315094456140352,0.17438445213120454,-0.004241836615760308,0.09074645589414929, ,0.5754950046539307
0.010186762480780098,0.020902147641055607,-0.08159830302469774, ,0.010548019946584008,0.020651348037178153,-0.08185522901438394, ,0.0005093312891236743, ,0.005905839169515574,-0.0015606214839883753,-0.011101726790576475,-0.04340110388669806,0.03905093170109956,-0.05660029988649462, ,0.012671338265750542, ,0.058383481539481474, ,4.8225238060694e-05, ,0.08018513543307308,-0.15502613971718282,0.09749267461000001,3.567874388389182,1.2923080147815358,-0.19910419632991033, ,0.03725832020356135,0.027707136221451323,0.010668996329537843,0.2490965316065455,-0.046085034541659874,0.19242047369535842, ,0.5870060920715332
0.01023862613597279,0.020890344859306804,-0.0816977871393772, ,0.01062188148423798,0.020634213012582326,-0.08199874252687375, ,0.0005505109718648349, ,0.005955100591061198,-0.0012337802948920967,-0.01231552075302868,-0.04058009204111864,0.028389264523948448,-0.007940518485436355, ,0.013735264405318215, ,0.04952467997842162, ,4.8876413306687815e-05, ,0.08051721294666474,-0.15479445773095607,0.09758989636000001,3.569971287824027,1.292034741782005,-0.1974928219401283, ,0.04034733909798928,0.027878067437858627,0.011985561715575624,0.20958551053393867,-0.03992931272428798,0.2021981631080713, ,0.5994908809661865
0.010352647094902008,0.02087313260843763,-0.08195983289770487, ,0.010695643050036029,0.020617116481509854,-0.08214185728570139, ,0.0004651057517499736, ,0.006100246260762492,-0.0006752437031084077,-0.014498211204889457,-0.00042278389740399436,0.002064908811444574,0.0029057790049557184, ,0.01574379517912109, ,0.0021075943740081404, ,4.9244589530050575e-05, ,0.08129720896696141,-0.15425386642976036,0.09785174694000001,3.573536016863264,1.2918981052822394,-0.19362418198996562, ,0.041749644328407734,0.027530299262683716,0.01465392044158234,0.18253900177751176,0.006520305437084818,0.18588570227293139, ,0.6113500595092773
0.010409256215237897,0.02086454318482687,-0.08208488238170235, ,0.010769304185146173,0.0206000587959351,-0.0822845737769832, ,0.0004893497583035431, ,0.006256028103360857,-0.0011046296943813608,-0.013188059174557183,0.001653254244093673,0.009980790387376128,-0.04896429480335661, ,0.014638408355534142, ,0.010116769613628888, ,4.966874680744995e-05, ,0.08167562287779842,-0.15399901624491094,0.09797748707000001,3.5754232263546246,1.2918981052822394,-0.1919089284470138, ,0.04045052922355958,0.028076018212565317,0.013296169883138568,0.22797735440962547,0.005552837073969839,0.178793558517642, ,0.6226561069488525
0.01047281527380749,0.020850168335238305,-0.08220913612629448, ,0.010842864433018328,0.020583040306581774,-0.08242689248694542, ,0.000505679341609398, ,0.00630147006804186,-0.0015524912161512762,-0.011786988788137423,-0.00021461202213563478,0.010928589132084734,-0.06809755544191674, ,0.013455551221942997, ,0.010930685761685037, ,5.012276437629262e-05, ,0.0820772049872581,-0.15370555239569042,0.09810193091000001,3.5779395056764387,1.2918981052822394,-0.19003031742378096, ,0.04108092708158908,0.030068739403824703,0.011834183893016346,0.24061869191474902,0.004666108895192986,0.17226153461917826, ,0.6341500282287598
0.010512505905975448,0.020840308759355615,-0.08228431406729544, ,0.01091632333938125,0.02056606136292454,-0.08256881390192451, ,0.0005649958494322224, ,0.006289441072785617,-0.001483057586826539,-0.012050576243752517,-0.0011788497673634116,0.009631608373423663,-0.050003935282989485, ,0.013673804028885999, ,0.0097034690968171, ,5.0725965781357895e-05, ,0.08233977790498172,-0.1535124840738348,0.09817711573000001,3.579407335280831,1.2918981052822394,-0.18888681506181304, ,0.04163972863469539,0.030106897702560524,0.01210396012158055,0.22993064193825793,0.004221298303425929,0.17988915274523515, ,0.6477630138397217
0.010646577203240137,0.020810238098052665,-0.08255080458950433, ,0.010989680452239643,0.02054912231319022,-0.08271033850836612, ,0.00045973075146845424, ,0.0055889097890614,-0.0014292260692208365,-0.010785381727165503,-0.0125606470033361,-0.010728551756087598,0.01664552979530508, ,0.012231232921822818, ,0.016518823504849563, ,5.101505139185223e-05, ,0.0833437331786309,-0.1528174381151546,0.09844415147,3.5829720643200678,1.2918981052822394,-0.18455784183436313, ,0.04383230556973246,0.03125722712729604,0.010806520705563096,0.12941229818260586,0.00307375824307162,0.14750060921659502, ,0.6593348979949951
0.010717473723645024,0.02079025609693314,-0.08267264765333826, ,0.011062935321871428,0.02053222350435905,-0.08285146679282505, ,0.00046679847828205766, ,0.00707165717324851,-0.0019083301683144598,-0.012033773285924459,0.00462312110664596,0.022793086488318112,-0.1505468857772576, ,0.014087645605433342, ,0.023257209378540776, ,5.131232271580641e-05, ,0.08379165168533594,-0.15248536060156295,0.09856600273,3.5859077235288512,1.2918981052822394,-0.18284258829141137, ,0.041934132372280504,0.030611916631764772,0.012085592959028833,0.32212401869456625,0.0027431426777992643,0.17020889573727, ,0.6712279319763184
0.01078475554119774,0.020773411299428696,-0.08279156932901856, ,0.011136087500824413,0.02051536528216627,-0.08299219924196408, ,0.00047986899759063894, ,0.006174880502163955,-0.0015445982502637033,-0.011421680313401392,-0.006835236000786209,0.0061174842529657745,-0.007036356417790961, ,0.013075538771012963, ,0.009172996805430246, ,5.1633287446072355e-05, ,0.08421640199341827,-0.15218417401946818,0.09868655770000001,3.58863369279415,1.292034741782005,-0.1810753951718752, ,0.04337154550204332,0.03038646863863938,0.011451338260244429,0.19961765062089365,0.0,0.1932117830724478, ,0.6842300891876221
0.010805077260040583,0.020768183341406024,-0.08282775451190896, ,0.011209136543913882,0.020498547991103254,-0.0831325363425551, ,0.000573462371310545, ,0.005985677681644324,-0.001456172575188435,-0.011388661229220094,-0.008637039134059141,0.002853012116158944,0.025340944833419667, ,0.012947987506605295, ,0.009096039333269964, ,5.2323503798517675e-05, ,0.08436313391802855,-0.15208377849210328,0.09872285382000001,3.5892627626246036,1.292034741782005,-0.18042196525075066, ,0.04351074807816175,0.030367021298710647,0.011418502881720433,0.17422058995999173,0.0,0.2006198962549708, ,0.6953530311584473
0.010898580687408432,0.0207472924553065,-0.08303367479648474, ,0.011282082008219304,0.0204817719744189,-0.08327247858147624, ,0.0005240244617961388, ,0.005221228573140639,-0.0012849136060273376,-0.011474631084693588,-0.01842568442331584,-0.014278059273235574,0.04914517033398288, ,0.012671992318406398, ,0.023310268641752858, ,5.2864955960901775e-05, ,0.0850736253424572,-0.151558632656656,0.09892766764000001,3.591359662059449,1.2918981052822394,-0.17728843396185323, ,0.041934132372280504,0.03195183217456929,0.011459576633093526,0.09116582942137842,0.0007989164897277893,0.14244853340235797, ,0.7060389518737793
0.010967308728182,0.020728700994618154,-0.08315536860911772, ,0.0113549234530816,0.020465037574121145,-0.08341202644571377, ,0.000534450015766994, ,0.00717807371696374,-0.0017423740966423778,-0.011873214095959154,0.0016225346143305605,0.02069883575423722,-0.14750081026274584, ,0.013983340900775434, ,0.020762326078594892, ,5.341637799136265e-05, ,0.08552926658203644,-0.15122655514306435,0.09905081519000002,3.593875941381263,1.292034741782005,-0.17576627706273867, ,0.04393376924003276,0.02816768820376099,0.01195856720720721,0.31254519121668034,-0.002782725105396288,0.16370646746229092, ,0.7156040668487549
0.011031608166016667,0.02071327468305278,-0.08327102149366938, ,0.011427660440100188,0.0204483451309781,-0.08355118042236036, ,0.0005527513877816082, ,0.007063118442753955,-0.0018312844505755255,-0.013302101703434056,-0.015203496678882206,0.029210596089633063,-0.09389495943761225, ,0.015171919937957554, ,0.03293030243847744, ,5.399701079094623e-05, ,0.0859231259586219,-0.15096398222534071,0.09916488871000001,3.596601910646562,1.291761468782474,-0.1739915451926749, ,0.042842863006081616,0.0318981316162927,0.01318610225165563,0.29519806463165615,-0.01740029590143081,0.2009392031607244, ,0.7258338928222656
0.01114017833919991,0.020690901865391402,-0.08349485164859581, ,0.011500292533129943,0.020431694984519504,-0.08368994099861453, ,0.0004846960844198575, ,0.006451686427218884,-0.0009613205711036204,-0.014778473890102154,-0.045790036928489306,0.018286272266605674,-0.008105388852517126, ,0.01615399905645715, ,0.04930633357275393, ,5.4392858130045196e-05, ,0.0866181719173021,-0.1504851727871388,0.09938136914000001,3.6003763296292832,1.2913515592831777,-0.17022678439568217, ,0.04493226399548806,0.02866111191738773,0.014507114316939893,0.17986478463904265,-0.04421653957598194,0.17379707979319878, ,0.7388980388641357
0.011193874500713581,0.020683256382870274,-0.08362474385934986, ,0.011572819298278606,0.020415087473038242,-0.08382830866178087, ,0.0005069046780124209, ,0.005720734609389672,-0.0008697162074324093,-0.013875143140185026,-0.00800208648147243,-0.026422663544177293,-0.07856753827189711, ,0.015033389767885453, ,0.027607789164659575, ,5.483108028837565e-05, ,0.08701975402676178,-0.15021487713654094,0.0995161833,3.60163446929019,1.2912149227834122,-0.16938025783072036, ,0.042383627315082974,0.030135580043972942,0.014058968684907327,0.11582438046312704,0.01188861327396775,0.03821866417952592, ,0.7485508918762207
0.01126384676238108,0.02066802957670341,-0.08377438278458134, ,0.01164524030390343,0.02039852293359127,-0.08396628389926888, ,0.0005048969221681382, ,0.007135294681371626,-0.0017899104434246807,-0.013480199557445597,-0.017794801081096295,0.016856592049554017,-0.14056544006063731, ,0.015356822252472918, ,0.024511205517400863, ,5.525191866262896e-05, ,0.0874985634649637,-0.14986735415720084,0.09966525665,3.603731368725035,1.2910782862836467,-0.16812533756505627, ,0.04491099931778078,0.03215755389985455,0.013408090505050508,0.27536354208083047,-0.01609124265911567,0.1344462768686009, ,0.7593851089477539
0.011338962085261806,0.02064837584175925,-0.08391335954688744, ,0.011717555120608677,0.020382001702001436,-0.08410386719859307, ,0.0005005806968943812, ,0.0070037347498432875,-0.0018612072708189434,-0.013223083844330534,-0.04432299591980108,0.04966429437536036,-0.011169910402300707, ,0.015078671669126126, ,0.06656628049430412, ,5.565066674026718e-05, ,0.08795420470454295,-0.1495429993764834,0.09980136710000001,3.606876717877303,1.2906683767843505,-0.16574911535045295, ,0.04343109453476923,0.031072999855425925,0.012814812164119069,0.28170948891291525,-0.05338522134519412,0.2712607521747356, ,0.7691199779510498
0.011391986203243516,0.02063616467810806,-0.08401353134712207, ,0.011789763321242477,0.020365524112858635,-0.08424105904737185, ,0.0005322046650895146, ,0.006881452905723046,-0.0013801829675357934,-0.013477584067843997,-0.03183812086787564,0.030677205815747444,0.05252219214218756, ,0.01519554445958954, ,0.0442126277478079, ,5.611183107665768e-05, ,0.08830172768388304,-0.14931131739025666,0.09990118143000001,3.6087639273686642,1.290531740284585,-0.1637590864235235, ,0.04681644872149521,0.02901159937587,0.01330727779448622,0.22316908266523638,-0.03648235483928797,0.2769596841905108, ,0.7817978858947754
0.011461201678559609,0.020622832760765868,-0.08415460522873437, ,0.011861864480893977,0.02034909049952113,-0.08437785993332782, ,0.0005341424621661512, ,0.006445443133068538,-0.0013340585387005208,-0.0134046005877582,-0.0009619471817430636,-0.004948914524422367,0.07676761133820158, ,0.014933411073282207, ,0.005041494279308706, ,5.6564747305341634e-05, ,0.08879598258783342,-0.14899468534241347,0.10004247704000001,3.610651136860025,1.2903951037848196,-0.16111562757546977, ,0.047235909187889884,0.03245449437704199,0.013591136109215017,0.1554195223776946,0.01012639795988943,0.23398297011040314, ,0.7918620109558105
0.01153521379051025,0.020605999800437674,-0.08430012397504755, ,0.011933858176890404,0.020332701194116908,-0.08451427034428599, ,0.0005286474652046392, ,0.006393914580603356,-0.0016329740243563118,-0.011553971586465612,-0.004200161187582571,0.0004876205607348,0.007276939087378218, ,0.013305750908878812, ,0.004228347421022194, ,5.6992935046003596e-05, ,0.08933657388902913,-0.14862399416445068,0.10019025410000001,3.612538346351385,1.290531740284585,-0.15861332579466803, ,0.04560160574650206,0.03094129167214567,0.011669458989010992,0.18709739544473647,0.003229952534591565,0.19543677206583904, ,0.8021540641784668
0.011595957865742775,0.020587671520350327,-0.08440476483843906, ,0.012005743988794023,0.02031635652754535,-0.08465029076817497, ,0.0005493809917887782, ,0.007036090364640075,-0.002190063484006145,-0.011858622096585114,-6.714868346728922e-05,0.012129323009119836,-0.09150473822714503, ,0.013961728536000648, ,0.012129499210188932, ,5.745593366545172e-05, ,0.08974587873136303,-0.14832280758235594,0.10029525359000001,3.6146352457862307,1.290531740284585,-0.1569797509918569, ,0.04493226399548806,0.03387966496196743,0.011922763113772456,0.2719806419017911,0.0032229701025457886,0.18045939437828956, ,0.8120930194854736
0.011667613340932474,0.020567370678476832,-0.08453110254063455, ,0.012077521498399715,0.020300056829478108,-0.08478592169302483, ,0.0005517374301691012, ,0.007045027630078342,-0.0018524451028648498,-0.01287658754280444,-0.0016026489998664595,0.006228894569161306,-0.07962114700464809, ,0.01479427165882801, ,0.00643173828525078, ,5.803972563419751e-05, ,0.09020151997094228,-0.1479907300687643,0.10042229001000001,3.6173612150515297,1.290531740284585,-0.15518281870876438, ,0.04606647648469455,0.032723083296024406,0.012992505318107668,0.24780747957857632,0.002949296274980867,0.1683783688423896, ,0.8227770328521729
0.011742805852068952,0.0205490320603956,-0.0846712826909736, ,0.01214919028973142,0.020283802428360736,-0.08492116360696765, ,0.0005458347195457765, ,0.006909572876579499,-0.0015932850728137605,-0.013097317984885712,-0.0053912592230514755,0.002362636673670214,-0.044485660038845, ,0.014893639348971257, ,0.005886199339283158, ,5.8597883038945955e-05, ,0.09071894307351532,-0.14763548435654994,0.10056488191000001,3.6196678044298594,1.2906683767843505,-0.15341562558922806, ,0.047001952233021685,0.03136052265646754,0.013229909900332229,0.21651767173350192,0.0,0.17264834389707862, ,0.8322529792785645
0.011807829614040269,0.02053509707955497,-0.08480491001635776, ,0.012220749949039553,0.020267593651414183,-0.0850560169982367, ,0.0005523730654832329, ,0.006118657951027935,-0.001255906152210687,-0.013177580087991867,-0.011668356788890884,-0.005502904650726772,0.05525203258031384, ,0.014583000115212156, ,0.012900857041033208, ,5.915810690565978e-05, ,0.09118230704596879,-0.14731885230870675,0.10069969607000001,3.621345323977736,1.2906683767843505,-0.151537014565995, ,0.04493226399548806,0.03116484123430896,0.013285080500417015,0.13538699494393305,0.0,0.19258371589386822, ,0.8409759998321533
0.011871851286728019,0.02052027062841088,-0.08493200830174409, ,0.012292200064798241,0.0202514308246359,-0.08519048235516592, ,0.0005619401850830837, ,0.007636212151753638,-0.0019634320156499754,-0.013682766062152954,0.000508986832737493,0.016710273250744853,-0.03218209233151164, ,0.015791924785100577, ,0.01671800885635406, ,5.972680274017855e-05, ,0.09162250281979958,-0.14701766572661198,0.10082673249000002,3.6232325334690962,1.290531740284585,-0.1493836281587846, ,0.04906770504574497,0.03356807271258252,0.013815101058109283,0.2773436496584828,-0.00037510713747113643,0.24554094549033562, ,0.8492789268493652
0.01195856916669766,0.020497290263200373,-0.08508877752238105, ,0.012363540227701923,0.020235314272801376,-0.0853245601661889, ,0.0005368672414270373, ,0.008014115979341506,-0.0020388943418204936,-0.014849486078768955,0.00751018626607295,0.03148249546047041,-0.048972757784867864, ,0.01699677563160135, ,0.032365872398817455, ,6.0230467069409304e-05, ,0.09213992592237262,-0.14664697454864922,0.10098487987000002,3.6267972625083336,1.290531740284585,-0.1464431935137243, ,0.04683955654416129,0.033496979018168296,0.014984770950141113,0.3353604983597058,-0.0005061026752529721,0.2861559022871182, ,0.8580560684204102
0.012033628610986388,0.020481963903938038,-0.0852358915870924, ,0.012434770030663102,0.02021924431946532,-0.08545825091983922, ,0.0005285638007898188, ,0.007808329392190947,-0.0012818992923122564,-0.016513839869132983,0.0036600670623139885,0.018364020776852303,0.00930660701231988, ,0.018311749804864354, ,0.01872517348049401, ,6.070622327326448e-05, ,0.0925723989633292,-0.1463612334323029,0.10112747177,3.629523231773632,1.290531740284585,-0.14382947382922634, ,0.048840422829887174,0.030582320837405984,0.016731944873949585,0.2715783643974962,-0.0006154947153389017,0.27597607934596147, ,0.8669741153717041
0.012033628610986388,0.020481963903938038,-0.0852358915870924, ,0.0125058890688088,0.02020322128696339,-0.08559155510474978, ,0.0006536236870959708, ,0.007808329392190947,-0.0012818992923122564,-0.016513839869132983,0.0036600670623139885,0.018364020776852303,0.00930660701231988, ,0.018311749804864354, ,0.01872517348049401, ,6.143105261224925e-05, ,0.0925723989633292,-0.1463612334323029,0.10112747177,3.629523231773632,1.290531740284585,-0.14382947382922634, ,0.048840422829887174,0.030582320837405984,0.016731944873949585,0.2715783643974962,-0.0006154947153389017,0.27597607934596147, ,0.8759119510650635
0.012078992568458798,0.020474125078433887,-0.08533580990150993, ,0.012576896939478065,0.020187245496413198,-0.08572447320965114, ,0.000693734693060483, ,0.0077317098107358186,-0.001181508202450803,-0.017745625222544487,0.002142037198734237,0.022561192655956006,0.127437708436249, ,0.01939284694852445, ,0.02266261188935262, ,6.222322357536244e-05, ,0.09287358554542395,-0.14616044237757306,0.10123506384000001,3.6312007513215083,1.290531740284585,-0.14186918406585286, ,0.04916939977122838,0.03295032693002458,0.01795807386696731,0.23588594078344588,-0.0006592170668079734,0.365020326535892, ,0.8840749263763428
0.012186776732178021,0.020459897861716276,-0.0855903833133032, ,0.012647793242218836,0.02017131726771576,-0.08585700572337226, ,0.0006057247653141999, ,0.007104062407979783,-0.0009307129305529344,-0.01643377413639218,-0.006335766953523978,-0.019110154336902416,-0.061661811417510766, ,0.01792771211341599, ,0.020133026176798706, ,6.282080703872429e-05, ,0.09359952243560106,-0.14568935567224536,0.10149302555,3.633926720586807,1.290531740284585,-0.1387653919405114, ,0.0496063468679931,0.031329462383120094,0.016731944873949585,0.16155901014616647,0.006880803368846947,0.10091359072276855, ,0.8922779560089111
0.01227721346702447,0.020440700581578958,-0.08576549326478919, ,0.012718577578785103,0.020155436919557176,-0.08598915313484003, ,0.000571140414864408, ,0.008788560264697657,-0.0021785140251506675,-0.01566200925675692,-0.010117636762745227,0.02173455618712932,-0.18619006372800703, ,0.018090971473161414, ,0.023974081085826195, ,6.333694434730016e-05, ,0.09417100466829367,-0.1453186644942826,0.10167061728000001,3.637072069739075,1.290531740284585,-0.1372951746179814, ,0.05319335289151949,0.034697236401634655,0.015739932332015812,0.3500434758236429,-0.016291957143030944,0.1630867436952966, ,0.9003009796142578
0.012363133691083633,0.020420180889798918,-0.08592083508293553, ,0.012789249553134045,0.02013960476940952,-0.08612091593307726, ,0.0005480237529680322, ,0.008664271535095875,-0.002035476659904629,-0.015590108754111901,-0.03055609925578768,0.04998956290393307,-0.0936225040269148, ,0.017951720180303773, ,0.05858865658201526, ,6.379686289845629e-05, ,0.09468070503799249,-0.1450020324464394,0.10182357950000001,3.640636798778312,1.2899851942855234,-0.13488921323982228, ,0.05151842647039673,0.03159019359469733,0.01541995306873185,0.35732492380222375,-0.04856852637556164,0.2636166507425591, ,0.9086179733276367
0.012363133691083633,0.020420180889798918,-0.08592083508293553, ,0.012859808771423096,0.020123821133532543,-0.08625229460720404, ,0.000666618824211246, ,0.008664271535095875,-0.002035476659904629,-0.015590108754111901,-0.03055609925578768,0.04998956290393307,-0.0936225040269148, ,0.017951720180303773, ,0.05858865658201526, ,6.460836461959518e-05, ,0.09468070503799249,-0.1450020324464394,0.10182357950000001,3.640636798778312,1.2899851942855234,-0.13488921323982228, ,0.05151842647039673,0.03159019359469733,0.01541995306873185,0.35732492380222375,-0.04856852637556164,0.2636166507425591, ,0.9168510437011719
0.012528607835630418,0.02038621514143788,-0.08625610157607422, ,0.01293025484200691,0.02010808632697501,-0.08638328964643525, ,0.0005048294369466629, ,0.007298667183091967,-0.001363248595390601,-0.015390857722359312,-0.013123218161049444,-0.012966800652220823,0.0550046436778537, ,0.017088226672545205, ,0.018448737367472663, ,6.509054853049201e-05, ,0.0958159467705035,-0.14429154102201075,0.10215542974000001,3.6452499775349714,1.2890287387871653,-0.12937192098579475, ,0.0540107806251968,0.03462128477142312,0.015616481882352944,0.14245188115064894,0.0,0.19985724935309046, ,0.928088903427124
0.012528607835630418,0.02038621514143788,-0.08625610157607422, ,0.013000587375434653,0.02009240066357595,-0.08651390154008191, ,0.0006128233471706718, ,0.007298667183091967,-0.001363248595390601,-0.015390857722359312,-0.013123218161049444,-0.012966800652220823,0.0550046436778537, ,0.017088226672545205, ,0.018448737367472663, ,6.577493911893611e-05, ,0.0958159467705035,-0.14429154102201075,0.10215542974000001,3.6452499775349714,1.2890287387871653,-0.12937192098579475, ,0.0540107806251968,0.03462128477142312,0.015616481882352944,0.14245188115064894,0.0,0.19985724935309046, ,0.9346780776977539
0.012599872059341502,0.020371958111907135,-0.08639262699932287, ,0.01307080598444688,0.020076764455966123,-0.08664413077754914, ,0.0006100591830183877, ,0.008247818880533357,-0.0017856497317701213,-0.01452539548821769,-0.0047775089075345655,0.010299646101466609,-0.06482802952928782, ,0.016798874228346018, ,0.011353706644566808, ,6.644345439165797e-05, ,0.09631020167445387,-0.14398263170704176,0.10229672535,3.6471371870263325,1.2893020117866962,-0.12771614576995466, ,0.054319943651099475,0.03154818535853417,0.014748899555555556,0.27277779495476845,-0.00853135657411509,0.20829898071783223, ,0.9414420127868652
0.012698049072618334,0.020348151135602704,-0.08655375498887345, ,0.013140910283972827,0.020061178015569486,-0.08677397784833671, ,0.0005718196673551389, ,0.009770066980523311,-0.0026954624435287346,-0.01579900925193893,0.0018235810647013635,0.03858832101216085,-0.14553659539422664, ,0.01877041341929468, ,0.03863137302876696, ,6.70286281006226e-05, ,0.09690485210576914,-0.14363510872770166,0.10246005789000001,3.651121295952538,1.2891653752869305,-0.1250726869219007, ,0.05720129087309873,0.03645675818612016,0.01594475627627628,0.42143768818086935,-0.014998167202665103,0.27502453137213856, ,0.9482231140136719
0.012698049072618334,0.020348151135602704,-0.08655375498887345, ,0.013210899891127186,0.020045641652604376,-0.08690344324203726, ,0.0006905141734605247, ,0.009770066980523311,-0.0026954624435287346,-0.01579900925193893,0.0018235810647013635,0.03858832101216085,-0.14553659539422664, ,0.01877041341929468, ,0.03863137302876696, ,6.783014548403444e-05, ,0.09690485210576914,-0.14363510872770166,0.10246005789000001,3.651121295952538,1.2891653752869305,-0.1250726869219007, ,0.05720129087309873,0.03645675818612016,0.01594475627627628,0.42143768818086935,-0.014998167202665103,0.27502453137213856, ,0.9550080299377441
0.012784365139477609,0.02032588157593595,-0.0867014412328922, ,0.013280774425207743,0.02003015567608495,-0.08703252744833678, ,0.0006659535035264882, ,0.009824002813044708,-0.002213313283362328,-0.017701903532150766,-0.0020470233627928637,0.03864369943643847,-0.07463746682393935, ,0.02036583353616027, ,0.038697856175519636, ,6.857333366028745e-05, ,0.09741455247546797,-0.14331075394698423,0.10260913124000001,3.654686024991775,1.2890287387871653,-0.12242922807384687, ,0.05847008105882364,0.03538290140136867,0.01787745400673401,0.38887262685448765,-0.01926105913252253,0.3140626871500428, ,0.9620490074157715
0.01288543280955502,0.020307944800212772,-0.08689671544400172, ,0.013350533507691926,0.02001472039382269,-0.08716123095701424, ,0.0006101374177466311, ,0.009392254930042417,-0.001518319105434312,-0.018991793383871955,-0.0034686119539562906,0.017056266510959716,0.04054470241243534, ,0.021241656279878823, ,0.01740531601045695, ,6.920107961001733e-05, ,0.0980555393040286,-0.14294778550189569,0.10280746361000001,3.6580410640875276,1.2888921022873998,-0.11905066056452823, ,0.06114493657117962,0.03486294693551461,0.019307650327272732,0.2809954877255801,-0.010317875329287149,0.3228740081937438, ,0.968548059463501
0.01288543280955502,0.020307944800212772,-0.08689671544400172, ,0.013420176762233954,0.019999336112427716,-0.08728955425793944, ,0.0007317873672311475, ,0.009392254930042417,-0.001518319105434312,-0.018991793383871955,-0.0034686119539562906,0.017056266510959716,0.04054470241243534, ,0.021241656279878823, ,0.01740531601045695, ,7.004520400480597e-05, ,0.0980555393040286,-0.14294778550189569,0.10280746361000001,3.6580410640875276,1.2888921022873998,-0.11905066056452823, ,0.06114493657117962,0.03486294693551461,0.019307650327272732,0.2809954877255801,-0.010317875329287149,0.3228740081937438, ,0.9749588966369629
0.012990331753438684,0.020290908375710612,-0.08711534267721155, ,0.013489703814662288,0.01998400313731,-0.0874174978410741, ,0.000659439932015987, ,0.00988447207985257,-0.001516375872563004,-0.020592050639244505,-0.0012454769156241422,0.015063621193330311,0.0016868372664653956, ,0.022891804944422497, ,0.01511489972439789, ,7.07436554154814e-05, ,0.09872741706408614,-0.142546203392436,0.10303042549000001,3.6611864132397955,1.2888921022873998,-0.11570183221876512, ,0.06284565666123892,0.036275589280761,0.020958962526315794,0.3015363066476608,-0.007862334616225321,0.30426132228272507, ,0.9814469814300537
0.012990331753438684,0.020290908375710612,-0.08711534267721155, ,0.013559114292976423,0.01996872177268105,-0.08754506219647071, ,0.0007822893644215363, ,0.010106322433917644,-0.0016941879255927455,-0.020723499178831057,0.0063047376518768055,0.013257832568756516,-0.013840024027587453, ,0.023118638456460682, ,0.014680463857190688, ,7.165647944246424e-05, ,0.09931434476252719,-0.14221412587884436,0.10322357270000002,3.664122072448578,1.2887554657876343,-0.11281333715028952, ,0.06334909316319812,0.037597837384497144,0.02115380015936255,0.31898563497100585,0.0,0.3059650040607572, ,0.9883220195770264
0.013083359823291615,0.020276298236786616,-0.0873054891458352, ,0.01362840782734396,0.01995349232155501,-0.08767224781427178, ,0.0007319787609646409, ,0.010106322433917644,-0.0016941879255927455,-0.020723499178831057,0.0063047376518768055,0.013257832568756516,-0.013840024027587453, ,0.023118638456460682, ,0.014680463857190688, ,7.259649639271378e-05, ,0.09931434476252719,-0.14221412587884436,0.10322357270000002,3.664122072448578,1.2887554657876343,-0.11281333715028952, ,0.06334909316319812,0.037597837384497144,0.02115380015936255,0.31898563497100585,0.0,0.3059650040607572, ,0.9947280883789062
0.013111447034884025,0.020271769537643643,-0.08736524305871686, ,0.013697584050097864,0.019938315085750252,-0.0877990551847095, ,0.0008018362879974711, ,0.010212984771126372,-0.0017844086129407142,-0.020871685496501317,0.00712337205078274,0.015715152394645417,-0.011416499243613024, ,0.023304858452650158, ,0.01725411496768141, ,7.365263888605795e-05, ,0.09949196761863435,-0.1421060076186052,0.10328449833000002,3.6649608322225165,1.2887554657876343,-0.11183319226860272, ,0.06347621508927812,0.03829577948283728,0.02129520256684492,0.3286988168819792,0.0,0.3181056942971775, ,1.002000093460083
0.013111447034884025,0.020271769537643643,-0.08736524305871686, ,0.013766642595733456,0.019923190365890624,-0.08792548479810518, ,0.0009298706729915028, ,0.010212984771126372,-0.0017844086129407142,-0.020871685496501317,0.00712337205078274,0.015715152394645417,-0.011416499243613024, ,0.023304858452650158, ,0.01725411496768141, ,7.492766182910351e-05, ,0.09949196761863435,-0.1421060076186052,0.10328449833000002,3.6649608322225165,1.2887554657876343,-0.11183319226860272, ,0.06347621508927812,0.03829577948283728,0.02129520256684492,0.3286988168819792,0.0,0.3181056942971775, ,1.0073089599609375
0.013291967693590818,0.02023954924341842,-0.08772281456256717, ,0.013835583100905382,0.019908118461406877,-0.08805153714486806, ,0.0007165351425081171, ,0.009596287520503764,-0.0017011664579367385,-0.018860434177893293,-3.7687409860953126e-05,-0.0021570747631809283,0.04595143874487567, ,0.021229665067363422, ,0.0021568508041450423, ,7.580736157332677e-05, ,0.10061948661827114,-0.1414495753242961,0.10364875582000001,3.670832150640084,1.2886188292878689,-0.10584090507478577, ,0.06558185318484504,0.03791328068656444,0.019307650327272732,0.24381834336448363,0.0017221515194355424,0.2916784857698546, ,1.0123920440673828
0.013291967693590818,0.02023954924341842,-0.08772281456256717, ,0.013904405204424968,0.019893099670538084,-0.08817721271549595, ,0.0008376065261271422, ,0.009596287520503764,-0.0017011664579367385,-0.018860434177893293,-3.7687409860953126e-05,-0.0021570747631809283,0.04595143874487567, ,0.021229665067363422, ,0.0021568508041450423, ,7.689309901355304e-05, ,0.10061948661827114,-0.1414495753242961,0.10364875582000001,3.670832150640084,1.2886188292878689,-0.10584090507478577, ,0.06558185318484504,0.03791328068656444,0.019307650327272732,0.24381834336448363,0.0017221515194355424,0.2916784857698546, ,1.017287015914917
0.01338729669111572,0.020223170357329696,-0.08791556489022898, ,0.013973108547257116,0.019878134290333017,-0.08830251200057361, ,0.0007822745582776084, ,0.010010308950123229,-0.0018665414687588783,-0.019170733936274147,-0.0023016112431770404,-0.008954002784704963,-0.026134690905848544, ,0.0217073098744853, ,0.009244944067742398, ,7.78693738122025e-05, ,0.10129136437832867,-0.14105571594771066,0.10384579190000001,3.672929050074929,1.2886188292878689,-0.10330886413042834, ,0.06836955443693861,0.03937632429812066,0.01964095131935882,0.2582191430176271,0.001724588508880828,0.23359222887733042, ,1.0221641063690186
0.01338729669111572,0.020223170357329696,-0.08791556489022898, ,0.014041692772517348,0.019863222616651445,-0.08842743549077262, ,0.000905432559097634, ,0.010010308950123229,-0.0018665414687588783,-0.019170733936274147,-0.0023016112431770404,-0.008954002784704963,-0.026134690905848544, ,0.0217073098744853, ,0.009244944067742398, ,7.905216331512685e-05, ,0.10129136437832867,-0.14105571594771066,0.10384579190000001,3.672929050074929,1.2886188292878689,-0.10330886413042834, ,0.06836955443693861,0.03937632429812066,0.01964095131935882,0.2582191430176271,0.001724588508880828,0.23359222887733042, ,1.0271689891815186
0.013512587634552108,0.020193468113169726,-0.08813318306289768, ,0.014110157525468996,0.019848364944165604,-0.0885519836768502, ,0.0008072050086775484, ,0.013187894654463728,-0.0034093925118416323,-0.02200901602300006,-0.0055057787202634975,0.06086755962322637,-0.24628206520392704, ,0.02588322447102965, ,0.061116022854915686, ,8.005049697315166e-05, ,0.10204046946712844,-0.14061552017387988,0.1040661612,3.6777519187750727,1.288345556288338,-0.10022727241811591, ,0.07390727535706447,0.04407661010611741,0.022184974261838443,0.5785069657696084,-0.0390518678576674,0.33069415797359947, ,1.0319559574127197
0.013512587634552108,0.020193468113169726,-0.08813318306289768, ,0.014178502453520448,0.019833561566361606,-0.08867615704965019, ,0.0009315556981989333, ,0.013187894654463728,-0.0034093925118416323,-0.02200901602300006,-0.0055057787202634975,0.06086755962322637,-0.24628206520392704, ,0.02588322447102965, ,0.061116022854915686, ,8.12550339196316e-05, ,0.10204046946712844,-0.14061552017387988,0.1040661612,3.6777519187750727,1.288345556288338,-0.10022727241811591, ,0.07390727535706447,0.04407661010611741,0.022184974261838443,0.5785069657696084,-0.0390518678576674,0.33069415797359947, ,1.036858081817627
0.013640544678742096,0.020162288597918913,-0.08836578550426721, ,0.014246727206221721,0.019818812775540727,-0.08879995610010018, ,0.0008209366622742023, ,0.013100786985806358,-0.0028683451676031037,-0.02484667637042031,-0.05865653282400353,0.09072807797393062,-0.09995986309413578, ,0.028235002218954905, ,0.10803778739849111, ,8.22553312515472e-05, ,0.10275868362443133,-0.14019076986579754,0.10429430824000001,3.6832038573056702,1.2872524642902146,-0.09606877958292204, ,0.07549478246497278,0.043650847083013235,0.02454362329738059,0.5171959103849529,-0.09950012507227984,0.41816755400557803, ,1.046454906463623
0.013790742292765824,0.020135900219269053,-0.08868510337480001, ,0.01431483143526219,0.01980411886282088,-0.08892338131921311, ,0.0006644732323900617, ,0.011470467102892137,-0.001647674009385795,-0.026378650448041573,-0.013774162572430835,0.0025455444727260617,0.01965969947588795, ,0.028811796970333176, ,0.014006947530353425, ,8.297551614574622e-05, ,0.10368541156933826,-0.13963473309885335,0.10461449187,3.6878170360623295,1.2865692817913872,-0.09175446801797399, ,0.07367774965719781,0.04586609065175001,0.026816181010101015,0.2799661777526104,-0.011502513145508807,0.3022599859415166, ,1.053267002105713
0.013790742292765824,0.020135900219269053,-0.08868510337480001, ,0.014382814794467232,0.019789480118137973,-0.08904643319808508, ,0.0007753166933156112, ,0.011470467102892137,-0.001647674009385795,-0.026378650448041573,-0.013774162572430835,0.0025455444727260617,0.01965969947588795, ,0.028811796970333176, ,0.014006947530353425, ,8.402253618187013e-05, ,0.10368541156933826,-0.13963473309885335,0.10461449187,3.6878170360623295,1.2865692817913872,-0.09175446801797399, ,0.07367774965719781,0.04586609065175001,0.026816181010101015,0.2799661777526104,-0.011502513145508807,0.3022599859415166, ,1.0567290782928467
0.013790742292765824,0.020135900219269053,-0.08868510337480001, ,0.01445067693979538,0.01977489683024722,-0.08916911222789586, ,0.000894484072027242, ,0.011470467102892137,-0.001647674009385795,-0.026378650448041573,-0.013774162572430835,0.0025455444727260617,0.01965969947588795, ,0.028811796970333176, ,0.014006947530353425, ,8.52664385785542e-05, ,0.10368541156933826,-0.13963473309885335,0.10461449187,3.6878170360623295,1.2865692817913872,-0.09175446801797399, ,0.07367774965719781,0.04586609065175001,0.026816181010101015,0.2799661777526104,-0.011502513145508807,0.3022599859415166, ,1.0601799488067627
0.013892484793982446,0.02012241682696748,-0.08891990232307309, ,0.014518417529335454,0.01976036928672477,-0.08929141889990741, ,0.0008129543513906473, ,0.00873277666621746,-0.0009217043526851534,-0.020306184739992385,-0.007350983335738061,-0.054028353701281215,0.16298383589085919, ,0.022123563589767598, ,0.054526108490425274, ,8.636272095779232e-05, ,0.10441907119238959,-0.13918681459214835,0.10485430552000001,3.6892848656667216,1.2865692817913872,-0.08914074833347596, ,0.06931843795359444,0.04083345161724216,0.020986576442687747,0.0411483943325638,0.023471674104614162,0.20868720615318415, ,1.0637609958648682
0.013892484793982446,0.02012241682696748,-0.08891990232307309, ,0.01458603622330386,0.019745897773968776,-0.0894133537054641, ,0.0009307386578242146, ,0.00873277666621746,-0.0009217043526851534,-0.020306184739992385,-0.007350983335738061,-0.054028353701281215,0.16298383589085919, ,0.022123563589767598, ,0.054526108490425274, ,8.765185908008591e-05, ,0.10441907119238959,-0.13918681459214835,0.10485430552000001,3.6892848656667216,1.2865692817913872,-0.08914074833347596, ,0.06931843795359444,0.04083345161724216,0.020986576442687747,0.0411483943325638,0.023471674104614162,0.20868720615318415, ,1.0670371055603027
0.013892484793982446,0.02012241682696748,-0.08891990232307309, ,0.014653532684041279,0.01973148257720093,-0.08953491713599154, ,0.0010536919372912822, ,0.00873277666621746,-0.0009217043526851534,-0.020306184739992385,-0.007350983335738061,-0.054028353701281215,0.16298383589085919, ,0.022123563589767598, ,0.054526108490425274, ,8.914065267183356e-05, ,0.10441907119238959,-0.13918681459214835,0.10485430552000001,3.6892848656667216,1.2865692817913872,-0.08914074833347596, ,0.06931843795359444,0.04083345161724216,0.020986576442687747,0.0411483943325638,0.023471674104614162,0.20868720615318415, ,1.0703890323638916
0.01399689400290808,0.020100997759672647,-0.08912012640969648, ,0.014720906576009971,0.019717123980468047,-0.08965610968299616, ,0.0009791993431510675, ,0.010723087854744011,-0.0028482163333979245,-0.019575075740586895,-0.043922652436943925,-0.0028764973907768193,0.0222020940731425, ,0.022500678649145383, ,0.04401671001033507, ,9.049355476272444e-05, ,0.10521451267843472,-0.13870028242107219,0.10506171192000001,3.690752695271113,1.2868425547909181,-0.0869949006767925, ,0.07734062066705036,0.050156945855428535,0.01968950744128554,0.22594440771113952,-0.03290741853196938,0.25218381095507153, ,1.0738201141357422
0.01399689400290808,0.020100997759672647,-0.08912012640969648, ,0.014788157565790914,0.019702822266643022,-0.08977693183806466, ,0.0011027398242238902, ,0.010723087854744011,-0.0028482163333979245,-0.019575075740586895,-0.043922652436943925,-0.0028764973907768193,0.0222020940731425, ,0.022500678649145383, ,0.04401671001033507, ,9.20453270096915e-05, ,0.10521451267843472,-0.13870028242107219,0.10506171192000001,3.690752695271113,1.2868425547909181,-0.0869949006767925, ,0.07734062066705036,0.050156945855428535,0.01968950744128554,0.22594440771113952,-0.03290741853196938,0.25218381095507153, ,1.077059030532837
0.01399689400290808,0.020100997759672647,-0.08912012640969648, ,0.01485528532208067,0.019688577717426593,-0.08989738409286363, ,0.001229249955915991, ,0.010723087854744011,-0.0028482163333979245,-0.019575075740586895,-0.043922652436943925,-0.0028764973907768193,0.0222020940731425, ,0.022500678649145383, ,0.04401671001033507, ,9.379894999945093e-05, ,0.10521451267843472,-0.13870028242107219,0.10506171192000001,3.690752695271113,1.2868425547909181,-0.0869949006767925, ,0.07734062066705036,0.050156945855428535,0.01968950744128554,0.22594440771113952,-0.03290741853196938,0.25218381095507153, ,1.0802600383758545
0.014145930476664306,0.020053064245574743,-0.0893447896157247, ,0.014922289515688834,0.019674390613348598,-0.09001746693913842, ,0.00109481590171749, ,0.01995393534297854,-0.006359079091561196,-0.03031585505789934,-0.025639687984166645,0.18463914482841273,-0.638422916505925, ,0.03684628190816625, ,0.18641078776846184, ,9.531603695884655e-05, ,0.10600223143160561,-0.13820602751712183,0.1052846738,3.6980918432930716,1.2860227357923255,-0.0834676373496942, ,0.09231219995960192,0.056926779579166635,0.029941375037593993,1.142140968766771,-0.12956287393068558,0.4979417952142071, ,1.0834789276123047
0.014145930476664306,0.020053064245574743,-0.0893447896157247, ,0.01498916981953466,0.019660261233769342,-0.09013718086871288, ,0.001221978188536928, ,0.01995393534297854,-0.006359079091561196,-0.03031585505789934,-0.025639687984166645,0.18463914482841273,-0.638422916505925, ,0.03684628190816625, ,0.18641078776846184, ,9.703494714987862e-05, ,0.10600223143160561,-0.13820602751712183,0.1052846738,3.6980918432930716,1.2860227357923255,-0.0834676373496942, ,0.09231219995960192,0.056926779579166635,0.029941375037593993,1.142140968766771,-0.12956287393068558,0.4979417952142071, ,1.0869929790496826
0.014335851876492955,0.020000086837931752,-0.08966586082929168, ,0.015055925908644503,0.01964618985688102,-0.09025652637348883, ,0.0009963109304215862, ,0.01904902559497333,-0.0043685032998742965,-0.03599305181521966,-0.08528627473024045,0.2256695792825301,-0.14457825120035464, ,0.0409566719372076, ,0.24124768861704993, ,9.836757345572883e-05, ,0.10688262297926722,-0.137696327147423,0.10559837598,3.708576340467298,1.2842464612953748,-0.07711848019320694, ,0.09331066033281296,0.05118497387188284,0.03516293933774835,0.9393620217053721,-0.2011375114616803,0.7945979022629651, ,1.0924708843231201
0.014335851876492955,0.020000086837931752,-0.08966586082929168, ,0.01512255746014869,0.019632176759709085,-0.09037550394544538, ,0.0011215421763434777, ,0.01904902559497333,-0.0043685032998742965,-0.03599305181521966,-0.08528627473024045,0.2256695792825301,-0.14457825120035464, ,0.0409566719372076, ,0.24124768861704993, ,9.989871092167588e-05, ,0.10688262297926722,-0.137696327147423,0.10559837598,3.708576340467298,1.2842464612953748,-0.07711848019320694, ,0.09331066033281296,0.05118497387188284,0.03516293933774835,0.9393620217053721,-0.2011375114616803,0.7945979022629651, ,1.0962920188903809
0.014335851876492955,0.020000086837931752,-0.08966586082929168, ,0.0151890641532788,0.019618222218113792,-0.09049411407663857, ,0.0012489176189274759, ,0.01904902559497333,-0.0043685032998742965,-0.03599305181521966,-0.08528627473024045,0.2256695792825301,-0.14457825120035464, ,0.0409566719372076, ,0.24124768861704993, ,0.00010162993236900942, ,0.10688262297926722,-0.137696327147423,0.10559837598,3.708576340467298,1.2842464612953748,-0.07711848019320694, ,0.09331066033281296,0.05118497387188284,0.03516293933774835,0.9393620217053721,-0.2011375114616803,0.7945979022629651, ,1.099703073501587
0.014515696653049285,0.019976368049518602,-0.090064027559991, ,0.015255445669364591,0.019604326506791187,-0.09061235725919957, ,0.0009931308955463097, ,0.014002337949408153,-0.0002357864329720176,-0.03713163393672836,-0.04426968849642158,0.007438314658293137,0.5100209904726704, ,0.03968474898626179, ,0.044889455980718355, ,0.00010292906235389148, ,0.10795608284878443,-0.1371248449147304,0.1059976333,3.714028278997896,1.2831533692972512,-0.06912108657140686, ,0.09957706354509001,0.05242924947981811,0.03774599886255925,0.12363156148447006,-0.04205344359730604,0.6424137975494775, ,1.1033051013946533
0.014515696653049285,0.019976368049518602,-0.090064027559991, ,0.015321701691831072,0.019590489899274973,-0.09073023398533622, ,0.001114619697721304, ,0.014002337949408153,-0.0002357864329720176,-0.03713163393672836,-0.04426968849642158,0.007438314658293137,0.5100209904726704, ,0.03968474898626179, ,0.044889455980718355, ,0.00010441883542440545, ,0.10795608284878443,-0.1371248449147304,0.1059976333,3.714028278997896,1.2831533692972512,-0.06912108657140686, ,0.09957706354509001,0.05242924947981811,0.03774599886255925,0.12363156148447006,-0.04205344359730604,0.6424137975494775, ,1.1066250801086426
0.014515696653049285,0.019976368049518602,-0.090064027559991, ,0.015387831906195703,0.019576712667937635,-0.09084774474733026, ,0.0012387723574322901, ,0.014002337949408153,-0.0002357864329720176,-0.03713163393672836,-0.04426968849642158,0.007438314658293137,0.5100209904726704, ,0.03968474898626179, ,0.044889455980718355, ,0.00010610173523908434, ,0.10795608284878443,-0.1371248449147304,0.1059976333,3.714028278997896,1.2831533692972512,-0.06912108657140686, ,0.09957706354509001,0.05242924947981811,0.03774599886255925,0.12363156148447006,-0.04205344359730604,0.6424137975494775, ,1.1098449230194092
0.014657194013081347,0.019973623316067123,-0.09045288596015741, ,0.015453836000065434,0.0195629950839919,-0.09096489003753856, ,0.0010321832083782917, ,0.01567567682766784,-0.001260524129868457,-0.04036960182127549,0.038060818237888455,-0.02350906115654733,0.2249280452026531, ,0.04332459481975327, ,0.04473471383900265, ,0.00010743720712491515, ,0.10891370172518826,-0.13656880814778624,0.10639818691000001,3.715496108602287,1.2834266422967822,-0.06346305308867917, ,0.09683361383517426,0.060443911820682025,0.0416984594764398,0.3093163551457367,0.047406757125698744,0.5388448941434982, ,1.113403081893921
0.014657194013081347,0.019973623316067123,-0.09045288596015741, ,0.015519713663133724,0.019549337417492055,-0.09108167034839096, ,0.001148620249404636, ,0.01567567682766784,-0.001260524129868457,-0.04036960182127549,0.038060818237888455,-0.02350906115654733,0.2249280452026531, ,0.04332459481975327, ,0.04473471383900265, ,0.00010913018768146756, ,0.10891370172518826,-0.13656880814778624,0.10639818691000001,3.715496108602287,1.2834266422967822,-0.06346305308867917, ,0.09683361383517426,0.060443911820682025,0.0416984594764398,0.3093163551457367,0.047406757125698744,0.5388448941434982, ,1.115067958831787
0.014657194013081347,0.019973623316067123,-0.09045288596015741, ,0.01558546458717771,0.019535739937335563,-0.09119808617239061, ,0.0012683656682577666, ,0.01567567682766784,-0.001260524129868457,-0.04036960182127549,0.038060818237888455,-0.02350906115654733,0.2249280452026531, ,0.04332459481975327, ,0.04473471383900265, ,0.00011101206346162388, ,0.10891370172518826,-0.13656880814778624,0.10639818691000001,3.715496108602287,1.2834266422967822,-0.06346305308867917, ,0.09683361383517426,0.060443911820682025,0.0416984594764398,0.3093163551457367,0.047406757125698744,0.5388448941434982, ,1.116692066192627
0.014657194013081347,0.019973623316067123,-0.09045288596015741, ,0.01565108846605521,0.01952220291126411,-0.09131413800211319, ,0.001390453755181281, ,0.01567567682766784,-0.001260524129868457,-0.04036960182127549,0.038060818237888455,-0.02350906115654733,0.2249280452026531, ,0.04332459481975327, ,0.04473471383900265, ,0.00011308571288094261, ,0.10891370172518826,-0.13656880814778624,0.10639818691000001,3.715496108602287,1.2834266422967822,-0.06346305308867917, ,0.09683361383517426,0.060443911820682025,0.0416984594764398,0.3093163551457367,0.047406757125698744,0.5388448941434982, ,1.118351936340332
0.014657194013081347,0.019973623316067123,-0.09045288596015741, ,0.015716584995701933,0.019508726605865258,-0.09142982633020588, ,0.0015142161971940387, ,0.01567567682766784,-0.001260524129868457,-0.04036960182127549,0.038060818237888455,-0.02350906115654733,0.2249280452026531, ,0.04332459481975327, ,0.04473471383900265, ,0.00011535291431186994, ,0.10891370172518826,-0.13656880814778624,0.10639818691000001,3.715496108602287,1.2834266422967822,-0.06346305308867917, ,0.09683361383517426,0.060443911820682025,0.0416984594764398,0.3093163551457367,0.047406757125698744,0.5388448941434982, ,1.1200220584869385
0.014842135086978488,0.019945649218929017,-0.09086816113026992, ,0.015781953874128375,0.019495311286573842,-0.09154515164938788, ,0.00124273077091276, ,0.020616001309393638,-0.0036693362743130432,-0.04313862856530507,0.07443634663411872,0.04878637371448907,-0.2957726088365533, ,0.04795231812100708, ,0.08899848631833679, ,0.00011717420325629787, ,0.10991765699883745,-0.13595098951784826,0.10682596261,3.721786806906823,1.283699915296313,-0.058131734566513715, ,0.10509074369708835,0.0629707641396621,0.044493886927374306,0.8301127659593541,0.02628367352225148,0.5316528146280888, ,1.122028112411499
0.014842135086978488,0.019945649218929017,-0.09086816113026992, ,0.01584719480141709,0.01948195721767322,-0.09166011445244814, ,0.0013610089515227733, ,0.020616001309393638,-0.0036693362743130432,-0.04313862856530507,0.07443634663411872,0.04878637371448907,-0.2957726088365533, ,0.04795231812100708, ,0.08899848631833679, ,0.0006539100952847005, ,0.10991765699883745,-0.13595098951784826,0.10682596261,3.721786806906823,1.283699915296313,-0.058131734566513715, ,0.10509074369708835,0.0629707641396621,0.044493886927374306,0.8301127659593541,0.02628367352225148,0.5316528146280888, ,1.1237239837646484
0.014842135086978488,0.019945649218929017,-0.09086816113026992, ,0.015912307479719626,0.019468664662296714,-0.09177471523224644, ,0.0014814261902847035, ,0.020616001309393638,-0.0036693362743130432,-0.04313862856530507,0.07443634663411872,0.04878637371448907,-0.2957726088365533, ,0.04795231812100708, ,0.08899848631833679, ,0.0006611690083987356, ,0.10991765699883745,-0.13595098951784826,0.10682596261,3.721786806906823,1.283699915296313,-0.058131734566513715, ,0.10509074369708835,0.0629707641396621,0.044493886927374306,0.8301127659593541,0.02628367352225148,0.5316528146280888, ,1.1253960132598877
0.014842135086978488,0.019945649218929017,-0.09086816113026992, ,0.01597729161325372,0.01945543388242905,-0.09188895448171108, ,0.0016034059004604857, ,0.020616001309393638,-0.0036693362743130432,-0.04313862856530507,0.07443634663411872,0.04878637371448907,-0.2957726088365533, ,0.04795231812100708, ,0.08899848631833679, ,0.0006693623726775334, ,0.10991765699883745,-0.13595098951784826,0.10682596261,3.721786806906823,1.283699915296313,-0.058131734566513715, ,0.10509074369708835,0.0629707641396621,0.044493886927374306,0.8301127659593541,0.02628367352225148,0.5316528146280888, ,1.1272480487823486
0.014842135086978488,0.019945649218929017,-0.09086816113026992, ,0.016042146908300317,0.019442265138907754,-0.09200283269384003, ,0.0017265293106419094, ,0.020616001309393638,-0.0036693362743130432,-0.04313862856530507,0.07443634663411872,0.04878637371448907,-0.2957726088365533, ,0.04795231812100708, ,0.08899848631833679, ,0.0006784758807634332, ,0.10991765699883745,-0.13595098951784826,0.10682596261,3.721786806906823,1.283699915296313,-0.058131734566513715, ,0.10509074369708835,0.0629707641396621,0.044493886927374306,0.8301127659593541,0.02628367352225148,0.5316528146280888, ,1.1289939880371094
0.014842135086978488,0.019945649218929017,-0.09086816113026992, ,0.016106873073200585,0.019429158691424454,-0.09211635036169909, ,0.001850486691724854, ,0.020616001309393638,-0.0036693362743130432,-0.04313862856530507,0.07443634663411872,0.04878637371448907,-0.2957726088365533, ,0.04795231812100708, ,0.08899848631833679, ,0.0006884930671819069, ,0.10991765699883745,-0.13595098951784826,0.10682596261,3.721786806906823,1.283699915296313,-0.058131734566513715, ,0.10509074369708835,0.0629707641396621,0.044493886927374306,0.8301127659593541,0.02628367352225148,0.5316528146280888, ,1.1321890354156494
0.015007013567396846,0.019913686715650154,-0.09120005910564306, ,0.01617146981835322,0.019416114798526406,-0.09222950797842151, ,0.0016319623631586581, ,0.023921419522453625,-0.004847155764793531,-0.047173608182946795,0.05629029244688044,0.10180714148612766,-0.47719568655297323, ,0.05311382625998226, ,0.11633167010386353, ,0.0006964885696901844, ,0.11073626668350524,-0.13547218007964634,0.10716688688,3.7289162649852967,1.283699915296313,-0.054047797559485744, ,0.11744670984959255,0.06744629819365372,0.048269125818181824,1.0678284399245068,-0.025606470523700582,0.5861149980820967, ,1.1349079608917236
0.015007013567396846,0.019913686715650154,-0.09120005910564306, ,0.016235936856211247,0.0194031337176178,-0.09234230603720799, ,0.0017537516546705539, ,0.023921419522453625,-0.004847155764793531,-0.047173608182946795,0.05629029244688044,0.10180714148612766,-0.47719568655297323, ,0.05311382625998226, ,0.11633167010386353, ,0.0007053731334295153, ,0.11073626668350524,-0.13547218007964634,0.10716688688,3.7289162649852967,1.283699915296313,-0.054047797559485744, ,0.11744670984959255,0.06744629819365372,0.048269125818181824,1.0678284399245068,-0.025606470523700582,0.5861149980820967, ,1.1366710662841797
0.015007013567396846,0.019913686715650154,-0.09120005910564306, ,0.01630027390127928,0.019390215704961206,-0.09245474503132517, ,0.0018763744195469563, ,0.023921419522453625,-0.004847155764793531,-0.047173608182946795,0.05629029244688044,0.10180714148612766,-0.47719568655297323, ,0.05311382625998226, ,0.11633167010386353, ,0.0007151314774804939, ,0.11073626668350524,-0.13547218007964634,0.10716688688,3.7289162649852967,1.283699915296313,-0.054047797559485744, ,0.11744670984959255,0.06744629819365372,0.048269125818181824,1.0678284399245068,-0.025606470523700582,0.5861149980820967, ,1.1383800506591797
0.015007013567396846,0.019913686715650154,-0.09120005910564306, ,0.016364480670110544,0.019377361015678874,-0.09256682545410555, ,0.0019996030712841695, ,0.023921419522453625,-0.004847155764793531,-0.047173608182946795,0.05629029244688044,0.10180714148612766,-0.47719568655297323, ,0.05311382625998226, ,0.11633167010386353, ,0.0007257469451978797, ,0.11073626668350524,-0.13547218007964634,0.10716688688,3.7289162649852967,1.283699915296313,-0.054047797559485744, ,0.11744670984959255,0.06744629819365372,0.048269125818181824,1.0678284399245068,-0.025606470523700582,0.5861149980820967, ,1.1400439739227295
0.015324520503201672,0.019854439004866067,-0.09182493891600703, ,0.016428556881304176,0.019364569903754177,-0.092678547798947, ,0.0021232624620260757, ,0.024662426204072864,-0.003588466372611371,-0.051881729791632025,0.026708128340669123,0.08313972253250311,-0.2500236013990995, ,0.05755715631744345, ,0.08732217176822651, ,0.0007372019904177829, ,0.11235031785421817,-0.1346072339977332,0.10780725414000002,3.7423364213683064,1.2832900057970167,-0.04628077849560541, ,0.13180130772009832,0.06725509678134002,0.053096038400000004,0.9037776308445581,-0.047074560113726585,0.6525497781375169, ,1.142214059829712
0.015324520503201672,0.019854439004866067,-0.09182493891600703, ,0.016492502255501806,0.01935184262203317,-0.09278991255931168, ,0.001596232636558801, ,0.024662426204072864,-0.003588466372611371,-0.051881729791632025,0.026708128340669123,0.08313972253250311,-0.2500236013990995, ,0.05755715631744345, ,0.08732217176822651, ,0.0007441859794107993, ,0.11235031785421817,-0.1346072339977332,0.10780725414000002,3.7423364213683064,1.2832900057970167,-0.04628077849560541, ,0.13180130772009832,0.06725509678134002,0.053096038400000004,0.9037776308445581,-0.047074560113726585,0.6525497781375169, ,1.1439309120178223
0.015324520503201672,0.019854439004866067,-0.09182493891600703, ,0.016556316515385004,0.019339179422225742,-0.09290092022872586, ,0.0017148030902857533, ,0.024662426204072864,-0.003588466372611371,-0.051881729791632025,0.026708128340669123,0.08313972253250311,-0.2500236013990995, ,0.05755715631744345, ,0.08732217176822651, ,0.000752013536756565, ,0.11235031785421817,-0.1346072339977332,0.10780725414000002,3.7423364213683064,1.2832900057970167,-0.04628077849560541, ,0.13180130772009832,0.06725509678134002,0.053096038400000004,0.9037776308445581,-0.047074560113726585,0.6525497781375169, ,1.1455700397491455
0.015324520503201672,0.019854439004866067,-0.09182493891600703, ,0.016619999385672487,0.019326580554907054,-0.09301157130077908, ,0.0018343926773487665, ,0.024662426204072864,-0.003588466372611371,-0.051881729791632025,0.026708128340669123,0.08313972253250311,-0.2500236013990995, ,0.05755715631744345, ,0.08732217176822651, ,0.0007606725698813026, ,0.11235031785421817,-0.1346072339977332,0.10780725414000002,3.7423364213683064,1.2832900057970167,-0.04628077849560541, ,0.13180130772009832,0.06725509678134002,0.053096038400000004,0.9037776308445581,-0.047074560113726585,0.6525497781375169, ,1.1472399234771729
0.015324520503201672,0.019854439004866067,-0.09182493891600703, ,0.016683550593116818,0.019314046269519138,-0.09312186626912367, ,0.001954739791627681, ,0.024662426204072864,-0.003588466372611371,-0.051881729791632025,0.026708128340669123,0.08313972253250311,-0.2500236013990995, ,0.05755715631744345, ,0.08732217176822651, ,0.0007701492938634167, ,0.11235031785421817,-0.1346072339977332,0.10780725414000002,3.7423364213683064,1.2832900057970167,-0.04628077849560541, ,0.13180130772009832,0.06725509678134002,0.053096038400000004,0.9037776308445581,-0.047074560113726585,0.6525497781375169, ,1.1489100456237793
0.015324520503201672,0.019854439004866067,-0.09182493891600703, ,0.01674696986650171,0.019301576814372036,-0.09323180562747359, ,0.0020756427285694603, ,0.024662426204072864,-0.003588466372611371,-0.051881729791632025,0.026708128340669123,0.08313972253250311,-0.2500236013990995, ,0.05755715631744345, ,0.08732217176822651, ,0.0007804287697272438, ,0.11235031785421817,-0.1346072339977332,0.10780725414000002,3.7423364213683064,1.2832900057970167,-0.04628077849560541, ,0.13180130772009832,0.06725509678134002,0.053096038400000004,0.9037776308445581,-0.047074560113726585,0.6525497781375169, ,1.1505661010742188
0.015324520503201672,0.019854439004866067,-0.09182493891600703, ,0.016810256936639168,0.019289172436645307,-0.09334138986960511, ,0.0021969439085830493, ,0.026929700529104532,-0.003368471232106776,-0.05919865159466256,-0.023486645584340618,0.07110533112172153,-0.10128502631200562, ,0.0651232348678644, ,0.07487899300503924, ,0.0007914952942495548, ,0.11386397349756618,-0.13383496071031076,0.10839965867000001,3.7507240191076874,1.2826068232981895,-0.03902603228559709, ,0.1545552794111902,0.07914674024893309,0.06033640727272729,0.7952685264005664,-0.08414342314689316,0.6968091733751791, ,1.1524310111999512
0.015592077240187172,0.019819796478545496,-0.09240500275837818, ,0.016873411536366317,0.019276833382389485,-0.09345061948935446, ,0.0017406725282056207, ,0.026929700529104532,-0.003368471232106776,-0.05919865159466256,-0.023486645584340618,0.07110533112172153,-0.10128502631200562, ,0.0651232348678644, ,0.07487899300503924, ,0.0007988532573034778, ,0.11386397349756618,-0.13383496071031076,0.10839965867000001,3.7507240191076874,1.2826068232981895,-0.03902603228559709, ,0.1545552794111902,0.07914674024893309,0.06033640727272729,0.7952685264005664,-0.08414342314689316,0.6968091733751791, ,1.1542160511016846
0.015592077240187172,0.019819796478545496,-0.09240500275837818, ,0.016936433400542805,0.019264559896527405,-0.09355949498061886, ,0.0018569958102029982, ,0.026929700529104532,-0.003368471232106776,-0.05919865159466256,-0.023486645584340618,0.07110533112172153,-0.10128502631200562, ,0.0651232348678644, ,0.07487899300503924, ,0.0008069928154027049, ,0.11386397349756618,-0.13383496071031076,0.10839965867000001,3.7507240191076874,1.2826068232981895,-0.03902603228559709, ,0.1545552794111902,0.07914674024893309,0.06033640727272729,0.7952685264005664,-0.08414342314689316,0.6968091733751791, ,1.1559278964996338
0.015592077240187172,0.019819796478545496,-0.09240500275837818, ,0.016999322266047612,0.019252352222855523,-0.09366801683735484, ,0.0019742178476089643, ,0.026929700529104532,-0.003368471232106776,-0.05919865159466256,-0.023486645584340618,0.07110533112172153,-0.10128502631200562, ,0.0651232348678644, ,0.07487899300503924, ,0.000815902930152371, ,0.11386397349756618,-0.13383496071031076,0.10839965867000001,3.7507240191076874,1.2826068232981895,-0.03902603228559709, ,0.1545552794111902,0.07914674024893309,0.06033640727272729,0.7952685264005664,-0.08414342314689316,0.6968091733751791, ,1.1575989723205566
0.015592077240187172,0.019819796478545496,-0.09240500275837818, ,0.017062077871776188,0.019240210604045637,-0.09377618555357793, ,0.0020921194757096634, ,0.026929700529104532,-0.003368471232106776,-0.05919865159466256,-0.023486645584340618,0.07110533112172153,-0.10128502631200562, ,0.0651232348678644, ,0.07487899300503924, ,0.0008255712373156838, ,0.11386397349756618,-0.13383496071031076,0.10839965867000001,3.7507240191076874,1.2826068232981895,-0.03902603228559709, ,0.1545552794111902,0.07914674024893309,0.06033640727272729,0.7952685264005664,-0.08414342314689316,0.6968091733751791, ,1.1592390537261963
0.015592077240187172,0.019819796478545496,-0.09240500275837818, ,0.017124699958637846,0.019228135281645638,-0.09388400162336188, ,0.0022105277676725066, ,0.026929700529104532,-0.003368471232106776,-0.05919865159466256,-0.023486645584340618,0.07110533112172153,-0.10128502631200562, ,0.0651232348678644, ,0.07487899300503924, ,0.000835984444310848, ,0.11386397349756618,-0.13383496071031076,0.10839965867000001,3.7507240191076874,1.2826068232981895,-0.03902603228559709, ,0.1545552794111902,0.07914674024893309,0.06033640727272729,0.7952685264005664,-0.08414342314689316,0.6968091733751791, ,1.1608619689941406
0.01588200928914809,0.019781847249942086,-0.0930346417695377, ,0.0171871882695522,0.019216126496081676,-0.0939914655408388, ,0.0017143639845621944, ,0.030267321145584385,-0.00429992119216838,-0.0655404258282667,0.00980795641843632,0.10078443279713574,-0.3390476633368164, ,0.07231975849890075, ,0.10125457307826129, ,0.0008425395155067535, ,0.11546257920253064,-0.1330317964913914,0.10904132222000001,3.760160066564491,1.2816503677998314,-0.03187516522875822, ,0.1602988877676871,0.08266284107880731,0.06692777949579834,1.0594860302375968,-0.08060513813114072,0.7198023703401262, ,1.162532091140747
0.01588200928914809,0.019781847249942086,-0.0930346417695377, ,0.01724954254944698,0.019204184486659115,-0.09409857780019751, ,0.0018264176311686173, ,0.030267321145584385,-0.00429992119216838,-0.0655404258282667,0.00980795641843632,0.10078443279713574,-0.3390476633368164, ,0.07231975849890075, ,0.10125457307826129, ,0.0008498275015486932, ,0.11546257920253064,-0.1330317964913914,0.10904132222000001,3.760160066564491,1.2816503677998314,-0.03187516522875822, ,0.1602988877676871,0.08266284107880731,0.06692777949579834,1.0594860302375968,-0.08060513813114072,0.7198023703401262, ,1.1641950607299805
0.01588200928914809,0.019781847249942086,-0.0930346417695377, ,0.01731176254525454,0.01919230949156381,-0.0942053388956833, ,0.0019396599967690885, ,0.030267321145584385,-0.00429992119216838,-0.0655404258282667,0.00980795641843632,0.10078443279713574,-0.3390476633368164, ,0.07231975849890075, ,0.10125457307826129, ,0.000857840975778255, ,0.11546257920253064,-0.1330317964913914,0.10904132222000001,3.760160066564491,1.2816503677998314,-0.03187516522875822, ,0.1602988877676871,0.08266284107880731,0.06692777949579834,1.0594860302375968,-0.08060513813114072,0.7198023703401262, ,1.1658439636230469
0.01588200928914809,0.019781847249942086,-0.0930346417695377, ,0.017373848005909187,0.019180501747864044,-0.09431174932159794, ,0.0020538263970516593, ,0.030267321145584385,-0.00429992119216838,-0.0655404258282667,0.00980795641843632,0.10078443279713574,-0.3390476633368164, ,0.07231975849890075, ,0.10125457307826129, ,0.0008665707963714915, ,0.11546257920253064,-0.1330317964913914,0.10904132222000001,3.760160066564491,1.2816503677998314,-0.03187516522875822, ,0.1602988877676871,0.08266284107880731,0.06692777949579834,1.0594860302375968,-0.08060513813114072,0.7198023703401262, ,1.1675889492034912
0.01588200928914809,0.019781847249942086,-0.0930346417695377, ,0.017435798682344246,0.019168761491511296,-0.0944178095722978, ,0.0021687067105055345, ,0.030267321145584385,-0.00429992119216838,-0.0655404258282667,0.00980795641843632,0.10078443279713574,-0.3390476633368164, ,0.07231975849890075, ,0.10125457307826129, ,0.0008760065638652165, ,0.11546257920253064,-0.1330317964913914,0.10904132222000001,3.760160066564491,1.2816503677998314,-0.03187516522875822, ,0.1602988877676871,0.08266284107880731,0.06692777949579834,1.0594860302375968,-0.08060513813114072,0.7198023703401262, ,1.1693570613861084
0.01588200928914809,0.019781847249942086,-0.0930346417695377, ,0.017497614327489197,0.019157088957342052,-0.09452352014219462, ,0.002284132520816424, ,0.030267321145584385,-0.00429992119216838,-0.0655404258282667,0.00980795641843632,0.10078443279713574,-0.3390476633368164, ,0.07231975849890075, ,0.10125457307826129, ,0.0008861369664332108, ,0.11546257920253064,-0.1330317964913914,0.10904132222000001,3.760160066564491,1.2816503677998314,-0.03187516522875822, ,0.1602988877676871,0.08266284107880731,0.06692777949579834,1.0594860302375968,-0.08060513813114072,0.7198023703401262, ,1.1713500022888184
0.016172435836744985,0.01973371374885477,-0.09364873242276538, ,0.0175592946962666,0.019145484379079085,-0.09462888152575381, ,0.0017972433201404118, ,0.032168749048438756,-0.005812504533106683,-0.06638369757306765,0.032449215531546935,0.07979016463001995,-0.41596232329773, ,0.07399600616088226, ,0.08612858293964469, ,0.0008926448689596909, ,0.11699940304450132,-0.13219774134097514,0.10967002287000001,3.7704348737952325,1.2811038218007695,-0.025303588103430252, ,0.17191474920012823,0.09480213941905173,0.06807184410256412,1.1291279691226273,-0.05097731623119445,0.7123642914807952, ,1.1739931106567383
0.016172435836744985,0.01973371374885477,-0.09364873242276538, ,0.01762083954558924,0.0191339479893328,-0.09473389421749422, ,0.001906611756710808, ,0.032168749048438756,-0.005812504533106683,-0.06638369757306765,0.032449215531546935,0.07979016463001995,-0.41596232329773, ,0.07399600616088226, ,0.08612858293964469, ,0.0008998361234827484, ,0.11699940304450132,-0.13219774134097514,0.10967002287000001,3.7704348737952325,1.2811038218007695,-0.025303588103430252, ,0.17191474920012823,0.09480213941905173,0.06807184410256412,1.1291279691226273,-0.05097731623119445,0.7123642914807952, ,1.1757309436798096
0.016172435836744985,0.01973371374885477,-0.09364873242276538, ,0.017682248634357262,0.01912248001960272,-0.09483855871198792, ,0.0020171335984843094, ,0.032168749048438756,-0.005812504533106683,-0.06638369757306765,0.032449215531546935,0.07979016463001995,-0.41596232329773, ,0.07399600616088226, ,0.08612858293964469, ,0.0009077044155602243, ,0.11699940304450132,-0.13219774134097514,0.10967002287000001,3.7704348737952325,1.2811038218007695,-0.025303588103430252, ,0.17191474920012823,0.09480213941905173,0.06807184410256412,1.1291279691226273,-0.05097731623119445,0.7123642914807952, ,1.1776490211486816
0.016172435836744985,0.01973371374885477,-0.09364873242276538, ,0.01774352172345526,0.01911108070027886,-0.09494287550385891, ,0.0021285650309401873, ,0.032168749048438756,-0.005812504533106683,-0.06638369757306765,0.032449215531546935,0.07979016463001995,-0.41596232329773, ,0.07399600616088226, ,0.08612858293964469, ,0.0009162419023810632, ,0.11699940304450132,-0.13219774134097514,0.10967002287000001,3.7704348737952325,1.2811038218007695,-0.025303588103430252, ,0.17191474920012823,0.09480213941905173,0.06807184410256412,1.1291279691226273,-0.05097731623119445,0.7123642914807952, ,1.1795690059661865
0.016172435836744985,0.01973371374885477,-0.09364873242276538, ,0.017804658575749116,0.019099750260643065,-0.09504684508778269, ,0.0022407096639657513, ,0.032168749048438756,-0.005812504533106683,-0.06638369757306765,0.032449215531546935,0.07979016463001995,-0.41596232329773, ,0.07399600616088226, ,0.08612858293964469, ,0.0009254395951698458, ,0.11699940304450132,-0.13219774134097514,0.10967002287000001,3.7704348737952325,1.2811038218007695,-0.025303588103430252, ,0.17191474920012823,0.09480213941905173,0.06807184410256412,1.1291279691226273,-0.05097731623119445,0.7123642914807952, ,1.1812739372253418
0.016475200844909034,0.019684432377532715,-0.09428193536015568, ,0.017865658956083583,0.019088488928870363,-0.09515046795848586, ,0.0017443827639875517, ,0.03091244863036027,-0.004504613299942083,-0.06574719418098228,0.02035387327110039,0.016428198250547383,-0.24559723805620853, ,0.07279123961012388, ,0.02613306954605963, ,0.0009310874790927266, ,0.11866751334533382,-0.1313019043275651,0.11032205674000001,3.7800806111955203,1.2808305488012388,-0.01903652552563606, ,0.17671683716661224,0.09303621721418705,0.06778217668085108,0.8661075716093565,-0.027314277050168246,0.622653898018966, ,1.1829149723052979
0.016475200844909034,0.019684432377532715,-0.09428193536015568, ,0.017926522631278755,0.01907729693203075,-0.09525374461074594, ,0.0018491515882450176, ,0.03091244863036027,-0.004504613299942083,-0.06574719418098228,0.02035387327110039,0.016428198250547383,-0.24559723805620853, ,0.07279123961012388, ,0.02613306954605963, ,0.0009373755894293862, ,0.11866751334533382,-0.1313019043275651,0.11032205674000001,3.7800806111955203,1.2808305488012388,-0.01903652552563606, ,0.17671683716661224,0.09303621721418705,0.06778217668085108,0.8661075716093565,-0.027314277050168246,0.622653898018966, ,1.1847069263458252
0.016475200844909034,0.019684432377532715,-0.09428193536015568, ,0.017987249370127592,0.01906617449609,-0.09535667553938931, ,0.0019554027726892457, ,0.03091244863036027,-0.004504613299942083,-0.06574719418098228,0.02035387327110039,0.016428198250547383,-0.24559723805620853, ,0.07279123961012388, ,0.02613306954605963, ,0.0009443009444175484, ,0.11866751334533382,-0.1313019043275651,0.11032205674000001,3.7800806111955203,1.2808305488012388,-0.01903652552563606, ,0.17671683716661224,0.09303621721418705,0.06778217668085108,0.8661075716093565,-0.027314277050168246,0.622653898018966, ,1.1865270137786865
0.016475200844909034,0.019684432377532715,-0.09428193536015568, ,0.018047838943392815,0.0190551218459114,-0.09545926123929169, ,0.002062842349695089, ,0.03091244863036027,-0.004504613299942083,-0.06574719418098228,0.02035387327110039,0.016428198250547383,-0.24559723805620853, ,0.07279123961012388, ,0.02613306954605963, ,0.0009518586566153697, ,0.11866751334533382,-0.1313019043275651,0.11032205674000001,3.7800806111955203,1.2808305488012388,-0.01903652552563606, ,0.17671683716661224,0.09303621721418705,0.06778217668085108,0.8661075716093565,-0.027314277050168246,0.622653898018966, ,1.1882309913635254
0.016475200844909034,0.019684432377532715,-0.09428193536015568, ,0.01810829112380406,0.019044139205257226,-0.09556150220537782, ,0.0021712324879836742, ,0.03091244863036027,-0.004504613299942083,-0.06574719418098228,0.02035387327110039,0.016428198250547383,-0.24559723805620853, ,0.07279123961012388, ,0.02613306954605963, ,0.0009600423736044187, ,0.11866751334533382,-0.1313019043275651,0.11032205674000001,3.7800806111955203,1.2808305488012388,-0.01903652552563606, ,0.17671683716661224,0.09303621721418705,0.06778217668085108,0.8661075716093565,-0.027314277050168246,0.622653898018966, ,1.189910888671875
0.016475200844909034,0.019684432377532715,-0.09428193536015568, ,0.018168605686054846,0.0190332267967899,-0.09566339893261971, ,0.002280379412828433, ,0.03091244863036027,-0.004504613299942083,-0.06574719418098228,0.02035387327110039,0.016428198250547383,-0.24559723805620853, ,0.07279123961012388, ,0.02613306954605963, ,0.0009688446205325788, ,0.11866751334533382,-0.1313019043275651,0.11032205674000001,3.7800806111955203,1.2808305488012388,-0.01903652552563606, ,0.17671683716661224,0.09303621721418705,0.06778217668085108,0.8661075716093565,-0.027314277050168246,0.622653898018966, ,1.1915628910064697
0.01678745113496833,0.01964839243578229,-0.09494227433125428, ,0.01822878240679978,0.019022384842073622,-0.09576495191603718, ,0.001773730461779467, ,0.028556775507868608,-0.0033544114374718867,-0.0580245816270707,-0.025750526407446832,-0.07810174429981308,0.1509166965184085, ,0.0647579614911961, ,0.0822332920665171, ,0.000974174990342161, ,0.12065225569400952,-0.13031339451966437,0.11100649786000001,3.7859519296130877,1.2806939123014733,-0.0127992021113974, ,0.1932727933981075,0.09470752650545987,0.06033640727272729,0.39806427090032986,-0.010729393580315306,0.5580387272546325, ,1.194122076034546
0.01678745113496833,0.01964839243578229,-0.09494227433125428, ,0.018288821064651534,0.019011613561575477,-0.0958661616506963, ,0.0018743443598812873, ,0.028556775507868608,-0.0033544114374718867,-0.0580245816270707,-0.025750526407446832,-0.07810174429981308,0.1509166965184085, ,0.0647579614911961, ,0.0822332920665171, ,0.0009800971572470236, ,0.12065225569400952,-0.13031339451966437,0.11100649786000001,3.7859519296130877,1.2806939123014733,-0.0127992021113974, ,0.1932727933981075,0.09470752650545987,0.06033640727272729,0.39806427090032986,-0.010729393580315306,0.5580387272546325, ,1.195796012878418
0.01678745113496833,0.01964839243578229,-0.09494227433125428, ,0.018348721440178073,0.01900091317466721,-0.09596702863170917, ,0.0019765919497469974, ,0.028556775507868608,-0.0033544114374718867,-0.0580245816270707,-0.025750526407446832,-0.07810174429981308,0.1509166965184085, ,0.0647579614911961, ,0.0822332920665171, ,0.0009866101951065006, ,0.12065225569400952,-0.13031339451966437,0.11100649786000001,3.7859519296130877,1.2806939123014733,-0.0127992021113974, ,0.1932727933981075,0.09470752650545987,0.06033640727272729,0.39806427090032986,-0.010729393580315306,0.5580387272546325, ,1.197448968887329
0.01678745113496833,0.01964839243578229,-0.09494227433125428, ,0.01840848331589948,0.018990283899626266,-0.09606755335423356, ,0.0020801694778390107, ,0.028556775507868608,-0.0033544114374718867,-0.0580245816270707,-0.025750526407446832,-0.07810174429981308,0.1509166965184085, ,0.0647579614911961, ,0.0822332920665171, ,0.0009937112294099585, ,0.12065225569400952,-0.13031339451966437,0.11100649786000001,3.7859519296130877,1.2806939123014733,-0.0127992021113974, ,0.1932727933981075,0.09470752650545987,0.06033640727272729,0.39806427090032986,-0.010729393580315306,0.5580387272546325, ,1.1990900039672852
0.01678745113496833,0.01964839243578229,-0.09494227433125428, ,0.018468106476285277,0.0189797259536375,-0.09616773631347182, ,0.0021848282107528754, ,0.028556775507868608,-0.0033544114374718867,-0.0580245816270707,-0.025750526407446832,-0.07810174429981308,0.1509166965184085, ,0.0647579614911961, ,0.0822332920665171, ,0.001001395855096042, ,0.12065225569400952,-0.13031339451966437,0.11100649786000001,3.7859519296130877,1.2806939123014733,-0.0127992021113974, ,0.1932727933981075,0.09470752650545987,0.06033640727272729,0.39806427090032986,-0.010729393580315306,0.5580387272546325, ,1.2007780075073242
0.01713740627919603,0.0195808737406785,-0.09557726690035453, ,0.018527590707751482,0.01896923955279423,-0.09626757800467042, ,0.0016683040927626853, ,0.03680807269632295,-0.008434397168355208,-0.06191445530293429,0.03532870763351197,-0.010832998691613804,-0.7892123304853469, ,0.07252153505456432, ,0.036939973113743085, ,0.0010056709079015974, ,0.12283778909741505,-0.12920132098577605,0.11166501318000001,3.794549217295953,1.280284002802177,-0.008054296432717711, ,0.2151858085226095,0.10895171246667139,0.06448911546558705,1.1722793564776322,-0.023887540524561476,0.3808804525060589, ,1.202491044998169
0.01713740627919603,0.0195808737406785,-0.09557726690035453, ,0.018586935798657413,0.018958824912100023,-0.09636707892311955, ,0.0017640531750006774, ,0.03680807269632295,-0.008434397168355208,-0.06191445530293429,0.03532870763351197,-0.010832998691613804,-0.7892123304853469, ,0.07252153505456432, ,0.036939973113743085, ,0.0010105013682015914, ,0.12283778909741505,-0.12920132098577605,0.11166501318000001,3.794549217295953,1.280284002802177,-0.008054296432717711, ,0.2151858085226095,0.10895171246667139,0.06448911546558705,1.1722793564776322,-0.023887540524561476,0.3808804525060589, ,1.2042770385742188
0.01713740627919603,0.0195808737406785,-0.09557726690035453, ,0.018646141539303267,0.018948482245469713,-0.09646623956415223, ,0.0018618467942564012, ,0.03680807269632295,-0.008434397168355208,-0.06191445530293429,0.03532870763351197,-0.010832998691613804,-0.7892123304853469, ,0.07252153505456432, ,0.036939973113743085, ,0.0010158896303918117, ,0.12283778909741505,-0.12920132098577605,0.11166501318000001,3.794549217295953,1.280284002802177,-0.008054296432717711, ,0.2151858085226095,0.10895171246667139,0.06448911546558705,1.1722793564776322,-0.023887540524561476,0.3808804525060589, ,1.2059059143066406
0.01713740627919603,0.0195808737406785,-0.09557726690035453, ,0.018705207721926524,0.01893821176573128,-0.09656506042314354, ,0.0019613137998634486, ,0.03680807269632295,-0.008434397168355208,-0.06191445530293429,0.03532870763351197,-0.010832998691613804,-0.7892123304853469, ,0.07252153505456432, ,0.036939973113743085, ,0.001021835694350753, ,0.12283778909741505,-0.12920132098577605,0.11166501318000001,3.794549217295953,1.280284002802177,-0.008054296432717711, ,0.2151858085226095,0.10895171246667139,0.06448911546558705,1.1722793564776322,-0.023887540524561476,0.3808804525060589, ,1.207556962966919
0.01713740627919603,0.0195808737406785,-0.09557726690035453, ,0.01876413414069978,0.018928013684626606,-0.09666354199551062, ,0.002062150181373079, ,0.03680807269632295,-0.008434397168355208,-0.06191445530293429,0.03532870763351197,-0.010832998691613804,-0.7892123304853469, ,0.07252153505456432, ,0.036939973113743085, ,0.0010283376598946424, ,0.12283778909741505,-0.12920132098577605,0.11166501318000001,3.794549217295953,1.280284002802177,-0.008054296432717711, ,0.2151858085226095,0.10895171246667139,0.06448911546558705,1.1722793564776322,-0.023887540524561476,0.3808804525060589, ,1.2091569900512695
0.01713740627919603,0.0195808737406785,-0.09557726690035453, ,0.01882292059172726,0.0189178882128134,-0.09676168477671143, ,0.0021641058231380416, ,0.03680807269632295,-0.008434397168355208,-0.06191445530293429,0.03532870763351197,-0.010832998691613804,-0.7892123304853469, ,0.07252153505456432, ,0.036939973113743085, ,0.0010353921205359057, ,0.12283778909741505,-0.12920132098577605,0.11166501318000001,3.794549217295953,1.280284002802177,-0.008054296432717711, ,0.2151858085226095,0.10895171246667139,0.06448911546558705,1.1722793564776322,-0.023887540524561476,0.3808804525060589, ,1.2107670307159424
0.01751408206213369,0.01948878341394659,-0.09617514686670314, ,0.018881566873042047,0.0189078355598665,-0.09685948926224446, ,0.001635799386098597, ,0.03771095119241645,-0.009640933641108018,-0.057396337961683426,-0.006862316021757325,0.009256709717471598,-0.9190502158334237, ,0.06934985978876125, ,0.01149587544562933, ,0.0010390983382245643, ,0.1250233225008206,-0.12813558384913307,0.11228723238,3.8073403038485085,1.2797374568031152,-0.004831547653152746, ,0.22594509894873996,0.10958076392433115,0.05965847011235956,1.2159839667474448,-0.08148293744371327,0.2947746148851747, ,1.2124431133270264
0.01751408206213369,0.01948878341394659,-0.09617514686670314, ,0.018940072784603253,0.018897855934279076,-0.09695695594764765, ,0.0017302804009300815, ,0.03771095119241645,-0.009640933641108018,-0.057396337961683426,-0.006862316021757325,0.009256709717471598,-0.9190502158334237, ,0.06934985978876125, ,0.01149587544562933, ,0.001043338718977359, ,0.1250233225008206,-0.12813558384913307,0.11228723238,3.8073403038485085,1.2797374568031152,-0.004831547653152746, ,0.22594509894873996,0.10958076392433115,0.05965847011235956,1.2159839667474448,-0.08148293744371327,0.2947746148851747, ,1.2140998840332031
