NicholasDascanio/dvrk_moveit_final/test/execution/third_experiment_notsharpbends/thirdexp_700vel5.0/thirdexp_700vel5.0_14.csv
Current Position (x),Current Position (y),Current Position (z), ,Planned Position (x),Planned Position (y),Planned Position (z), ,Position Error,,Cartesian linear Velocity(x),Cartesian linear Velocity(y),Cartesian linear Velocity(z),Cartesian Angular Velocity(x),Cartesian Angular Velocity(y),Cartesian Angular Velocity(z), ,Total Linear Velocity, ,Total Angular Velocity, ,MSE, ,Joint 1 Position,Joint 2 Position,Joint 3 Position,Joint 4 Position,Joint 5 Position,Joint 6 Position, ,Joint 1 Velocity,Joint 2 Velocity,Joint 3 Velocity,Joint 4 Velocity,Joint 5 Velocity,Joint 6 Velocity, ,Time Stamp
0.0075220841946509204,0.021053584592845332,-0.08055092476194915, ,0.007630990864909639,0.020923005852706626,-0.08051081644524377, ,0.00017470016391518453, ,-1.7536414494214806e-05,1.16218898737963e-05,1.400009442749359e-06,0.0017409761052369337,0.0002492800985762828,-0.00990252049660452, ,2.1084453609030126e-05, ,0.00175873203375391, ,1.4558346992932045e-05, ,0.12085304674873935,-0.15226912408108464,0.09653990146000001,2.8847045525166015,1.3279701412203158,-0.7180933525577686, ,-0.0004839967164217812,-7.33914157871487e-05,0.0,0.002563595666457501,0.0,-0.007546205585865939, ,0.01702713966369629
0.007548306731247016,0.02106104462899664,-0.08055868691839846, ,0.007712114842731633,0.0209171426045794,-0.08056994325588279, ,0.00021832909827390794, ,0.0018636989725348782,0.000524016461020364,-0.0005521653770367424,0.06138440337643203,0.007766029690189899,-0.3969407825729804, ,0.002013170066150894, ,0.06187371166359248, ,1.7864966463140566e-05, ,0.12087621494736203,-0.15226140134821042,0.09655286436,2.8874305217819,1.328106777720081,-0.7209001688861038, ,0.0023809939650819394,0.00014151819439961192,0.0008369741077516194,0.18608469903970104,0.0,-0.21866413046780675, ,0.03658008575439453
0.007570881160454722,0.02106048680425068,-0.0805862321873699, ,0.007793071494863364,0.020911244339812323,-0.08062906096404583, ,0.00027106486678987876, ,0.0013039561814122943,-0.0002825630844174122,-0.001660892941569685,-0.14422979822353663,-0.04742516332359814,-0.12153732168387192, ,0.0021304246015934982, ,0.15182681190046576, ,2.075294153059285e-05, ,0.1209920559404754,-0.15220734221809087,0.09656971613000001,2.888478971499323,1.3267404127224267,-0.7237882481160269, ,0.00821005920284177,0.0035011935993493107,0.0002547291846371975,0.03975707970165466,-0.1630526591831508,-0.058064182426954325, ,0.05296516418457031
0.007608281401808916,0.02106322316539172,-0.08060590368327572, ,0.007873860854982859,0.020905311478951808,-0.08068816983816327, ,0.0003197440646868197, ,0.003393608144083738,0.00030775436284073113,-0.0018325249622195795,-0.1118793700439583,0.010505560745965564,-0.12029301581889393, ,0.0038690356318592943, ,0.11237152774613086, ,2.3424718896804548e-05, ,0.12110017420071453,-0.15216100582084552,0.09657879016000001,2.8914146307081063,1.3251007747252415,-0.7232680206730756, ,0.011619161962764813,0.0039403471707893075,0.001163531432548072,0.2506077636731937,-0.11642445621151867,0.14699636050653886, ,0.0699000358581543
0.007646076917620842,0.021065068923488778,-0.08063090048235406, ,0.007954482957469543,0.020899344441523922,-0.08074727014534691, ,0.0003689455079042802, ,0.0019391706169269688,0.00013690639932055775,-0.002636495972207571,0.006141040146065598,-0.0037632961839334997,0.013182794299570618, ,0.0032757040548856953, ,0.007202414325502787, ,2.601507118403983e-05, ,0.12132413345406705,-0.1520915012249775,0.09660341967000001,2.893301840199467,1.3246908652259453,-0.72056508349791, ,0.01644091156591663,0.004766940673472242,0.0029014228633879786,0.03310431948605556,0.015615386792537876,0.04473155248802119, ,0.0881960391998291
0.007720331918884731,0.02106548138428812,-0.08067781576670632, ,0.008034937837403888,0.020893343646035862,-0.0808063621513937, ,0.0003809625413529252, ,0.0037870964693593016,-0.00021575833874381352,-0.0024661757339390876,-0.21767912452781615,-0.0046826733349966815,0.1849394370331111, ,0.00452445290390354, ,0.21772948510632995, ,2.7963649079403167e-05, ,0.12182611109089164,-0.15193704656749302,0.09664878982000001,2.896447189351735,1.3238710462273524,-0.7241438705630407, ,0.023724235389617696,0.007747061282057777,0.0012429775860208043,0.16898408967167408,-0.1680037819019896,0.38539523330649916, ,0.10853004455566406
0.007791673956234944,0.021066409834174536,-0.08072875839442761, ,0.008115225530566842,0.020887309509976644,-0.0808654461207877, ,0.0003942665112813053, ,0.002897676980780819,2.2985146331068896e-05,-0.002852888128274694,0.1134512289622305,0.015375580445961108,0.14948645994988902, ,0.004066451877786038, ,0.1144883829342597, ,2.9555732697281967e-05, ,0.12240531605645848,-0.1517748691771343,0.09670971545000001,2.89854408878658,1.3244175922264143,-0.7142980209201155, ,0.0321793630242356,0.009319288188235117,0.004348569893529894,0.0,0.1522623123213164,0.1296952064928168, ,0.12662315368652344
0.00787117236322504,0.02106819356285719,-0.0807925121409267, ,0.008195346073438992,0.020881242449818142,-0.08092452231670218, ,0.0003968198578305923, ,0.0038494343284233962,-3.613451377415945e-05,-0.003512370139019462,0.0019181666739446646,-0.01567967733490838,-0.098174182077469, ,0.005211160556479312, ,0.015796570646229056, ,3.079064161018163e-05, ,0.12302313468639645,-0.15157407812240445,0.09678878914000001,2.9010603681083946,1.3255106842245379,-0.7139641830475784, ,0.031103553444270987,0.01002144318064781,0.003756795169811321,0.1009308743722218,0.0,0.0021175874635877383, ,0.14444899559020996
0.007916684400578328,0.021064756597801135,-0.08083433215367988, ,0.008275299503200188,0.02087514288101619,-0.08098359100100169, ,0.0004322457135997118, ,0.004220332781594678,-0.0004790987970408776,-0.0035523208601811436,-0.010383648550293622,-0.03336850507574999,-0.03541465236572292, ,0.005537122712962644, ,0.03494677792931275, ,3.214215571341963e-05, ,0.12347105319310146,-0.15144279166354263,0.09683156671000001,2.9014797479953636,1.3253740477247724,-0.7139344438840227, ,0.04124160867382476,0.013558642885908098,0.0036863715621383948,0.04603543273366847,0.0,-0.004990775692452924, ,0.16094207763671875
0.008033065710011862,0.02106556885582357,-0.08090899418706747, ,0.0083550858577289,0.02086901121801122,-0.08104265243424413, ,0.00040024543414811386, ,0.005640646515514816,-7.391637437837058e-05,-0.003764947002070582,-0.039291198073541686,-0.014410926741029813,-0.1047894570309832, ,0.00678212228375388, ,0.04185060399603738, ,3.291493882139921e-05, ,0.12424332648052391,-0.15118794147869322,0.09690934411,2.906512306638992,1.3246908652259453,-0.7126422457042755, ,0.042842863006081616,0.01247494959359416,0.0038671550182083035,0.18991269176458636,-0.035343432848428356,0.09037173196388659, ,0.1773240566253662
0.00809008177956138,0.021061381038869592,-0.08095780795017327, ,0.00843470517560148,0.02086284787422941,-0.08110170687568323, ,0.00042295106492734965, ,0.004447446371918953,-0.0004749118993192846,-0.004747546925778134,-0.04838311790723622,-0.031205283459649066,0.06442923159683835, ,0.00652261622017389, ,0.05757339499986727, ,3.375245379205419e-05, ,0.12514688622680817,-0.15087130943085003,0.09699878812000001,2.908399516130353,1.3245542287261796,-0.7104888592970648, ,0.04145781632086971,0.015229809269534711,0.003487806332384498,0.09009691111909661,-0.013073388390232577,0.10948002549008137, ,0.19501900672912598
0.008194364986116675,0.02105262346856816,-0.0810258828038692, ,0.008514157496091692,0.020856653262083708,-0.08116075458327075, ,0.00039857492162028997, ,0.005371124729585753,-0.00040391255896493096,-0.002870362733035437,-0.024743832554227282,-0.004368951289258353,-0.057613509851167054, ,0.0061033686137456815, ,0.02512657924677984, ,3.425286677319966e-05, ,0.12561025019926164,-0.15070140930761708,0.09703378795,2.910496415565198,1.3245542287261796,-0.709181999454816, ,0.04147593599583513,0.015159255840011309,0.0031220720344962765,0.18479845551281682,-0.009622318268801295,0.12969282311291633, ,0.21149897575378418
0.008299070469099388,0.021044301912367013,-0.08110036824168425, ,0.008593442859169863,0.020850427792974642,-0.08121979581365822, ,0.00037216289867955676, ,0.005352334782423524,-0.0004343638488047972,-0.003961887287080829,-0.020398251791478448,-0.019219291668481152,-0.053839952984658025, ,0.006673283333698777, ,0.028026234984574117, ,3.474055454206042e-05, ,0.126482919014049,-0.15038477725977387,0.09711415793000001,2.9132223848304966,1.3245542287261796,-0.7068133159907396, ,0.04495354881973983,0.01621338485536832,0.004202852643799473,0.1329442390944589,-0.00649709652912765,0.08127765296188315, ,0.22681498527526855
0.008299070469099388,0.021044301912367013,-0.08110036824168425, ,0.008672561305502376,0.020844171877291272,-0.0812788308221991, ,0.00045977856459434815, ,0.00458448769471005,-0.0005717378949904072,-0.003440747028592684,-0.02353888234619018,-0.022567323421705004,-0.013546565247674195, ,0.005760481903303343, ,0.03260924819810138, ,3.57913657828876e-05, ,0.12721657863710034,-0.150114481609176,0.0971828613,2.9155289742088266,1.3242809557266486,-0.7050385841206762, ,0.04120579312135075,0.015638915879774357,0.0036013591498982593,0.08683816713114155,-0.005408211237432229,0.07601581702212679, ,0.24429702758789062
0.008437030579234797,0.021026330938007425,-0.0811989567373578, ,0.008751512876450963,0.020837885924412294,-0.08133785986295146, ,0.00039205193114039523, ,0.0034094722483522994,-0.0009401359099195759,-0.002161330801909663,-0.029385275383196224,-0.03423794419307767,0.04953790543653348, ,0.004144841055660428, ,0.04511907835791214, ,3.626069221976281e-05, ,0.12769538807530226,-0.14992913602019464,0.09721526855000001,2.9159483540957956,1.3242809557266486,-0.7043851541995516, ,0.03814185753957829,0.015579862347475092,0.0021227094243070365,0.0,-0.0046523897748936074,0.057943105946921106, ,0.2594461441040039
0.008560357348303085,0.02102188948727418,-0.08126821738462862, ,0.008830297614071968,0.02083157034270676,-0.08139688318867964, ,0.00042730800831216616, ,0.00673234463822167,9.026143220053828e-05,-0.0049133814783900494,-0.07179041727126625,0.008008437566265042,-0.10976256437789444, ,0.008335102219296495, ,0.07223571887488733, ,3.6899690816815346e-05, ,0.12852944322571852,-0.1496047812394772,0.09728915708000001,2.9214002926263936,1.3235977732278217,-0.7017860961775555, ,0.041934132372280504,0.014293860755907632,0.004937635313081216,0.30093908535262837,-0.06171786990353425,0.20106544759867387, ,0.2742791175842285
0.008606188380392628,0.021021549360901778,-0.08131139997027068, ,0.008908915561115737,0.020825225539535162,-0.08145590105085589, ,0.0003886738363652051, ,0.00494179222946826,-0.00013061679251908428,-0.005100847861972062,0.007538615770196166,-0.009171571444246438,0.005162049128770148, ,0.007103310502625223, ,0.011872171117131253, ,3.723847296659898e-05, ,0.12886152073931018,-0.14948894024636383,0.09733323094000002,2.922868122230785,1.3233245002282907,-0.7003380792680542, ,0.04102764442648974,0.014653635200505062,0.005664584466571835,0.10516227809211692,0.029219383730547558,0.10780636496165488, ,0.2902641296386719
0.008695032050185597,0.021014589999386293,-0.08142422203884933, ,0.00898736676102584,0.020818851921250537,-0.08151491369966353, ,0.0003633152291544701, ,0.003850097057618348,-0.0006001296025742223,-0.004240225137515484,-0.017769820457339897,-0.021295136372451368,0.05885519538736121, ,0.00575872486838758, ,0.027735344793903136, ,3.7398523946457384e-05, ,0.12967240769110375,-0.14917230819852062,0.09744989704000001,2.923706882004723,1.3233245002282907,-0.697969395803978, ,0.036753269387479,0.01624113324635817,0.004451875774175518,0.03089254199855129,0.011337138029789974,0.09136382216876418, ,0.3051280975341797
0.008755301803572056,0.021013604135491193,-0.08146085422928198, ,0.00906565125793835,0.020812449893199057,-0.0815739213839976, ,0.0003867350443043232, ,0.006641426364823026,8.610772955501772e-05,-0.0034022218898210636,0.014625284969581522,0.032616986607713325,-0.2168561252928253, ,0.007462645140165323, ,0.03574586375167589, ,3.7669595993950394e-05, ,0.13001993067044385,-0.14902557627391036,0.09749008203000001,2.926642541213506,1.3233245002282907,-0.6967442147018695, ,0.03656914896280184,0.014790670442405047,0.004084310646153846,0.3644512058752243,0.008907237693247166,0.1407263536332125, ,0.319566011428833
0.008839189160105777,0.021011505088595152,-0.08151793317647002, ,0.009143769096681336,0.02080601985972113,-0.08163292435146885, ,0.00038498842499144385, ,0.004430554391868617,-0.0003372758510471294,-0.004160840288696744,-0.033412318290244845,-0.008375481413034293,0.1191454832629359, ,0.006087377031780425, ,0.03444606945910668, ,3.790651383439313e-05, ,0.13060685836888491,-0.14880161702055786,0.09755489653,2.929997580309259,1.3233245002282907,-0.6939671375370905, ,0.03916506048636846,0.013928803986271948,0.004466856848008975,0.07459518751300821,0.006609294099863346,0.19716601343897117, ,0.33873605728149414
0.008901962634919247,0.021003758096607407,-0.08158417790199339, ,0.009221720322773746,0.020799562224152503,-0.08169192284840354, ,0.00039439815763591166, ,0.0034790841569849024,-0.0006629703632698579,-0.0037349256790010187,-0.04135840220573525,-0.02242307351345833,0.14149236410504243, ,0.005147157089269642, ,0.047045846342419345, ,3.8168777544375265e-05, ,0.13120923153307443,-0.14857765776720533,0.09762359990000001,2.9304169601962275,1.3234611367280562,-0.691219799535867, ,0.03609621208005735,0.01489981811249345,0.0038391929428778023,0.0,0.0,0.1479418863589494, ,0.3547041416168213
0.009008708628940083,0.02099589087085489,-0.08164276466000331, ,0.009299504982424999,0.020793077388825135,-0.08175091711984717, ,0.0003706653237941684, ,0.004691380445026151,-0.0004524530779374575,-0.003056954275005236,-0.013635538958662171,0.004240959756352474,-0.05962329288729867, ,0.005617716057899476, ,0.014279834105522235, ,3.829682625142617e-05, ,0.1319274456903773,-0.14825330298648792,0.09769100698000001,2.9350301389528872,1.3234611367280562,-0.6885244011112285, ,0.033088194406719236,0.015397848703305336,0.003348499373554762,0.17732901014233823,0.0,0.11874600016885346, ,0.3723781108856201
0.009086058332839209,0.020985063718417456,-0.08171743311038301, ,0.009377123122534163,0.020786565755067876,-0.08180990740956587, ,0.00036424119654901606, ,0.0034469140485027324,-0.0005934020943427677,-0.0037757241463757998,-0.035995981420262155,-0.024099621771204154,0.11677277028972236, ,0.005146788837018781, ,0.04331861548059439, ,3.838537720294735e-05, ,0.1326533825805544,-0.14795983913726737,0.09777008067000001,2.9358688987268255,1.3235977732278217,-0.6861854568107081, ,0.03548875899718429,0.014176417920297398,0.0038793988114953727,0.0,0.0,0.12119641804389038, ,0.38767099380493164
0.009134753377477756,0.020980881959416643,-0.08175190439530079, ,0.009454574790689013,0.02078002772320773,-0.08186889396004814, ,0.0003953665625862719, ,0.006414862134950712,-0.00018477709147504944,-0.003277731010047395,0.002273365397313541,0.024311571711232997,-0.19070621470922278, ,0.007206116801591875, ,0.02441763110790645, ,3.860232575842451e-05, ,0.13300862829276874,-0.1478053844797829,0.09780767308,2.9375464182747018,1.3235977732278217,-0.6848785969684591, ,0.03733160564849362,0.01619125431811479,0.003821691823416507,0.33023154245241587,0.0,0.1380923347050816, ,0.4022359848022461
0.009194720262337572,0.02097986526335601,-0.0817842709107631, ,0.009531860035165625,0.02077346369257072,-0.08192787701250766, ,0.0004205800129624053, ,0.006104594344849898,-0.00013993255813660524,-0.00379493984597981,-0.008101425447340448,0.023517933685841402,-0.12119869676306176, ,0.007189382565325431, ,0.024874209501878828, ,3.907191150168085e-05, ,0.13370367425144894,-0.14751192063056237,0.09788933935000001,2.942369286974846,1.3235977732278217,-0.6816114473628366, ,0.035568568800026526,0.01496325158600927,0.004453120357841768,0.08101527060378715,0.0,0.19281494464182133, ,0.41601109504699707
0.009281272146842351,0.020973356913480925,-0.08186319688001213, ,0.009608978904927207,0.02076687406148272,-0.08198685680688426, ,0.00040659398049875295, ,0.004223045139914309,-0.0003878604922306235,-0.004842039178734224,-0.04206084487389248,-0.010057750561520837,0.13042373397673904, ,0.006436605427054267, ,0.043246653225444256, ,3.9454101292271525e-05, ,0.13402030629929215,-0.14738063417170055,0.09792952434,2.9429983568052993,1.3235977732278217,-0.6798961938198848, ,0.036881827267186466,0.014930292882075327,0.005055160748968582,0.057831217017538454,0.0,0.19317667433792535, ,0.43096303939819336
0.009349148302314546,0.020971363662710275,-0.08193109473515385, ,0.009685931449623545,0.020760259227270646,-0.08204583358184694, ,0.00041370638611713546, ,0.0055423604350702095,-3.007238399496291e-05,-0.005453320754048928,-0.018322930255043553,0.008587594050624682,-0.03562638557294504, ,0.007775433800570329, ,0.020235526676779348, ,3.984021773234618e-05, ,0.1345068384703683,-0.14717984311697072,0.09800341287000001,2.945095256240145,1.3237344097275872,-0.6777206069996456, ,0.03668223485058786,0.014979785565662315,0.0058843042186922795,0.20068688315637975,0.0,0.1666151064426128, ,0.44450902938842773
0.009416376462232715,0.020969602254715905,-0.08198958648923141, ,0.009762717719590325,0.02075361958626298,-0.08210480757479488, ,0.0004241187076497827, ,0.005113168480687024,-0.0003109700621736352,-0.004196485023525976,-0.014242741122761401,-8.15767281414654e-05,-0.03876365853660515, ,0.006622060166152021, ,0.014242974694603663, ,4.024249622773173e-05, ,0.13497792517569598,-0.14699449752798932,0.09806822737000001,2.9474018456184745,1.3238710462273524,-0.6757083776596873, ,0.03711260913510785,0.015303490011041896,0.004571989529276694,0.16639020686742292,0.0020868827611477086,0.12877144019686704, ,0.45751309394836426
0.009515242170154753,0.020963216739665294,-0.08207111841662197, ,0.009839337765847962,0.020746955533791207,-0.08216377902186012, ,0.0004004907640345148, ,0.005571093765037157,-0.0002960590922197106,-0.004790369597266479,-0.031105751631791866,0.0024607104787173536,-0.027179597072282898, ,0.007353392251426335, ,0.03120293060140683, ,4.053342509518602e-05, ,0.1356806938672504,-0.14668558821302033,0.09815896767000001,2.9507568847142265,1.3241443192268834,-0.6733174937825821, ,0.039052239324473575,0.016288524126067763,0.0050972196864,0.18945602140183698,-0.010717693342764307,0.16593223490294315, ,0.4714820384979248
0.009602734791413974,0.02095976870242889,-0.08215019502035624, ,0.009915791640101266,0.020740267464190325,-0.08222274815790946, ,0.0003891649288760455, ,0.00520703917732415,-0.00025140614232242297,-0.005268307444371857,-0.038904191322276675,-0.0038560933227494085,0.03311201031375859, ,0.007411580490759709, ,0.039094827715385236, ,4.076686944092184e-05, ,0.13631395796293683,-0.14643846076104516,0.09824452281000001,2.9534828539795255,1.3241443192268834,-0.6706220953579435, ,0.039100511560968595,0.015437927697815322,0.005534680861709522,0.13900227821465438,-0.010717693342764307,0.1768973805966376, ,0.4876370429992676
0.009657647835280449,0.02095487053609999,-0.0822064843625612, ,0.009992079394738253,0.02073355577080002,-0.08228171521654586, ,0.0004080249682218255, ,0.004766036155914991,-0.000559627630534754,-0.0046250102846600175,-0.017981425719023943,-0.005556500359053335,0.03167243209627719, ,0.0066647583495245966, ,0.01882037101155826, ,4.1053198156636704e-05, ,0.1367464310038934,-0.14625311517206377,0.09830285586000001,2.9547409936404327,1.324007682727118,-0.6687137451711549, ,0.037792489668845394,0.017831067560779925,0.004976198537956889,0.11165029835038216,0.011100020039806563,0.14480673962271942, ,0.500784158706665
0.00971252617238952,0.02095088798927173,-0.08224682009527445, ,0.01006820108282946,0.02072682084596569,-0.08234068043011084, ,0.0004307208946422093, ,0.0057662094691473395,-0.0003301401138298709,-0.003936824633971738,0.0028511941354081166,0.002598890992094524,-0.08298491009647409, ,0.006989760534917541, ,0.0038579193149839036, ,4.140114138585138e-05, ,0.13714029038047884,-0.14608321504883082,0.0983495223,2.9566282031317934,1.3242809557266486,-0.667548042396158, ,0.041116525805229974,0.016005556005813926,0.004500935721955355,0.20458569162905924,0.013099992379788181,0.12013845120091449, ,0.5140621662139893
0.009830952877665921,0.020941429925827797,-0.08232757324209512, ,0.010144156758127297,0.020720063081039013,-0.0823996440296866, ,0.0003902488297636016, ,0.005671879429426369,-0.00043346248957447635,-0.0038388461392352656,-0.010934520053392483,0.0027277565441219754,-0.019958845238861718, ,0.006862568445745339, ,0.011269622164400838, ,4.159663707683413e-05, ,0.13839137310610322,-0.14558123741200624,0.09848044759,2.9618704517189065,1.3244175922264143,-0.6630037721118426, ,0.03773238232941184,0.015877018831934212,0.004103248717156105,0.07147077518041102,0.0005895118888290434,0.15786565587871446, ,0.5365171432495117
0.009919136290705866,0.02092934127720856,-0.08240093631632647, ,0.010219946475064929,0.020713282866379273,-0.08245860624509747, ,0.00037482505864557946, ,0.0036997340251212966,-0.0007939089156773703,-0.003606274389056448,-0.016128630895960092,-0.02529583568672482,0.09826282497605482, ,0.005227192190095626, ,0.030000200616961712, ,4.1732288567256414e-05, ,0.13878523248268868,-0.14541133728877328,0.09852192887000001,2.962080141662391,1.3248275017257105,-0.661949487240542, ,0.03823406186884399,0.016555642281659243,0.003887920800585795,0.0,0.018809670424037125,0.09962234050008832, ,0.5501401424407959
0.00997104743161542,0.02092229618442734,-0.0824355539583752, ,0.010295570288755556,0.02070648059135424,-0.0825175673049119, ,0.0003982683065849476, ,0.005957827221358055,-0.00040965402472728724,-0.002905034326207978,0.035803967491067595,0.01632671226651807,-0.15520971230846672, ,0.006640989840074817, ,0.03935080204173987, ,4.193483573092589e-05, ,0.13919453732502257,-0.14522599169979192,0.09856211386000001,2.9635479712667827,1.3251007747252415,-0.6608654632056862, ,0.03852900591086918,0.016748489509084148,0.003715608005598321,0.2661849815133576,0.035732082655660476,0.10437513502330234, ,0.5661940574645996
0.010079207814234799,0.02091297310173751,-0.0824958852337636, ,0.010371028254991792,0.02069965664434074,-0.08257652743644478, ,0.0003703596164448629, ,0.004184242436145377,-0.0007349198365049971,-0.0035281543331247517,-0.04910856414804967,-0.020322667503870174,0.11886693340241214, ,0.0055223061241545905, ,0.05314754826527075, ,4.204183245054999e-05, ,0.139966810612445,-0.14491708238482293,0.09863211352000001,2.9675320801929885,1.325237411225007,-0.6579547677241816, ,0.03993979021821161,0.01576885037528594,0.0036467059340659345,0.037800873296193964,-0.009553031925744254,0.16311118634648586, ,0.5803971290588379
0.010125471334094284,0.020905667566271907,-0.08253614991808397, ,0.010446320430244444,0.020692811412726164,-0.08263548686575947, ,0.0003976426961181969, ,0.004299570659182489,-0.0007213686519066771,-0.0037507219872232947,-0.034412131705468224,-0.015256272588396055,0.08039682545680554, ,0.005751051730831228, ,0.03764237852558795, ,4.235219241740989e-05, ,0.14038383818765313,-0.14474718226158997,0.09867359480000001,2.968161150023442,1.3251007747252415,-0.6562097750176741, ,0.03841981439614202,0.016674915051567523,0.003963376840009953,0.06190080324316976,0.0,0.14649740637698772, ,0.5919580459594727
0.010182705527953393,0.020901279732578857,-0.08257321144513755, ,0.010521446871661868,0.02068594528290898,-0.08269444581766834, ,0.0004192998881886173, ,0.006286081558992164,-0.00023082075836084858,-0.004024052734809954,-0.002578984941601796,0.02098531833126347,-0.13811764937013316, ,0.00746733553560593, ,0.021143196251709708, ,4.271347047995915e-05, ,0.14076225209849014,-0.14457728213835705,0.09871637237000001,2.970467739401772,1.325237411225007,-0.6549326543389808, ,0.037083603578925664,0.016029888776768714,0.0045930829065743955,0.2960142901579829,0.0006235979115122427,0.1574032048832084, ,0.6042900085449219
0.010240105641120146,0.02089969272527225,-0.082616080764518, ,0.010596407637069183,0.020679058640299657,-0.08275340451573669, ,0.0004410083042503099, ,0.005591317237477808,-0.000265519724686259,-0.004884015831077349,-0.021391704303688017,0.011114298685826252,-0.012461493456503306, ,0.007428791275337335, ,0.02410669296098501, ,4.312273275918277e-05, ,0.14110977507783024,-0.1444305502137468,0.0987643351,2.972984018723586,1.325237411225007,-0.653217400796029, ,0.037040180155531136,0.016008255998392507,0.005339863064029502,0.20296096687147225,0.000946087863104658,0.19257524987692104, ,0.6198580265045166
0.010335310133585273,0.020894466249422122,-0.08272272854691946, ,0.01067120278496725,0.02067215186932209,-0.08281236318228312, ,0.0004126523048626429, ,0.0039309642065459855,-0.0002292056837757833,-0.004640392768225132,0.028639625807691898,-0.006417798285089131,0.1299661584347237, ,0.006085906660639558, ,0.029349894362348982, ,4.343570783135329e-05, ,0.14186660289950423,-0.1441216408987778,0.09888359378000001,2.974871228214947,1.325920593723834,-0.6496088745673423, ,0.03619257877897437,0.013403522818993048,0.005487017402686876,0.027931135053390423,0.06715816588474785,0.15149319068838368, ,0.6312711238861084
0.010384371333979885,0.020891567965031003,-0.08276349153950599, ,0.010745832374531918,0.02066522535341391,-0.08287132203838204, ,0.0004399005321188671, ,0.006227886570719128,-0.0001340285138717685,-0.004067511235308545,0.06749609659590533,0.022716106295699715,-0.14360499844860772, ,0.007439703114347748, ,0.07121618172724462, ,4.381202521999427e-05, ,0.1422295713445928,-0.14396718624129332,0.09893414909,2.976339057819339,1.3266037762226612,-0.6484507105428726, ,0.03882853582588821,0.01604886547581106,0.005244916536055319,0.272656626495018,0.06809379081022983,0.11714915201145613, ,0.6424009799957275
0.010459337865845929,0.020891090227790052,-0.08281471251510393, ,0.010820296465613107,0.020658279475027772,-0.08293028130386562, ,0.00044480119411200526, ,0.006800237485751067,-0.00016205180206443383,-0.005223550140452286,-0.010950834188315167,0.03072198961967444,-0.10707336611051438, ,0.008576419224768891, ,0.03261535545908457, ,4.4187343202527e-05, ,0.14259253978968134,-0.1438127315838088,0.09898729698000001,2.979694096915091,1.3268770492221922,-0.6467949353270328, ,0.03744946391415579,0.017316960138407077,0.005794402153510367,0.3529684966490186,0.0,0.22210535455270786, ,0.6562240123748779
0.010553134785470476,0.020885565227740828,-0.08290871745993689, ,0.010894595118733818,0.020651314615632316,-0.08298924119732495, ,0.000421844261248707, ,0.004258911022842756,-0.0003781029926944431,-0.0049074955322572665,-0.031046793519614327,-0.01512930222957743,0.11226410942200159, ,0.006508824576887985, ,0.03453692474666844, ,4.448743082607639e-05, ,0.14310224015938017,-0.14360421779620475,0.0990624818,2.98242006618039,1.3267404127224267,-0.6436614040381354, ,0.03865455867962149,0.014033857077561487,0.005553978912133891,0.08617234848695601,0.0,0.2243781888812743, ,0.6680500507354736
0.010576957273879448,0.02088230823314434,-0.08293476383471034, ,0.010968728395089526,0.020644331155713028,-0.08304820193611304, ,0.00047221383254495927, ,0.00412672238622298,-0.0007552005242300178,-0.004878925985817793,-0.023614956616710696,-0.02693474602018597,0.11292829276895272, ,0.006434600551692335, ,0.03582103734422725, ,4.490837799037593e-05, ,0.14356560413183364,-0.14341887220722338,0.09912470372000001,2.9826297561238744,1.3270136857219577,-0.6418422713420142, ,0.04057158681422436,0.0180515391969699,0.005178417269180755,0.0,0.015441957740478152,0.11542687517498063, ,0.6798181533813477
0.010704015214631138,0.020877890150637294,-0.08302154061703593, ,0.01104269635654713,0.020637329474772866,-0.08310716373634597, ,0.00042415288897077163, ,0.006599841845512825,-0.00024158660362805836,-0.004777276659060058,0.01382363004875581,0.017796532392629204,-0.10500184317230069, ,0.008150990660651912, ,0.02253462470152253, ,4.519062540178503e-05, ,0.14433015468638186,-0.14310224015938017,0.09922451805000002,2.988291384597957,1.3271503222217231,-0.6390132546006504, ,0.04117003972167929,0.01701576861367595,0.005575362800140008,0.27563207829776626,0.02201602863042298,0.167349410639151, ,0.6919240951538086
0.010758960266518278,0.020874483594070806,-0.08307291700274655, ,0.011116499065643957,0.020630309951333834,-0.08316612681290471, ,0.00044288015240852193, ,0.005200729626481801,-0.0004176812854063596,-0.005800675032897883,-0.020284109849691916,-0.007447360691382443,0.0888562326994285, ,0.00780191496629059, ,0.02160806069721503, ,4.5510185438643685e-05, ,0.1447162913300931,-0.14294006276902144,0.09928025852000001,2.9899689041458326,1.3271503222217231,-0.6371346435774177, ,0.04163972863469539,0.017393134449866343,0.006308440205940595,0.09483503984375685,0.017085975328782404,0.1853650565134023, ,0.7071261405944824
0.010812939787985953,0.02086848290834686,-0.08313990443090837, ,0.011190136585587047,0.020623272962937464,-0.08322509137943732, ,0.0004578888048946754, ,0.004349010166554271,-0.000669223285400267,-0.005453754307966321,-0.04605434935204329,-0.02397802069369967,0.17230669009009572, ,0.007007509206998984, ,0.05192252464781307, ,4.585588644813294e-05, ,0.145195100768295,-0.1427392717142916,0.09935155447,2.990388284032802,1.3272869587214886,-0.6351224142374592, ,0.041934132372280504,0.0176782678015035,0.005690893719185424,0.0,0.003546592142862333,0.17805405356820825, ,0.7185060977935791
0.010876569457284348,0.02086338666315253,-0.08318941714421227, ,0.011263608980252287,0.020616218886145787,-0.08328405764836067, ,0.0004688798645230644, ,0.006964846504542928,-0.00040882041776283545,-0.00448205305372693,0.007279840232570254,0.01578959256846097,-0.1433393588902308, ,0.008292467699198261, ,0.017386986670523723, ,4.621659049541619e-05, ,0.14564301927500004,-0.142546203392436,0.09940859123000001,2.992485183467647,1.3275602317210193,-0.6335483177617599, ,0.04329240034601769,0.018433749331482282,0.005207195658711998,0.29909593753584124,0.010452208482039024,0.1538007290759878, ,0.72977614402771
0.01095109218241743,0.020858430753100638,-0.08323595509688769, ,0.011336916314183161,0.020609148096542372,-0.08334302583086219, ,0.0004716632756399039, ,0.006453285596182865,-0.0006231363519449296,-0.004439473741048298,-0.0075832487038926906,0.005183754230819115,-0.0574844287446986, ,0.00785761547776893, ,0.009185693610509117, ,4.668381100663592e-05, ,0.14611410598032773,-0.14234541233770617,0.09946303541000001,2.995630532619915,1.3276968682207848,-0.6318628033823638, ,0.04484732587829433,0.019482024544953968,0.005047151939163498,0.22619044278185854,0.009623983586953605,0.1688539396078883, ,0.7416980266571045
0.011098361802594563,0.020840461704321106,-0.08335791171481036, ,0.01141005865259041,0.020602060968733217,-0.08340199613690161, ,0.00039488387317957076, ,0.005642827996532759,-0.0007471454411428831,-0.004594254217614069,-0.017498675569551342,-0.009885239526523365,0.013545740967103814, ,0.007344197533679595, ,0.023501077448693976, ,4.6955803914550035e-05, ,0.14728796137720984,-0.1418511574337558,0.09959784957000001,2.9989855717156675,1.3279701412203158,-0.6275116297418851, ,0.0445734812393005,0.019474028639128005,0.005069640840229154,0.13295257748748932,0.009311992491726633,0.1482032278763014, ,0.7579641342163086
0.011098361802594563,0.020840461704321106,-0.08335791171481036, ,0.01148303606135056,0.02059495787634779,-0.08346096877521342, ,0.0004678324193532848, ,0.006459367169583546,-0.0006984414652694351,-0.004026684650849755,-0.0038853496191828198,0.0032862862902826775,-0.08298205167938094, ,0.0076436531834778105, ,0.00508877374092903, ,4.7390611381526635e-05, ,0.14765865255517263,-0.14168898004339708,0.09963803456,3.0006630912635437,1.3279701412203158,-0.6263681273799172, ,0.04497485381918047,0.019538180267340083,0.0046345101891184185,0.23048232788547457,0.008545910142550645,0.1472979046690399, ,0.7678201198577881
0.01115007697786358,0.020834572421195144,-0.08339403262464623, ,0.01155584860700537,0.02058783919203978,-0.0835199439533077, ,0.0004913059780535051, ,0.006459367169583546,-0.0006984414652694351,-0.004026684650849755,-0.0038853496191828198,0.009218144289897652,-0.09127957784545564, ,0.0076436531834778105, ,0.00508877374092903, ,4.78674830630113e-05, ,0.1481606301919972,-0.1414495753242961,0.09969377503000001,3.0033890605288422,1.3279701412203158,-0.6244895163566843, ,0.04459442742409342,0.02166102295331449,0.005325580581745236,0.2578789172648659,0.006987627952902515,0.16681200048311573, ,0.7781591415405273
0.011224333301497769,0.020825606032929964,-0.08344394798118804, ,0.011628496356760788,0.020580705287488028,-0.08357892187747312, ,0.000491469330717524, ,0.006779514695766218,-0.0007557962110087448,-0.004721193563832969,-0.006866019339924665,0.009218144289897652,-0.09127957784545564, ,0.008295945762230075, ,0.011494189983638029, ,4.833172040923734e-05, ,0.1481606301919972,-0.1414495753242961,0.09969377503000001,3.0033890605288422,1.3279701412203158,-0.6244895163566843, ,0.04459442742409342,0.02166102295331449,0.005325580581745236,0.2578789172648659,0.006987627952902515,0.16681200048311573, ,0.7890651226043701
0.011345749219720608,0.02081390357677903,-0.08354719667543763, ,0.011700979378485991,0.0205735565333977,-0.08363790275277777, ,0.0004383865411084847, ,0.005994840630697742,-0.0005764190353768342,-0.0060253183437336605,-0.04443434481234656,-0.006947010971736944,0.11406985909734998, ,0.008519086467171384, ,0.04497412536561984, ,4.8664447356889936e-05, ,0.14905646720540727,-0.14107116141345913,0.09980784855000001,3.0067440996245947,1.328106777720081,-0.6206803547336338, ,0.047353763252729934,0.01929584008915632,0.006475126634146342,0.11897006659390866,0.0,0.2384954786295091, ,0.7997970581054688
0.011419862762217924,0.02080987669485452,-0.08361208140050834, ,0.011773297740712554,0.02056639329950103,-0.0836968867830715, ,0.00043748417199716643, ,0.007843277098931725,-0.0004435685923852863,-0.006727781068625963,-0.0034097779970342808,0.01742218707390826,-0.0790045600985231, ,0.010342958322169698, ,0.017752723020534718, ,4.8986344453916096e-05, ,0.14955072210935763,-0.14086264762585507,0.09988173708,3.009260378946409,1.328380050719612,-0.6185345070769502, ,0.04879020131540914,0.02210504112706051,0.00755636220113852,0.30153446707717574,0.014113079421734794,0.2218801494421212, ,0.8097410202026367
0.011488205495657289,0.020806215608742074,-0.08366956871745032, ,0.011845451512633491,0.02055921595455825,-0.0837558741709875, ,0.00044281167229709103, ,0.007276741923068061,-0.00037783875734246014,-0.006145834225864722,0.010172440355746427,0.021178544360219487,-0.047380701753171044, ,0.009532314171978208, ,0.023494877638347664, ,4.931143966259207e-05, ,0.14996774968456575,-0.14066957930399945,0.09994784787000001,3.0119863482117077,1.328653323719143,-0.616552016900548, ,0.04521054862242533,0.02033360650492196,0.007082619617607827,0.28167546721043574,0.030736309125926883,0.23122192283619802, ,0.8226931095123291
0.011508310831243944,0.020804738021472063,-0.08368740630021185, ,0.011917440764102236,0.020552024866358536,-0.08381486511794438, ,0.000497490694330898, ,0.00692480646963858,-0.0004369634034381404,-0.005802800367851863,0.0061638497283658215,0.015317246995089974,-0.00012093473635171661, ,0.009045240392993118, ,0.01651093856820502, ,4.974596995646135e-05, ,0.1501067588763018,-0.14060779744100566,0.09996858851000001,3.0126154180421616,1.3287899602189084,-0.6158466474028388, ,0.04604412496771994,0.019865384458545274,0.006715350556492412,0.23960922667371423,0.033521991073703065,0.2368815842002611, ,0.8343861103057861
0.011622652090287804,0.020794559168255893,-0.0837996886458911, ,0.01198926556563191,0.020544820401721064,-0.083873859824148, ,0.0004497513262884687, ,0.005465300510031103,-0.000553806624759825,-0.006063059966669135,0.021204437736704527,-0.007778894731015595,0.13691304553626255, ,0.008181497882539605, ,0.022586265179809887, ,5.006783273635433e-05, ,0.1509562594924665,-0.14023710626304287,0.10009432864000001,3.0151316973639757,1.329609779217501,-0.6116144304165836, ,0.04579968221933918,0.01991123406598212,0.0070952389844098004,0.07033380025159475,0.05814649569642802,0.21927170005559546, ,0.8447821140289307
0.011678632419867949,0.020790080922917432,-0.08384860366737436, ,0.012060925988394007,0.020537602926495795,-0.08393285848859262, ,0.0004658244155387245, ,0.006683269283071788,-0.0005031792155458714,-0.004627393534785483,0.06878868365405567,0.010870763282994321,-0.0636506688471643, ,0.008144448941382268, ,0.06964234696713598, ,5.041534832274214e-05, ,0.15140417799917152,-0.14005176067406147,0.10015784685000001,3.0165995269683674,1.3304295982160936,-0.6099959331148264, ,0.0463590334921694,0.019618966623624307,0.00597031916041979,0.22886348385853297,0.08320080886801735,0.15268382743102574, ,0.8546011447906494
0.011756174648196498,0.020782433613259536,-0.08389647001750443, ,0.012132422104218023,0.020530372805564415,-0.0839918613090639, ,0.000462813458581285, ,0.0070838546765571815,-0.00074790119324702,-0.004323348545167368,0.01761746617878493,0.013848778940804272,-0.1091188549166799, ,0.008332568386544581, ,0.022409011383848744, ,5.074796527013806e-05, ,0.15192160110174455,-0.13982007868783475,0.10021747619000002,3.019535186177151,1.3309761442151555,-0.6080729212655358, ,0.04566744059599171,0.021229740840821205,0.0051953070841487285,0.28342086806626515,0.027265552400661475,0.17055804139888864, ,0.8693411350250244
0.011876467680072623,0.020765705970821946,-0.08398290109787457, ,0.012203753985589932,0.02052313040284141,-0.08405086848213944, ,0.0004130118609483965, ,0.0050046256981840795,-0.000965882382382168,-0.0046710702719447526,-0.027218119488446615,-0.020614787506323097,0.08662558298554311, ,0.006913617333998662, ,0.034143747453882135, ,5.107501256910665e-05, ,0.15277882445078347,-0.13941849657837507,0.10031340165000001,3.0233096051598722,1.3309761442151555,-0.6048057716599133, ,0.044138112352777106,0.02048724990467849,0.005063195015893199,0.05636843618720268,0.010943324212129815,0.14617064160795745, ,0.8785340785980225
0.011876467680072623,0.020765705970821946,-0.08398290109787457, ,0.012274921705651611,0.020515876081274764,-0.08410988020319136, ,0.00048713886869999635, ,0.0050046256981840795,-0.000965882382382168,-0.0046710702719447526,-0.027218119488446615,-0.020614787506323097,0.08662558298554311, ,0.006913617333998662, ,0.034143747453882135, ,5.154607721515231e-05, ,0.15277882445078347,-0.13941849657837507,0.10031340165000001,3.0233096051598722,1.3309761442151555,-0.6048057716599133, ,0.044138112352777106,0.02048724990467849,0.005063195015893199,0.05636843618720268,0.010943324212129815,0.14617064160795745, ,0.8866400718688965
0.011935230642763509,0.02075719389603054,-0.08403701946117095, ,0.012345925338199736,0.02050861020284707,-0.08416889666638787, ,0.0004978509642774782, ,0.006394762143796577,-0.0006629081252076934,-0.00540524382479185,-0.012790503629276596,-0.006593637179911818,-0.02169812813463593, ,0.008399350621545131, ,0.01439003230492779, ,5.202921721153404e-05, ,0.1532576338889854,-0.13920998279077101,0.1003717347,3.024358054877295,1.3309761442151555,-0.6031721968571021, ,0.04679336368760887,0.019828027906074127,0.006015412205438067,0.17373046647239074,0.008188534974527154,0.15323519238855993, ,0.8950591087341309
0.01201801419873889,0.02074926796172063,-0.08409289154731112, ,0.012416764957684893,0.020501333128576597,-0.08422791806469536, ,0.0004885754902193614, ,0.008234542846249882,-0.0007390531042992458,-0.005486720241993591,0.005191521292620727,0.024956237167122017,-0.17882574054018863, ,0.009922600182996474, ,0.025490501405445114, ,5.248425586524259e-05, ,0.15375188879293578,-0.13897057807167004,0.10043525291000001,3.027922783916532,1.3309761442151555,-0.6012935858338692, ,0.047118640297155304,0.023466108199424032,0.006320956952380953,0.3753343081628311,0.0065084838811545,0.19513502386977188, ,0.903548002243042
0.012069409773832628,0.020745467965879415,-0.08412938427621458, ,0.012487440639210538,0.02049404521851778,-0.0842869445898795, ,0.0005126289640097047, ,0.007980578099856766,-0.0005473471849395291,-0.006041459740180396,-0.005656530642732579,0.021316143915552414,-0.10482012155732351, ,0.010024392826550406, ,0.02205389585293984, ,5.297776214666959e-05, ,0.1540453526421563,-0.138831568879934,0.10047673419000001,3.0302293732948615,1.3309761442151555,-0.5999050472514796, ,0.04766295407256192,0.021474754822011943,0.00686586703448276,0.33123409506849666,0.0058152381067589414,0.22644644574665446, ,0.9123599529266357
0.012161958035188342,0.0207384244936112,-0.08422240870958454, ,0.012557952458532142,0.020486746831762433,-0.08434597643250756, ,0.0004852032676532894, ,0.0066615115647188985,-0.0005313854946236082,-0.007925562152372941,-0.04102702154293268,-0.0005445685379451837,0.10872213851287871, ,0.010366901287361929, ,0.0410306351438186, ,5.340806382034135e-05, ,0.15467089400496847,-0.13855355049646192,0.10057784481000001,3.0329553425601605,1.3309761442151555,-0.5965562189057165, ,0.047686905305764214,0.021755374039080875,0.008504437544046985,0.14843779875036597,0.004745377449691582,0.2620822570763365, ,0.9208049774169922
0.012243320343121344,0.020733447674871515,-0.08431390644435945, ,0.012628300492056162,0.020479438326440863,-0.08440501378195023, ,0.0004701393528805256, ,0.00815352665326161,-0.0003180696576013651,-0.008716185629745904,-0.03252327934757416,0.019020902996670128,0.015537517900516691, ,0.01193955849789778, ,0.03767702748388761, ,5.380090527832746e-05, ,0.1552114853061642,-0.13830642304448673,0.10067765914000001,3.03526193193849,1.3311127807149208,-0.5934004872037903, ,0.049736342535886144,0.02216182661337477,0.009492736305125149,0.281101204593932,0.0,0.30039321633366967, ,0.9288749694824219
0.012243320343121344,0.020733447674871515,-0.08431390644435945, ,0.012698484816839169,0.020472120059722366,-0.08446405682638339, ,0.0005459047149423622, ,0.00815352665326161,-0.0003180696576013651,-0.008716185629745904,-0.03252327934757416,0.019020902996670128,0.015537517900516691, ,0.01193955849789778, ,0.03767702748388761, ,5.433136540965069e-05, ,0.1552114853061642,-0.13830642304448673,0.10067765914000001,3.03526193193849,1.3311127807149208,-0.5934004872037903, ,0.049736342535886144,0.02216182661337477,0.009492736305125149,0.281101204593932,0.0,0.30039321633366967, ,0.9368491172790527
0.01231459431718295,0.020731116388559165,-0.084384947886956, ,0.012768505510586626,0.020464792387816556,-0.08452310575278937, ,0.0005441060932946187, ,0.00850270286800641,-0.0003448799986542849,-0.008817586452862208,-0.010419016453671688,0.024502039860332687,-0.07071348085727684, ,0.012254171907100674, ,0.026625285122916224, ,5.4848346939529935e-05, ,0.15562851288137233,-0.13811335472263114,0.10075932541000002,3.0379879012037887,1.3315226902142172,-0.5915294149310846, ,0.048244505113609955,0.023344881072194533,0.009712689951219513,0.33219305125380943,0.008559727843267423,0.2620494095430064, ,0.9494969844818115
0.012385347266851336,0.020727797065495115,-0.0844523577490634, ,0.012838362651652417,0.02045745566597404,-0.08458216074695951, ,0.0005432828263660682, ,0.008224613776289136,-0.0003854054238763881,-0.007638316526471888,0.0658413071060592,0.0192941979208867,-0.04893344013226551, ,0.01123105909825302, ,0.06861008503743352, ,5.535406327725253e-05, ,0.1567560318810091,-0.13760365435293231,0.10096154665000001,3.043649529677871,1.3326157822123406,-0.5858047802092703, ,0.051884604460618246,0.023396681843804435,0.008614825051379124,0.15568931726044988,0.014242773257753109,0.30457281537531816, ,0.9588251113891602
0.01248996061415659,0.020721369864193637,-0.0845610946423651, ,0.012908056319037221,0.02045011024848736,-0.08464122199349518, ,0.0005047833098982897, ,0.007122736348411974,-0.0006718601396264838,-0.007900548593246964,-0.03930529888114205,0.0010916484737940706,0.14459655295253357, ,0.010658491319622335, ,0.039320455055161734, ,5.577866847932334e-05, ,0.1567560318810091,-0.13760365435293231,0.10096154665000001,3.043649529677871,1.3326157822123406,-0.5858047802092703, ,0.051884604460618246,0.023396681843804435,0.008614825051379124,0.15568931726044988,0.014242773257753109,0.30457281537531816, ,0.9668929576873779
0.01254759635017632,0.020714220724120283,-0.08462175553906513, ,0.012977586592388143,0.020442756488692225,-0.08470028967581024, ,0.0005145406205035923, ,0.00608824308887849,-0.0009878700805768224,-0.005619120212696671,-0.008409788778899753,-0.012293376249194476,0.11480836202392998, ,0.008343686425682105, ,0.014894685001972559, ,5.621344205516647e-05, ,0.15720395038771412,-0.13739514056532826,0.10103025002,3.044697979395294,1.333025691711637,-0.5836069929760019, ,0.05013044984599618,0.023145595502066043,0.006394544969891611,0.09690177604672438,0.03780603975266749,0.2112922998120104, ,0.974869966506958
0.01263321732050666,0.02070165289979828,-0.0846718514081902, ,0.01304695355199727,0.02043539473896797,-0.08475936397613228, ,0.0004997294538093672, ,0.008211655560343652,-0.0011507852274695992,-0.004346233221023369,0.0396686028990164,0.015486427420554654,-0.10998979399498941, ,0.009361908827424685, ,0.042584357323565726, ,5.67168773767575e-05, ,0.15782176901765207,-0.13710939944898196,0.10109506452000001,3.0474239486605925,1.3338455107102296,-0.5815801019735423, ,0.05370511689783292,0.025984923756426824,0.005565622473794551,0.32244650551092924,0.05262998760235816,0.20493602464760016, ,0.9813671112060547
0.01263321732050666,0.02070165289979828,-0.0846718514081902, ,0.013116157278801166,0.020428025350738847,-0.08481844507550469, ,0.0005741016828215052, ,0.008211655560343652,-0.0011507852274695992,-0.004346233221023369,0.0396686028990164,0.015486427420554654,-0.10998979399498941, ,0.009361908827424685, ,0.042584357323565726, ,5.7348212237329274e-05, ,0.15782176901765207,-0.13710939944898196,0.10109506452000001,3.0474239486605925,1.3338455107102296,-0.5815801019735423, ,0.05370511689783292,0.025984923756426824,0.005565622473794551,0.32244650551092924,0.05262998760235816,0.20493602464760016, ,0.9881200790405273
0.012688428435711312,0.020694117594086,-0.08470434620322302, ,0.01318519785437942,0.020420648674474826,-0.08487753315378865, ,0.0005929239623791366, ,0.00870563583618025,-0.0010409248186674723,-0.0050762221171357,0.02313082134298789,0.021479010905779375,-0.1399645991937858, ,0.010131122878180944, ,0.03156553186818251, ,5.8004405582870466e-05, ,0.15816156926411795,-0.136939499325749,0.10113265693000001,3.049730538038922,1.3338455107102296,-0.5800282059108715, ,0.05340289339249904,0.025794221679388635,0.006190754574426739,0.3666813754856746,0.031507165571959,0.22213311119039397, ,0.9952270984649658
0.012770516099907895,0.020684269207409595,-0.08476150384048457, ,0.013254075360953849,0.020413265059692494,-0.08493662838966394, ,0.0005813272871184163, ,0.0077817891286221675,-0.0010258633691654084,-0.005974945339230494,-0.015610407591063823,0.0022127627536840146,0.02355625468004943, ,0.009864512633745761, ,0.015766456055443728, ,5.86304085663596e-05, ,0.158678992366691,-0.1366923718737738,0.10119747143,3.05287588719119,1.3338455107102296,-0.5775778437066548, ,0.05533349362009957,0.025071847175289503,0.006824683598971724,0.22705042354948235,0.018688926715462774,0.251729561394706, ,1.0035600662231445
0.012873505503758929,0.02066945249294805,-0.08485298381711173, ,0.013322789881387742,0.020405874854956072,-0.08499573096063194, ,0.0005400984819585389, ,0.008170990770179574,-0.0008904645618261786,-0.007192654488771719,-0.030996991267667338,-0.0018016456398626604,0.004867618908797899, ,0.010922101258323694, ,0.03104930555437279, ,5.9174139612076856e-05, ,0.1594589883869877,-0.1363371261615595,0.10129858205000002,3.0551824765695197,1.333982147209995,-0.5742587545244475, ,0.056995160095177654,0.024979452897728554,0.007936627563527655,0.23077930181880413,0.0,0.2396024284356837, ,1.0100879669189453
0.012873505503758929,0.02066945249294805,-0.08485298381711173, ,0.013391341499184535,0.020398478407878312,-0.08505484104301635, ,0.0006183262994469145, ,0.008170990770179574,-0.0008904645618261786,-0.007192654488771719,-0.030996991267667338,-0.0018016456398626604,0.004867618908797899, ,0.010922101258323694, ,0.03104930555437279, ,5.984839710500726e-05, ,0.1594589883869877,-0.1363371261615595,0.10129858205000002,3.0551824765695197,1.333982147209995,-0.5742587545244475, ,0.056995160095177654,0.024979452897728554,0.007936627563527655,0.23077930181880413,0.0,0.2396024284356837, ,1.01652193069458
0.012959562266136947,0.020660819800060563,-0.08492518685688205, ,0.013459730298486992,0.02039107606512131,-0.08511395881196596, ,0.0005988026337200718, ,0.010406693843004808,-0.000925332992284855,-0.00884088559281688,-0.008526352232740614,0.027191833341123524,-0.1684401302321232, ,0.013686371906167175, ,0.0284972705506618, ,6.0478939289744175e-05, ,0.15999185695530918,-0.13608227597671008,0.10137895203000001,3.0583278257217876,1.333982147209995,-0.5719717498005117, ,0.058542221812751864,0.030030677708376828,0.00985693782178218,0.43517480586688656,0.0,0.2676070440263426, ,1.0229530334472656
0.013082452185902003,0.02065335562889557,-0.08503700143129202, ,0.013527956364076174,0.02038366817239771,-0.08517308444145512, ,0.000538260051107249, ,0.010549103251831924,-0.0005420074327371861,-0.01031331194938562,-0.02077463512994762,0.02352055105032389,-0.07921525927217873, ,0.01476285049847398, ,0.03138154983130795, ,6.099521854749378e-05, ,0.16067918018111516,-0.13575792119599264,0.10150339587000001,3.0633603843654162,1.333982147209995,-0.5686229214547486, ,0.061501582345088,0.02737148588360853,0.011402155705082321,0.39368525982243474,0.0,0.316838966570479, ,1.0302610397338867
0.013082452185902003,0.02065335562889557,-0.08503700143129202, ,0.013596019781370513,0.02037625507447127,-0.08523221810428704, ,0.0006153421339326643, ,0.010549103251831924,-0.0005420074327371861,-0.01031331194938562,-0.02077463512994762,0.02352055105032389,-0.07921525927217873, ,0.01476285049847398, ,0.03138154983130795, ,6.163771207646036e-05, ,0.16067918018111516,-0.13575792119599264,0.10150339587000001,3.0633603843654162,1.333982147209995,-0.5686229214547486, ,0.061501582345088,0.02737148588360853,0.011402155705082321,0.39368525982243474,0.0,0.316838966570479, ,1.0416901111602783
0.013082452185902003,0.02065335562889557,-0.08503700143129202, ,0.0136639206364247,0.0203688371151581,-0.0852913599720939, ,0.0006955247018557356, ,0.010549103251831924,-0.0005420074327371861,-0.01031331194938562,-0.02077463512994762,0.02352055105032389,-0.07921525927217873, ,0.01476285049847398, ,0.03138154983130795, ,6.24091448145186e-05, ,0.16067918018111516,-0.13575792119599264,0.10150339587000001,3.0633603843654162,1.333982147209995,-0.5686229214547486, ,0.061501582345088,0.02737148588360853,0.011402155705082321,0.39368525982243474,0.0,0.316838966570479, ,1.0486879348754883
0.013308144363123822,0.020636275320741575,-0.08529924238286435, ,0.013731659015928824,0.02036141463732742,-0.08535051021534028, ,0.0005074854156271067, ,0.010549103251831924,-0.0005420074327371861,-0.01031331194938562,-0.02077463512994762,0.02352055105032389,-0.07921525927217873, ,0.01476285049847398, ,0.03138154983130795, ,6.284915989364664e-05, ,0.1622391722217085,-0.13506287523731245,0.10179117225,3.0686026329525293,1.334528693209057,-0.560574004094916, ,0.061862413010737145,0.027051579691696342,0.011241221961891321,0.1155995191823644,0.016044438357845917,0.30065770058343266, ,1.0553390979766846
0.013308144363123822,0.020636275320741575,-0.08529924238286435, ,0.013799235007207297,0.020353987982902548,-0.08540966900332325, ,0.0005771050167140657, ,0.008145338249855076,-0.0007330634465167289,-0.010402588866302399,-0.04580541465096575,-0.014946433183945094,0.179665344206163, ,0.013232451486496738, ,0.04818227635191437, ,6.340120799049322e-05, ,0.1622391722217085,-0.13506287523731245,0.10179117225,3.0686026329525293,1.334528693209057,-0.560574004094916, ,0.061862413010737145,0.027051579691696342,0.011241221961891321,0.1155995191823644,0.016044438357845917,0.30065770058343266, ,1.0621161460876465
0.013398561640972754,0.02062900499658452,-0.08537664574209933, ,0.013866648698217836,0.020346557492861836,-0.08546883650417543, ,0.0005544197165791537, ,0.009702017252275891,-0.0009466578332103124,-0.006520925932287035,0.12353428621547108,0.004757137309313007,-0.14776315799646578, ,0.011728076348276857, ,0.12362584767901372, ,6.401540038949435e-05, ,0.1628724363173949,-0.1347925795867146,0.10188969029000002,3.071118912274344,1.3358950582067113,-0.5587477484868197, ,0.06490898875408398,0.028142627982939143,0.00866167021207178,0.3314471347488855,0.12905988167904417,0.1622044456495977, ,1.0671639442443848
0.013398561640972754,0.02062900499658452,-0.08537664574209933, ,0.013933900177550643,0.02033912350723963,-0.08552801288486629, ,0.0006273202041378888, ,0.009702017252275891,-0.0009466578332103124,-0.006520925932287035,0.12353428621547108,0.004757137309313007,-0.14776315799646578, ,0.011728076348276857, ,0.12362584767901372, ,6.474572589783227e-05, ,0.1628724363173949,-0.1347925795867146,0.10188969029000002,3.071118912274344,1.3358950582067113,-0.5587477484868197, ,0.06490898875408398,0.028142627982939143,0.00866167021207178,0.3314471347488855,0.12905988167904417,0.1622044456495977, ,1.0720701217651367
0.013515961853181959,0.020616068754271577,-0.08545303452189396, ,0.01400098953442709,0.02033168636512702,-0.08558719831120361, ,0.000578035567410448, ,0.010753116723400992,-0.0011747624253905502,-0.007110752454109598,0.02360891592939437,0.023491732645132036,-0.152736867280107, ,0.012944975337435806, ,0.03330529080870255, ,6.538645776714271e-05, ,0.163598373207572,-0.13446050207312293,0.10198302317,3.075732091031003,1.336441604205773,-0.5560896279762642, ,0.06477606932318823,0.030030677708376828,0.00851808102673797,0.43613236722035126,0.032779148512971784,0.2787722684493743, ,1.0797209739685059
0.013515961853181959,0.020616068754271577,-0.08545303452189396, ,0.014067916858698883,0.020324246404673018,-0.0856463929478355, ,0.0006536069864398672, ,0.010753116723400992,-0.0011747624253905502,-0.007110752454109598,0.02360891592939437,0.023491732645132036,-0.152736867280107, ,0.012944975337435806, ,0.03330529080870255, ,6.614633752318663e-05, ,0.163598373207572,-0.13446050207312293,0.10198302317,3.075732091031003,1.336441604205773,-0.5560896279762642, ,0.06477606932318823,0.030030677708376828,0.00851808102673797,0.43613236722035126,0.032779148512971784,0.2787722684493743, ,1.0849530696868896
0.013613538546812458,0.0206058503445952,-0.08552337084686164, ,0.014134682240847277,0.020316803963085335,-0.08570559695825211, ,0.0006231732633615613, ,0.010806521160937933,-0.0011572999933432224,-0.008150229930123112,-0.030226493598989202,0.02069135457521322,-0.03381248910554779, ,0.013584788949051293, ,0.03663022022162137, ,6.684837760714036e-05, ,0.1641930236388873,-0.13419020642252508,0.10206468944000001,3.0795065100137244,1.3365782407055387,-0.5530972537546193, ,0.06773514743645309,0.030135580043972942,0.009260936930232559,0.3920082193120091,0.0,0.3618976195027469, ,1.0904181003570557
0.013613538546812458,0.0206058503445952,-0.08552337084686164, ,0.014201285771981612,0.020309359376631402,-0.08576481050478756, ,0.0007011753013316535, ,0.010806521160937933,-0.0011572999933432224,-0.008150229930123112,-0.030226493598989202,0.02069135457521322,-0.03381248910554779, ,0.013584788949051293, ,0.03663022022162137, ,6.76717824895585e-05, ,0.1641930236388873,-0.13419020642252508,0.10206468944000001,3.0795065100137244,1.3365782407055387,-0.5530972537546193, ,0.06773514743645309,0.030135580043972942,0.009260936930232559,0.3920082193120091,0.0,0.3618976195027469, ,1.0965211391448975
0.013613538546812458,0.0206058503445952,-0.08552337084686164, ,0.014267727543838829,0.020301912980639037,-0.08582403374862112, ,0.0007814981417338252, ,0.010806521160937933,-0.0011572999933432224,-0.008150229930123112,-0.030226493598989202,0.02069135457521322,-0.03381248910554779, ,0.013584788949051293, ,0.03663022022162137, ,6.861856284023796e-05, ,0.1641930236388873,-0.13419020642252508,0.10206468944000001,3.0795065100137244,1.3365782407055387,-0.5530972537546193, ,0.06773514743645309,0.030135580043972942,0.009260936930232559,0.3920082193120091,0.0,0.3618976195027469, ,1.1015591621398926
0.013613538546812458,0.0206058503445952,-0.08552337084686164, ,0.01433400764878193,0.020294465109497745,-0.08588326684977941, ,0.0008634591040956066, ,0.010806521160937933,-0.0011572999933432224,-0.008150229930123112,-0.030226493598989202,0.02069135457521322,-0.03381248910554779, ,0.013584788949051293, ,0.03663022022162137, ,6.968957817505048e-05, ,0.1641930236388873,-0.13419020642252508,0.10206468944000001,3.0795065100137244,1.3365782407055387,-0.5530972537546193, ,0.06773514743645309,0.030135580043972942,0.009260936930232559,0.3920082193120091,0.0,0.3618976195027469, ,1.106348991394043
0.013851785943904113,0.02057467003383559,-0.08572909092982828, ,0.014400126179799407,0.020287016096659567,-0.08594250996713848, ,0.0006549576225688103, ,0.011760903675242233,-0.001378922975364667,-0.010163996208947272,-0.006808389630368475,0.018670934376330422,-0.1420298106894826, ,0.015605354938796147, ,0.019873546522222476, ,7.041225060299807e-05, ,0.16591519306983937,-0.1334411013337253,0.10229413277,3.0853778284312914,1.336714877205304,-0.5445507252034161, ,0.06972589387102922,0.03594581119639045,0.011410323438395417,0.43753948472369425,0.009648047308334084,0.29613541467672766, ,1.1112639904022217
0.013851785943904113,0.02057467003383559,-0.08572909092982828, ,0.014466083230503978,0.020279566274639633,-0.0860017632584246, ,0.0007340283262910779, ,0.011760903675242233,-0.001378922975364667,-0.010163996208947272,-0.006808389630368475,0.018670934376330422,-0.1420298106894826, ,0.015605354938796147, ,0.019873546522222476, ,7.125546281990466e-05, ,0.16591519306983937,-0.1334411013337253,0.10229413277,3.0853778284312914,1.336714877205304,-0.5445507252034161, ,0.06972589387102922,0.03594581119639045,0.011410323438395417,0.43753948472369425,0.009648047308334084,0.29613541467672766, ,1.1161611080169678
0.013987939922469685,0.020565447276041184,-0.08583946912178175, ,0.01453187889513162,0.020272115975017612,-0.08606102688021676, ,0.0006565064344417703, ,0.014905826082963088,-0.0005973088939297596,-0.011799009098802438,0.03425849961265425,0.057392883644350336,-0.36368320986292607, ,0.019019911799057668, ,0.06684001541026477, ,7.196612099965113e-05, ,0.16661023902851957,-0.13310902382013365,0.10241987290000001,3.0916685267358273,1.336714877205304,-0.5412835755977935, ,0.073506538774958,0.031443651941176536,0.013672799587982834,0.7183356636570492,0.008968425901920528,0.349386034966053, ,1.1212611198425293
0.013987939922469685,0.020565447276041184,-0.08583946912178175, ,0.014597513268540724,0.0202646655284383,-0.08612030098794764, ,0.0007354698233003849, ,0.014905826082963088,-0.0005973088939297596,-0.011799009098802438,0.03425849961265425,0.057392883644350336,-0.36368320986292607, ,0.019019911799057668, ,0.06684001541026477, ,7.279610735796013e-05, ,0.16661023902851957,-0.13310902382013365,0.10241987290000001,3.0916685267358273,1.336714877205304,-0.5412835755977935, ,0.073506538774958,0.031443651941176536,0.013672799587982834,0.7183356636570492,0.008968425901920528,0.349386034966053, ,1.1261579990386963
0.014111406484954927,0.020560438877329765,-0.08595343504065313, ,0.014662986446210913,0.020257215264612695,-0.08617958573590681, ,0.0006688266964857718, ,0.012780308704627732,-0.000547132269267097,-0.013670031326946011,-0.018415203780134566,0.029921693390539773,-0.060679187376729074, ,0.018721789465362067, ,0.03513441316230682, ,7.362928328434522e-05, ,0.16725894858995444,-0.13283100543666157,0.10254820561000001,3.0969107753229403,1.336714877205304,-0.5376897110316088, ,0.0718372002713632,0.031474939157038404,0.015155862530922933,0.46020182631502693,0.007380823472500612,0.40140554479143353, ,1.1300129890441895
0.014111406484954927,0.020560438877329765,-0.08595343504065313, ,0.01472829852424197,0.020249765512318826,-0.08623888127724068, ,0.0007473642230164236, ,0.012780308704627732,-0.000547132269267097,-0.013670031326946011,-0.018415203780134566,0.029921693390539773,-0.060679187376729074, ,0.018721789465362067, ,0.03513441316230682, ,7.458183194537337e-05, ,0.16725894858995444,-0.13283100543666157,0.10254820561000001,3.0969107753229403,1.336714877205304,-0.5376897110316088, ,0.0718372002713632,0.031474939157038404,0.015155862530922933,0.46020182631502693,0.007380823472500612,0.40140554479143353, ,1.1350581645965576
0.014111406484954927,0.020560438877329765,-0.08595343504065313, ,0.01479344959935305,0.02024231659940277,-0.0862981877639554, ,0.000827791660887981, ,0.012780308704627732,-0.000547132269267097,-0.013670031326946011,-0.018415203780134566,0.029921693390539773,-0.060679187376729074, ,0.018721789465362067, ,0.03513441316230682, ,7.565561042163482e-05, ,0.16725894858995444,-0.13283100543666157,0.10254820561000001,3.0969107753229403,1.336714877205304,-0.5376897110316088, ,0.0718372002713632,0.031474939157038404,0.015155862530922933,0.46020182631502693,0.007380823472500612,0.40140554479143353, ,1.1390609741210938
0.014132851414112656,0.020559578878408064,-0.08597832370134265, ,0.0148584397688813,0.02023486885277957,-0.0863575053469182, ,0.0008807347964404003, ,0.01233340768756769,-0.0005731431722713785,-0.013992349419423983,-0.02833006121365542,0.020546518994948432,-0.004766488158599183, ,0.018660848870266585, ,0.03499644660280752, ,7.680612079323912e-05, ,0.16739023504881625,-0.132776946306542,0.10257542770000001,3.0975398451533938,1.336714877205304,-0.5370362811104843, ,0.07244041340341281,0.03180192411476903,0.015390156057971019,0.3978798680571086,0.007129792361870469,0.39640042117445556, ,1.1429860591888428
0.014132851414112656,0.020559578878408064,-0.08597832370134265, ,0.014923269130781448,0.020227422598433988,-0.08641683417585891, ,0.0009630053984327402, ,0.01233340768756769,-0.0005731431722713785,-0.013992349419423983,-0.02833006121365542,0.020546518994948432,-0.004766488158599183, ,0.018660848870266585, ,0.03499644660280752, ,7.80787515429974e-05, ,0.16739023504881625,-0.132776946306542,0.10257542770000001,3.0975398451533938,1.336714877205304,-0.5370362811104843, ,0.07244041340341281,0.03180192411476903,0.015390156057971019,0.3978798680571086,0.007129792361870469,0.39640042117445556, ,1.146355152130127
0.014348160246347406,0.020548552591297765,-0.08627602826258524, ,0.014987937783624046,0.020219978161421747,-0.08647617439937233, ,0.0007465486784148171, ,0.011462836798932705,-0.0005567729743149339,-0.015841994240385154,-0.046952924203171154,-0.005673599595456099,0.1570958509427153, ,0.01956209102157256, ,0.04729445872176857, ,7.900412956075418e-05, ,0.168826663363422,-0.1321436822108556,0.10289690762,3.1017336440230845,1.3369881502048349,-0.5293362791242426, ,0.07579627920005652,0.03328549335618056,0.01714619108719053,0.22726071539956275,0.01701068742117024,0.3899646930319812, ,1.1508979797363281
0.014348160246347406,0.020548552591297765,-0.08627602826258524, ,0.015052445826595044,0.020212535865870285,-0.08653552616491933, ,0.0008223530747966789, ,0.011462836798932705,-0.0005567729743149339,-0.015841994240385154,-0.046952924203171154,-0.005673599595456099,0.1570958509427153, ,0.01956209102157256, ,0.04729445872176857, ,8.004216833524664e-05, ,0.168826663363422,-0.1321436822108556,0.10289690762,3.1017336440230845,1.3369881502048349,-0.5293362791242426, ,0.07579627920005652,0.03328549335618056,0.01714619108719053,0.22726071539956275,0.01701068742117024,0.3899646930319812, ,1.1543200016021729
0.014348160246347406,0.020548552591297765,-0.08627602826258524, ,0.015116793359494363,0.02020509603497958,-0.08659488961882872, ,0.0009002398753717599, ,0.011462836798932705,-0.0005567729743149339,-0.015841994240385154,-0.046952924203171154,-0.005673599595456099,0.1570958509427153, ,0.01956209102157256, ,0.04729445872176857, ,8.119505858244487e-05, ,0.168826663363422,-0.1321436822108556,0.10289690762,3.1017336440230845,1.3369881502048349,-0.5293362791242426, ,0.07579627920005652,0.03328549335618056,0.01714619108719053,0.22726071539956275,0.01701068742117024,0.3899646930319812, ,1.157663106918335
0.014510972217033642,0.020539731037262234,-0.08642995202961797, ,0.015180980482735302,0.020197658991023208,-0.08665426490629938, ,0.0007850099538042754, ,0.018025317639389537,-0.0010396715466335863,-0.013985156848005,0.08812610480371372,0.06956802087463215,-0.42748258066569855, ,0.02283807358314331, ,0.11227608534906007, ,8.216185957101535e-05, ,0.1697070549110836,-0.13174982283427014,0.10307320306000001,3.1082340322711044,1.337398059704131,-0.5250965233874603, ,0.08860592115636862,0.040364500875572425,0.01667938379057592,0.8637847889835185,0.058311715407139766,0.42200284746970573, ,1.1612670421600342
0.014510972217033642,0.020539731037262234,-0.08642995202961797, ,0.015245007297343053,0.020190225055349353,-0.08671365217140131, ,0.000861073574652957, ,0.018025317639389537,-0.0010396715466335863,-0.013985156848005,0.08812610480371372,0.06956802087463215,-0.42748258066569855, ,0.02283807358314331, ,0.11227608534906007, ,8.324041971886507e-05, ,0.1697070549110836,-0.13174982283427014,0.10307320306000001,3.1082340322711044,1.337398059704131,-0.5250965233874603, ,0.08860592115636862,0.040364500875572425,0.01667938379057592,0.8637847889835185,0.058311715407139766,0.42200284746970573, ,1.1645009517669678
0.014510972217033642,0.020539731037262234,-0.08642995202961797, ,0.01530887390495391,0.02018279454838144,-0.08677305155707792, ,0.0009390250510097169, ,0.018025317639389537,-0.0010396715466335863,-0.013985156848005,0.08812610480371372,0.06956802087463215,-0.42748258066569855, ,0.02283807358314331, ,0.11227608534906007, ,8.443261757622924e-05, ,0.1697070549110836,-0.13174982283427014,0.10307320306000001,3.1082340322711044,1.337398059704131,-0.5250965233874603, ,0.08860592115636862,0.040364500875572425,0.01667938379057592,0.8637847889835185,0.058311715407139766,0.42200284746970573, ,1.167755126953125
0.014695145288607006,0.020529141673074562,-0.08658154083082295, ,0.01537258040781429,0.02017536778961947,-0.08683246320514745, ,0.0008043856906279034, ,0.016950902213157523,-0.0011283673708997188,-0.015544421123228652,0.011115988039476023,0.06833449465006132,-0.17350725221104393, ,0.023026839271163918, ,0.0692327050000101, ,8.541034135388378e-05, ,0.1705951691916194,-0.13134051799193625,0.10324820221000001,3.1170410098974544,1.3375346962038965,-0.5197354657017392, ,0.08587958512078804,0.04138549566440069,0.017738097461024498,0.737244642500096,0.026073857368952732,0.560850681032184, ,1.17130708694458
0.014695145288607006,0.020529141673074562,-0.08658154083082295, ,0.015436126908779565,0.020167945097640493,-0.08689188725630469, ,0.0008808130513043848, ,0.016950902213157523,-0.0011283673708997188,-0.015544421123228652,0.011115988039476023,0.06833449465006132,-0.17350725221104393, ,0.023026839271163918, ,0.0692327050000101, ,8.64992867044921e-05, ,0.1705951691916194,-0.13134051799193625,0.10324820221000001,3.1170410098974544,1.3375346962038965,-0.5197354657017392, ,0.08587958512078804,0.04138549566440069,0.017738097461024498,0.737244642500096,0.026073857368952732,0.560850681032184, ,1.1748790740966797
0.014836978685996908,0.020518854679369904,-0.08672913156152075, ,0.01549951351131325,0.020160526790099987,-0.08695132385012297, ,0.000785315658891304, ,0.015557233954095216,-0.0009905329260544585,-0.01677431606232115,-0.05963509461047992,0.02832016302650732,0.19597833334933074, ,0.02289948390550967, ,0.06601798857106474, ,8.743555136119289e-05, ,0.17141377887628723,-0.13096982681397346,0.10341153475,3.1218638785975985,1.3375346962038965,-0.5140996326320404, ,0.096734904748696,0.040040903611169104,0.01867387048065651,0.4470281099128791,0.017676407444051783,0.64983310403617, ,1.1821019649505615
0.014836978685996908,0.020518854679369904,-0.08672913156152075, ,0.015562740319485732,0.020153113183732398,-0.08701077312505563, ,0.0008601271769836716, ,0.015557233954095216,-0.0009905329260544585,-0.01677431606232115,-0.05963509461047992,0.02832016302650732,0.19597833334933074, ,0.02289948390550967, ,0.06601798857106474, ,8.848014903537168e-05, ,0.17141377887628723,-0.13096982681397346,0.10341153475,3.1218638785975985,1.3375346962038965,-0.5140996326320404, ,0.096734904748696,0.040040903611169104,0.01867387048065651,0.4470281099128791,0.017676407444051783,0.64983310403617, ,1.1855220794677734
0.014836978685996908,0.020518854679369904,-0.08672913156152075, ,0.015625807437973295,0.020145704594352446,-0.08707023521843783, ,0.0009369330235696518, ,0.015557233954095216,-0.0009905329260544585,-0.01677431606232115,-0.05963509461047992,0.02832016302650732,0.19597833334933074, ,0.02289948390550967, ,0.06601798857106474, ,8.963512278233052e-05, ,0.17141377887628723,-0.13096982681397346,0.10341153475,3.1218638785975985,1.3375346962038965,-0.5140996326320404, ,0.096734904748696,0.040040903611169104,0.01867387048065651,0.4470281099128791,0.017676407444051783,0.64983310403617, ,1.1887681484222412
0.014996588321851152,0.020506721644855345,-0.0869123811710442, ,0.01568871497205737,0.020138301336855464,-0.0871297102664879, ,0.0008136367488005844, ,0.013676583502384489,-0.001377673112925048,-0.015917681713159337,0.09417284261592147,-0.0060060541609856105,0.2029278011635969, ,0.0210313934541965, ,0.09436416666865517, ,9.05962841508698e-05, ,0.17246407054718174,-0.13050646284151998,0.10362023744000001,3.12563829758032,1.3384911517022546,-0.5075284713452647, ,0.09331066033281296,0.045689427808604126,0.01882838241134752,0.284394772447365,0.17503084556936566,0.4677921655302263, ,1.192121982574463
0.014996588321851152,0.020506721644855345,-0.0869123811710442, ,0.015751463027622953,0.020130903725219106,-0.08718919840431005, ,0.0008875261746938702, ,0.013676583502384489,-0.001377673112925048,-0.015917681713159337,0.09417284261592147,-0.0060060541609856105,0.2029278011635969, ,0.0210313934541965, ,0.09436416666865517, ,9.16632533448156e-05, ,0.17246407054718174,-0.13050646284151998,0.10362023744000001,3.12563829758032,1.3384911517022546,-0.5075284713452647, ,0.09331066033281296,0.045689427808604126,0.01882838241134752,0.284394772447365,0.17503084556936566,0.4677921655302263, ,1.195479154586792
0.014996588321851152,0.020506721644855345,-0.0869123811710442, ,0.015814051711158218,0.020123512072503666,-0.08724869976589505, ,0.0009634345678051024, ,0.013676583502384489,-0.001377673112925048,-0.015917681713159337,0.09417284261592147,-0.0060060541609856105,0.2029278011635969, ,0.0210313934541965, ,0.09436416666865517, ,9.297814220523836e-05, ,0.17246407054718174,-0.13050646284151998,0.10362023744000001,3.12563829758032,1.3384911517022546,-0.5075284713452647, ,0.09331066033281296,0.045689427808604126,0.01882838241134752,0.284394772447365,0.17503084556936566,0.4677921655302263, ,1.1972379684448242
0.014996588321851152,0.020506721644855345,-0.0869123811710442, ,0.01587648112975299,0.0201161266908532,-0.08730821448412188, ,0.0010408937425267616, ,0.013676583502384489,-0.001377673112925048,-0.015917681713159337,0.09417284261592147,-0.0060060541609856105,0.2029278011635969, ,0.0210313934541965, ,0.09436416666865517, ,9.440572594066235e-05, ,0.17246407054718174,-0.13050646284151998,0.10362023744000001,3.12563829758032,1.3384911517022546,-0.5075284713452647, ,0.09331066033281296,0.045689427808604126,0.01882838241134752,0.284394772447365,0.17503084556936566,0.4677921655302263, ,1.198904037475586
0.01512898031452136,0.020492827590508446,-0.08705421751370988, ,0.015938751391097947,0.020108747891496505,-0.08736774269076086, ,0.0009494969448597267, ,0.01569133941894548,-0.001747969353603141,-0.015179142357781327,0.1548183220826957,0.0016089925646593506,-0.057894143347320993, ,0.021901595657382575, ,0.15482668020647444, ,9.569157739768349e-05, ,0.1733290166290949,-0.13007398980056342,0.10379134772000001,3.1289933366760723,1.3402674261992054,-0.5039945009447437, ,0.09885098079007372,0.04958042923640061,0.018543435995343426,0.4638469892957399,0.1931970202584662,0.37779053271912827, ,1.200598955154419
0.01512898031452136,0.020492827590508446,-0.08705421751370988, ,0.01600086260348359,0.02010137598474801,-0.0874272845164738, ,0.001025959099579362, ,0.01569133941894548,-0.001747969353603141,-0.015179142357781327,0.1548183220826957,0.0016089925646593506,-0.057894143347320993, ,0.021901595657382575, ,0.15482668020647444, ,9.708837547903736e-05, ,0.1733290166290949,-0.13007398980056342,0.10379134772000001,3.1289933366760723,1.3402674261992054,-0.5039945009447437, ,0.09885098079007372,0.04958042923640061,0.018543435995343426,0.4638469892957399,0.1931970202584662,0.37779053271912827, ,1.202260971069336
0.01512898031452136,0.020492827590508446,-0.08705421751370988, ,0.01606281487579899,0.02009401128000866,-0.08748684009081607, ,0.0011037498500925135, ,0.01569133941894548,-0.001747969353603141,-0.015179142357781327,0.1548183220826957,0.0016089925646593506,-0.057894143347320993, ,0.021901595657382575, ,0.15482668020647444, ,9.859761307216102e-05, ,0.1733290166290949,-0.13007398980056342,0.10379134772000001,3.1289933366760723,1.3402674261992054,-0.5039945009447437, ,0.09885098079007372,0.04958042923640061,0.018543435995343426,0.4638469892957399,0.1931970202584662,0.37779053271912827, ,1.2039411067962646
0.01512898031452136,0.020492827590508446,-0.08705421751370988, ,0.016124608317531146,0.020086654085766913,-0.0875464095422391, ,0.0011825840474482075, ,0.01569133941894548,-0.001747969353603141,-0.015179142357781327,0.1548183220826957,0.0016089925646593506,-0.057894143347320993, ,0.021901595657382575, ,0.15482668020647444, ,0.0005532825782361951, ,0.1733290166290949,-0.13007398980056342,0.10379134772000001,3.1289933366760723,1.3402674261992054,-0.5039945009447437, ,0.09885098079007372,0.04958042923640061,0.018543435995343426,0.4638469892957399,0.1931970202584662,0.37779053271912827, ,1.2055740356445312
0.01512898031452136,0.020492827590508446,-0.08705421751370988, ,0.016186243038763627,0.020079304709599535,-0.08760599299809142, ,0.0012622447568803234, ,0.01569133941894548,-0.001747969353603141,-0.015179142357781327,0.1548183220826957,0.0016089925646593506,-0.057894143347320993, ,0.021901595657382575, ,0.15482668020647444, ,0.0005590937436349174, ,0.1733290166290949,-0.13007398980056342,0.10379134772000001,3.1289933366760723,1.3402674261992054,-0.5039945009447437, ,0.09885098079007372,0.04958042923640061,0.018543435995343426,0.4638469892957399,0.1931970202584662,0.37779053271912827, ,1.207237958908081
0.01512898031452136,0.020492827590508446,-0.08705421751370988, ,0.016247719150175543,0.020071963458172783,-0.08766559058462023, ,0.0013425647962470462, ,0.01569133941894548,-0.001747969353603141,-0.015179142357781327,0.1548183220826957,0.0016089925646593506,-0.057894143347320993, ,0.021901595657382575, ,0.15482668020647444, ,0.0005654634269894876, ,0.1733290166290949,-0.13007398980056342,0.10379134772000001,3.1289933366760723,1.3402674261992054,-0.5039945009447437, ,0.09885098079007372,0.04958042923640061,0.018543435995343426,0.4638469892957399,0.1931970202584662,0.37779053271912827, ,1.2089340686798096
0.015319645539100405,0.0204711515951866,-0.08722297377856834, ,0.016309036763040775,0.020064630637243036,-0.08772520242697357, ,0.0011816885793374322, ,0.02138634218149111,-0.0021750189877755644,-0.01825404761763919,0.0375303763107958,0.0752353297988735,-0.3151215994478495, ,0.028201358015670964, ,0.08407664342280327, ,0.0005704329846697129, ,0.17438703103286365,-0.1295256757664935,0.10398838380000001,3.136332484698031,1.341087245197798,-0.4987004603366612, ,0.10808307694586651,0.056185282154215976,0.02106985650793651,0.9393620217053721,0.03921064745883652,0.6177099036394307, ,1.2106211185455322
0.015319645539100405,0.0204711515951866,-0.08722297377856834, ,0.016370195989226732,0.020057306551657827,-0.08778482864920194, ,0.0012611918426506945, ,0.02138634218149111,-0.0021750189877755644,-0.01825404761763919,0.0375303763107958,0.0752353297988735,-0.3151215994478495, ,0.028201358015670964, ,0.08407664342280327, ,0.0005759590555335607, ,0.17438703103286365,-0.1295256757664935,0.10398838380000001,3.136332484698031,1.341087245197798,-0.4987004603366612, ,0.10808307694586651,0.056185282154215976,0.02106985650793651,0.9393620217053721,0.03921064745883652,0.6177099036394307, ,1.212352991104126
0.015319645539100405,0.0204711515951866,-0.08722297377856834, ,0.01643119694119322,0.02004999150535687,-0.0878444693742593, ,0.0013413348262917588, ,0.02138634218149111,-0.0021750189877755644,-0.01825404761763919,0.0375303763107958,0.0752353297988735,-0.3151215994478495, ,0.028201358015670964, ,0.08407664342280327, ,0.000582033466412594, ,0.17438703103286365,-0.1295256757664935,0.10398838380000001,3.136332484698031,1.341087245197798,-0.4987004603366612, ,0.10808307694586651,0.056185282154215976,0.02106985650793651,0.9393620217053721,0.03921064745883652,0.6177099036394307, ,1.21409010887146
0.015319645539100405,0.0204711515951866,-0.08722297377856834, ,0.016492039731991617,0.020042685801372993,-0.08790412472400648, ,0.0014219907490784277, ,0.02138634218149111,-0.0021750189877755644,-0.01825404761763919,0.0375303763107958,0.0752353297988735,-0.3151215994478495, ,0.028201358015670964, ,0.08407664342280327, ,0.0005886473032839785, ,0.17438703103286365,-0.1295256757664935,0.10398838380000001,3.136332484698031,1.341087245197798,-0.4987004603366612, ,0.10808307694586651,0.056185282154215976,0.02106985650793651,0.9393620217053721,0.03921064745883652,0.6177099036394307, ,1.2158470153808594
0.015319645539100405,0.0204711515951866,-0.08722297377856834, ,0.016552724475263847,0.020035389741832766,-0.0879637948192106, ,0.0015030595031157651, ,0.02138634218149111,-0.0021750189877755644,-0.01825404761763919,0.0375303763107958,0.0752353297988735,-0.3151215994478495, ,0.028201358015670964, ,0.08407664342280327, ,0.0005957911485951643, ,0.17438703103286365,-0.1295256757664935,0.10398838380000001,3.136332484698031,1.341087245197798,-0.4987004603366612, ,0.10808307694586651,0.056185282154215976,0.02106985650793651,0.9393620217053721,0.03921064745883652,0.6177099036394307, ,1.217663049697876
0.015319645539100405,0.0204711515951866,-0.08722297377856834, ,0.016613251285241232,0.02002810362795779,-0.08802347977954884, ,0.0015844611656080255, ,0.02138634218149111,-0.0021750189877755644,-0.01825404761763919,0.0375303763107958,0.0752353297988735,-0.3151215994478495, ,0.028201358015670964, ,0.08407664342280327, ,0.0006034552572541787, ,0.17438703103286365,-0.1295256757664935,0.10398838380000001,3.136332484698031,1.341087245197798,-0.4987004603366612, ,0.10808307694586651,0.056185282154215976,0.02106985650793651,0.9393620217053721,0.03921064745883652,0.6177099036394307, ,1.2196741104125977
0.015600901755678307,0.02044949114797443,-0.08746968897146586, ,0.016673620276743323,0.0200208277600655,-0.08808317972360898, ,0.0013079939711384788, ,0.02819186654181119,-0.0016817051154653581,-0.02731058107366146,-0.07349484298642059,0.1430485099315208,-0.3734947215140327, ,0.03928711378795484, ,0.16082398125228847, ,0.0006088747858225195, ,0.17568445015573336,-0.12888468893793284,0.10426578986000001,3.14975264108104,1.3406773356985016,-0.4897082601706724, ,0.12619274143413667,0.06059830240004519,0.030111174896030254,1.3288654077038862,-0.07885070938963722,0.9678167929320098, ,1.2222900390625
0.015600901755678307,0.02044949114797443,-0.08746968897146586, ,0.016733831565177146,0.020013562437569965,-0.08814289476889113, ,0.0013880813519001605, ,0.02819186654181119,-0.0016817051154653581,-0.02731058107366146,-0.07349484298642059,0.1430485099315208,-0.3734947215140327, ,0.03928711378795484, ,0.16082398125228847, ,0.000614822927548303, ,0.17568445015573336,-0.12888468893793284,0.10426578986000001,3.14975264108104,1.3406773356985016,-0.4897082601706724, ,0.12619274143413667,0.06059830240004519,0.030111174896030254,1.3288654077038862,-0.07885070938963722,0.9678167929320098, ,1.2245941162109375
0.015600901755678307,0.02044949114797443,-0.08746968897146586, ,0.016793885266536,0.020006307958982988,-0.08820262503181017, ,0.0014686103175233448, ,0.02819186654181119,-0.0016817051154653581,-0.02731058107366146,-0.07349484298642059,0.1430485099315208,-0.3734947215140327, ,0.03928711378795484, ,0.16082398125228847, ,0.0006212910138359927, ,0.17568445015573336,-0.12888468893793284,0.10426578986000001,3.14975264108104,1.3406773356985016,-0.4897082601706724, ,0.12619274143413667,0.06059830240004519,0.030111174896030254,1.3288654077038862,-0.07885070938963722,0.9678167929320098, ,1.2265880107879639
0.015656603636943905,0.020446168109600843,-0.08752629434026726, ,0.0168537814973984,0.01999906462191493,-0.08826237062769665, ,0.0014747693579604698, ,0.028503023857549034,-0.001652812356002422,-0.02833103501094723,-0.03726054390435737,0.1380133801014647,-0.3366596091018264, ,0.040221905754199185, ,0.14295461855780187, ,0.0006277081442429437, ,0.17593930034058278,-0.12876112521194524,0.10432801178000001,3.1522689204028547,1.3405406991987363,-0.48771823124374303, ,0.12946376747403926,0.06239115158347849,0.031542201029702975,1.3086186010857466,-0.035606531534253034,0.9778294927613043, ,1.2306971549987793
0.015656603636943905,0.020446168109600843,-0.08752629434026726, ,0.01691352037492713,0.019991832723075635,-0.08832213167079907, ,0.0015555119370610387, ,0.028503023857549034,-0.001652812356002422,-0.02833103501094723,-0.03726054390435737,0.1380133801014647,-0.3366596091018264, ,0.040221905754199185, ,0.14295461855780187, ,0.0006346320531445713, ,0.17593930034058278,-0.12876112521194524,0.10432801178000001,3.1522689204028547,1.3405406991987363,-0.48771823124374303, ,0.12946376747403926,0.06239115158347849,0.031542201029702975,1.3086186010857466,-0.035606531534253034,0.9778294927613043, ,1.2323689460754395
0.015656603636943905,0.020446168109600843,-0.08752629434026726, ,0.016973102016868226,0.019984612558275435,-0.08838190827428519, ,0.0016365441379285466, ,0.028503023857549034,-0.001652812356002422,-0.02833103501094723,-0.03726054390435737,0.1380133801014647,-0.3366596091018264, ,0.040221905754199185, ,0.14295461855780187, ,0.0006420536241429711, ,0.17593930034058278,-0.12876112521194524,0.10432801178000001,3.1522689204028547,1.3405406991987363,-0.48771823124374303, ,0.12946376747403926,0.06239115158347849,0.031542201029702975,1.3086186010857466,-0.035606531534253034,0.9778294927613043, ,1.234039068222046
0.015656603636943905,0.020446168109600843,-0.08752629434026726, ,0.017032526541549704,0.019977404422426008,-0.088441700550244, ,0.0017178101650347102, ,0.028503023857549034,-0.001652812356002422,-0.02833103501094723,-0.03726054390435737,0.1380133801014647,-0.3366596091018264, ,0.040221905754199185, ,0.14295461855780187, ,0.0006499635987083515, ,0.17593930034058278,-0.12876112521194524,0.10432801178000001,3.1522689204028547,1.3405406991987363,-0.48771823124374303, ,0.12946376747403926,0.06239115158347849,0.031542201029702975,1.3086186010857466,-0.035606531534253034,0.9778294927613043, ,1.2357330322265625
0.015656603636943905,0.020446168109600843,-0.08752629434026726, ,0.01709179406788073,0.019970208609541393,-0.08850150860968736, ,0.0017992642635338606, ,0.028503023857549034,-0.001652812356002422,-0.02833103501094723,-0.03726054390435737,0.1380133801014647,-0.3366596091018264, ,0.040221905754199185, ,0.14295461855780187, ,0.0006583526546559829, ,0.17593930034058278,-0.12876112521194524,0.10432801178000001,3.1522689204028547,1.3405406991987363,-0.48771823124374303, ,0.12946376747403926,0.06239115158347849,0.031542201029702975,1.3086186010857466,-0.035606531534253034,0.9778294927613043, ,1.2374191284179688
0.015656603636943905,0.020446168109600843,-0.08752629434026726, ,0.017150904715350634,0.019963025412738724,-0.0885613325625515, ,0.0018808686025472443, ,0.028503023857549034,-0.001652812356002422,-0.02833103501094723,-0.03726054390435737,0.1380133801014647,-0.3366596091018264, ,0.040221905754199185, ,0.14295461855780187, ,0.0006672114658725863, ,0.17593930034058278,-0.12876112521194524,0.10432801178000001,3.1522689204028547,1.3405406991987363,-0.48771823124374303, ,0.12946376747403926,0.06239115158347849,0.031542201029702975,1.3086186010857466,-0.035606531534253034,0.9778294927613043, ,1.2391130924224854
0.016120834287401877,0.02042378056791079,-0.08812310128840387, ,0.017209858604027663,0.019955855124239346,-0.08862117251769899, ,0.001285691694182138, ,0.023050105258615314,-0.0010180259610033538,-0.03528834062374837,-0.07722917847873911,0.005799488799496939,0.5031875943843441, ,0.042161720947658334, ,0.07744627400698113, ,0.0006716609639179787, ,0.1784028521274604,-0.12759499254793735,0.10498263823000001,3.167156906390256,1.3409506086980325,-0.4689396597619409, ,0.141426142412028,0.06571810357234818,0.03847539014492755,0.4231680120771613,0.07359733413745129,0.9337591854020213, ,1.2407641410827637
0.016120834287401877,0.02042378056791079,-0.08812310128840387, ,0.017268655854558022,0.019948698035369597,-0.08868102858292057, ,0.0013617931666450932, ,0.023050105258615314,-0.0010180259610033538,-0.03528834062374837,-0.07722917847873911,0.005799488799496939,0.5031875943843441, ,0.042161720947658334, ,0.07744627400698113, ,0.0006765904796517437, ,0.1784028521274604,-0.12759499254793735,0.10498263823000001,3.167156906390256,1.3409506086980325,-0.4689396597619409, ,0.141426142412028,0.06571810357234818,0.03847539014492755,0.4231680120771613,0.07359733413745129,0.9337591854020213, ,1.2425241470336914
0.016120834287401877,0.02042378056791079,-0.08812310128840387, ,0.017327296588164814,0.01994155443656201,-0.08874090086493619, ,0.0014386693997167422, ,0.023050105258615314,-0.0010180259610033538,-0.03528834062374837,-0.07722917847873911,0.005799488799496939,0.5031875943843441, ,0.042161720947658334, ,0.07744627400698113, ,0.0006819952946876657, ,0.1784028521274604,-0.12759499254793735,0.10498263823000001,3.167156906390256,1.3409506086980325,-0.4689396597619409, ,0.141426142412028,0.06571810357234818,0.03847539014492755,0.4231680120771613,0.07359733413745129,0.9337591854020213, ,1.2441990375518799
0.016120834287401877,0.02042378056791079,-0.08812310128840387, ,0.017385780926647214,0.01993442461735576,-0.08880078946939741, ,0.0015161861749600658, ,0.023050105258615314,-0.0010180259610033538,-0.03528834062374837,-0.07722917847873911,0.005799488799496939,0.5031875943843441, ,0.042161720947658334, ,0.07744627400698113, ,0.0006878698783515558, ,0.1784028521274604,-0.12759499254793735,0.10498263823000001,3.167156906390256,1.3409506086980325,-0.4689396597619409, ,0.141426142412028,0.06571810357234818,0.03847539014492755,0.4231680120771613,0.07359733413745129,0.9337591854020213, ,1.2458300590515137
0.016120834287401877,0.02042378056791079,-0.08812310128840387, ,0.01744410899237902,0.01992730886639808,-0.08886069450088885, ,0.0015942345631490948, ,0.023050105258615314,-0.0010180259610033538,-0.03528834062374837,-0.07722917847873911,0.005799488799496939,0.5031875943843441, ,0.042161720947658334, ,0.07744627400698113, ,0.0006942080929305596, ,0.1784028521274604,-0.12759499254793735,0.10498263823000001,3.167156906390256,1.3409506086980325,-0.4689396597619409, ,0.141426142412028,0.06571810357234818,0.03847539014492755,0.4231680120771613,0.07359733413745129,0.9337591854020213, ,1.2475509643554688
0.016120834287401877,0.02042378056791079,-0.08812310128840387, ,0.01750228090830786,0.019920207471444934,-0.08892061606292999, ,0.0016727254543063023, ,0.023050105258615314,-0.0010180259610033538,-0.03528834062374837,-0.07722917847873911,0.005799488799496939,0.5031875943843441, ,0.042161720947658334, ,0.07744627400698113, ,0.0007010033523845578, ,0.1784028521274604,-0.12759499254793735,0.10498263823000001,3.167156906390256,1.3409506086980325,-0.4689396597619409, ,0.141426142412028,0.06571810357234818,0.03847539014492755,0.4231680120771613,0.07359733413745129,0.9337591854020213, ,1.249243974685669
0.01638108802153289,0.020408386729951492,-0.08847660223835759, ,0.017560296797954286,0.019913120719361847,-0.08898055425797632, ,0.0013746961110414318, ,0.03003591496584357,-0.002032563034606966,-0.03620492600893273,0.08672882407191154,0.059719932424544764,-0.12843603909355505, ,0.04708592324291125, ,0.10530098312372432, ,0.0007056495093408121, ,0.17987017137356306,-0.12687677839063446,0.10537541410000001,3.1740766745252453,1.342043700696156,-0.46027459039506646, ,0.15531414330355284,0.07829780656639503,0.04094810159383034,1.0261529372910536,0.13423056105317693,0.8811577070527525, ,1.2509269714355469
0.01638108802153289,0.020408386729951492,-0.08847660223835759, ,0.01761815678541028,0.019906048896125073,-0.08904050918742187, ,0.0014493700262726403, ,0.03003591496584357,-0.002032563034606966,-0.03620492600893273,0.08672882407191154,0.059719932424544764,-0.12843603909355505, ,0.04708592324291125, ,0.10530098312372432, ,0.0007107434854841809, ,0.17987017137356306,-0.12687677839063446,0.10537541410000001,3.1740766745252453,1.342043700696156,-0.46027459039506646, ,0.15531414330355284,0.07829780656639503,0.04094810159383034,1.0261529372910536,0.13423056105317693,0.8811577070527525, ,1.2525920867919922
0.01638108802153289,0.020408386729951492,-0.08847660223835759, ,0.017675860995338726,0.019898992286822514,-0.08910048095160059, ,0.0015248424184900013, ,0.03003591496584357,-0.002032563034606966,-0.03620492600893273,0.08672882407191154,0.059719932424544764,-0.12843603909355505, ,0.04708592324291125, ,0.10530098312372432, ,0.0007162815734638123, ,0.17987017137356306,-0.12687677839063446,0.10537541410000001,3.1740766745252453,1.342043700696156,-0.46027459039506646, ,0.15531414330355284,0.07829780656639503,0.04094810159383034,1.0261529372910536,0.13423056105317693,0.8811577070527525, ,1.2542641162872314
0.01638108802153289,0.020408386729951492,-0.08847660223835759, ,0.01773340955297202,0.019891951175654354,-0.08916046964978774, ,0.0016009852724345277, ,0.03003591496584357,-0.002032563034606966,-0.03620492600893273,0.08672882407191154,0.059719932424544764,-0.12843603909355505, ,0.04708592324291125, ,0.10530098312372432, ,0.0007222593011595603, ,0.17987017137356306,-0.12687677839063446,0.10537541410000001,3.1740766745252453,1.342043700696156,-0.46027459039506646, ,0.15531414330355284,0.07829780656639503,0.04094810159383034,1.0261529372910536,0.13423056105317693,0.8811577070527525, ,1.256054162979126
0.01638108802153289,0.020408386729951492,-0.08847660223835759, ,0.01779080258411112,0.01988492584593423,-0.08922047538020196, ,0.0016776929683940047, ,0.03003591496584357,-0.002032563034606966,-0.03620492600893273,0.08672882407191154,0.059719932424544764,-0.12843603909355505, ,0.04708592324291125, ,0.10530098312372432, ,0.0007286716076510667, ,0.17987017137356306,-0.12687677839063446,0.10537541410000001,3.1740766745252453,1.342043700696156,-0.46027459039506646, ,0.15531414330355284,0.07829780656639503,0.04094810159383034,1.0261529372910536,0.13423056105317693,0.8811577070527525, ,1.2578411102294922
0.01638108802153289,0.020408386729951492,-0.08847660223835759, ,0.01784804021512444,0.01987791658009017,-0.08928049824000675, ,0.001754877801912281, ,0.03003591496584357,-0.002032563034606966,-0.03620492600893273,0.08672882407191154,0.059719932424544764,-0.12843603909355505, ,0.04708592324291125, ,0.10530098312372432, ,0.0007355129822794747, ,0.17987017137356306,-0.12687677839063446,0.10537541410000001,3.1740766745252453,1.342043700696156,-0.46027459039506646, ,0.15531414330355284,0.07829780656639503,0.04094810159383034,1.0261529372910536,0.13423056105317693,0.8811577070527525, ,1.259580135345459
0.016653116472048556,0.020389147840396984,-0.0887837267581139, ,0.017905122572947074,0.019870923659665383,-0.08934053832531237, ,0.001464962354310878, ,0.03433832658188971,-0.0026976894840838924,-0.03742497315923278,0.08648211574094236,0.11472716973272545,-0.42942735628594725, ,0.050862823525305245, ,0.14367117455870035, ,0.000740343772822729, ,0.181175313229307,-0.12620490063057693,0.10572411611000002,3.184770861642956,1.3430001561945142,-0.4525599267463228, ,0.15975916087284645,0.08375722997217191,0.04236386042553192,1.4220033253520064,0.08198610234370587,0.9782265326456157, ,1.2613911628723145
0.016653116472048556,0.020389147840396984,-0.0887837267581139, ,0.017962049785079297,0.01986394736531932,-0.08940059573117756, ,0.0015393730174691443, ,0.03433832658188971,-0.0026976894840838924,-0.03742497315923278,0.08648211574094236,0.11472716973272545,-0.42942735628594725, ,0.050862823525305245, ,0.14367117455870035, ,0.000745600544169087, ,0.181175313229307,-0.12620490063057693,0.10572411611000002,3.184770861642956,1.3430001561945142,-0.4525599267463228, ,0.15975916087284645,0.08375722997217191,0.04236386042553192,1.4220033253520064,0.08198610234370587,0.9782265326456157, ,1.2631380558013916
0.016653116472048556,0.020389147840396984,-0.0887837267581139, ,0.018018821979585896,0.019856987976828434,-0.0894606705516107, ,0.00161449637759425, ,0.03433832658188971,-0.0026976894840838924,-0.03742497315923278,0.08648211574094236,0.11472716973272545,-0.42942735628594725, ,0.050862823525305245, ,0.14367117455870035, ,0.0007512796019038921, ,0.181175313229307,-0.12620490063057693,0.10572411611000002,3.184770861642956,1.3430001561945142,-0.4525599267463228, ,0.15975916087284645,0.08375722997217191,0.04236386042553192,1.4220033253520064,0.08198610234370587,0.9782265326456157, ,1.2648749351501465
0.016653116472048556,0.020389147840396984,-0.0887837267581139, ,0.01807543928509505,0.019850045773087268,-0.08952076287957238, ,0.0016902234964124307, ,0.03433832658188971,-0.0026976894840838924,-0.03742497315923278,0.08648211574094236,0.11472716973272545,-0.42942735628594725, ,0.050862823525305245, ,0.14367117455870035, ,0.0007573766401799215, ,0.181175313229307,-0.12620490063057693,0.10572411611000002,3.184770861642956,1.3430001561945142,-0.4525599267463228, ,0.15975916087284645,0.08375722997217191,0.04236386042553192,1.4220033253520064,0.08198610234370587,0.9782265326456157, ,1.2669501304626465
0.016653116472048556,0.020389147840396984,-0.0887837267581139, ,0.01813190183079702,0.01984312103210932,-0.08958087280697624, ,0.001766463482734496, ,0.03433832658188971,-0.0026976894840838924,-0.03742497315923278,0.08648211574094236,0.11472716973272545,-0.42942735628594725, ,0.050862823525305245, ,0.14367117455870035, ,0.000763886877873822, ,0.181175313229307,-0.12620490063057693,0.10572411611000002,3.184770861642956,1.3430001561945142,-0.4525599267463228, ,0.15975916087284645,0.08375722997217191,0.04236386042553192,1.4220033253520064,0.08198610234370587,0.9782265326456157, ,1.270604133605957
0.016653116472048556,0.020389147840396984,-0.0887837267581139, ,0.01818820974644349,0.019836214031027963,-0.08964100042469156, ,0.001843140064684018, ,0.03433832658188971,-0.0026976894840838924,-0.03742497315923278,0.08648211574094236,0.11472716973272545,-0.42942735628594725, ,0.050862823525305245, ,0.14367117455870035, ,0.0007708051675328618, ,0.181175313229307,-0.12620490063057693,0.10572411611000002,3.184770861642956,1.3430001561945142,-0.4525599267463228, ,0.15975916087284645,0.08375722997217191,0.04236386042553192,1.4220033253520064,0.08198610234370587,0.9782265326456157, ,1.2737171649932861
0.016653116472048556,0.020389147840396984,-0.0887837267581139, ,0.01824436316234613,0.019829325046097347,-0.0897011458225441, ,0.0019201888787774028, ,0.03433832658188971,-0.0026976894840838924,-0.03742497315923278,0.08648211574094236,0.11472716973272545,-0.42942735628594725, ,0.050862823525305245, ,0.14367117455870035, ,0.0007781260828911073, ,0.181175313229307,-0.12620490063057693,0.10572411611000002,3.184770861642956,1.3430001561945142,-0.4525599267463228, ,0.15975916087284645,0.08375722997217191,0.04236386042553192,1.4220033253520064,0.08198610234370587,0.9782265326456157, ,1.2766051292419434
0.016653116472048556,0.020389147840396984,-0.0887837267581139, ,0.018300362209376083,0.019822454352693336,-0.08976130908931815, ,0.001997555316488675, ,0.03433832658188971,-0.0026976894840838924,-0.03742497315923278,0.08648211574094236,0.11472716973272545,-0.42942735628594725, ,0.050862823525305245, ,0.14367117455870035, ,0.000785843989432864, ,0.181175313229307,-0.12620490063057693,0.10572411611000002,3.184770861642956,1.3430001561945142,-0.4525599267463228, ,0.15975916087284645,0.08375722997217191,0.04236386042553192,1.4220033253520064,0.08198610234370587,0.9782265326456157, ,1.2784149646759033
0.016962518307347085,0.02036417846569334,-0.08911911106134028, ,0.01835620701896222,0.019815602225314453,-0.08982149031275832, ,0.0016542795196744296, ,0.03280557804367852,-0.002692418816463142,-0.03611605359310272,0.0017534528009564739,0.06875280686493628,-0.1030909889460164, ,0.04886537012039298, ,0.06877471629476146, ,0.0007913058481136285, ,0.18269669160552923,-0.12545579554177716,0.10610263279000001,3.196723188421574,1.3435467021935759,-0.44328582828438157, ,0.17316960138407075,0.08021719489304377,0.04063472326530613,1.1276455253994904,0.05059067234915375,1.0227758084703207, ,1.2802250385284424
0.016962518307347085,0.02036417846569334,-0.08911911106134028, ,0.018411897723090716,0.01980876893758278,-0.08988168957957123, ,0.0017293659043605112, ,0.03280557804367852,-0.002692418816463142,-0.03611605359310272,0.0017534528009564739,0.06875280686493628,-0.1030909889460164, ,0.04886537012039298, ,0.06877471629476146, ,0.0007971687234651717, ,0.18269669160552923,-0.12545579554177716,0.10610263279000001,3.196723188421574,1.3435467021935759,-0.44328582828438157, ,0.17316960138407075,0.08021719489304377,0.04063472326530613,1.1276455253994904,0.05059067234915375,1.0227758084703207, ,1.2818989753723145
0.017428232802522037,0.020309177058162937,-0.0896641501139906, ,0.018467434454303523,0.019801954762244982,-0.08994190697542707, ,0.0011892701142367484, ,0.025476264868359574,-0.004009774584770479,-0.03209693656651144,-0.02970597603182252,-0.0995683351832519,0.5956369266587145, ,0.0411744058951449, ,0.10390507358844597, ,0.0007996041358302125, ,0.18560816189911186,-0.12405798089154252,0.10671577796000001,3.2072076855958,1.345186340190761,-0.4288588462816102, ,0.1909395202383718,0.09340250153392793,0.03620184436363637,0.18677382822184022,0.16301638214165856,0.7816225958030212, ,1.2835850715637207
0.017428232802522037,0.020309177058162937,-0.0896641501139906, ,0.018522817345697617,0.019795159971173128,-0.09000214258496149, ,0.0012556145102336886, ,0.025476264868359574,-0.004009774584770479,-0.03209693656651144,-0.02970597603182252,-0.0995683351832519,0.5956369266587145, ,0.0411744058951449, ,0.10390507358844597, ,0.0008024190146845549, ,0.18560816189911186,-0.12405798089154252,0.10671577796000001,3.2072076855958,1.345186340190761,-0.4288588462816102, ,0.1909395202383718,0.09340250153392793,0.03620184436363637,0.18677382822184022,0.16301638214165856,0.7816225958030212, ,1.2852590084075928
0.017428232802522037,0.020309177058162937,-0.0896641501139906, ,0.01857804653092399,0.019788384835365463,-0.09006239649177686, ,0.001323592205616142, ,0.025476264868359574,-0.004009774584770479,-0.03209693656651144,-0.02970597603182252,-0.0995683351832519,0.5956369266587145, ,0.0411744058951449, ,0.10390507358844597, ,0.0008056163962240125, ,0.18560816189911186,-0.12405798089154252,0.10671577796000001,3.2072076855958,1.345186340190761,-0.4288588462816102, ,0.1909395202383718,0.09340250153392793,0.03620184436363637,0.18677382822184022,0.16301638214165856,0.7816225958030212, ,1.286940097808838
0.017428232802522037,0.020309177058162937,-0.0896641501139906, ,0.018633122144186273,0.01978162962494779,-0.0901226687784448, ,0.001392947947915076, ,0.025476264868359574,-0.004009774584770479,-0.03209693656651144,-0.02970597603182252,-0.0995683351832519,0.5956369266587145, ,0.0411744058951449, ,0.10390507358844597, ,0.0008091976861733483, ,0.18560816189911186,-0.12405798089154252,0.10671577796000001,3.2072076855958,1.345186340190761,-0.4288588462816102, ,0.1909395202383718,0.09340250153392793,0.03620184436363637,0.18677382822184022,0.16301638214165856,0.7816225958030212, ,1.288633108139038
