NicholasDascanio/dvrk_moveit_final/test/execution/third_experiment_notsharpbends/thirdexp_700vel5.0/thirdexp_700vel5.0_26.csv
Current Position (x),Current Position (y),Current Position (z), ,Planned Position (x),Planned Position (y),Planned Position (z), ,Position Error,,Cartesian linear Velocity(x),Cartesian linear Velocity(y),Cartesian linear Velocity(z),Cartesian Angular Velocity(x),Cartesian Angular Velocity(y),Cartesian Angular Velocity(z), ,Total Linear Velocity, ,Total Angular Velocity, ,MSE, ,Joint 1 Position,Joint 2 Position,Joint 3 Position,Joint 4 Position,Joint 5 Position,Joint 6 Position, ,Joint 1 Velocity,Joint 2 Velocity,Joint 3 Velocity,Joint 4 Velocity,Joint 5 Velocity,Joint 6 Velocity, ,Time Stamp
0.009840922333096537,0.020579204188217258,-0.0772729079099259, ,0.009904087417296915,0.020493066844509966,-0.07706347115278557, ,0.00023510258417220028, ,-2.073293787067902e-05,-2.7740291102262926e-05,-1.1356330110797644e-06,0.000489529443536592,0.0029506063437303408,0.02713872621475802, ,3.465065837070889e-05, ,0.0029909391287271255, ,1.9591882014350024e-05, ,0.08172195927504376,-0.1592736427980063,0.09306325168000001,3.5550833018366257,1.2771413633075719,-0.20462445311039074, ,-0.00017754042443924605,0.00037762946257948946,-8.578949063765944e-06,-0.0008701391014262678,0.0,0.0264903770122214, ,0.016047000885009766
0.009849572127963401,0.020576618540572415,-0.0772622033691904, ,0.00993094919961909,0.020493120857449452,-0.07719530680468063, ,0.00013442187776313618, ,0.0016932211451519252,-4.799932112328569e-05,0.0010152930259282494,0.3438331392651149,-0.001398699272919815,0.7520952056377948, ,0.0019748725806280347, ,0.3438359841793192, ,1.6796566451606202e-05, ,0.08171423654216954,-0.15925819733225785,0.09306714055000001,3.5561317515540485,1.2787810013047571,-0.19558826795689654, ,0.00036888063603722157,0.0009094740527826506,0.001956135517622498,0.17536356993070584,0.3250076091981673,0.9271671474642522, ,0.03249502182006836
0.0098723916383542,0.020597685986285412,-0.07718976714999426, ,0.009957944584485139,0.020493154791917927,-0.07732698931131592, ,0.000192551288609978, ,0.0010260381071538864,0.001121029181895695,0.004521604152869644,0.8691884205614606,-0.30268077753358846,0.5503827732656182, ,0.004770153534137206, ,0.9203826180064214, ,1.7564867204541077e-05, ,0.08172968200791798,-0.15921958366788672,0.09314880682000001,3.5573898912149557,1.2957239272756718,-0.18220506754844562, ,0.0008316929747074865,0.0018064511758974207,0.006374074237695079,-0.011759045895101678,0.9801455394732822,0.4299881754862451, ,0.0490570068359375
0.009880068239170784,0.0206160295088339,-0.07719147561866835, ,0.009985072931599578,0.020493168784616458,-0.07745851782863197, ,0.0003121414501304763, ,0.0008833180936644013,0.0015263159927735878,-0.003416916259954959,0.5368138430649751,-0.20361858292207635,0.33863155095437186, ,0.0038451538450283, ,0.5741338079375892, ,2.0814695254185492e-05, ,0.0817374047407922,-0.15918869273638983,0.09323047309000002,3.5571802012714713,1.30446866326066,-0.17765575354491603, ,0.0005145258627075606,0.003957196374928805,0.00874248711306257,0.0,0.5805633848954814,0.33392618974804467, ,0.0656130313873291
0.009896898176452099,0.02063150949472716,-0.07729609622663633, ,0.010012333602143878,0.020493162972155754,-0.07758989151592637, ,0.0003446458614596424, ,0.0010192467075493792,0.0009252657674332799,-0.008882469854897691,-0.07993480938306467,-0.017685061264783846,-0.6452115877601692, ,0.008988506623149385, ,0.08186779029479925, ,2.3439674271835256e-05, ,0.08175285020654066,-0.15914235633914448,0.09335491693,3.557809271101925,1.3065182107571416,-0.17867359217923806, ,0.0009496987824178305,0.002779501130052138,0.00832661344485102,0.035449613543783856,-0.07105268172879019,-0.6116181201205539, ,0.08668208122253418
0.009917675758251353,0.02063377600927603,-0.0774633094421346, ,0.010039725958775017,0.020493137491055975,-0.0777211095358504, ,0.0003180193902498329, ,0.0009886125985557603,-7.689037658424277e-05,-0.011089482496511713,-0.6066740699428418,0.22959228209388188,-0.46579378098065766, ,0.011133727544738738, ,0.6486648155791863, ,2.478842665137526e-05, ,0.081799186603786,-0.15908057447615068,0.09346121271,3.559067410762832,1.2996863857688694,-0.19221552218730836, ,0.003721718927347963,0.002453610366429057,0.005257033504950496,0.05403790419158551,-0.6520346831525174,-0.4072246794810833, ,0.10586690902709961
0.009943102498942827,0.020645806677541678,-0.07771606160844483, ,0.010067249365624068,0.020493092477746753,-0.07785217105440602, ,0.00023929031030452813, ,0.0008299893901063942,0.00033102624897667304,-0.004585296946731349,0.13465371587073952,-0.05303836213554439,0.04186083705503989, ,0.004671553152315039, ,0.14472280764893997, ,2.466906614846937e-05, ,0.08188413666540248,-0.15889522888716928,0.09366602653000002,3.559486790649801,1.2943575622780172,-0.18901372630511565, ,0.0015450856780230855,0.008368885268456527,0.005901745653945907,0.022235247538985838,0.15209465005336972,0.06309831879952427, ,0.12769699096679688
0.009961552689403314,0.020649451550542486,-0.07782148903554229, ,0.010094903188294773,0.020493028068567044,-0.07798307524093985, ,0.0002614589127237897, ,0.0009696693290887342,-2.9045107799112414e-05,-0.005104494009598879,0.029306648032335403,0.004433600404775505,0.057636453935678955, ,0.0051958600173689536, ,0.029640115181539584, ,2.4849166773336395e-05, ,0.08190730486402514,-0.15873305149681058,0.09378139634,3.560325550423739,1.2955872907759065,-0.1857691929510744, ,0.0010531371476586945,0.009040975315551297,0.005322021891079186,0.05406047528480769,0.033512405341156036,0.11175201104819074, ,0.14548301696777344
0.0099699238905983,0.02065259495687643,-0.0778780580757203, ,0.010122686793862265,0.020492944399764963,-0.0781138212681421, ,0.00032312395129509606, ,0.0010483111891207968,0.00016832419182955622,-0.005302721754991141,0.04706024480235311,-0.02777727631061576,-0.09082477988676228, ,0.005407970727883727, ,0.05464653434483283, ,2.566038724683348e-05, ,0.08194591852839628,-0.15864037870231987,0.09384361826000001,3.560325550423739,1.2962704732747337,-0.18616292498927528, ,0.003635611652632366,0.008681997597876906,0.00579651074235808,0.03319523853747206,0.059744498519153894,-0.05836356146311702, ,0.1641838550567627
0.010000778746812888,0.020654966598887013,-0.0780213908733179, ,0.010150599550871518,0.020492841607497835,-0.07824440831204099, ,0.0003137954176471093, ,0.0017691854832834518,0.0002335998140459755,-0.008028620395634994,-5.231565661971589e-05,0.01349389543011236,-0.09391626924513234, ,0.00822455662054736, ,0.013493995607246213, ,2.6221088670154798e-05, ,0.0820154231242643,-0.1584550331133385,0.09398750645000001,3.562003069971615,1.296407109774499,-0.1862743428929719, ,0.0035856107087076502,0.008511304225287248,0.008024590186397985,0.10302655446578547,-0.0001573370534774594,0.008215137560830464, ,0.1806778907775879
0.010021726274880684,0.020664686496118606,-0.07819062081452086, ,0.010178640829336038,0.02049271982783181,-0.07837483555199914, ,0.00029686660624896543, ,0.00098249166229119,0.0005895954296063288,-0.008525908776725419,-0.009548067790131575,-0.0037363338938262445,-0.002709731256636016, ,0.008602559683380749, ,0.010253084630500689, ,2.653051473754245e-05, ,0.08208492772013232,-0.15825424205860866,0.09415472786000001,3.5622127599151,1.2962704732747337,-0.18608124624913475, ,0.0035567287877408776,0.009523577222511485,0.008499899423692638,0.0,0.0,-0.001938001364189243, ,0.19749188423156738
0.01003391046080145,0.02066865043965718,-0.07826980615741601, ,0.0102068100007364,0.02049257919674215,-0.07850510217071027, ,0.0003409685430703769, ,0.001207988527128475,0.0005552100008369937,-0.009108402405137843,-0.008368711735696812,-0.00016869853191974057,-0.01928783532725741, ,0.009204916555875142, ,0.00837040815122041, ,2.737509250971183e-05, ,0.08216215504887456,-0.15806889646962727,0.09432324556,3.563680589519491,1.296133836774968,-0.18580647086515706, ,0.005417226157357918,0.00952368456792688,0.008709027621651176,0.11196153161719066,0.0,0.005605882411535908, ,0.2136540412902832
0.010067934568858789,0.020675289320504765,-0.07844904081274258, ,0.010235106438018938,0.020492419850112818,-0.07863520735419512, ,0.0003099123395354372, ,0.0014263765357395335,0.00018006359763264113,-0.007402944840325771,-0.00559653237912025,0.005387634148676135,0.015406282641332897, ,0.007541257536366641, ,0.007768381694810597, ,2.786383487085053e-05, ,0.08223165964474258,-0.1579530554765139,0.09441139328,3.5638902794629757,1.296133836774968,-0.18523471968417315, ,0.006207039255778219,0.010574826651091386,0.007367627900092507,0.04043277934864908,0.0,0.056337766318697524, ,0.2295670509338379
0.010077817764630416,0.020677953369616267,-0.0785169084366995, ,0.01026352951559423,0.020492241923736405,-0.07876515029179741, ,0.00036138845332866413, ,0.0011414270235517907,9.026902405563013e-05,-0.006912531775871248,-0.007968912022976145,0.003230271076343299,0.0142457417936878, ,0.0070067181832315735, ,0.008598732131758373, ,2.8659618608195923e-05, ,0.0823320551721075,-0.1577368189560356,0.09454491115000001,3.5645193492934295,1.296133836774968,-0.18449961102290802, ,0.005015177546863543,0.011360936916863958,0.006763826547770702,0.026623525039062526,0.0,0.03708871045705074, ,0.24445390701293945
0.010104188557180978,0.020675180959716412,-0.07862706068652407, ,0.010292078609335736,0.02049204555331424,-0.0788949301761807, ,0.0003749604142649024, ,0.002115737927812242,-0.00035038210497953005,-0.006920884277624084,0.002342021575687747,0.023177139759628398,-0.11800223702825974, ,0.007245533367733349, ,0.023295168095978414, ,2.945032027570362e-05, ,0.08235522337073017,-0.1576673143601676,0.09458768872000001,3.565358109067368,1.296133836774968,-0.18425457480248641, ,0.004001717655221607,0.011138201312448921,0.006854049707401034,0.15309231892311795,0.0,0.03375630407762453, ,0.2627129554748535
0.010134829890507105,0.02067802669733837,-0.07879023223342775, ,0.010320753096578433,0.020491830874455982,-0.07902454620332362, ,0.0003523341588649251, ,0.0010855741395987156,0.000285772524402811,-0.007953911817542788,-0.01118801524108,-0.0030366693814815934,0.023980246125938957, ,0.008032736168300057, ,0.011592800098860462, ,3.00062519724144e-05, ,0.08248650982959199,-0.1574201869081924,0.09474972497,3.5661968688413053,1.296133836774968,-0.1837645023616431, ,0.005374508608678523,0.011977211300295913,0.007885550257425744,0.0,0.0,0.025087510768607157, ,0.2789628505706787
0.010152897792523674,0.02067936658295701,-0.07888826428888004, ,0.010349552356117406,0.02049159802267985,-0.07915399757251666, ,0.0003801897258515776, ,0.0013368148883884205,0.0001592202162373148,-0.007986809146116939,-0.008811721243640462,0.0020065607530102593,-0.006743738262262228, ,0.008099478097974757, ,0.009037294110097613, ,3.066970653928095e-05, ,0.08254829169258579,-0.15727345498358214,0.09484694672,3.566825938671759,1.296133836774968,-0.18343778740108085, ,0.005309605806608594,0.012184948160470043,0.007916904333996026,0.03155842746707076,0.0,0.02544613787863022, ,0.2936849594116211
0.010184759787193068,0.02068262683323901,-0.07906174390100046, ,0.01037847576820629,0.020491347133412198,-0.07928328348635859, ,0.00035098944819809497, ,0.0016989702923261296,0.0002825430468579441,-0.00961599724028191,-0.008314563427684347,0.0038427434882720725,-0.009880782113834238, ,0.009769019068086816, ,0.009159615728334118, ,3.109806133553562e-05, ,0.08266413268569915,-0.15702632753160695,0.095018057,3.567874388389182,1.2959972002752027,-0.1824279033558383, ,0.0067117744427176015,0.013185624782335802,0.009566853765765769,0.045727207000413134,0.0,0.03639443425358387, ,0.31208086013793945
0.010218421500647099,0.020688635762233655,-0.079249023232151, ,0.010407522714556198,0.02049107834198756,-0.07941240315075208, ,0.00031856114200932604, ,0.0018873887318023273,-3.4446796314688494e-05,-0.008223125147734111,-0.0012823390570148073,0.00895931142133119,-0.0744689869550338, ,0.008437014282434745, ,0.009050614178155579, ,3.130827106373946e-05, ,0.08278769641168675,-0.156786922812506,0.09520342647,3.5689228381066047,1.295860563775437,-0.18166305553101725, ,0.005781146034102016,0.01234672671851038,0.008193833086419754,0.09235439872546074,0.0032306017907187657,0.017511573515704384, ,0.3271670341491699
0.010234157333684435,0.02068752384669867,-0.07931306493868853, ,0.010436692578334,0.0204907917836487,-0.07954135577490021, ,0.0003630987962736619, ,0.0020948852881240584,-0.00012953636008350314,-0.008427228796182563,-0.0007424544283085796,0.011038336657895427,-0.09010292189990532, ,0.008684670933443068, ,0.011063275837098534, ,3.172964078757369e-05, ,0.08283403280893209,-0.15668652728514107,0.09526694468,3.569761597880543,1.295860563775437,-0.18149969805073607, ,0.006468556808959141,0.013136342962136043,0.008392419135932562,0.10924734328189667,0.00312911524690217,0.018580007992495984, ,0.34454989433288574
0.010259985750909856,0.020689800577614093,-0.07947693685326719, ,0.01046598474416096,0.020490487593546075,-0.0796701405713025, ,0.00034567170480274436, ,0.001170511621575887,-4.216186868509996e-05,-0.007289213383234548,-0.007535516509036741,0.0026750587863089642,0.030549652085559504, ,0.007382716764561734, ,0.00799624461795452, ,3.2027189984180525e-05, ,0.08296531926779391,-0.156408508901669,0.09542898093,3.569971287824027,1.295860563775437,-0.18076458938947115, ,0.004761281425328729,0.013556705936924398,0.0071978362042476275,0.022396276414011144,0.002741942813451479,0.053954091489324466, ,0.3593719005584717
0.01027444956390152,0.020688874141734634,-0.07954390786825286, ,0.010495398598111572,0.020490165906738387,-0.07979875675575127, ,0.0003914733628650299, ,0.0013180515634655656,3.2756330634250985e-05,-0.008165144009719063,-0.012160479005448924,0.0013753249613066825,0.000681430742667951, ,0.00827090742304626, ,0.012238003599380912, ,3.2516425306490504e-05, ,0.08301165566503925,-0.15629266790855562,0.09549638801000002,3.5706003576544805,1.2959972002752027,-0.180630971072746, ,0.0054677938172044555,0.014092209913642822,0.008048919413845378,0.025044119555995156,-0.0010749440876229959,0.026645551683012653, ,0.3742539882659912
0.01030148351192937,0.020686050129301012,-0.0796606064678599, ,0.010524933527711815,0.02048982685819165,-0.07992720354732755, ,0.00039938388107022156, ,0.0017522893306164981,7.01205983974244e-05,-0.008598494857010175,-0.004993925375611561,0.012325757502972942,-0.03265269896296201, ,0.008775508452650618, ,0.013299005289032747, ,3.315228137324072e-05, ,0.08312749665815262,-0.1559992040593351,0.09568175748,3.5722778772023567,1.2959972002752027,-0.1796508261910592, ,0.006619149059745965,0.014132083627471448,0.009342411448680353,0.026860648082536166,-0.0010749440876229959,0.030519174418142517, ,0.38912296295166016
0.010330425010688132,0.02069169962154827,-0.0798498649468683, ,0.010554588921938023,0.02048947058277996,-0.08005548016839775, ,0.0003652720391059379, ,0.001230121612012203,0.00043504354286256455,-0.009417003929533506,-0.01375688237384843,-0.0011585912449843735,0.03414391055987567, ,0.009506967185878755, ,0.01380558119979952, ,3.3593046959672494e-05, ,0.08320472398689487,-0.15582930393610217,0.09579842358000001,3.572487567145841,1.295860563775437,-0.1790493358465194, ,0.0055427116659776746,0.012580795646091844,0.009336935240328255,0.0,-0.0025358075908011105,0.03539181728993739, ,0.4021320343017578
0.010348659885152703,0.02069261680061689,-0.07993584130426795, ,0.010584364171215343,0.020489097215284698,-0.08018358584460926, ,0.0003979372932397918, ,0.002367208733785568,5.119535652551438e-06,-0.01003397278962175,-0.004563852770194995,0.016698198729259782,-0.091380504313916, ,0.010309428371244725, ,0.017310646758560155, ,3.414280405568275e-05, ,0.08325878311701444,-0.1557134629429888,0.09588397872000001,3.5733263269197795,1.295860563775437,-0.17872262088595708, ,0.006683044840036565,0.013518082843087005,0.009967967158948689,0.12433407640493539,-0.0025358075908011105,0.03233522509041092, ,0.4155158996582031
0.010372373001138226,0.0206917259993966,-0.08003230574910279, ,0.01061425866741635,0.020488706890394788,-0.08031151980488685, ,0.00042152808105520666, ,0.0022968177460672102,-7.05741978713429e-08,-0.010102062080862916,-0.006158266380054515,0.015320770813556102,-0.05461913535020138, ,0.010359875966884853, ,0.01651212154512202, ,3.475344458494096e-05, ,0.08332828771288246,-0.15557445375125276,0.09597990418,3.5745844665806867,1.295860563775437,-0.17831422718525436, ,0.007383201173605958,0.014395773901467047,0.010024425122718693,0.10759888836890223,-0.0025358075908011105,0.05279807684906701, ,0.43224501609802246
0.010402714732325475,0.020697891707724642,-0.08021061690143376, ,0.01064427180385965,0.020488299742706523,-0.08043928128142966, ,0.00039314883859326336, ,0.0014375800418843583,0.00015700188592246162,-0.008272631996446572,-0.011466914815833645,0.0028046213108402053,0.04026977301217866, ,0.008398078715851564, ,0.011804914118516443, ,3.5212095110493694e-05, ,0.0834981878361154,-0.15531960356640334,0.09615749591000002,3.5747941565241708,1.295860563775437,-0.17700736734300532, ,0.00722357785884223,0.01279624346797071,0.008189620318766069,0.020324962474177748,-0.0025358075908011105,0.061681511534247564, ,0.44605493545532227
0.010444597993682268,0.020689928204690376,-0.08035885129923612, ,0.01067440297530838,0.020487875906723477,-0.08056686950970542, ,0.00037000950877069607, ,0.0024669728508197476,-0.0005381397280108562,-0.007448400462529673,-0.0031648136314704808,0.01804779638417988,-0.12833994119024517, ,0.007864745314614934, ,0.018323181402841983, ,3.555307097106029e-05, ,0.08367581069222256,-0.15502613971718282,0.09630397668000001,3.576681366015532,1.295860563775437,-0.17610890120145917, ,0.008030157443923902,0.01390024045092585,0.00735062829718505,0.14962829324154314,-0.0025358075908011105,0.020267090914424683, ,0.45925092697143555
0.010460520937599464,0.02068848089505475,-0.08042155449326699, ,0.010704651577969043,0.020487435516856216,-0.08069428372844875, ,0.00041761255894079836, ,0.0020951647817992257,-9.052959068547883e-05,-0.008699118375351847,-0.010548086682379627,0.0029748676586502498,-0.05246147450159096, ,0.008948327864917872, ,0.010959558404818805, ,3.605190239867196e-05, ,0.08374531528809058,-0.15491802145694367,0.09636619860000001,3.5773104358459857,1.295860563775437,-0.1761905799415997, ,0.010132643984415005,0.014439583316870173,0.008624153502977802,0.06824774025187998,-0.0025358075908011105,0.016048247209138847, ,0.4738650321960449
0.010485367335357973,0.02069127837739658,-0.08055699144959855, ,0.010735017009489894,0.02048697870742245,-0.08082152317965649, ,0.00041718143673126376, ,0.0017190370038258366,0.0003094512749729568,-0.009597429965453139,-0.014639058997842383,-0.004379393086610287,-0.007625358707336971, ,0.009755076127528822, ,0.015280086738012136, ,3.652014318973337e-05, ,0.08389204721270085,-0.1547095076693396,0.09649971647000001,3.57752012578947,1.2957239272756718,-0.17591580455762235, ,0.009517827906368135,0.013470112357483433,0.009538210491017966,0.01761273780042264,-0.003321374885917061,0.010936361242571838, ,0.4876220226287842
0.010517833370554579,0.02069143014772319,-0.08069732992997465, ,0.010765498668959546,0.020486505612646925,-0.08094858710858338, ,0.00040799795944669186, ,0.0027451588191037533,-0.00021345359249219176,-0.010302739209504015,-0.011586620969658705,0.012698115895256589,-0.09306958316918566, ,0.010664328136235416, ,0.017189875412645175, ,3.6929460553439466e-05, ,0.08404650187018534,-0.15450099388173555,0.09663712321000001,3.5785685755068926,1.2954506542761408,-0.17536625378966691, ,0.011311894949240762,0.016406801790883607,0.010191178195777351,0.12073973153310143,-0.00673827864344787,0.02740186717362797, ,0.501702070236206
0.01056154860065898,0.020691189291926683,-0.08086459436417, ,0.010796095956905567,0.02048601636666088,-0.08107547476373883, ,0.0003762697629450186, ,0.0014613041752086172,0.0003514668749536505,-0.008410202350827628,-0.02094348800154773,-0.008230247969435379,0.06607226188843829, ,0.008543444413030284, ,0.022502591611491866, ,3.720724089198758e-05, ,0.08424729292491517,-0.15426158916263458,0.09680304833000002,3.5802460950547688,1.2953140177763756,-0.17468308470498672, ,0.011816352491549454,0.012468393319993533,0.00832661344485102,-0.025898972570134123,-0.008488400409385477,0.04192855311933658, ,0.5160079002380371
0.010581372339341946,0.020693927809416264,-0.08096458930996575, ,0.010826808275293252,0.02048551110350271,-0.08120218539688345, ,0.00040016024599996724, ,0.002173626699784905,0.00032190164479585785,-0.010481073471643322,-0.018164207133801694,-0.0002896735150142368,0.038573721057270076, ,0.010708929676532829, ,0.01816651328854613, ,3.755005801193429e-05, ,0.08436313391802855,-0.15413030270377276,0.09688341831000001,3.5800364051112843,1.2953140177763756,-0.174438048484565, ,0.013399737582387853,0.014925596344521987,0.009943078352059926,0.008063446229370497,-0.008488400409385477,0.056888216229307426, ,0.5303208827972412
0.010634897515123256,0.020695086574198242,-0.08116518827582309, ,0.01085763502752387,0.020484989957117228,-0.08132871826302422, ,0.0003471233853448998, ,0.0021738492662070983,1.989626696274503e-06,-0.00865961779609849,-0.014359113892286153,0.005584827112436899,-0.009275686947697585, ,0.00892830358832568, ,0.015406959367487738, ,3.782545990494527e-05, ,0.08464887503437485,-0.15382911612167802,0.09710378761,3.5821333045461294,1.2953140177763756,-0.17329454612259715, ,0.011905755616457334,0.013276013088762,0.008573095543595265,0.059244628358317446,-0.008488400409385477,0.05053659979183471, ,0.5418920516967773
0.01065131189218832,0.020696549923868976,-0.08124179527584531, ,0.010888575618433555,0.020484453061355695,-0.08145507262041177, ,0.0003831010057218212, ,0.001969244750878551,0.00018018674272005683,-0.009875098399621527,-0.019817686912790698,-0.0013537976004081576,0.0267218199574227, ,0.010071144947488465, ,0.019863871440564625, ,3.820348797646988e-05, ,0.08474927056173977,-0.15371327512856464,0.09718026872,3.582342994489614,1.2953140177763756,-0.172967831162035, ,0.012119660480009039,0.015161677833275409,0.00976628541998774,0.018078533530429573,-0.008488400409385477,0.04613970180976604, ,0.5537259578704834
0.010678889675338069,0.020694392311020677,-0.08134870113227573, ,0.010919629454291823,0.0204839005499758,-0.08158124773053527, ,0.00039539896686835105, ,0.0028118943078680536,-0.00017498156085450503,-0.010266723278479807,-0.011275127754554838,0.015032548585021236,-0.07925374394826976, ,0.010646265778297056, ,0.01879111249436154, ,3.86034084484482e-05, ,0.08487283428772736,-0.15353565227245747,0.0972865645,3.5833914442070363,1.2953140177763756,-0.172396079981051, ,0.011721460172736016,0.015425380617436733,0.010165163701340142,0.12376012754090823,-0.008488400409385477,0.044241821479678645, ,0.5667948722839355
0.010717227186980567,0.02069608095275899,-0.08150402459050336, ,0.010950795942800044,0.020483332556641844,-0.08170724285812041, ,0.00037565131177562594, ,0.0022940415857211098,0.0001467304070590324,-0.010391478798449125,-0.014484230657881556,0.0042903340767761755,-0.0007593678899267911, ,0.01064269647354425, ,0.015106282900614118, ,3.8925816560486393e-05, ,0.08505817987670874,-0.1533271384848534,0.09744082301000001,3.584649583867944,1.2951773812766099,-0.17138619593580834, ,0.011954767140144972,0.014885794754269925,0.010316587772020727,0.054118910792131596,-0.006561835600724924,0.05415001381979575, ,0.58632493019104
0.010747532042739996,0.020699110916820876,-0.08165750576884491, ,0.010982074493090159,0.02048274921492396,-0.08183305727112368, ,0.0003641989525195288, ,0.0020372906660405246,-8.375087016392535e-05,-0.008406470409108049,-0.01633126508292891,-0.00168870053589955,0.04342640142136871, ,0.008650220355886798, ,0.01641833995038251, ,3.920042205927718e-05, ,0.08526669366431282,-0.15308001103287824,0.09759378523000001,3.584649583867944,1.2951773812766099,-0.17040605105412154, ,0.01390024045092585,0.015370414894472106,0.008317917242819845,0.022270839625520077,-0.00556643725828771,0.06707776985074337, ,0.5976550579071045
0.010769097674802702,0.020695958960482465,-0.08173189670145674, ,0.011013464515723272,0.020482150658298545,-0.08195869024072999, ,0.00039606117264932524, ,0.0018403969402858355,-0.000209799703756917,-0.007565885120635986,-0.016331274528886885,-0.0023271959086206906,0.011122556607674094, ,0.007789332094099658, ,0.016496252415130655, ,3.955719102770646e-05, ,0.0853902573903004,-0.15293327910826796,0.09766767376,3.5852786536983974,1.2951773812766099,-0.16991597861327812, ,0.012040139364749942,0.015127840197428789,0.007453819148338794,0.02557875216901318,-0.005113004036426844,0.03785727215730942, ,0.6092400550842285
0.010800085686710686,0.020688393263016754,-0.08181151722524832, ,0.011044965422688104,0.020481537020148006,-0.08208414104134769, ,0.0004208079554983798, ,0.0031140639482234713,-0.0007619113353881737,-0.008368782110738918,-0.004891252561949486,0.020364435366721098,-0.11185313845725287, ,0.008961831128382294, ,0.02094360375819582, ,3.997071866651231e-05, ,0.085513821116288,-0.15277882445078347,0.09774415487000002,3.586956173246274,1.2951773812766099,-0.16950758491257528, ,0.01281871424536955,0.01679889211514795,0.0082489961263594,0.16911550460141456,-0.004724245722194494,0.05634904251363504, ,0.6218419075012207
0.010816384154710281,0.02068644439677791,-0.08186885364811632, ,0.011076576627399783,0.02048090843376066,-0.08220940895060634, ,0.00047531365327726393, ,0.002375105843782574,-0.0001944663103327106,-0.009067335747348854,-0.0126041107319637,0.0030381885196781935,-0.04760217202477626, ,0.009375261194770786, ,0.012965112245308788, ,4.0521475349925485e-05, ,0.08577639403401163,-0.15245446967006604,0.09795285756000001,3.5877949330202115,1.2951773812766099,-0.1686091187710292, ,0.010613133641786112,0.014563680411060587,0.00997420884157796,0.0,-0.004017316329663836,0.03804206458794078, ,0.6343798637390137
0.0108705955972127,0.020689683026314836,-0.08212887394447839, ,0.011108297544698175,0.020480265032330587,-0.082334493249351, ,0.0003776736826667606, ,0.0026899958408522513,-0.0001131387897531002,-0.010567905657551738,-0.004615816524261004,0.01120004633345504,-0.044147797244152694, ,0.01090548064032316, ,0.012113903922696033, ,4.078120837538759e-05, ,0.08588451229425077,-0.15228456954683312,0.09806174592000001,3.58863369279415,1.2950407447768446,-0.16817098590677043, ,0.011192290270484236,0.01582670806512188,0.010534928253968255,0.10730858252931387,0.0,0.06321538580581613, ,0.6468870639801025
0.010900583826910441,0.020686722996039485,-0.08223021537349856, ,0.011140127590846748,0.020479606948957618,-0.08245939322163968, ,0.0003908973751231734, ,0.002770821420518878,-0.00011598147386415823,-0.010535276907096585,-0.0047791634404040296,0.009123530453350324,-0.06388614952082218, ,0.010894171035736889, ,0.010299469954164111, ,4.10669235962425e-05, ,0.08600035328736413,-0.1521301148893486,0.09816285654000001,3.590101522398542,1.2950407447768446,-0.1674358772455054, ,0.011941280197138499,0.015656977653600194,0.010514067009900992,0.10977409044170469,0.0,0.0458031880584323, ,0.6592190265655518
0.010920159163561725,0.020688725655535558,-0.0823234975421038, ,0.011172066183530987,0.020478934316646963,-0.08258410815473935, ,0.0004187928413914675, ,0.0022099197722389033,0.0003411900591073465,-0.010764909139785816,-0.011056341642936143,0.0004586371228518559,0.035481409898298864, ,0.01099469985238389, ,0.011065843572658572, ,4.141619055426848e-05, ,0.08610074881472905,-0.15200655116336104,0.09825489313,3.5905209022855105,1.2949041082770791,-0.16683438690096586, ,0.012285314880282318,0.014004861505087188,0.0107554432950709,0.03288483697696277,-0.0024104945863188836,0.06946430110488977, ,0.6760339736938477
0.010970594138051378,0.020695897697936914,-0.08255762874146767, ,0.011204112741857094,0.02047824726830966,-0.08270863733912182, ,0.00035313771308905775, ,0.0024340347178592875,0.00024242531249893179,-0.010020024782650176,-0.0045688382835283835,0.008174416674450666,-0.017985773039730205, ,0.010314271262905987, ,0.009364575282591015, ,4.169011874736651e-05, ,0.08636332173245269,-0.1517130873141405,0.09848952162,3.5915693520029333,1.2949041082770791,-0.16577256327913842, ,0.011113315527726354,0.011644490683510566,0.010043386834804543,0.08096775833833152,-0.002151093336777091,0.06311633850511786, ,0.6873619556427002
0.011000160680338308,0.020694732216234368,-0.08267328405666599, ,0.011236266686350378,0.020477545936761786,-0.08283298006845974, ,0.0003583556086472518, ,0.0020710349043537553,-0.0002995113815058149,-0.00838642043830429,-0.013757106255993138,-0.0009901554345730854,0.014686807591043275, ,0.00864354906335997, ,0.013792691500902152, ,4.196902311892077e-05, ,0.08651777638993718,-0.1515277417251591,0.09860489143000001,3.5924081117768716,1.2949041082770791,-0.16511913335801398, ,0.012588542584005293,0.01691266112252197,0.008287623059313217,0.03704394660222183,-0.0020070779392916582,0.05293442525368853, ,0.6974098682403564
0.01102634707818909,0.020691093004159097,-0.0827645310579516, ,0.01126852743895408,0.02047683045472497,-0.0829571356396238, ,0.0003763725443113431, ,0.002607841425892877,-0.00031309627753701476,-0.008606990924874245,-0.005955730495347106,0.00799505228018528,-0.0635611986548206, ,0.00899884209009571, ,0.00996953055373651, ,4.228516120419442e-05, ,0.08665678558167322,-0.15135784160192617,0.09869563173000001,3.59324687155081,1.2949041082770791,-0.16462906091717067, ,0.012422614039189348,0.01451467445066852,0.008568483873050026,0.10396395315151195,-0.001905019801449451,0.0403210718360082, ,0.7072219848632812
0.01105229500674398,0.02068801510029742,-0.08284613926671563, ,0.011300894423027844,0.020476100954825854,-0.08308110335267775, ,0.0004023896078673437, ,0.0029135058409240286,-0.00020605269674097,-0.009448324415525386,0.0006797993994895161,0.015436811608836757,-0.05836696052757692, ,0.009889479675895279, ,0.015451770273140333, ,4.265685780579986e-05, ,0.08676490384191236,-0.15123427787593857,0.09877600171,3.5945050112117167,1.2947674717773137,-0.1639458918324901, ,0.012251453793160482,0.013433881874075704,0.0094645344741533,0.1347501197948546,0.0,0.07591029820613543, ,0.7172799110412598
0.01106404227121507,0.020687979337968898,-0.08289269027201318, ,0.011333367063346266,0.02047535756959613,-0.08320488251087498, ,0.0004639050054138391, ,0.002925368466657312,3.2615512980811636e-05,-0.010763059600307004,-0.006323393708115181,0.01377678018922322,-0.052256478772643736, ,0.011153577739773041, ,0.015158655479062628, ,4.3169084058457595e-05, ,0.08681896297203194,-0.15117249601294477,0.09882137186,3.5949243910986857,1.2946308352775482,-0.1635077589682316, ,0.012705441365439923,0.013589709517180408,0.010748185910931175,0.1176123480781132,-0.005588257981223402,0.0651697598125148, ,0.7293670177459717
0.011103813782998974,0.02069338724043868,-0.08308705756056305, ,0.011365944786097553,0.02047460043147254,-0.08332847242065501, ,0.0004181643997715209, ,0.002168481177416068,0.0004358007538531989,-0.011876126333695353,-0.014864124962567655,0.002558350967961632,0.03534134132533429, ,0.012080339796866603, ,0.015082676630057601, ,4.355537021239152e-05, ,0.08701203129388756,-0.15092536856096958,0.09901581536000001,3.5957631508726235,1.2946308352775482,-0.16220089912598257, ,0.010767182308481973,0.014628787044623214,0.011825398307349667,0.029568699440103076,-0.005588257981223402,0.06615645623360666, ,0.7396969795227051
0.011130781193881965,0.020696949574241875,-0.08321255507247419, ,0.011398627018882125,0.020473829672796706,-0.08345187239163973, ,0.0004228435356529657, ,0.002437774195223452,0.0003341031583060962,-0.011478016858198171,-0.012415768290023377,0.005190692683733286,0.0393656040103965, ,0.011738792056441278, ,0.01345713169839288, ,4.394176091664658e-05, ,0.08714331775274936,-0.1507709139034851,0.09914155549,3.596392220703077,1.2946308352775482,-0.16154746920485813, ,0.012744687289614663,0.01435222951580018,0.011451338260244429,0.04663134218377962,-0.005588257981223402,0.08707664400157106, ,0.7497649192810059
0.011165373360620748,0.020695306686726707,-0.08333027597548028, ,0.011431413190711115,0.02047304542581485,-0.08357508173662853, ,0.000424390292052041, ,0.003749872872853435,-0.00027409851055782905,-0.012559762945314102,-0.004552890160523446,0.02098998835675633,-0.12689988982462255, ,0.013110466116753334, ,0.021478084353344983, ,4.432086404530734e-05, ,0.08727460421161118,-0.15061645924600062,0.09925951788000001,3.5980697402509536,1.2946308352775482,-0.16089403928373358, ,0.014365265146604718,0.017250852855566403,0.012522650566037737,0.18328920249175673,-0.005588257981223402,0.055493689490367926, ,0.7596518993377686
0.011197861130501183,0.020695015759540414,-0.0834465903745779, ,0.011464302732005055,0.020472247822677998,-0.08369809977159598, ,0.000428804917758979, ,0.0033335508126682294,0.0002981370624397374,-0.013364294788451367,-0.01021158656398968,0.007608344523199558,-0.002109461865407, ,0.013777003372332808, ,0.012734322919689465, ,4.46996541231844e-05, ,0.08742133613622145,-0.15046200458851614,0.09937618398,3.5993278799118604,1.2946308352775482,-0.1601589306224686, ,0.017191474920012825,0.01611700773751202,0.013385555899159665,0.09093109069935082,-0.005588257981223402,0.0894053395117922, ,0.7698590755462646
0.011197861130501183,0.020695015759540414,-0.0834465903745779, ,0.01149729507459238,0.02047143699544162,-0.08382092581568694, ,0.0005289377780989509, ,0.0033335508126682294,0.0002981370624397374,-0.013364294788451367,-0.01021158656398968,0.007608344523199558,-0.002109461865407, ,0.013777003372332808, ,0.012734322919689465, ,4.529768130978954e-05, ,0.08753717712933481,-0.1503616090611512,0.09946822057000002,3.59974725979883,1.2946308352775482,-0.1595871794414846, ,0.017905083312919012,0.015012963385298337,0.01435028064864865,0.04175438816484121,-0.005588257981223402,0.07577824285649921, ,0.7842059135437012
0.01125240597541021,0.020706505564028553,-0.08369501946079606, ,0.011530389651708021,0.020470613076065732,-0.08394355919121323, ,0.0004412393769386097, ,0.0028433534718052306,0.000494476863383313,-0.013485335648832857,-0.016486679686970936,-0.003062098911742724,0.02761694161201495, ,0.013790701356193983, ,0.016768619826116694, ,4.56810597918707e-05, ,0.08773024545119043,-0.15019170893791828,0.09962636795000002,3.6001666396857988,1.2946308352775482,-0.15868871329993833, ,0.016552754501739188,0.01649520972683309,0.013487562675698563,0.03319180584702658,-0.005588257981223402,0.06215785109549052, ,0.7941539287567139
0.011296251652787621,0.020702996589596328,-0.08385344276587278, ,0.011563585897992109,0.02046977619641451,-0.08406599922364996, ,0.00041356933904451417, ,0.0027068294363832603,-0.0004977130610778005,-0.009098015779977504,-0.012002452955289636,0.009045785579946973,-0.0321983693268802, ,0.009505184639004021, ,0.01502947275745584, ,4.6095297018012e-05, ,0.08794648197166871,-0.14993685875306886,0.09978451533,3.60163446929019,1.2946308352775482,-0.15803528337881395, ,0.013727316875230839,0.017409088526595264,0.008989171286681715,0.09472720406024439,-0.005588257981223402,0.06304262408503634, ,0.8023149967193604
0.01132514501597258,0.02069776209236568,-0.08394997968197115, ,0.011596883249488325,0.020468926488256618,-0.08418824524163075, ,0.0004277591357085414, ,0.002927941055019936,-0.0005614382412882668,-0.009920683995210459,-0.01677469338921237,0.0005959142912566173,-0.054627770207198174, ,0.010358958569917975, ,0.01678527199803435, ,4.6531763059203327e-05, ,0.08810865936202743,-0.14974379043121325,0.09988044079000001,3.6024732290641284,1.2946308352775482,-0.15762688967811106, ,0.016648586238328204,0.02014369381415215,0.009802345550769233,0.08169301654184413,-0.0053007231348412565,0.027827561707290498, ,0.8115830421447754
0.011349875848178913,0.02069377659366888,-0.08403054510169655, ,0.0116302811436427,0.02046806408326465,-0.08431029657694498, ,0.0004558883141524761, ,0.0034033235032513882,-0.0004232810285395099,-0.011157664864299494,-0.008104757389578894,0.009683820300230902,-0.06136982225907193, ,0.011672842966515407, ,0.012627877692732149, ,4.702023023394394e-05, ,0.08823994582088925,-0.149597058506603,0.09995951448000001,3.6033119888380667,1.294494198777783,-0.15710707807371171, ,0.01677513550618186,0.018780316952002926,0.0111157093649686,0.12618558732541105,-0.0029002056187925436,0.06496420686233476, ,0.8203580379486084
0.0113767593971805,0.020691616130162453,-0.08412777737284335, ,0.011663779019302278,0.020467189113015153,-0.08443215256453399, ,0.00047475468067757987, ,0.0034627914518400894,-6.365022407658428e-05,-0.012240681015873563,-0.007634098295889827,0.008586837737760273,-0.032940419316646805, ,0.012721212509911515, ,0.01148968947878318, ,4.753896081729429e-05, ,0.08837895501262528,-0.14944260384911848,0.10005543994,3.604150748612005,1.2943575622780172,-0.15634223024889077, ,0.0175800188140924,0.017098548028553293,0.012252931938461541,0.1125619063179852,-0.0035167348704109058,0.07992050657095875, ,0.8341770172119141
0.011432781525250343,0.020693017422046017,-0.08434877395196053, ,0.011697376316713241,0.02046630170898887,-0.08455381254248645, ,0.00040429103603859814, ,0.003068850505770619,-4.110204177025815e-05,-0.01323756809561864,-0.018266366241324272,0.004985894522109916,0.03042841661630031, ,0.01358869905070926, ,0.018934594618477085, ,4.7895697930682135e-05, ,0.08867241886184582,-0.14914141726702373,0.10027580924000001,3.6056185782163963,1.294220925778252,-0.15484227376280496, ,0.01657299014293936,0.020562717564132346,0.01314258376237624,0.06172510873919415,-0.007137310887858874,0.09365296987550968, ,0.8432810306549072
0.01146580796470786,0.020692579739289754,-0.08448638553951213, ,0.011731072477520104,0.020465402002569997,-0.0846752758520348, ,0.0003970573459634521, ,0.00308521423652346,-9.54097248088222e-05,-0.012362483043513636,-0.01923757465396016,-0.0023374211615204985,-0.011972957859366752, ,0.012742002860696482, ,0.01937904867372643, ,4.822955143981358e-05, ,0.08885776445082721,-0.14892518074654545,0.10041321598000001,3.60624764804685,1.294220925778252,-0.15410716510153982, ,0.018113560137138916,0.019898708651388295,0.012290749629629632,0.056292898494616675,-0.006602811639804807,0.04557889316605926, ,0.8513889312744141
0.01146580796470786,0.020692579739289754,-0.08448638553951213, ,0.011764866944763759,0.020464490125046794,-0.08479654183755211, ,0.00048750187167994144, ,0.00308521423652346,-9.54097248088222e-05,-0.012362483043513636,-0.01923757465396016,-0.0023374211615204985,-0.011972957859366752, ,0.012742002860696482, ,0.01937904867372643, ,4.874601708862044e-05, ,0.08885776445082721,-0.14892518074654545,0.10041321598000001,3.60624764804685,1.294220925778252,-0.15410716510153982, ,0.018113560137138916,0.019898708651388295,0.012290749629629632,0.056292898494616675,-0.006602811639804807,0.04557889316605926, ,0.8593900203704834
0.011504308512837015,0.02068755636456173,-0.08461096713858207, ,0.011798759162880446,0.020463566207610952,-0.08491760984654739, ,0.00048052317953470113, ,0.004195636195062505,-0.0005742154981519584,-0.013214823161231655,-0.008450969270096515,0.017611050606634218,-0.11202413618532532, ,0.013876766111103158, ,0.019533754940408637, ,4.923728906806359e-05, ,0.0890431100398086,-0.1487166669589414,0.10053765982000001,3.6077154776512415,1.294220925778252,-0.15345373518041533, ,0.018709964818310488,0.021263038664232754,0.013153436432700248,0.1809154144947995,-0.0061873006577595115,0.06853283671905819, ,0.8678698539733887
0.011546739164248969,0.020686384372418234,-0.08475682323294732, ,0.011832748577700237,0.020462630381357566,-0.08503847922966234, ,0.0004595621106921764, ,0.003964155968564422,0.0001792085512661982,-0.014607294640611227,-0.009626907180720045,0.008645782085016578,-0.016267827726126317, ,0.015136700597077996, ,0.012939328602597062, ,4.967543211806741e-05, ,0.08925162382741265,-0.14851587590421156,0.10068414059000001,3.609183307255633,1.294220925778252,-0.15247359029872865, ,0.020589486126810757,0.017996764945661062,0.01465392044158234,0.11433645610835673,-0.005797667374361809,0.09858090892136111, ,0.8773319721221924
0.01156173108122183,0.020687244014161693,-0.0848134991619306, ,0.011866834636445424,0.020461682777285283,-0.0851591493406673, ,0.0005132641591344668, ,0.0038198054496259106,0.0003658834547554954,-0.015009453568538438,-0.01134870416326958,0.004876297065387341,0.01259622805652257, ,0.015492207099105242, ,0.012351947113081596, ,5.0213820326490433e-05, ,0.08932885115615491,-0.14844637130834354,0.10074117735000002,3.6096026871426026,1.294220925778252,-0.15214687533816634, ,0.020819864317347694,0.017684856794347892,0.015069831144749293,0.08852672002493087,-0.005670862950205364,0.10201241855725993, ,0.8871119022369385
0.011616376274932026,0.020695124922390902,-0.08505321927802323, ,0.011901016787729334,0.020460723526295924,-0.0852796195364574, ,0.0004326907822404419, ,0.0029549301898934323,0.0003256130684072779,-0.013651672597081247,-0.01823865061858828,-0.004122947762477614,0.057683177103526856, ,0.013971606958233554, ,0.018698839548866086, ,5.057925630356888e-05, ,0.08963776047112389,-0.1481606301919972,0.10098228729000001,3.61044144691654,1.294220925778252,-0.1506766580156363, ,0.018030959824904193,0.018570830050581365,0.013637681095890414,0.023124451978509854,-0.00518851867486844,0.08264936416965306, ,0.8955678939819336
0.011616376274932026,0.020695124922390902,-0.08505321927802323, ,0.011935294481554821,0.020459752759194493,-0.08539988917704926, ,0.0005265822790542549, ,0.0029549301898934323,0.0003256130684072779,-0.013651672597081247,-0.01823865061858828,-0.004122947762477614,0.057683177103526856, ,0.013971606958233554, ,0.018698839548866086, ,5.1226492339177626e-05, ,0.08963776047112389,-0.1481606301919972,0.10098228729000001,3.61044144691654,1.294220925778252,-0.1506766580156363, ,0.018030959824904193,0.018570830050581365,0.013637681095890414,0.023124451978509854,-0.00518851867486844,0.08264936416965306, ,0.9021799564361572
0.011663209208690257,0.02068886666033945,-0.08521305068603449, ,0.011969667169312918,0.020458770606689235,-0.085519957625576, ,0.0004909710226409894, ,0.0041486260314351495,-0.0008559899051938952,-0.012176797963274774,-0.005546433623779573,0.02112539343539489,-0.1383565320529968, ,0.012892564729521737, ,0.02184135769664191, ,5.1792957791225707e-05, ,0.08986171972447639,-0.14789033454139935,0.10114173096000001,3.6121189664644167,1.294220925778252,-0.1496965131339496, ,0.017080083073878833,0.021421431503040808,0.012094769567198179,0.20211944134560347,-0.004856905305617486,0.06308555941503578, ,0.9089188575744629
0.011703078371855254,0.020684254742734456,-0.08534113590095371, ,0.012004134303781288,0.020457777199391104,-0.08563982424828467, ,0.00048077175522070114, ,0.0043139496453639126,-0.0002846771922766821,-0.014642381618488062,-0.0016336787465919805,0.015918007077687243,-0.08250875670766102, ,0.015267303039763607, ,0.01600159937334039, ,5.233048219997973e-05, ,0.09003934258058356,-0.14769726621954374,0.10126876738000001,3.613796486012293,1.2940842892784865,-0.1488499865689879, ,0.018828758245728328,0.020434311274433844,0.014680932276497697,0.1744048427423146,0.0,0.09164316631062777, ,0.9170210361480713
0.011735838818230888,0.020682649712900132,-0.08545606176001846, ,0.012038695339122866,0.020456772667814083,-0.08575948841453185, ,0.00048457223033597583, ,0.0041722620717137004,4.286333497154418e-05,-0.015758767516082926,-0.01192958408752277,0.013275766676473484,-0.009304345653899057, ,0.016301790137481714, ,0.017848248806887977, ,5.286703249537165e-05, ,0.09018607450519382,-0.14754281156205926,0.1013828409,3.6150546256732,1.293947652778721,-0.14792178126388605, ,0.020438712375289853,0.020518257634263952,0.015755501008902082,0.12625352288827654,-0.007715432539636387,0.11767504801745417, ,0.9297840595245361
0.011735838818230888,0.020682649712900132,-0.08545606176001846, ,0.012073349730884591,0.02045575714237492,-0.08587894949678, ,0.0005867093766279606, ,0.0041722620717137004,4.286333497154418e-05,-0.015758767516082926,-0.01192958408752277,0.013275766676473484,-0.009304345653899057, ,0.016301790137481714, ,0.017848248806887977, ,5.3592837614610475e-05, ,0.09018607450519382,-0.14754281156205926,0.1013828409,3.6150546256732,1.293947652778721,-0.14792178126388605, ,0.020438712375289853,0.020518257634263952,0.015755501008902082,0.12625352288827654,-0.007715432539636387,0.11767504801745417, ,0.9364628791809082
0.011814266990251275,0.02069296267391638,-0.08579597990325498, ,0.012108096935995735,0.020454730753392842,-0.08599820687059323, ,0.0004289361622565193, ,0.0038997114058533584,0.00042430399620765804,-0.017145993286670276,-0.006188502113452518,0.006586143902900939,0.09258423187390856, ,0.017588998513749517, ,0.009037331909209084, ,5.400467026681408e-05, ,0.0905876566146535,-0.14716439765122225,0.10172246888000001,3.616732145221076,1.29367437977919,-0.1452485832522762, ,0.0202080369587885,0.02091623133314322,0.017238973506493508,0.07474786482096578,0.002219369513544354,0.16902971129422026, ,0.9444959163665771
0.011814266990251275,0.02069296267391638,-0.08579597990325498, ,0.012142936412766668,0.020453693631089793,-0.08611725991463441, ,0.000518164172694061, ,0.0038997114058533584,0.00042430399620765804,-0.017145993286670276,-0.006188502113452518,0.006586143902900939,0.09258423187390856, ,0.017588998513749517, ,0.009037331909209084, ,5.4580185488960376e-05, ,0.09074211127213799,-0.14699449752798932,0.10185080159000001,3.6173612150515297,1.29367437977919,-0.14443179585087057, ,0.019260592969042173,0.020902410034905457,0.014121286808510639,0.07706413029156908,0.002219369513544354,0.11038216798989461, ,0.9508359432220459
0.011844249897687432,0.020694567416499193,-0.08592400447963792, ,0.012177867620887343,0.02045264590559016,-0.08623610801066005, ,0.0005169481760777179, ,0.0035619968422020438,-4.633110174017286e-05,-0.014084818908831101,-0.008028492661155568,0.0020268535207699917,0.03197980850285668, ,0.014528320335448689, ,0.008280354780458427, ,5.514469859694124e-05, ,0.09074211127213799,-0.14699449752798932,0.10185080159000001,3.6173612150515297,1.29367437977919,-0.14443179585087057, ,0.019260592969042173,0.020902410034905457,0.014121286808510639,0.07706413029156908,0.002219369513544354,0.11038216798989461, ,0.9579088687896729
0.011886511592854466,0.020688947491361256,-0.08606277130057702, ,0.01221289002142598,0.020451587706920564,-0.08635475054351795, ,0.0004981108553473823, ,0.004154132140842174,-0.0007973520752996188,-0.012623045382180538,-0.006138395799579621,0.004103221647806119,-0.13519798688131626, ,0.013312920750013951, ,0.007383495810841938, ,5.5665396647522136e-05, ,0.09095062505974205,-0.14676281554176257,0.10198950462,3.618829044655921,1.29367437977919,-0.1439417234100272, ,0.020268462528507215,0.023219217410929967,0.012611885605700713,0.1580553229751144,0.002219369513544354,0.022717878542174635, ,0.9646198749542236
0.011922251429379218,0.02068317049323464,-0.08617702261470207, ,0.012248003076827586,0.020450519165009846,-0.08647318690114181, ,0.0004979498578194841, ,0.004270307203366572,-0.0005384953932924151,-0.013353581925228225,-0.005385503704617892,0.0023371159087477514,-0.11007741182113992, ,0.014030098044329682, ,0.005870718551820297, ,5.617803774850797e-05, ,0.09112824791584921,-0.14656202448703273,0.10210357814000001,3.6200871843168283,1.29367437977919,-0.14369668718960538, ,0.021785340119024516,0.02199233871575221,0.01339681372582002,0.14692170238117389,0.002219369513544354,0.03684410819279282, ,0.9718079566955566
0.011922251429379218,0.02068317049323464,-0.08617702261470207, ,0.012283206250912459,0.02044944040968904,-0.08659141647454904, ,0.0005971937761072185, ,0.004270307203366572,-0.0005384953932924151,-0.013353581925228225,-0.005385503704617892,0.0023371159087477514,-0.11007741182113992, ,0.014030098044329682, ,0.005870718551820297, ,5.68665435250573e-05, ,0.09112824791584921,-0.14656202448703273,0.10210357814000001,3.6200871843168283,1.29367437977919,-0.14369668718960538, ,0.021785340119024516,0.02199233871575221,0.01339681372582002,0.14692170238117389,0.002219369513544354,0.03684410819279282, ,0.9796328544616699
0.011968449820391771,0.02068271226093204,-0.08633136930828862, ,0.012318499008874901,0.020448351570691133,-0.08670943865783584, ,0.0005660351584088651, ,0.004082189933737684,0.00015823395026931834,-0.01455213979869016,-0.01372548298453222,0.0007878982405946106,-0.037030249647524764, ,0.015114697660183257, ,0.013748054924803611, ,5.759344706886923e-05, ,0.09138309810069863,-0.14635351069942867,0.10225913294000001,3.621345323977736,1.29367437977919,-0.14304325726848088, ,0.022866732905655607,0.018120477670129993,0.014613588550458717,0.09721465137057754,-0.007451665038768469,0.060844136752135305, ,0.9857439994812012
0.011968449820391771,0.02068271226093204,-0.08633136930828862, ,0.012353880817281775,0.020447252777651095,-0.08682725284817333, ,0.0006707448894767224, ,0.004082189933737684,0.00015823395026931834,-0.01455213979869016,-0.01372548298453222,0.0007878982405946106,-0.037030249647524764, ,0.015114697660183257, ,0.013748054924803611, ,5.8503802732982786e-05, ,0.09138309810069863,-0.14635351069942867,0.10225913294000001,3.621345323977736,1.29367437977919,-0.14304325726848088, ,0.022866732905655607,0.018120477670129993,0.014613588550458717,0.09721465137057754,-0.007451665038768469,0.060844136752135305, ,0.9905810356140137
0.012021159210511872,0.02068158018890119,-0.08651800100788956, ,0.012389351144071047,0.02044614416010563,-0.08694485844580466, ,0.0006109031804602986, ,0.004996290127765784,-0.00014822996592235224,-0.018219849340930714,-0.03323117452758963,0.03525245957371444,-0.02270061418489415, ,0.018893062143808783, ,0.048446309030343145, ,5.929542413709433e-05, ,0.09164567101842226,-0.14611410598032773,0.10244320612,3.6230228435256118,1.2932644702798939,-0.1414838224552834, ,0.02269176029614318,0.02326475644973542,0.017738097461024498,0.17747119908395642,-0.03582641510015785,0.1545549062517278, ,0.9954569339752197
0.012021159210511872,0.02068158018890119,-0.08651800100788956, ,0.01242490945855038,0.02044502584749312,-0.08706225485404046, ,0.0007177635183542028, ,0.004996290127765784,-0.00014822996592235224,-0.018219849340930714,-0.03323117452758963,0.03525245957371444,-0.02270061418489415, ,0.018893062143808783, ,0.048446309030343145, ,6.0271694021258736e-05, ,0.09164567101842226,-0.14611410598032773,0.10244320612,3.6230228435256118,1.2932644702798939,-0.1414838224552834, ,0.02269176029614318,0.02326475644973542,0.017738097461024498,0.17747119908395642,-0.03582641510015785,0.1545549062517278, ,1.0003290176391602
0.012080346755839067,0.02068232177180527,-0.08673685474643947, ,0.012460555231395706,0.02044389796915356,-0.08717944147925477, ,0.0006303073937533414, ,0.0054846663483474065,0.00014285162491183695,-0.02060519733348956,-0.03290647647231497,0.04136274035665187,-0.012983342020265087, ,0.021323135995708505, ,0.05285554624895764, ,6.108013343077234e-05, ,0.09190824393614588,-0.14585925579547832,0.10266098284000001,3.625119742960457,1.292991197280363,-0.13954573310493867, ,0.02388546225987183,0.02277891059972894,0.020395405275288096,0.1970035899758098,-0.03924116501858138,0.1848024982956483, ,1.005293846130371
0.012080346755839067,0.02068232177180527,-0.08673685474643947, ,0.01249628793464987,0.020442760654328464,-0.08729641773088259, ,0.0007372294939814544, ,0.0054846663483474065,0.00014285162491183695,-0.02060519733348956,-0.03290647647231497,0.04136274035665187,-0.012983342020265087, ,0.021323135995708505, ,0.05285554624895764, ,6.207116937654897e-05, ,0.09190824393614588,-0.14585925579547832,0.10266098284000001,3.625119742960457,1.292991197280363,-0.13954573310493867, ,0.02388546225987183,0.02277891059972894,0.020395405275288096,0.1970035899758098,-0.03924116501858138,0.1848024982956483, ,1.01015305519104
0.01213334888646035,0.02068385233482944,-0.08694042833802572, ,0.01253210704172109,0.020441614032160698,-0.08741318302141397, ,0.000664217172566557, ,0.005901013738707185,0.00040374599633000857,-0.022852480573019588,0.010553452947674177,0.01628116574049176,-0.06422266811133599, ,0.02360552567332914, ,0.01940220333942006, ,6.292170970472853e-05, ,0.09211675772374996,-0.14565074200787426,0.10284764860000001,3.6267972625083336,1.2928545607805975,-0.13812745535899335, ,0.024073298213716583,0.02410999531465213,0.022787999313304726,0.21035088894093715,0.011244738098101963,0.14083936193368315, ,1.0152549743652344
0.01213334888646035,0.02068385233482944,-0.08694042833802572, ,0.012568012027381696,0.020440458231694318,-0.08752973676639245, ,0.0007716587064633064, ,0.005901013738707185,0.00040374599633000857,-0.022852480573019588,0.010553452947674177,0.01628116574049176,-0.06422266811133599, ,0.02360552567332914, ,0.01940220333942006, ,6.395337975313405e-05, ,0.09239477610722203,-0.14538816909015062,0.10311986950000002,3.629103851886663,1.2928545607805975,-0.13633052307590093, ,0.02758632022048569,0.024757876743665738,0.02624186411861615,0.19763875959723012,0.008325923075592483,0.15164665601047123, ,1.02217698097229
0.012196213123316308,0.02069136884547667,-0.0871935054849725, ,0.012604002367766532,0.020439293381874685,-0.08764607838440934, ,0.0006592847158429434, ,0.0063834429070644995,0.0008305709260909358,-0.025928431624232473,0.006370797648067812,0.012434926068940338,-0.046113386709290854, ,0.026715571450064816, ,0.013971497065955926, ,6.477631034571071e-05, ,0.09239477610722203,-0.14538816909015062,0.10311986950000002,3.629103851886663,1.2928545607805975,-0.13633052307590093, ,0.02758632022048569,0.024757876743665738,0.02624186411861615,0.19763875959723012,0.008325923075592483,0.15164665601047123, ,1.0317070484161377
0.012214707272146665,0.020693403029202535,-0.08726671543543017, ,0.012640077540371811,0.020438119611548018,-0.08776220729710121, ,0.0007011573813357009, ,0.006433409927199939,0.0008952026928056803,-0.026089663152922198,0.005495598527864107,0.010688634347185085,-0.04156677098582917, ,0.02688606841071315, ,0.012018170398352717, ,6.566392584535794e-05, ,0.09247200343596428,-0.1453186644942826,0.10319375803000001,3.629732921717116,1.2928545607805975,-0.1359221293751982, ,0.028497580047588827,0.02454019693779953,0.02641593950248757,0.1913877300211215,0.007778317411371536,0.15001550812526218, ,1.037095069885254
0.012214707272146665,0.020693403029202535,-0.08726671543543017, ,0.012676237024053285,0.02043693704946166,-0.08787812292914535, ,0.0008078388663777605, ,0.006433409927199939,0.0008952026928056803,-0.026089663152922198,0.005495598527864107,0.010688634347185085,-0.04156677098582917, ,0.02688606841071315, ,0.012018170398352717, ,6.672811937992534e-05, ,0.09247200343596428,-0.1453186644942826,0.10319375803000001,3.629732921717116,1.2928545607805975,-0.1359221293751982, ,0.028497580047588827,0.02454019693779953,0.02641593950248757,0.1913877300211215,0.007778317411371536,0.15001550812526218, ,1.042078971862793
0.012307567462320515,0.02071342662110237,-0.08766914580585265, ,0.012712480299025233,0.02043574582426369,-0.08799382470825631, ,0.0005886233260135654, ,0.0051957124051574145,0.0014379210755089099,-0.023757329483299863,-0.011658911378651582,-0.02126554422487422,0.08114796367870786, ,0.024361316643288562, ,0.024251721951104536, ,6.751834001751859e-05, ,0.0929508128741662,-0.14495569604919406,0.10360079309,3.631410441264993,1.2928545607805975,-0.1337984821315435, ,0.03180192411476903,0.022271049415271246,0.024098050711043876,0.019322777116266832,0.005585784786469998,0.10276585305133032, ,1.045564889907837
0.012307567462320515,0.02071342662110237,-0.08766914580585265, ,0.01274880684685889,0.020434546064502943,-0.08810931206518194, ,0.0006827978435590924, ,0.0051957124051574145,0.0014379210755089099,-0.023757329483299863,-0.011658911378651582,-0.02126554422487422,0.08114796367870786, ,0.024361316643288562, ,0.024251721951104536, ,6.846602369143563e-05, ,0.0929508128741662,-0.14495569604919406,0.10360079309,3.631410441264993,1.2928545607805975,-0.1337984821315435, ,0.03180192411476903,0.022271049415271246,0.024098050711043876,0.019322777116266832,0.005585784786469998,0.10276585305133032, ,1.0488688945770264
0.012307567462320515,0.02071342662110237,-0.08766914580585265, ,0.01278521615048081,0.020433337898628903,-0.08822458443369928, ,0.0007842895071733486, ,0.0051957124051574145,0.0014379210755089099,-0.023757329483299863,-0.011658911378651582,-0.02126554422487422,0.08114796367870786, ,0.024361316643288562, ,0.024251721951104536, ,6.958215724279852e-05, ,0.0929508128741662,-0.14495569604919406,0.10360079309,3.631410441264993,1.2928545607805975,-0.1337984821315435, ,0.03180192411476903,0.022271049415271246,0.024098050711043876,0.019322777116266832,0.005585784786469998,0.10276585305133032, ,1.0522658824920654
0.012365415190509283,0.020721349078443713,-0.08790535250783627, ,0.012821707694171852,0.02043212145499153,-0.08833964125061164, ,0.0006931537918585364, ,0.005841253924900084,0.00034933151363376706,-0.021953670933859488,-0.014709759425930646,-0.018800861450344805,0.027337524760464225, ,0.022720166095206374, ,0.023871412066487803, ,7.053402919704757e-05, ,0.0932983358535063,-0.14468540039859618,0.10383931045000001,3.6320395110954466,1.2928545607805975,-0.1326549797695757, ,0.03645675818612016,0.02901159937587,0.022184974261838443,0.06893263795536922,0.004748150882878601,0.09845589297434648, ,1.0555920600891113
0.012365415190509283,0.020721349078443713,-0.08790535250783627, ,0.012858280963565455,0.02043089686184124,-0.08845448195574397, ,0.0007929831719141141, ,0.005841253924900084,0.00034933151363376706,-0.021953670933859488,-0.014709759425930646,-0.018800861450344805,0.027337524760464225, ,0.022720166095206374, ,0.023871412066487803, ,7.165032219965034e-05, ,0.0932983358535063,-0.14468540039859618,0.10383931045000001,3.6320395110954466,1.2928545607805975,-0.1326549797695757, ,0.03645675818612016,0.02901159937587,0.022184974261838443,0.06893263795536922,0.004748150882878601,0.09845589297434648, ,1.058819055557251
0.012365415190509283,0.020721349078443713,-0.08790535250783627, ,0.012894935445646434,0.02042966424732864,-0.08856910599193901, ,0.0008977975434148158, ,0.005841253924900084,0.00034933151363376706,-0.021953670933859488,-0.014709759425930646,-0.018800861450344805,0.027337524760464225, ,0.022720166095206374, ,0.023871412066487803, ,7.293785956998398e-05, ,0.0932983358535063,-0.14468540039859618,0.10383931045000001,3.6320395110954466,1.2928545607805975,-0.1326549797695757, ,0.03645675818612016,0.02901159937587,0.022184974261838443,0.06893263795536922,0.004748150882878601,0.09845589297434648, ,1.062087059020996
0.01246691964165663,0.020707191279933583,-0.0881578147721738, ,0.01293167062874928,0.020428423739504677,-0.08868351280505428, ,0.0007550253263134822, ,0.009300312685843233,-0.0016880155698610578,-0.02082403465304236,0.015082378075146521,0.055026084301577266,-0.31330167518584806, ,0.022868879112227142, ,0.057055623440033516, ,7.397382828966683e-05, ,0.09375397709308554,-0.14433787741925608,0.10409338329000001,3.6368623797955903,1.292717924280832,-0.13066495084264623, ,0.039213612214244124,0.029785606264428992,0.020986576442687747,0.497907251311659,-0.009291276939230961,0.18123489509419677, ,1.0653228759765625
0.01246691964165663,0.020707191279933583,-0.0881578147721738, ,0.012968486002557051,0.020427175466320252,-0.08879770184395731, ,0.0008599029799321018, ,0.009300312685843233,-0.0016880155698610578,-0.02082403465304236,0.015082378075146521,0.055026084301577266,-0.31330167518584806, ,0.022868879112227142, ,0.057055623440033516, ,7.518053222755288e-05, ,0.09375397709308554,-0.14433787741925608,0.10409338329000001,3.6368623797955903,1.292717924280832,-0.13066495084264623, ,0.039213612214244124,0.029785606264428992,0.020986576442687747,0.497907251311659,-0.009291276939230961,0.18123489509419677, ,1.068932056427002
0.01246691964165663,0.020707191279933583,-0.0881578147721738, ,0.013005381058099645,0.02042591955562638,-0.08891167256052222, ,0.0009681714956277858, ,0.009300312685843233,-0.0016880155698610578,-0.02082403465304236,0.015082378075146521,0.055026084301577266,-0.31330167518584806, ,0.022868879112227142, ,0.057055623440033516, ,7.656196876669592e-05, ,0.09375397709308554,-0.14433787741925608,0.10409338329000001,3.6368623797955903,1.292717924280832,-0.13066495084264623, ,0.039213612214244124,0.029785606264428992,0.020986576442687747,0.497907251311659,-0.009291276939230961,0.18123489509419677, ,1.0725739002227783
0.01253418963311135,0.020698172605535886,-0.08833328399357, ,0.013042355287752824,0.02042465613517381,-0.08902542440962642, ,0.0010787487074491644, ,0.00896251360094627,-0.0006653865197553564,-0.026169432396333063,-0.05693117254195183,0.08255249049620488,-0.06092215786261841, ,0.02766963283482572, ,0.10027990736204438, ,7.812025962513998e-05, ,0.0940551636751803,-0.14410619543302935,0.10426708615000001,3.6400077289478583,1.2923080147815358,-0.12869712232874575, ,0.04153039017876183,0.030780714096163075,0.02573313654281099,0.3725126536848106,-0.08267786833783551,0.3119806018657717, ,1.0789899826049805
0.01253418963311135,0.020698172605535886,-0.08833328399357, ,0.013079408185236193,0.020423385332613155,-0.08913895684914606, ,0.0010108808362777034, ,0.00896251360094627,-0.0006653865197553564,-0.026169432396333063,-0.05693117254195183,0.08255249049620488,-0.06092215786261841, ,0.02766963283482572, ,0.10027990736204438, ,7.955421988860882e-05, ,0.0940551636751803,-0.14410619543302935,0.10426708615000001,3.6400077289478583,1.2923080147815358,-0.12869712232874575, ,0.04153039017876183,0.030780714096163075,0.02573313654281099,0.3725126536848106,-0.08267786833783551,0.3119806018657717, ,1.0825459957122803
0.0126289093796116,0.020707821599372907,-0.08869040873561343, ,0.013116539245612343,0.020422107275494573,-0.08925226933995195, ,0.0007969334349823729, ,0.006761713253007111,0.0018065144888253903,-0.0323836120423233,-0.04434216114005918,0.01097876924315968,0.2509794284892626, ,0.03313129320781087, ,0.04568068535168099, ,8.062081687055725e-05, ,0.09454169584625645,-0.14375094972081504,0.10462486219000001,3.642314318326188,1.2918981052822394,-0.12501404027189333, ,0.03863881985279755,0.029860585764150654,0.032441571323828924,0.033375329698247545,-0.0327902765424267,0.2888530667493372, ,1.0859360694885254
0.0126289093796116,0.020707821599372907,-0.08869040873561343, ,0.01315374796528506,0.020420822091267887,-0.0893653613459073, ,0.0009018787528303025, ,0.006761713253007111,0.0018065144888253903,-0.0323836120423233,-0.04434216114005918,0.01097876924315968,0.2509794284892626, ,0.03313129320781087, ,0.04568068535168099, ,8.185521206903922e-05, ,0.09454169584625645,-0.14375094972081504,0.10462486219000001,3.642314318326188,1.2918981052822394,-0.12501404027189333, ,0.03863881985279755,0.029860585764150654,0.032441571323828924,0.033375329698247545,-0.0327902765424267,0.2888530667493372, ,1.089242935180664
0.0126289093796116,0.020707821599372907,-0.08869040873561343, ,0.013191033841998184,0.020419529907282304,-0.08947823233386214, ,0.0010098326756940532, ,0.006761713253007111,0.0018065144888253903,-0.0323836120423233,-0.04434216114005918,0.01097876924315968,0.2509794284892626, ,0.03313129320781087, ,0.04568068535168099, ,8.326073075933153e-05, ,0.09454169584625645,-0.14375094972081504,0.10462486219000001,3.642314318326188,1.2918981052822394,-0.12501404027189333, ,0.03863881985279755,0.029860585764150654,0.032441571323828924,0.033375329698247545,-0.0327902765424267,0.2888530667493372, ,1.0925228595733643
0.012705918727844967,0.02072245845038128,-0.08902516894122793, ,0.013228396374833895,0.020418230850786284,-0.0895908817736503, ,0.0008279905390315476, ,0.00722986446897888,0.0009915479745139164,-0.029445522963135313,-0.0015041522338892638,-0.02609251969647238,0.0932543719415186, ,0.03033633020320841, ,0.026135415095145026, ,8.435587823865751e-05, ,0.09498961435296147,-0.1434034267414749,0.10496319388000001,3.6429433881566418,1.2918981052822394,-0.12272703554795755, ,0.04274637007138323,0.03356807271258252,0.029941375037593993,0.07019407109161818,0.021572440224014826,0.16626074647050354, ,1.0958740711212158
0.012705918727844967,0.02072245845038128,-0.08902516894122793, ,0.013265835064211553,0.02041692504892761,-0.08970330913808588, ,0.0009309839363429285, ,0.00722986446897888,0.0009915479745139164,-0.029445522963135313,-0.0015041522338892638,-0.02609251969647238,0.0932543719415186, ,0.03033633020320841, ,0.026135415095145026, ,8.56137531229242e-05, ,0.09498961435296147,-0.1434034267414749,0.10496319388000001,3.6429433881566418,1.2918981052822394,-0.12272703554795755, ,0.04274637007138323,0.03356807271258252,0.029941375037593993,0.07019407109161818,0.021572440224014826,0.16626074647050354, ,1.0993669033050537
0.012705918727844967,0.02072245845038128,-0.08902516894122793, ,0.013303349411886012,0.020415612628753223,-0.08981551390295874, ,0.0010371706412242953, ,0.00722986446897888,0.0009915479745139164,-0.029445522963135313,-0.0015041522338892638,-0.02609251969647238,0.0932543719415186, ,0.03033633020320841, ,0.026135415095145026, ,8.703800170019138e-05, ,0.09498961435296147,-0.1434034267414749,0.10496319388000001,3.6429433881566418,1.2918981052822394,-0.12272703554795755, ,0.04274637007138323,0.03356807271258252,0.029941375037593993,0.07019407109161818,0.021572440224014826,0.16626074647050354, ,1.1027510166168213
0.012803431359444124,0.02071669530792447,-0.08931353068775018, ,0.013340938920946573,0.02041429371720891,-0.08992749554703111, ,0.0008702378693044018, ,0.011962949082487441,-0.0009765066988825632,-0.03411184460201821,0.016159087989166217,0.06499089121209414,-0.36419415197263294, ,0.036161908940698755, ,0.06696929055557636, ,8.832404417573195e-05, ,0.0954066419281696,-0.14307134922788325,0.10525485913000002,3.6471371870263325,1.2918981052822394,-0.12093010326486525, ,0.046381691866310255,0.03783769599620047,0.03440348060475163,0.5869407803047461,-0.01142142605414129,0.21917254857867002, ,1.1045708656311035
0.012803431359444124,0.02071669530792447,-0.08931353068775018, ,0.01337860309581521,0.020412968441139455,-0.09003925355203392, ,0.000974549235119174, ,0.011962949082487441,-0.0009765066988825632,-0.03411184460201821,0.016159087989166217,0.06499089121209414,-0.36419415197263294, ,0.036161908940698755, ,0.06696929055557636, ,8.977687235760644e-05, ,0.0954066419281696,-0.14307134922788325,0.10525485913000002,3.6471371870263325,1.2918981052822394,-0.12093010326486525, ,0.046381691866310255,0.03783769599620047,0.03440348060475163,0.5869407803047461,-0.01142142605414129,0.21917254857867002, ,1.1064739227294922
0.012803431359444124,0.02071669530792447,-0.08931353068775018, ,0.013416341442245327,0.020411636927288423,-0.09015078740266266, ,0.0010815351089362337, ,0.011962949082487441,-0.0009765066988825632,-0.03411184460201821,0.016159087989166217,0.06499089121209414,-0.36419415197263294, ,0.036161908940698755, ,0.06696929055557636, ,9.140004459423268e-05, ,0.0954066419281696,-0.14307134922788325,0.10525485913000002,3.6471371870263325,1.2918981052822394,-0.12093010326486525, ,0.046381691866310255,0.03783769599620047,0.03440348060475163,0.5869407803047461,-0.01142142605414129,0.21917254857867002, ,1.1081030368804932
0.012803431359444124,0.02071669530792447,-0.08931353068775018, ,0.01345415346732022,0.020410299302298034,-0.09026209658657355, ,0.0011904180099247255, ,0.011962949082487441,-0.0009765066988825632,-0.03411184460201821,0.016159087989166217,0.06499089121209414,-0.36419415197263294, ,0.036161908940698755, ,0.06696929055557636, ,9.31958255833348e-05, ,0.0954066419281696,-0.14307134922788325,0.10525485913000002,3.6471371870263325,1.2918981052822394,-0.12093010326486525, ,0.046381691866310255,0.03783769599620047,0.03440348060475163,0.5869407803047461,-0.01142142605414129,0.21917254857867002, ,1.109752893447876
0.012803431359444124,0.02071669530792447,-0.08931353068775018, ,0.01349203867945199,0.020408955692709098,-0.09037318059437995, ,0.0013006696877231345, ,0.011962949082487441,-0.0009765066988825632,-0.03411184460201821,0.016159087989166217,0.06499089121209414,-0.36419415197263294, ,0.036161908940698755, ,0.06696929055557636, ,9.516560349873414e-05, ,0.0954066419281696,-0.14307134922788325,0.10525485913000002,3.6471371870263325,1.2918981052822394,-0.12093010326486525, ,0.046381691866310255,0.03783769599620047,0.03440348060475163,0.5869407803047461,-0.01142142605414129,0.21917254857867002, ,1.1114239692687988
0.012803431359444124,0.02071669530792447,-0.08931353068775018, ,0.01352999658837957,0.020407606224960864,-0.09048403891964864, ,0.0014119216033644918, ,0.011855499829012841,0.000249331531958134,-0.037831118671477655,0.003459920912675933,0.035672986378567195,-0.15436299361204261, ,0.039646041193844024, ,0.03583930133026466, ,0.0005334681834650761, ,0.09596267869511375,-0.14265432165267514,0.10564504242000002,3.65258912555693,1.2918981052822394,-0.11839806232050781, ,0.05523686935883049,0.03773238232941184,0.03829041230769231,0.41781579788192563,-0.010286083399307533,0.2626187271944229, ,1.113373041152954
0.012932715945676646,0.020711606179254778,-0.08969872467481771, ,0.013568026705167767,0.020406251025390926,-0.09059467105889514, ,0.001139991865873536, ,0.011855499829012841,0.000249331531958134,-0.037831118671477655,0.003459920912675933,0.035672986378567195,-0.15436299361204261, ,0.039646041193844024, ,0.03583930133026466, ,0.0005388356496810801, ,0.09596267869511375,-0.14265432165267514,0.10564504242000002,3.65258912555693,1.2918981052822394,-0.11839806232050781, ,0.05523686935883049,0.03773238232941184,0.03829041230769231,0.41781579788192563,-0.010286083399307533,0.2626187271944229, ,1.115506887435913
0.012932715945676646,0.020711606179254778,-0.08969872467481771, ,0.013606128542205637,0.020404890220235197,-0.09070507651158181, ,0.0012491209805458026, ,0.011855499829012841,0.000249331531958134,-0.037831118671477655,0.003459920912675933,0.035672986378567195,-0.15436299361204261, ,0.039646041193844024, ,0.03583930133026466, ,0.0005450662227588409, ,0.09596267869511375,-0.14265432165267514,0.10564504242000002,3.65258912555693,1.2918981052822394,-0.11839806232050781, ,0.05523686935883049,0.03773238232941184,0.03829041230769231,0.41781579788192563,-0.010286083399307533,0.2626187271944229, ,1.1173560619354248
0.012932715945676646,0.020711606179254778,-0.08969872467481771, ,0.013644301613205177,0.020403523935627634,-0.0908152547801113, ,0.0013593779118027823, ,0.011855499829012841,0.000249331531958134,-0.037831118671477655,0.003459920912675933,0.035672986378567195,-0.15436299361204261, ,0.039646041193844024, ,0.03583930133026466, ,0.0005521471939679186, ,0.09596267869511375,-0.14265432165267514,0.10564504242000002,3.65258912555693,1.2918981052822394,-0.11839806232050781, ,0.05523686935883049,0.03773238232941184,0.03829041230769231,0.41781579788192563,-0.010286083399307533,0.2626187271944229, ,1.119541883468628
0.012932715945676646,0.020711606179254778,-0.08969872467481771, ,0.013682545433199746,0.020402152297600226,-0.09092520536982542, ,0.0014704628048532243, ,0.011855499829012841,0.000249331531958134,-0.037831118671477655,0.003459920912675933,0.035672986378567195,-0.15436299361204261, ,0.039646041193844024, ,0.03583930133026466, ,0.0005600637078548608, ,0.09596267869511375,-0.14265432165267514,0.10564504242000002,3.65258912555693,1.2918981052822394,-0.11839806232050781, ,0.05523686935883049,0.03773238232941184,0.03829041230769231,0.41781579788192563,-0.010286083399307533,0.2626187271944229, ,1.121372938156128
0.012932715945676646,0.020711606179254778,-0.08969872467481771, ,0.013720859518542775,0.020400775432082942,-0.09103492778899952, ,0.0015821582750113086, ,0.011855499829012841,0.000249331531958134,-0.037831118671477655,0.003459920912675933,0.035672986378567195,-0.15436299361204261, ,0.039646041193844024, ,0.03583930133026466, ,0.000568799558856198, ,0.09596267869511375,-0.14265432165267514,0.10564504242000002,3.65258912555693,1.2918981052822394,-0.11839806232050781, ,0.05523686935883049,0.03773238232941184,0.03829041230769231,0.41781579788192563,-0.010286083399307533,0.2626187271944229, ,1.1233439445495605
0.012932715945676646,0.020711606179254778,-0.08969872467481771, ,0.013759243386906355,0.02039939346490354,-0.09114442154883974, ,0.0016943033499540075, ,0.011855499829012841,0.000249331531958134,-0.037831118671477655,0.003459920912675933,0.035672986378567195,-0.15436299361204261, ,0.039646041193844024, ,0.03583930133026466, ,0.0005783377265773658, ,0.09596267869511375,-0.14265432165267514,0.10564504242000002,3.65258912555693,1.2918981052822394,-0.11839806232050781, ,0.05523686935883049,0.03773238232941184,0.03829041230769231,0.41781579788192563,-0.010286083399307533,0.2626187271944229, ,1.1254448890686035
0.012932715945676646,0.020711606179254778,-0.08969872467481771, ,0.013797696557279708,0.020398006521787408,-0.09125368616347823, ,0.001806776531514124, ,0.011855499829012841,0.000249331531958134,-0.037831118671477655,0.003459920912675933,0.035672986378567195,-0.15436299361204261, ,0.039646041193844024, ,0.03583930133026466, ,0.0005886607417449016, ,0.09596267869511375,-0.14265432165267514,0.10564504242000002,3.65258912555693,1.2918981052822394,-0.11839806232050781, ,0.05523686935883049,0.03773238232941184,0.03829041230769231,0.41781579788192563,-0.010286083399307533,0.2626187271944229, ,1.1277379989624023
0.012932715945676646,0.020711606179254778,-0.08969872467481771, ,0.013836218549967897,0.020396614728357625,-0.09136272114997013, ,0.0019194845244020697, ,0.011855499829012841,0.000249331531958134,-0.037831118671477655,0.003459920912675933,0.035672986378567195,-0.15436299361204261, ,0.039646041193844024, ,0.03583930133026466, ,0.0005997509399337114, ,0.09596267869511375,-0.14265432165267514,0.10564504242000002,3.65258912555693,1.2918981052822394,-0.11839806232050781, ,0.05523686935883049,0.03773238232941184,0.03829041230769231,0.41781579788192563,-0.010286083399307533,0.2626187271944229, ,1.1297378540039062
0.012932715945676646,0.020711606179254778,-0.08969872467481771, ,0.013874808886590272,0.0203952182101347,-0.09147152602828966, ,0.0020323545692607858, ,0.011855499829012841,0.000249331531958134,-0.037831118671477655,0.003459920912675933,0.035672986378567195,-0.15436299361204261, ,0.039646041193844024, ,0.03583930133026466, ,0.0006115906393496376, ,0.09596267869511375,-0.14265432165267514,0.10564504242000002,3.65258912555693,1.2918981052822394,-0.11839806232050781, ,0.05523686935883049,0.03773238232941184,0.03829041230769231,0.41781579788192563,-0.010286083399307533,0.2626187271944229, ,1.1316890716552734
0.013052439428305227,0.020717446288960453,-0.0900939977299913, ,0.013913467090079144,0.02039381709253645,-0.09158010032132585, ,0.0017477429453695936, ,0.013684995954859613,0.0007092986727551698,-0.04544970051383305,-0.05663153767874014,0.08787343339924056,0.007173878787114216, ,0.04747059611684703, ,0.10454031482019305, ,0.0006209033631694734, ,0.09654960639355482,-0.14228363047471237,0.10604041087,3.656363544539651,1.2912149227834122,-0.11465550193654384, ,0.06522126567592494,0.04102764442648974,0.045381229401709404,0.44897543570967685,-0.08824209211189833,0.4575028609986307, ,1.1335020065307617
0.013052439428305227,0.020717446288960453,-0.0900939977299913, ,0.013952192684678382,0.02039241150087806,-0.09168844355487911, ,0.001859424917634491, ,0.013684995954859613,0.0007092986727551698,-0.04544970051383305,-0.05663153767874014,0.08787343339924056,0.007173878787114216, ,0.04747059611684703, ,0.10454031482019305, ,0.0006309726441000833, ,0.09654960639355482,-0.14228363047471237,0.10604041087,3.656363544539651,1.2912149227834122,-0.11465550193654384, ,0.06522126567592494,0.04102764442648974,0.045381229401709404,0.44897543570967685,-0.08824209211189833,0.4575028609986307, ,1.135282039642334
0.013052439428305227,0.020717446288960453,-0.0900939977299913, ,0.013990985195941899,0.020391001560371852,-0.09179655525765729, ,0.001971328601168287, ,0.013684995954859613,0.0007092986727551698,-0.04544970051383305,-0.05663153767874014,0.08787343339924056,0.007173878787114216, ,0.04747059611684703, ,0.10454031482019305, ,0.0006417819663345043, ,0.09654960639355482,-0.14228363047471237,0.10604041087,3.656363544539651,1.2912149227834122,-0.11465550193654384, ,0.06522126567592494,0.04102764442648974,0.045381229401709404,0.44897543570967685,-0.08824209211189833,0.4575028609986307, ,1.1369969844818115
0.013052439428305227,0.020717446288960453,-0.0900939977299913, ,0.014029844150732284,0.02038958739612712,-0.09190443496127199, ,0.0020833853252434824, ,0.013684995954859613,0.0007092986727551698,-0.04544970051383305,-0.05663153767874014,0.08787343339924056,0.007173878787114216, ,0.04747059611684703, ,0.10454031482019305, ,0.0006533147932057761, ,0.09654960639355482,-0.14228363047471237,0.10604041087,3.656363544539651,1.2912149227834122,-0.11465550193654384, ,0.06522126567592494,0.04102764442648974,0.045381229401709404,0.44897543570967685,-0.08824209211189833,0.4575028609986307, ,1.1387150287628174
0.013052439428305227,0.020717446288960453,-0.0900939977299913, ,0.014068769077219427,0.020388169133150134,-0.09201208220023444, ,0.0021955403516192747, ,0.013684995954859613,0.0007092986727551698,-0.04544970051383305,-0.05663153767874014,0.08787343339924056,0.007173878787114216, ,0.04747059611684703, ,0.10454031482019305, ,0.0006655546785900102, ,0.09654960639355482,-0.14228363047471237,0.10604041087,3.656363544539651,1.2912149227834122,-0.11465550193654384, ,0.06522126567592494,0.04102764442648974,0.045381229401709404,0.44897543570967685,-0.08824209211189833,0.4575028609986307, ,1.1405110359191895
0.013052439428305227,0.020717446288960453,-0.0900939977299913, ,0.014107759504879016,0.020386746896344007,-0.09211949651195228, ,0.0023077495245416085, ,0.013684995954859613,0.0007092986727551698,-0.04544970051383305,-0.05663153767874014,0.08787343339924056,0.007173878787114216, ,0.04747059611684703, ,0.10454031482019305, ,0.0006784853466683692, ,0.09654960639355482,-0.14228363047471237,0.10604041087,3.656363544539651,1.2912149227834122,-0.11465550193654384, ,0.06522126567592494,0.04102764442648974,0.045381229401709404,0.44897543570967685,-0.08824209211189833,0.4575028609986307, ,1.1422479152679443
0.013300728220140924,0.02073488329069031,-0.09093579659213041, ,0.014146814964491133,0.020385320810508544,-0.092226677436725, ,0.0015825391184603268, ,0.015812328826134883,0.0018891362424978929,-0.05724376918829284,0.0035393992325697815,0.0680610643763907,-0.02428954452013721, ,0.059417570545513554, ,0.06814852281787981, ,0.0006855482667604939, ,0.09763851172882047,-0.14158086178315793,0.10688948082000001,3.665170522166001,1.290531740284585,-0.10658396832512984, ,0.06832033229551533,0.043791851203724405,0.05792295098181819,0.5174036195859107,-0.026850762846608592,0.4931261806707122, ,1.1439728736877441
0.013300728220140924,0.02073488329069031,-0.09093579659213041, ,0.014185934988138952,0.020383891000340153,-0.09233362451774042, ,0.0016913632133902954, ,0.015812328826134883,0.0018891362424978929,-0.05724376918829284,0.0035393992325697815,0.0680610643763907,-0.02428954452013721, ,0.059417570545513554, ,0.06814852281787981, ,0.0006933452818506474, ,0.09763851172882047,-0.14158086178315793,0.10688948082000001,3.665170522166001,1.290531740284585,-0.10658396832512984, ,0.06832033229551533,0.043791851203724405,0.05792295098181819,0.5174036195859107,-0.026850762846608592,0.4931261806707122, ,1.1456589698791504
0.013300728220140924,0.02073488329069031,-0.09093579659213041, ,0.014225119109207152,0.02038245759043178,-0.09244033730107161, ,0.0018006513085138509, ,0.015812328826134883,0.0018891362424978929,-0.05724376918829284,0.0035393992325697815,0.0680610643763907,-0.02428954452013721, ,0.059417570545513554, ,0.06814852281787981, ,0.0007018630205172875, ,0.09763851172882047,-0.14158086178315793,0.10688948082000001,3.665170522166001,1.290531740284585,-0.10658396832512984, ,0.06832033229551533,0.043791851203724405,0.05792295098181819,0.5174036195859107,-0.026850762846608592,0.4931261806707122, ,1.1473510265350342
0.013300728220140924,0.02073488329069031,-0.09093579659213041, ,0.014264366862380532,0.02038102070527268,-0.09254681533567129, ,0.0019102878197318487, ,0.015812328826134883,0.0018891362424978929,-0.05724376918829284,0.0035393992325697815,0.0680610643763907,-0.02428954452013721, ,0.059417570545513554, ,0.06814852281787981, ,0.0007110876373051849, ,0.09763851172882047,-0.14158086178315793,0.10688948082000001,3.665170522166001,1.290531740284585,-0.10658396832512984, ,0.06832033229551533,0.043791851203724405,0.05792295098181819,0.5174036195859107,-0.026850762846608592,0.4931261806707122, ,1.1490459442138672
0.013300728220140924,0.02073488329069031,-0.09093579659213041, ,0.01430367778364274,0.02037958046924839,-0.09265305817337047, ,0.0020201819869150803, ,0.015812328826134883,0.0018891362424978929,-0.05724376918829284,0.0035393992325697815,0.0680610643763907,-0.02428954452013721, ,0.059417570545513554, ,0.06814852281787981, ,0.0007210050187416235, ,0.09763851172882047,-0.14158086178315793,0.10688948082000001,3.665170522166001,1.290531740284585,-0.10658396832512984, ,0.06832033229551533,0.043791851203724405,0.05792295098181819,0.5174036195859107,-0.026850762846608592,0.4931261806707122, ,1.1507389545440674
0.013300728220140924,0.02073488329069031,-0.09093579659213041, ,0.014343051410274648,0.020378137006640692,-0.09275906536887213, ,0.002130261621518584, ,0.015812328826134883,0.0018891362424978929,-0.05724376918829284,0.0035393992325697815,0.0680610643763907,-0.02428954452013721, ,0.059417570545513554, ,0.06814852281787981, ,0.0007316009330482171, ,0.09763851172882047,-0.14158086178315793,0.10688948082000001,3.665170522166001,1.290531740284585,-0.10658396832512984, ,0.06832033229551533,0.043791851203724405,0.05792295098181819,0.5174036195859107,-0.026850762846608592,0.4931261806707122, ,1.152529001235962
0.013461200524834304,0.0207634377095801,-0.09155589892115983, ,0.014382487280853014,0.020376690441627304,-0.09286483647974907, ,0.0016467119567094878, ,0.014534180488709065,0.002503323541209879,-0.056635303805383425,-0.02857214249905172,0.016270590165791802,0.14158707164732154, ,0.058524069137051854, ,0.032871214507488825, ,0.000738430119791958, ,0.0984339532148656,-0.14107888414633335,0.10752207034000001,3.6685255612617533,1.290805013284116,-0.10223279468465152, ,0.07525530654914415,0.047495966745981374,0.057297883165467633,0.2613913304515357,-0.02722791330865421,0.40663905668871714, ,1.1572399139404297
0.013461200524834304,0.0207634377095801,-0.09155589892115983, ,0.014421984935249132,0.02037524089828217,-0.09297037106643986, ,0.001753435170564102, ,0.014534180488709065,0.002503323541209879,-0.056635303805383425,-0.02857214249905172,0.016270590165791802,0.14158707164732154, ,0.058524069137051854, ,0.032871214507488825, ,0.0007459486757236034, ,0.0984339532148656,-0.14107888414633335,0.10752207034000001,3.6685255612617533,1.290805013284116,-0.10223279468465152, ,0.07525530654914415,0.047495966745981374,0.057297883165467633,0.2613913304515357,-0.02722791330865421,0.40663905668871714, ,1.1590979099273682
0.013461200524834304,0.0207634377095801,-0.09155589892115983, ,0.01446154391462742,0.020373788500574593,-0.09307566869224428, ,0.0018607024374368622, ,0.014534180488709065,0.002503323541209879,-0.056635303805383425,-0.02857214249905172,0.016270590165791802,0.14158707164732154, ,0.058524069137051854, ,0.032871214507488825, ,0.0007541453945597304, ,0.0984339532148656,-0.14107888414633335,0.10752207034000001,3.6685255612617533,1.290805013284116,-0.10223279468465152, ,0.07525530654914415,0.047495966745981374,0.057297883165467633,0.2613913304515357,-0.02722791330865421,0.40663905668871714, ,1.1607189178466797
0.013461200524834304,0.0207634377095801,-0.09155589892115983, ,0.014501163761443732,0.020372333372370034,-0.09318072892332054, ,0.0019683898678882835, ,0.014534180488709065,0.002503323541209879,-0.056635303805383425,-0.02857214249905172,0.016270590165791802,0.14158707164732154, ,0.058524069137051854, ,0.032871214507488825, ,0.0007630084929051943, ,0.0984339532148656,-0.14107888414633335,0.10752207034000001,3.6685255612617533,1.290805013284116,-0.10223279468465152, ,0.07525530654914415,0.047495966745981374,0.057297883165467633,0.2613913304515357,-0.02722791330865421,0.40663905668871714, ,1.1623589992523193
0.013678296064983626,0.020774922131035392,-0.09228961773063334, ,0.014540844019444318,0.020370875637429356,-0.09328555132868045, ,0.0013780879052000755, ,0.02124996750406302,-3.440857065267755e-05,-0.06650023944394781,0.011027458198325173,0.09740285222248363,-0.3759165727520387, ,0.06981292250705352, ,0.09801846733323157, ,0.000767465590095737, ,0.09940701755701789,-0.14042245185202426,0.10826354822,3.6756550193402275,1.2903951037848196,-0.09691613782498776, ,0.08794897271406003,0.06075348371220921,0.06721017518987342,0.849825206311951,-0.03706792829355484,0.47080838233325234, ,1.1640660762786865
0.013678296064983626,0.020774922131035392,-0.09228961773063334, ,0.014580584233664118,0.02036941541940899,-0.09339013548018606, ,0.0014797631396934582, ,0.02124996750406302,-3.440857065267755e-05,-0.06650023944394781,0.011027458198325173,0.09740285222248363,-0.3759165727520387, ,0.06981292250705352, ,0.09801846733323157, ,0.0007725900328985983, ,0.09940701755701789,-0.14042245185202426,0.10826354822,3.6756550193402275,1.2903951037848196,-0.09691613782498776, ,0.08794897271406003,0.06075348371220921,0.06721017518987342,0.849825206311951,-0.03706792829355484,0.47080838233325234, ,1.1657249927520752
0.013678296064983626,0.020774922131035392,-0.09228961773063334, ,0.01462038395042552,0.020367952841860736,-0.09349448095254628, ,0.0015826714661439222, ,0.02124996750406302,-3.440857065267755e-05,-0.06650023944394781,0.011027458198325173,0.09740285222248363,-0.3759165727520387, ,0.06981292250705352, ,0.09801846733323157, ,0.0007783763288503506, ,0.09940701755701789,-0.14042245185202426,0.10826354822,3.6756550193402275,1.2903951037848196,-0.09691613782498776, ,0.08794897271406003,0.06075348371220921,0.06721017518987342,0.849825206311951,-0.03706792829355484,0.47080838233325234, ,1.1674399375915527
0.013678296064983626,0.020774922131035392,-0.09228961773063334, ,0.014660242717336805,0.0203664880282317,-0.0935985873233128, ,0.0016865464828934081, ,0.02124996750406302,-3.440857065267755e-05,-0.06650023944394781,0.011027458198325173,0.09740285222248363,-0.3759165727520387, ,0.06981292250705352, ,0.09801846733323157, ,0.0007848172519286701, ,0.09940701755701789,-0.14042245185202426,0.10826354822,3.6756550193402275,1.2903951037848196,-0.09691613782498776, ,0.08794897271406003,0.06075348371220921,0.06721017518987342,0.849825206311951,-0.03706792829355484,0.47080838233325234, ,1.1703338623046875
0.013678296064983626,0.020774922131035392,-0.09228961773063334, ,0.014700160083290835,0.0203650211018642,-0.09370245417287523, ,0.00179118165973005, ,0.02124996750406302,-3.440857065267755e-05,-0.06650023944394781,0.011027458198325173,0.09740285222248363,-0.3759165727520387, ,0.06981292250705352, ,0.09801846733323157, ,0.000791904325223046, ,0.09940701755701789,-0.14042245185202426,0.10826354822,3.6756550193402275,1.2903951037848196,-0.09691613782498776, ,0.08794897271406003,0.06075348371220921,0.06721017518987342,0.849825206311951,-0.03706792829355484,0.47080838233325234, ,1.1723990440368652
0.013905872786366631,0.020776371256292277,-0.09298491773440483, ,0.014740135598463634,0.020363552185995566,-0.09380608108445912, ,0.0012412587449524882, ,0.020048848912581966,0.0007650497985972077,-0.06203173974306326,0.0016772642578152322,0.05712675801743484,-0.09311692026866004, ,0.0651956929517971, ,0.05714333921598726, ,0.0007950466638225526, ,0.1004186955635413,-0.13978918775633786,0.10896743369,3.6840426170796086,1.2899851942855234,-0.09151780222518374, ,0.09753025853902444,0.055658030239572304,0.06295972932806325,0.6156917623746321,-0.03128209816895424,0.5227060799053038, ,1.1742150783538818
0.013905872786366631,0.020776371256292277,-0.09298491773440483, ,0.01478016881431277,0.020362081403758055,-0.09390946764412061, ,0.0013382160370996492, ,0.020048848912581966,0.0007650497985972077,-0.06203173974306326,0.0016772642578152322,0.05712675801743484,-0.09311692026866004, ,0.0651956929517971, ,0.05714333921598726, ,0.0007988186733591991, ,0.1004186955635413,-0.13978918775633786,0.10896743369,3.6840426170796086,1.2899851942855234,-0.09151780222518374, ,0.09753025853902444,0.055658030239572304,0.06295972932806325,0.6156917623746321,-0.03128209816895424,0.5227060799053038, ,1.1759870052337646
0.013905872786366631,0.020776371256292277,-0.09298491773440483, ,0.014820259283576298,0.020360608878178876,-0.09401261344074362, ,0.0014370523602712103, ,0.020048848912581966,0.0007650497985972077,-0.06203173974306326,0.0016772642578152322,0.05712675801743484,-0.09311692026866004, ,0.0651956929517971, ,0.05714333921598726, ,0.000803220284993075, ,0.1004186955635413,-0.13978918775633786,0.10896743369,3.6840426170796086,1.2899851942855234,-0.09151780222518374, ,0.09753025853902444,0.055658030239572304,0.06295972932806325,0.6156917623746321,-0.03128209816895424,0.5227060799053038, ,1.1778030395507812
0.013905872786366631,0.020776371256292277,-0.09298491773440483, ,0.014860406560270913,0.020359134732179783,-0.09411551806603552, ,0.0015373607749844711, ,0.020048848912581966,0.0007650497985972077,-0.06203173974306326,0.0016772642578152322,0.05712675801743484,-0.09311692026866004, ,0.0651956929517971, ,0.05714333921598726, ,0.000808248644513564, ,0.1004186955635413,-0.13978918775633786,0.10896743369,3.6840426170796086,1.2899851942855234,-0.09151780222518374, ,0.09753025853902444,0.055658030239572304,0.06295972932806325,0.6156917623746321,-0.03128209816895424,0.5227060799053038, ,1.1796190738677979
0.013905872786366631,0.020776371256292277,-0.09298491773440483, ,0.014900610199690939,0.02035765908857742,-0.09421818111452349, ,0.0016388291447253754, ,0.020048848912581966,0.0007650497985972077,-0.06203173974306326,0.0016772642578152322,0.05712675801743484,-0.09311692026866004, ,0.0651956929517971, ,0.05714333921598726, ,0.0008138988519979982, ,0.1004186955635413,-0.13978918775633786,0.10896743369,3.6840426170796086,1.2899851942855234,-0.09151780222518374, ,0.09753025853902444,0.055658030239572304,0.06295972932806325,0.6156917623746321,-0.03128209816895424,0.5227060799053038, ,1.1813020706176758
0.013905872786366631,0.020776371256292277,-0.09298491773440483, ,0.014940869758406541,0.02035618207008274,-0.09432060218355023, ,0.0017412152744643843, ,0.020048848912581966,0.0007650497985972077,-0.06203173974306326,0.0016772642578152322,0.05712675801743484,-0.09311692026866004, ,0.0651956929517971, ,0.05714333921598726, ,0.0008201645035011494, ,0.1004186955635413,-0.13978918775633786,0.10896743369,3.6840426170796086,1.2899851942855234,-0.09151780222518374, ,0.09753025853902444,0.055658030239572304,0.06295972932806325,0.6156917623746321,-0.03128209816895424,0.5227060799053038, ,1.1830499172210693
0.014100817085069451,0.020787411168414087,-0.09360524793616629, ,0.014981184794262678,0.02035470379930118,-0.09442278087327124, ,0.001276966355831744, ,0.018403067454165728,0.0009125565924935405,-0.05920972053088467,-0.04589664907040859,0.024299691200096216,0.21317429763894905, ,0.06201045602640367, ,0.05192542409132033, ,0.0008232302877449789, ,0.10148443270018428,-0.1391790918592741,0.10959743063,3.688236415949299,1.2897119212859924,-0.08590416956851388, ,0.10428235336095688,0.06170152246974693,0.059882750075187986,0.3366875768375585,-0.04966962981775235,0.555272593564491, ,1.1847209930419922
0.014100817085069451,0.020787411168414087,-0.09360524793616629, ,0.015021554866377318,0.020353224398732443,-0.09452471678665009, ,0.0013717504072914713, ,0.018403067454165728,0.0009125565924935405,-0.05920972053088467,-0.04589664907040859,0.024299691200096216,0.21317429763894905, ,0.06201045602640367, ,0.05192542409132033, ,0.0008268870885419555, ,0.10148443270018428,-0.1391790918592741,0.10959743063,3.688236415949299,1.2897119212859924,-0.08590416956851388, ,0.10428235336095688,0.06170152246974693,0.059882750075187986,0.3366875768375585,-0.04966962981775235,0.555272593564491, ,1.1864149570465088
0.014100817085069451,0.020787411168414087,-0.09360524793616629, ,0.015061979535140251,0.020351743990770374,-0.09462640952945457, ,0.0014684720442382322, ,0.018403067454165728,0.0009125565924935405,-0.05920972053088467,-0.04589664907040859,0.024299691200096216,0.21317429763894905, ,0.06201045602640367, ,0.05192542409132033, ,0.0008311359955333215, ,0.10148443270018428,-0.1391790918592741,0.10959743063,3.688236415949299,1.2897119212859924,-0.08590416956851388, ,0.10428235336095688,0.06170152246974693,0.059882750075187986,0.3366875768375585,-0.04966962981775235,0.555272593564491, ,1.1880550384521484
0.014100817085069451,0.020787411168414087,-0.09360524793616629, ,0.015102458362211663,0.02035026269770297,-0.09472785871025347, ,0.0015667287524063524, ,0.018403067454165728,0.0009125565924935405,-0.05920972053088467,-0.04589664907040859,0.024299691200096216,0.21317429763894905, ,0.06201045602640367, ,0.05192542409132033, ,0.0008359754215653809, ,0.10148443270018428,-0.1391790918592741,0.10959743063,3.688236415949299,1.2897119212859924,-0.08590416956851388, ,0.10428235336095688,0.06170152246974693,0.059882750075187986,0.3366875768375585,-0.04966962981775235,0.555272593564491, ,1.1897099018096924
0.014100817085069451,0.020787411168414087,-0.09360524793616629, ,0.015142990910520458,0.020348780641712274,-0.0948290639404126, ,0.001666207860280136, ,0.018403067454165728,0.0009125565924935405,-0.05920972053088467,-0.04589664907040859,0.024299691200096216,0.21317429763894905, ,0.06201045602640367, ,0.05192542409132033, ,0.000841401777373974, ,0.10148443270018428,-0.1391790918592741,0.10959743063,3.688236415949299,1.2897119212859924,-0.08590416956851388, ,0.10428235336095688,0.06170152246974693,0.059882750075187986,0.3366875768375585,-0.04966962981775235,0.555272593564491, ,1.1913390159606934
0.014100817085069451,0.020787411168414087,-0.09360524793616629, ,0.015183576744263294,0.02034729794487387,-0.09493002483409037, ,0.0017666640762708345, ,0.018403067454165728,0.0009125565924935405,-0.05920972053088467,-0.04589664907040859,0.024299691200096216,0.21317429763894905, ,0.06201045602640367, ,0.05192542409132033, ,0.0008474099741200574, ,0.10148443270018428,-0.1391790918592741,0.10959743063,3.688236415949299,1.2897119212859924,-0.08590416956851388, ,0.10428235336095688,0.06170152246974693,0.059882750075187986,0.3366875768375585,-0.04966962981775235,0.555272593564491, ,1.192997932434082
0.014299090149577053,0.020785973445302065,-0.09419163148402251, ,0.015224215428902833,0.02034581472915739,-0.09503074100823478, ,0.0013242738657352785, ,0.021332545619050236,-0.0014006181136877096,-0.05880042529319002,-0.008179123660890786,0.039873770858645796,-0.005594073442200764, ,0.06256619892840917, ,0.04069536524122166, ,0.0008504865153562847, ,0.10248838797383347,-0.13856899596221037,0.11014965017000002,3.6924302148189896,1.289575284786227,-0.08072866977610271, ,0.11378530162886184,0.07140477167680269,0.05965847011235956,0.5635761210712675,-0.025656325278364454,0.6034185327027912, ,1.1946539878845215
0.014299090149577053,0.020785973445302065,-0.09419163148402251, ,0.015264906531166257,0.020344331116425963,-0.0951312120825793, ,0.0014179777610334701, ,0.021332545619050236,-0.0014006181136877096,-0.05880042529319002,-0.008179123660890786,0.039873770858645796,-0.005594073442200764, ,0.06256619892840917, ,0.04069536524122166, ,0.0008541242797516513, ,0.10248838797383347,-0.13856899596221037,0.11014965017000002,3.6924302148189896,1.289575284786227,-0.08072866977610271, ,0.11378530162886184,0.07140477167680269,0.05965847011235956,0.5635761210712675,-0.025656325278364454,0.6034185327027912, ,1.196357011795044
0.014299090149577053,0.020785973445302065,-0.09419163148402251, ,0.015305649619044135,0.020342847228436312,-0.09523143767963882, ,0.0015135123831966696, ,0.021332545619050236,-0.0014006181136877096,-0.05880042529319002,-0.008179123660890786,0.039873770858645796,-0.005594073442200764, ,0.06256619892840917, ,0.04069536524122166, ,0.0008583242039774156, ,0.10248838797383347,-0.13856899596221037,0.11014965017000002,3.6924302148189896,1.289575284786227,-0.08072866977610271, ,0.11378530162886184,0.07140477167680269,0.05965847011235956,0.5635761210712675,-0.025656325278364454,0.6034185327027912, ,1.1980259418487549
0.014299090149577053,0.020785973445302065,-0.09419163148402251, ,0.015346444261788798,0.02034136318683837,-0.09533141742470626, ,0.0016105095184066234, ,0.021332545619050236,-0.0014006181136877096,-0.05880042529319002,-0.008179123660890786,0.039873770858645796,-0.005594073442200764, ,0.06256619892840917, ,0.04069536524122166, ,0.000863084870524436, ,0.10248838797383347,-0.13856899596221037,0.11014965017000002,3.6924302148189896,1.289575284786227,-0.08072866977610271, ,0.11378530162886184,0.07140477167680269,0.05965847011235956,0.5635761210712675,-0.025656325278364454,0.6034185327027912, ,1.1997029781341553
0.014299090149577053,0.020785973445302065,-0.09419163148402251, ,0.015387290029912994,0.020339879113175665,-0.09543115094584846, ,0.001708680083855296, ,0.021332545619050236,-0.0014006181136877096,-0.05880042529319002,-0.008179123660890786,0.039873770858645796,-0.005594073442200764, ,0.06256619892840917, ,0.04069536524122166, ,0.0008684030794133094, ,0.10248838797383347,-0.13856899596221037,0.11014965017000002,3.6924302148189896,1.289575284786227,-0.08072866977610271, ,0.11378530162886184,0.07140477167680269,0.05965847011235956,0.5635761210712675,-0.025656325278364454,0.6034185327027912, ,1.2013230323791504
0.014299090149577053,0.020785973445302065,-0.09419163148402251, ,0.015428186495188428,0.020338395128884638,-0.09553063787390227, ,0.0018077950711125536, ,0.021332545619050236,-0.0014006181136877096,-0.05880042529319002,-0.008179123660890786,0.039873770858645796,-0.005594073442200764, ,0.06256619892840917, ,0.04069536524122166, ,0.0008742742793614297, ,0.10248838797383347,-0.13856899596221037,0.11014965017000002,3.6924302148189896,1.289575284786227,-0.08072866977610271, ,0.11378530162886184,0.07140477167680269,0.05965847011235956,0.5635761210712675,-0.025656325278364454,0.6034185327027912, ,1.2030320167541504
0.01453714244306222,0.020763288486731805,-0.09480049661068125, ,0.015469133230644425,0.02033691135529497,-0.09562987784247129, ,0.001318437527528688, ,0.023204164658724817,-0.002546842909423603,-0.05643144526456461,0.017049551329896544,0.04727966691935559,-0.24488939964965087, ,0.0610690402819796, ,0.05025417224587057, ,0.0008770330573003568, ,0.10380897529532586,-0.13774266354466835,0.11081464694000001,3.7003984326714012,1.289575284786227,-0.0749294792261227, ,0.1204275908102421,0.0718916223927809,0.05750473472924188,0.7712271851355388,-0.01639399060696438,0.5258422349310927, ,1.2046740055084229
0.01453714244306222,0.020763288486731805,-0.09480049661068125, ,0.015510129810566355,0.02033542791362935,-0.09572887048792157, ,0.0014112572916659845, ,0.023204164658724817,-0.002546842909423603,-0.05643144526456461,0.017049551329896544,0.04727966691935559,-0.24488939964965087, ,0.0610690402819796, ,0.05025417224587057, ,0.0008803307377594039, ,0.10380897529532586,-0.13774266354466835,0.11081464694000001,3.7003984326714012,1.289575284786227,-0.0749294792261227, ,0.1204275908102421,0.0718916223927809,0.05750473472924188,0.7712271851355388,-0.01639399060696438,0.5258422349310927, ,1.2063579559326172
0.01453714244306222,0.020763288486731805,-0.09480049661068125, ,0.015551175810494368,0.02033394492500307,-0.09582761544937765, ,0.0015058461651406277, ,0.023204164658724817,-0.002546842909423603,-0.05643144526456461,0.017049551329896544,0.04727966691935559,-0.24488939964965087, ,0.0610690402819796, ,0.05025417224587057, ,0.000884168255718798, ,0.10380897529532586,-0.13774266354466835,0.11081464694000001,3.7003984326714012,1.289575284786227,-0.0749294792261227, ,0.1204275908102421,0.0718916223927809,0.05750473472924188,0.7712271851355388,-0.01639399060696438,0.5258422349310927, ,1.2080328464508057
