NicholasDascanio/dvrk_moveit_final/test/execution/third_experiment_notsharpbends/thirdexp_700vel5.0/thirdexp_700vel5.0_9.csv
Current Position (x),Current Position (y),Current Position (z), ,Planned Position (x),Planned Position (y),Planned Position (z), ,Position Error,,Cartesian linear Velocity(x),Cartesian linear Velocity(y),Cartesian linear Velocity(z),Cartesian Angular Velocity(x),Cartesian Angular Velocity(y),Cartesian Angular Velocity(z), ,Total Linear Velocity, ,Total Angular Velocity, ,MSE, ,Joint 1 Position,Joint 2 Position,Joint 3 Position,Joint 4 Position,Joint 5 Position,Joint 6 Position, ,Joint 1 Velocity,Joint 2 Velocity,Joint 3 Velocity,Joint 4 Velocity,Joint 5 Velocity,Joint 6 Velocity, ,Time Stamp
0.010182874113175075,0.020330324179847682,-0.07985226759895911, ,0.01022547272053279,0.020202311649375096,-0.07981277744026168, ,0.0001405749691117168, ,-0.00012810839536125446,-0.0001332021287872197,-4.478852536367827e-05,-0.004320130569018758,-0.003726344637604361,0.020885958563175863, ,0.00019015935443657616, ,0.005705188208251601, ,1.1714580759309733e-05, ,0.20265223335252536,-0.17296604818400635,0.09551583236000001,2.3655122524489194,1.274955179311325,-0.935009993271248, ,0.0,2.797101092664843e-05,-5.281512834882742e-06,-0.02165113519464557,0.0,0.0, ,0.018323183059692383
0.010182443336822045,0.020330373571645778,-0.07985633112034227, ,0.010246748539565781,0.020220721161443647,-0.07985418390736228, ,0.0001271354422914034, ,5.746691699407751e-05,1.5294056279536064e-05,-0.0005585248407678153,0.036729123222406755,-0.006745251421712131,-0.07777493562680728, ,0.0005616817181117783, ,0.03734336499873564, ,1.2168655063778192e-05, ,0.20263678788677691,-0.17295832545113213,0.09551972123000001,2.3655122524489194,1.274955179311325,-0.935581744452232, ,0.00036726554738609156,-4.0221596960195773e-05,0.0005510025981769523,-0.01377878304123998,0.0,-0.0993246906687828, ,0.03489804267883301
0.010182620003386149,0.020330279435250898,-0.07986184412202557, ,0.01026812754610379,0.020238904596958908,-0.07989603740610718, ,0.00012973080440196967, ,-8.921693830267956e-07,-2.075782132128647e-05,0.00024278651327921944,0.055489530701170284,-0.005436737713015388,-0.1295802822663899, ,0.00024367390944148094, ,0.05575523414349763, ,1.242003799390906e-05, ,0.20264451061965114,-0.17295832545113213,0.09552620268,2.3653025625054345,1.2750918158110902,-0.9382252033002856, ,0.0003745915451121863,-4.0071767025617645e-05,-0.00024002096718600275,0.002884984322964537,0.0,-0.1382820437574761, ,0.05292916297912598
0.010197176909425874,0.020341589135779773,-0.07987363137102732, ,0.010289609423370673,0.020256863147360287,-0.0799383350413755, ,0.00014109864529590743, ,0.0008673698895610268,0.0006217385728782465,-0.000586802422091542,0.057333292683832346,-0.027497130837245,-0.27081280060985075, ,0.0012178778513850586, ,0.06358615143449463, ,1.2822377645261842e-05, ,0.20265995608539958,-0.17297377091688057,0.09553527671,2.366770392109826,1.2742719968124976,-0.943029171467525, ,0.0008116299652604329,-0.0002504254934236432,0.00040048165762290064,0.09198057707049594,-0.05072044226651284,-0.1841423740605228, ,0.07117700576782227
0.010209728270540976,0.02034658854740146,-0.07990379740953178, ,0.010311193855206536,0.02027459800147631,-0.0799810739255665, ,0.00014645669498042282, ,0.00035007736035669323,5.4867025651527474e-05,-0.0012723670563015456,-0.0026904506986570285,-0.025026692568538567,-0.04517649397348006, ,0.0013207885806212952, ,0.025170893227668995, ,1.3173010693873464e-05, ,0.20268312428402227,-0.172989216382629,0.09555342477,2.3669800820533107,1.2726323588153123,-0.9437341251266818, ,0.0010510934576949394,0.0007627606326038622,0.0010378960490528728,-0.008530050290738686,-0.029619502011334866,-0.04965159458292234, ,0.08716607093811035
0.010218905712883766,0.020348307996984588,-0.079930616877898, ,0.010332880526067423,0.020292110345526523,-0.08002425117859088, ,0.00015784744640283803, ,0.0007369013990629752,-4.019543188941558e-05,-0.0015119663005930626,-0.13163244608058378,-0.09326246499943341,0.04986849884923857, ,0.0016824629086000138, ,0.16132262159697391, ,1.359425810458481e-05, ,0.20272173794839338,-0.172989216382629,0.09557286912000001,2.366770392109826,1.2716759033169542,-0.9462213494064293, ,0.001964572025090055,0.0006402472010960893,0.00037935967114228146,0.0,-0.1383432400286135,0.09412005687710256, ,0.11039113998413086
0.01023807246202215,0.020360119998444583,-0.07995239630278617, ,0.010354669121024458,0.020309401363123834,-0.08006786392786325, ,0.00017175544620256147, ,-8.799496150503089e-05,8.735961259816907e-06,-0.0007998015818859787,0.005685522919461984,0.06198588211467783,0.1933826908486523, ,0.0008046750901181909, ,0.06224608222532674, ,1.4091659009539162e-05, ,0.20276807434563873,-0.172989216382629,0.09559231347000001,2.3682382217142184,1.2708560843183616,-0.9414689049772226, ,0.0032088929550111492,0.0,0.001600313334129017,-0.05120993462482431,0.09935228946302764,0.128783296556356, ,0.1270911693572998
0.010240428379286707,0.020363514771699367,-0.0799640543307823, ,0.010376559325763503,0.020326472235277258,-0.08011190930829483, ,0.00020436457243975284, ,1.9251634060569046e-05,8.951178052400818e-05,-0.001107681620095746,0.050503857382512174,0.03006176019836095,0.005380784440969977, ,0.0011114592011245922, ,0.058773710421711686, ,1.4865414891787468e-05, ,0.20278351981138718,-0.172989216382629,0.09561046153000001,2.3682382217142184,1.2715392668171888,-0.9416992795351424, ,0.0014407437019111056,0.0,0.0015773210254580161,-0.034189497988397904,0.057262045823370224,-0.04650688648042206, ,0.14917516708374023
0.010263673082164379,0.020379984876043762,-0.08003329276678409, ,0.01039855082658449,0.020343324140393915,-0.08015638446228476, ,0.00018624602272122767, ,0.0007781115788413347,0.0005743910455923856,-0.002259058662978576,0.04446837156046461,0.005085199490843538,-0.0886841447430738, ,0.002457382498749883, ,0.04475818721800938, ,1.5274022215736957e-05, ,0.20286074714012942,-0.17300466184837746,0.09568435006,2.368657601601187,1.2715392668171888,-0.9414542433147207, ,0.002707810890624101,-0.0003491294671096257,0.0025231762268335184,0.01792560669317783,0.011981801163616329,-0.08142939620156292, ,0.16634607315063477
0.010274005545907142,0.02038830070481438,-0.08005949405312836, ,0.010420643310400714,0.020359958254281538,-0.0802012865397135, ,0.00020593940305312764, ,0.001252982366654738,0.0009631632277467407,-0.0029939692442506787,0.006266170060359764,0.008624577463196167,-0.045684855628734394, ,0.0033854837246618404, ,0.010660592075651941, ,1.579558281275419e-05, ,0.20289163807162633,-0.17301238458125168,0.09571416473000001,2.3690769814881563,1.2716759033169542,-0.9414839824782767, ,0.0028925077715285918,-0.00026900144647728174,0.0032876803962848303,0.06281132947461456,0.0,0.016225644441863415, ,0.18267822265625
0.010295980282053578,0.020403656064624343,-0.0801224736293789, ,0.010442836464738465,0.020376375750150798,-0.08024661269793391, ,0.00019422013874019335, ,0.0008969447422427794,0.00046454572335973964,-0.00303957427901965,-0.01452115991243386,-0.007391359569116166,0.0455440078144843, ,0.0032030180139060436, ,0.01629405662267642, ,1.626459086163172e-05, ,0.20296886540036857,-0.17302783004700015,0.09578157181000001,2.369496361375125,1.2716759033169542,-0.9411572675177146, ,0.0049358718046218645,-0.0005718649563992866,0.0031648741347109085,-0.02115359356218882,0.0,0.02730821360948585, ,0.20114707946777344
0.010314805923659496,0.020414905162788367,-0.08017349560945759, ,0.010465129977736217,0.020392577798617806,-0.08029236010176444, ,0.00019293677709609849, ,0.001029942301832472,0.0006200076310265301,-0.0020694525805525794,0.0029122600027828983,0.00042765088655387845,-0.02017789138495432, ,0.0023932874024635716, ,0.002943491730347417, ,1.665255302281016e-05, ,0.20305381546198503,-0.17303555277987437,0.09583601599000001,2.3697060513186097,1.2716759033169542,-0.9408305525571523, ,0.0050521482941484445,-0.0006268034617509428,0.0022817377911474,0.02956130353534285,0.0,0.008969380889665373, ,0.21640419960021973
0.010328070056999804,0.02042455447348043,-0.08019346314371523, ,0.010487523538144257,0.020408565567706143,-0.08033852592348106, ,0.00021615796962021777, ,0.0013228399313063592,0.0009489648964886326,-0.0019310694722706415,0.01405136605553636,0.01114204490557328,-0.07598570739971014, ,0.002525761106154323, ,0.017932820544399538, ,1.7166390173313463e-05, ,0.20315421098934996,-0.1730509982456228,0.09588786759000001,2.370544811092548,1.2715392668171888,-0.9404740984330341, ,0.00574957577630587,-0.0005222164447146467,0.0027043822614601022,0.04484694098777393,0.0,0.021465932881137066, ,0.23767709732055664
0.010347118366125826,0.02043489755795811,-0.08024453275845318, ,0.010510016835323967,0.020424340222849675,-0.08038510734280876, ,0.00021542651266367834, ,0.0010033187462994415,0.0006952528684118401,-0.002432991810964644,0.010980175557762243,0.001122855302740412,-0.039178070863997515, ,0.0027220349391460417, ,0.011037438979442645, ,1.7607904674066054e-05, ,0.2032005473865953,-0.17305872097849703,0.09591249710000001,2.370544811092548,1.2715392668171888,-0.9402290622126124, ,0.0037157668072605493,-0.0006878030753764422,0.002648621802460925,0.03076873888285347,0.0,-0.010513313603678862, ,0.25235509872436523
0.010358589698608787,0.020441906511250198,-0.08027210509279657, ,0.010532609559247296,0.02043990292689454,-0.08043210154691555, ,0.00023640175882924696, ,0.0009365597983992171,0.0005563111536977896,-0.0025947593473592354,-0.004196238856728912,-0.004307226722316482,0.012095013889382509, ,0.002814143284627539, ,0.006013370308116539, ,1.8138044924152124e-05, ,0.203293220181086,-0.17307416644424548,0.09596953386000001,2.3711738809230014,1.2715392668171888,-0.9400657047323313, ,0.0047067292445199345,-0.0009963566159472926,0.003013966228949858,0.01576759992630514,0.0,0.010788792810173701, ,0.2674901485443115
0.01039634272755564,0.02046753230993226,-0.08035455581024954, ,0.010555301400496075,0.020455254840101654,-0.08047950573040251, ,0.00020256129569752075, ,0.0013871300133625566,0.0009785963772226819,-0.0030918216536281297,0.0021143674268707877,0.005256071562988785,-0.029631824835678406, ,0.003527200261018411, ,0.005665407099982897, ,1.8390089099665917e-05, ,0.20340906117419935,-0.17309733464286817,0.09603305207000001,2.3720126406969397,1.2715392668171888,-0.9397389897717691, ,0.004963287355030684,-0.000923772612746901,0.003403592205128205,0.05330833946142675,0.0,0.023588641801444533, ,0.28904008865356445
0.010409375790763597,0.020475881075977823,-0.08038962690719063, ,0.010578092050261601,0.020470397120149055,-0.0805273170952979, ,0.00021783901829457188, ,0.0010105925217001066,0.0005990375294762391,-0.003015811245256551,-0.008666506519387718,-0.004630247272483057,0.023911606194526175, ,0.003236550737073813, ,0.009825860003351115, ,1.8707229805105787e-05, ,0.20346312030431893,-0.1731050573757424,0.09607064448000001,2.372222330640424,1.2715392668171888,-0.9396573110316285, ,0.0049835802389352505,-0.0008796056682430238,0.0031895898117741293,-0.0036008911952831657,0.0,0.022114513380315365, ,0.30405211448669434
0.010426013692759535,0.020484365717755172,-0.08043626337372639, ,0.010600981200343857,0.020485330922134323,-0.08057553285104818, ,0.00022363038175357105, ,0.0009200629912231499,0.0005342725358893024,-0.0025554380074850397,-0.007100445830105379,-0.003166774197178348,0.01646835479390496, ,0.002768072697839272, ,0.007774624730056137, ,1.9024846549402446e-05, ,0.2035480703659354,-0.1731050573757424,0.0961199035,2.372222330640424,1.2715392668171888,-0.9393305960710663, ,0.0045444018834431416,-0.0006192395224345251,0.0027172998157625385,0.002709196705926817,0.0,0.020692808716052235, ,0.3224780559539795
0.01044456544706108,0.020496283346699815,-0.08047238969023117, ,0.010623968543151143,0.02050005739857677,-0.08062415021451085, ,0.00023501270409046488, ,0.0014662269042722584,0.0010479615031271585,-0.0026611032308589697,0.008107247009433551,0.010390612042274308,-0.05911506173345014, ,0.0032139562928167505, ,0.01317923641762216, ,1.9373420785172083e-05, ,0.2036175749618034,-0.1731050573757424,0.09616008849,2.373061090414362,1.2715392668171888,-0.9390038811105039, ,0.0047425720806825045,-0.00048400092696060246,0.003014536623769872,0.08222606598894834,0.0,0.021951660697743316, ,0.3373842239379883
0.010465680687383194,0.020509807283657453,-0.08052118110737855, ,0.010647053771699314,0.020514577699420035,-0.080673166409947, ,0.00023668224432287608, ,0.0007941987337656068,0.00034335917956952765,-0.00282059911209162,-0.015946632152514077,-0.008001801453833729,0.050126876321728055, ,0.0029503265083786214, ,0.017841633987268183, ,1.9698011708382118e-05, ,0.2037025250234199,-0.1731127801086166,0.09621323638000001,2.373690160244816,1.2715392668171888,-0.9387588448900822, ,0.004610732479449531,0.0,0.00291096701754386,-0.026565849209545207,0.0,0.026741245911784714, ,0.35202622413635254
0.010474835967985915,0.020514488951168988,-0.08055217106863251, ,0.010670236579611235,0.020528892972034227,-0.08072257866901195, ,0.0002596682982339462, ,0.001066038506573637,0.0005894619880599994,-0.0031441264552057252,-0.008681817458072092,-0.0040436713240815,0.020496023050864565, ,0.0033718592347827805, ,0.009577329055912649, ,2.0208432731216562e-05, ,0.20374886142066523,-0.17312050284149083,0.09624434734000001,2.373480470301331,1.2714026303174235,-0.9384023907659642, ,0.005034061647103578,-0.00021991835475196063,0.0033185024000000002,0.0,0.0,0.022324999827095432, ,0.3723740577697754
0.010509667781795752,0.02053810460042513,-0.08064219713261749, ,0.010693516661116217,0.02054300436121854,-0.08077238423074991, ,0.00022532886766538562, ,0.0014555039336899308,0.0010112395679236935,-0.0034255277521545806,0.0009852082079866873,0.0036996231659651366,-0.023280007584005752, ,0.0038568559145374585, ,0.003828556687782109, ,2.0514497182253355e-05, ,0.20388014787952705,-0.1731436710401135,0.09634156909000001,2.3743192300752693,1.2714026303174235,-0.9378306395849803, ,0.0054122952853788535,-0.0010862923100077276,0.0037435514735605175,0.04678812523886057,0.0,0.02361540491079791, ,0.38614416122436523
0.010522218696248198,0.02054600769264316,-0.08067475617258926, ,0.010716893711049533,0.020556913009203245,-0.08082258034158432, ,0.0002446819818790415, ,0.0013169445905267532,0.000928139810829751,-0.0028504807550284537,-0.0032521528383636336,0.005074135396038043,-0.014594066752002819, ,0.003274297954944288, ,0.0060268854239329435, ,2.0887487943461757e-05, ,0.20393420700964662,-0.17315139377298774,0.09637656892000002,2.374528920018754,1.2714026303174235,-0.9376672821046992, ,0.004985249286490578,-0.001147404673837494,0.0031498539687561796,0.04918130780645706,0.0,0.03560286725217041, ,0.4007730484008789
0.010543360723667738,0.020556727974925113,-0.08073363800841701, ,0.010740367424851602,0.020570620055652335,-0.08087316425531059, ,0.00024181026403047296, ,0.0012497071345214863,0.0007824101702778483,-0.0032657369384337144,-0.010974839091818723,-0.0015920658782712029,0.02056306040398165, ,0.0035831510361242834, ,0.011089714445404492, ,2.1221016338474165e-05, ,0.20404232526988578,-0.17315139377298774,0.09643879084000001,2.374528920018754,1.2714026303174235,-0.9371772096638559, ,0.005792418442260012,-0.0011218784115323373,0.0035070038573315723,0.014651288853763787,0.0,0.037627449762781824, ,0.4182112216949463
0.010558702317547995,0.02056547390274244,-0.08076695697166447, ,0.010763937498567498,0.020584126637665887,-0.08092413323308874, ,0.0002591790524011185, ,0.001462730906222114,0.0008996972891599178,-0.003567944710190426,-0.0049583733140565744,-0.0005511899215068388,-0.000470404315707243, ,0.003959705338925475, ,0.004988915280188917, ,2.1606408242324704e-05, ,0.2041118298657538,-0.17315139377298774,0.09647508696000001,2.3749482999057228,1.2714026303174235,-0.9369321734434342, ,0.006594227382026976,-0.0008730388893908803,0.0038549882671829626,0.02770182161094968,0.0,0.02846314753547539, ,0.4311990737915039
0.010585245672697405,0.020582069146086283,-0.0808289969301169, ,0.010787603628846622,0.020597433889782173,-0.08097548454343523, ,0.0002502867128343587, ,0.0015670789327247036,0.0009870338252406959,-0.0037293978592278267,-0.0027765411698104057,0.0017315108735601798,-0.012367935401650234, ,0.004163938105444409, ,0.003272202629954369, ,2.1929055937723708e-05, ,0.2041736117287476,-0.17315139377298774,0.09651916082,2.375577369736176,1.2714026303174235,-0.9365237797427313, ,0.005742715486111642,-0.0006999914664735997,0.0040387453144016235,0.06340368493077693,0.0,0.0419069309887103, ,0.4508781433105469
0.01061007005164376,0.020596225893335623,-0.08089590333541147, ,0.010811365512941618,0.020610542943980396,-0.08102721546221564, ,0.00024076485483582872, ,0.0013086895828300735,0.0006146357122992236,-0.004013416824810555,-0.0060497981162123335,-0.01002305596489883,0.02312779825117301, ,0.004265906714019185, ,0.011707335609827335, ,2.219249306407064e-05, ,0.20432806638623208,-0.17315911650586197,0.09661378999,2.3759967496231456,1.2714026303174235,-0.9362787435223097, ,0.007147307617940313,0.0,0.004196209567966281,-0.018257652371566298,0.0,0.006022973364387109, ,0.46462202072143555
0.010640942364509944,0.020612521061001428,-0.08096683304523587, ,0.010835222848708179,0.020623454929682646,-0.08107932327263617, ,0.00022476322493951268, ,0.0015259762001310871,0.000749558602162676,-0.00370956870061905,-0.004046700524042756,-0.006875225577562227,0.006937379281038636, ,0.004080605519534458, ,0.007977751009601707, ,2.2376959003238404e-05, ,0.20449024377659078,-0.1731668392387362,0.09669027110000002,2.3764161295101145,1.2714026303174235,-0.9361970647821691, ,0.008357106544450373,-0.0003278684453011246,0.0034174665350783103,0.03799259730843416,0.0,0.01146787594439554, ,0.47811222076416016
0.010653327927153271,0.020619881545895793,-0.08098881445120588, ,0.010859175334604367,0.020636170973756557,-0.08113180526523645, ,0.00025116702313697725, ,0.0017493290161851036,0.0010400531709484364,-0.0025857461997831218,0.012777870858321489,0.0074731402228824725,-0.07247633265924376, ,0.0032905844488418613, ,0.014802763537502482, ,2.2650259575628822e-05, ,0.20455202563958458,-0.1731745619716104,0.09671490061000002,2.376835509397084,1.2714026303174235,-0.9361153860420286, ,0.007929845280584859,-0.00018520877853462947,0.002977347947663552,0.08632594753704016,0.0,0.011733179678942511, ,0.4952521324157715
0.010686013802868568,0.020635490650166295,-0.0810608626009273, ,0.010883222669689913,0.020648692200517488,-0.08118465873788172, ,0.00023321899924635283, ,0.0014096790784159869,0.0006211570636180457,-0.003746908028524681,-0.008859715264672465,-0.009903064111824114,0.026925680978794456, ,0.004051215987333809, ,0.013287785091407977, ,2.2841498261810155e-05, ,0.20472964849569175,-0.1731745619716104,0.09679138172000001,2.3772548892840524,1.2712659938176578,-0.9355955744376292, ,0.00852982262834572,-0.00015549835513251124,0.003953539717051378,-0.012277427529994455,0.0,0.01643424575720961, ,0.5091550350189209
0.010701112082206372,0.020641842154212567,-0.0811028595923519, ,0.010907364553625766,0.020661019731731053,-0.08123788099575507, ,0.0002472622915509908, ,0.0015638613125638057,0.0007817247123468574,-0.004045744180873539,-0.013449392008841652,-0.005820586983579172,0.028776082394552215, ,0.004407357678689088, ,0.014654875542187243, ,2.3154658848614167e-05, ,0.20482232129018244,-0.1731745619716104,0.09683545558000001,2.377045199340568,1.2712659938176578,-0.9353505382172075, ,0.008307165602140806,-0.00014266326105909452,0.004301596413718607,0.004868044935157054,0.0,0.03651312348812213, ,0.5203452110290527
0.010719682572992868,0.02065294161419772,-0.08114184716557991, ,0.010931600686673471,0.020673154686615222,-0.08129146935134944, ,0.0002602011792382022, ,0.0019202016284678286,0.0010666660587047027,-0.004373103013957733,-0.0026072526958744375,-0.0007977598129722921,-0.014118446790445027, ,0.004893769584425623, ,0.0027265703255132823, ,2.3497730762243197e-05, ,0.2048995486189247,-0.1731745619716104,0.09687823315,2.3776742691710218,1.2712659938176578,-0.9350238232566452, ,0.009013777260675803,-0.00013312589370817864,0.004733673557206539,0.04052876028309662,0.0,0.027231780789832932, ,0.5324480533599854
0.0107420283342273,0.020667027613766566,-0.0811862801690836, ,0.010955930769694474,0.020685098181842904,-0.08134542112445999, ,0.0002672202107017748, ,0.002197027864919281,0.0012837944449671874,-0.004440291767705971,-0.0026472786430285864,0.005327907314879253,-0.031499284455981574, ,0.005117738816950099, ,0.005949342723672301, ,2.3848365900011363e-05, ,0.2049922214134154,-0.17318228470448463,0.09692749217,2.3785130289449596,1.2712659938176578,-0.9347787870362236, ,0.00953095694875578,0.0,0.004887637778459651,0.07459197704260057,0.0,0.044149699763502206, ,0.5450952053070068
0.010761208575968417,0.020675962760122468,-0.08123512366290397, ,0.010980354504149725,0.020696851331544253,-0.08139973364217666, ,0.00027487763737824245, ,0.0019406592977413626,0.0009986235747211818,-0.0040097631186347205,-0.002013292771176483,-0.0017308083206799027,-0.016289619799940497, ,0.004565260980651834, ,0.002655003613716622, ,2.420816282027191e-05, ,0.20510033967365454,-0.17318228470448463,0.09697934377,2.3785130289449596,1.2712659938176578,-0.9346154295559425, ,0.010063302392202628,0.0,0.0043688457268239176,0.041519772623745545,0.0,0.025932887800895386, ,0.5570662021636963
0.010796597502206014,0.020692454478163577,-0.08132147728641127, ,0.011004871592098972,0.020708415247309004,-0.08145440423887568, ,0.0002867601667869292, ,0.0019445111850638882,0.0009605497119367552,-0.0046746012112348035,-0.0059733277797870315,-0.005331932539285013,0.00253873990470025, ,0.005154942516998585, ,0.008006881236543638, ,2.4590257370907172e-05, ,0.2053088534612586,-0.17319000743735885,0.09707138036000001,2.3785130289449596,1.2712659938176578,-0.9340436783749585, ,0.010026561538956227,0.00029753824955861886,0.005002767437185931,0.020739886040833377,0.0,0.024677469683920997, ,0.5685570240020752
0.010812857502497228,0.020699988512710352,-0.08135898673353119, ,0.01102948173620006,0.020719791038188808,-0.08150943025621256, ,0.0002644833683985516, ,0.001786511291439662,0.0008528268859900904,-0.004478080004529736,-0.008428113951846953,-0.009205770003391437,0.020284193746002353, ,0.004896134885690753, ,0.012481157972715701, ,2.4884370640977878e-05, ,0.20539380352287506,-0.17318228470448463,0.09711156535000001,2.378722718888444,1.2712659938176578,-0.9338803208946774, ,0.010208718591425423,-0.00038482156015763147,0.004766251202872532,0.0,0.0,0.022063585900555852, ,0.5827231407165527
0.010839687045637135,0.02071642791046877,-0.08140892072171456, ,0.011054184639708661,0.02073097981069958,-0.08156480904311407, ,0.0002655600580124159, ,0.002497533765822491,0.001471943843769301,-0.004402983790321776,0.00923189505874968,0.010220379343389024,-0.07805606048956817, ,0.005271675241179993, ,0.013772582860298145, ,2.516901071426626e-05, ,0.20550964451598844,-0.17319000743735885,0.09716730582000001,2.379771168605867,1.2712659938176578,-0.9336352846742557, ,0.010355284051102634,0.0004285000269266697,0.004937635313081216,0.11099005795032915,0.0,0.03173107401908593, ,0.5944271087646484
0.010861770171247545,0.02072885772573959,-0.08145513708163901, ,0.011078980006477331,0.02074198266882401,-0.08162053795577018, ,0.0002733309821715678, ,0.0016298680413364707,0.0005949845923336502,-0.004530426174888069,-0.007761916819417781,-0.0158935061089874,0.03256205973399246, ,0.004851312999940878, ,0.017687591335155465, ,2.5465193358082432e-05, ,0.20560231731047912,-0.17319000743735885,0.09721397226,2.3804002384363203,1.2712659938176578,-0.9333085697136935, ,0.010449729172526477,0.0004285000269266697,0.004747782867362146,-0.03142384307856939,0.0,0.0025620208526289335, ,0.6056962013244629
0.010879184502715456,0.020736229546900804,-0.08149521132069935, ,0.011103867540955294,0.020752800714013517,-0.0816766143576263, ,0.00028924752904472726, ,0.0016687452381254078,0.0006160282282680043,-0.004285448700626984,-0.01915539584555546,-0.01288156749291601,0.053593030983240496, ,0.004639964656491981, ,0.023083846508524, ,2.5796510299987357e-05, ,0.2057181583035925,-0.17319000743735885,0.09726063870000001,2.3804002384363203,1.2712659938176578,-0.9331452122334124, ,0.010877687019540437,0.0004285000269266697,0.0045073037691001705,-0.02125567290990092,0.0,0.03623556236814152, ,0.6176121234893799
0.01091729317360196,0.02075196812601116,-0.0815880796679056, ,0.011128846948187431,0.020763435045191184,-0.08173303561937671, ,0.0002567074553723297, ,0.0017146301797509686,0.000639035293994727,-0.0042392832674904655,-0.013465171393220392,-0.012867046204411496,0.03808533995134456, ,0.004617341809126589, ,0.01862449240398449, ,2.6019118145813143e-05, ,0.20595756302269344,-0.17319000743735885,0.09735915674000001,2.380190548492836,1.2712659938176578,-0.9324917823122878, ,0.012133153105972063,0.0004074406817432862,0.004940698362282879,0.0,0.0,0.04203157828957292, ,0.6300230026245117
0.01093910645633702,0.02076150821342523,-0.08163639983893341, ,0.01115391793381406,0.02077388675875365,-0.08178979911895491, ,0.00026425090037960556, ,0.001986040688123933,0.0009093075346810495,-0.004708435922529517,0.006611962337434819,-0.011723274921701422,-0.016235380779676237, ,0.005190430294694063, ,0.013459317164230272, ,2.6329854328297987e-05, ,0.20608112674868104,-0.17318228470448463,0.09741100834000001,2.3804002384363203,1.2712659938176578,-0.9321650673517257, ,0.01167123805460806,-0.00026981680359292607,0.005029621572466057,0.0034582491285961394,0.0,-0.0141496745693864, ,0.6404101848602295
0.010965657322198407,0.020776924776645354,-0.08168795406570235, ,0.011179080204070086,0.020784156948573666,-0.08184690224152706, ,0.00026620697476815997, ,0.0026830612637664267,0.001526466764892802,-0.005244866345149523,0.001523211407956899,0.007444358189216917,-0.05387942550417926, ,0.006085847640873727, ,0.007598594466990129, ,2.663558271473407e-05, ,0.20620469047466863,-0.17319000743735885,0.09746804510000001,2.3812389982102586,1.2712659938176578,-0.932083388611585, ,0.01140281959227661,0.0005782523174508694,0.005790189574700111,0.09761459009678755,0.0,0.044072884220783995, ,0.6500880718231201
0.010983892558225836,0.020786204347951327,-0.08173144847727583, ,0.011204333465784625,0.020794246706002443,-0.08190434237948427, ,0.0002802698247568344, ,0.002546622679506859,0.0013758927130240566,-0.005681184875266893,-0.0005031916251839124,0.00037532511535839127,-0.030610911765796747, ,0.006376066923777754, ,0.0006277458367892575, ,2.697018362714637e-05, ,0.20629736326915932,-0.17319000743735885,0.09751471154000001,2.381448688153743,1.2712659938176578,-0.9320017098714445, ,0.011502904595029338,0.0005308849835789674,0.006157252230382684,0.0607462444154983,0.0,0.030652051038356602, ,0.661761999130249
0.011012763380164773,0.02080065595580323,-0.081807081934074, ,0.011229677426380338,0.02080415711987191,-0.08196211693243403, ,0.00026664548057662454, ,0.002213113954782035,0.0011007551693013493,-0.006046639511768987,-0.00522662636994616,-0.010656576395272056,0.01192003819071647, ,0.0065323337870075585, ,0.01186929802458119, ,2.7256589033741306e-05, ,0.20643637246089536,-0.17318228470448463,0.09759508152000002,2.3816583780972276,1.2712659938176578,-0.931920031131304, ,0.01125629176548217,2.4875656879259155e-05,0.006399683214142226,0.0,0.0,0.013024294980352012, ,0.6727020740509033
0.0110349790292481,0.020810810954079554,-0.08186994084655007, ,0.011255111793872556,0.020813889276497154,-0.08202022330719312, ,0.0002665571760561763, ,0.0023257950889759016,0.0011660778953029465,-0.005783457275848378,-0.0007885493507704411,-0.008353572208241325,-0.007081303489561012, ,0.006341722046525069, ,0.008390707493793658, ,2.7533518178509394e-05, ,0.20655993618688295,-0.17318228470448463,0.09766119231,2.381448688153743,1.2712659938176578,-0.9318383523911634, ,0.011884922173517193,2.599866532137649e-05,0.00617635188832881,0.01760648042986355,0.0,0.01081157170073817, ,0.6827311515808105
0.011058785519690278,0.020822700609115043,-0.08192409085799424, ,0.011280636276869331,0.02082344425967886,-0.08207865891777992, ,0.000270387863231675, ,0.0022919542346188913,0.0011231117573550747,-0.00570102775382017,0.0022127650860400976,-0.009155666356970373,-0.013118827456078, ,0.006246291034119731, ,0.009419264819709136, ,2.7811790014913146e-05, ,0.20667577717999633,-0.1731745619716104,0.09771952536,2.381868068040712,1.2712659938176578,-0.9317566736510229, ,0.011854708501995099,0.00017690453915034457,0.006082020435280642,0.015203395507212242,0.0,0.0017200321511589068, ,0.6931271553039551
0.011087912316939695,0.020839037854932494,-0.08198443965511049, ,0.011306250584570288,0.020832823150705386,-0.08213742118540612, ,0.000266671277553759, ,0.002785986696142916,0.0015686652027146284,-0.005251387451291389,0.017296334470513534,0.0047915436715492655,-0.08933421717686749, ,0.006148130004552093, ,0.01794775955038917, ,2.8071687247893044e-05, ,0.20680706363885815,-0.1731745619716104,0.09778563615000001,2.3827068278146504,1.2712659938176578,-0.9314299586904605, ,0.01245056282090193,0.00017690453915034457,0.00582193403508772,0.0984236308383596,0.0,0.006103025115728596, ,0.7069091796875
0.011114403753131424,0.020852230636472853,-0.08204191412115248, ,0.011331954426766126,0.020842027028355397,-0.08219650753846915, ,0.0002670796396118036, ,0.002177513851289952,0.0009329630130287816,-0.00570233647560045,-0.017091301599799515,-0.01382138627699243,0.046380480287185756, ,0.006174838284295606, ,0.021980520989364233, ,2.8324634725135212e-05, ,0.20694607283059419,-0.1731745619716104,0.09784785807000002,2.3831262077016193,1.2712659938176578,-0.9311032437298983, ,0.01278762182434588,0.00017690453915034457,0.006022234979206051,-0.015302187961695019,0.0,0.03458715748255612, ,0.7184622287750244
0.011135195714028708,0.02086183549477589,-0.08209435988153765, ,0.011357747513838341,0.0208510569689002,-0.0822559154125448, ,0.0002752193122176598, ,0.001946222154435996,0.0007967565643739586,-0.004866797227740593,-0.021286519829393457,-0.01201952947291459,0.05480122734629721, ,0.00530172773284653, ,0.02444555199759429, ,2.8590471856112104e-05, ,0.20706191382370756,-0.1731745619716104,0.09790359854000001,2.3831262077016193,1.2712659938176578,-0.9306948500291955, ,0.011930999704647552,0.00017690453915034457,0.005151620802069858,-0.01295583095179555,0.0,0.04625831749692579, ,0.7294571399688721
0.011154070449254636,0.02086908810612098,-0.08214095152095391, ,0.011383629556758224,0.020859914046105824,-0.08231564225037898, ,0.00028861461876015176, ,0.0019759635954305806,0.0008351433549142009,-0.004624954071565088,-0.010931171695676988,-0.01063516456640418,0.024592178463375244, ,0.005098244474111729, ,0.015251138904316758, ,2.8881695208409317e-05, ,0.20718547754969516,-0.1731745619716104,0.09795285756000001,2.382916517758135,1.2712659938176578,-0.9304498138087738, ,0.01188098460427787,0.00017690453915034457,0.004931520594427244,0.0,0.0,0.02690453783011961, ,0.7392830848693848
0.011175381997368412,0.020878619362034515,-0.0821893152358764, ,0.011409600267086595,0.02086859933123575,-0.08237568550188001, ,0.0002994870196473385, ,0.0020234961803883016,0.0008891957291053308,-0.004870628365919008,-0.015406920303472196,-0.009109246602405705,0.032749327562641414, ,0.005348665863147564, ,0.017898367639533026, ,2.926272357107588e-05, ,0.2073013185428085,-0.1731668392387362,0.09800470916000001,2.3831262077016193,1.2712659938176578,-0.9302047775883522, ,0.011549244430913699,0.0003089363861370597,0.005188537954397395,0.0035200175076476868,0.0,0.03955321465975902, ,0.7485101222991943
0.011206527518731267,0.02089431015570178,-0.08224953545661909, ,0.011435659356972997,0.020877113893053006,-0.0824360426241113, ,0.00029594261989630664, ,0.0025925498221291104,0.0014539381428955906,-0.0047819818566919884,0.00839955165474722,0.0056877853290913955,-0.06623758975071288, ,0.005630506298843802, ,0.010144129703923378, ,2.9625900760495606e-05, ,0.2074248822687961,-0.1731668392387362,0.09805656076000001,2.383755277532073,1.2712659938176578,-0.9300414201080709, ,0.011503367632066277,0.0002847837653632161,0.005203793374714146,0.05546645428352206,0.0,0.01871641517907444, ,0.7581291198730469
0.011206527518731267,0.02089431015570178,-0.08224953545661909, ,0.011461806539155267,0.02088545879782258,-0.08249671108128291, ,0.0003554455151396536, ,0.0028284980572378486,0.0015455607439912819,-0.006557823709014677,-0.003937915818434996,-0.0010797292499794523,-0.019902102655898854, ,0.00730713425849561, ,0.0040832565579542604, ,3.012306145914591e-05, ,0.20757933692628058,-0.17315911650586197,0.09813563445000001,2.3841746574190417,1.2712659938176578,-0.9296330264073682, ,0.012730572567989715,0.0001439775524792343,0.007085770249110321,0.05720561491137592,0.0,0.03852961329371754, ,0.7660701274871826
0.011231100406771883,0.020906711648409633,-0.08231014043723414, ,0.01148804152695888,0.020893635109313847,-0.0825576883447442, ,0.00035702899270266417, ,0.0028284980572378486,0.0015455607439912819,-0.006557823709014677,-0.003937915818434996,-0.0010797292499794523,-0.019902102655898854, ,0.00730713425849561, ,0.0040832565579542604, ,3.061219341508651e-05, ,0.20757933692628058,-0.17315911650586197,0.09813563445000001,2.3841746574190417,1.2712659938176578,-0.9296330264073682, ,0.012730572567989715,0.0001439775524792343,0.007085770249110321,0.05720561491137592,0.0,0.03852961329371754, ,0.7741701602935791
0.011258232853590434,0.020920559291084426,-0.08238613153370335, ,0.011514364034296235,0.02090164388880286,-0.08261897189297637, ,0.00034666353583786815, ,0.0030292712710738422,0.0016725277285467726,-0.007990251505486547,-0.00515475262674767,-0.005334605320582098,-0.006817039427120726, ,0.008707350490099798, ,0.0074181841444189035, ,3.106559521546692e-05, ,0.2077106233851424,-0.17315911650586197,0.09821600443,2.3841746574190417,1.2712659938176578,-0.929469668927087, ,0.013085623491239767,0.0001439775524792343,0.00852720102783726,0.036578532971689025,0.0,0.03110438149632426, ,0.7823231220245361
0.011283325419371344,0.02093259114708265,-0.08245734025806921, ,0.011540773775666332,0.020909486195074715,-0.08268055921158385, ,0.00034152627450088105, ,0.0030132999065209565,0.0016453238293402462,-0.00823189502308911,-0.008961461959662754,-0.006457949943729965,0.0057784272377561325, ,0.008919145839215397, ,0.011045944057868823, ,3.149660979515106e-05, ,0.20782646437825578,-0.17315139377298774,0.09828989296000001,2.3841746574190417,1.2711293573178926,-0.928949857322688, ,0.012934025018191466,0.0003221003704507232,0.008752094241758242,0.027897535423034324,0.0,0.035766715449479146, ,0.7939951419830322
0.011308254315982414,0.0209463318579734,-0.08252560154973965, ,0.011567270466154012,0.020917163084425813,-0.08274244779328735, ,0.0003390611696150649, ,0.002886770141634281,0.0014911552045326982,-0.008348215714557126,-0.012138534015510854,-0.011873889515184113,0.026962369482717248, ,0.008958219204251184, ,0.016980377490403986, ,3.191212036869639e-05, ,0.20793458263849493,-0.17315139377298774,0.09836248520000002,2.3843843473625266,1.2711293573178926,-0.9287048211022663, ,0.013253762787495918,0.0003221003704507232,0.00881018336283186,0.0,0.0,0.029533975586788483, ,0.8030650615692139
0.011351600499364005,0.020971480159376377,-0.08262736215271023, ,0.011593853821429304,0.020924675610666424,-0.08280463513791562, ,0.00030381416872036837, ,0.003183529687527949,0.0017993710637731791,-0.006842329321346962,0.0010187164688146995,0.004263031860110509,-0.04858951807082865, ,0.007758225830580108, ,0.004383059306764765, ,3.223848590461694e-05, ,0.20811220549460208,-0.17315139377298774,0.09847266985000001,2.3854327970799494,1.2711293573178926,-0.9282964274015635, ,0.0135026951562992,0.0002967698143784822,0.007471299962476548,0.09135296537176713,0.0,0.043178950008601766, ,0.8111240863800049
0.011376998415513005,0.02098309830148562,-0.08268952975196149, ,0.01162052355774697,0.020932024825123005,-0.082867118752398, ,0.0003056973142895964, ,0.0030298428174294237,0.0015443841049765418,-0.0065703651129018145,0.0034625340573828235,-0.001952940945932512,-0.03806532640760257, ,0.007398294903480811, ,0.0039753123389431304, ,3.2561763051745605e-05, ,0.2082434919534639,-0.17313594830723927,0.09854007693000001,2.3856424870234334,1.2712659938176578,-0.9282444878249786, ,0.014597283734574801,0.0006071407018786537,0.0071365643010752695,0.06211523111328545,0.0012387009347452796,0.023596314480460717, ,0.8197832107543945
0.011407758875030642,0.020994708565117183,-0.0827602028741822, ,0.01164727939194592,0.020939211776640213,-0.08292989615075602, ,0.00029874032146494345, ,0.0025831017261811326,0.0007765616024595159,-0.006176931877406972,-0.024960677877804864,-0.014811331648403925,0.0572850103407656, ,0.006740174320322944, ,0.0290243169829436, ,3.286249647255582e-05, ,0.20841339207669685,-0.1731050573757424,0.09861526175000002,2.385852176966918,1.2712659938176578,-0.9279177728644163, ,0.015932998918480656,0.003292811682711565,0.006509526571311812,-0.012055663804234517,0.0012387009347452796,0.050285285686951356, ,0.8282771110534668
0.011407758875030642,0.020994708565117183,-0.0827602028741822, ,0.011674121041448509,0.020946237511583768,-0.08299296485409675, ,0.0003570383537145553, ,0.0025831017261811326,0.0007765616024595159,-0.006176931877406972,-0.024960677877804864,-0.014811331648403925,0.0572850103407656, ,0.006740174320322944, ,0.0290243169829436, ,3.335720780550392e-05, ,0.20854467853555866,-0.17309733464286817,0.09867100222000001,2.3856424870234334,1.2712659938176578,-0.9275910579038542, ,0.01335824064730726,0.0020640729843035372,0.005596911988756149,0.0,0.0012387009347452796,0.01585191717713416, ,0.8359861373901367
0.011428772276121673,0.021002433788274197,-0.08281306625386818, ,0.011701048224260125,0.020953103073842357,-0.08305632239060387, ,0.00036843080677465245, ,0.002252163737852891,0.0007924163886665863,-0.005273237679459083,-0.007517378165309977,-0.011777362895028573,0.014408090658520282, ,0.005788540477460092, ,0.013972016574712576, ,3.386808166540095e-05, ,0.20854467853555866,-0.17309733464286817,0.09867100222000001,2.3856424870234334,1.2712659938176578,-0.9275910579038542, ,0.01335824064730726,0.0020640729843035372,0.005596911988756149,0.0,0.0012387009347452796,0.01585191717713416, ,0.8431520462036133
0.011455914543978402,0.021012028114781464,-0.08287266070820912, ,0.011728060658968194,0.02095980950483041,-0.08311996629553084, ,0.0003714166725522697, ,0.002715147165834833,0.0010135273038479969,-0.006379137839962318,-0.011259254279447775,-0.013321774799076994,0.021804351468973256, ,0.0070066155388336685, ,0.017442490652513905, ,3.437658241085497e-05, ,0.20869913319304315,-0.17306644371137125,0.09873452043000001,2.385852176966918,1.2712659938176578,-0.9271826642031512, ,0.015831988915327125,0.00202880651536856,0.00678110324393359,0.0024754661569939304,0.0012387009347452796,0.02653519303126505, ,0.8498232364654541
0.011487027649637707,0.02102651121202091,-0.0829412012290389, ,0.011755158064742185,0.020966357843490054,-0.08318389411119236, ,0.0003666226701905617, ,0.002715147165834833,0.0010135273038479969,-0.006379137839962318,-0.011259254279447775,-0.013321774799076994,0.021804351468973256, ,0.0070066155388336685, ,0.017442490652513905, ,3.486614724108391e-05, ,0.2088458651176534,-0.1730432755127486,0.09880840896000001,2.3864812467973717,1.2712659938176578,-0.9271009854630107, ,0.015237145401167433,0.0030628227495157266,0.008694766113537119,0.0534358289719009,0.0012387009347452796,0.028931161897565682, ,0.8565781116485596
0.011487027649637707,0.02102651121202091,-0.0829412012290389, ,0.011782340161332665,0.020972749126293683,-0.08324810338695714, ,0.00042928868603795464, ,0.0033680349658167957,0.001555504402972929,-0.008132664573751834,-0.002821976532607932,-0.003836068184253894,-0.025326500000161508, ,0.008938875015783072, ,0.00476224055337886, ,3.548018134505344e-05, ,0.2088458651176534,-0.1730432755127486,0.09880840896000001,2.3864812467973717,1.2712659938176578,-0.9271009854630107, ,0.015237145401167433,0.0030628227495157266,0.008694766113537119,0.0534358289719009,0.0012387009347452796,0.028931161897565682, ,0.8632102012634277
0.011526224914818124,0.021046966637450665,-0.08303529313359911, ,0.011809606669070629,0.02097898438724628,-0.08331259167923999, ,0.0004022701684199605, ,0.003767340204403433,0.0019619507503005067,-0.009253563062916859,-0.010572529207760525,-0.005685915285015321,0.0010642951862479609, ,0.010181872731560656, ,0.012004496600361335, ,3.6027133956481486e-05, ,0.20902348797376058,-0.17303555277987437,0.09890951958000001,2.387110316627825,1.2712659938176578,-0.9267742705024484, ,0.01742827209521961,0.0004249975489063015,0.00993068049875312,0.04894467374574834,0.0012387009347452796,0.05244476609092462, ,0.8707380294799805
0.01155749503595846,0.021063009123982526,-0.08311832399415764, ,0.011836957308867158,0.020985064657887832,-0.08337735655149422, ,0.00038893748538089575, ,0.0037558019686957356,0.0018703651129485844,-0.011033495374808465,-0.014007488421982513,-0.019916966053038342,0.04547175378854868, ,0.01180433540144102, ,0.02434943747054228, ,3.6537194268054334e-05, ,0.20917021989837084,-0.17302783004700015,0.09899896359000002,2.3873200065713096,1.2714026303174235,-0.9265589734455828, ,0.018231881183183626,1.998992686038909e-05,0.011626869722627739,-0.022222137876704812,0.0013603921731273304,0.02590187308303593, ,0.878136157989502
0.01155749503595846,0.021063009123982526,-0.08311832399415764, ,0.011864391802212557,0.020990990967295602,-0.08344239557420295, ,0.00045210024222828055, ,0.0037558019686957356,0.0018703651129485844,-0.011033495374808465,-0.014007488421982513,-0.019916966053038342,0.04547175378854868, ,0.01180433540144102, ,0.02434943747054228, ,3.716932539440983e-05, ,0.20917021989837084,-0.17302783004700015,0.09899896359000002,2.3873200065713096,1.2714026303174235,-0.9265589734455828, ,0.018231881183183626,1.998992686038909e-05,0.011626869722627739,-0.022222137876704812,0.0013603921731273304,0.02590187308303593, ,0.8852691650390625
0.01160469887119817,0.021086911553231183,-0.08325337681582333, ,0.011891909871176132,0.02099676434208627,-0.08350770632487314, ,0.0003940814349332713, ,0.003949291844582521,0.0019827603046228487,-0.011386357348734343,-0.014604219599391193,-0.019142626301001674,0.043133502703520114, ,0.012213819147684752, ,0.024077441317858616, ,3.76722027168599e-05, ,0.20938645641884912,-0.17302010731412593,0.09914155549,2.3873200065713096,1.2714026303174235,-0.9260689010047394, ,0.018990782781362972,1.0451641147166768e-05,0.012021744543396226,-0.014770654642472951,0.0013603921731273304,0.03119497231967967, ,0.8919100761413574
0.011644404934837033,0.021104693297086818,-0.08336550869240134, ,0.011919511238405234,0.021002385806418916,-0.08357328638802593, ,0.00035961350323477476, ,0.0038758518458948,0.0017931878268295912,-0.010323717149789089,-0.010508463194526373,-0.01745832037161777,0.023829422019128032, ,0.01117214777482223, ,0.020376963258554946, ,3.809684640053334e-05, ,0.20958724747357896,-0.17300466184837746,0.09925951788000001,2.387110316627825,1.2714026303174235,-0.9260689010047394, ,0.019598707467672612,0.0010802275848847988,0.010940117802197802,0.0,0.0013603921731273304,0.025897332272189065, ,0.8984560966491699
0.011644404934837033,0.021104693297086818,-0.08336550869240134, ,0.01194719562712486,0.021007856381996603,-0.08363913335519008, ,0.0004194401596730848, ,0.0038758518458948,0.0017931878268295912,-0.010323717149789089,-0.010508463194526373,-0.01745832037161777,0.023829422019128032, ,0.01117214777482223, ,0.020376963258554946, ,3.871331028027372e-05, ,0.20958724747357896,-0.17300466184837746,0.09925951788000001,2.387110316627825,1.2714026303174235,-0.9260689010047394, ,0.019598707467672612,0.0010802275848847988,0.010940117802197802,0.0,0.0013603921731273304,0.025897332272189065, ,0.9033432006835938
0.011683700391594606,0.021122522232656902,-0.08345619732218944, ,0.011974962761137077,0.021013177088069324,-0.08370524482489362, ,0.00039851573012814105, ,0.004128407216376478,0.0016583695537830765,-0.009996737559183311,-0.010982440515167231,-0.012297414263480596,6.986478808990404e-05, ,0.010942060936968426, ,0.016487580095328067, ,3.928032995755749e-05, ,0.20977259306256035,-0.17297377091688057,0.09935673963000001,2.387739386458279,1.2714026303174235,-0.9258238647843177, ,0.02075157261282982,0.004394016904235608,0.010626291874583057,0.03380508931001488,0.0013603921731273304,0.03628430013110747, ,0.9089770317077637
0.01171284890724952,0.021136030608517542,-0.08352537677303971, ,0.012002812364820262,0.021018348941436008,-0.0837716184026566, ,0.0003981993491328756, ,0.0044656595516239985,0.0020856745974490204,-0.01005255820749207,0.008406493022296853,-0.0025265867323661026,-0.06905788175255641, ,0.01119580636990793, ,0.008777964615696198, ,3.983992748103095e-05, ,0.2099116022542964,-0.1729506027182579,0.09943192445000001,2.388158766345248,1.2715392668171888,-0.9257719252077329, ,0.020272792471367394,0.00365513508275113,0.010835926204081634,0.09002158571715364,0.001968611994161654,0.019577860166549527, ,0.9171831607818604
0.01171284890724952,0.021136030608517542,-0.08352537677303971, ,0.012030744163128666,0.021023372956447035,-0.08383825170098311, ,0.0004600433249337404, ,0.0044656595516239985,0.0020856745974490204,-0.01005255820749207,0.008406493022296853,-0.0025265867323661026,-0.06905788175255641, ,0.01119580636990793, ,0.008777964615696198, ,4.0515569430417153e-05, ,0.2099116022542964,-0.1729506027182579,0.09943192445000001,2.388158766345248,1.2715392668171888,-0.9257719252077329, ,0.020272792471367394,0.00365513508275113,0.010835926204081634,0.09002158571715364,0.001968611994161654,0.019577860166549527, ,0.9230031967163086
0.011766072924244576,0.021157729420668688,-0.08365757538722547, ,0.012058757881591942,0.021028250145006505,-0.08390514233935284, ,0.0004046217528372235, ,0.004589301962923939,0.0019001548047205509,-0.011077231373807787,0.006947594045415784,-0.012513704854009286,-0.03655945870312572, ,0.012139906741720535, ,0.014312990791881352, ,4.1073902851612365e-05, ,0.21018962063776847,-0.17290426632101255,0.09957322006000001,2.3883684562887324,1.2716759033169542,-0.925556628150867, ,0.022955235016562842,0.004385666590236074,0.011825398307349667,0.03975702487605445,0.0052485754573420775,0.0013718550686068138, ,0.9287290573120117
0.011766072924244576,0.021157729420668688,-0.08365757538722547, ,0.012086853246314132,0.021032981516574727,-0.08397228794421455, ,0.00046637543688479775, ,0.004589301962923939,0.0019001548047205509,-0.011077231373807787,0.006947594045415784,-0.012513704854009286,-0.03655945870312572, ,0.012139906741720535, ,0.014312990791881352, ,4.174675329931817e-05, ,0.21018962063776847,-0.17290426632101255,0.09957322006000001,2.3883684562887324,1.2716759033169542,-0.925556628150867, ,0.022955235016562842,0.004385666590236074,0.011825398307349667,0.03975702487605445,0.0052485754573420775,0.0013718550686068138, ,0.9335730075836182
0.01181555619413741,0.021174611486005447,-0.08378329862205597, ,0.012115029983973553,0.02103756807817033,-0.08403968614897711, ,0.0004173727475418388, ,0.0042779155846238304,0.0014628972014612469,-0.010122213043621655,-0.009326217607826816,-0.013522011185914323,0.00309425424425033, ,0.011086019433127247, ,0.016426290363885633, ,4.2316212339559665e-05, ,0.2104521935554921,-0.17283476172514453,0.09970544164,2.3883684562887324,1.2716759033169542,-0.9253115919304454, ,0.02275160430555521,0.006341725140280353,0.0107554432950709,0.024948334109418005,0.0052485754573420775,0.02957445934119035, ,0.9386711120605469
0.01181555619413741,0.021174611486005447,-0.08378329862205597, ,0.012143287821821868,0.021042010834372966,-0.0841073345940029, ,0.0004795730014436296, ,0.0042779155846238304,0.0014628972014612469,-0.010122213043621655,-0.009326217607826816,-0.013522011185914323,0.00309425424425033, ,0.011086019433127247, ,0.016426290363885633, ,4.2999592890770814e-05, ,0.2104521935554921,-0.17283476172514453,0.09970544164,2.3883684562887324,1.2716759033169542,-0.9253115919304454, ,0.02275160430555521,0.006341725140280353,0.0107554432950709,0.024948334109418005,0.0052485754573420775,0.02957445934119035, ,0.9435031414031982
0.011856947028719417,0.021189388373146635,-0.08388129347945426, ,0.012171626487683655,0.02104631078732522,-0.08417523092659893, ,0.0004537549782563615, ,0.0044526515130418306,0.0016044246208951536,-0.011001580957234634,-0.021628166532886454,-0.01370693498029403,0.034164851676809126, ,0.011976438010498613, ,0.025605809750162377, ,4.362532737937206e-05, ,0.21067615280884464,-0.17278070259502495,0.09981044113000001,2.388578146232217,1.2718125398167197,-0.9250962948735797, ,0.023033238242347275,0.005827330168371131,0.011550987324147935,0.006819834601173703,0.004916625254578277,0.057677866529540475, ,0.9488520622253418
0.011856947028719417,0.021189388373146635,-0.08388129347945426, ,0.01220004570995589,0.021050468936735345,-0.08424337280100988, ,0.000517799913071848, ,0.0044526515130418306,0.0016044246208951536,-0.011001580957234634,-0.021628166532886454,-0.01370693498029403,0.034164851676809126, ,0.011976438010498613, ,0.025605809750162377, ,4.43665609635363e-05, ,0.21067615280884464,-0.17278070259502495,0.09981044113000001,2.388578146232217,1.2718125398167197,-0.9250962948735797, ,0.023033238242347275,0.005827330168371131,0.011550987324147935,0.006819834601173703,0.004916625254578277,0.057677866529540475, ,0.9536960124969482
0.011901995710187269,0.021208579659199655,-0.08398451023404889, ,0.012228545217607075,0.021054486279879443,-0.08431175787840989, ,0.00048730931766821677, ,0.005152730645718499,0.0020973674444316366,-0.01186475860178815,0.016408580072817185,0.00344629239172355,-0.06703129569232417, ,0.013104277163697131, ,0.01676657973865331, ,4.512720255846215e-05, ,0.2108846665964487,-0.17271892073203116,0.09992321836000001,2.389416906006155,1.2720858128162507,-0.9249924157204102, ,0.023982042344824556,0.007399527466383301,0.012814812164119069,0.08774402210763137,0.017234442406456624,0.015773965772178884, ,0.9576880931854248
0.011901995710187269,0.021208579659199655,-0.08398451023404889, ,0.012257124740176826,0.021058363811603913,-0.08438038382689507, ,0.0005526276597521823, ,0.005152730645718499,0.0020973674444316366,-0.01186475860178815,0.016408580072817185,0.00344629239172355,-0.06703129569232417, ,0.013104277163697131, ,0.01676657973865331, ,4.60062391642326e-05, ,0.2108846665964487,-0.17271892073203116,0.09992321836000001,2.389416906006155,1.2720858128162507,-0.9249924157204102, ,0.023982042344824556,0.007399527466383301,0.012814812164119069,0.08774402210763137,0.017234442406456624,0.015773965772178884, ,0.9616270065307617
0.011901995710187269,0.021208579659199655,-0.08398451023404889, ,0.012285784007775578,0.021062102524327497,-0.0844492483214756, ,0.0006202664736313951, ,0.005152730645718499,0.0020973674444316366,-0.01186475860178815,0.016408580072817185,0.00344629239172355,-0.06703129569232417, ,0.013104277163697131, ,0.01676657973865331, ,4.7006720215942695e-05, ,0.2108846665964487,-0.17271892073203116,0.09992321836000001,2.389416906006155,1.2720858128162507,-0.9249924157204102, ,0.023982042344824556,0.007399527466383301,0.012814812164119069,0.08774402210763137,0.017234442406456624,0.015773965772178884, ,0.9651501178741455
0.011948048690256747,0.02122581803220111,-0.0840935878596161, ,0.012314522751083233,0.021065703408044173,-0.08451834904406771, ,0.0005834055141531598, ,0.00494984492882615,0.0019482855877816525,-0.01120864017359081,0.040355584844042745,0.026334085760355563,-0.03261551001163895, ,0.012406868907666329, ,0.04818772794004198, ,4.793010148711491e-05, ,0.21112407131554964,-0.17264941613616314,0.10004247704000001,2.389836285893124,1.2724957223155469,-0.9248365969906561, ,0.025745236451023,0.00714242954891795,0.012473619044635868,0.0657911111779059,0.059352924298816556,0.01788551761394107, ,0.9691371917724609
0.011948048690256747,0.02122581803220111,-0.0840935878596161, ,0.012343340701349334,0.021069167450325058,-0.08458768368348653, ,0.0006518633767914308, ,0.00494984492882615,0.0019482855877816525,-0.01120864017359081,0.040355584844042745,0.026334085760355563,-0.03261551001163895, ,0.012406868907666329, ,0.04818772794004198, ,4.89752202348916e-05, ,0.21112407131554964,-0.17264941613616314,0.10004247704000001,2.389836285893124,1.2724957223155469,-0.9248365969906561, ,0.025745236451023,0.00714242954891795,0.012473619044635868,0.0657911111779059,0.059352924298816556,0.01788551761394107, ,0.9724681377410889
0.011948048690256747,0.02122581803220111,-0.0840935878596161, ,0.012372237590392077,0.021072495636320854,-0.08465724993543755, ,0.0007219133713928785, ,0.00494984492882615,0.0019482855877816525,-0.01120864017359081,0.040355584844042745,0.026334085760355563,-0.03261551001163895, ,0.012406868907666329, ,0.04818772794004198, ,5.014369014298729e-05, ,0.21112407131554964,-0.17264941613616314,0.10004247704000001,2.389836285893124,1.2724957223155469,-0.9248365969906561, ,0.025745236451023,0.00714242954891795,0.012473619044635868,0.0657911111779059,0.059352924298816556,0.01788551761394107, ,0.9757230281829834
0.012010149807624734,0.021246582167051577,-0.08424871828985935, ,0.012401213150597983,0.021075688948764305,-0.08472704550250999, ,0.0006410397434138794, ,0.005899250150762149,0.001964375377093659,-0.015782260394560696,0.006607851946486191,-0.008231084612673956,0.02250597042150351, ,0.01696289085401183, ,0.010555258504883034, ,5.115255649210651e-05, ,0.21144070336339285,-0.17254902060879823,0.10020580958000001,2.3900459758366086,1.2724957223155469,-0.9242648458096723, ,0.030049696503632293,0.010631519332116377,0.016802543797468355,-0.00552044201340511,0.033032101866809445,0.011555431495500685, ,0.9789931774139404
0.012010149807624734,0.021246582167051577,-0.08424871828985935, ,0.012430267114920752,0.021078748367972567,-0.08479706809416754, ,0.0007108827216129141, ,0.005899250150762149,0.001964375377093659,-0.015782260394560696,0.006607851946486191,-0.008231084612673956,0.02250597042150351, ,0.01696289085401183, ,0.010555258504883034, ,5.228374163825652e-05, ,0.21144070336339285,-0.17254902060879823,0.10020580958000001,2.3900459758366086,1.2724957223155469,-0.9242648458096723, ,0.030049696503632293,0.010631519332116377,0.016802543797468355,-0.00552044201340511,0.033032101866809445,0.011555431495500685, ,0.9823040962219238
0.012010149807624734,0.021246582167051577,-0.08424871828985935, ,0.012459399216881367,0.021081674871849414,-0.08486731542674203, ,0.0007821009304992427, ,0.005899250150762149,0.001964375377093659,-0.015782260394560696,0.006607851946486191,-0.008231084612673956,0.02250597042150351, ,0.01696289085401183, ,0.010555258504883034, ,5.35384332071875e-05, ,0.21144070336339285,-0.17254902060879823,0.10020580958000001,2.3900459758366086,1.2724957223155469,-0.9242648458096723, ,0.030049696503632293,0.010631519332116377,0.016802543797468355,-0.00552044201340511,0.033032101866809445,0.011555431495500685, ,0.985551118850708
0.01208181471842846,0.021271080127865705,-0.0844459874081703, ,0.012488609190567148,0.0210844694358876,-0.08493778522342438, ,0.0006649589340792577, ,0.007361291399549073,0.0026278426133079023,-0.02043567139742726,-0.03807792496411632,-0.027597515825450808,0.04834126598292083, ,0.02187946144979393, ,0.0470270952244831, ,5.456773591505629e-05, ,0.21178050360985873,-0.1724177341499364,0.10041321598000001,2.3900459758366086,1.2726323588153123,-0.9238861912725251, ,0.03312284173070533,0.01311818379298739,0.02138095506040269,0.012970514328251295,0.0,0.06953663948131912, ,0.9888961315155029
0.01208181471842846,0.021271080127865705,-0.0844459874081703, ,0.012517896770631075,0.021087133033171414,-0.08500847521425807, ,0.0007351167403189394, ,0.007361291399549073,0.0026278426133079023,-0.02043567139742726,-0.03807792496411632,-0.027597515825450808,0.04834126598292083, ,0.02187946144979393, ,0.0470270952244831, ,5.571843677624898e-05, ,0.21178050360985873,-0.1724177341499364,0.10041321598000001,2.3900459758366086,1.2726323588153123,-0.9238861912725251, ,0.03312284173070533,0.01311818379298739,0.02138095506040269,0.012970514328251295,0.0,0.06953663948131912, ,0.9922001361846924
0.01208181471842846,0.021271080127865705,-0.0844459874081703, ,0.01254726169229147,0.021089666634378806,-0.08507938313613055, ,0.0008066857438281894, ,0.007361291399549073,0.0026278426133079023,-0.02043567139742726,-0.03807792496411632,-0.027597515825450808,0.04834126598292083, ,0.02187946144979393, ,0.0470270952244831, ,5.699178635550849e-05, ,0.21178050360985873,-0.1724177341499364,0.10041321598000001,2.3900459758366086,1.2726323588153123,-0.9238861912725251, ,0.03312284173070533,0.01311818379298739,0.02138095506040269,0.012970514328251295,0.0,0.06953663948131912, ,0.995481014251709
0.012149709675921464,0.02129725491641659,-0.08462604077157791, ,0.012576703691331168,0.02109207120778386,-0.08515050673276528, ,0.0007067452072198099, ,0.008277693057762311,0.0030538466713134873,-0.022265993400050664,0.003059229545381766,-0.013817431419975292,-0.055171185713575766, ,0.023950378784927777, ,0.014151848771342323, ,5.807346817030556e-05, ,0.21207396745907925,-0.17229417042394882,0.10060506690000001,2.390675045667062,1.2729056318148433,-0.9237823121193557, ,0.035120999836591706,0.016174696021556294,0.02349382230088496,0.06833359926072528,0.0134569937807369,0.011412911708433915, ,0.9998660087585449
0.012149709675921464,0.02129725491641659,-0.08462604077157791, ,0.012606222504096999,0.021094347719259124,-0.08522184375471531, ,0.0007775323065072894, ,0.008277693057762311,0.0030538466713134873,-0.022265993400050664,0.003059229545381766,-0.013817431419975292,-0.055171185713575766, ,0.023950378784927777, ,0.014151848771342323, ,5.927598702515407e-05, ,0.21207396745907925,-0.17229417042394882,0.10060506690000001,2.390675045667062,1.2729056318148433,-0.9237823121193557, ,0.035120999836591706,0.016174696021556294,0.02349382230088496,0.06833359926072528,0.0134569937807369,0.011412911708433915, ,1.0035710334777832
0.01215842397481477,0.021300382105556546,-0.08465086266507488, ,0.012635817867499313,0.021096497132277906,-0.08529339195935362, ,0.0008260253658984518, ,0.008336146335708882,0.003067746019940923,-0.022507691734812107,0.003323065661447584,-0.013938338038058901,-0.05654749995413945, ,0.024197078100517536, ,0.01432879116626056, ,6.055764172053114e-05, ,0.21211258112345038,-0.17227872495820037,0.1006309927,2.390675045667062,1.2729056318148433,-0.9237823121193557, ,0.03517306951759481,0.01649520972683309,0.023738914336810735,0.06833359926072528,0.0134569937807369,0.009981922233428071, ,1.007641077041626
0.01215842397481477,0.021300382105556546,-0.08465086266507488, ,0.012665489519011195,0.02109852040791663,-0.08536514911086691, ,0.0008989264362157261, ,0.008336146335708882,0.003067746019940923,-0.022507691734812107,0.003323065661447584,-0.013938338038058901,-0.05654749995413945, ,0.024197078100517536, ,0.01432879116626056, ,6.207367932359659e-05, ,0.21211258112345038,-0.17227872495820037,0.1006309927,2.390675045667062,1.2729056318148433,-0.9237823121193557, ,0.03517306951759481,0.01649520972683309,0.023738914336810735,0.06833359926072528,0.0134569937807369,0.009981922233428071, ,1.0097320079803467
0.01215842397481477,0.021300382105556546,-0.08465086266507488, ,0.012695237196668017,0.021100418504857377,-0.08543711298024718, ,0.0009728018476902639, ,0.008336146335708882,0.003067746019940923,-0.022507691734812107,0.003323065661447584,-0.013938338038058901,-0.05654749995413945, ,0.024197078100517536, ,0.01432879116626056, ,6.371759298490826e-05, ,0.21211258112345038,-0.17227872495820037,0.1006309927,2.390675045667062,1.2729056318148433,-0.9237823121193557, ,0.03517306951759481,0.01649520972683309,0.023738914336810735,0.06833359926072528,0.0134569937807369,0.009981922233428071, ,1.011627197265625
0.01215842397481477,0.021300382105556546,-0.08465086266507488, ,0.012725060639066813,0.02110219237938996,-0.08550928134528388, ,0.0010474917218596194, ,0.008336146335708882,0.003067746019940923,-0.022507691734812107,0.003323065661447584,-0.013938338038058901,-0.05654749995413945, ,0.024197078100517536, ,0.01432879116626056, ,6.54901589828807e-05, ,0.21211258112345038,-0.17227872495820037,0.1006309927,2.390675045667062,1.2729056318148433,-0.9237823121193557, ,0.03517306951759481,0.01649520972683309,0.023738914336810735,0.06833359926072528,0.0134569937807369,0.009981922233428071, ,1.0134642124176025
0.01215842397481477,0.021300382105556546,-0.08465086266507488, ,0.01275495958536558,0.02110384298541449,-0.08558165199055634, ,0.0011228762749438057, ,0.008336146335708882,0.003067746019940923,-0.022507691734812107,0.003323065661447584,-0.013938338038058901,-0.05654749995413945, ,0.024197078100517536, ,0.01432879116626056, ,6.739193257273848e-05, ,0.21211258112345038,-0.17227872495820037,0.1006309927,2.390675045667062,1.2729056318148433,-0.9237823121193557, ,0.03517306951759481,0.01649520972683309,0.023738914336810735,0.06833359926072528,0.0134569937807369,0.009981922233428071, ,1.0154330730438232
0.012332338393323487,0.021368087774793106,-0.08515314751057884, ,0.012784933775282906,0.02110537127444344,-0.08565422270742584, ,0.000724526667709497, ,0.009072522648325624,0.0031858063500915315,-0.026325236371510925,0.0016972262249438166,-0.0070455047672458165,-0.022108819674851683, ,0.02802638220178599, ,0.007246176298997502, ,6.857170768070393e-05, ,0.2127767361506337,-0.17192347924598603,0.10115987902000001,2.3919331853279693,1.2733155413141395,-0.9232180996888988, ,0.03586430142043491,0.02129644110378608,0.02770228090434783,0.04474646286708389,0.030170630041229867,0.019006170327125343, ,1.017679214477539
0.012332338393323487,0.021368087774793106,-0.08515314751057884, ,0.012814982949097112,0.021106778195604536,-0.08572699129402842, ,0.0007940561385678907, ,0.009072522648325624,0.0031858063500915315,-0.026325236371510925,0.0016972262249438166,-0.0070455047672458165,-0.022108819674851683, ,0.02802638220178599, ,0.007246176298997502, ,0.0003822401697717645, ,0.2127767361506337,-0.17192347924598603,0.10115987902000001,2.3919331853279693,1.2733155413141395,-0.9232180996888988, ,0.03586430142043491,0.02129644110378608,0.02770228090434783,0.04474646286708389,0.030170630041229867,0.019006170327125343, ,1.0194082260131836
0.012332338393323487,0.021368087774793106,-0.08515314751057884, ,0.012845106847645917,0.021108064695642477,-0.08579995555526629, ,0.0008653924751877537, ,0.009072522648325624,0.0031858063500915315,-0.026325236371510925,0.0016972262249438166,-0.0070455047672458165,-0.022108819674851683, ,0.02802638220178599, ,0.007246176298997502, ,0.00038693096885347315, ,0.2127767361506337,-0.17192347924598603,0.10115987902000001,2.3919331853279693,1.2733155413141395,-0.9232180996888988, ,0.03586430142043491,0.02129644110378608,0.02770228090434783,0.04474646286708389,0.030170630041229867,0.019006170327125343, ,1.0210881233215332
0.012332338393323487,0.021368087774793106,-0.08515314751057884, ,0.012875305212325655,0.021109231718921696,-0.08587311330280041, ,0.0009381738464527073, ,0.009072522648325624,0.0031858063500915315,-0.026325236371510925,0.0016972262249438166,-0.0070455047672458165,-0.022108819674851683, ,0.02802638220178599, ,0.007246176298997502, ,0.0003922313811380812, ,0.2127767361506337,-0.17192347924598603,0.10115987902000001,2.3919331853279693,1.2733155413141395,-0.9232180996888988, ,0.03586430142043491,0.02129644110378608,0.02770228090434783,0.04474646286708389,0.030170630041229867,0.019006170327125343, ,1.0227911472320557
0.012332338393323487,0.021368087774793106,-0.08515314751057884, ,0.01290557778509075,0.021110280207428608,-0.08594646235504311, ,0.0010121346671819245, ,0.009072522648325624,0.0031858063500915315,-0.026325236371510925,0.0016972262249438166,-0.0070455047672458165,-0.022108819674851683, ,0.02802638220178599, ,0.007246176298997502, ,0.0003981352219575464, ,0.2127767361506337,-0.17192347924598603,0.10115987902000001,2.3919331853279693,1.2733155413141395,-0.9232180996888988, ,0.03586430142043491,0.02129644110378608,0.02770228090434783,0.04474646286708389,0.030170630041229867,0.019006170327125343, ,1.0244700908660889
0.012332338393323487,0.021368087774793106,-0.08515314751057884, ,0.01293592430845323,0.021111211100773807,-0.08602000053714921, ,0.0010870767002711629, ,0.009072522648325624,0.0031858063500915315,-0.026325236371510925,0.0016972262249438166,-0.0070455047672458165,-0.022108819674851683, ,0.02802638220178599, ,0.007246176298997502, ,0.0004046346698661654, ,0.2127767361506337,-0.17192347924598603,0.10115987902000001,2.3919331853279693,1.2733155413141395,-0.9232180996888988, ,0.03586430142043491,0.02129644110378608,0.02770228090434783,0.04474646286708389,0.030170630041229867,0.019006170327125343, ,1.0261061191558838
0.012423742977283221,0.021393558104792626,-0.08541598983832938, ,0.012966344525481873,0.021112025336194752,-0.08609372568100994, ,0.0009126899869922373, ,0.009752777445745979,0.0026528280206499057,-0.027053087213897774,-0.026854198730479874,-0.02204200380926521,0.019097558862805165, ,0.028879468350649324, ,0.03474166707078621, ,0.00040938285040005394, ,0.21317831826009337,-0.1716686290611366,0.10143598879000001,2.3919331853279693,1.2737254508134357,-0.9232256384394258, ,0.04266948811082319,0.02724574836591179,0.028292738046181175,0.026853338630771738,0.02037160403805216,0.049486104028440385, ,1.027799129486084
0.012423742977283221,0.021393558104792626,-0.08541598983832938, ,0.012996838179801917,0.021112723848557925,-0.08616763562524377, ,0.0009860412666876548, ,0.009752777445745979,0.0026528280206499057,-0.027053087213897774,-0.026854198730479874,-0.02204200380926521,0.019097558862805165, ,0.028879468350649324, ,0.03474166707078621, ,0.0004147222801804947, ,0.21317831826009337,-0.1716686290611366,0.10143598879000001,2.3919331853279693,1.2737254508134357,-0.9232256384394258, ,0.04266948811082319,0.02724574836591179,0.028292738046181175,0.026853338630771738,0.02037160403805216,0.049486104028440385, ,1.029473066329956
0.012423742977283221,0.021393558104792626,-0.08541598983832938, ,0.01302740501559423,0.021113307570360958,-0.08624172821518908, ,0.0010605621554467864, ,0.009752777445745979,0.0026528280206499057,-0.027053087213897774,-0.026854198730479874,-0.02204200380926521,0.019097558862805165, ,0.028879468350649324, ,0.03474166707078621, ,0.0004206474166508277, ,0.21317831826009337,-0.1716686290611366,0.10143598879000001,2.3919331853279693,1.2737254508134357,-0.9232256384394258, ,0.04266948811082319,0.02724574836591179,0.028292738046181175,0.026853338630771738,0.02037160403805216,0.049486104028440385, ,1.031114101409912
0.012423742977283221,0.021393558104792626,-0.08541598983832938, ,0.013058044777594856,0.021113777431735332,-0.08631600130289668, ,0.0011360618976303904, ,0.009752777445745979,0.0026528280206499057,-0.027053087213897774,-0.026854198730479874,-0.02204200380926521,0.019097558862805165, ,0.028879468350649324, ,0.03474166707078621, ,0.0004271511846597327, ,0.21317831826009337,-0.1716686290611366,0.10143598879000001,2.3919331853279693,1.2737254508134357,-0.9232256384394258, ,0.04266948811082319,0.02724574836591179,0.028292738046181175,0.026853338630771738,0.02037160403805216,0.049486104028440385, ,1.0327770709991455
0.012423742977283221,0.021393558104792626,-0.08541598983832938, ,0.013088757211094378,0.021114134360448733,-0.08639045274712139, ,0.001212394127619391, ,0.009752777445745979,0.0026528280206499057,-0.027053087213897774,-0.026854198730479874,-0.02204200380926521,0.019097558862805165, ,0.028879468350649324, ,0.03474166707078621, ,0.00043422544540711706, ,0.21317831826009337,-0.1716686290611366,0.10143598879000001,2.3919331853279693,1.2737254508134357,-0.9232256384394258, ,0.04266948811082319,0.02724574836591179,0.028292738046181175,0.026853338630771738,0.02037160403805216,0.049486104028440385, ,1.0344631671905518
0.012423742977283221,0.021393558104792626,-0.08541598983832938, ,0.013119542061937372,0.021114379281907018,-0.08646508041331527, ,0.001289444925492199, ,0.009752777445745979,0.0026528280206499057,-0.027053087213897774,-0.026854198730479874,-0.02204200380926521,0.019097558862805165, ,0.028879468350649324, ,0.03474166707078621, ,0.00044186133362216244, ,0.21317831826009337,-0.1716686290611366,0.10143598879000001,2.3919331853279693,1.2737254508134357,-0.9232256384394258, ,0.04266948811082319,0.02724574836591179,0.028292738046181175,0.026853338630771738,0.02037160403805216,0.049486104028440385, ,1.036147117614746
0.012533473777658016,0.02142113097301731,-0.08572169224722977, ,0.013150399076521675,0.02111451311915706,-0.08653988217361855, ,0.0010696009014244331, ,0.011532529481084094,0.0027818643132044765,-0.032746156066279127,0.04332273208729647,0.016470270196942326,0.002338883005711727, ,0.03482884928340676, ,0.046347505463509284, ,0.00044741655103634184, ,0.21367257316404373,-0.17132882881467074,0.10176006129000001,2.3921428752714538,1.2745452698120285,-0.9231590372003393, ,0.052227265579785784,0.03693925323412642,0.034779064454148474,0.0,0.10371119530273903,-0.019355849881222437, ,1.0378191471099854
0.012533473777658016,0.02142113097301731,-0.08572169224722977, ,0.013181328001797893,0.021114536792888713,-0.08661485590685347, ,0.0011451883731059347, ,0.011532529481084094,0.0027818643132044765,-0.032746156066279127,0.04332273208729647,0.016470270196942326,0.002338883005711727, ,0.03482884928340676, ,0.046347505463509284, ,0.0004535373564930926, ,0.21367257316404373,-0.17132882881467074,0.10176006129000001,2.3921428752714538,1.2745452698120285,-0.9231590372003393, ,0.052227265579785784,0.03693925323412642,0.034779064454148474,0.0,0.10371119530273903,-0.019355849881222437, ,1.039499044418335
0.012533473777658016,0.02142113097301731,-0.08572169224722977, ,0.01321232858526889,0.021114451221437448,-0.08668999949851497, ,0.0012216854148007932, ,0.011532529481084094,0.0027818643132044765,-0.032746156066279127,0.04332273208729647,0.016470270196942326,0.002338883005711727, ,0.03482884928340676, ,0.046347505463509284, ,0.00046021690482620306, ,0.21367257316404373,-0.17132882881467074,0.10176006129000001,2.3921428752714538,1.2745452698120285,-0.9231590372003393, ,0.052227265579785784,0.03693925323412642,0.034779064454148474,0.0,0.10371119530273903,-0.019355849881222437, ,1.041168212890625
0.012533473777658016,0.02142113097301731,-0.08572169224722977, ,0.013243400574989144,0.021114257320786225,-0.08676531084076337, ,0.0012989639197343171, ,0.011532529481084094,0.0027818643132044765,-0.032746156066279127,0.04332273208729647,0.016470270196942326,0.002338883005711727, ,0.03482884928340676, ,0.046347505463509284, ,0.0004674474825409282, ,0.21367257316404373,-0.17132882881467074,0.10176006129000001,2.3921428752714538,1.2745452698120285,-0.9231590372003393, ,0.052227265579785784,0.03693925323412642,0.034779064454148474,0.0,0.10371119530273903,-0.019355849881222437, ,1.043006181716919
0.012533473777658016,0.02142113097301731,-0.08572169224722977, ,0.013274543719563969,0.02111395600456872,-0.0868407878324178, ,0.0013769226735097508, ,0.011532529481084094,0.0027818643132044765,-0.032746156066279127,0.04332273208729647,0.016470270196942326,0.002338883005711727, ,0.03482884928340676, ,0.046347505463509284, ,0.0004752207747714309, ,0.21367257316404373,-0.17132882881467074,0.10176006129000001,2.3921428752714538,1.2745452698120285,-0.9231590372003393, ,0.052227265579785784,0.03693925323412642,0.034779064454148474,0.0,0.10371119530273903,-0.019355849881222437, ,1.045769214630127
0.01261071875455232,0.021442197258134052,-0.08593403430251557, ,0.013305757768149183,0.02111354818407063,-0.08691642837894639, ,0.0012474724709230277, ,0.013275381180625751,0.003608426979227653,-0.03771829071963801,0.04472632585540176,0.006240696747512827,-0.040995291777105945, ,0.03482884928340676, ,0.046347505463509284, ,0.0004817652806710207, ,0.21400465067763538,-0.171097146828444,0.10198561575000001,2.392562255158423,1.2750918158110902,-0.9231146363742817, ,0.05733954172717268,0.0389240941585196,0.03992183338345865,0.024756028831190536,0.09105348199098101,-0.03648868622466438, ,1.048037052154541
0.01261071875455232,0.021442197258134052,-0.08593403430251557, ,0.013337042470450275,0.021113034768232935,-0.08699223039246042, ,0.0013250181318790566, ,0.013275381180625751,0.003608426979227653,-0.03771829071963801,0.04472632585540176,0.006240696747512827,-0.040995291777105945, ,0.04014879756065506, ,0.04515876635865904, ,0.0004888514390845336, ,0.21400465067763538,-0.171097146828444,0.10198561575000001,2.392562255158423,1.2750918158110902,-0.9231146363742817, ,0.05733954172717268,0.0389240941585196,0.03992183338345865,0.024756028831190536,0.09105348199098101,-0.03648868622466438, ,1.0498261451721191
0.01261071875455232,0.021442197258134052,-0.08593403430251557, ,0.013368397576722233,0.021112416663653516,-0.0870681917917051, ,0.0014032625015817236, ,0.013275381180625751,0.003608426979227653,-0.03771829071963801,0.04472632585540176,0.006240696747512827,-0.040995291777105945, ,0.04014879756065506, ,0.04515876635865904, ,0.0004964715312720102, ,0.21400465067763538,-0.171097146828444,0.10198561575000001,2.392562255158423,1.2750918158110902,-0.9231146363742817, ,0.05733954172717268,0.0389240941585196,0.03992183338345865,0.024756028831190536,0.09105348199098101,-0.03648868622466438, ,1.0515692234039307
0.01261071875455232,0.021442197258134052,-0.08593403430251557, ,0.013399822837768355,0.021111694774590087,-0.08714431050205251, ,0.0014821220006944519, ,0.013275381180625751,0.003608426979227653,-0.03771829071963801,0.04472632585540176,0.006240696747512827,-0.040995291777105945, ,0.04014879756065506, ,0.04515876635865904, ,0.0005046174029201295, ,0.21400465067763538,-0.171097146828444,0.10198561575000001,2.392562255158423,1.2750918158110902,-0.9231146363742817, ,0.05733954172717268,0.0389240941585196,0.03992183338345865,0.024756028831190536,0.09105348199098101,-0.03648868622466438, ,1.053375005722046
0.01261071875455232,0.021442197258134052,-0.08593403430251557, ,0.013431318004940063,0.021110870002962228,-0.08722058445549406, ,0.0015615287944465172, ,0.013275381180625751,0.003608426979227653,-0.03771829071963801,0.04472632585540176,0.006240696747512827,-0.040995291777105945, ,0.04014879756065506, ,0.04515876635865904, ,0.000513280611047395, ,0.21400465067763538,-0.171097146828444,0.10198561575000001,2.392562255158423,1.2750918158110902,-0.9231146363742817, ,0.05733954172717268,0.0389240941585196,0.03992183338345865,0.024756028831190536,0.09105348199098101,-0.03648868622466438, ,1.0551061630249023
0.01261071875455232,0.021442197258134052,-0.08593403430251557, ,0.013462882830136223,0.021109943248353736,-0.08729701159063213, ,0.0016414272529272924, ,0.013275381180625751,0.003608426979227653,-0.03771829071963801,0.04472632585540176,0.006240696747512827,-0.040995291777105945, ,0.04014879756065506, ,0.04515876635865904, ,0.0005224525349651177, ,0.21400465067763538,-0.171097146828444,0.10198561575000001,2.392562255158423,1.2750918158110902,-0.9231146363742817, ,0.05733954172717268,0.0389240941585196,0.03992183338345865,0.024756028831190536,0.09105348199098101,-0.03648868622466438, ,1.0567741394042969
0.012818370991682593,0.021506387126159633,-0.08651225645401364, ,0.013494517065802611,0.021108915408015107,-0.08737358985267253, ,0.0011649259649943204, ,0.014994951916334718,0.004480473757357979,-0.042534151050778665,0.041020896735497456,0.02599354614152344,-0.059364048407823555, ,0.0453219288388526, ,0.048561705016339565, ,0.0005276337723040629, ,0.21484642856092587,-0.1705256645957514,0.1026013535,2.394030084762815,1.27659481730851,-0.922870015992412, ,0.05897883254100111,0.04337154550204332,0.04512411195467422,0.09661675847690888,0.10114599959446041,0.017157053780088336, ,1.0584561824798584
0.012818370991682593,0.021506387126159633,-0.08651225645401364, ,0.013526220464931151,0.02110778737686585,-0.08745031719341709, ,0.0012409232803543768, ,0.014994951916334718,0.004480473757357979,-0.042534151050778665,0.041020896735497456,0.02599354614152344,-0.059364048407823555, ,0.0453219288388526, ,0.048561705016339565, ,0.0005333400883684654, ,0.21484642856092587,-0.1705256645957514,0.1026013535,2.394030084762815,1.27659481730851,-0.922870015992412, ,0.05897883254100111,0.04337154550204332,0.04512411195467422,0.09661675847690888,0.10114599959446041,0.017157053780088336, ,1.0601141452789307
0.012818370991682593,0.021506387126159633,-0.08651225645401364, ,0.013557992781059517,0.02110656004749671,-0.08752719157125508, ,0.0013179512040903227, ,0.014994951916334718,0.004480473757357979,-0.042534151050778665,0.041020896735497456,0.02599354614152344,-0.059364048407823555, ,0.0453219288388526, ,0.048561705016339565, ,0.0005395671607154644, ,0.21484642856092587,-0.1705256645957514,0.1026013535,2.394030084762815,1.27659481730851,-0.922870015992412, ,0.05897883254100111,0.04337154550204332,0.04512411195467422,0.09661675847690888,0.10114599959446041,0.017157053780088336, ,1.061744213104248
0.012818370991682593,0.021506387126159633,-0.08651225645401364, ,0.013589833768270311,0.021105234310172236,-0.08760421095115638, ,0.0013958664052355783, ,0.014994951916334718,0.004480473757357979,-0.042534151050778665,0.041020896735497456,0.02599354614152344,-0.059364048407823555, ,0.0453219288388526, ,0.048561705016339565, ,0.0005463096744518431, ,0.21484642856092587,-0.1705256645957514,0.1026013535,2.394030084762815,1.27659481730851,-0.922870015992412, ,0.05897883254100111,0.04337154550204332,0.04512411195467422,0.09661675847690888,0.10114599959446041,0.017157053780088336, ,1.0634171962738037
0.012818370991682593,0.021506387126159633,-0.08651225645401364, ,0.0136217431811907,0.02110381105283293,-0.08768137330466291, ,0.001474553688463824, ,0.014994951916334718,0.004480473757357979,-0.042534151050778665,0.041020896735497456,0.02599354614152344,-0.059364048407823555, ,0.0453219288388526, ,0.048561705016339565, ,0.0005535615808113117, ,0.21484642856092587,-0.1705256645957514,0.1026013535,2.394030084762815,1.27659481730851,-0.922870015992412, ,0.05897883254100111,0.04337154550204332,0.04512411195467422,0.09661675847690888,0.10114599959446041,0.017157053780088336, ,1.0650451183319092
0.012818370991682593,0.021506387126159633,-0.08651225645401364, ,0.013653720774991761,0.021102291161097773,-0.08775867660988168, ,0.0015539195649737012, ,0.014994951916334718,0.004480473757357979,-0.042534151050778665,0.041020896735497456,0.02599354614152344,-0.059364048407823555, ,0.0453219288388526, ,0.048561705016339565, ,0.0005613162938668342, ,0.21484642856092587,-0.1705256645957514,0.1026013535,2.394030084762815,1.27659481730851,-0.922870015992412, ,0.05897883254100111,0.04337154550204332,0.04512411195467422,0.09661675847690888,0.10114599959446041,0.017157053780088336, ,1.066711187362671
0.012969561986788211,0.021540990077191215,-0.08695380593736904, ,0.01368576630538768,0.021100675518266485,-0.08783611885147638, ,0.0012187295086204318, ,0.015567138935569219,0.002910067235113368,-0.04551239249871308,0.007634088185476745,0.013847450707993907,0.04933873666062667, ,0.048189025482044255, ,0.015806198713691048, ,0.000566373318595708, ,0.21546424719086382,-0.17000051876030414,0.10306672161000001,2.394239774706299,1.2776879093066338,-0.9225361781198752, ,0.06477606932318823,0.05964609777402312,0.04783426882882884,0.0,0.11498222524557906,0.03404433702837198, ,1.0684280395507812
0.012969561986788211,0.021540990077191215,-0.08695380593736904, ,0.013717879528635561,0.021098965005321636,-0.08791369802065932, ,0.001294896953105197, ,0.015567138935569219,0.002910067235113368,-0.04551239249871308,0.007634088185476745,0.013847450707993907,0.04933873666062667, ,0.048189025482044255, ,0.015806198713691048, ,0.0005719345677141011, ,0.21546424719086382,-0.17000051876030414,0.10306672161000001,2.394239774706299,1.2776879093066338,-0.9225361781198752, ,0.06477606932318823,0.05964609777402312,0.04783426882882884,0.0,0.11498222524557906,0.03404433702837198, ,1.0701541900634766
0.012969561986788211,0.021540990077191215,-0.08695380593736904, ,0.01375006020153449,0.021097160500931633,-0.08799141211518507, ,0.0013721474906972981, ,0.015567138935569219,0.002910067235113368,-0.04551239249871308,0.007634088185476745,0.013847450707993907,0.04933873666062667, ,0.048189025482044255, ,0.015806198713691048, ,0.00057799678682761, ,0.21546424719086382,-0.17000051876030414,0.10306672161000001,2.394239774706299,1.2776879093066338,-0.9225361781198752, ,0.06477606932318823,0.05964609777402312,0.04783426882882884,0.0,0.11498222524557906,0.03404433702837198, ,1.0718581676483154
0.012969561986788211,0.021540990077191215,-0.08695380593736904, ,0.01378230808142497,0.02109526288145242,-0.08806925913934113, ,0.001450332649138903, ,0.015567138935569219,0.002910067235113368,-0.04551239249871308,0.007634088185476745,0.013847450707993907,0.04933873666062667, ,0.048189025482044255, ,0.015806198713691048, ,0.0005845557030855897, ,0.21546424719086382,-0.17000051876030414,0.10306672161000001,2.394239774706299,1.2776879093066338,-0.9225361781198752, ,0.06477606932318823,0.05964609777402312,0.04783426882882884,0.0,0.11498222524557906,0.03404433702837198, ,1.0735230445861816
0.012969561986788211,0.021540990077191215,-0.08695380593736904, ,0.013814622926188623,0.021093273020930163,-0.08814723710394094, ,0.0015293320447543571, ,0.015567138935569219,0.002910067235113368,-0.04551239249871308,0.007634088185476745,0.013847450707993907,0.04933873666062667, ,0.048189025482044255, ,0.015806198713691048, ,0.0005916062727995357, ,0.21546424719086382,-0.17000051876030414,0.10306672161000001,2.394239774706299,1.2776879093066338,-0.9225361781198752, ,0.06477606932318823,0.05964609777402312,0.04783426882882884,0.0,0.11498222524557906,0.03404433702837198, ,1.0751712322235107
0.012969561986788211,0.021540990077191215,-0.08695380593736904, ,0.013847004494247278,0.021091191791103477,-0.08822534402631604, ,0.0016090472223357906, ,0.015567138935569219,0.002910067235113368,-0.04551239249871308,0.007634088185476745,0.013847450707993907,0.04933873666062667, ,0.048189025482044255, ,0.015806198713691048, ,0.0005991428724257303, ,0.21546424719086382,-0.17000051876030414,0.10306672161000001,2.394239774706299,1.2776879093066338,-0.9225361781198752, ,0.06477606932318823,0.05964609777402312,0.04783426882882884,0.0,0.11498222524557906,0.03404433702837198, ,1.0768461227416992
0.013125768041932733,0.021567254700899603,-0.08741950515604151, ,0.013879452544562325,0.021089020061405915,-0.08830357793030834, ,0.0012563173843084094, ,0.016691177686935534,0.0031980217253417126,-0.04871687272261581,0.05378118118637967,0.040704460064573775,0.007617159033595613, ,0.05159608941968529, ,0.06744623125719043, ,0.0006039750379542793, ,0.2161206794851729,-0.16938270013036616,0.10355542294000002,2.39382039481933,1.2789176378045226,-0.9222320794108938, ,0.06846821180264846,0.06407626033657716,0.0515495518446602,0.01575115120042179,0.1594005351384305,-0.00698287032527941, ,1.0784940719604492
0.013125768041932733,0.021567254700899603,-0.08741950515604151, ,0.013911966836634697,0.021086758698968047,-0.08838193684626204, ,0.0013323887236853153, ,0.016691177686935534,0.0031980217253417126,-0.04871687272261581,0.05378118118637967,0.040704460064573775,0.007617159033595613, ,0.05159608941968529, ,0.06744623125719043, ,0.0006092919261712943, ,0.2161206794851729,-0.16938270013036616,0.10355542294000002,2.39382039481933,1.2789176378045226,-0.9222320794108938, ,0.06846821180264846,0.06407626033657716,0.0515495518446602,0.01575115120042179,0.1594005351384305,-0.00698287032527941, ,1.0802950859069824
0.013125768041932733,0.021567254700899603,-0.08741950515604151, ,0.01394454713050344,0.021084408568620223,-0.08846041881101621, ,0.0014096243543762399, ,0.016691177686935534,0.0031980217253417126,-0.04871687272261581,0.05378118118637967,0.040704460064573775,0.007617159033595613, ,0.05159608941968529, ,0.06744623125719043, ,0.0006150914365206054, ,0.2161206794851729,-0.16938270013036616,0.10355542294000002,2.39382039481933,1.2789176378045226,-0.9222320794108938, ,0.06846821180264846,0.06407626033657716,0.0515495518446602,0.01575115120042179,0.1594005351384305,-0.00698287032527941, ,1.0821890830993652
0.013125768041932733,0.021567254700899603,-0.08741950515604151, ,0.013977193186745786,0.021081970532894605,-0.08853902186789701, ,0.0014878653060878852, ,0.016691177686935534,0.0031980217253417126,-0.04871687272261581,0.05378118118637967,0.040704460064573775,0.007617159033595613, ,0.05159608941968529, ,0.06744623125719043, ,0.0006213703852225282, ,0.2161206794851729,-0.16938270013036616,0.10355542294000002,2.39382039481933,1.2789176378045226,-0.9222320794108938, ,0.06846821180264846,0.06407626033657716,0.0515495518446602,0.01575115120042179,0.1594005351384305,-0.00698287032527941, ,1.0839941501617432
0.013125768041932733,0.021567254700899603,-0.08741950515604151, ,0.014009904766476336,0.02107944545202744,-0.08861774406670989, ,0.0015669818435488198, ,0.016691177686935534,0.0031980217253417126,-0.04871687272261581,0.05378118118637967,0.040704460064573775,0.007617159033595613, ,0.05159608941968529, ,0.06744623125719043, ,0.0006281247527820018, ,0.2161206794851729,-0.16938270013036616,0.10355542294000002,2.39382039481933,1.2789176378045226,-0.9222320794108938, ,0.06846821180264846,0.06407626033657716,0.0515495518446602,0.01575115120042179,0.1594005351384305,-0.00698287032527941, ,1.0857441425323486
0.013125768041932733,0.021567254700899603,-0.08741950515604151, ,0.01404268163134625,0.02107683418396176,-0.0886965834637313, ,0.0016468672739041782, ,0.016691177686935534,0.0031980217253417126,-0.04871687272261581,0.05378118118637967,0.040704460064573775,0.007617159033595613, ,0.05159608941968529, ,0.06744623125719043, ,0.0006353498770452796, ,0.2161206794851729,-0.16938270013036616,0.10355542294000002,2.39382039481933,1.2789176378045226,-0.9222320794108938, ,0.06846821180264846,0.06407626033657716,0.0515495518446602,0.01575115120042179,0.1594005351384305,-0.00698287032527941, ,1.0892682075500488
0.01323242540715501,0.02158633325802011,-0.08772627185033673, ,0.014075523543543017,0.021074137584349614,-0.0887755381217018, ,0.0014401800526087272, ,0.01754605662064201,0.0030787000833619065,-0.04900423095307374,0.06658753118343579,0.04057146584645272,0.0017599006751592516, ,0.05214170258478581, ,0.07797217806892301, ,0.0006410176951830503, ,0.21657632072475214,-0.16897339528803226,0.10388079173,2.39382039481933,1.280010729802646,-0.9223066352390598, ,0.0771519850068868,0.06580925212099221,0.052054939607843145,0.013174748886464988,0.1736835575375372,-0.019868339748101045, ,1.0966532230377197
0.01323242540715501,0.02158633325802011,-0.08772627185033673, ,0.014108430265789788,0.021071356506554027,-0.08885460610981769, ,0.001518460986664044, ,0.01754605662064201,0.0030787000833619065,-0.04900423095307374,0.06658753118343579,0.04057146584645272,0.0017599006751592516, ,0.05214170258478581, ,0.07797217806892301, ,0.000647153662256344, ,0.21657632072475214,-0.16897339528803226,0.10388079173,2.39382039481933,1.280010729802646,-0.9223066352390598, ,0.0771519850068868,0.06580925212099221,0.052054939607843145,0.013174748886464988,0.1736835575375372,-0.019868339748101045, ,1.0983750820159912
0.01323242540715501,0.02158633325802011,-0.08772627185033673, ,0.01414140156134443,0.021068491801651996,-0.08893378550372352, ,0.0015976503515894732, ,0.01754605662064201,0.0030787000833619065,-0.04900423095307374,0.06658753118343579,0.04057146584645272,0.0017599006751592516, ,0.05214170258478581, ,0.07797217806892301, ,0.0006537543337100462, ,0.21657632072475214,-0.16897339528803226,0.10388079173,2.39382039481933,1.280010729802646,-0.9223066352390598, ,0.0771519850068868,0.06580925212099221,0.052054939607843145,0.013174748886464988,0.1736835575375372,-0.019868339748101045, ,1.100126028060913
0.013548256003036274,0.021611725520727272,-0.08852384805070507, ,0.014174437193999478,0.02106554431843644,-0.08901307438550415, ,0.0009642402171206634, ,0.015029420716797234,-0.0005288798738370029,-0.0336904406606727,-0.015831335492876932,-0.01339654073294871,0.0426537235443793, ,0.03689456589951631, ,0.020737769473295493, ,0.0006558956156646022, ,0.21815175823109395,-0.16763736250079142,0.1047272691,2.394030084762815,1.2828800962977203,-0.9223594064927486, ,0.08420314246536893,0.07299764735266984,0.035476194922048995,0.005590877146456146,0.10154371247172563,0.03985413981203677, ,1.1023890972137451
0.013548256003036274,0.021611725520727272,-0.08852384805070507, ,0.01420753692808102,0.021062514903418462,-0.08909247084367719, ,0.001029376277645836, ,0.015029420716797234,-0.0005288798738370029,-0.0336904406606727,-0.015831335492876932,-0.01339654073294871,0.0426537235443793, ,0.03689456589951631, ,0.020737769473295493, ,0.000658453702390501, ,0.21815175823109395,-0.16763736250079142,0.1047272691,2.394030084762815,1.2828800962977203,-0.9223594064927486, ,0.08420314246536893,0.07299764735266984,0.035476194922048995,0.005590877146456146,0.10154371247172563,0.03985413981203677, ,1.104058027267456
0.013548256003036274,0.021611725520727272,-0.08852384805070507, ,0.014240700528448499,0.021059404400830102,-0.08917197297318492, ,0.0010975445118068536, ,0.015029420716797234,-0.0005288798738370029,-0.0336904406606727,-0.015831335492876932,-0.01339654073294871,0.0426537235443793, ,0.03689456589951631, ,0.020737769473295493, ,0.0006614407146994558, ,0.21815175823109395,-0.16763736250079142,0.1047272691,2.394030084762815,1.2828800962977203,-0.9223594064927486, ,0.08420314246536893,0.07299764735266984,0.035476194922048995,0.005590877146456146,0.10154371247172563,0.03985413981203677, ,1.105755090713501
0.013548256003036274,0.021611725520727272,-0.08852384805070507, ,0.014273927760493958,0.021056213652626322,-0.08925157887538691, ,0.001168240167245097, ,0.015029420716797234,-0.0005288798738370029,-0.0336904406606727,-0.015831335492876932,-0.01339654073294871,0.0426537235443793, ,0.03689456589951631, ,0.020737769473295493, ,0.0006648650353247642, ,0.21815175823109395,-0.16763736250079142,0.1047272691,2.394030084762815,1.2828800962977203,-0.9223594064927486, ,0.08420314246536893,0.07299764735266984,0.035476194922048995,0.005590877146456146,0.10154371247172563,0.03985413981203677, ,1.1074151992797852
0.013548256003036274,0.021611725520727272,-0.08852384805070507, ,0.01430721839014138,0.02105294349848754,-0.08933128665805191, ,0.0012410553404473223, ,0.015029420716797234,-0.0005288798738370029,-0.0336904406606727,-0.015831335492876932,-0.01339654073294871,0.0426537235443793, ,0.03689456589951631, ,0.020737769473295493, ,0.0006687320843524324, ,0.21815175823109395,-0.16763736250079142,0.1047272691,2.394030084762815,1.2828800962977203,-0.9223594064927486, ,0.08420314246536893,0.07299764735266984,0.035476194922048995,0.005590877146456146,0.10154371247172563,0.03985413981203677, ,1.1090850830078125
0.013548256003036274,0.021611725520727272,-0.08852384805070507, ,0.014340572183846233,0.02104959477582179,-0.08941109443535027, ,0.00131566031018924, ,0.015029420716797234,-0.0005288798738370029,-0.0336904406606727,-0.015831335492876932,-0.01339654073294871,0.0426537235443793, ,0.03689456589951631, ,0.020737769473295493, ,0.0006730449391913445, ,0.21815175823109395,-0.16763736250079142,0.1047272691,2.394030084762815,1.2828800962977203,-0.9223594064927486, ,0.08420314246536893,0.07299764735266984,0.035476194922048995,0.005590877146456146,0.10154371247172563,0.03985413981203677, ,1.1107761859893799
0.01368897035029993,0.02159022351020939,-0.08880900231027454, ,0.01437398890859481,0.021046168319767387,-0.08949100032784611, ,0.001109219442412923, ,0.014594253369314646,-0.003999740929774775,-0.02635010316598962,-0.06896082780211665,-0.052286007898562956,0.03323737061599245, ,0.030386149735880715, ,0.08654137559553064, ,0.0006759335120603615, ,0.21900898158013288,-0.16684192101474632,0.10502411951000001,2.394030084762815,1.2835632787965474,-0.9217729936492629, ,0.09585549652370785,0.09556590287862111,0.027182272218430035,0.00504050388695712,0.06057878608046449,0.04647660427051193, ,1.1124341487884521
0.01368897035029993,0.02159022351020939,-0.08880900231027454, ,0.014407468331903567,0.02104266496319501,-0.08957100246248978, ,0.001181822297958982, ,0.014594253369314646,-0.003999740929774775,-0.02635010316598962,-0.06896082780211665,-0.052286007898562956,0.03323737061599245, ,0.030386149735880715, ,0.08654137559553064, ,0.000679261727757063, ,0.21900898158013288,-0.16684192101474632,0.10502411951000001,2.394030084762815,1.2835632787965474,-0.9217729936492629, ,0.09585549652370785,0.09556590287862111,0.027182272218430035,0.00504050388695712,0.06057878608046449,0.04647660427051193, ,1.1141211986541748
0.01368897035029993,0.02159022351020939,-0.08880900231027454, ,0.01444101022181869,0.0210390855367102,-0.08965109897260956, ,0.0012563613424897042, ,0.014594253369314646,-0.003999740929774775,-0.02635010316598962,-0.06896082780211665,-0.052286007898562956,0.03323737061599245, ,0.030386149735880715, ,0.08654137559553064, ,0.0006830336206638122, ,0.21900898158013288,-0.16684192101474632,0.10502411951000001,2.394030084762815,1.2835632787965474,-0.9217729936492629, ,0.09585549652370785,0.09556590287862111,0.027182272218430035,0.00504050388695712,0.06057878608046449,0.04647660427051193, ,1.1157681941986084
0.01368897035029993,0.02159022351020939,-0.08880900231027454, ,0.014474614346915467,0.021035430868655513,-0.08973128799790452, ,0.0013325322713343424, ,0.014594253369314646,-0.003999740929774775,-0.02635010316598962,-0.06896082780211665,-0.052286007898562956,0.03323737061599245, ,0.030386149735880715, ,0.08654137559553064, ,0.000687251144369465, ,0.21900898158013288,-0.16684192101474632,0.10502411951000001,2.394030084762815,1.2835632787965474,-0.9217729936492629, ,0.09585549652370785,0.09556590287862111,0.027182272218430035,0.00504050388695712,0.06057878608046449,0.04647660427051193, ,1.1174051761627197
0.01368897035029993,0.02159022351020939,-0.08880900231027454, ,0.014508280476297437,0.0210317017851132,-0.08981156768443639, ,0.0014100896884364374, ,0.014594253369314646,-0.003999740929774775,-0.02635010316598962,-0.06896082780211665,-0.052286007898562956,0.03323737061599245, ,0.030386149735880715, ,0.08654137559553064, ,0.0006919146188473165, ,0.21900898158013288,-0.16684192101474632,0.10502411951000001,2.394030084762815,1.2835632787965474,-0.9217729936492629, ,0.09585549652370785,0.09556590287862111,0.027182272218430035,0.00504050388695712,0.06057878608046449,0.04647660427051193, ,1.119014024734497
0.01368897035029993,0.02159022351020939,-0.08880900231027454, ,0.014542008379596103,0.021027899109907232,-0.0898919361846217, ,0.0014888345733523349, ,0.014594253369314646,-0.003999740929774775,-0.02635010316598962,-0.06896082780211665,-0.052286007898562956,0.03323737061599245, ,0.030386149735880715, ,0.08654137559553064, ,0.0006970230800941434, ,0.21900898158013288,-0.16684192101474632,0.10502411951000001,2.394030084762815,1.2835632787965474,-0.9217729936492629, ,0.09585549652370785,0.09556590287862111,0.027182272218430035,0.00504050388695712,0.06057878608046449,0.04647660427051193, ,1.1207301616668701
0.013860712195176893,0.021554471443506334,-0.08913867280702716, ,0.014575797826970414,0.02102402366460584,-0.08997239165722444, ,0.0012197579383272285, ,0.016197638700062245,-0.002720125536654262,-0.03399055581965928,0.015544155890993746,-0.014274456289428628,-0.055215835137938415, ,0.03775076777129554, ,0.02110297401709694, ,0.000700352601484163, ,0.22006699598390164,-0.16577618387810333,0.10536893265000001,2.3944494646497834,1.284656370794671,-0.9219292282175692, ,0.09461310225171563,0.09693252457453604,0.03563492510067114,0.012681065239378482,0.12082094286130407,-0.059487466182062784, ,1.1224231719970703
0.013860712195176893,0.021554471443506334,-0.08913867280702716, ,0.014609648589105712,0.02102007626852376,-0.09005293226734762, ,0.001297056007264614, ,0.016197638700062245,-0.002720125536654262,-0.03399055581965928,0.015544155890993746,-0.014274456289428628,-0.055215835137938415, ,0.03775076777129554, ,0.02110297401709694, ,0.0007041292053182165, ,0.22006699598390164,-0.16577618387810333,0.10536893265000001,2.3944494646497834,1.284656370794671,-0.9219292282175692, ,0.09461310225171563,0.09693252457453604,0.03563492510067114,0.012681065239378482,0.12082094286130407,-0.059487466182062784, ,1.1241490840911865
0.013860712195176893,0.021554471443506334,-0.08913867280702716, ,0.014643560437213527,0.021016057738724753,-0.09013355618642678, ,0.0013756938708019658, ,0.016197638700062245,-0.002720125536654262,-0.03399055581965928,0.015544155890993746,-0.014274456289428628,-0.055215835137938415, ,0.03775076777129554, ,0.02110297401709694, ,0.0007083528824596238, ,0.22006699598390164,-0.16577618387810333,0.10536893265000001,2.3944494646497834,1.284656370794671,-0.9219292282175692, ,0.09461310225171563,0.09693252457453604,0.03563492510067114,0.012681065239378482,0.12082094286130407,-0.059487466182062784, ,1.1259081363677979
0.013860712195176893,0.021554471443506334,-0.08913867280702716, ,0.014677533143031038,0.021011968890023602,-0.09021426159221997, ,0.0014554713038123375, ,0.016197638700062245,-0.002720125536654262,-0.03399055581965928,0.015544155890993746,-0.014274456289428628,-0.055215835137938415, ,0.03775076777129554, ,0.02110297401709694, ,0.0007130223725930782, ,0.22006699598390164,-0.16577618387810333,0.10536893265000001,2.3944494646497834,1.284656370794671,-0.9219292282175692, ,0.09461310225171563,0.09693252457453604,0.03563492510067114,0.012681065239378482,0.12082094286130407,-0.059487466182062784, ,1.127897024154663
0.013860712195176893,0.021554471443506334,-0.08913867280702716, ,0.014711566478819996,0.021007810534989027,-0.09029504666880306, ,0.0015362264380921525, ,0.016197638700062245,-0.002720125536654262,-0.03399055581965928,0.015544155890993746,-0.014274456289428628,-0.055215835137938415, ,0.03775076777129554, ,0.02110297401709694, ,0.0007181354413228861, ,0.22006699598390164,-0.16577618387810333,0.10536893265000001,2.3944494646497834,1.284656370794671,-0.9219292282175692, ,0.09461310225171563,0.09693252457453604,0.03563492510067114,0.012681065239378482,0.12082094286130407,-0.059487466182062784, ,1.1298720836639404
0.013860712195176893,0.021554471443506334,-0.08913867280702716, ,0.014745660217366735,0.02100358348394541,-0.09037590960655886, ,0.0016178273838955667, ,0.016197638700062245,-0.002720125536654262,-0.03399055581965928,0.015544155890993746,-0.014274456289428628,-0.055215835137938415, ,0.03775076777129554, ,0.02110297401709694, ,0.0007236890952893841, ,0.22006699598390164,-0.16577618387810333,0.10536893265000001,2.3944494646497834,1.284656370794671,-0.9219292282175692, ,0.09461310225171563,0.09693252457453604,0.03563492510067114,0.012681065239378482,0.12082094286130407,-0.059487466182062784, ,1.131843090057373
0.013984353953660683,0.02153499400119654,-0.08939900518894489, ,0.014779814131981263,0.020999288544975535,-0.09045684860217161, ,0.0014278550059533082, ,0.01737063485917007,-0.00277754269059255,-0.036709234734908315,0.01442325387654647,-0.017502685872631547,-0.058066870163061175, ,0.040706530356090016, ,0.022678350985066112, ,0.0007280091315511261, ,0.22077748740833028,-0.165042524255052,0.10564244984000001,2.3946591545932683,1.285612826293029,-0.9224641173230227, ,0.10020796363090896,0.10214956034281031,0.03847539014492755,0.012319846457728422,0.12469948486710393,-0.06280847013066923, ,1.135777235031128
0.013984353953660683,0.02153499400119654,-0.08939900518894489, ,0.014814027996496573,0.02099492652392295,-0.09053786185861822, ,0.0015089819122254997, ,0.01737063485917007,-0.00277754269059255,-0.036709234734908315,0.01442325387654647,-0.017502685872631547,-0.058066870163061175, ,0.040706530356090016, ,0.022678350985066112, ,0.0007327711607015795, ,0.22077748740833028,-0.165042524255052,0.10564244984000001,2.3946591545932683,1.285612826293029,-0.9224641173230227, ,0.10020796363090896,0.10214956034281031,0.03847539014492755,0.012319846457728422,0.12469948486710393,-0.06280847013066923, ,1.1375770568847656
