NicholasDascanio/dvrk_moveit_final/test/execution/third_experiment_notsharpbends/thirdexp_700vel5.0/thirdexp_700vel5.0_4.csv
Current Position (x),Current Position (y),Current Position (z), ,Planned Position (x),Planned Position (y),Planned Position (z), ,Position Error,,Cartesian linear Velocity(x),Cartesian linear Velocity(y),Cartesian linear Velocity(z),Cartesian Angular Velocity(x),Cartesian Angular Velocity(y),Cartesian Angular Velocity(z), ,Total Linear Velocity, ,Total Angular Velocity, ,MSE, ,Joint 1 Position,Joint 2 Position,Joint 3 Position,Joint 4 Position,Joint 5 Position,Joint 6 Position, ,Joint 1 Velocity,Joint 2 Velocity,Joint 3 Velocity,Joint 4 Velocity,Joint 5 Velocity,Joint 6 Velocity, ,Time Stamp
0.009022289876821962,0.020341917836748345,-0.0800880227340521, ,0.009157384490962674,0.02023504082963633,-0.08018961677230743, ,0.00019998649461419694, ,-1.6152144559948807e-05,4.582050775395091e-06,-6.557988093888071e-07,-0.004017893681921168,0.00043842490648046076,0.004680868744225109, ,1.6802292560010325e-05, ,0.004041742945542732, ,1.6665541217849746e-05, ,0.20405004800276,-0.20854467853555866,0.09416250560000002,1.9889091139507136,1.095414818619536,-1.0785663953131461, ,-0.00024095535083723304,3.585768539949059e-05,0.0,0.0010312464361668294,0.0,0.007053458558462955, ,0.01647782325744629
0.0090236793717727,0.020342722988096924,-0.08009167872333858, ,0.00920902483638197,0.02024767558970645,-0.08024838729516842, ,0.00026066170734684427, ,6.126339585916657e-05,7.514305516294946e-06,-6.3326782241860315e-06,0.08532184811607653,-0.00015403092781294636,-0.11641127832762531, ,6.204652506853423e-05, ,0.0853219871514345, ,2.0938554634592782e-05, ,0.20405777073563422,-0.20854467853555866,0.09416639447000001,1.9889091139507136,1.095414818619536,-1.0790564677539896, ,0.0006900205390380889,3.5522759511556725e-05,1.4660444556941937e-05,0.0010133046413177012,0.0,-0.14344494743100178, ,0.033952951431274414
0.009037325013194313,0.02035130908317534,-0.08010779016835581, ,0.009260619693381981,0.020260122475954725,-0.0803072050362473, ,0.0003129565482182794, ,0.0006244793025486705,0.00024239075270242967,-0.0007053600734419104,0.15800186845901334,-0.0026764467469344287,-0.22165441864011096, ,0.0009727592248410198, ,0.1580245354485447, ,2.4175148443103768e-05, ,0.20414272079725068,-0.20852923306981022,0.09418454253000001,1.9897478737246515,1.0952781821197706,-1.0837640955185863, ,0.005394477208405681,4.166475486478745e-05,0.0008106463657316147,0.010775271922522521,0.0,-0.26261034776428405, ,0.05059385299682617
0.009067724990234737,0.020358671056564692,-0.0801519632205857, ,0.009312168909583163,0.02027238256500431,-0.08036606988363663, ,0.00033621450986683255, ,0.0017268238472821931,0.0006058598545586592,-0.0024794205704334066,0.020987482777237675,-0.08505589917235533,-0.11455131993988575, ,0.003081641304239777, ,0.08760696557494171, ,2.642426809633698e-05, ,0.20428945272186094,-0.20852151033693597,0.09421565349000001,1.9899575636681361,1.0930919981235236,-1.0857386311059094, ,0.009418640322594853,4.7378927340152516e-05,0.002042417171432235,0.02578384855711264,-0.09068354574371883,-0.08159759934622612, ,0.06683182716369629
0.009083671306470333,0.020363419395005054,-0.0801779001106153, ,0.009363672333585123,0.020284456931026245,-0.08042498172484218, ,0.00038168700526989343, ,0.0014920943706955602,0.0005264490910855558,-0.0017222370924352575,0.2350555013778263,-0.025058906033401718,-0.34699015433444436, ,0.0023387164982370218, ,0.2363874732289277, ,2.8682812794539356e-05, ,0.20440529371497432,-0.20851378760406175,0.09424157929000002,1.9899575636681361,1.0928187251239927,-1.0894363748252633, ,0.012000119064045368,4.824336758943973e-05,0.001807462840977852,0.021610628923379425,-0.019910478409954406,-0.39955229600004527, ,0.08494186401367188
0.009112589480995113,0.02037236574494743,-0.08021901781248593, ,0.009415129814965463,0.02029634664574254,-0.08048394044678468, ,0.000409259769934213, ,0.002656314185514948,0.0005419921412317738,-0.003889546722994812,0.08028084073658173,-0.16709331797560653,-0.23779659555948088, ,0.004741132168974476, ,0.18537850549775003, ,3.065751669758483e-05, ,0.20460608476970416,-0.20850606487118753,0.09428046799,1.9901672536116206,1.0919989061254,-1.0932601981108159, ,0.014378324478556179,0.0006759618605669511,0.002879394707158352,0.0,-0.17095676312207972,-0.2390173521682123, ,0.10110902786254883
0.009180189965652702,0.020397788043402986,-0.08032646104160182, ,0.009466541204278383,0.02030805277842784,-0.08054294593580134, ,0.0003700204846480798, ,0.0033617846463898666,0.0018362835272100289,-0.006420001016853391,-0.19953117723792568,-0.05551251589410481,0.1721106517266141, ,0.0074759578822652635, ,0.20710946405207925, ,3.1538701665254716e-05, ,0.2049381622832958,-0.2084983421383133,0.09436991200000001,1.9912157033290432,1.0883097206317334,-1.090905344632137, ,0.01891130760431861,0.0005719666425821368,0.006590323342987175,0.0721112788396726,-0.058377746671324865,0.3209081879775978, ,0.11889886856079102
0.009223932875493078,0.020420624341410135,-0.08040870007964322, ,0.009517906353053334,0.020319576395912035,-0.0806019980776475, ,0.0003660535600574278, ,0.0015862707931148497,0.0007828612640412597,-0.0023439881381870785,-0.040376930344201145,0.13977227014398505,0.1893999029715852, ,0.00293656383887482, ,0.14548740153412887, ,3.215658634092399e-05, ,0.2053706353242524,-0.20848289667256487,0.09447880036,1.9914253932725277,1.0907691776275112,-1.0860498527268654, ,0.02194656372767594,0.0006376282657453857,0.004023443172518314,0.0,0.18090540918284345,0.1758638348890173, ,0.1382298469543457
0.009261513711436777,0.020428069081002954,-0.08043472575929216, ,0.009569225113793723,0.020330918562582487,-0.08066109675749726, ,0.0003941679327370761, ,0.0023429851019165504,0.00039263884889649363,-0.0016399077822829352,-0.017383398643012866,0.02032237627215405,0.058812717910488616, ,0.0028867008829904436, ,0.02674287803728408, ,3.294573926840047e-05, ,0.20586489022820276,-0.20845200574106795,0.09452676309000001,1.9914253932725277,1.0929553616237582,-1.08374860217898, ,0.02664895859547059,0.0013709279713880747,0.002343851018246027,0.0025141180473415075,0.05201630328768268,0.05922881214947556, ,0.15512800216674805
0.009320962681163373,0.020443787756128318,-0.08047929894853167, ,0.009620497339975614,0.020342080340386426,-0.0807202418599465, ,0.00039764166885238885, ,0.0030137669169765205,0.0010359150189529565,-0.0027354518884883847,0.04370510057269014,-0.014466678511047437,-0.10226062393056519, ,0.004199834281324578, ,0.04603716545420452, ,3.3614212564168944e-05, ,0.20645181792664383,-0.2084288375424453,0.09458250356,1.992264153046466,1.0932286346232891,-1.084869904127919, ,0.02710566739744952,0.0009354778247714251,0.0032395386455155587,0.06112888904040837,0.0,-0.05424354747053065, ,0.17740702629089355
0.009378138535682114,0.020456401424762287,-0.08054287715345057, ,0.009671722886046282,0.02035306278883322,-0.08077943326901298, ,0.0003909340612742833, ,0.0030608766065813174,0.0009553516874041708,-0.003314627171679536,0.03883402009953844,-0.01839122396893525,-0.08321004930025563, ,0.004611769262937928, ,0.04296880537979604, ,3.441066434972536e-05, ,0.20671439084436746,-0.20841339207669685,0.09461620710000002,1.992264153046466,1.0930919981235236,-1.0853302374052065, ,0.026982354722340285,0.0015872403497294413,0.0037862637318754467,0.041589203113704926,0.0,-0.05367111805845441, ,0.19205498695373535
0.009409797607763183,0.02046462832948203,-0.0805813049738218, ,0.00972290160742302,0.02036386696499651,-0.08083867086813876, ,0.00041764119855869315, ,0.003270012174255224,0.0010356403634324458,-0.003943380644736274,-0.007087341635714316,-0.023593082962483723,-0.009295825164952955, ,0.00522645018070856, ,0.02463460927602505, ,3.53102078448184e-05, ,0.2072627048784374,-0.2083979466109484,0.09469528079,1.992264153046466,1.0930919981235236,-1.085248558665066, ,0.028514705997136652,0.0007975692035170656,0.004436994852367688,0.025238169948123886,-0.0003419784636569669,0.018857905821741388, ,0.20845580101013184
0.009446273463965761,0.020476328378472797,-0.08062363661931013, ,0.009774033360491647,0.0203744939235168,-0.0808979545401911, ,0.0004393712868443941, ,0.003477879164837112,0.0009734471570238364,-0.004148598865801835,-0.03394395169543093,-0.029372545398610134,0.036494932573192744, ,0.0055003741147360286, ,0.04488806387745286, ,3.6252683939710094e-05, ,0.20757933692628058,-0.20838250114519993,0.09474324352,1.992683532933435,1.0930919981235236,-1.0847584862242226, ,0.03105266412253625,0.0007966660909770472,0.004642614841154183,0.010727865671586193,-0.0006347008977835564,0.058739312849557426, ,0.2251598834991455
0.00953299135571314,0.020501599436093056,-0.080715543596007, ,0.00982511800260538,0.020384944716603494,-0.08095728416746423, ,0.0003967175384226935, ,0.003279935603089837,0.0010673257344421458,-0.003488126668551523,0.006398867428789198,-0.017327352456311097,-0.04448706459247926, ,0.004905526418202139, ,0.018471130095369888, ,3.676314323656011e-05, ,0.20835933294657727,-0.20835161021370305,0.09484824301000001,1.9935222927073728,1.0930919981235236,-1.0842684137833793, ,0.028730530293209437,0.0015570779659468156,0.004020396648157497,0.05016654617965221,0.0011459529534572199,0.004424568523848765, ,0.24035882949829102
0.00956416591892783,0.020509197189337733,-0.08075414479926055, ,0.009876155392083195,0.02039522039403739,-0.0810166596316808, ,0.00042337002547101777, ,0.003173791789926138,0.001018949792123496,-0.0039325318561847155,0.0041169311898255736,-0.01861059533653746,-0.031549251810631375, ,0.0051551934788695054, ,0.019060518887522533, ,3.739240674909056e-05, ,0.20863735133004935,-0.2083361647479546,0.09489102058000001,1.9935222927073728,1.0930919981235236,-1.0842684137833793, ,0.026898226065326186,0.0018525378527036865,0.00442712938299055,0.03512601031406118,0.001143209054622127,0.002679927555952814, ,0.25594496726989746
0.00961297648232455,0.020521976081098407,-0.08082148617449844, ,0.009927145388208807,0.020405322003172847,-0.08107608081399337, ,0.000420866612813044, ,0.0034095425425414287,0.0010871308119323646,-0.004636888130182995,0.002636413389993233,-0.022343990048939406,-0.022177889067793694, ,0.00585726602464704, ,0.022498990304600147, ,3.793301541621383e-05, ,0.20905437890525747,-0.2083052738164577,0.09496490911000001,1.9935222927073728,1.0930919981235236,-1.0842684137833793, ,0.028335903720056965,0.0018918133404044325,0.005153287453898416,0.02423344129329256,0.0010973055715020501,0.0013883729942231011, ,0.27292394638061523
0.009662465610116418,0.020537409546209022,-0.08087867169361443, ,0.009978087851228983,0.020415250588940146,-0.08113554759498622, ,0.00042488285283299586, ,0.0030721778999441784,0.0006173376611808828,-0.0030816740359581422,0.0015552133487510107,-0.025319677182915636,-0.013048855911009176, ,0.004395008270835932, ,0.025367395233434262, ,3.843898944098396e-05, ,0.20947912921333983,-0.2082743828849608,0.09502972361,1.9941513625378269,1.0930919981235236,-1.0841867350432388, ,0.02870445903160036,0.002359911304047807,0.003495460065832785,0.01192842539553282,0.001031758949452384,-0.0017742632418697346, ,0.2876899242401123
0.009724867638998942,0.02055077841061851,-0.08093800087262434, ,0.010028982642352536,0.02042500719384773,-0.08119505985467591, ,0.00041759268969433343, ,0.003230862527927285,0.000878930394775606,-0.003269416289061842,0.010403070498532426,-0.013258905600186329,-0.04870324394004434, ,0.004679751508831211, ,0.016852965707510832, ,3.8850723835957965e-05, ,0.2100660569117809,-0.2082048782890928,0.09509972327,1.9947804323682803,1.0933652711230544,-1.0844095708506314, ,0.028747937460912077,0.003281873963598756,0.003797999885550788,0.04997844130030895,0.005787468040438418,-0.002195034067823891, ,0.3032088279724121
0.009759152706148176,0.020557649138397853,-0.08097795469662965, ,0.010079829623748688,0.02043459285798476,-0.08125461747251397, ,0.00044104288361891946, ,0.0034408810571404016,0.0010085025213982214,-0.004162516160274803,0.0082080488364543,-0.013633019270047553,-0.030552117189518016, ,0.005493931249078669, ,0.01591324224881535, ,3.935010290205249e-05, ,0.2103826889596241,-0.20817398735759587,0.09514509342000001,1.9947804323682803,1.0935019076228198,-1.0842759525339063, ,0.029813679408881803,0.002697470211431009,0.004753450170098478,0.033998023764317764,0.010265363626863214,-0.00028893444196168884, ,0.3187899589538574
0.009829765432672041,0.020577888556670088,-0.081085166434071, ,0.01013062865854588,0.020444008619022964,-0.08131422032738754, ,0.0004011336490885232, ,0.0034885509174939935,0.0008743036474640852,-0.005306131362238875,-0.023983980938222724,-0.024378459968727752,0.029463330225382195, ,0.006410103306909504, ,0.03419854745286255, ,3.959480458418817e-05, ,0.21095417119231671,-0.20810448276172785,0.09526305581000001,1.9949901223117648,1.0936385441225853,-1.0834889042960565, ,0.028489024784890654,0.003959163268890262,0.005790189574700111,0.0,0.0045521580107976585,0.036308652632687684, ,0.3347129821777344
0.00986281785208639,0.020589462835016503,-0.08112589561752688, ,0.010181379610830434,0.020453255512219232,-0.08137386829762087, ,0.00042605689642428795, ,0.003165771509779005,0.0007278490045405865,-0.003848357998319628,0.0006537164815290138,-0.007296076938372846,-0.0028081530202250546, ,0.00503604335850773, ,0.007325304299809733, ,4.014129688294208e-05, ,0.211239912308663,-0.20806586909735675,0.09531231483000001,1.9956191921422182,1.0940484536218817,-1.0836598005268647, ,0.028369788208810396,0.0037476487710026442,0.004424669866666667,0.016452879810585474,0.01980920387531583,0.01044359278936794, ,0.3499319553375244
0.00993335412084519,0.02060492659190149,-0.0812036914851909, ,0.010232082345644933,0.020462334570417868,-0.08143356126097742, ,0.0004030026683570951, ,0.003110898490657373,0.00036260066775756927,-0.003396394533386626,0.0019103166149406468,-0.014265989968009136,0.02456974112282757, ,0.004620028624354087, ,0.014393324108235224, ,4.053491367762265e-05, ,0.21185773093860097,-0.20797319630286604,0.09540046255000001,1.9962482619726718,1.0943217266214127,-1.083229206413133, ,0.030523300597771235,0.003560309657929601,0.003920455702682747,-0.022096677194194236,0.023649854171263265,-0.0022949217970739677, ,0.36365199089050293
0.009966418296432241,0.020608834765559837,-0.0812404614104397, ,0.010282736728987253,0.020471246824052998,-0.08149329909466085, ,0.0004276852662700307, ,0.0034106695669114395,0.0005408649828671772,-0.003751043948511551,-0.02216171149392693,-0.030267700173250617,0.02070764152201007, ,0.005098581423103186, ,0.0375136659015783, ,4.101364495933121e-05, ,0.21218980845219262,-0.20793458263849493,0.09544324012000001,1.9960385720291873,1.094458363121178,-1.0829322306161266, ,0.031062828660710567,0.004230140346671562,0.004164395168627452,0.0036049168597646363,0.0,0.031298970522999174, ,0.3762979507446289
0.01000015492535693,0.020614331027127748,-0.081282352435905, ,0.010333342627808917,0.02047999330115041,-0.08155308167531625, ,0.0004498388497653251, ,0.0034557444016828755,0.0006118455428035525,-0.004498300844497511,-0.007740714282355002,-0.01880438785888009,0.007343257511093106, ,0.005705368947370375, ,0.02033528112681139, ,4.155708107580744e-05, ,0.21249871776716162,-0.20788052350837535,0.09549120285000001,1.9960385720291873,1.094731636120709,-1.0831550664235194, ,0.030126013193165324,0.005577097252629015,0.0049996269679849345,0.004812493215950145,0.01156590882520241,0.012485069124160222, ,0.39034390449523926
0.010072307138630058,0.02063616930811952,-0.0813772677539174, ,0.010383899910013756,0.0204885750273305,-0.08161290887903214, ,0.00041761329809470615, ,0.003773705565535948,0.0013057783648948958,-0.005027506207387504,0.020399234691312336,0.014148190092298653,-0.06310845017825213, ,0.0064204150565913155, ,0.024825391349728016, ,4.192413559946368e-05, ,0.2130933681984769,-0.20778012798101042,0.09560009121000002,1.99708702174661,1.095141545620005,-1.0829992476937653, ,0.030523300597771235,0.005616266055700314,0.005882131285081241,0.07637265447066002,0.03245063090215297,0.0029040152021243236, ,0.4048788547515869
0.01010926632884062,0.020642619182274315,-0.08142870326195928, ,0.010434408444456762,0.02049699302581001,-0.08167278058134231, ,0.0004318542701318497, ,0.0037375595153222286,0.0009448463899991243,-0.004510192862958849,0.010178899835831753,-0.002859372512446477,-0.03864023643516324, ,0.005933289601254522, ,0.010572890388467832, ,4.232605720503093e-05, ,0.21340227751344587,-0.20771834611801665,0.09565583168000001,1.99708702174661,1.095141545620005,-1.0826725327332032, ,0.03204895020549503,0.005816990536147825,0.005207195658711998,0.047999511868483016,0.02164494888197985,0.0032827806902065238, ,0.4177420139312744
0.010184513351741422,0.02065516416704066,-0.08152124430013827, ,0.010484868100942478,0.020505248317404697,-0.08173269665722592, ,0.0003967364826400843, ,0.0037927758717574978,0.0008802561667027012,-0.004364943106482114,-0.004257233246689714,-0.011607570237317308,-0.013456613710234136, ,0.005849164731415051, ,0.012363645099503313, ,4.2560444402610915e-05, ,0.21373435502703753,-0.20766428698789707,0.09570638699,1.99708702174661,1.095141545620005,-1.082509175252922, ,0.03332055532249676,0.00498083164229502,0.005016948510236221,0.035084471710441066,0.016204873532796354,0.020948995493334698, ,0.43444395065307617
0.010221621692794126,0.02066329241804266,-0.08156114646292548, ,0.010535278750223578,0.020513341920531367,-0.08179265698111032, ,0.00041768770799414565, ,0.0034064282328949594,0.00044183985831820934,-0.0036442804800713305,0.025543706396982523,0.02183681742519655,-0.004067852031433431, ,0.005007969247478609, ,0.03360546876795261, ,4.2862023124381456e-05, ,0.2144216782528435,-0.2075484459947837,0.09580879390000001,1.997506401633579,1.0959613646185977,-1.0828509677145381, ,0.03363946882611513,0.006692127816139283,0.004508579541466177,0.008268454611090128,0.060394140760389875,-0.013910301510115023, ,0.44881486892700195
0.010292415960923802,0.020675242965853487,-0.08162859081709989, ,0.010585640263999906,0.02052127485121022,-0.08185266142687173, ,0.000399867866181808, ,0.0032326792954381544,0.0004248142208268768,-0.0030653440117893982,0.014876854416060684,0.00014534323278970953,-0.03531538904338825, ,0.0044751554676887365, ,0.015126750908027158, ,4.307782494705856e-05, ,0.21506266508140415,-0.2074248822687961,0.09588657130000001,1.998345161407517,1.0960980011183634,-1.0823906344372507, ,0.033053619490933744,0.006630855570603872,0.003966337529880478,0.06432296453908261,0.02233684514144693,0.026920233021992902, ,0.462007999420166
0.01032858139076788,0.02068113484121826,-0.08166569866767767, ,0.010635952514916617,0.02052904812306739,-0.08191270986783716, ,0.0004226368545247708, ,0.0035762168485372354,0.00036862539374381834,-0.0041640455719605726,-0.044692127253698234,-0.03515635496099138,0.06063084605356169, ,0.005501316856357106, ,0.05686260222107371, ,4.3364642060839086e-05, ,0.2153947425949958,-0.20737082313867652,0.09592934887000001,1.9985548513510016,1.0962346376181287,-1.0820119799001038, ,0.032343879195116144,0.005674766276582305,0.004552389688482424,-0.014349474101780618,0.0,0.06018947001532665, ,0.4786248207092285
0.010400820295095264,0.02069094611468465,-0.08175321806184588, ,0.01068621537656314,0.020536662747336776,-0.08197280217678565, ,0.0003917536132572854, ,0.003418908798287867,0.0006840086863396281,-0.00394690022118001,0.042266973418175216,0.02188842173514395,-0.02389376226851025, ,0.005266386485053016, ,0.04759831979209392, ,4.35247723350197e-05, ,0.21573454284146168,-0.2073013185428085,0.09597990418,1.998345161407517,1.0963712741178944,-1.081796682843238, ,0.03299615492297315,0.006539494767220157,0.004976198537956889,0.0099697603710274,0.005153036430113867,0.030104606388038715, ,0.4923279285430908
0.010437549704014493,0.020698768228830194,-0.08179509413462872, ,0.010736428723471504,0.020544119732862763,-0.08203293822594966, ,0.0004120857160262356, ,0.0035672824458871637,0.0005150314665863748,-0.004233001905120567,-0.002858048193539282,-0.004513671598801388,0.0029033720162390895, ,0.005559592304212889, ,0.005342440399232161, ,4.389903125376917e-05, ,0.21638325240289655,-0.20719320028256938,0.09607842222000001,1.998764541294486,1.0970544566167213,-1.0819453786610171, ,0.031973363058783955,0.007288040618148748,0.004866731292392301,0.01551524845353794,0.027219275503154623,0.014880701260875488, ,0.5040459632873535
0.01047689961020226,0.02070647996985985,-0.08184042209501269, ,0.010786592431115355,0.020551420086102307,-0.08209311788701666, ,0.0004287287885977894, ,0.0039057289840388823,0.0008907714029360841,-0.004740217507845884,-0.006501023949545982,-0.015237547443456255,-0.01876531797921106, ,0.006206275421759717, ,0.016566416694351334, ,4.4312077409624296e-05, ,0.2167153299164882,-0.20712369568670136,0.09612897753,1.9991839211814553,1.0970544566167213,-1.0816186637004548, ,0.03290462606049611,0.006021570130771135,0.005365042613674639,0.039127947343330374,0.010748206641289912,0.02127071941078684, ,0.5155959129333496
0.010491197757637665,0.02071008581340466,-0.08185779766588827, ,0.010836706375908191,0.020558564811127153,-0.08215334103113085, ,0.00047925014362991934, ,0.003925401443051481,0.0010283790814504096,-0.004650482566284693,-0.010535651583203787,-0.01010962926048116,-0.03202773123397916, ,0.00617197927115713, ,0.01460152580697945, ,4.487375714969921e-05, ,0.21683117090960155,-0.20710052748807867,0.09614842188000002,1.9993936111249395,1.0970544566167213,-1.0814553062201737, ,0.03226689614364868,0.00644612145385177,0.00530783456181273,0.06473059490315665,0.009835894440214136,0.03571697161415895, ,0.5297749042510986
0.010549822861537163,0.020720511543918806,-0.08192643595810917, ,0.010886770435202165,0.02056555490962633,-0.08221360752889413, ,0.0004690551534490242, ,0.0034429148433611292,0.0005391060845364711,-0.0042656701324928475,0.01372100876647904,-0.0018383514891219324,0.011649616007328799, ,0.005508197497209244, ,0.013843612836070683, ,4.5376805375027553e-05, ,0.21767294879289203,-0.20696151829634263,0.09628064346000001,1.9993936111249395,1.0978742756153141,-1.0816337412015091, ,0.03165341613024376,0.006569310210188915,0.005813434861313869,0.01039132997847835,0.03735894740980898,-0.008888108846136746, ,0.5418798923492432
0.01062558893312781,0.020733887761099058,-0.08202645185613869, ,0.010936784487286863,0.020572391380908304,-0.08227391725036795, ,0.00042914202204412676, ,0.003684647046612973,0.0006943965462852446,-0.004815514113777392,-0.004485637544685552,-0.010723455517914508,0.009038943730201922, ,0.0061031128616138046, ,0.01162383068689059, ,4.573078754778607e-05, ,0.2180050263064837,-0.2068920137004746,0.09633897651000001,1.9996033010684244,1.0978742756153141,-1.0813070262409468, ,0.03176998378254797,0.00579505574901404,0.005447609958960329,0.007119396918301363,0.022239438300154925,0.014273706271994042, ,0.5537538528442383
0.01065936340596451,0.020744456225645927,-0.08206903503425199, ,0.010986748411387448,0.0205790752219032,-0.08233427006507418, ,0.00045263831007768163, ,0.003899357714679563,0.0010622147655746266,-0.005131119742583948,0.00022069344607478025,-0.0061324765614963785,-0.031196718619527202, ,0.006531590970657191, ,0.006136446106471736, ,4.614234902990775e-05, ,0.21827532195708155,-0.20684567730322928,0.09638823553,2.000232370898878,1.0978742756153141,-1.0808986325402439, ,0.03138126374288055,0.006101352835921494,0.005834729494505496,0.05082953802217667,0.016588102575694767,0.017736812276742453, ,0.5663290023803711
0.01070206740768758,0.020754620559144937,-0.08213008522547581, ,0.011036662087663775,0.020585607427165243,-0.08239466584199745, ,0.0004588267007149082, ,0.004148150413712205,0.0012822181737855319,-0.005805726065044905,0.00335951665584591,-0.00793304947177532,-0.04242132949952268, ,0.007249668298778119, ,0.00861508093325359, ,4.655520695545655e-05, ,0.21863056766929587,-0.20677617270736123,0.09645823519,2.0004420608423623,1.0982841851146103,-1.0811512075111926, ,0.03204895020549503,0.005871151506358114,0.006549675789473685,0.0584670098713605,0.013570631807395685,0.013783687529184482, ,0.5780549049377441
0.010743526342057795,0.02076390115759516,-0.08219150591783737, ,0.011086525397208809,0.020591988988875022,-0.0824551044495864, ,0.00046549579109675165, ,0.003975269112171995,0.0011544021463239396,-0.005700160576405515,0.03454621915654975,0.024287796963835352,-0.03944399088547005, ,0.007044660348550076, ,0.04222959073151297, ,4.69707109507201e-05, ,0.21897809064863596,-0.20671439084436746,0.09652823485,2.0004420608423623,1.0986940946139065,-1.0813221037420007, ,0.032927460637914914,0.006143729881058624,0.006718182842682413,0.03902786594284122,0.05535957914384733,-0.019921933378064006, ,0.589371919631958
0.010785210683466318,0.02077172730146091,-0.08225249648383832, ,0.011136338222047083,0.02059822089684162,-0.08251558575575399, ,0.00047181668663879797, ,0.004127874475104923,0.0009715108187340125,-0.005693372397120736,0.01406718847860304,-0.0009625568836784452,-0.026351406083758678, ,0.007099131651507548, ,0.014100081611992093, ,4.7387683866124643e-05, ,0.21931016816222762,-0.20664488624849944,0.09659434564000001,2.0004420608423623,1.0986940946139065,-1.081077067521579, ,0.03392811639559198,0.006974871659239986,0.00649360437015899,0.029778579553055788,0.03019987594690344,-0.005786641071967719, ,0.6010398864746094
0.010820163017916763,0.02077967805918512,-0.08229981906065385, ,0.011186100445133669,0.020604304138505062,-0.08257610962788095, ,0.0004909202483413119, ,0.004300768270293341,0.0007043552017409509,-0.005854235126859534,-0.019043574115692925,-0.03528915889382914,0.014238220620290691, ,0.007298273281094479, ,0.04009965640323584, ,4.784255946977732e-05, ,0.22000521412090784,-0.20650587705676338,0.09671619690000001,2.0010711306728157,1.099104004113203,-1.0810846062721062, ,0.03359183771981267,0.007168111792866549,0.0053995971254237295,0.014262201391282895,0.013021040478222196,0.020460311672538922, ,0.6137039661407471
0.010909814248411913,0.020799354568168248,-0.0824063819242749, ,0.011235811950352378,0.020610239698938545,-0.08263667593281512, ,0.0004416721247755621, ,0.004059416482569098,0.0008665708586498075,-0.004504012521283256,0.05045857434596314,0.027586857539302203,-0.07240990596408275, ,0.006125025389652771, ,0.05750741197504302, ,4.8276876233701194e-05, ,0.22036045983312216,-0.20642864972802114,0.09677193737,2.0017002005032696,1.0995139136124994,-1.0810921450226332, ,0.03631723748889046,0.008175160087578076,0.005536604629822733,0.056448942039047434,0.05898679667468863,-0.04108197736852986, ,0.6235020160675049
0.010954351493052902,0.020805679479955815,-0.08246085700631049, ,0.011285472622514666,0.02061602856085061,-0.08269728453687443, ,0.00044889492167103537, ,0.00434673114882293,0.0005170332857537068,-0.005835417966912642,-0.005570620244983268,-0.015658479008127786,0.029778817963965205, ,0.0072947582514632835, ,0.01661986064909577, ,4.871674823444382e-05, ,0.22073887374395917,-0.20633597693353045,0.096832863,2.001909890446754,1.0996505501122646,-1.0809585267059079, ,0.03786789367855977,0.008311826726485156,0.006546983773119607,-0.018920814012862358,0.029311263340412046,0.006916211905888054, ,0.6331989765167236
0.010954351493052902,0.020805679479955815,-0.08246085700631049, ,0.011335082347358142,0.020621671704587854,-0.0827579353058484, ,0.0005167885069080029, ,0.004642977015082385,0.0008563502035707116,-0.006497355556426792,-0.031657782272074525,-0.03463818944865677,0.02241782552393863, ,0.008031575216628992, ,0.04692567884525263, ,4.932677002113224e-05, ,0.22111728765479616,-0.2062587496047882,0.09690286266,2.0017002005032696,1.0997871866120301,-1.080579872168761, ,0.03699685830739601,0.008111073167875692,0.007082619617607827,0.010877074037060964,0.0,0.04331513683685658, ,0.6430649757385254
0.01104521508182764,0.02081929491981228,-0.08258856144284443, ,0.011384641011545146,0.020627170108136517,-0.08281862810499795, ,0.0004528273115222835, ,0.004653297303665422,0.0007285150560208303,-0.006264911792002875,-0.003276367349647465,-0.014899451498044352,0.0023388877421447276, ,0.007837922540107525, ,0.015255432747102154, ,4.974619967726991e-05, ,0.2215034242985074,-0.2061660768102975,0.09697545490000001,2.0017002005032696,1.1001970961113263,-1.0808324471397095, ,0.03882853582588821,0.009390015801438329,0.007020190180696343,0.009716387083159271,0.024641231922900613,0.008701724686192916, ,0.6584079265594482
0.011089969655828879,0.020826730133831378,-0.08264183345928074, ,0.011434148502661404,0.020632524747125326,-0.08287936279905872, ,0.00046108025124481163, ,0.004369973863494913,0.0005303900913397569,-0.004971258081647801,0.020171120982536542,0.012487215107320836,-0.015380202609344954, ,0.006640134948249818, ,0.02372350437419437, ,5.017410244879937e-05, ,0.22188956094221862,-0.2060656812829326,0.09703767682000002,2.0021195803902385,1.100607005610623,-1.0809216646303772, ,0.03970583328806308,0.01005425694689343,0.005912699153674834,0.021372531697532372,0.05381047205417706,-0.009352827153307555, ,0.668571949005127
0.011135148769264283,0.020833085464796786,-0.08269211892526702, ,0.011483604709214749,0.020637736594827587,-0.08294013925224175, ,0.00047020932113012794, ,0.004618093789829099,0.000641642670086478,-0.0052583245904952985,0.002578991488694022,-0.012082765873922976,-0.034296395643465566, ,0.007027693296291561, ,0.012354935218069456, ,5.061235298361111e-05, ,0.22227569758592983,-0.20596528575556766,0.09709471358,2.0025389602772075,1.1007436421103882,-1.080788046313652, ,0.039343673946298,0.010907895051717338,0.005992780857787812,0.044644795134832084,0.02036992388499648,0.006469056649664198, ,0.6783180236816406
0.011184508732019923,0.020839465458515324,-0.08274961875659725, ,0.011533009520633325,0.020642806622163445,-0.0830009573282342, ,0.00047254478641917135, ,0.004549293755541207,6.647861881698405e-05,-0.0055624229017519275,-0.021334432875344225,-0.03715099219894774,0.04877594024266913, ,0.007186170163508541, ,0.04284103455979838, ,5.104314550533944e-05, ,0.22268500242826375,-0.20584944476245431,0.09715823179000001,2.002958340164177,1.1007436421103882,-1.080379652612949, ,0.040798341168732065,0.010700961089699198,0.006084343590527121,-0.03986977961356255,0.01322518957293179,0.011849264678138446, ,0.6882979869842529
0.01120859853620722,0.02084197340656054,-0.08277684861799636, ,0.011582362827264688,0.02064773579770218,-0.0830618168902023, ,0.0005085616089804075, ,0.004733770667644715,0.00011266144549232712,-0.005514834780870529,-0.0368016905982272,-0.049016319977484395,0.055638500988934025, ,0.007268746796763057, ,0.06129407842460555, ,5.155144383686801e-05, ,0.22290123894874203,-0.20580310836520896,0.09718934275,2.002958340164177,1.1008802786101537,-1.080409391776505, ,0.04221394197440871,0.010382517279210655,0.0059725577502812155,-0.03382854337929703,0.0,0.03212437881980401, ,0.6994647979736328
0.011273888428659428,0.02084434760840001,-0.08285210346612773, ,0.011631664520374074,0.020652525087664523,-0.08312271780079193, ,0.0004878849550761645, ,0.004484670594080191,0.00039202076086435376,-0.005396973607962781,0.03941465186079149,0.025340808028235844,-0.019511262691760276, ,0.007028034913075136, ,0.04685799108212492, ,5.199346436175652e-05, ,0.22351133484580576,-0.205633208241976,0.09727749047,2.0027486502206924,1.1017000976087463,-1.080669505497981, ,0.041116525805229974,0.011811917047357576,0.006461992503042598,0.007520084643542813,0.07315819225111216,-0.037251536187900135, ,0.7123298645019531
0.011321982906851274,0.020849822618235862,-0.08290884988565594, ,0.011680914492143158,0.020657175455924957,-0.0831836599221299, ,0.0004913912577706309, ,0.004645106370981091,0.0003784126846308711,-0.005452304143550883,0.0045692748649843445,-0.011351807553787776,0.0018275737922371555, ,0.007172714258312595, ,0.01223690331381426, ,5.243109965834211e-05, ,0.22392063968813966,-0.20552508998173688,0.09734100868000001,2.002958340164177,1.1018367341085118,-1.080617565921396, ,0.04124160867382476,0.010849285308375567,0.006227056888193902,0.0015101726129102214,0.03329278036862534,-0.004303326817607646, ,0.721930980682373
0.011371916876134137,0.020856752952906864,-0.08296470941291857, ,0.011730112635668557,0.02066168786401388,-0.08324464311582572, ,0.0004946892651721623, ,0.004681717066134227,0.0004912082567327992,-0.005316724402150819,-0.015403763235270153,-0.013284834726560543,-0.01156258345150437, ,0.0071012195154945695, ,0.020341159044457987, ,5.286403876224141e-05, ,0.22432994453047356,-0.20540152625574928,0.09740323060000002,2.0035874099946303,1.1018367341085118,-1.0802908509608338, ,0.03970583328806308,0.012510281582495527,0.006026792099886493,0.04225789619562806,0.01989751360454113,0.032720292683901406, ,0.7319409847259521
0.01141207807847489,0.02086008610699548,-0.08301230438743869, ,0.011779258844960526,0.020666063271119972,-0.08330566724297307, ,0.0005084568232656934, ,0.005026268883179914,0.000753434036105288,-0.005950323210587825,-0.016605885841916343,-0.026438804694344096,-0.04170757457146959, ,0.007825432131406213, ,0.031221240058669164, ,5.3443935744318575e-05, ,0.22466974477693943,-0.20529340799551013,0.09745637849000001,2.0037970999381147,1.1019733706082773,-1.080238911384249, ,0.040108597446521885,0.0128291120127715,0.006595781167701865,0.06648840259573657,0.0,0.030846462393719184, ,0.7407917976379395
0.011468341549382186,0.020865742725161167,-0.08308199022010987, ,0.011828353014941409,0.020670302634092596,-0.08336673216415118, ,0.0004988818088760251, ,0.004749405255541636,0.00030804501078164127,-0.006023572185292119,0.010755750850752461,-0.0032047501807926735,0.016765264552183936, ,0.007676924115911193, ,0.011223038454661032, ,5.39877435615825e-05, ,0.22515627694801557,-0.20514667607089987,0.09753674847,2.004006789881599,1.102519916607339,-1.0805212255187535, ,0.04219517188015597,0.011591852810200464,0.006895589402597403,-0.017997703046985038,0.04806263369013892,-0.013775167976302185, ,0.7494559288024902
0.011515873426115545,0.020868821408643816,-0.0831427634942259, ,0.011877395041444475,0.020674406907443647,-0.08342783773942627, ,0.0004997621453286655, ,0.0050549558948611165,0.0005459497454372086,-0.006419251346635529,0.02079835040130459,0.0012635948306153788,-0.012042870170659463, ,0.008188859998486734, ,0.020836699364619148, ,5.4520976572071487e-05, ,0.22558102725609794,-0.2050308350777865,0.09760674813,2.0037970999381147,1.1030664626064008,-1.0807218609131177, ,0.04371116607944301,0.01198737943603983,0.0073881315027829325,0.005879753825397751,0.04934535020273808,-0.021648952329631176, ,0.7574639320373535
0.0115705958884193,0.020875715342577573,-0.08321558442026544, ,0.011926384821212293,0.020678377043350488,-0.08348898382835265, ,0.0004901789524064175, ,0.005250111228525888,0.0005013819442406159,-0.007397126728736797,-0.022473118848846937,-0.020039300398138626,0.023145779906057526, ,0.00908474191195856, ,0.03011004166543478, ,5.501999966736062e-05, ,0.22602122302992872,-0.2048995486189247,0.09768711811000001,2.004006789881599,1.103203099106166,-1.0803432063759706, ,0.04219517188015597,0.014238100758960356,0.008151899447287616,0.004644587999570159,0.023744820922627384,0.030417892591178473, ,0.7656838893890381
0.011625458076368132,0.020886411260406367,-0.08329034056139373, ,0.011975322251895362,0.020682213991657688,-0.08355017028997518, ,0.000481261834905364, ,0.00567462717634684,0.001109817028297359,-0.007852728283864078,-0.018114733820190246,-0.021522021414007508,-0.01464786402526674, ,0.0097518423350171, ,0.028130783090067807, ,5.5487486825112455e-05, ,0.2264459733380111,-0.20476826216006289,0.09777137696,2.0046358597120526,1.103476372105697,-1.0800759697425202, ,0.04367093490955857,0.011977400171459141,0.008723335991237677,0.046951951193699624,0.014026000513384198,0.036352361748150444, ,0.7740819454193115
0.011625458076368132,0.020886411260406367,-0.08329034056139373, ,0.012024207232050822,0.02068591869987942,-0.08361139698282939, ,0.0005497957636517258, ,0.00567462717634684,0.001109817028297359,-0.007852728283864078,-0.018114733820190246,-0.021522021414007508,-0.01464786402526674, ,0.0097518423350171, ,0.028130783090067807, ,5.609815572539534e-05, ,0.2264459733380111,-0.20476826216006289,0.09777137696,2.0046358597120526,1.103476372105697,-1.0800759697425202, ,0.04367093490955857,0.011977400171459141,0.008723335991237677,0.046951951193699624,0.014026000513384198,0.036352361748150444, ,0.7826509475708008
0.011681423572872367,0.020897364291154123,-0.0833728026133056, ,0.01207303966114097,0.020689492113202007,-0.08367266376494388, ,0.0005352482725046356, ,0.005249042456120191,0.0014107454491991856,-0.0077889180102597025,0.07951959897606209,0.05780558783144055,-0.08626931690892853, ,0.009497888881174409, ,0.09830998208312774, ,5.666302821736354e-05, ,0.22690933731046453,-0.2046446984340753,0.09786859871,2.004845549655537,1.1044328276040551,-1.080529180107833, ,0.042026989175584936,0.01100556775362126,0.009336935240328255,0.05996246546393002,0.09893907073193677,-0.06733690802820874, ,0.790740966796875
0.01173500223617292,0.020906319715183724,-0.08345155087353445, ,0.012121819439531905,0.020692935174485803,-0.08373397049384132, ,0.0005243294317102601, ,0.005399148428892813,0.0005972923238469392,-0.008360984549007263,-0.008121476855665012,0.0015253959237729623,0.04968053001641302, ,0.009970638119302114, ,0.00826348462710646, ,5.719156832837986e-05, ,0.22734181035142112,-0.20451341197521347,0.09795933901000001,2.005055239599022,1.1051160101028823,-1.0806778759256122, ,0.04371116607944301,0.013493095628959303,0.009386453459045376,-0.02466151443334083,0.05649681288774608,0.01716477743402091, ,0.7989280223846436
0.011790074510931593,0.020912590999250684,-0.08353377983233773, ,0.012170546468491906,0.020696248824267793,-0.08379531702654011, ,0.0005098671896850774, ,0.005838327239075432,0.0008535337192394335,-0.008392548966189559,-0.022200798712243553,-0.027116863423820057,0.019166411780129303, ,0.010259116088157804, ,0.03504568024409891, ,5.767727190331084e-05, ,0.22777428339237768,-0.20438984824922588,0.09804878302000002,2.004845549655537,1.1052526466026478,-1.080135863908184, ,0.04564547453509898,0.012862149845279313,0.009250180905923347,0.007794628848017202,0.018956046430489905,0.030467912865141084, ,0.8072199821472168
0.01182749525762131,0.020918543282327045,-0.08358499104459625, ,0.01221922065019035,0.02069943400076371,-0.08385670321955553, ,0.0005246762491972261, ,0.005929806037164201,0.0006546613168454693,-0.007849780882232421,-0.049660366590502686,-0.045563358978940295,0.04042614140551068, ,0.009859525393102067, ,0.06739563533005676, ,5.8184331752410994e-05, ,0.22806774724159823,-0.2043048981876094,0.09810581978,2.005055239599022,1.1053892831024132,-1.079920566851318, ,0.04728298034801733,0.013464378768227979,0.008545499742489271,0.00735703519377481,0.0,0.06329528988956375, ,0.8171930313110352
0.011909078207911605,0.02093105309951128,-0.08368725212207767, ,0.012267841887696161,0.020702491639870244,-0.08391812892890171, ,0.0004839998127014752, ,0.005720346817946602,0.0009445803125820751,-0.007322722005842759,0.03881856396131476,0.02482607267273248,-0.05039304438835023, ,0.009340067304862597, ,0.046078354694098135, ,5.8718932785797865e-05, ,0.22874734773452998,-0.2041118298657538,0.09822507846,2.0056843094294754,1.1062091021010059,-1.080180680572794, ,0.04756738925236631,0.01374123103945421,0.008628825308775734,0.04848320734477747,0.07055463520204981,-0.025584073022739132, ,0.824199914932251
0.011909078207911605,0.02093105309951128,-0.08368725212207767, ,0.012316410084976288,0.020705422675167704,-0.0839795940100924, ,0.0005498109911146908, ,0.005720346817946602,0.0009445803125820751,-0.007322722005842759,0.03881856396131476,0.02482607267273248,-0.05039304438835023, ,0.009340067304862597, ,0.046078354694098135, ,5.938335316548457e-05, ,0.22874734773452998,-0.2041118298657538,0.09822507846,2.0056843094294754,1.1062091021010059,-1.080180680572794, ,0.04756738925236631,0.01374123103945421,0.008628825308775734,0.04848320734477747,0.07055463520204981,-0.025584073022739132, ,0.8306469917297363
0.011966750566430907,0.020937676945795715,-0.08376113102838695, ,0.012364925146894377,0.02070822803792171,-0.08404109831814306, ,0.0005381184638954679, ,0.006162544621084687,0.0008451351866785522,-0.007627339475309331,-0.010008287382312155,-0.029301534803951264,-0.0414918713743692, ,0.009842129706635349, ,0.030963619497395924, ,6.001219218480158e-05, ,0.22921843443985768,-0.20397282067401776,0.09830804102000001,2.00589399937296,1.1064823751005366,-1.079995122679484, ,0.04866509823511321,0.015308427417078689,0.008481795271565496,0.057721590212098356,0.008561326452858363,0.01840592251372407, ,0.8373069763183594
0.011966750566430907,0.020937676945795715,-0.08376113102838695, ,0.012413386979209578,0.02071090865708592,-0.08410264170757145, ,0.0006062486997769387, ,0.006162544621084687,0.0008451351866785522,-0.007627339475309331,-0.010008287382312155,-0.029301534803951264,-0.0414918713743692, ,0.009842129706635349, ,0.030963619497395924, ,6.077194307907073e-05, ,0.22971268934380804,-0.20381836601653325,0.09839489245000001,2.006103689316445,1.1066190116003023,-1.0798615043627589, ,0.05047709657365467,0.01521028074346382,0.009096979737292977,-0.011486393950991911,0.00258082170382898,0.021892482921629444, ,0.8442819118499756
0.01205295417975312,0.020943989324921985,-0.08387394393527614, ,0.01246179548857469,0.020713465459304116,-0.08416422403240015, ,0.0005518650226320412, ,0.006284396189457484,0.0004750645740481231,-0.008384648311391048,-0.02962945741198498,-0.05042541072883074,0.025656979239358217, ,0.010489120512287769, ,0.05848612444212285, ,6.140728721552291e-05, ,0.2299212031314121,-0.20374886142066523,0.09843248486000002,2.00589399937296,1.1067556481000675,-1.0798912435263146, ,0.05071990462772356,0.015375395586272,0.009250180905923347,0.018935255555517703,0.016316987322427666,0.03262481024203195, ,0.8568148612976074
0.01205295417975312,0.020943989324921985,-0.08387394393527614, ,0.012510150582535077,0.02071589936891267,-0.0842258451461573, ,0.0006203934565811604, ,0.006469758475224655,0.000792447486738509,-0.00887633784890105,0.08673173255772255,0.06375533889395676,-0.04915269943320116, ,0.011012498415655403, ,0.10764356281192741, ,6.217211233331694e-05, ,0.23072436735033144,-0.20350173396869006,0.09858285450000001,2.00589399937296,1.1082586495974873,-1.0808718042465535, ,0.05569069340285844,0.01733277471387594,0.010683307525150905,0.013115417090642508,0.13183356044203928,-0.08639066681334112, ,0.8642208576202393
0.012146920361791451,0.020953568354071993,-0.08400173183269655, ,0.012558452169527308,0.020718211307942446,-0.08428750490187797, ,0.0005535500113002808, ,0.006469758475224655,0.000792447486738509,-0.00887633784890105,0.08673173255772255,0.06375533889395676,-0.04915269943320116, ,0.011012498415655403, ,0.10764356281192741, ,6.278924100126635e-05, ,0.23072436735033144,-0.20350173396869006,0.09858285450000001,2.00589399937296,1.1082586495974873,-1.0808718042465535, ,0.05569069340285844,0.01733277471387594,0.010683307525150905,0.013115417090642508,0.13183356044203928,-0.08639066681334112, ,0.8710289001464844
0.01221428603274909,0.020960116538725662,-0.08408985627379137, ,0.012606700158877406,0.020720402196121448,-0.08434920315210591, ,0.0005279323969285441, ,0.006028722759975792,0.0003361939633181334,-0.007570451342141433,-0.01291043795217804,-0.019545236193115215,0.018569490791963662, ,0.009683504428736153, ,0.023424253266551148, ,6.33450149629601e-05, ,0.23128812685014985,-0.20331638837970867,0.09868526141000002,2.006103689316445,1.1090784685960802,-1.0810502392278887, ,0.05031651196101314,0.016327760075442323,0.008499899423692638,0.00014111464344870788,0.03455912349171167,0.016228280237088607, ,0.8777179718017578
0.01221428603274909,0.020960116538725662,-0.08408985627379137, ,0.012654894460799631,0.020722472950877015,-0.08441093974889481, ,0.000594730913690595, ,0.006028722759975792,0.0003361939633181334,-0.007570451342141433,-0.01291043795217804,-0.019545236193115215,0.018569490791963662, ,0.009683504428736153, ,0.023424253266551148, ,6.402499674351538e-05, ,0.23180554995272287,-0.2031387655236015,0.09876044623,2.006732759146898,1.1092151050958454,-1.0805082272104605, ,0.05322318651624834,0.019005996707084076,0.007513590339622642,0.0325190938569989,-0.004703709243898524,0.09433086541658192, ,0.8843288421630859
0.012276706636012047,0.020964804106844207,-0.08415641539534564, ,0.01270303498639523,0.020724424487337915,-0.0844727145438103, ,0.0005827378271005811, ,0.006384852012650882,0.00014063727406932522,-0.006857927836269113,-0.06980665969384979,-0.0505029208308924,0.03858537957087582, ,0.009371087891690293, ,0.08615982088476666, ,6.467052607182867e-05, ,0.23180554995272287,-0.2031387655236015,0.09876044623,2.006732759146898,1.1092151050958454,-1.0805082272104605, ,0.05322318651624834,0.019005996707084076,0.007513590339622642,0.0325190938569989,-0.004703709243898524,0.09433086541658192, ,0.8917179107666016
0.01234142027005216,0.020966496273469512,-0.084228237493247, ,0.01275112164765083,0.020726257718336808,-0.08453452738792985, ,0.000565140054998168, ,0.0066259074787827,0.0004419508117429349,-0.007481505892610311,-0.027387737731494558,-0.03909266165681444,-0.03905225257708013, ,0.01000354441478377, ,0.047731796006686936, ,6.539965863918168e-05, ,0.23233069578817014,-0.20293797446887166,0.09883822363000001,2.007152139033867,1.1090784685960802,-1.0797433793856397, ,0.05295588256611093,0.02022526461177979,0.008261831701244815,0.06803006833634155,0.0,0.03818825533470867, ,0.8979849815368652
0.012389890042555762,0.0209681058209884,-0.08428410974383149, ,0.012799154357436811,0.02072797355441244,-0.0845963781318464, ,0.000568042543335786, ,0.00622026279691636,-9.44617284668845e-05,-0.007105931499588909,-0.04702894674212724,-0.05228914020105457,0.04998927620602216, ,0.009444302767155263, ,0.07032692227391724, ,6.612591560679543e-05, ,0.23273227789762982,-0.2027912425442614,0.09890044555000001,2.0073618289773516,1.1092151050958454,-1.0796097610689142, ,0.05292634777382642,0.017989941527672186,0.007751246481751827,-0.017836867816694975,0.004555881274633087,0.04501494264367611, ,0.9076838493347168
0.012389890042555762,0.0209681058209884,-0.08428410974383149, ,0.012847133029506517,0.02072957290381196,-0.08465826662566783, ,0.0006371518452597025, ,0.00622026279691636,-9.44617284668845e-05,-0.007105931499588909,-0.04702894674212724,-0.05228914020105457,0.04998927620602216, ,0.009444302767155263, ,0.07032692227391724, ,6.69779041474543e-05, ,0.23273227789762982,-0.2027912425442614,0.09890044555000001,2.0073618289773516,1.1092151050958454,-1.0796097610689142, ,0.05292634777382642,0.017989941527672186,0.007751246481751827,-0.017836867816694975,0.004555881274633087,0.04501494264367611, ,0.9126989841461182
0.012469531228997192,0.020968424529352627,-0.08437072595908399, ,0.01289505757849407,0.02073105667249317,-0.08472019271901944, ,0.0005996192040670277, ,0.006184283109220405,-0.00010676249958098668,-0.00751951886824974,0.04391311910267964,0.02707773585135487,-0.008803048865463866, ,0.00973652503803433, ,0.051590365225698896, ,6.774756725869884e-05, ,0.2334504920549327,-0.20255183782516045,0.09900285246000001,2.0073618289773516,1.1101715605942037,-1.0803080076546487, ,0.05498084678938052,0.02116817790731001,0.0088542587659811,-0.012825930139271222,0.0955821688660403,-0.05322130308101599, ,0.9180378913879395
0.012469531228997192,0.020968424529352627,-0.08437072595908399, ,0.012942927919913545,0.020732425764126785,-0.0847821562610454, ,0.0006701303884549179, ,0.006184283109220405,-0.00010676249958098668,-0.00751951886824974,0.04391311910267964,0.02707773585135487,-0.008803048865463866, ,0.00973652503803433, ,0.051590365225698896, ,6.864370485309196e-05, ,0.2334504920549327,-0.20255183782516045,0.09900285246000001,2.0073618289773516,1.1101715605942037,-1.0803080076546487, ,0.05498084678938052,0.02116817790731001,0.0088542587659811,-0.012825930139271222,0.0955821688660403,-0.05322130308101599, ,0.9229598045349121
0.012534413406332857,0.020969137532219736,-0.08446157692228033, ,0.01299074397015739,0.02073368108009866,-0.08484415710040931, ,0.0006403474970850274, ,0.007182070442247986,0.0005838175108740444,-0.01083359611494625,0.01880360240700956,-0.00911633991068546,-0.01817409028543029, ,0.013011140745729939, ,0.020896960726757008, ,6.947274375104186e-05, ,0.2339833606232542,-0.20233560130468214,0.09910525937,2.007152139033867,1.110854743093031,-1.0805383822125687, ,0.054822034406973294,0.021557687768848425,0.012021744543396226,0.0,0.051624794319965014,-0.034343124817166774, ,0.9281048774719238
0.012534413406332857,0.020969137532219736,-0.08446157692228033, ,0.01303850564649474,0.02073482351951237,-0.08490619508529693, ,0.0007118267724852049, ,0.007182070442247986,0.0005838175108740444,-0.01083359611494625,0.01880360240700956,-0.00911633991068546,-0.01817409028543029, ,0.013011140745729939, ,0.020896960726757008, ,7.042797817463215e-05, ,0.2339833606232542,-0.20233560130468214,0.09910525937,2.007152139033867,1.110854743093031,-1.0805383822125687, ,0.054822034406973294,0.021557687768848425,0.012021744543396226,0.0,0.051624794319965014,-0.034343124817166774, ,0.9329009056091309
0.012613487596530016,0.020981132195158285,-0.0845778964324255, ,0.013086212867070417,0.020735853979191088,-0.0849682700634164, ,0.0006603197380122481, ,0.007942047090485608,0.0010326817509311891,-0.011998776901516451,-0.020258636184721783,-0.031377486957369916,0.0018738253133951813, ,0.014426128750242108, ,0.03734914696642512, ,7.127521553970452e-05, ,0.23457028832169527,-0.2021348102499523,0.09923488837000001,2.007571518920836,1.111264652592327,-1.080300884742674, ,0.05821898255120907,0.02062080433691238,0.013164307041322315,0.0201121757170583,0.02558670445010569,0.02356637306140664, ,0.9380638599395752
0.012613487596530016,0.020981132195158285,-0.0845778964324255, ,0.013133865550903241,0.020736773353679874,-0.08503038188200057, ,0.0007316061378115214, ,0.007942047090485608,0.0010326817509311891,-0.011998776901516451,-0.020258636184721783,-0.031377486957369916,0.0018738253133951813, ,0.014426128750242108, ,0.03734914696642512, ,7.224666111417432e-05, ,0.23457028832169527,-0.2021348102499523,0.09923488837000001,2.007571518920836,1.111264652592327,-1.080300884742674, ,0.05821898255120907,0.02062080433691238,0.013164307041322315,0.0201121757170583,0.02558670445010569,0.02356637306140664, ,0.9449160099029541
0.012678680237172137,0.020990754187523206,-0.08467802285436023, ,0.01318146361788459,0.020737582535248364,-0.08509253038780781, ,0.0006990733214198768, ,0.008339679232194683,0.0014339756464735922,-0.013458995852187208,-0.0008963070993066029,0.0035429509055595974,-0.022909583303964167, ,0.015898147854381376, ,0.003654507613983597, ,7.314653674491565e-05, ,0.23504137502702296,-0.20194946466097094,0.09934636931000002,2.007990898807805,1.1116745620916235,-1.0801450660129197, ,0.05872335492479627,0.022866732905655607,0.014984770950141113,0.052035216784788535,0.058306357446015415,0.01999383207550933, ,0.9509708881378174
0.012778513639598976,0.021009729722861553,-0.08484997606794326, ,0.01322900698877728,0.020738282413892598,-0.08515471542712347, ,0.0006078601617427639, ,0.008408800654996672,0.0014130965664212384,-0.015382923197690593,0.05750140293763335,0.06228633234996144,0.007982137156267308, ,0.01758803844854654, ,0.08477026410261304, ,7.386716856589528e-05, ,0.23574414371857738,-0.20167916901037308,0.09954081281,2.0084102786947744,1.1129042905895126,-1.0804943972250631, ,0.06032863417576019,0.023162543704776856,0.017504188483516484,-0.016316364730132735,0.14208045334969518,-0.05176536780691284, ,0.9568428993225098
0.012778513639598976,0.021009729722861553,-0.08484997606794326, ,0.01327649558521366,0.020738873877337596,-0.0852169368457621, ,0.0006752844731445399, ,0.008408800654996672,0.0014130965664212384,-0.015382923197690593,0.05750140293763335,0.06228633234996144,0.007982137156267308, ,0.01758803844854654, ,0.08477026410261304, ,7.484230744946783e-05, ,0.23574414371857738,-0.20167916901037308,0.09954081281,2.0084102786947744,1.1129042905895126,-1.0804943972250631, ,0.06032863417576019,0.023162543704776856,0.017504188483516484,-0.016316364730132735,0.14208045334969518,-0.05176536780691284, ,0.9604389667510986
0.012778513639598976,0.021009729722861553,-0.08484997606794326, ,0.013323929329694657,0.020739357811039368,-0.08527919448906794, ,0.0007448541459491915, ,0.008408800654996672,0.0014130965664212384,-0.015382923197690593,0.05750140293763335,0.06228633234996144,0.007982137156267308, ,0.01758803844854654, ,0.08477026410261304, ,7.593838393390662e-05, ,0.23574414371857738,-0.20167916901037308,0.09954081281,2.0084102786947744,1.1129042905895126,-1.0804943972250631, ,0.06032863417576019,0.023162543704776856,0.017504188483516484,-0.016316364730132735,0.14208045334969518,-0.05176536780691284, ,0.9637269973754883
0.012863184939012378,0.021022901976401907,-0.08499577746819525, ,0.013371308145588085,0.02073973509818747,-0.08534148820191684, ,0.0006766746525390198, ,0.00806636280234436,0.0009837670401047095,-0.013247363354084296,-0.001726334450173067,0.00048557423562016044,0.03149870682506127, ,0.01554112744569636, ,0.0017932108030821858, ,7.69013158323859e-05, ,0.23635423961564112,-0.20144748702414633,0.09970544164,2.0084102786947744,1.113997382587636,-1.08073231053351, ,0.05886907044570147,0.02180536340957509,0.014735255800185015,-0.013712540236817712,0.06995257176500169,0.005360477681055822, ,0.9669468402862549
0.012863184939012378,0.021022901976401907,-0.08499577746819525, ,0.01341863195712728,0.02074000661970707,-0.08540381782871724, ,0.0007450155089574638, ,0.00806636280234436,0.0009837670401047095,-0.013247363354084296,-0.001726334450173067,0.00048557423562016044,0.03149870682506127, ,0.01554112744569636, ,0.0017932108030821858, ,7.7982143761623e-05, ,0.23635423961564112,-0.20144748702414633,0.09970544164,2.0084102786947744,1.113997382587636,-1.08073231053351, ,0.05886907044570147,0.02180536340957509,0.014735255800185015,-0.013712540236817712,0.06995257176500169,0.005360477681055822, ,0.9702370166778564
0.012863184939012378,0.021022901976401907,-0.08499577746819525, ,0.013465900689409737,0.020740173254261297,-0.08546618321341225, ,0.00081515849454782, ,0.00806636280234436,0.0009837670401047095,-0.013247363354084296,-0.001726334450173067,0.00048557423562016044,0.03149870682506127, ,0.01554112744569636, ,0.0017932108030821858, ,7.91828618072051e-05, ,0.23635423961564112,-0.20144748702414633,0.09970544164,2.0084102786947744,1.113997382587636,-1.08073231053351, ,0.05886907044570147,0.02180536340957509,0.014735255800185015,-0.013712540236817712,0.06995257176500169,0.005360477681055822, ,0.9734988212585449
0.012950094343358861,0.021028582199422635,-0.08512839678890503, ,0.01351311426839569,0.02074023587825341,-0.08552858419948069, ,0.0007485218771041696, ,0.009266979340749852,0.0006555039357854708,-0.01393846050088371,-0.06961632564435541,-0.05172049356332731,0.058058488481839636, ,0.01675073946565972, ,0.08672624588063386, ,8.025392560664204e-05, ,0.23700294917707598,-0.20119263683929692,0.09985062612000001,2.00820058875129,1.1144072920869323,-1.080004740622772, ,0.06730279543153955,0.02797669267643596,0.015084101818181822,0.0056079037878165455,0.015966434784112582,0.08222236973206364, ,0.976733922958374
0.012950094343358861,0.021028582199422635,-0.08512839678890503, ,0.013560272620906493,0.02074019536582945,-0.08559102062993845, ,0.000818233044109936, ,0.009266979340749852,0.0006555039357854708,-0.01393846050088371,-0.06961632564435541,-0.05172049356332731,0.058058488481839636, ,0.01675073946565972, ,0.08672624588063386, ,8.144330208565949e-05, ,0.23700294917707598,-0.20119263683929692,0.09985062612000001,2.00820058875129,1.1144072920869323,-1.080004740622772, ,0.06730279543153955,0.02797669267643596,0.015084101818181822,0.0056079037878165455,0.015966434784112582,0.08222236973206364, ,0.9800348281860352
0.012950094343358861,0.021028582199422635,-0.08512839678890503, ,0.013607375674623497,0.020740052588879874,-0.08565349234734035, ,0.0008893781142334601, ,0.009651410751570073,0.00068290294492388,-0.014757361562401265,-0.00600154342547818,0.0019532394965331564,0.019469382888957044, ,0.01675073946565972, ,0.06964371644907753, ,8.275229579748317e-05, ,0.23746631314952946,-0.2009995685174413,0.09995562561000002,2.0084102786947744,1.1149538380859942,-1.0798786610565738, ,0.07200071438427222,0.030860794002754727,0.016455383801652894,0.006286101307404462,0.08186077750639834,0.012748163754145309, ,0.9861669540405273
0.013012327387529537,0.021034520538480827,-0.08522189207129884, ,0.013654423358086363,0.02073980841704247,-0.08571599919378081, ,0.0008621393845634415, ,0.009651410751570073,0.00068290294492388,-0.014757361562401265,-0.00600154342547818,0.0019532394965331564,0.019469382888957044, ,0.01764641057584081, ,0.006311336475460359, ,8.400298662866535e-05, ,0.23746631314952946,-0.2009995685174413,0.09995562561000002,2.0084102786947744,1.1149538380859942,-1.0798786610565738, ,0.07200071438427222,0.030860794002754727,0.016455383801652894,0.006286101307404462,0.08186077750639834,0.012748163754145309, ,0.98960280418396
0.013012327387529537,0.021034520538480827,-0.08522189207129884, ,0.013701415600691786,0.020739463717704187,-0.08577854101089599, ,0.0009336804244282936, ,0.009519318691822327,0.0014066553492518513,-0.014102399445196862,0.06676591872961171,0.0631054490648076,-0.05125743774932352, ,0.01764641057584081, ,0.006311336475460359, ,8.53727083660016e-05, ,0.23828492283419725,-0.20066749100384965,0.10014358766,2.009039348525228,1.116456839583414,-1.0802057918556882, ,0.07277372818901133,0.025999162070813913,0.016455383801652894,0.04961546267822021,0.14216501619574473,-0.04643224621493979, ,0.9964478015899658
0.013120857940371444,0.02104807540390748,-0.0853846563704385, ,0.013748352332692011,0.02073901935600365,-0.08584111763986496, ,0.000835237537246804, ,0.009519318691822327,0.0014066553492518513,-0.014102399445196862,0.06676591872961171,0.0631054490648076,-0.05125743774932352, ,0.017072603133088567, ,0.09186939124483964, ,8.655718629918306e-05, ,0.23828492283419725,-0.20066749100384965,0.10014358766,2.009039348525228,1.116456839583414,-1.0802057918556882, ,0.07277372818901133,0.025999162070813913,0.016455383801652894,0.04961546267822021,0.14216501619574473,-0.04643224621493979, ,1.0019478797912598
0.013205505514812997,0.021057156005670877,-0.08550704266297132, ,0.01379523348519344,0.020738476194833336,-0.08590372892141084, ,0.0007789068548415964, ,0.010356504678359675,0.001134535269205074,-0.014774112797562373,0.02080461640110956,0.030280595121988135,-0.030217422113121013, ,0.018078129559914443, ,0.036738886763828735, ,8.76331942605387e-05, ,0.23894135512850634,-0.2004280862847487,0.10028488327000001,2.0092490384687127,1.1175499315815374,-1.080280347683854, ,0.07829780656639503,0.030991816315633827,0.016909566369426754,0.06011810749458997,0.10886248500405833,0.005455225178769049, ,1.0053799152374268
0.013205505514812997,0.021057156005670877,-0.08550704266297132, ,0.013842058990155347,0.02073783509484176,-0.0859663746958029, ,0.0008474385449390129, ,0.010356504678359675,0.001134535269205074,-0.014774112797562373,0.02080461640110956,0.030280595121988135,-0.030217422113121013, ,0.018078129559914443, ,0.036738886763828735, ,8.882287949313682e-05, ,0.23894135512850634,-0.2004280862847487,0.10028488327000001,2.0092490384687127,1.1175499315815374,-1.080280347683854, ,0.07829780656639503,0.030991816315633827,0.016909566369426754,0.06011810749458997,0.10886248500405833,0.005455225178769049, ,1.00860595703125
0.013205505514812997,0.021057156005670877,-0.08550704266297132, ,0.013888828780388015,0.02073709691443604,-0.08602905480285722, ,0.0009175321146131231, ,0.010356504678359675,0.001134535269205074,-0.014774112797562373,0.02080461640110956,0.030280595121988135,-0.030217422113121013, ,0.018078129559914443, ,0.036738886763828735, ,9.012779370059158e-05, ,0.23894135512850634,-0.2004280862847487,0.10028488327000001,2.0092490384687127,1.1175499315815374,-1.080280347683854, ,0.07829780656639503,0.030991816315633827,0.016909566369426754,0.06011810749458997,0.10886248500405833,0.005455225178769049, ,1.0129809379577637
0.013349762634271147,0.02106450916034812,-0.08572561982057324, ,0.013935542789551773,0.02073626250978389,-0.08609176908193895, ,0.0007648199366686836, ,0.010349901741211994,0.00018703673401660202,-0.01511128522178966,-0.02327776247460684,-0.01225770384662276,0.041000767405568184, ,0.01831683351037764, ,0.026307883636860017, ,9.115514756573657e-05, ,0.23995303313502975,-0.199956999579421,0.10051691918000001,2.0094587284121967,1.118643023579661,-1.0799465098113168, ,0.0774668910681394,0.03572927016508689,0.016999798847385277,-0.009256005520459451,0.07717277003883309,0.02439763511171631, ,1.016422986984253
0.013349762634271147,0.02106450916034812,-0.08572561982057324, ,0.013982200952155388,0.020735332734815926,-0.08615451737196257, ,0.0008320387338592875, ,0.010349901741211994,0.00018703673401660202,-0.01511128522178966,-0.02327776247460684,-0.01225770384662276,0.041000767405568184, ,0.01831683351037764, ,0.026307883636860017, ,9.245494333116385e-05, ,0.23995303313502975,-0.199956999579421,0.10051691918000001,2.0094587284121967,1.118643023579661,-1.0799465098113168, ,0.0774668910681394,0.03572927016508689,0.016999798847385277,-0.009256005520459451,0.07717277003883309,0.02439763511171631, ,1.0181128978729248
0.013349762634271147,0.02106450916034812,-0.08572561982057324, ,0.014028803203554506,0.020734308441228096,-0.08621729951139465, ,0.0009010424673711471, ,0.010349901741211994,0.00018703673401660202,-0.01511128522178966,-0.02327776247460684,-0.01225770384662276,0.041000767405568184, ,0.01831683351037764, ,0.026307883636860017, ,9.387103356590988e-05, ,0.23995303313502975,-0.199956999579421,0.10051691918000001,2.0094587284121967,1.118643023579661,-1.0799465098113168, ,0.0774668910681394,0.03572927016508689,0.016999798847385277,-0.009256005520459451,0.07717277003883309,0.02439763511171631, ,1.0198140144348145
0.013349762634271147,0.02106450916034812,-0.08572561982057324, ,0.014075349479950554,0.020733190478483713,-0.0862801153382543, ,0.0009714492362978897, ,0.010349901741211994,0.00018703673401660202,-0.01511128522178966,-0.02327776247460684,-0.01225770384662276,0.041000767405568184, ,0.01831683351037764, ,0.026307883636860017, ,9.540526119306369e-05, ,0.23995303313502975,-0.199956999579421,0.10051691918000001,2.0094587284121967,1.118643023579661,-1.0799465098113168, ,0.0774668910681394,0.03572927016508689,0.016999798847385277,-0.009256005520459451,0.07717277003883309,0.02439763511171631, ,1.02150297164917
0.013349762634271147,0.02106450916034812,-0.08572561982057324, ,0.01412183971838894,0.020731979693816144,-0.08634296469011488, ,0.0010429734214644469, ,0.010349901741211994,0.00018703673401660202,-0.01511128522178966,-0.02327776247460684,-0.01225770384662276,0.041000767405568184, ,0.01831683351037764, ,0.026307883636860017, ,9.705895780784796e-05, ,0.23995303313502975,-0.199956999579421,0.10051691918000001,2.0094587284121967,1.118643023579661,-1.0799465098113168, ,0.0774668910681394,0.03572927016508689,0.016999798847385277,-0.009256005520459451,0.07717277003883309,0.02439763511171631, ,1.0231688022613525
0.013452455615393263,0.021065249355115823,-0.08586810573167603, ,0.01416827385675791,0.020730676932230546,-0.08640584740410591, ,0.0009557722359921266, ,0.011338320284657153,0.00024446491784956416,-0.0157588951584521,0.007912211415849474,0.0025381590712690917,-0.001551931275454599, ,0.019415458958999966, ,0.008309294136323591, ,9.855497397193208e-05, ,0.23995303313502975,-0.199956999579421,0.10051691918000001,2.0094587284121967,1.118643023579661,-1.0799465098113168, ,0.0774668910681394,0.03572927016508689,0.016999798847385277,-0.009256005520459451,0.07717277003883309,0.02439763511171631, ,1.0253498554229736
0.013452455615393263,0.021065249355115823,-0.08586810573167603, ,0.014214651833787027,0.02072928303650641,-0.08646876331691347, ,0.0010269401040357694, ,0.011338320284657153,0.00024446491784956416,-0.0157588951584521,0.007912211415849474,0.0025381590712690917,-0.001551931275454599, ,0.019415458958999966, ,0.008309294136323591, ,0.0005485475729897598, ,0.24081025648406867,-0.19959403113433247,0.10068802946000001,2.0092490384687127,1.119599479078019,-1.0799096477357863, ,0.08738208246636352,0.03879678722750236,0.017738097461024498,0.011625159893476856,0.09876469424053615,-0.010590391703092186, ,1.0271389484405518
0.013452455615393263,0.021065249355115823,-0.08586810573167603, ,0.014260973589045592,0.02072779884720003,-0.08653171226478246, ,0.001099066781316327, ,0.011338320284657153,0.00024446491784956416,-0.0157588951584521,0.007912211415849474,0.0025381590712690917,-0.001551931275454599, ,0.019415458958999966, ,0.008309294136323591, ,0.0005537411504268029, ,0.24081025648406867,-0.19959403113433247,0.10068802946000001,2.0092490384687127,1.119599479078019,-1.0799096477357863, ,0.08738208246636352,0.03879678722750236,0.017738097461024498,0.011625159893476856,0.09876469424053615,-0.010590391703092186, ,1.0288519859313965
0.013452455615393263,0.021065249355115823,-0.08586810573167603, ,0.014307239062941488,0.020726225202646314,-0.08659469408351786, ,0.0011719738696713044, ,0.011338320284657153,0.00024446491784956416,-0.0157588951584521,0.007912211415849474,0.0025381590712690917,-0.001551931275454599, ,0.019415458958999966, ,0.008309294136323591, ,0.0005595190263075927, ,0.24081025648406867,-0.19959403113433247,0.10068802946000001,2.0092490384687127,1.119599479078019,-1.0799096477357863, ,0.08738208246636352,0.03879678722750236,0.017738097461024498,0.011625159893476856,0.09876469424053615,-0.010590391703092186, ,1.0305559635162354
0.013452455615393263,0.021065249355115823,-0.08586810573167603, ,0.014353448196719567,0.020724562938961553,-0.08665770860848607, ,0.0012455230101542773, ,0.011338320284657153,0.00024446491784956416,-0.0157588951584521,0.007912211415849474,0.0025381590712690917,-0.001551931275454599, ,0.019415458958999966, ,0.008309294136323591, ,0.0005658709150469138, ,0.24081025648406867,-0.19959403113433247,0.10068802946000001,2.0092490384687127,1.119599479078019,-1.0799096477357863, ,0.08738208246636352,0.03879678722750236,0.017738097461024498,0.011625159893476856,0.09876469424053615,-0.010590391703092186, ,1.032240867614746
0.013452455615393263,0.021065249355115823,-0.08586810573167603, ,0.01439960093246012,0.020722812890045357,-0.08672075567461615, ,0.0013196055885935894, ,0.011338320284657153,0.00024446491784956416,-0.0157588951584521,0.007912211415849474,0.0025381590712690917,-0.001551931275454599, ,0.019415458958999966, ,0.008309294136323591, ,0.0005727859120519292, ,0.24081025648406867,-0.19959403113433247,0.10068802946000001,2.0092490384687127,1.119599479078019,-1.0799096477357863, ,0.08738208246636352,0.03879678722750236,0.017738097461024498,0.011625159893476856,0.09876469424053615,-0.010590391703092186, ,1.0339109897613525
0.013577585954666752,0.0210698270840829,-0.08605425454615942, ,0.014445697213077927,0.020720975887582798,-0.08678383511640131, ,0.0011864240905992542, ,0.013976541522123588,0.0009747897583622342,-0.022480805538948916,0.07888730124914806,0.059284768280844176,-0.041222662072067505, ,0.02648925339968435, ,0.09868071902118487, ,0.000578364440947814, ,0.24175242989472406,-0.19914611262762744,0.10089932473,2.0094587284121967,1.1211024805754388,-1.0804818147553223, ,0.10160272115467964,0.04718893165513216,0.025445385814696485,0.0044364224855703155,0.18060698861460311,-0.09453775754206996, ,1.0356669425964355
0.013577585954666752,0.0210698270840829,-0.08605425454615942, ,0.014491736982320131,0.02071905276104738,-0.08684694676790121, ,0.0012597919214976303, ,0.013976541522123588,0.0009747897583622342,-0.022480805538948916,0.07888730124914806,0.059284768280844176,-0.041222662072067505, ,0.02648925339968435, ,0.09868071902118487, ,0.0005845034272590736, ,0.24175242989472406,-0.19914611262762744,0.10089932473,2.0094587284121967,1.1211024805754388,-1.0804818147553223, ,0.10160272115467964,0.04718893165513216,0.025445385814696485,0.0044364224855703155,0.18060698861460311,-0.09453775754206996, ,1.0377299785614014
0.013577585954666752,0.0210698270840829,-0.08605425454615942, ,0.01453772018476551,0.020717044337702346,-0.08691009046274145, ,0.0013337048106919873, ,0.013976541522123588,0.0009747897583622342,-0.022480805538948916,0.07888730124914806,0.059284768280844176,-0.041222662072067505, ,0.02648925339968435, ,0.09868071902118487, ,0.0005911927253254389, ,0.24175242989472406,-0.19914611262762744,0.10089932473,2.0094587284121967,1.1211024805754388,-1.0804818147553223, ,0.10160272115467964,0.04718893165513216,0.025445385814696485,0.0044364224855703155,0.18060698861460311,-0.09453775754206996, ,1.0395150184631348
0.013577585954666752,0.0210698270840829,-0.08605425454615942, ,0.014583646765822385,0.02071495144260381,-0.08697326603411673, ,0.0014080757052288904, ,0.013976541522123588,0.0009747897583622342,-0.022480805538948916,0.07888730124914806,0.059284768280844176,-0.041222662072067505, ,0.02648925339968435, ,0.09868071902118487, ,0.0005984217782449385, ,0.24175242989472406,-0.19914611262762744,0.10089932473,2.0094587284121967,1.1211024805754388,-1.0804818147553223, ,0.10160272115467964,0.04718893165513216,0.025445385814696485,0.0044364224855703155,0.18060698861460311,-0.09453775754206996, ,1.04128098487854
0.013577585954666752,0.0210698270840829,-0.08605425454615942, ,0.014629516671727641,0.0207127748986025,-0.08703647331479238, ,0.0014828345174386136, ,0.013976541522123588,0.0009747897583622342,-0.022480805538948916,0.07888730124914806,0.059284768280844176,-0.041222662072067505, ,0.02648925339968435, ,0.09868071902118487, ,0.0006061797847290934, ,0.24175242989472406,-0.19914611262762744,0.10089932473,2.0094587284121967,1.1211024805754388,-1.0804818147553223, ,0.10160272115467964,0.04718893165513216,0.025445385814696485,0.0044364224855703155,0.18060698861460311,-0.09453775754206996, ,1.0430209636688232
0.013577585954666752,0.0210698270840829,-0.08605425454615942, ,0.014675329849545338,0.02071051552634613,-0.08709971213710367, ,0.0015579242692536088, ,0.013976541522123588,0.0009747897583622342,-0.022480805538948916,0.07888730124914806,0.059284768280844176,-0.06836651237672338, ,0.02648925339968435, ,0.09868071902118487, ,0.0006144558237249588, ,0.24272549423687634,-0.19870591685379663,0.10116117531,2.0100877982426506,1.1228787550723895,-1.0812768175822514, ,0.11488733844851184,0.04991948530166796,0.0325077786122449,0.04456056530742656,0.21284114920404956,-0.09092946012378708, ,1.045529842376709
0.013717412078579277,0.021087929557664767,-0.08628484478797566, ,0.014721086247164762,0.02070817414428193,-0.08716298233295972, ,0.0013866151443677388, ,0.01679561993042176,0.0024009630381694354,-0.02873188933831951,0.09547414058695196,0.08251115088244529,-0.06836651237672338, ,0.033367333386221845, ,0.12618788357204236, ,0.0006211123695925688, ,0.24272549423687634,-0.19870591685379663,0.10116117531,2.0100877982426506,1.1228787550723895,-1.0812768175822514, ,0.11488733844851184,0.04991948530166796,0.0325077786122449,0.04456056530742656,0.21284114920404956,-0.09092946012378708, ,1.0481297969818115
0.013717412078579277,0.021087929557664767,-0.08628484478797566, ,0.014766785813299585,0.0207057515686585,-0.08722628373384343, ,0.0014606685247510302, ,0.01679561993042176,0.0024009630381694354,-0.02873188933831951,0.09547414058695196,0.08251115088244529,-0.06836651237672338, ,0.033367333386221845, ,0.12618788357204236, ,0.0006282880632264019, ,0.24272549423687634,-0.19870591685379663,0.10116117531,2.0100877982426506,1.1228787550723895,-1.0812768175822514, ,0.11488733844851184,0.04991948530166796,0.0325077786122449,0.04456056530742656,0.21284114920404956,-0.09092946012378708, ,1.0505008697509766
0.013717412078579277,0.021087929557664767,-0.08628484478797566, ,0.014812428497486232,0.020703248613528374,-0.08728961617081361, ,0.0015351240725842256, ,0.01679561993042176,0.0024009630381694354,-0.02873188933831951,0.09547414058695196,0.08251115088244529,-0.06836651237672338, ,0.033367333386221845, ,0.12618788357204236, ,0.0006359731141531631, ,0.24272549423687634,-0.19870591685379663,0.10116117531,2.0100877982426506,1.1228787550723895,-1.0812768175822514, ,0.11488733844851184,0.04991948530166796,0.0325077786122449,0.04456056530742656,0.21284114920404956,-0.09092946012378708, ,1.0523388385772705
0.013717412078579277,0.021087929557664767,-0.08628484478797566, ,0.014858014250082142,0.020700666090750424,-0.0873529794745058, ,0.0016099248476287426, ,0.01679561993042176,0.0024009630381694354,-0.02873188933831951,0.09547414058695196,0.08251115088244529,-0.06836651237672338, ,0.033367333386221845, ,0.12618788357204236, ,0.0006441575825016974, ,0.24272549423687634,-0.19870591685379663,0.10116117531,2.0100877982426506,1.1228787550723895,-1.0812768175822514, ,0.11488733844851184,0.04991948530166796,0.0325077786122449,0.04456056530742656,0.21284114920404956,-0.09092946012378708, ,1.054344892501831
0.0138366398444272,0.021106912637215876,-0.08649749736742121, ,0.014903543022264886,0.02069800480999161,-0.08741637347513431, ,0.0014662268935507227, ,0.018611493417520584,0.0034041821303141084,-0.03360100342636766,0.08016975623568372,0.08369177052013327,-0.06515013846172203, ,0.03856168531671733, ,0.11589417343587952, ,0.0006510081600937727, ,0.24351321299004725,-0.19836611660733075,0.10139969267000001,2.010297488186135,1.124245120070044,-1.081737566698091, ,0.12012271083350731,0.051998324141627826,0.03774599886255925,0.06857204759075242,0.2146496176320292,-0.058244620823272, ,1.056164026260376
0.0138366398444272,0.021106912637215876,-0.08649749736742121, ,0.01494901476603022,0.020695265578729687,-0.08747979800249293, ,0.001540047338439299, ,0.018611493417520584,0.0034041821303141084,-0.03360100342636766,0.08016975623568372,0.08369177052013327,-0.06515013846172203, ,0.03856168531671733, ,0.11589417343587952, ,0.0006583555913197687, ,0.24351321299004725,-0.19836611660733075,0.10139969267000001,2.010297488186135,1.124245120070044,-1.081737566698091, ,0.12012271083350731,0.051998324141627826,0.03774599886255925,0.06857204759075242,0.2146496176320292,-0.058244620823272, ,1.0579619407653809
0.0138366398444272,0.021106912637215876,-0.08649749736742121, ,0.014994429434191015,0.020692449202255492,-0.08754325288595734, ,0.0016142680315342265, ,0.018611493417520584,0.0034041821303141084,-0.03360100342636766,0.08016975623568372,0.08369177052013327,-0.06515013846172203, ,0.03856168531671733, ,0.11589417343587952, ,0.000666190939190379, ,0.24351321299004725,-0.19836611660733075,0.10139969267000001,2.010297488186135,1.124245120070044,-1.081737566698091, ,0.12012271083350731,0.051998324141627826,0.03774599886255925,0.06857204759075242,0.2146496176320292,-0.058244620823272, ,1.0596508979797363
0.0138366398444272,0.021106912637215876,-0.08649749736742121, ,0.015039786980375607,0.02068955648367499,-0.08760673795448533, ,0.0016888350628849595, ,0.018611493417520584,0.0034041821303141084,-0.03360100342636766,0.08016975623568372,0.08369177052013327,-0.06515013846172203, ,0.03856168531671733, ,0.11589417343587952, ,0.0006745051190578145, ,0.24351321299004725,-0.19836611660733075,0.10139969267000001,2.010297488186135,1.124245120070044,-1.081737566698091, ,0.12012271083350731,0.051998324141627826,0.03774599886255925,0.06857204759075242,0.2146496176320292,-0.058244620823272, ,1.0613479614257812
0.0138366398444272,0.021106912637215876,-0.08649749736742121, ,0.015085087359026625,0.0206865882239115,-0.08767025303661918, ,0.0017637033959158595, ,0.018611493417520584,0.0034041821303141084,-0.03360100342636766,0.08016975623568372,0.08369177052013327,-0.06515013846172203, ,0.03856168531671733, ,0.11589417343587952, ,0.0006832889761292504, ,0.24351321299004725,-0.19836611660733075,0.10139969267000001,2.010297488186135,1.124245120070044,-1.081737566698091, ,0.12012271083350731,0.051998324141627826,0.03774599886255925,0.06857204759075242,0.2146496176320292,-0.058244620823272, ,1.0630278587341309
0.0138366398444272,0.021106912637215876,-0.08649749736742121, ,0.015130330525399098,0.02068354522170832,-0.08773379796048701, ,0.0018388351483920285, ,0.018611493417520584,0.0034041821303141084,-0.03360100342636766,0.08016975623568372,0.08369177052013327,-0.06515013846172203, ,0.03856168531671733, ,0.11589417343587952, ,0.0006925333455073527, ,0.24351321299004725,-0.19836611660733075,0.10139969267000001,2.010297488186135,1.124245120070044,-1.081737566698091, ,0.12012271083350731,0.051998324141627826,0.03774599886255925,0.06857204759075242,0.2146496176320292,-0.058244620823272, ,1.0647859573364258
0.014150600753526381,0.021160358006224247,-0.08708985950956495, ,0.015175516435559446,0.020680428273630667,-0.08779737255380313, ,0.0013346757700924289, ,0.021358736164897037,0.003130753627474407,-0.040832726906642705,0.002633486904518922,0.044000298440393944,0.055222017593986324, ,0.04618775612075226, ,0.044077749535135595, ,0.0006976297139564406, ,0.24546706440722604,-0.19748572505966916,0.10205561541000001,2.0105071781296195,1.1272511230648838,-1.0816567196350548, ,0.13107312369954527,0.06424979117025781,0.04499664271186441,-0.0072252709187576375,0.1988865888200359,0.011427577065845615, ,1.0664079189300537
0.014150600753526381,0.021160358006224247,-0.08708985950956495, ,0.015220645046383917,0.020677238174068104,-0.08786097664387117, ,0.0014046427288532135, ,0.021358736164897037,0.003130753627474407,-0.040832726906642705,0.002633486904518922,0.044000298440393944,0.055222017593986324, ,0.04618775612075226, ,0.044077749535135595, ,0.000703196745569801, ,0.24546706440722604,-0.19748572505966916,0.10205561541000001,2.0105071781296195,1.1272511230648838,-1.0816567196350548, ,0.13107312369954527,0.06424979117025781,0.04499664271186441,-0.0072252709187576375,0.1988865888200359,0.011427577065845615, ,1.0680549144744873
0.014150600753526381,0.021160358006224247,-0.08708985950956495, ,0.015265716315557266,0.020673975715236714,-0.08792461005758381, ,0.0014754182210775114, ,0.021358736164897037,0.003130753627474407,-0.040832726906642705,0.002633486904518922,0.044000298440393944,0.055222017593986324, ,0.04618775612075226, ,0.044077749535135595, ,0.000709229725847205, ,0.24546706440722604,-0.19748572505966916,0.10205561541000001,2.0105071781296195,1.1272511230648838,-1.0816567196350548, ,0.13107312369954527,0.06424979117025781,0.04499664271186441,-0.0072252709187576375,0.1988865888200359,0.011427577065845615, ,1.069739818572998
0.014150600753526381,0.021160358006224247,-0.08708985950956495, ,0.015310730201570862,0.020670641687181576,-0.08798827262142556, ,0.001546889953719964, ,0.021358736164897037,0.003130753627474407,-0.040832726906642705,0.002633486904518922,0.044000298440393944,0.055222017593986324, ,0.04618775612075226, ,0.044077749535135595, ,0.0007157232159857534, ,0.24546706440722604,-0.19748572505966916,0.10205561541000001,2.0105071781296195,1.1272511230648838,-1.0816567196350548, ,0.13107312369954527,0.06424979117025781,0.04499664271186441,-0.0072252709187576375,0.1988865888200359,0.011427577065845615, ,1.071415901184082
0.014150600753526381,0.021160358006224247,-0.08708985950956495, ,0.015355686663721887,0.02066723687777868,-0.08805196416147319, ,0.0016189644404663855, ,0.021358736164897037,0.003130753627474407,-0.040832726906642705,0.002633486904518922,0.044000298440393944,0.055222017593986324, ,0.04618775612075226, ,0.044077749535135595, ,0.0007226712254048352, ,0.24546706440722604,-0.19748572505966916,0.10205561541000001,2.0105071781296195,1.1272511230648838,-1.0816567196350548, ,0.13107312369954527,0.06424979117025781,0.04499664271186441,-0.0072252709187576375,0.1988865888200359,0.011427577065845615, ,1.0730810165405273
0.014150600753526381,0.021160358006224247,-0.08708985950956495, ,0.015400585662111516,0.02066376207273755,-0.0881156845033976, ,0.0016915633924916523, ,0.021358736164897037,0.003130753627474407,-0.040832726906642705,0.002633486904518922,0.044000298440393944,0.055222017593986324, ,0.04618775612075226, ,0.044077749535135595, ,0.0007300673488177117, ,0.24546706440722604,-0.19748572505966916,0.10205561541000001,2.0105071781296195,1.1272511230648838,-1.0816567196350548, ,0.13107312369954527,0.06424979117025781,0.04499664271186441,-0.0072252709187576375,0.1988865888200359,0.011427577065845615, ,1.074739933013916
0.0143664121800675,0.02118536715605774,-0.08749361411325265, ,0.015445427157643422,0.020660218055603388,-0.08817943347246576, ,0.0013821733223487792, ,0.0221084742767096,0.002288665259102358,-0.04038098969819974,0.06383839296648816,0.07390309713971638,-0.0045126095491394335, ,0.046093892789807474, ,0.09765705715887059, ,0.0007350075455868864, ,0.24681854266021533,-0.19677523363524052,0.10250283546000001,2.0105071781296195,1.1295739435608962,-1.0821622854155044, ,0.14100585669906504,0.07277372818901133,0.0448698916056338,-0.00787591920232747,0.24403914376711225,-0.07683974231956638, ,1.0764539241790771
0.0143664121800675,0.02118536715605774,-0.08749361411325265, ,0.015490211112022728,0.02065660560775918,-0.08824321089354076, ,0.0014506578326542385, ,0.0221084742767096,0.002288665259102358,-0.04038098969819974,0.06383839296648816,0.07390309713971638,-0.0045126095491394335, ,0.046093892789807474, ,0.09765705715887059, ,0.0007403883748129568, ,0.24681854266021533,-0.19677523363524052,0.10250283546000001,2.0105071781296195,1.1295739435608962,-1.0821622854155044, ,0.14100585669906504,0.07277372818901133,0.0448698916056338,-0.00787591920232747,0.24403914376711225,-0.07683974231956638, ,1.0783319473266602
0.0143664121800675,0.02118536715605774,-0.08749361411325265, ,0.015534937487754197,0.020652925508428257,-0.08830701659108427, ,0.0015200556219353606, ,0.0221084742767096,0.002288665259102358,-0.04038098969819974,0.06383839296648816,0.07390309713971638,-0.0045126095491394335, ,0.046093892789807474, ,0.09765705715887059, ,0.000746206787104915, ,0.24681854266021533,-0.19677523363524052,0.10250283546000001,2.0105071781296195,1.1295739435608962,-1.0821622854155044, ,0.14100585669906504,0.07277372818901133,0.0448698916056338,-0.00787591920232747,0.24403914376711225,-0.07683974231956638, ,1.0800838470458984
0.0143664121800675,0.02118536715605774,-0.08749361411325265, ,0.015579606248140827,0.020649178534676498,-0.08837085038915823, ,0.001590245757193433, ,0.0221084742767096,0.002288665259102358,-0.04038098969819974,0.06383839296648816,0.07390309713971638,-0.0045126095491394335, ,0.046093892789807474, ,0.09765705715887059, ,0.0007524589276240892, ,0.24681854266021533,-0.19677523363524052,0.10250283546000001,2.0105071781296195,1.1295739435608962,-1.0821622854155044, ,0.14100585669906504,0.07277372818901133,0.0448698916056338,-0.00787591920232747,0.24403914376711225,-0.07683974231956638, ,1.0817539691925049
0.0143664121800675,0.02118536715605774,-0.08749361411325265, ,0.015624217357282828,0.02064536546141421,-0.08843471211142478, ,0.0016611264660498176, ,0.0221084742767096,0.002288665259102358,-0.04038098969819974,0.06383839296648816,0.07390309713971638,-0.0045126095491394335, ,0.046093892789807474, ,0.09765705715887059, ,0.000759140306583102, ,0.24681854266021533,-0.19677523363524052,0.10250283546000001,2.0105071781296195,1.1295739435608962,-1.0821622854155044, ,0.14100585669906504,0.07277372818901133,0.0448698916056338,-0.00787591920232747,0.24403914376711225,-0.07683974231956638, ,1.0834088325500488
0.0143664121800675,0.02118536715605774,-0.08749361411325265, ,0.015668770780075555,0.02064148706139905,-0.0884986015811497, ,0.0017326116965468608, ,0.0221084742767096,0.002288665259102358,-0.04038098969819974,0.06383839296648816,0.07390309713971638,-0.0045126095491394335, ,0.046093892789807474, ,0.09765705715887059, ,0.000766245937166779, ,0.24681854266021533,-0.19677523363524052,0.10250283546000001,2.0105071781296195,1.1295739435608962,-1.0821622854155044, ,0.14100585669906504,0.07277372818901133,0.0448698916056338,-0.00787591920232747,0.24403914376711225,-0.07683974231956638, ,1.0850598812103271
0.014599520540576161,0.021208445067787927,-0.08790090482036976, ,0.01571326648220862,0.020637544105237878,-0.08856251862120208, ,0.0014156591231631777, ,0.02390775018810627,0.0018163886764209932,-0.04019663956411079,-0.01622279470199715,-0.015332883832369018,0.032395013574869604, ,0.04680437606813879, ,0.022319754763543857, ,0.0007709518298189269, ,0.2483244755706891,-0.1960415740121892,0.10295394438000001,2.0105071781296195,1.1316234910573777,-1.0824450153885612, ,0.15633763024459765,0.0760392159923644,0.044246698666666674,-0.0071892627506478105,0.16044891959655996,6.061483614461932e-05, ,1.0867078304290771
0.014599520540576161,0.021208445067787927,-0.08790090482036976, ,0.015757704430164138,0.02063353736138896,-0.08862646305405678, ,0.0014826812008820627, ,0.02390775018810627,0.0018163886764209932,-0.04019663956411079,-0.01622279470199715,-0.015332883832369018,0.032395013574869604, ,0.04680437606813879, ,0.022319754763543857, ,0.0007760721850064313, ,0.2483244755706891,-0.1960415740121892,0.10295394438000001,2.0105071781296195,1.1316234910573777,-1.0824450153885612, ,0.15633763024459765,0.0760392159923644,0.044246698666666674,-0.0071892627506478105,0.16044891959655996,6.061483614461932e-05, ,1.0883839130401611
0.014599520540576161,0.021208445067787927,-0.08790090482036976, ,0.01580208459121539,0.02062946759616461,-0.08869043470179505, ,0.0015507200399171328, ,0.02390775018810627,0.0018163886764209932,-0.04019663956411079,-0.01622279470199715,-0.015332883832369018,0.032395013574869604, ,0.04680437606813879, ,0.022319754763543857, ,0.0007816053839700793, ,0.2483244755706891,-0.1960415740121892,0.10295394438000001,2.0105071781296195,1.1316234910573777,-1.0824450153885612, ,0.15633763024459765,0.0760392159923644,0.044246698666666674,-0.0071892627506478105,0.16044891959655996,6.061483614461932e-05, ,1.0901179313659668
0.014599520540576161,0.021208445067787927,-0.08790090482036976, ,0.015846406933425407,0.020625335573733108,-0.08875443338610702, ,0.001619646063576535, ,0.02390775018810627,0.0018163886764209932,-0.04019663956411079,-0.01622279470199715,-0.015332883832369018,0.032395013574869604, ,0.04680437606813879, ,0.022319754763543857, ,0.000787548934889274, ,0.2483244755706891,-0.1960415740121892,0.10295394438000001,2.0105071781296195,1.1316234910573777,-1.0824450153885612, ,0.15633763024459765,0.0760392159923644,0.044246698666666674,-0.0071892627506478105,0.16044891959655996,6.061483614461932e-05, ,1.0919740200042725
0.014599520540576161,0.021208445067787927,-0.08790090482036976, ,0.015890671425645486,0.02062114205612113,-0.0888184589282923, ,0.0016893492760509017, ,0.02390775018810627,0.0018163886764209932,-0.04019663956411079,-0.01622279470199715,-0.015332883832369018,0.032395013574869604, ,0.04680437606813879, ,0.022319754763543857, ,0.0007938996415171728, ,0.2483244755706891,-0.1960415740121892,0.10295394438000001,2.0105071781296195,1.1316234910573777,-1.0824450153885612, ,0.15633763024459765,0.0760392159923644,0.044246698666666674,-0.0071892627506478105,0.16044891959655996,6.061483614461932e-05, ,1.0937888622283936
0.014599520540576161,0.021208445067787927,-0.08790090482036976, ,0.015934878037513825,0.020616887803216,-0.08888251114926116, ,0.0017597359537200705, ,0.02390775018810627,0.0018163886764209932,-0.04019663956411079,-0.04992124305963128,-0.06786258589615722,0.03068741357997159, ,0.04680437606813879, ,0.022319754763543857, ,0.0008006537416025077, ,0.2483244755706891,-0.1960415740121892,0.10295394438000001,2.0105071781296195,1.1316234910573777,-1.0824450153885612, ,0.15633763024459765,0.08738208246636352,0.04236386042553192,-0.006426854179549494,0.12327033082484512,0.015304296811164124, ,1.0990798473358154
0.01483341717402965,0.021218174816024876,-0.08827186115570006, ,0.01597902673945399,0.020612573572768016,-0.0889465898695369, ,0.0014609698763157009, ,0.025584564285613957,0.0003799144276145933,-0.03857014421084719,-0.04992124305963128,-0.06786258589615722,0.03068741357997159, ,0.04628574606833698, ,0.08424592401272184, ,0.0008052392703157937, ,0.2498921903441567,-0.1952615779918925,0.10336097944000001,2.0105071781296195,1.1328532195552667,-1.0823042741598612, ,0.1760611160639532,0.08738208246636352,0.04236386042553192,-0.006426854179549494,0.12327033082484512,0.015304296811164124, ,1.103104829788208
0.01483341717402965,0.021218174816024876,-0.08827186115570006, ,0.016023117502673608,0.020608200120392547,-0.08901069490925656, ,0.001527524571547602, ,0.025584564285613957,0.0003799144276145933,-0.03857014421084719,-0.04992124305963128,-0.06786258589615722,0.03068741357997159, ,0.04628574606833698, ,0.08424592401272184, ,0.0008102205482553235, ,0.2498921903441567,-0.1952615779918925,0.10336097944000001,2.0105071781296195,1.1328532195552667,-1.0823042741598612, ,0.1760611160639532,0.08738208246636352,0.04236386042553192,-0.006426854179549494,0.12327033082484512,0.015304296811164124, ,1.1049649715423584
0.015083577451219497,0.02121609027080126,-0.08863328500101779, ,0.016067150299162777,0.020603768199572537,-0.08907482608817266, ,0.0012398840259358907, ,0.025327785855490295,-0.0008947862696211857,-0.035556291193301504,-0.013226737119489393,-0.05468666991159382,-0.014116472765498609, ,0.043664026637871216, ,0.05626296837391148, ,0.0008131634487873821, ,0.2516529734394799,-0.1943734637113567,0.10376023676000001,2.0105071781296195,1.134219584552921,-1.082519987055279, ,0.18075607915899194,0.09433095582352961,0.039330398814814815,-0.00572336376702395,0.14332013074546696,-0.04442400476918509, ,1.106982946395874
0.015083577451219497,0.02121609027080126,-0.08863328500101779, ,0.016111125101692762,0.020599278561660547,-0.08913898322565406, ,0.0013007849756691105, ,0.025327785855490295,-0.0008947862696211857,-0.035556291193301504,-0.013226737119489393,-0.05468666991159382,-0.014116472765498609, ,0.043664026637871216, ,0.05626296837391148, ,0.0008164806020314756, ,0.2516529734394799,-0.1943734637113567,0.10376023676000001,2.0105071781296195,1.134219584552921,-1.082519987055279, ,0.18075607915899194,0.09433095582352961,0.039330398814814815,-0.00572336376702395,0.14332013074546696,-0.04442400476918509, ,1.108691930770874
0.015083577451219497,0.02121609027080126,-0.08863328500101779, ,0.01615504188381439,0.020594731955881244,-0.08920316614068839, ,0.0013634099527245675, ,0.025327785855490295,-0.0008947862696211857,-0.035556291193301504,-0.013226737119489393,-0.05468666991159382,-0.014116472765498609, ,0.043664026637871216, ,0.05626296837391148, ,0.0008201760706172397, ,0.2516529734394799,-0.1943734637113567,0.10376023676000001,2.0105071781296195,1.134219584552921,-1.082519987055279, ,0.18075607915899194,0.09433095582352961,0.039330398814814815,-0.00572336376702395,0.14332013074546696,-0.04442400476918509, ,1.110536813735962
0.015083577451219497,0.02121609027080126,-0.08863328500101779, ,0.01619890061985688,0.020590129129333484,-0.08926737465188236, ,0.0014275303171773735, ,0.025327785855490295,-0.0008947862696211857,-0.035556291193301504,-0.013226737119489393,-0.05468666991159382,-0.014116472765498609, ,0.043664026637871216, ,0.05626296837391148, ,0.0008242522736142876, ,0.2516529734394799,-0.1943734637113567,0.10376023676000001,2.0105071781296195,1.134219584552921,-1.082519987055279, ,0.18075607915899194,0.09433095582352961,0.039330398814814815,-0.00572336376702395,0.14332013074546696,-0.04442400476918509, ,1.112259864807129
0.015083577451219497,0.02121609027080126,-0.08863328500101779, ,0.016242701284926216,0.020585470826992688,-0.08933160857746424, ,0.0014929516945291139, ,0.025327785855490295,-0.0008947862696211857,-0.035556291193301504,-0.013226737119489393,-0.05468666991159382,-0.014116472765498609, ,0.043664026637871216, ,0.05626296837391148, ,0.0008287102697537198, ,0.2516529734394799,-0.1943734637113567,0.10376023676000001,2.0105071781296195,1.134219584552921,-1.082519987055279, ,0.18075607915899194,0.09433095582352961,0.039330398814814815,-0.00572336376702395,0.14332013074546696,-0.04442400476918509, ,1.1139099597930908
0.015083577451219497,0.02121609027080126,-0.08863328500101779, ,0.016286443854903687,0.0205807577917131,-0.08939586773528413, ,0.0015595086952939932, ,0.025327785855490295,-0.0008947862696211857,-0.035556291193301504,-0.013226737119489393,-0.05468666991159382,-0.014116472765498609, ,0.043664026637871216, ,0.05626296837391148, ,0.0008335499944261719, ,0.2516529734394799,-0.1943734637113567,0.10376023676000001,2.0105071781296195,1.134219584552921,-1.082519987055279, ,0.18075607915899194,0.09433095582352961,0.039330398814814815,-0.00572336376702395,0.14332013074546696,-0.04442400476918509, ,1.1155660152435303
0.015325161531695664,0.02119688140219072,-0.08894303117832801, ,0.01633012830644447,0.02057599076423002,-0.08946015194281644, ,0.001289525993426018, ,0.02326563602288492,-0.0029207791990751527,-0.026888818441168416,-0.04325476239938866,-0.09607885734619025,-0.01900265402301241, ,0.03567673370477221, ,0.10536653758798024, ,0.000836549836524855, ,0.25345237019917416,-0.19343901303357552,0.10410375361000002,2.010297488186135,1.13544931305081,-1.082950997007563, ,0.17905083312919012,0.0962443626353659,0.02982923505617978,0.0,0.09347980945129444,-0.02576199235847572, ,1.1172478199005127
0.015325161531695664,0.02119688140219072,-0.08894303117832801, ,0.016373754616976415,0.02057117048316214,-0.08952446101716047, ,0.0013524504686586243, ,0.02326563602288492,-0.0029207791990751527,-0.026888818441168416,-0.04325476239938866,-0.09607885734619025,-0.01900265402301241, ,0.03567673370477221, ,0.10536653758798024, ,0.0008399217360812849, ,0.25345237019917416,-0.19343901303357552,0.10410375361000002,2.010297488186135,1.13544931305081,-1.082950997007563, ,0.17905083312919012,0.0962443626353659,0.02982923505617978,0.0,0.09347980945129444,-0.02576199235847572, ,1.118901014328003
0.015325161531695664,0.02119688140219072,-0.08894303117832801, ,0.016417322764698265,0.020566297685013692,-0.08958879477504252, ,0.001416849535442706, ,0.02326563602288492,-0.0029207791990751527,-0.026888818441168416,-0.04325476239938866,-0.09607885734619025,-0.01900265402301241, ,0.03567673370477221, ,0.10536653758798024, ,0.0008436680204927228, ,0.25345237019917416,-0.19343901303357552,0.10410375361000002,2.010297488186135,1.13544931305081,-1.082950997007563, ,0.17905083312919012,0.0962443626353659,0.02982923505617978,0.0,0.09347980945129444,-0.02576199235847572, ,1.1205549240112305
0.015325161531695664,0.02119688140219072,-0.08894303117832801, ,0.016460832728578473,0.020561373104176855,-0.0896531530328169, ,0.0014825292282098362, ,0.02326563602288492,-0.0029207791990751527,-0.026888818441168416,-0.04325476239938866,-0.09607885734619025,-0.01900265402301241, ,0.03567673370477221, ,0.10536653758798024, ,0.000847789705703801, ,0.25345237019917416,-0.19343901303357552,0.10410375361000002,2.010297488186135,1.13544931305081,-1.082950997007563, ,0.17905083312919012,0.0962443626353659,0.02982923505617978,0.0,0.09347980945129444,-0.02576199235847572, ,1.1222310066223145
0.015325161531695664,0.02119688140219072,-0.08894303117832801, ,0.0165042844883535,0.02055639747293407,-0.08971753560646736, ,0.0015493249238816952, ,0.02326563602288492,-0.0029207791990751527,-0.026888818441168416,-0.04325476239938866,-0.09607885734619025,-0.01900265402301241, ,0.03567673370477221, ,0.10536653758798024, ,0.0008522867263331464, ,0.25345237019917416,-0.19343901303357552,0.10410375361000002,2.010297488186135,1.13544931305081,-1.082950997007563, ,0.17905083312919012,0.0962443626353659,0.02982923505617978,0.0,0.09347980945129444,-0.02576199235847572, ,1.123878002166748
0.015325161531695664,0.02119688140219072,-0.08894303117832801, ,0.01654767802452678,0.02055137152146,-0.08978194231160846, ,0.0016170966176784168, ,0.02326563602288492,-0.0029207791990751527,-0.026888818441168416,-0.04325476239938866,-0.09607885734619025,-0.01900265402301241, ,0.03567673370477221, ,0.10536653758798024, ,0.0008571581269149635, ,0.25345237019917416,-0.19343901303357552,0.10410375361000002,2.010297488186135,1.13544931305081,-1.082950997007563, ,0.17905083312919012,0.0962443626353659,0.02982923505617978,0.0,0.09347980945129444,-0.02576199235847572, ,1.1255359649658203
0.015570059985079076,0.021148147892529723,-0.08920711327992334, ,0.016591013318366942,0.02054629597782417,-0.08984637296348742, ,0.0013465602025222617, ,0.023393372767793526,-0.005217215186622645,-0.024395464915405007,-0.03953779289565325,-0.09810883888884885,-0.03944201137702945, ,0.03419953116923134, ,0.10577604972084155, ,0.0008602556084061489, ,0.25539849888347876,-0.19231149403393874,0.10439541886,2.009878108299166,1.1364057685491682,-1.0834042073728758, ,0.18680500306785586,0.11433366452827805,0.02704382261460102,-0.009539502532636027,0.10203407669292508,-0.05969047658950593, ,1.1272048950195312
0.015570059985079076,0.021148147892529723,-0.08920711327992334, ,0.016634290351906448,0.02054117156799301,-0.08991082737698503, ,0.0014128765206588162, ,0.023393372767793526,-0.005217215186622645,-0.024395464915405007,-0.03953779289565325,-0.09810883888884885,-0.03944201137702945, ,0.03419953116923134, ,0.10577604972084155, ,0.000863731211627864, ,0.25539849888347876,-0.19231149403393874,0.10439541886,2.009878108299166,1.1364057685491682,-1.0834042073728758, ,0.18680500306785586,0.11433366452827805,0.02704382261460102,-0.009539502532636027,0.10203407669292508,-0.05969047658950593, ,1.1288268566131592
0.015570059985079076,0.021148147892529723,-0.08920711327992334, ,0.016677509107940303,0.02053599901583219,-0.0899753053666172, ,0.0014803002698868975, ,0.023393372767793526,-0.005217215186622645,-0.024395464915405007,-0.03953779289565325,-0.09810883888884885,-0.03944201137702945, ,0.03419953116923134, ,0.10577604972084155, ,0.000867584768241983, ,0.25539849888347876,-0.19231149403393874,0.10439541886,2.009878108299166,1.1364057685491682,-1.0834042073728758, ,0.18680500306785586,0.11433366452827805,0.02704382261460102,-0.009539502532636027,0.10203407669292508,-0.05969047658950593, ,1.130476951599121
0.015570059985079076,0.021148147892529723,-0.08920711327992334, ,0.0167206695700243,0.020530779043109026,-0.09003980674653651, ,0.0015486849655572687, ,0.023393372767793526,-0.005217215186622645,-0.024395464915405007,-0.03953779289565325,-0.09810883888884885,-0.03944201137702945, ,0.03419953116923134, ,0.10577604972084155, ,0.0008718152042501524, ,0.25539849888347876,-0.19231149403393874,0.10439541886,2.009878108299166,1.1364057685491682,-1.0834042073728758, ,0.18680500306785586,0.11433366452827805,0.02704382261460102,-0.009539502532636027,0.10203407669292508,-0.05969047658950593, ,1.1321539878845215
0.015570059985079076,0.021148147892529723,-0.08920711327992334, ,0.016763771722473984,0.020525512369494413,-0.09010433133053358, ,0.0016179069617504793, ,0.023393372767793526,-0.005217215186622645,-0.024395464915405007,-0.03953779289565325,-0.09810883888884885,-0.03944201137702945, ,0.03419953116923134, ,0.10577604972084155, ,0.0008764207089260804, ,0.25539849888347876,-0.19231149403393874,0.10439541886,2.009878108299166,1.1364057685491682,-1.0834042073728758, ,0.18680500306785586,0.11433366452827805,0.02704382261460102,-0.009539502532636027,0.10203407669292508,-0.05969047658950593, ,1.1338260173797607
0.015570059985079076,0.021148147892529723,-0.08920711327992334, ,0.016806815550362942,0.020520199712565433,-0.09016887893203825, ,0.0016878614915238426, ,0.023393372767793526,-0.005217215186622645,-0.024395464915405007,-0.03953779289565325,-0.09810883888884885,-0.03944201137702945, ,0.03419953116923134, ,0.10577604972084155, ,0.0008813988732364961, ,0.25539849888347876,-0.19231149403393874,0.10439541886,2.009878108299166,1.1364057685491682,-1.0834042073728758, ,0.18680500306785586,0.11433366452827805,0.02704382261460102,-0.009539502532636027,0.10203407669292508,-0.05969047658950593, ,1.1354889869689941
