NicholasDascanio/dvrk_moveit_final/test/execution/third_experiment_notsharpbends/thirdexp_700vel5.0/thirdexp_700vel5.0_8.csv
Current Position (x),Current Position (y),Current Position (z), ,Planned Position (x),Planned Position (y),Planned Position (z), ,Position Error,,Cartesian linear Velocity(x),Cartesian linear Velocity(y),Cartesian linear Velocity(z),Cartesian Angular Velocity(x),Cartesian Angular Velocity(y),Cartesian Angular Velocity(z), ,Total Linear Velocity, ,Total Angular Velocity, ,MSE, ,Joint 1 Position,Joint 2 Position,Joint 3 Position,Joint 4 Position,Joint 5 Position,Joint 6 Position, ,Joint 1 Velocity,Joint 2 Velocity,Joint 3 Velocity,Joint 4 Velocity,Joint 5 Velocity,Joint 6 Velocity, ,Time Stamp
0.010165294726644153,0.02045711821725396,-0.07941693517884929, ,0.010198809313974707,0.020336071653196987,-0.07938864436686158, ,0.0001287473039595808, ,2.570399560060884e-05,7.268685533865424e-05,-3.0910175014287287e-06,0.008233357485145669,-0.00035445322568825743,-0.018735299193438786, ,7.715976100308181e-05, ,0.008240983713574795, ,1.0728941996631734e-05, ,0.2030769836606077,-0.17502029512855005,0.09511268617000002,2.370964190979517,1.2735888143136704,-0.9290767685659906, ,9.944218258436108e-05,-0.0006585934999886336,2.426123232577225e-05,0.0026612260729415083,0.0,-0.0177789886869002, ,0.016108989715576172
0.01016771026943054,0.020458698293884837,-0.0794256084355901, ,0.010210639209488179,0.020354907690390087,-0.0794452751709784, ,0.00011402703078266106, ,0.00026681494181810835,0.0002605662671995593,-0.0010865592090654416,0.10334423098596228,-0.010278731117715104,-0.23854743999579686, ,0.001148780182447726, ,0.10385413998232665, ,1.1035197033738267e-05, ,0.20308470639348195,-0.17502029512855005,0.09512176020000002,2.370964190979517,1.2735888143136704,-0.9313637732899264, ,0.0003247015140128783,-0.0005653239310475191,0.0011479269184617054,0.0026033693932691867,0.0,-0.25755631927534983, ,0.03578591346740723
0.01017291944552405,0.020462786764135075,-0.0794393799883592, ,0.010222736080275989,0.020373465815611978,-0.07950221787335104, ,0.00012003553112858486, ,0.00033377392364711186,4.6501185836731583e-05,-0.0008384412093143628,0.05633647506611052,-0.059665466938960125,-0.2588414670576793, ,0.0009036321452159288, ,0.08205952941565178, ,1.1337808308463335e-05, ,0.20308470639348195,-0.17503574059429852,0.09513213052000001,2.3711738809230014,1.2730422683146085,-0.9377791158469477, ,0.0003247015140128783,-0.0003319156895942897,0.00026615153211756605,0.0,-0.07092705092615123,-0.26203343472787677, ,0.051776885986328125
0.01018704695682963,0.020466542005501877,-0.07947694504666152, ,0.01023509857004962,0.02039174763500586,-0.07955947022029469, ,0.00012129946279405105, ,0.0008201513088578597,0.00023764540338403725,-0.002285230079709716,-0.10582012556280368,-0.10367849606252565,-0.03545405130094549, ,0.0024395491436699727, ,0.14814563618227963, ,1.1526412587258996e-05, ,0.20309242912635617,-0.17503574059429852,0.09515157487,2.371383570866486,1.2707194478185961,-0.9385804099087472, ,-0.00021955336079196338,-0.0009537826796880553,0.0019456225137412973,0.005161446520613189,-0.054640256756162,-0.12193396008471913, ,0.06842589378356934
0.010193658358062626,0.020473141454965437,-0.07950778024305834, ,0.010247725325940739,0.02040975475085245,-0.07961702996394168, ,0.00013739218604756688, ,0.00012241133885423542,7.768085322751925e-05,-0.0006649680297660904,0.093969605448335,-0.008605185015674704,-0.2204619167258711, ,0.0006805889592472375, ,0.09436278904986654, ,1.195195220600855e-05, ,0.20309242912635617,-0.17505118606004696,0.09518268583000002,2.371383570866486,1.2705828113188307,-0.9423078927916572, ,-0.0005649197812269111,0.0008730844498375404,0.0006771088386365974,0.0049560557234785965,0.0,-0.235264605884551, ,0.09350180625915527
0.010203712803292193,0.020477975067133808,-0.07954097056287134, ,0.010260614998497581,0.02042748876157361,-0.07967489486223406, ,0.00015402092334519302, ,0.000401388232455945,0.00014211412668479955,-0.001457482997111152,-0.1125942227210887,0.011510685372521846,0.2527731173063728, ,0.0015184089123242122, ,0.11318107115549286, ,1.2508426420284479e-05, ,0.2030769836606077,-0.1750589087929212,0.09520342647,2.3715932608099703,1.2689431733216454,-0.938765551963505, ,0.0010776924432578986,0.0016312633011012318,0.0014935884708776118,0.0020851553240490662,0.0,0.2786476803344744, ,0.1168677806854248
0.010209879635999446,0.02048676882003514,-0.07957282720693332, ,0.01027376624168149,0.02044495126173636,-0.07973306267891936, ,0.0001774982057662396, ,0.00029998983708247665,0.0005751556295252576,-0.0020806587374192108,0.05341783858177092,0.03963080078878383,-0.014994996233744683, ,0.002179435404439937, ,0.06651365160528633, ,1.3236397830887184e-05, ,0.20308470639348195,-0.17505118606004696,0.09524750033000001,2.371802950753455,1.2701729018195345,-0.9369912359319936, ,-0.0003902402234829551,-0.0008791389696221858,0.0026834251212938007,0.002440980499952396,0.05857297165694852,-0.030848595048583324, ,0.13378000259399414
0.010220566777514381,0.02049894877608916,-0.07963032998753322, ,0.010287177712863398,0.020462143842056406,-0.07979153118354369, ,0.00017826229402886305, ,0.0007220173323848155,0.000622890230806155,-0.0033310801379595723,-0.0022789113752737077,-0.007381091044520667,-0.014799188172992596, ,0.0034648803952527125, ,0.007724891044779948, ,1.3796133388448053e-05, ,0.2030769836606077,-0.1750666315257954,0.09530972225,2.371802950753455,1.2704461748190652,-0.9372140717393865, ,0.0,-0.0003119486659673242,0.0033733188310038124,0.002440980499952396,-0.010730063570375148,-0.01056737574432478, ,0.1516737937927246
0.010241114993301242,0.02051691962291205,-0.07970757501984445, ,0.010300848072820216,0.02047906808940199,-0.07985029815144662, ,0.00015928173678176027, ,0.0008474781733417312,0.0007252315984003891,-0.003323145710046218,0.005672452642023989,-0.002026258187560453,-0.03267540745962541, ,0.0035053498449951616, ,0.0060234907498383705, ,1.4027876898201092e-05, ,0.20308470639348195,-0.1750666315257954,0.09539138852000001,2.3724320205839082,1.2704461748190652,-0.9374591079598082, ,0.0004355480846252503,-0.00023714437167824147,0.0034463027953266986,0.01819280107387872,-0.006018964239584279,-0.01483558442601978, ,0.1715409755706787
0.010248015340015116,0.020523129891759095,-0.0797398148195693, ,0.010314775985731288,0.0204957255867977,-0.0799093613637548, ,0.00018426614011289773, ,0.0007784789028215877,0.000671954671459647,-0.003057707353826587,0.005085071115688152,0.0025742681395465794,-0.020733372374569008, ,0.003226007864881909, ,0.005699544230778675, ,1.4459125634778415e-05, ,0.20308470639348195,-0.17507435425866963,0.09542379577000001,2.3724320205839082,1.2703095383193,-0.9373476900561117, ,0.00041227055184442243,-4.852307770843943e-05,0.003218591941806426,0.018046135957300386,0.0,-0.00364414766115382, ,0.18810081481933594
0.010260566838976214,0.020535433005229378,-0.07980076592320717, ,0.010328960119174802,0.02051211791342819,-0.07996871860737673, ,0.00018283691750239648, ,0.0006660356780770579,0.0006286869446242439,-0.0026572023493492136,0.004569260723085196,0.0020802271225742863,-0.016202905657789812, ,0.002810618281481766, ,0.005020506777662095, ,1.4933943533781936e-05, ,0.20308470639348195,-0.17508979972441807,0.09548731398000002,2.3724320205839082,1.2703095383193,-0.9372660113159712, ,0.0003255504393288516,-0.0006689889023073637,0.0028068390343612337,0.01445617761729551,0.0,-0.0026148459644288165, ,0.20693492889404297
0.010272994620642618,0.02054644049663469,-0.079858042056896, ,0.010343399144124247,0.020528246644641958,-0.08002836767499623, ,0.00018519889135259874, ,0.00077270980160868,0.0007120340446721999,-0.0033943583502860333,0.0033209320168253132,0.0020554366036128337,-0.01307541826512537, ,0.003553271946872474, ,0.003905561245358949, ,1.535722186335328e-05, ,0.20309242912635617,-0.17509752245729232,0.09554694332000001,2.3724320205839082,1.2703095383193,-0.9371843325758307, ,-3.539153113381965e-05,-0.0002682294551169873,0.0035531589382110196,0.01201189076093714,0.0,-0.0016860114853785887, ,0.2218778133392334
0.010280637539910823,0.020553954594822895,-0.07988866194949908, ,0.010358091734944948,0.020544113351955214,-0.08008830636506754, ,0.0002143685962477711, ,0.0007204470864521607,0.0007030061286886281,-0.003514087512989979,0.0013354109592775654,-1.875803663462815e-05,-0.0010726377170350806, ,0.00365541689418639, ,0.001335542495850579, ,1.5947559843799725e-05, ,0.20309242912635617,-0.17510524519016654,0.09557935057000001,2.372641710527393,1.2703095383193,-0.9371843325758307, ,-3.936203155585028e-05,-0.0008137183146081865,0.0036601129411764715,0.0,0.0,-0.001350134614992054, ,0.23975896835327148
0.010299632279649827,0.020572938507618193,-0.07996971773791417, ,0.010373036569390339,0.0205597196030554,-0.08014853248180871, ,0.00019374633370523444, ,0.0008603393081730996,0.0008710884813185921,-0.0039136173843400245,0.002888157744050979,0.0017157464564060737,-0.008338875846010868, ,0.004100656032695519, ,0.0033593511485237385, ,1.6311460533010138e-05, ,0.20308470639348195,-0.1751284133887892,0.09566360942,2.373061090414362,1.2701729018195345,-0.9371545934122747, ,-6.446313542745198e-05,-0.001244960551428927,0.004105363793814433,0.00935899963596047,0.0,0.0004764710984661369, ,0.2557668685913086
0.010306223195614542,0.020579262678424488,-0.08000480371486653, ,0.01038823232859858,0.020575066961805166,-0.08020904383519606, ,0.0002201297996250511, ,0.0008930791982869292,0.0008197922456634358,-0.003957934421616849,0.0018421941172453615,0.001002488903418571,-0.006481500416868781, ,0.004139431683973323, ,0.002097298785536788, ,1.681028131415272e-05, ,0.2030769836606077,-0.17513613612166343,0.09574138682000001,2.373061090414362,1.2701729018195345,-0.9370729146721342, ,0.0003587871880047683,-0.000661018770362108,0.0041395040332640335,0.0076149328357899004,0.0,0.0007964003217369629, ,0.27066588401794434
0.010323801076266114,0.020594791513959064,-0.08008708338738184, ,0.010403677697088843,0.020590156988246195,-0.08026983824095861, ,0.00019950210497262613, ,0.0009546052733097399,0.0008638863039583983,-0.004289128056660555,0.0008480055584331361,0.0009932319889418,-0.004187739746170386, ,0.004478190511850787, ,0.001305994547996704, ,1.7119317039442794e-05, ,0.20308470639348195,-0.17513613612166343,0.09578546068,2.373061090414362,1.2701729018195345,-0.9369912359319936, ,0.00032933613192754534,-0.0005252568572750025,0.004478158987911161,0.006940578052606285,0.0,0.0026202934757738458, ,0.28658580780029297
0.010340455326911406,0.020610213686991216,-0.08016146057109826, ,0.010419371362757873,0.02060499123860273,-0.0803309135205718, ,0.00018700084696646145, ,0.0006924518124653107,0.0005608399712914039,-0.0030019057961326655,-0.001938117359080577,-0.0006712987187046302,0.004941116691639746, ,0.0031313686136958596, ,0.0020510827929489145, ,1.7318874576482045e-05, ,0.20308470639348195,-0.17514385885453765,0.09586323808000001,2.3732707803578466,1.2701729018195345,-0.9368278784517123, ,0.0009026195193387833,-0.00019926662551142892,0.0031263614367026504,0.0,0.0,0.005350093601246067, ,0.3026008605957031
0.010349989831505332,0.02061835461956903,-0.08019167522437853, ,0.010435312016876487,0.020619571265285533,-0.08039226750125227, ,0.00021798765351436082, ,0.0008035651468798156,0.0006877287677859464,-0.003268380230632592,0.001102574848189096,0.0017933538015210506,-0.008557886253668469, ,0.0034352579430532303, ,0.002105181412688389, ,1.7675873325482175e-05, ,0.20309242912635617,-0.17514385885453765,0.09589564533000002,2.373690160244816,1.2701729018195345,-0.9367461997115718, ,0.0005982286454587271,-0.0001799851679070008,0.003429238217438106,0.012726113925223773,0.0,0.004016774241466111, ,0.31754493713378906
0.01036537345740451,0.020633154162441006,-0.08026637644737225, ,0.010451498354085719,0.02063389861689557,-0.08045389801595121, ,0.00020635501138352926, ,0.0009887259681474476,0.0008701444411922323,-0.004268823802527321,-0.0005248651253945591,0.0016475865131477122,-0.003256372223232825, ,0.004467391525896367, ,0.0017291683841091563, ,1.7934191092991408e-05, ,0.20309242912635617,-0.1751593043202861,0.09597342273000001,2.373690160244816,1.2701729018195345,-0.9365828422312907, ,0.0005134237370345627,-0.00036497069523512424,0.004464353004484305,0.010544915839077917,0.0,0.007466806376050723, ,0.3333168029785156
0.010375745190525476,0.020642362119480326,-0.08031364851058123, ,0.010467929072393566,0.02064797483822783,-0.08051580290334948, ,0.00022225158987846682, ,0.0010940169349757472,0.0009785968433647443,-0.0048654778222603995,-0.000656211202174617,0.0015775724284466921,-0.0021488271921744875, ,0.005082066437460747, ,0.0017086091367590854, ,1.8251086249457783e-05, ,0.2031001518592304,-0.17516702705316034,0.09602268175,2.373690160244816,1.2701729018195345,-0.9365828422312907, ,0.0003867846183207822,-0.0004597038613854466,0.005080960612440192,0.009416379726620426,0.0,0.007466806376050723, ,0.3479959964752197
0.010397894968204431,0.020661574371067387,-0.08041033697714636, ,0.010484602873171447,0.020661801470275066,-0.08057798000785082, ,0.0001887392330746218, ,0.0009234040806655276,0.0008585541955799835,-0.004541558459657675,-0.00125009201869522,0.0003289146218512076,0.003978428242024004, ,0.004713336784638451, ,0.001292637981646643, ,1.8372874591893115e-05, ,0.2031078745921046,-0.17517474978603456,0.09612249608000001,2.3738998501883,1.270036265319769,-0.9363080668473134, ,-0.0001445962232054614,-0.00045121643756733723,0.0047168526858158135,0.0,0.0,0.004243689945675046, ,0.3627049922943115
0.010402787144728746,0.020665866896467114,-0.08043409099990853, ,0.010501518461150303,0.020675380050231507,-0.08064042717957742, ,0.0002289388389444481, ,0.0008736758285732422,0.0008147766550787978,-0.004299216663113884,-0.00125009201869522,0.00032666236185911713,0.003978428242024003, ,0.004462110976599597, ,0.001292066904271983, ,1.876500780820557e-05, ,0.2031078745921046,-0.17517474978603456,0.09614712559000001,2.3738998501883,1.270036265319769,-0.9363080668473134, ,-0.00014234396321337095,-0.00045121643756733723,0.004465604575273339,0.0,0.0,0.004243689945675046, ,0.38072776794433594
0.010417698389192516,0.020680622147764897,-0.08049008301365937, ,0.010518674544417453,0.020688712111496765,-0.0807031422743626, ,0.00023591498470550344, ,0.0006181953044821221,0.0005980045653557963,-0.002495712600443019,0.0016037215443465592,0.002389901514283677,-0.008935105234473826, ,0.0026397644362102035, ,0.002878116040564555, ,1.9160376113458374e-05, ,0.2031001518592304,-0.17518247251890878,0.09620675493000001,2.374528920018754,1.270036265319769,-0.9362263881071728, ,0.00020006918417467772,-0.0007022166831148058,0.002637220450331126,0.01372512103556535,0.0,0.004541545554369785, ,0.3937978744506836
0.010432842752470197,0.020694067867641292,-0.08055711386373615, ,0.010536069834412727,0.020701799183679506,-0.08076612315374543, ,0.00023323911979819, ,0.000667100582103032,0.0005960861577788582,-0.004051350397711802,-0.00792982066513044,-0.0048253738018227245,0.033952648416796426, ,0.004148949498267886, ,0.009282579760875148, ,1.9515736606305146e-05, ,0.2031001518592304,-0.17518247251890878,0.09627675459000001,2.3747386099622383,1.270036265319769,-0.935981351886751, ,0.00017483246733233012,-0.0005227579946967369,0.00414596864133264,-0.028435992434819958,0.0,0.007010044632360707, ,0.40646886825561523
0.01044056694150919,0.02070084583505555,-0.08059462022385167, ,0.010553703045925145,0.020714642792601164,-0.08082936768496571, ,0.00026095306984096295, ,0.0008424571570658113,0.0007500366821050263,-0.004762900391638352,-0.006893391954892651,-0.0040147357685163705,0.02906972805907353, ,0.00489464086799668, ,0.00797727732272756, ,1.9965638653474766e-05, ,0.2031001518592304,-0.17518247251890878,0.09631564329000002,2.3747386099622383,1.270036265319769,-0.935981351886751, ,0.00016191125894564242,-0.00047153644293344876,0.004893644092165899,-0.02376001514686455,0.0,0.006613998031732416, ,0.4228248596191406
0.010462607003450024,0.020719482494273276,-0.08070503868080894, ,0.01057157289708909,0.02072724446029989,-0.08089287374095729, ,0.00021729202450639985, ,0.001228447703991301,0.0011082358138667999,-0.005862845875896173,-0.0004159280123363306,0.0005011151009252606,0.0006716835326100213, ,0.006091816818084016, ,0.000651233851136478, ,2.0204505521850707e-05, ,0.2031078745921046,-0.17518247251890878,0.09642971681000001,2.374528920018754,1.270036265319769,-0.9358996731466105, ,6.490084381131647e-05,-0.0003900227228373502,0.006093653986228004,0.002443051529463962,0.0,0.0032193369423114924, ,0.43668699264526367
0.010472982680998388,0.020728695043870413,-0.08075230899465514, ,0.010589678109381091,0.020739605705034116,-0.0809566392003427, ,0.0002355582698373574, ,0.0010196097951531411,0.0008676399792132436,-0.004703521067394439,-0.0028555063339241876,0.00042143359511135996,0.005217712702261701, ,0.004890349036554008, ,0.0028864373189306995, ,2.0501381930134047e-05, ,0.20311559732497883,-0.175190195251783,0.09647897583000001,2.374528920018754,1.270036265319769,-0.93581799440647, ,0.00040955895058321563,0.0,0.004887637778459651,0.0026481445346895967,0.0,0.008483557504741416, ,0.449509859085083
0.010496359657371107,0.020748533091331588,-0.08084346290328681, ,0.010608017407615966,0.02075172804128655,-0.08102066194742695, ,0.00020946876172626993, ,0.0010947969537532993,0.0008905805460063441,-0.00442309005694746,-0.0017245301101952288,0.0008453583445256158,-0.000673291687352289, ,0.00464278361877225, ,0.0019205814585011472, ,2.06782601647068e-05, ,0.2031387655236015,-0.17519791798465723,0.09657490129000001,2.3749482999057228,1.270036265319769,-0.9356546369261889, ,0.00141193755164762,-0.0002636891568962986,0.004631814922942717,0.010406748953547183,0.0,0.010162729706968406, ,0.46322083473205566
0.010508745762269319,0.020757912195086273,-0.08088774592953708, ,0.010626589519943351,0.02076361297976764,-0.0810849398721919, ,0.00022979360563007243, ,0.001224048286383204,0.0009211232037028777,-0.004379002973230098,0.0007443549229442635,0.0005467031324769408,-0.00944492302445303, ,0.004639227220492175, ,0.0009235512742587109, ,2.092115648286687e-05, ,0.20316193372222419,-0.17519791798465723,0.09661767886000001,2.3751579898492077,1.270036265319769,-0.9355729581860484, ,0.002671262075014635,-0.0002451627599894439,0.0045641293753581665,0.01640201425337599,0.0,0.006904105876256779, ,0.47779297828674316
0.010528815085175489,0.020775030188842435,-0.0809838996467675, ,0.01064539317784425,0.02077526202741956,-0.08114947087029069, ,0.00020249527278032423, ,0.0011693607595153121,0.0009776796606267377,-0.0047700798406265605,-0.0016138377506527708,0.0020746003939630126,-0.003446114806138614, ,0.005007686470881474, ,0.0026283904980908455, ,2.1049823226154008e-05, ,0.20316193372222419,-0.17519791798465723,0.09672008577,2.3751579898492077,1.2698996288200035,-0.9352165040619301, ,0.0010848589696033474,-0.00020752961027015868,0.0049980582114841545,0.015092402678719861,0.0,0.01208158618191279, ,0.49141693115234375
0.010539084678637822,0.020784697621182922,-0.08103375014287584, ,0.010664427116127388,0.02078667668742007,-0.08121425284304165, ,0.0002197632091732969, ,0.001115634484981734,0.0009240046838327933,-0.0046703484372689836,-0.0016122052682721257,0.001953176832784829,-0.003221968496329137, ,0.0048898445256803655, ,0.002532608012535635, ,2.1232615480118652e-05, ,0.20316193372222419,-0.17520564071753145,0.09677193737,2.3751579898492077,1.2698996288200035,-0.9351348253217895, ,0.0008235138305950046,7.176117697770653e-05,0.004881646190622128,0.013294660622872507,0.0,0.010495117034436847, ,0.5098638534545898
0.01055619160179426,0.020797399433126577,-0.08110742417554502, ,0.01068369007292563,0.020797858459186035,-0.08127928369742211, ,0.0002139901074946767, ,0.0011319681128993616,0.0009832162391954396,-0.004928995351372376,-0.0012333997988418861,0.0018668247490302731,-0.002394349858014882, ,0.005151995841951841, ,0.0022374777759905148, ,2.145956617155562e-05, ,0.20318510192084685,-0.17519791798465723,0.09684841848,2.3751579898492077,1.2698996288200035,-0.9351348253217895, ,0.0005246008906576725,-0.0002241860049543631,0.0051482907304460255,0.011380114605988402,0.0,0.009317810701468459, ,0.5224969387054443
0.010567555672283884,0.02080587440518191,-0.08114670461926185, ,0.010703180789692497,0.020808808838377303,-0.08134456134606406, ,0.00023989595184405115, ,0.0010862878200145094,0.0007473679277596657,-0.00387475806394623,-0.0025889339956500735,-0.0022071519040969684,0.004752876626289866, ,0.004092961043238989, ,0.0034020725871403575, ,2.1763562743227354e-05, ,0.20320827011946951,-0.17519791798465723,0.09688989976000001,2.3753676797926917,1.2698996288200035,-0.9351348253217895, ,0.0031907729016287163,-0.0002241860049543631,0.004065546584992343,0.0034410482811189145,0.0,0.008761559556013546, ,0.5337457656860352
0.010578037233041706,0.020814123154139434,-0.08118481609244989, ,0.010722898011198521,0.020819529316900506,-0.08141008370724598, ,0.0002678793943548419, ,0.0009711221230652307,0.0008242416737752893,-0.003951037076840754,0.0013792671161885544,0.0012301063623837232,-0.008205962278309093, ,0.0041512825123406075, ,0.0018481175497605394, ,2.2146127164261296e-05, ,0.20322371558521798,-0.17519791798465723,0.09693008475,2.375577369736176,1.2698996288200035,-0.935053146581649, ,0.000976570454530393,-0.00039060124914828156,0.004143811529656608,0.011807666714862337,0.0,0.003387040589122616, ,0.5450489521026611
0.010589663974493119,0.020824584221605793,-0.08123160273766171, ,0.010742840485527807,0.020830021382912765,-0.08147584870488922, ,0.00028835516080476193, ,0.0010070888867066943,0.0007591766090293237,-0.004417084525459492,-0.003053934429896683,0.0010946005840790473,0.0007306629453873336, ,0.004593605648559647, ,0.0032441738947450866, ,2.2577623185798295e-05, ,0.2032314383180922,-0.17520564071753145,0.09697934377,2.375787059679661,1.2698996288200035,-0.9349714678415083, ,0.0005903402286605523,0.001024965697209079,0.004582511944764097,0.007437301485852798,0.0,0.008852991513341325, ,0.5619068145751953
0.010622547361920719,0.020850117907278014,-0.08137238017059778, ,0.010763006964074229,0.02084028652082567,-0.08154185426855075, ,0.000220333896333882, ,0.0014420776656593804,0.0009899483728440838,-0.005756138831160515,-0.003405747450243376,-0.001159465798859798,0.0020866146875398468, ,0.006016038565225807, ,0.0035977034778382233, ,2.2774745128941627e-05, ,0.20327777471533753,-0.17520564071753145,0.09712582454000002,2.375787059679661,1.2698996288200035,-0.9346447528809461, ,0.002597623889215721,0.001094867843897319,0.005988275007518798,0.006020513203690495,0.0,0.00885717667147793, ,0.5746908187866211
0.010636531784746708,0.020860219545512686,-0.08142431744817995, ,0.010783396201538354,0.020850326211308584,-0.08160809833341831, ,0.00023546220240246822, ,0.001193969094104152,0.0008462434609985666,-0.004681472584401374,-0.002521469766987037,-0.002339579767170531,0.005322239029366625, ,0.004904882847883363, ,0.003439686181061037, ,2.3010159947826697e-05, ,0.20330094291396023,-0.17519791798465723,0.09718026872,2.3759967496231456,1.2698996288200035,-0.9345630741408055, ,0.0027007135419484358,9.455036169145484e-05,0.00488314270999387,0.0004759199293374922,0.0,0.006331586701535845, ,0.5857298374176025
0.0106488420051854,0.0208688057200864,-0.081471494495177, ,0.01080400695592324,0.020860141931292885,-0.08167457884030388, ,0.00025572343343805586, ,0.001192319297149201,0.000829218358177048,-0.004596228377844874,-0.005310267858877725,-0.002221631953404858,0.011674534964882114, ,0.004820222369683657, ,0.0057562653880983755, ,2.3296985141169936e-05, ,0.2033318338454571,-0.17519791798465723,0.09722952774000002,2.3759967496231456,1.2698996288200035,-0.934481395400665, ,0.0028876484179352372,0.00011772439146941315,0.004796390099367661,0.0004759199293374922,0.0,0.01327100244910152, ,0.5974628925323486
0.010659304068985406,0.02087592389549736,-0.08150318820006737, ,0.010824837988531441,0.0208697351539756,-0.08174129373563843, ,0.0002900586580529511, ,0.0013523774521735966,0.000862847843274153,-0.004297993661867791,-0.0022263347425853044,-0.001549208005420897,-0.0022351443009066057, ,0.004587611654362879, ,0.0027123072029997955, ,2.3673779687356174e-05, ,0.20336272477695402,-0.17519791798465723,0.09726323128000001,2.37620643956663,1.2698996288200035,-0.9343997166605243, ,0.004506465620085577,0.00012546928665376983,0.004536830395898605,0.01388619031660289,0.0,0.012206343986525876, ,0.6097829341888428
0.010674922076626457,0.02088581103878931,-0.08155883887640028, ,0.010845888063961112,0.02087910734882294,-0.08180824097146523, ,0.000302449521916081, ,0.001384957139687916,0.0009356173823016855,-0.004702706662039574,0.00012010610532514791,-0.000934144656282949,-0.006978459653216843, ,0.004990885303633914, ,0.0009418330082009552, ,2.407125952486951e-05, ,0.20340906117419935,-0.17519791798465723,0.09732026804,2.37620643956663,1.269762992320238,-0.9342066200166875, ,0.003901220046762916,0.0001242600223303582,0.0049529886567164175,0.01388619031660289,0.00035372351588534243,0.0069266568550069435, ,0.6217539310455322
0.01070546838569009,0.020907050523261132,-0.08167552449034719, ,0.010867155950102608,0.02088825998157445,-0.08187541850543513, ,0.0002577858999451042, ,0.0015791295971448972,0.0011277181933234258,-0.005799067741046665,-0.002135079906750575,-0.0005526480155416626,-0.001306442477228051, ,0.006115111223304097, ,0.0022054431479858554, ,2.4325638679487798e-05, ,0.2034862885029416,-0.17519791798465723,0.0974421193,2.37620643956663,1.269762992320238,-0.934124941276547, ,0.0033038764924949843,0.00011213444400921186,0.0062810770977918,0.011731208045716618,0.00035372351588534243,0.010674440590768488, ,0.633497953414917
0.01070546838569009,0.020907050523261132,-0.08167552449034719, ,0.010888640418134875,0.020897194514246452,-0.08194282430080004, ,0.00032418871518264845, ,0.0015884527712411558,0.0011553165484257544,-0.005994373229700668,-0.0017908004187253196,-0.0005472375983058635,-0.001464847580970446, ,0.006307967101252362, ,0.0018725456974662857, ,2.475555277006387e-05, ,0.2034862885029416,-0.17519791798465723,0.0974421193,2.37620643956663,1.269762992320238,-0.934124941276547, ,0.0033038764924949843,0.00011213444400921186,0.0062810770977918,0.011731208045716618,0.00035372351588534243,0.010674440590768488, ,0.6477549076080322
0.010719844468506524,0.020916922799192567,-0.08172612495309335, ,0.010910340242521866,0.020905912405135976,-0.0820104563264071, ,0.00034242400404392044, ,0.001668922671208978,0.001216193239238812,-0.006509745887597301,-0.0008936094204584093,-0.002135641624575242,0.00012725675189231205, ,0.00682943778057429, ,0.002315057505721578, ,2.5288219493754907e-05, ,0.2035171794344385,-0.175190195251783,0.09749526719000001,2.3764161295101145,1.269762992320238,-0.9340432625364065, ,0.0034984833821431077,0.0,0.0068042765997437,0.005073235347048635,0.00035372351588534243,0.005378123190153047, ,0.6591119766235352
0.01076310646441951,0.020948779603178275,-0.08187196548183268, ,0.010932254201009012,0.02091441510882452,-0.0820783125566934, ,0.0002690185691901553, ,0.0019871513567546583,0.0013996395612784313,-0.006230555368734165,0.004814466239136027,0.00269502618380451,-0.03142895765382259, ,0.006687868241750108, ,0.0055174488588350225, ,2.5605217472748488e-05, ,0.2036098522289292,-0.175190195251783,0.0976495257,2.3772548892840524,1.269762992320238,-0.9338799050561254, ,0.005182034934410983,0.0,0.006620453665835412,0.041462204582365166,0.00035372351588534243,0.00923746999425087, ,0.6689357757568359
0.010781717929355563,0.02096068193935125,-0.08193356394454644, ,0.010954381074619697,0.02092270407618176,-0.08214639097167954, ,0.0002766771101875568, ,0.001286552225204767,0.0007228367535567751,-0.005464921984396363,-0.0036259020412270707,-0.012552646390867284,0.029685651021676866, ,0.005660660906290936, ,0.013065836833220558, ,2.5932466955065152e-05, ,0.20366391135904877,-0.17518247251890878,0.09771434020000001,2.3774645792275373,1.269762992320238,-0.933553190095563, ,0.005046760143867265,0.00014098714766431938,0.005624580338983051,-0.041546132659098366,0.00035352047213236214,-0.011401372781423646, ,0.6787979602813721
0.010796393084709952,0.020969534164916356,-0.08198572516339561, ,0.010976719647651723,0.020930780754369438,-0.08221468955696426, ,0.00029401392765253365, ,0.0014112440469060477,0.0008399216063940472,-0.005709960560317705,-0.0034543029516872726,-0.010465990087668981,0.023851819316004292, ,0.005941441547738982, ,0.011021304429492196, ,2.629482068784563e-05, ,0.20371024775629412,-0.17517474978603456,0.09776878438000002,2.3774645792275373,1.269762992320238,-0.9334715113554225, ,0.005088986616890457,9.968499370538638e-05,0.0059061221802002226,-0.03062568524682315,0.0003510568828419862,-0.006281800770009212, ,0.6901178359985352
0.010813373492257826,0.020979289211312008,-0.08204271851351869, ,0.010999268707673458,0.020938646586844897,-0.08228320630371817, ,0.0003066646886634179, ,0.0013745637331337272,0.0007885934957460021,-0.00532947810276691,-0.008233564427509454,-0.008473143486873834,0.030307580649305194, ,0.005560093704772557, ,0.011814640893042306, ,2.6678572658300124e-05, ,0.20377202961928792,-0.17516702705316034,0.09782841372000001,2.3774645792275373,1.269762992320238,-0.933553190095563, ,0.00502356614743274,0.0004320288076433757,0.005521251826689776,-0.02332524034559552,0.0003481681761333206,0.008526383432896675, ,0.7008318901062012
0.010828801763393368,0.02098945527524137,-0.08209846873068057, ,0.011022027045520813,0.02094630301336521,-0.08235193920867842, ,0.00032162930615029514, ,0.001456239793004317,0.0008848869809539953,-0.005708370323413906,-0.007056899202704104,-0.007417408621690866,0.02532318546687591, ,0.005957277150932606, ,0.010238055037800427, ,2.708861801413894e-05, ,0.20381836601653325,-0.17516702705316034,0.09788674677,2.3774645792275373,1.269762992320238,-0.933553190095563, ,0.004715909756014929,0.0004320288076433757,0.005921491271375466,-0.01883842041857133,0.0003451275867167351,0.007809637865089572, ,0.7117347717285156
0.01084593627125233,0.02099988667790237,-0.08215929282946112, ,0.011044993455293183,0.02095375146999055,-0.08242088627414262, ,0.0003319387748180016, ,0.0017785593279930787,0.001127578290481432,-0.007013556825479553,-0.00635351601512117,-0.007351248469647531,0.021916998897402028, ,0.0073228877793249745, ,0.009716378072435998, ,2.7512135680971863e-05, ,0.20387242514665282,-0.1751593043202861,0.09795026498,2.3774645792275373,1.269762992320238,-0.933553190095563, ,0.005113881044684408,0.0005704609096556506,0.0072834071879286704,-0.01598976660208754,0.0003422198072645984,0.0071217506879181994, ,0.7224388122558594
0.010865802926726061,0.021013253719867092,-0.08223644946766447, ,0.01106816673435012,0.02096099338908826,-0.08249004550796274, ,0.00032862319526196496, ,0.0017782879667684825,0.0011936715012883124,-0.007438227454503134,-0.005752875425896027,-0.005780615009446657,0.01874436602497462, ,0.007740438450802749, ,0.008155431489758499, ,2.7914969132144605e-05, ,0.20391876154389818,-0.17515158158741187,0.09803063496000002,2.3774645792275373,1.269762992320238,-0.9334715113554225, ,0.0038904282945744777,0.0008308844272807425,0.007709976534365925,-0.01372562320110951,0.0003389557187809976,0.0061004255601753606, ,0.7332308292388916
0.010901448530639752,0.021035128406990546,-0.08237107192580811, ,0.011091545683307842,0.020968030199336404,-0.08255941492353994, ,0.0002758843629449168, ,0.001800531874666993,0.0011569669701118983,-0.006623228585395515,-0.003911290720027001,-0.004467090493184634,0.00815601892706697, ,0.0069604342174911776, ,0.005937430405959236, ,2.817806269562045e-05, ,0.20402687980413733,-0.17513613612166343,0.09817063428000002,2.3772548892840524,1.269762992320238,-0.9332264751350009, ,0.005090071108917529,0.0005833961376066496,0.006916548640903171,0.0,0.00033246467295513035,0.008938453352988584, ,0.7468948364257812
0.010922183843740219,0.02104820779320993,-0.08243760068283947, ,0.01111512910603545,0.020974863325727833,-0.08262899253981862, ,0.00028149267853771353, ,0.001961951179246201,0.001110296757674161,-0.006420674860825549,-0.0030824576397109065,-0.005946653307740693,0.00418431274555491, ,0.006804930344117013, ,0.006698075824526007, ,2.8447020356778323e-05, ,0.20409638440000535,-0.1751284133887892,0.09824193023000001,2.3774645792275373,1.2698996288200035,-0.9333378930386972, ,0.007250380491424412,0.000982596515225941,0.006732380185967879,0.003126561829703683,0.0005999977262739894,0.007904553878826066, ,0.7565197944641113
0.010942422792563206,0.02105968630174672,-0.08250042533621547, ,0.011138915809651564,0.02098149418957357,-0.08269877638127955, ,0.00028994249300265656, ,0.0018329485231801564,0.0010411716485023285,-0.005929662267084198,-0.0010284150287825215,-0.00450921536401315,-0.0033187170957495933, ,0.0062932212174653035, ,0.004625003063750842, ,2.8728294816358484e-05, ,0.20416588899587337,-0.17511296792304076,0.09830804102000001,2.3776742691710218,1.2698996288200035,-0.9332562142985567, ,0.006542866993344755,0.0011000638810234463,0.00622462349355217,0.008068686570592204,0.0005999977262739894,0.0049416472687156, ,0.766730785369873
0.01095875088093614,0.02106747320851183,-0.08255397436865865, ,0.011162904604520678,0.020987924208506863,-0.08276876447793576, ,0.00030682499457914764, ,0.001904141449450168,0.0009265405473469915,-0.005995004171619902,-0.004456223057927192,-0.005135070584167891,0.0014001385339150808, ,0.006358011250629577, ,0.006799034203672419, ,2.9108675983018984e-05, ,0.20422767085886717,-0.17508979972441807,0.09836378149000001,2.3776742691710218,1.2698996288200035,-0.933174535558416, ,0.00726403330568515,0.0025226747935551204,0.0062687176387249115,0.007402088038637368,0.0005999977262739894,0.009707421571907134, ,0.7775888442993164
0.010960424008261565,0.021068376464328083,-0.08255888949229698, ,0.011187094304249608,0.020994154796486923,-0.08283895486532529, ,0.00036786531805800673, ,0.001927240985233655,0.0009321782201785467,-0.006026439231948678,-0.002793541272199266,-0.005532844333199054,-0.002381553654121681, ,0.006395403338782458, ,0.0061980828734416555, ,2.962093851330219e-05, ,0.2042353935917414,-0.17508979972441807,0.09836896665000001,2.3776742691710218,1.2698996288200035,-0.9330928568182754, ,0.0074636538811327915,0.0025226747935551204,0.0063034473763355775,0.007334628895269073,0.0005999977262739894,0.005507253150390721, ,0.7891368865966797
0.010996198973035345,0.02108936855119463,-0.08267760691480193, ,0.011211483725683912,0.021000187363802474,-0.08290934558450624, ,0.00032863904202628543, ,0.0018755435903010666,0.001109312464595015,-0.0063561761680085834,-0.004932794914429242,-0.0054266138075156015,0.010352276743611858, ,0.006719316437107688, ,0.007333525257946582, ,3.0032178489292566e-05, ,0.20435123458485474,-0.1750666315257954,0.09849341049000002,2.3778839591145062,1.2698996288200035,-0.9329294993379943, ,0.006521251768808393,0.000670289059289161,0.0066592021404682285,0.0008359626989871239,0.0005999977262739894,0.01215927363424996, ,0.7972309589385986
0.011017261085513989,0.02109879747697106,-0.08274754935173124, ,0.011236071688904531,0.021006023317075843,-0.08297993468205023, ,0.00033239745282997974, ,0.002050645616961473,0.0009370251720275669,-0.007246496144497814,-0.007990793910948084,-0.005379285285459609,0.00800170650259714, ,0.00758912840790023, ,0.009632729495192111, ,3.0442621192859044e-05, ,0.204428461913597,-0.1750280178614243,0.09856600273,2.3778839591145062,1.2698996288200035,-0.9328478205978538, ,0.006397897254626008,0.004493256863698387,0.007499440451977402,0.0008359626989871239,0.0005999977262739894,0.010440477398429822, ,0.8053197860717773
0.011017261085513989,0.02109879747697106,-0.08274754935173124, ,0.011260857017223787,0.02101166405926642,-0.08305072021003719, ,0.0003985521041876703, ,0.002050645616961473,0.0009370251720275669,-0.007246496144497814,-0.007990793910948084,-0.005379285285459609,0.00800170650259714, ,0.00758912840790023, ,0.009632729495192111, ,3.0991260387120464e-05, ,0.204428461913597,-0.1750280178614243,0.09856600273,2.3778839591145062,1.2698996288200035,-0.9328478205978538, ,0.006397897254626008,0.004493256863698387,0.007499440451977402,0.0008359626989871239,0.0005999977262739894,0.010440477398429822, ,0.8135168552398682
0.011039895284853194,0.021112826613433503,-0.08282818558260142, ,0.01128583853718234,0.021017110989674796,-0.08312170022604967, ,0.00039471560637541084, ,0.0022356385709416072,0.0012581933443528864,-0.007687668369586235,-0.0069512639473308,-0.006280486485526088,0.012357429527561041, ,0.008104404683404723, ,0.00936827380623289, ,3.15193645819218e-05, ,0.20449796650946503,-0.17502029512855005,0.09865026158000001,2.3778839591145062,1.2698996288200035,-0.9326844631175727, ,0.007483650203630106,0.0017402262875971385,0.00802863483870968,0.0008359626989871239,0.0005999977262739894,0.014587009057819532, ,0.8220908641815186
0.011049867878548818,0.02111805156747651,-0.08286041571694187, ,0.011311015078545211,0.021022365503946105,-0.083192872793166, ,0.0004334528698156225, ,0.0022640979276108207,0.0013542136569596177,-0.0073682574992116985,-0.005115575867216618,-0.007400762038491278,0.01240741254864404, ,0.007826317948383964, ,0.00899668680600894, ,3.212035814816584e-05, ,0.20453658017383614,-0.17501257239567583,0.09868396512000001,2.3778839591145062,1.2698996288200035,-0.9326844631175727, ,0.008589296608326583,0.0,0.007747476420233463,0.0008359626989871239,0.0005999977262739894,0.014255900206067557, ,0.8310158252716064
0.011096549269614921,0.021144561381275954,-0.08300056721876917, ,0.011336385474298489,0.021027428994074077,-0.0832642359799556, ,0.0003751834442432315, ,0.00281141851824689,0.001495385069874687,-0.008920333769373364,-0.00171524337942914,-0.0067654457139279724,-0.006403852305256627, ,0.009471673830372776, ,0.006979488453846228, ,3.258281860830033e-05, ,0.20469875756419487,-0.17497395873130472,0.09883303847000001,2.3785130289449596,1.270036265319769,-0.9327142022811287, ,0.010291393727195616,0.002538535998462965,0.009358878683901293,0.013119407508140024,0.0013673745274697191,0.0069882230673079, ,0.8392448425292969
0.011096549269614921,0.021144561381275954,-0.08300056721876917, ,0.011361948560645692,0.021032302848404755,-0.08333578786047233, ,0.00044205388868995136, ,0.0029042366190435093,0.0015680242769036611,-0.009158279666850273,-0.0010694537767870773,-0.007286132947252328,-0.007070437854534069, ,0.009734853718911017, ,0.007364197191716348, ,3.317799940925651e-05, ,0.20479915309155977,-0.17495851326555625,0.09892248248,2.3785130289449596,1.270036265319769,-0.9327142022811287, ,0.010972663709013517,0.0022065466892389083,0.009624659528700907,0.013119407508140024,0.0013673745274697191,0.006211144691316486, ,0.8476409912109375
0.011124022283243225,0.021159292214654943,-0.08308842398442261, ,0.011387703177004055,0.02103698845164029,-0.0834075265142495, ,0.00043163902595105656, ,0.0029042366190435093,0.0015680242769036611,-0.009158279666850273,-0.0010694537767870773,-0.007286132947252328,-0.007070437854534069, ,0.009734853718911017, ,0.007364197191716348, ,3.3738651368971227e-05, ,0.20479915309155977,-0.17495851326555625,0.09892248248,2.3785130289449596,1.270036265319769,-0.9327142022811287, ,0.010972663709013517,0.0022065466892389083,0.009624659528700907,0.013119407508140024,0.0013673745274697191,0.006211144691316486, ,0.8558299541473389
0.011150905445163402,0.02117337380962591,-0.0831765224591565, ,0.011413648166001373,0.021041487184842517,-0.08347945002629291, ,0.00042212904434696613, ,0.002966825651107472,0.00158689794289317,-0.009303656413956076,-0.0009425839293387096,-0.007665546971076405,-0.0075765237059798405, ,0.00989334737054016, ,0.007723276838487815, ,3.433943471388981e-05, ,0.20490727135179893,-0.1749353450669336,0.09901711165,2.3785130289449596,1.270036265319769,-0.9325508448008474, ,0.011131759966262115,0.0022950777330801348,0.00977227700613497,0.013119407508140024,0.0013673745274697191,0.005653998395364231, ,0.8628649711608887
0.011171720003957024,0.021183841798154426,-0.08324487945281114, ,0.011439782373471933,0.021045800425436925,-0.08355155648707632, ,0.0004300740144177114, ,0.003161289130003714,0.0016116186751436927,-0.010031848773037044,-0.0019302070786827274,-0.008174447042391633,-0.008314376651293606, ,0.010640914130028321, ,0.008399237001826284, ,3.494672989140465e-05, ,0.20498449868054117,-0.17491217686831093,0.09908840760000001,2.3785130289449596,1.270036265319769,-0.9325508448008474, ,0.011616711837313545,0.0035218948651279413,0.010507131609498682,0.013119407508140024,0.0013673745274697191,0.005121067231019634, ,0.8705048561096191
0.011214025251895281,0.02120476798151484,-0.08338150023708406, ,0.011466104648453237,0.02104992954721649,-0.08362384399253464, ,0.0003824257558152692, ,0.00304387479829077,0.0015210680961622403,-0.009229304600435943,-0.003540839292135072,-0.008948273472803895,-0.0018742443959073921, ,0.009836609443729091, ,0.009623360851192907, ,3.544598675611587e-05, ,0.20514667607089987,-0.17486584047106557,0.09923099950000001,2.3785130289449596,1.270036265319769,-0.9323874873205663, ,0.012292349942807096,0.0027764247124147227,0.009694955276932442,0.011288601303146401,0.0013673745274697191,0.010061831758193163, ,0.8782169818878174
0.011214025251895281,0.02120476798151484,-0.08338150023708406, ,0.011492613843182576,0.02105387592034521,-0.08369631064405852, ,0.0004466381193526686, ,0.00304387479829077,0.0015210680961622403,-0.009229304600435943,-0.003540839292135072,-0.008948273472803895,-0.0018742443959073921, ,0.009836609443729091, ,0.009623360851192907, ,3.6068138128214244e-05, ,0.20514667607089987,-0.17486584047106557,0.09923099950000001,2.3785130289449596,1.270036265319769,-0.9323874873205663, ,0.012292349942807096,0.0027764247124147227,0.009694955276932442,0.011288601303146401,0.0013673745274697191,0.010061831758193163, ,0.8846697807312012
0.011244812378332341,0.021217338756390876,-0.08347213244648606, ,0.01151930881309314,0.021057640911361936,-0.08376895454848855, ,0.0004346896072376871, ,0.002956364165041535,0.000955969840170884,-0.008104994290547578,-0.005618514125845225,-0.01118168977376635,-0.006438325445293741, ,0.008680144000042102, ,0.012513906352678315, ,3.665602690296086e-05, ,0.2052856852626359,-0.17481950407382021,0.09932562867000001,2.3785130289449596,1.270036265319769,-0.9322241298402852, ,0.014065057293385322,0.0068475185752727066,0.008459273244822095,0.010029366737905016,0.0013673745274697191,0.004657756982082276, ,0.8911149501800537
0.011244812378332341,0.021217338756390876,-0.08347213244648606, ,0.011546188416810684,0.021061225883184306,-0.08384177381810917, ,0.0005018301399528778, ,0.003378368776849058,0.001221509228014396,-0.009865576183301158,-0.010452270717048155,-0.012486457509086113,0.007426483209278176, ,0.010499288252783233, ,0.01628377999150017, ,3.736929202814366e-05, ,0.20544013992012042,-0.17473455401220375,0.09942155413,2.378722718888444,1.2701729018195345,-0.9320905115235598, ,0.01508455596224301,0.007067485850919568,0.010283286972240156,0.004646695798318662,0.0017047948632785736,0.01408617353629098, ,0.8977398872375488
0.011278091263550649,0.021228174569128535,-0.08356301561896744, ,0.011573251516149791,0.021064632195112495,-0.08391476657064308, ,0.00048743657517456493, ,0.003378368776849058,0.001221509228014396,-0.009865576183301158,-0.010452270717048155,-0.012486457509086113,0.007426483209278176, ,0.010499288252783233, ,0.01628377999150017, ,3.804251793862571e-05, ,0.20544013992012042,-0.17473455401220375,0.09942155413,2.378722718888444,1.2701729018195345,-0.9320905115235598, ,0.01508455596224301,0.007067485850919568,0.010283286972240156,0.004646695798318662,0.0017047948632785736,0.01408617353629098, ,0.9042708873748779
0.011310210008525553,0.021241314203289154,-0.08365331381598648, ,0.01160049697611061,0.021067861202832636,-0.08398793092924547, ,0.0004757321509030896, ,0.0037178368765801166,0.0015001358365745658,-0.010691136349880552,-0.01410156051052765,-0.011108478489546504,0.012329264049915965, ,0.011418104703529896, ,0.017951383331364115, ,3.868196868793122e-05, ,0.20557914911185646,-0.17468049488208418,0.0995161833,2.378932408831929,1.2701729018195345,-0.9320088327834193, ,0.016224472825862674,0.006349175313878074,0.011193823977512299,0.014981343224765607,0.0017047948632785736,0.030165916214034354, ,0.9110159873962402
0.01133798999457193,0.02125159615066284,-0.08373030728390836, ,0.01162792366487491,0.02107091425842097,-0.08406126502249806, ,0.00047564745777925357, ,0.0038159462634296468,0.0012880200019541842,-0.010721925199893767,-0.0045272919335567815,-0.014032597213602028,-0.010383830883646274, ,0.011453389079348248, ,0.014744830114748435, ,3.931122277229892e-05, ,0.20570271283784405,-0.17461871301909038,0.09959784957000001,2.3791420987754135,1.2703095383193,-0.9318752144666941, ,0.017655244941110843,0.008504404967200592,0.011193823977512299,0.009958203932186627,0.0027665571899087777,0.00023992248734336537, ,0.9201548099517822
0.01133798999457193,0.02125159615066284,-0.08373030728390836, ,0.011655530453802958,0.021073792710347584,-0.08413476698440316, ,0.0005440897499134993, ,0.0038159462634296468,0.0012880200019541842,-0.010721925199893767,-0.0045272919335567815,-0.014032597213602028,-0.010383830883646274, ,0.011453389079348248, ,0.014744830114748435, ,4.006383922915555e-05, ,0.20570271283784405,-0.17461871301909038,0.09959784957000001,2.3791420987754135,1.2703095383193,-0.9318752144666941, ,0.017655244941110843,0.008504404967200592,0.011193823977512299,0.009958203932186627,0.0027665571899087777,0.00023992248734336537, ,0.9270849227905273
0.011392152822023372,0.021268424708580102,-0.08388825386263309, ,0.011683316217429433,0.02107649790348007,-0.08420843495437814, ,0.00047342153822080047, ,0.003957534599780625,0.0011579547791770995,-0.011564633241734268,-0.001646007023500942,-0.0019860550635245073,0.006924156751024362, ,0.012277771841621146, ,0.002579447030849415, ,4.0668407146731176e-05, ,0.20595756302269344,-0.17447198109448012,0.09976507098000001,2.3791420987754135,1.2707194478185961,-0.9320461106975022, ,0.0176749751459249,0.011936953664158735,0.012140862439024392,0.008502772714815367,0.02001578110198826,0.01338381404222142, ,0.9344899654388428
0.011433417403624928,0.021279780842711524,-0.08400592655725685, ,0.011711279833460441,0.021079031179087066,-0.08428226707724916, ,0.00044030902823931524, ,0.0039529050171586535,0.001134917716129791,-0.010968099485561551,0.003822715243419179,-0.004051949060352632,-0.0026945186821144967, ,0.01171378259240963, ,0.005570573066636276, ,4.1279354952487645e-05, ,0.20615063134454906,-0.17435614010136677,0.09988692224000001,2.3791420987754135,1.2707194478185961,-0.9319644319573617, ,0.019074762122305685,0.010924093434134762,0.011559369753265604,0.007658787136968614,0.02001578110198826,0.0017633558300955803, ,0.9397377967834473
0.011433417403624928,0.021279780842711524,-0.08400592655725685, ,0.011739420182769515,0.021081393874842626,-0.08435626150324614, ,0.0005056972060885328, ,0.0039529050171586535,0.001134917716129791,-0.010968099485561551,0.003822715243419179,-0.004051949060352632,-0.0026945186821144967, ,0.01171378259240963, ,0.005570573066636276, ,4.200809377163091e-05, ,0.20615063134454906,-0.17435614010136677,0.09988692224000001,2.3791420987754135,1.2707194478185961,-0.9319644319573617, ,0.019074762122305685,0.010924093434134762,0.011559369753265604,0.007658787136968614,0.02001578110198826,0.0017633558300955803, ,0.9445509910583496
0.011470450786931242,0.02128730877466592,-0.08410634552684805, ,0.011767736149394093,0.02108358732482941,-0.08443041638799591, ,0.0004846678645250493, ,0.004011317605708325,0.0007209651591003612,-0.010720315454793725,-0.0011461353914074047,-0.006206314501814027,-0.003220986056516746, ,0.01146889807892595, ,0.006311245870599101, ,4.2688631880189084e-05, ,0.20633597693353045,-0.17423257637537917,0.09999062544000001,2.3791420987754135,1.2707194478185961,-0.9318827532172211, ,0.020320544230935926,0.015034369701912352,0.01121747290140845,0.007042303335998416,0.018835248635535835,0.0018023976337504834, ,0.9496188163757324
0.011470450786931242,0.02128730877466592,-0.08410634552684805, ,0.011796226620532289,0.021085612859542753,-0.08450472989251727, ,0.0005527397567983454, ,0.004011317605708325,0.0007209651591003612,-0.010720315454793725,-0.0011461353914074047,-0.006206314501814027,-0.003220986056516746, ,0.01146889807892595, ,0.006311245870599101, ,4.348990331633584e-05, ,0.20633597693353045,-0.17423257637537917,0.09999062544000001,2.3791420987754135,1.2707194478185961,-0.9318827532172211, ,0.020320544230935926,0.015034369701912352,0.01121747290140845,0.007042303335998416,0.018835248635535835,0.0018023976337504834, ,0.9544367790222168
0.011517095696307924,0.021295059936630546,-0.08422685918246577, ,0.011824890486539098,0.02108747180589431,-0.08457920018321444, ,0.000511834588245648, ,0.0044982352586800875,0.0008102208054325525,-0.012052969770043,-0.005975658968422191,-0.012629804557205781,0.002109700149776359, ,0.012890487130964403, ,0.01397212256199809, ,4.420540965460346e-05, ,0.20655993618688295,-0.17406267625214622,0.10011118041000001,2.3793517887188975,1.2707194478185961,-0.9318827532172211, ,0.023027649007151364,0.016288524126067763,0.012522650566037737,0.0,0.015390895523185101,0.00151070757491234, ,0.9599199295043945
0.011517095696307924,0.021295059936630546,-0.08422685918246577, ,0.011853726640922643,0.021089165487216035,-0.0846538254318722, ,0.0005813889363447722, ,0.0044982352586800875,0.0008102208054325525,-0.012052969770043,-0.005975658968422191,-0.012629804557205781,0.002109700149776359, ,0.012890487130964403, ,0.01397212256199809, ,4.5042672168373905e-05, ,0.20655993618688295,-0.17406267625214622,0.10011118041000001,2.3793517887188975,1.2707194478185961,-0.9318827532172211, ,0.023027649007151364,0.016288524126067763,0.012522650566037737,0.0,0.015390895523185101,0.00151070757491234, ,0.9650528430938721
0.01156202640661265,0.02130644438653851,-0.08434011450778232, ,0.011882733980341101,0.0210906952232636,-0.08472860381564862, ,0.0005480191526096926, ,0.005063785116590971,0.001174899653043468,-0.013745079717928405,-0.007759181875502501,-0.017270183344440592,-0.018414760678651162, ,0.014695221174039427, ,0.018933136177554193, ,4.580870396077571e-05, ,0.20678389544023548,-0.17391594432753596,0.10023432796000001,2.379771168605867,1.2708560843183616,-0.9319124923807769, ,0.024128385852649575,0.016375658595076927,0.014285929614349779,0.015359110588604102,0.006318604206072911,-0.002103056435959678, ,0.9698789119720459
0.01156202640661265,0.02130644438653851,-0.08434011450778232, ,0.011911911404598685,0.021092062330220533,-0.08480353351707086, ,0.0006189800934252892, ,0.005063785116590971,0.001174899653043468,-0.013745079717928405,-0.007759181875502501,-0.017270183344440592,-0.018414760678651162, ,0.014695221174039427, ,0.018933136177554193, ,4.6697179941482284e-05, ,0.20678389544023548,-0.17391594432753596,0.10023432796000001,2.379771168605867,1.2708560843183616,-0.9319124923807769, ,0.024128385852649575,0.016375658595076927,0.014285929614349779,0.015359110588604102,0.006318604206072911,-0.002103056435959678, ,0.9753267765045166
0.011617678062253547,0.021318689988403833,-0.08450028325487101, ,0.011941257816642275,0.02109326812070151,-0.08487861272402822, ,0.0005464906798120616, ,0.005386163076954801,0.0012256700835259473,-0.015421480099837265,-0.004929849191301712,-0.013720117542629131,-0.020848542484451983, ,0.016380936124497845, ,0.0145788945467071, ,4.74428664368724e-05, ,0.20704646835795912,-0.17371515327280612,0.10040284566,2.379771168605867,1.2712659938176578,-0.9322467460918662, ,0.023909534280289944,0.01915175409858139,0.016008855798994977,0.014078448726136394,0.011879649708845873,-0.007096704571928483, ,0.9800879955291748
0.011617678062253547,0.021318689988403833,-0.08450028325487101, ,0.01197077212255792,0.021094313903756847,-0.08495383962976624, ,0.0006170360021845119, ,0.005386163076954801,0.0012256700835259473,-0.015421480099837265,-0.004929849191301712,-0.013720117542629131,-0.020848542484451983, ,0.016380936124497845, ,0.0145788945467071, ,4.8309120821678774e-05, ,0.20704646835795912,-0.17371515327280612,0.10040284566,2.379771168605867,1.2712659938176578,-0.9322467460918662, ,0.023909534280289944,0.01915175409858139,0.016008855798994977,0.014078448726136394,0.011879649708845873,-0.007096704571928483, ,0.9848189353942871
0.011668219672195904,0.021328952607207973,-0.08464925729759538, ,0.012000453231567187,0.021095200984875564,-0.08502921243288201, ,0.0005562237533099665, ,0.005502534140695921,0.0010809611897058804,-0.015976775737154843,0.005681659879342789,-0.0038419014394557955,-0.022147036138256575, ,0.01693232772003053, ,0.006858602238582733, ,4.914476720652716e-05, ,0.20727042761131162,-0.1735220849509505,0.10055710417000001,2.379771168605867,1.2714026303174235,-0.9320314490350005, ,0.024288953559885022,0.022063925031032498,0.016661936736401678,0.01241627444430104,0.02786951043794281,-0.014247018959094917, ,0.9883449077606201
0.011668219672195904,0.021328952607207973,-0.08464925729759538, ,0.012030300056023558,0.021095930665989585,-0.08510472933731722, ,0.0006267824250968885, ,0.005502534140695921,0.0010809611897058804,-0.015976775737154843,0.005681659879342789,-0.0038419014394557955,-0.022147036138256575, ,0.01693232772003053, ,0.006858602238582733, ,5.010218186356309e-05, ,0.20727042761131162,-0.1735220849509505,0.10055710417000001,2.379771168605867,1.2714026303174235,-0.9320314490350005, ,0.024288953559885022,0.022063925031032498,0.016661936736401678,0.01241627444430104,0.02786951043794281,-0.014247018959094917, ,0.9916138648986816
0.011668219672195904,0.021328952607207973,-0.08464925729759538, ,0.012060311511409004,0.021096504245477137,-0.08518038855235274, ,0.0006999061801620181, ,0.005502534140695921,0.0010809611897058804,-0.015976775737154843,0.005681659879342789,-0.0038419014394557955,-0.022147036138256575, ,0.01693232772003053, ,0.006858602238582733, ,5.118467611705567e-05, ,0.20727042761131162,-0.1735220849509505,0.10055710417000001,2.379771168605867,1.2714026303174235,-0.9320314490350005, ,0.024288953559885022,0.022063925031032498,0.016661936736401678,0.01241627444430104,0.02786951043794281,-0.014247018959094917, ,0.9949789047241211
0.011709280273522341,0.021337386971682762,-0.08476762476131001, ,0.012090486516330406,0.021096923018167093,-0.08525618829260304, ,0.0006647070306576682, ,0.005502534140695921,0.0010809611897058804,-0.015976775737154843,0.005681659879342789,-0.0038419014394557955,-0.022147036138256575, ,0.01693232772003053, ,0.006858602238582733, ,5.219607481925631e-05, ,0.20727042761131162,-0.1735220849509505,0.10055710417000001,2.379771168605867,1.2714026303174235,-0.9320314490350005, ,0.024288953559885022,0.022063925031032498,0.016661936736401678,0.01241627444430104,0.02786951043794281,-0.014247018959094917, ,0.9991707801818848
0.011709280273522341,0.021337386971682762,-0.08476762476131001, ,0.012120823992515753,0.02109718827534205,-0.08533212677800989, ,0.00073873281585762, ,0.005571190229445805,0.0010860222883658005,-0.016902567659847517,0.0004406672587015789,-0.0052601632975640515,-0.008345160294916389, ,0.01783015419112305, ,0.0052784586687247255, ,5.333288604903966e-05, ,0.20744032773454454,-0.1733599075605918,0.10067895543000001,2.379980858549352,1.2714026303174235,-0.9318680915547193, ,0.023553472712452415,0.023010897565099605,0.01756208546857773,0.0016314435434696254,0.027173606610884478,-0.010106933645682357, ,1.003180980682373
0.011709280273522341,0.021337386971682762,-0.08476762476131001, ,0.01215132286481086,0.021097301304742803,-0.08540820223383652, ,0.0008144828287272367, ,0.005571190229445805,0.0010860222883658005,-0.016902567659847517,0.0004406672587015789,-0.0052601632975640515,-0.008345160294916389, ,0.01783015419112305, ,0.0052784586687247255, ,5.459684507873459e-05, ,0.20744032773454454,-0.1733599075605918,0.10067895543000001,2.379980858549352,1.2714026303174235,-0.9318680915547193, ,0.023553472712452415,0.023010897565099605,0.01756208546857773,0.0016314435434696254,0.027173606610884478,-0.010106933645682357, ,1.006742000579834
0.011709280273522341,0.021337386971682762,-0.08476762476131001, ,0.012181982061175739,0.021097263390571337,-0.08548441289066247, ,0.0008915668996979898, ,0.005571190229445805,0.0010860222883658005,-0.016902567659847517,0.0004406672587015789,-0.0052601632975640515,-0.008345160294916389, ,0.01783015419112305, ,0.0052784586687247255, ,5.59889682273832e-05, ,0.20744032773454454,-0.1733599075605918,0.10067895543000001,2.379980858549352,1.2714026303174235,-0.9318680915547193, ,0.023553472712452415,0.023010897565099605,0.01756208546857773,0.0016314435434696254,0.027173606610884478,-0.010106933645682357, ,1.0112769603729248
0.011810073761183587,0.021358480586440957,-0.08505749006222582, ,0.012212800512681088,0.021097075813495313,-0.08556075698437737, ,0.0006955565301414327, ,0.006948494064854718,0.0014234256479709994,-0.019568796414357898,-0.014924013723309188,-0.01164518761007386,0.003231410853835947, ,0.020814550282223475, ,0.01892970444810347, ,5.7023682045976574e-05, ,0.20788824624124957,-0.1729814936497548,0.100980991,2.380190548492836,1.2718125398167197,-0.9316305940848246, ,0.03131912262655801,0.025724299690558627,0.020369324194373404,0.018887559576524958,0.022645866103082425,0.022655256900596422, ,1.0146918296813965
0.011810073761183587,0.021358480586440957,-0.08505749006222582, ,0.012243777153504533,0.02109673985065144,-0.08563723275617449, ,0.0007698755980476293, ,0.006948494064854718,0.0014234256479709994,-0.019568796414357898,-0.014924013723309188,-0.01164518761007386,0.003231410853835947, ,0.020814550282223475, ,0.01892970444810347, ,5.8182389173106745e-05, ,0.20788824624124957,-0.1729814936497548,0.100980991,2.380190548492836,1.2718125398167197,-0.9316305940848246, ,0.03131912262655801,0.025724299690558627,0.020369324194373404,0.018887559576524958,0.022645866103082425,0.022655256900596422, ,1.0182387828826904
0.011886927782755546,0.02137379515714408,-0.0852709561561943, ,0.012274910920927144,0.021096256775649493,-0.08571383845254606, ,0.0006509248782539492, ,0.006977091098457806,0.0011724839647027324,-0.019089320421691775,0.0432815411220603,0.014254765368093829,-0.04229020842757379, ,0.020358208983250043, ,0.04556849353171082, ,5.912351610956402e-05, ,0.20825893741921236,-0.17268030706766005,0.10121043433000002,2.3804002384363203,1.2729056318148433,-0.9322769010939742, ,0.03420942377738672,0.028034546989208504,0.020265663511450382,0.0116220023404291,0.07159392582653573,-0.048414609139158266, ,1.0226879119873047
0.011886927782755546,0.02137379515714408,-0.0852709561561943, ,0.012306200755330106,0.021095627858575598,-0.08579057232527657, ,0.0007233034181421518, ,0.006977091098457806,0.0011724839647027324,-0.019089320421691775,0.0432815411220603,0.014254765368093829,-0.04229020842757379, ,0.020358208983250043, ,0.04556849353171082, ,6.018501854100792e-05, ,0.20825893741921236,-0.17268030706766005,0.10121043433000002,2.3804002384363203,1.2729056318148433,-0.9322769010939742, ,0.03420942377738672,0.028034546989208504,0.020265663511450382,0.0116220023404291,0.07159392582653573,-0.048414609139158266, ,1.0260138511657715
0.011886927782755546,0.02137379515714408,-0.0852709561561943, ,0.012337645600190763,0.0210948543659967,-0.08586743263143747, ,0.0007979590850651417, ,0.006977091098457806,0.0011724839647027324,-0.019089320421691775,0.0432815411220603,0.014254765368093829,-0.04229020842757379, ,0.020358208983250043, ,0.04556849353171082, ,6.136961477874067e-05, ,0.20825893741921236,-0.17268030706766005,0.10121043433000002,2.3804002384363203,1.2729056318148433,-0.9322769010939742, ,0.03420942377738672,0.028034546989208504,0.020265663511450382,0.0116220023404291,0.07159392582653573,-0.048414609139158266, ,1.0292818546295166
0.011961365327943885,0.02138245182564031,-0.08547326646583987, ,0.012369244402079413,0.021093937560963758,-0.085944417633381, ,0.0006867235562545308, ,0.007752516767096568,0.0011527771484905103,-0.02147164969705492,-0.01587969844893615,-0.019540841656241717,-0.0075487354191008, ,0.022857431003750924, ,0.025179450980086983, ,6.235216587054736e-05, ,0.2086219058643009,-0.17236367501981684,0.10141913702000001,2.3804002384363203,1.2730422683146085,-0.9321432827772489, ,0.036109947320574876,0.03176998378254797,0.022246943463687153,0.010754669819216956,0.021397276243058313,0.0040558668091580305, ,1.0325098037719727
0.011961365327943885,0.02138245182564031,-0.08547326646583987, ,0.012400996110655668,0.021092878703015763,-0.08602152559873419, ,0.0007600762430548219, ,0.007752516767096568,0.0011527771484905103,-0.02147164969705492,-0.01587969844893615,-0.019540841656241717,-0.0075487354191008, ,0.022857431003750924, ,0.025179450980086983, ,6.345524210546704e-05, ,0.2086219058643009,-0.17236367501981684,0.10141913702000001,2.3804002384363203,1.2730422683146085,-0.9321432827772489, ,0.036109947320574876,0.03176998378254797,0.022246943463687153,0.010754669819216956,0.021397276243058313,0.0040558668091580305, ,1.0357699394226074
0.011961365327943885,0.02138245182564031,-0.08547326646583987, ,0.012432899678664597,0.02109167904818348,-0.08609875480039395, ,0.0008355412070525245, ,0.007752516767096568,0.0011527771484905103,-0.02147164969705492,-0.01587969844893615,-0.019540841656241717,-0.0075487354191008, ,0.022857431003750924, ,0.025179450980086983, ,6.468124681626564e-05, ,0.2086219058643009,-0.17236367501981684,0.10141913702000001,2.3804002384363203,1.2730422683146085,-0.9321432827772489, ,0.036109947320574876,0.03176998378254797,0.022246943463687153,0.010754669819216956,0.021397276243058313,0.0040558668091580305, ,1.038996934890747
0.012039039203914585,0.02139224996456826,-0.08569209391559741, ,0.012464954061933497,0.021090339848993278,-0.08617610351652029, ,0.0007119118470381638, ,0.008035854155650224,0.0010914998224430482,-0.02255864882521403,-0.043005428755804195,-0.023698710392038923,0.03382996966814855, ,0.02397204540068712, ,0.04910285057574856, ,6.56856422531719e-05, ,0.20897715157651522,-0.17203159750622518,0.10164339519000001,2.3804002384363203,1.2730422683146085,-0.9315715315962652, ,0.03644275789495806,0.03417246725188001,0.023253739445255477,0.009353307050860347,0.01298598149756509,0.05080291354791496, ,1.042489767074585
0.012039039203914585,0.02139224996456826,-0.08569209391559741, ,0.012497158219368322,0.021088862354470692,-0.08625357003053072, ,0.0007856032726011345, ,0.008035854155650224,0.0010914998224430482,-0.02255864882521403,-0.043005428755804195,-0.023698710392038923,0.03382996966814855, ,0.02397204540068712, ,0.04910285057574856, ,6.69247431659911e-05, ,0.20897715157651522,-0.17203159750622518,0.10164339519000001,2.3804002384363203,1.2730422683146085,-0.9315715315962652, ,0.03644275789495806,0.03417246725188001,0.023253739445255477,0.009353307050860347,0.01298598149756509,0.05080291354791496, ,1.0442678928375244
0.012039039203914585,0.02139224996456826,-0.08569209391559741, ,0.012529511112949874,0.021087247810144545,-0.08633115263109474, ,0.0008613855406314417, ,0.008035854155650224,0.0010914998224430482,-0.02255864882521403,-0.043005428755804195,-0.023698710392038923,0.03382996966814855, ,0.02397204540068712, ,0.04910285057574856, ,6.828979608259841e-05, ,0.20897715157651522,-0.17203159750622518,0.10164339519000001,2.3804002384363203,1.2730422683146085,-0.9315715315962652, ,0.03644275789495806,0.03417246725188001,0.023253739445255477,0.009353307050860347,0.01298598149756509,0.05080291354791496, ,1.0470027923583984
0.012039039203914585,0.02139224996456826,-0.08569209391559741, ,0.01256201170773055,0.02108549745805019,-0.08640884961212748, ,0.0009387950087803849, ,0.008035854155650224,0.0010914998224430482,-0.02255864882521403,-0.043005428755804195,-0.023698710392038923,0.03382996966814855, ,0.02397204540068712, ,0.04910285057574856, ,6.978294396029616e-05, ,0.20897715157651522,-0.17203159750622518,0.10164339519000001,2.3804002384363203,1.2730422683146085,-0.9315715315962652, ,0.03644275789495806,0.03417246725188001,0.023253739445255477,0.009353307050860347,0.01298598149756509,0.05080291354791496, ,1.0488049983978271
0.012039039203914585,0.02139224996456826,-0.08569209391559741, ,0.01259465897183048,0.021083612536733902,-0.0864866592727848, ,0.001017499137690762, ,0.008035854155650224,0.0010914998224430482,-0.02255864882521403,-0.043005428755804195,-0.023698710392038923,0.03382996966814855, ,0.02397204540068712, ,0.04910285057574856, ,7.140574566188942e-05, ,0.20897715157651522,-0.17203159750622518,0.10164339519000001,2.3804002384363203,1.2730422683146085,-0.9315715315962652, ,0.03644275789495806,0.03417246725188001,0.023253739445255477,0.009353307050860347,0.01298598149756509,0.05080291354791496, ,1.0506179332733154
0.01212826303424593,0.02140685910154414,-0.08593369563192249, ,0.012627451876434229,0.02108159428125613,-0.08656457991745625, ,0.0008677566970157769, ,0.00869600018746487,0.0014938830306500256,-0.024006397070148316,-0.041234266515977065,-0.033803651504371326,0.0027294616914618347, ,0.025576536240454428, ,0.05331926121860638, ,7.276702933941743e-05, ,0.20935556548735224,-0.17169951999263353,0.10187543110000001,2.3808196183232897,1.2731789048143742,-0.9313562345393993, ,0.03898806144555085,0.03285905178617409,0.024430692515337426,0.021668157331748063,0.0,0.034001068011787844, ,1.0528547763824463
0.01212826303424593,0.02140685910154414,-0.08593369563192249, ,0.012660389395787003,0.021079443923195617,-0.08664260985576001, ,0.0009449436705005729, ,0.00869600018746487,0.0014938830306500256,-0.024006397070148316,-0.041234266515977065,-0.033803651504371326,0.0027294616914618347, ,0.025576536240454428, ,0.05331926121860638, ,0.0004066696806921474, ,0.20935556548735224,-0.17169951999263353,0.10187543110000001,2.3808196183232897,1.2731789048143742,-0.9313562345393993, ,0.03898806144555085,0.03285905178617409,0.024430692515337426,0.021668157331748063,0.0,0.034001068011787844, ,1.0545358657836914
0.01212826303424593,0.02140685910154414,-0.08593369563192249, ,0.012693470507191376,0.02107716269065293,-0.08672074740253755, ,0.001023528065299734, ,0.00869600018746487,0.0014938830306500256,-0.024006397070148316,-0.041234266515977065,-0.033803651504371326,0.0027294616914618347, ,0.025576536240454428, ,0.05331926121860638, ,0.0004123813324014769, ,0.20935556548735224,-0.17169951999263353,0.10187543110000001,2.3808196183232897,1.2731789048143742,-0.9313562345393993, ,0.03898806144555085,0.03285905178617409,0.024430692515337426,0.021668157331748063,0.0,0.034001068011787844, ,1.0562160015106201
0.01212826303424593,0.02140685910154414,-0.08593369563192249, ,0.012726694191003324,0.02107475180825441,-0.0867989908778461, ,0.0011032456509101742, ,0.00869600018746487,0.0014938830306500256,-0.024006397070148316,-0.041234266515977065,-0.033803651504371326,0.0027294616914618347, ,0.025576536240454428, ,0.05331926121860638, ,0.00041871953715843743, ,0.20935556548735224,-0.17169951999263353,0.10187543110000001,2.3808196183232897,1.2731789048143742,-0.9313562345393993, ,0.03898806144555085,0.03285905178617409,0.024430692515337426,0.021668157331748063,0.0,0.034001068011787844, ,1.0578808784484863
0.01212826303424593,0.02140685910154414,-0.08593369563192249, ,0.012760059430629082,0.0210722124971558,-0.08687733860695458, ,0.0011838991091468907, ,0.00869600018746487,0.0014938830306500256,-0.024006397070148316,-0.041234266515977065,-0.033803651504371326,0.0027294616914618347, ,0.025576536240454428, ,0.05331926121860638, ,0.0004256757150856052, ,0.20935556548735224,-0.17169951999263353,0.10187543110000001,2.3808196183232897,1.2731789048143742,-0.9313562345393993, ,0.03898806144555085,0.03285905178617409,0.024430692515337426,0.021668157331748063,0.0,0.034001068011787844, ,1.0595519542694092
0.01212826303424593,0.02140685910154414,-0.08593369563192249, ,0.012793565212521322,0.02106954597504603,-0.08695578892033665, ,0.0012653386202701533, ,0.00869600018746487,0.0014938830306500256,-0.024006397070148316,-0.041234266515977065,-0.033803651504371326,0.0027294616914618347, ,0.025576536240454428, ,0.05331926121860638, ,0.0004332402457629434, ,0.20935556548735224,-0.17169951999263353,0.10187543110000001,2.3808196183232897,1.2731789048143742,-0.9313562345393993, ,0.03898806144555085,0.03285905178617409,0.024430692515337426,0.021668157331748063,0.0,0.034001068011787844, ,1.0612189769744873
0.012219072856257476,0.02141968587017311,-0.08619052013833893, ,0.012827210526175706,0.021066753456151138,-0.08703434015366598, ,0.001098373767306695, ,0.010703154174266956,0.0013987000554425409,-0.030575768457070704,-0.032957070163324026,-0.029619637163361037,-0.022232115036123427, ,0.032425167507102, ,0.04431099927033076, ,0.0004391789379195841, ,0.20978031579543457,-0.1712824924174254,0.10216061490000002,2.3810293082667737,1.2735888143136704,-0.9316904882504886, ,0.045755516662714935,0.04747220688267672,0.031479864664031625,0.025147462737771863,0.01689651788867457,0.008088047515815874, ,1.062849998474121
0.012219072856257476,0.02141968587017311,-0.08619052013833893, ,0.012860994364127201,0.021063836151237966,-0.08711299064780918, ,0.0011788316612537481, ,0.010703154174266956,0.0013987000554425409,-0.030575768457070704,-0.032957070163324026,-0.029619637163361037,-0.022232115036123427, ,0.032425167507102, ,0.04431099927033076, ,0.0004457245372411254, ,0.20978031579543457,-0.1712824924174254,0.10216061490000002,2.3810293082667737,1.2735888143136704,-0.9316904882504886, ,0.045755516662714935,0.04747220688267672,0.031479864664031625,0.025147462737771863,0.01689651788867457,0.008088047515815874, ,1.0644748210906982
0.012219072856257476,0.02141968587017311,-0.08619052013833893, ,0.012894915721946721,0.021060795267617657,-0.08719173874882073, ,0.0012601606047170253, ,0.010703154174266956,0.0013987000554425409,-0.030575768457070704,-0.032957070163324026,-0.029619637163361037,-0.022232115036123427, ,0.032425167507102, ,0.04431099927033076, ,0.0004528687132716157, ,0.20978031579543457,-0.1712824924174254,0.10216061490000002,2.3810293082667737,1.2735888143136704,-0.9316904882504886, ,0.045755516662714935,0.04747220688267672,0.031479864664031625,0.025147462737771863,0.01689651788867457,0.008088047515815874, ,1.0661239624023438
0.012219072856257476,0.02141968587017311,-0.08619052013833893, ,0.012928973598237406,0.021057632009149854,-0.0872705828079369, ,0.0013422285319589175, ,0.010703154174266956,0.0013987000554425409,-0.030575768457070704,-0.032957070163324026,-0.029619637163361037,-0.022232115036123427, ,0.032425167507102, ,0.04431099927033076, ,0.00046060227691237487, ,0.20978031579543457,-0.1712824924174254,0.10216061490000002,2.3810293082667737,1.2735888143136704,-0.9316904882504886, ,0.045755516662714935,0.04747220688267672,0.031479864664031625,0.025147462737771863,0.01689651788867457,0.008088047515815874, ,1.0677778720855713
0.012219072856257476,0.02141968587017311,-0.08619052013833893, ,0.012963166994630978,0.021054347576246378,-0.08734952118157024, ,0.0014249321296056089, ,0.010703154174266956,0.0013987000554425409,-0.030575768457070704,-0.032957070163324026,-0.029619637163361037,-0.022232115036123427, ,0.032425167507102, ,0.04431099927033076, ,0.00046891546529766133, ,0.20978031579543457,-0.1712824924174254,0.10216061490000002,2.3810293082667737,1.2735888143136704,-0.9316904882504886, ,0.045755516662714935,0.04747220688267672,0.031479864664031625,0.025147462737771863,0.01689651788867457,0.008088047515815874, ,1.0693857669830322
0.012219072856257476,0.02141968587017311,-0.08619052013833893, ,0.012997494915784485,0.021050943165874605,-0.087428552231303, ,0.0015081894933796068, ,0.010703154174266956,0.0013987000554425409,-0.030575768457070704,-0.032957070163324026,-0.029619637163361037,-0.022232115036123427, ,0.032425167507102, ,0.04431099927033076, ,0.00047779814929836174, ,0.20978031579543457,-0.1712824924174254,0.10216061490000002,2.3810293082667737,1.2735888143136704,-0.9316904882504886, ,0.045755516662714935,0.04747220688267672,0.031479864664031625,0.025147462737771863,0.01689651788867457,0.008088047515815874, ,1.0710139274597168
0.012333762418045544,0.02143861832400707,-0.08652228043472762, ,0.013031956369376384,0.02104741997156184,-0.08750767432388261, ,0.001269453449881021, ,0.013278733261892637,0.0027168141908323036,-0.03911390492000573,0.08426292913957621,0.03209836886526793,-0.08943275405617568, ,0.04139569294599681, ,0.09016903549175143, ,0.0004845070925236385, ,0.21028229343225918,-0.17079596024634924,0.10251061320000002,2.3812389982102586,1.274681906311794,-0.9325001527399193, ,0.05641910913107657,0.051658650821159925,0.04137353641558442,0.022656844538432693,0.1314268182544971,-0.10027595235655891, ,1.0732038021087646
0.012333762418045544,0.02143861832400707,-0.08652228043472762, ,0.01306655036610328,0.02104377918339852,-0.0875868858312143, ,0.0013513921614408272, ,0.013278733261892637,0.0027168141908323036,-0.03911390492000573,0.08426292913957621,0.03209836886526793,-0.08943275405617568, ,0.04139569294599681, ,0.09016903549175143, ,0.0004917918410019342, ,0.21028229343225918,-0.17079596024634924,0.10251061320000002,2.3812389982102586,1.274681906311794,-0.9325001527399193, ,0.05641910913107657,0.051658650821159925,0.04137353641558442,0.022656844538432693,0.1314268182544971,-0.10027595235655891, ,1.074880838394165
0.012333762418045544,0.02143861832400707,-0.08652228043472762, ,0.013101275919676275,0.021040021988042352,-0.08766618513035629, ,0.001434041131527014, ,0.013278733261892637,0.0027168141908323036,-0.03911390492000573,0.08426292913957621,0.03209836886526793,-0.08943275405617568, ,0.04139569294599681, ,0.09016903549175143, ,0.0004996439184229765, ,0.21028229343225918,-0.17079596024634924,0.10251061320000002,2.3812389982102586,1.274681906311794,-0.9325001527399193, ,0.05641910913107657,0.051658650821159925,0.04137353641558442,0.022656844538432693,0.1314268182544971,-0.10027595235655891, ,1.0764918327331543
0.012333762418045544,0.02143861832400707,-0.08652228043472762, ,0.01313613204681714,0.021036149568722042,-0.08774557060351411, ,0.0015173058219111336, ,0.013278733261892637,0.0027168141908323036,-0.03911390492000573,0.08426292913957621,0.03209836886526793,-0.08943275405617568, ,0.04139569294599681, ,0.09016903549175143, ,0.0005080543473774241, ,0.21028229343225918,-0.17079596024634924,0.10251061320000002,2.3812389982102586,1.274681906311794,-0.9325001527399193, ,0.05641910913107657,0.051658650821159925,0.04137353641558442,0.022656844538432693,0.1314268182544971,-0.10027595235655891, ,1.0781798362731934
0.012333762418045544,0.02143861832400707,-0.08652228043472762, ,0.013171117767255176,0.021032163105240885,-0.08782504063803369, ,0.001601110231380187, ,0.013278733261892637,0.0027168141908323036,-0.03911390492000573,0.08426292913957621,0.03209836886526793,-0.08943275405617568, ,0.04139569294599681, ,0.09016903549175143, ,0.0005170138218364631, ,0.21028229343225918,-0.17079596024634924,0.10251061320000002,2.3812389982102586,1.274681906311794,-0.9325001527399193, ,0.05641910913107657,0.051658650821159925,0.04137353641558442,0.022656844538432693,0.1314268182544971,-0.10027595235655891, ,1.0798289775848389
0.012333762418045544,0.02143861832400707,-0.08652228043472762, ,0.013206232103723431,0.02102806377398057,-0.08790459362639666, ,0.0016853925806281974, ,0.013278733261892637,0.0027168141908323036,-0.03911390492000573,0.08426292913957621,0.03209836886526793,-0.08943275405617568, ,0.04139569294599681, ,0.09016903549175143, ,0.0005265128361355829, ,0.21028229343225918,-0.17079596024634924,0.10251061320000002,2.3812389982102586,1.274681906311794,-0.9325001527399193, ,0.05641910913107657,0.051658650821159925,0.04137353641558442,0.022656844538432693,0.1314268182544971,-0.10027595235655891, ,1.0814578533172607
0.012491286279824137,0.021471614163927243,-0.08699208054220223, ,0.01324147408195512,0.021023852747905265,-0.08798422796621404, ,0.0013219790221926343, ,0.01581525241514226,0.003586675896644952,-0.047684055315999424,0.009912752243359276,0.007345202446195933,0.00287588986653845, ,0.050366214711069265, ,0.012327535366206122, ,0.0005329278860231397, ,0.2109464484594425,-0.1702090325479082,0.10300449969000001,2.3812389982102586,1.275911634809683,-0.9326861264717815, ,0.06288730388235307,0.057548175596404356,0.049933578432601884,0.022656844538432693,0.09694796546600387,0.012004053686943059, ,1.0830519199371338
0.012491286279824137,0.021471614163927243,-0.08699208054220223, ,0.013276842730680144,0.0210195311965649,-0.08806394206022015, ,0.0014036969262160271, ,0.01581525241514226,0.003586675896644952,-0.047684055315999424,0.009912752243359276,0.007345202446195933,0.00287588986653845, ,0.050366214711069265, ,0.012327535366206122, ,0.0005398940383446829, ,0.2109464484594425,-0.1702090325479082,0.10300449969000001,2.3812389982102586,1.275911634809683,-0.9326861264717815, ,0.06288730388235307,0.057548175596404356,0.049933578432601884,0.022656844538432693,0.09694796546600387,0.012004053686943059, ,1.084737777709961
0.012491286279824137,0.021471614163927243,-0.08699208054220223, ,0.013312337081621432,0.021015100286099375,-0.08814373431626743, ,0.0014862152452118252, ,0.01581525241514226,0.003586675896644952,-0.047684055315999424,0.009912752243359276,0.007345202446195933,0.00287588986653845, ,0.050366214711069265, ,0.012327535366206122, ,0.0005474045241134697, ,0.2109464484594425,-0.1702090325479082,0.10300449969000001,2.3812389982102586,1.275911634809683,-0.9326861264717815, ,0.06288730388235307,0.057548175596404356,0.049933578432601884,0.022656844538432693,0.09694796546600387,0.012004053686943059, ,1.0866658687591553
0.012491286279824137,0.021471614163927243,-0.08699208054220223, ,0.013347956169491497,0.02101056117924198,-0.08822360314732014, ,0.0015694269914418727, ,0.01581525241514226,0.003586675896644952,-0.047684055315999424,0.009912752243359276,0.007345202446195933,0.00287588986653845, ,0.050366214711069265, ,0.012327535366206122, ,0.0005554519451160555, ,0.2109464484594425,-0.1702090325479082,0.10300449969000001,2.3812389982102586,1.275911634809683,-0.9326861264717815, ,0.06288730388235307,0.057548175596404356,0.049933578432601884,0.022656844538432693,0.09694796546600387,0.012004053686943059, ,1.0885159969329834
0.012491286279824137,0.021471614163927243,-0.08699208054220223, ,0.013383699031988787,0.021005915035323394,-0.08830354697144882, ,0.001653245412408358, ,0.01581525241514226,0.003586675896644952,-0.047684055315999424,0.009912752243359276,0.007345202446195933,0.00287588986653845, ,0.050366214711069265, ,0.012327535366206122, ,0.0005640284565792766, ,0.2109464484594425,-0.1702090325479082,0.10300449969000001,2.3812389982102586,1.275911634809683,-0.9326861264717815, ,0.06288730388235307,0.057548175596404356,0.049933578432601884,0.022656844538432693,0.09694796546600387,0.012004053686943059, ,1.0903568267822266
0.0125560289244156,0.021485438138923067,-0.08718778470950089, ,0.013419564709794257,0.02100116301027529,-0.0883835642118239, ,0.0017375994746615371, ,0.01668852831925776,0.003650348801583378,-0.0499445895834144,-0.00960540799411409,0.002155078268894769,0.03169721818487295, ,0.050366214711069265, ,0.00982840031848162, ,0.0005731259063318523, ,0.21120902137716613,-0.16996962782880723,0.10320931351000001,2.3812389982102586,1.2763215443089793,-0.932611986482168, ,0.06682883208343011,0.06094858160466973,0.05222561154098361,0.022656844538432693,0.09287750789042092,0.04547629739540829, ,1.0926778316497803
0.0125560289244156,0.021485438138923067,-0.08718778470950089, ,0.013455552246567368,0.02099630625663437,-0.08846365329671083, ,0.0016359195754056212, ,0.01668852831925776,0.003650348801583378,-0.0499445895834144,-0.00960540799411409,0.002155078268894769,0.03169721818487295, ,0.052785358315460884, ,0.00982840031848162, ,0.0005813012422478044, ,0.21120902137716613,-0.16996962782880723,0.10320931351000001,2.3812389982102586,1.2763215443089793,-0.932611986482168, ,0.06682883208343011,0.06094858160466973,0.05222561154098361,0.022656844538432693,0.09287750789042092,0.04547629739540829, ,1.0948729515075684
0.0125560289244156,0.021485438138923067,-0.08718778470950089, ,0.01349166068894329,0.020991345923545856,-0.08854381265946296, ,0.0017199842200345545, ,0.01668852831925776,0.003650348801583378,-0.0499445895834144,-0.00960540799411409,0.002155078268894769,0.03169721818487295, ,0.052785358315460884, ,0.00982840031848162, ,0.000589993478719459, ,0.21120902137716613,-0.16996962782880723,0.10320931351000001,2.3812389982102586,1.2763215443089793,-0.932611986482168, ,0.06682883208343011,0.06094858160466973,0.05222561154098361,0.022656844538432693,0.09287750789042092,0.04547629739540829, ,1.096768856048584
0.0125560289244156,0.021485438138923067,-0.08718778470950089, ,0.013527889086528685,0.02098628315676733,-0.08862404073851728, ,0.0018045773055758172, ,0.01668852831925776,0.003650348801583378,-0.0499445895834144,-0.00960540799411409,0.002155078268894769,0.03169721818487295, ,0.052785358315460884, ,0.00982840031848162, ,0.0005991948713471586, ,0.21120902137716613,-0.16996962782880723,0.10320931351000001,2.3812389982102586,1.2763215443089793,-0.932611986482168, ,0.06682883208343011,0.06094858160466973,0.05222561154098361,0.022656844538432693,0.09287750789042092,0.04547629739540829, ,1.0986897945404053
0.0125560289244156,0.021485438138923067,-0.08718778470950089, ,0.013564236491898387,0.020981119098672518,-0.08870433597738735, ,0.0018896422787439968, ,0.01668852831925776,0.003650348801583378,-0.0499445895834144,-0.00960540799411409,0.002155078268894769,0.03169721818487295, ,0.052785358315460884, ,0.00982840031848162, ,0.0006088974834328492, ,0.21120902137716613,-0.16996962782880723,0.10320931351000001,2.3812389982102586,1.2763215443089793,-0.932611986482168, ,0.06682883208343011,0.06094858160466973,0.05222561154098361,0.022656844538432693,0.09287750789042092,0.04547629739540829, ,1.1003808975219727
0.0125560289244156,0.021485438138923067,-0.08718778470950089, ,0.013600701960591806,0.02097585488825514,-0.08878469682465781, ,0.0019751316779925946, ,0.01668852831925776,0.003650348801583378,-0.0499445895834144,-0.00960540799411409,0.002155078268894769,0.03169721818487295, ,0.052785358315460884, ,0.00982840031848162, ,0.0006190932610041905, ,0.21232881764392866,-0.1689502270894096,0.10402986508,2.3816583780972276,1.2782344553056955,-0.9322932261106849, ,0.07460451380382924,0.07092447052202598,0.05138326296774194,0.013927510927254156,0.14383441491639415,-0.006300150986827707, ,1.102174997329712
0.012824236650436404,0.021537093674333034,-0.08796884078016572, ,0.013637284551109432,0.020970491661132653,-0.08886512173397891, ,0.001336190210381678, ,0.0171179035134448,0.0024908674268873925,-0.0488204097364577,0.03449527350213789,0.025126331273238014,0.004126052340763995, ,0.051794395913742915, ,0.04267293147529627, ,0.0006244050902588386, ,0.21232881764392866,-0.1689502270894096,0.10402986508,2.3816583780972276,1.2782344553056955,-0.9322932261106849, ,0.07460451380382924,0.07092447052202598,0.05138326296774194,0.013927510927254156,0.14383441491639415,-0.006300150986827707, ,1.10382080078125
0.012824236650436404,0.021537093674333034,-0.08796884078016572, ,0.013673983324909244,0.020965030549549832,-0.08894560916406033, ,0.0014154158771507647, ,0.0171179035134448,0.0024908674268873925,-0.0488204097364577,0.03449527350213789,0.025126331273238014,0.004126052340763995, ,0.051794395913742915, ,0.04267293147529627, ,0.0006302213460448085, ,0.21232881764392866,-0.1689502270894096,0.10402986508,2.3816583780972276,1.2782344553056955,-0.9322932261106849, ,0.07460451380382924,0.07092447052202598,0.05138326296774194,0.013927510927254156,0.14383441491639415,-0.006300150986827707, ,1.1054837703704834
0.012824236650436404,0.021537093674333034,-0.08796884078016572, ,0.01371079734640298,0.020959472682382824,-0.08902615757866503, ,0.0014958458110256943, ,0.0171179035134448,0.0024908674268873925,-0.0488204097364577,0.03449527350213789,0.025126331273238014,0.004126052340763995, ,0.051794395913742915, ,0.04267293147529627, ,0.0006365397727964939, ,0.21232881764392866,-0.1689502270894096,0.10402986508,2.3816583780972276,1.2782344553056955,-0.9322932261106849, ,0.07460451380382924,0.07092447052202598,0.05138326296774194,0.013927510927254156,0.14383441491639415,-0.006300150986827707, ,1.1071457862854004
0.012824236650436404,0.021537093674333034,-0.08796884078016572, ,0.013747725682952898,0.020953819185142802,-0.08910676544660459, ,0.0015773121661257802, ,0.0171179035134448,0.0024908674268873925,-0.0488204097364577,0.03449527350213789,0.025126331273238014,0.004126052340763995, ,0.051794395913742915, ,0.04267293147529627, ,0.0006433569640525032, ,0.21232881764392866,-0.1689502270894096,0.10402986508,2.3816583780972276,1.2782344553056955,-0.9322932261106849, ,0.07460451380382924,0.07092447052202598,0.05138326296774194,0.013927510927254156,0.14383441491639415,-0.006300150986827707, ,1.1088438034057617
0.012824236650436404,0.021537093674333034,-0.08796884078016572, ,0.013784767404868017,0.020948071179979575,-0.08918743124173201, ,0.0016596775415976686, ,0.0171179035134448,0.0024908674268873925,-0.0488204097364577,0.03449527350213789,0.025126331273238014,0.004126052340763995, ,0.051794395913742915, ,0.04267293147529627, ,0.0006506686228837634, ,0.21232881764392866,-0.1689502270894096,0.10402986508,2.3816583780972276,1.2782344553056955,-0.9322932261106849, ,0.07460451380382924,0.07092447052202598,0.05138326296774194,0.013927510927254156,0.14383441491639415,-0.006300150986827707, ,1.1104869842529297
0.012824236650436404,0.021537093674333034,-0.08796884078016572, ,0.013821921585400382,0.0209422297856856,-0.08926815344293658, ,0.0017428286407755453, ,0.0171179035134448,0.0024908674268873925,-0.0488204097364577,0.03449527350213789,0.025126331273238014,0.004126052340763995, ,0.051794395913742915, ,0.04267293147529627, ,0.0006584697658687047, ,0.21316287279434493,-0.1681007264732449,0.10455356624,2.3820777579841965,1.280010729802646,-0.9326798352369111, ,0.08658480069203538,0.08835841858330612,0.05257033504950496,0.023300351500607823,0.1813254599358358,-0.03457228473481438, ,1.112250804901123
0.013006721021673518,0.021552575340230234,-0.08846483313572652, ,0.013859187300741978,0.020936296117699628,-0.08934893053413837, ,0.0013740913532041268, ,0.018506160316106992,0.0011245621197292905,-0.04982679146001767,0.05643084612451003,0.03886379211261139,-0.024556071670764956, ,0.053164384288795004, ,0.06851662285238136, ,0.0006635450962753389, ,0.21316287279434493,-0.1681007264732449,0.10455356624,2.3820777579841965,1.280010729802646,-0.9326798352369111, ,0.08658480069203538,0.08835841858330612,0.05257033504950496,0.023300351500607823,0.1813254599358358,-0.03457228473481438, ,1.114710807800293
0.013006721021673518,0.021552575340230234,-0.08846483313572652, ,0.013896563630020679,0.020930271288110567,-0.08942976100428165, ,0.0014526417288612465, ,0.018506160316106992,0.0011245621197292905,-0.04982679146001767,0.05643084612451003,0.03886379211261139,-0.024556071670764956, ,0.053164384288795004, ,0.06851662285238136, ,0.0006691021148146762, ,0.21316287279434493,-0.1681007264732449,0.10455356624,2.3820777579841965,1.280010729802646,-0.9326798352369111, ,0.08658480069203538,0.08835841858330612,0.05257033504950496,0.023300351500607823,0.1813254599358358,-0.03457228473481438, ,1.1164398193359375
0.013006721021673518,0.021552575340230234,-0.08846483313572652, ,0.01393404965529699,0.020924156405660976,-0.08951064334732955, ,0.001532503752281319, ,0.018506160316106992,0.0011245621197292905,-0.04982679146001767,0.05643084612451003,0.03886379211261139,-0.024556071670764956, ,0.053164384288795004, ,0.06851662285238136, ,0.0006751398885032542, ,0.21316287279434493,-0.1681007264732449,0.10455356624,2.3820777579841965,1.280010729802646,-0.9326798352369111, ,0.08658480069203538,0.08835841858330612,0.05257033504950496,0.023300351500607823,0.1813254599358358,-0.03457228473481438, ,1.1180839538574219
0.013006721021673518,0.021552575340230234,-0.08846483313572652, ,0.013971644461560323,0.02091795257575124,-0.08959157606225801, ,0.00161349710893038, ,0.018506160316106992,0.0011245621197292905,-0.04982679146001767,0.05643084612451003,0.03886379211261139,-0.024556071670764956, ,0.053164384288795004, ,0.06851662285238136, ,0.0006816562580895537, ,0.21316287279434493,-0.1681007264732449,0.10455356624,2.3820777579841965,1.280010729802646,-0.9326798352369111, ,0.08658480069203538,0.08835841858330612,0.05257033504950496,0.023300351500607823,0.1813254599358358,-0.03457228473481438, ,1.1197218894958496
0.013006721021673518,0.021552575340230234,-0.08846483313572652, ,0.014009347136725603,0.020911660900443056,-0.08967255765305002, ,0.0016954730771841892, ,0.018506160316106992,0.0011245621197292905,-0.04982679146001767,0.05643084612451003,0.03886379211261139,-0.024556071670764956, ,0.053164384288795004, ,0.06851662285238136, ,0.0006886480982212409, ,0.21316287279434493,-0.1681007264732449,0.10455356624,2.3820777579841965,1.280010729802646,-0.9326798352369111, ,0.08658480069203538,0.08835841858330612,0.05257033504950496,0.023300351500607823,0.1813254599358358,-0.03457228473481438, ,1.1214308738708496
0.013197560565123258,0.02156241290373739,-0.08895265492641953, ,0.01404715677162946,0.020905282478463315,-0.08975358662868976, ,0.001339823011308624, ,0.019598014349973516,0.0006742781899095945,-0.047935686231398,0.03843728727858575,0.026877889974547157,-0.028396190047434544, ,0.05179157105180529, ,0.04689981792401049, ,0.000693108200365675, ,0.2140973234721261,-0.16721261219270908,0.10506948966000001,2.3824971378711655,1.2817870042995967,-0.9328214081427156, ,0.09905735026980249,0.09133488119198342,0.05072869910828026,0.06037249087049192,0.17048454503953042,0.00417143923239037, ,1.1231489181518555
0.013197560565123258,0.02156241290373739,-0.08895265492641953, ,0.014085072460027038,0.020898818405207707,-0.08983466150315732, ,0.00141632292344764, ,0.019598014349973516,0.0006742781899095945,-0.047935686231398,0.03843728727858575,0.026877889974547157,-0.028396190047434544, ,0.05179157105180529, ,0.04689981792401049, ,0.0006980280284138516, ,0.2140973234721261,-0.16721261219270908,0.10506948966000001,2.3824971378711655,1.2817870042995967,-0.9328214081427156, ,0.09905735026980249,0.09133488119198342,0.05072869910828026,0.06037249087049192,0.17048454503953042,0.00417143923239037, ,1.1247889995574951
0.013197560565123258,0.02156241290373739,-0.08895265492641953, ,0.014123093298587857,0.020892269772744887,-0.08991578079542198, ,0.0014944276818476732, ,0.019598014349973516,0.0006742781899095945,-0.047935686231398,0.03843728727858575,0.026877889974547157,-0.028396190047434544, ,0.05179157105180529, ,0.04689981792401049, ,0.0007034091071532692, ,0.2140973234721261,-0.16721261219270908,0.10506948966000001,2.3824971378711655,1.2817870042995967,-0.9328214081427156, ,0.09905735026980249,0.09133488119198342,0.05072869910828026,0.06037249087049192,0.17048454503953042,0.00417143923239037, ,1.12646484375
0.013197560565123258,0.02156241290373739,-0.08895265492641953, ,0.014161218386892929,0.02088563766981971,-0.08999694302943673, ,0.0015739119279062136, ,0.019598014349973516,0.0006742781899095945,-0.047935686231398,0.03843728727858575,0.026877889974547157,-0.028396190047434544, ,0.05179157105180529, ,0.04689981792401049, ,0.0007092514079636916, ,0.2140973234721261,-0.16721261219270908,0.10506948966000001,2.3824971378711655,1.2817870042995967,-0.9328214081427156, ,0.09905735026980249,0.09133488119198342,0.05072869910828026,0.06037249087049192,0.17048454503953042,0.00417143923239037, ,1.1280667781829834
0.013197560565123258,0.02156241290373739,-0.08895265492641953, ,0.014199446827430743,0.020878923181857363,-0.09007814673413263, ,0.0016545894027659535, ,0.019598014349973516,0.0006742781899095945,-0.047935686231398,0.03843728727858575,0.026877889974547157,-0.028396190047434544, ,0.05179157105180529, ,0.04689981792401049, ,0.0007155536612623735, ,0.2140973234721261,-0.16721261219270908,0.10506948966000001,2.3824971378711655,1.2817870042995967,-0.9328214081427156, ,0.09905735026980249,0.09133488119198342,0.05072869910828026,0.06037249087049192,0.17048454503953042,0.00417143923239037, ,1.1296977996826172
0.013197560565123258,0.02156241290373739,-0.08895265492641953, ,0.014237777725593759,0.02087212739096714,-0.0901593904434131, ,0.001736305398843056, ,0.019598014349973516,0.0006742781899095945,-0.047935686231398,0.03843728727858575,0.026877889974547157,-0.028396190047434544, ,0.05179157105180529, ,0.04689981792401049, ,0.0007223136065443647, ,0.2140973234721261,-0.16721261219270908,0.10506948966000001,2.3824971378711655,1.2817870042995967,-0.9328214081427156, ,0.09905735026980249,0.09133488119198342,0.05072869910828026,0.06037249087049192,0.17048454503953042,0.00417143923239037, ,1.1313889026641846
0.013374552980076225,0.021555387298208623,-0.08936958454654916, ,0.014276210189675015,0.020865251375945925,-0.09024067269614743, ,0.0014311072214161311, ,0.019567401731894217,-0.001140718219483414,-0.043229253925071986,0.022046141955455362,0.012433577167684914,-0.0055435592633261786, ,0.04746528040064601, ,0.025307612431518727, ,0.000726976722431679, ,0.21506266508140415,-0.16631677517929905,0.10550893197000001,2.3824971378711655,1.2832900057970167,-0.9326584665009868, ,0.11008925934857398,0.10020796363090896,0.04577244689655173,0.04197881969681284,0.1694749546201682,0.012214868423607667, ,1.133436918258667
0.013374552980076225,0.021555387298208623,-0.08936958454654916, ,0.014314743330864327,0.020858296212282374,-0.0903219920361656, ,0.001508964513853919, ,0.019567401731894217,-0.001140718219483414,-0.043229253925071986,0.022046141955455362,0.012433577167684914,-0.0055435592633261786, ,0.04746528040064601, ,0.025307612431518727, ,0.0007320877537481642, ,0.21506266508140415,-0.16631677517929905,0.10550893197000001,2.3824971378711655,1.2832900057970167,-0.9326584665009868, ,0.11008925934857398,0.10020796363090896,0.04577244689655173,0.04197881969681284,0.1694749546201682,0.012214868423607667, ,1.139091968536377
0.013374552980076225,0.021555387298208623,-0.08936958454654916, ,0.01435337626324512,0.020851262972160195,-0.09040334701225212, ,0.0015882540482249595, ,0.019567401731894217,-0.001140718219483414,-0.043229253925071986,0.022046141955455362,0.012433577167684914,-0.0055435592633261786, ,0.04746528040064601, ,0.025307612431518727, ,0.0007376472751408707, ,0.21506266508140415,-0.16631677517929905,0.10550893197000001,2.3824971378711655,1.2832900057970167,-0.9326584665009868, ,0.11008925934857398,0.10020796363090896,0.04577244689655173,0.04197881969681284,0.1694749546201682,0.012214868423607667, ,1.1408369541168213
0.013374552980076225,0.021555387298208623,-0.08936958454654916, ,0.014392108103790303,0.020844152724462404,-0.09048473617814072, ,0.0016687828528991033, ,0.019567401731894217,-0.001140718219483414,-0.043229253925071986,0.022046141955455362,0.012433577167684914,-0.0055435592633261786, ,0.04746528040064601, ,0.025307612431518727, ,0.0007436546014489883, ,0.21534068346487623,-0.16606192499444963,0.10562170920000001,2.3827068278146504,1.283699915296313,-0.9326660052515136, ,0.11405882398854661,0.10359928117736984,0.046304684651162796,-0.006811279706396832,0.17507016023263705,0.0032949728997667127, ,1.1430327892303467
0.01342410015578194,0.02155245753366237,-0.08947598104816994, ,0.014430937972359205,0.020836966534774817,-0.0905661580925076, ,0.0016474634279339852, ,0.019763565777842964,-0.001668475573016214,-0.04382016975012925,0.015883169378124624,0.0037713980481888327,0.034040113660841205, ,0.048099788148421405, ,0.016319832694548477, ,0.00074944824777261, ,0.21534068346487623,-0.16606192499444963,0.10562170920000001,2.3827068278146504,1.283699915296313,-0.9326660052515136, ,0.11405882398854661,0.10359928117736984,0.046304684651162796,-0.006811279706396832,0.17507016023263705,0.0032949728997667127, ,1.1447398662567139
0.01342410015578194,0.02155245753366237,-0.08947598104816994, ,0.0144698649916937,0.020829705465389793,-0.09064761131896658, ,0.0017287892108839777, ,0.019763565777842964,-0.001668475573016214,-0.04382016975012925,0.015883169378124624,0.0037713980481888327,0.034040113660841205, ,0.048099788148421405, ,0.016319832694548477, ,0.0007556860883019818, ,0.21534068346487623,-0.16606192499444963,0.10562170920000001,2.3827068278146504,1.283699915296313,-0.9326660052515136, ,0.11405882398854661,0.10359928117736984,0.046304684651162796,-0.006811279706396832,0.17507016023263705,0.0032949728997667127, ,1.1463978290557861
0.01342410015578194,0.02155245753366237,-0.08947598104816994, ,0.014508888287414912,0.020822370575310112,-0.09072909442606227, ,0.0018111006032632546, ,0.019763565777842964,-0.001668475573016214,-0.04382016975012925,0.015883169378124624,0.0037713980481888327,0.034040113660841205, ,0.048099788148421405, ,0.016319832694548477, ,0.0007623659270042684, ,0.21534068346487623,-0.16606192499444963,0.10562170920000001,2.3827068278146504,1.283699915296313,-0.9326660052515136, ,0.11405882398854661,0.10359928117736984,0.046304684651162796,-0.006811279706396832,0.17507016023263705,0.0032949728997667127, ,1.1480278968811035
0.01342410015578194,0.02155245753366237,-0.08947598104816994, ,0.014548006988019523,0.020814962920252686,-0.09081060598726517, ,0.0018942778572357283, ,0.019763565777842964,-0.001668475573016214,-0.04382016975012925,0.015883169378124624,0.0037713980481888327,0.034040113660841205, ,0.048099788148421405, ,0.016319832694548477, ,0.0007694848699616989, ,0.21534068346487623,-0.16606192499444963,0.10562170920000001,2.3827068278146504,1.283699915296313,-0.9326660052515136, ,0.11405882398854661,0.10359928117736984,0.046304684651162796,-0.006811279706396832,0.17507016023263705,0.0032949728997667127, ,1.1496779918670654
0.01342410015578194,0.02155245753366237,-0.08947598104816994, ,0.01458722022487581,0.020807483552652526,-0.09089214458096573, ,0.0019782198257856072, ,0.019763565777842964,-0.001668475573016214,-0.04382016975012925,0.015883169378124624,0.0037713980481888327,0.034040113660841205, ,0.048099788148421405, ,0.016319832694548477, ,0.0007770394634355984, ,0.21534068346487623,-0.16606192499444963,0.10562170920000001,2.3827068278146504,1.283699915296313,-0.9326660052515136, ,0.11405882398854661,0.10359928117736984,0.046304684651162796,-0.006811279706396832,0.17507016023263705,0.0032949728997667127, ,1.1513819694519043
0.013765863726614164,0.021497694511986805,-0.09021152761005599, ,0.014626527132221012,0.020799933521666123,-0.0909737087904677, ,0.0013448167344057961, ,0.018644162869297907,-0.004387810496076721,-0.036138674375315684,-0.04246046362338204,-0.031136647374625875,0.01323497892177928, ,0.04090062928185196, ,0.052652826524916964, ,0.0007805660303360344, ,0.2173485940121746,-0.16406173718002548,0.10639300175000001,2.3824971378711655,1.286432645291622,-0.9325256798613659, ,0.11516619121173638,0.11759224480603565,0.03765676482269504,0.020662904044294477,0.11684037698994522,0.029923543876532753, ,1.153207778930664
0.013765863726614164,0.021497694511986805,-0.09021152761005599, ,0.014665926847156863,0.020792313873175587,-0.09105529720398314, ,0.0014211342632583215, ,0.018644162869297907,-0.004387810496076721,-0.036138674375315684,-0.04246046362338204,-0.031136647374625875,0.01323497892177928, ,0.04090062928185196, ,0.052652826524916964, ,0.0007845201552306164, ,0.2173485940121746,-0.16406173718002548,0.10639300175000001,2.3824971378711655,1.286432645291622,-0.9325256798613659, ,0.11516619121173638,0.11759224480603565,0.03765676482269504,0.020662904044294477,0.11684037698994522,0.029923543876532753, ,1.1554718017578125
