NicholasDascanio/dvrk_moveit_final/test/execution/third_experiment_notsharpbends/thirdexp_700vel5.0/thirdexp_700vel5.0_22.csv
Current Position (x),Current Position (y),Current Position (z), ,Planned Position (x),Planned Position (y),Planned Position (z), ,Position Error,,Cartesian linear Velocity(x),Cartesian linear Velocity(y),Cartesian linear Velocity(z),Cartesian Angular Velocity(x),Cartesian Angular Velocity(y),Cartesian Angular Velocity(z), ,Total Linear Velocity, ,Total Angular Velocity, ,MSE, ,Joint 1 Position,Joint 2 Position,Joint 3 Position,Joint 4 Position,Joint 5 Position,Joint 6 Position, ,Joint 1 Velocity,Joint 2 Velocity,Joint 3 Velocity,Joint 4 Velocity,Joint 5 Velocity,Joint 6 Velocity, ,Time Stamp
0.009909885224807827,0.01973387774172615,-0.07899549333076869, ,0.009967468574966803,0.019682248340149644,-0.0787218282836733, ,0.0002843835356071112, ,-2.254361790499207e-05,3.971159576482123e-06,-1.8360324405837836e-06,0.002761822331323666,0.008704701827607061,0.07909930802323975, ,2.2964229395976707e-05, ,0.009132332478471412, ,2.3698627967259267e-05, ,0.07939741667990219,-0.14596737405571747,0.09461491081000001,3.567874388389182,1.2876623737895108,-0.1949075939035293, ,-0.00014381342902121467,1.3229311083491955e-05,0.0,-0.0014053213100974945,0.0,0.07826031812515144, ,0.016484975814819336
0.009909266066680026,0.01973498475541839,-0.07897919081387181, ,0.009993904379234881,0.01972071321906277,-0.07883872619975135, ,0.00016461357332277226, ,0.00012537244361726855,0.000302412852432333,0.0007545325314806177,0.20634796346814716,0.04291920050094081,1.0643371783119056, ,0.0008224908048102268, ,0.21076418054093535, ,2.0408959496812886e-05, ,0.07938969394702795,-0.1459750967885917,0.09460972565,3.567874388389182,1.2888921022873998,-0.18651729992063254, ,3.933856258848686e-05,0.0002685817872374724,0.0009158834418427685,-0.001369532837668934,0.18398900741280141,1.0680499263294672, ,0.0374751091003418
0.009919224746665787,0.01975957081262244,-0.07885152552697285, ,0.010020411458079252,0.019758781164744242,-0.07895518165681563, ,0.00014485843905146536, ,0.0006042976300056546,0.001514297190565315,0.006780711058281317,1.0385647312838486,-0.44142522245861016,0.2464529086683678, ,0.006973974050918386, ,1.1284825776695273, ,1.855798587441715e-05, ,0.07940513941277641,-0.14599054225434013,0.09465120693000001,3.567874388389182,1.3074746662554997,-0.17063221356993208, ,0.000548665808388902,-0.0003806286209067269,0.00351940157313301,-0.0013300367636201332,1.1306325313924124,0.2323714825878227, ,0.05384707450866699
0.009931321985183327,0.019789186240887574,-0.07885999580806041, ,0.010046989567653484,0.019796454088690144,-0.07907119653109682, ,0.00024090985172315265, ,0.0006046702015671146,0.0011815165023866473,-0.0052007266172059766,0.06138519273279774,-0.042015433779695445,-0.15206973397313653, ,0.00536741694346451, ,0.07438708596748499, ,1.9875366659630987e-05, ,0.07943603034427331,-0.1460368786515855,0.09476268787000001,3.5676646984456974,1.3185422227365002,-0.16683350156727406, ,0.0015437918377721454,-0.003297115097740957,0.0059770399699812385,0.0004906569057775947,0.06768867515368708,-0.15326642236160648, ,0.07243204116821289
0.009938709468001686,0.01979806322484632,-0.07893559042695665, ,0.010073638464570312,0.019833733898219876,-0.07918677269425622, ,0.00028735128755530875, ,0.000580040069976079,0.000855408608393043,-0.008671505426694657,-0.28022914315034125,0.0483664076206537,-0.792182145497588, ,0.008732879063360814, ,0.2843724353868892, ,2.1579167062688656e-05, ,0.07945147581002175,-0.14606004685020815,0.09482490979000001,3.567874388389182,1.316902584739315,-0.1711323197926155, ,0.0019806971665213596,-0.002233566551163111,0.006210062970760234,0.0005929153640784555,-0.28804071180609575,-0.7913743366183708, ,0.08845806121826172
0.009960223482243104,0.019810319774745677,-0.07917133500163157, ,0.010100357905901485,0.019870622496479518,-0.0793019120133892, ,0.00020080943937506466, ,0.0011874758787056973,0.0006753680619423922,-0.01271586123134534,-0.5154907170073233,0.25007695655330886,0.09205965481793345, ,0.01278903232603746, ,0.5729477839971439, ,2.133751817153024e-05, ,0.07954414860451245,-0.14612955144607617,0.09495842766000001,3.5687131481631202,1.3051518457594873,-0.1829502099915507, ,0.00526289987978554,-0.0025162846231139447,0.007713710179176756,0.040513887783814595,-0.5759826103319836,0.13954453638657255, ,0.10935401916503906
0.009983103322657658,0.019833861217992448,-0.07933788317803393, ,0.010127147649177343,0.019907121782445997,-0.07941661635103198, ,0.0001797631520554262, ,0.0009895868310683849,0.0015809956518172946,-0.0062212407137146285,0.19480805637094176,-0.09604095605085411,-0.0020446585832443616, ,0.0064948183473650485, ,0.21719586565325494, ,2.0870684426254182e-05, ,0.07965998959762582,-0.14616044237757306,0.09511657504000001,3.5689228381066047,1.3037854807618328,-0.1809375648130403, ,0.004810258657619845,-0.001613882095380108,0.008348433710691824,-0.013195907895453633,0.21357643459140316,-0.017896741092962513, ,0.12790989875793457
0.009998896726197127,0.01985786770663699,-0.07943712811316728, ,0.010154007452386345,0.019943233650930592,-0.07953088756516376, ,0.000200343496681987, ,0.0009955147632432586,0.0010557185538211788,-0.005036290984368918,0.02182510266431166,0.000748935490063147,0.11124878831778473, ,0.005241165727961024, ,0.021837948791861208, ,2.076869238258888e-05, ,0.07976038512499073,-0.14622222424056686,0.09522675969000001,3.5687131481631202,1.3052884822592525,-0.17840593970723512, ,0.006181524004790535,-0.0036887683235383496,0.005451338644763861,0.010438999300703251,0.016021689139103137,0.09735611213225184, ,0.14476299285888672
0.010017036493014383,0.019872325916714867,-0.07951167337089682, ,0.01018093707397493,0.01997895999258304,-0.0796447275092137, ,0.0002365113745651814, ,0.0011367739143248374,0.0011328132163215298,-0.005192773262856984,0.00454924788888003,-0.009971918461478982,-0.05628697298915296, ,0.005435109463001137, ,0.010960602646806, ,2.1082001629755103e-05, ,0.07986850338522988,-0.14627628337068643,0.09531231483000001,3.569132528050089,1.305425118759018,-0.17802728517008826, ,0.007674995582206402,-0.004829630789113368,0.005442026484455074,0.013063697112198328,0.0,-0.04400949242570915, ,0.16425704956054688
0.010042318955174701,0.019899649610300163,-0.07964353785744707, ,0.010207936272847043,0.02001430269389475,-0.07975813803206407, ,0.0002317490571997516, ,0.0012716716454082406,0.001456706217967941,-0.005994662183835492,0.009597104418872678,-0.004027391008041857,-0.02327067547755492, ,0.006298818657296706, ,0.010407895263545337, ,2.128718830526687e-05, ,0.0800306807755886,-0.14637667889805137,0.09544972157,3.569342217993573,1.305425118759018,-0.17851735761093168, ,0.007459024054820498,-0.007751659802510026,0.006313440951248514,0.023802000040969162,0.0,-0.00042043578149129283, ,0.18176889419555664
0.010055501127150287,0.01991523121463197,-0.07970771968607038, ,0.01023500480836367,0.020049263637203215,-0.0798711209780554, ,0.0002772836888312198, ,0.0013022763355698265,0.0015670760738319704,-0.007306329137431331,0.006493087695194635,-0.007276395778412348,-0.0072059316738251585, ,0.00758512337011336, ,0.00975223577036799, ,2.1862293714003933e-05, ,0.08010790810433084,-0.1464539062267936,0.09551842494000001,3.5695519079370577,1.3055617552587835,-0.17862877551462797, ,0.00820122909485451,-0.005990992137124106,0.007614154646271511,0.006908785274889698,0.0,-0.000876817720580045, ,0.19990301132202148
0.010099290705054761,0.019968112147146937,-0.07994584474023902, ,0.010262142440342579,0.0200838447006955,-0.07998367818699113, ,0.00020333735842257154, ,0.0016600896937263236,0.0018341885848514564,-0.007322524449508319,0.014490445082960716,-0.0012301230898141054,-0.042634869716667925, ,0.007729133836961478, ,0.014542564439117027, ,2.191664673050423e-05, ,0.08033186735768336,-0.1467010336787688,0.09576601633000001,3.570390667710996,1.305425118759018,-0.17835400013065056, ,0.008556550121899093,-0.010866088777324855,0.007736188207867897,0.04739742382850743,-0.00021779653037940026,0.003248966442298774, ,0.21813106536865234
0.010111846970497055,0.019986558151091398,-0.08001045969311366, ,0.010289348929058046,0.020118047758411785,-0.08009581149414255, ,0.00023681510100737483, ,0.0015278540607991586,0.0016317354814681594,-0.005936894931129328,0.013471498161046966,-0.003496668557738409,-0.03304745690345149, ,0.006343785946566271, ,0.013917900212682134, ,2.2220995041526054e-05, ,0.08042454015217404,-0.14680915193900793,0.09583342341000001,3.570390667710996,1.3052884822592525,-0.17824258222695405, ,0.009268815494422608,-0.010437776509833432,0.006331006168521463,0.03746506757922806,0.0,0.0030713679756453967, ,0.232619047164917
0.010130489167903323,0.020017165700234776,-0.0801021907540413, ,0.010316624035240375,0.020151874680249565,-0.08020752273025307, ,0.0002660861429096732, ,0.0012758125818405838,0.0018850125165438603,-0.005353524504894482,0.015838473198952843,-0.00461062995674916,-0.029124188037370883, ,0.005817318502198025, ,0.01649591275057521, ,2.269651437631698e-05, ,0.08056354934391008,-0.14700994299373776,0.09593194145000002,3.570390667710996,1.3052884822592525,-0.17816090348681346, ,0.007888111756777703,-0.013990408603637148,0.00579651074235808,0.025617575329099286,0.0,-0.005015788693905592, ,0.2526259422302246
0.01014576347670251,0.020042076910361913,-0.0801715399932695, ,0.010343967520075461,0.020185327331967207,-0.08031881372154318, ,0.00028547342632740985, ,0.0010901233971973882,0.0019382910535841224,-0.00514088487945047,0.0096158200940596,-0.00651755761923228,0.0002603978756276596, ,0.005601253303795847, ,0.011616477513022102, ,2.324519543672615e-05, ,0.08073344946714302,-0.14734202050732942,0.09606675561000001,3.5712294274849343,1.3050152092597218,-0.17793806767942066, ,0.006485987871000371,-0.013781141672737552,0.006227056888193902,0.017073058197065057,-0.008888964815578767,0.0032494488056116592, ,0.2682759761810303
0.01017373046727797,0.020080977636242003,-0.08029053675123723, ,0.010371379145204652,0.020218407575187693,-0.0804296862897143, ,0.000278054998270414, ,0.001423574220088862,0.001986875049284121,-0.006381480022305029,0.01076263293717805,0.0057942167965764945,-0.03953088000705959, ,0.006833558611488422, ,0.01222322402000393, ,2.3683719254177606e-05, ,0.08081067679588527,-0.14748875243193968,0.09613157011000001,3.571439117428419,1.3048785727599563,-0.1778266497757242, ,0.006274527955716412,-0.014660426627293492,0.006758087195587612,0.05079727820734415,-0.008984579663089435,0.009525013001980194, ,0.2833569049835205
0.010192816631511082,0.02012046177354449,-0.08040395429457481, ,0.010398858672724116,0.0202511172674025,-0.08054014225195519, ,0.00027941249177149114, ,0.0013961642393704571,0.0018513403566504307,-0.005563445751941192,0.004797637900608897,0.002253069707355701,-0.017208182575594092, ,0.006027326466539864, ,0.005300344064460349, ,2.4082869967936e-05, ,0.08093424052187286,-0.14775904808253754,0.09625212508000001,3.571439117428419,1.3047419362601909,-0.17771523187202792, ,0.008741331334187516,-0.01366013265560253,0.005897375609033692,0.030923618223626388,-0.01279091703405525,0.012392385104601424, ,0.3021409511566162
0.010217181771920221,0.020160416433281834,-0.08050721201818628, ,0.010426405865184719,0.020283458261975296,-0.08065018342094454, ,0.0002816999020540261, ,0.0012853874740709611,0.002205344686283141,-0.00565325308719376,0.006337837400044951,-0.0047436642083678,0.011125212819162504, ,0.006202824889651616, ,0.007916471894534458, ,2.445403609560801e-05, ,0.08101919058348933,-0.1479057800071478,0.09630916184,3.571439117428419,1.3046052997604254,-0.17752213522819082, ,0.008181199311543865,-0.014424219723129773,0.004948372637465052,0.02527363793646663,-0.01279091703405525,0.011322951984481532, ,0.31775903701782227
0.010237353489805182,0.020180820089661405,-0.08057559185788511, ,0.010454020485591508,0.02031543240814585,-0.08075981160485708, ,0.0003146457985183424, ,0.0017545245077247968,0.001972884806884218,-0.007314490334196289,0.007759856570888871,0.007275619057089208,-0.050193883814383854, ,0.007776400167075538, ,0.010637198208521005, ,2.4967946278531217e-05, ,0.08121225890534495,-0.148222412054991,0.09643490197000001,3.572487567145841,1.3043320267608947,-0.17721762068065755, ,0.008146542832548873,-0.013313263406070535,0.007672837919075146,0.06348139491928995,-0.01201497748259152,0.01150744029775525, ,0.33406996726989746
0.010261768919873729,0.020214845163736554,-0.08070014088287107, ,0.010481702297403318,0.020347041551033496,-0.0808690286073678, ,0.0003071964173808354, ,0.001806196408529476,0.0022914001983538536,-0.008708368299907098,-0.016983769576789185,0.01849188276297145,-0.01129758770587003, ,0.009184146056222522, ,0.02510773002632233, ,2.5395329184614402e-05, ,0.08135126809708099,-0.14843092584259507,0.09656323468000001,3.572906947032811,1.303922117261598,-0.17680168822942766, ,0.009060819063398626,-0.014712704117592368,0.00886411325542571,0.04974686509402528,-0.040357907335908515,0.03721826947146116, ,0.3518059253692627
0.010288984996006898,0.02026036152217625,-0.08087141061112267, ,0.010509451064532509,0.020378287531641226,-0.08097783622765647, ,0.0002717319321207448, ,0.001550813610953618,0.0024085628421706994,-0.0088954700848689,-0.005923298736104025,0.00038361020093886445,0.009679729962522036, ,0.009345351028795114, ,0.00593570290738724, ,2.5609061706689727e-05, ,0.0815134454874397,-0.14866260782882182,0.09674341899000001,3.572906947032811,1.303922117261598,-0.17663833074914642, ,0.010069905706611424,-0.013192957258233114,0.009202086377816292,0.002870091921763875,-0.021580982961562717,0.01175606634588158, ,0.36657094955444336
0.010309056467687587,0.02028470191433606,-0.08096171825002257, ,0.010537266551344572,0.020409172186859406,-0.08108623626041245, ,0.0002882315491687488, ,0.0015247973746112904,0.0020218369335495046,-0.006903518705847778,0.013019656973223123,-0.00819427787725693,-0.0017139412838332575, ,0.007353325923789624, ,0.015383681027305076, ,2.5882758359810774e-05, ,0.08162928648055306,-0.14880933975343208,0.09683804816000001,3.5733263269197795,1.3037854807618328,-0.17652691284544997, ,0.010641056465403765,-0.011910924705759333,0.007360818632162663,0.01118853748218893,0.0,0.008383583824740077, ,0.38279294967651367
0.010339456614276613,0.02030883777108453,-0.08105704905726872, ,0.010565148522657735,0.020439697349469377,-0.081194230495839, ,0.0002947538190625928, ,0.002463171083985986,0.0016054415485946784,-0.006931670026940462,-0.017937966563629268,0.017552462401270157,-0.04417574513637267, ,0.00752945573845305, ,0.025097003103624275, ,2.6283177319555553e-05, ,0.0818300775352829,-0.14897151714379078,0.09693526991000001,3.574165086693718,1.3032389347627709,-0.17599956249052356, ,0.015405347655595907,-0.011017478261827446,0.007057515073105894,0.0842935219292567,-0.04052720894895543,0.03868815489393343, ,0.3986639976501465
0.010380250407803576,0.020346990039677913,-0.0811891898826009, ,0.010593096743742526,0.02046986484814732,-0.08130182071965893, ,0.0002703469747110565, ,0.0012737640478720483,0.0018333106813365795,-0.005373862454017001,0.021277643915679628,-0.022234219942425804,0.027099877508376984, ,0.005819097917946372, ,0.03077496811645834, ,2.6547853778386445e-05, ,0.08213898685025188,-0.14921864459576598,0.09707397294,3.5747941565241708,1.3028290252634747,-0.1754202725590127, ,0.012478230316695699,-0.010342216111321356,0.005925897142857144,-0.025899888119379818,0.014351572152612135,0.0005521530023559033, ,0.41220688819885254
0.010393408692137325,0.02036555156528637,-0.0812538392314242, ,0.010621110980321532,0.020499676507468093,-0.08140900871311788, ,0.0003064561962314686, ,0.0015655692038928028,0.0018889250972360413,-0.007163397294688162,0.020007311249467016,-0.012684044447489084,-0.009344965949018076, ,0.007571875973409193, ,0.023689184623296014, ,2.694816597414975e-05, ,0.08225482784336526,-0.14931131739025666,0.09714267631000001,3.5745844665806867,1.3028290252634747,-0.1754202725590127, ,0.010513728846789243,-0.009590569071055384,0.007672837919075146,0.012670347409684965,0.010281485381800688,0.0022377043739576982, ,0.42584896087646484
0.010409641745934305,0.020383926493937974,-0.08132095683595104, ,0.010649190998568911,0.020529134147908985,-0.08151579625298992, ,0.00034122061139622406, ,0.001680713036485287,0.002163687437784237,-0.007609654522467704,0.012176548993039757,-0.011449058692103515,0.008532138518676341, ,0.008087841590359574, ,0.01671374478680398, ,2.7465183602145744e-05, ,0.0823629461036044,-0.1494117129176216,0.09721526855000001,3.5747941565241708,1.3029656617632401,-0.1754500117225687, ,0.01262263122618659,-0.011784048374328917,0.008098023141840367,0.0018992105142013255,0.0,0.009480348698937444, ,0.4416489601135254
0.010454899532407304,0.020423025910408652,-0.08148322547064209, ,0.010677336565110133,0.020558239585853417,-0.08162218511158244, ,0.00029507753786961265, ,0.002148425345969242,0.0015615150247282035,-0.006272533890342186,0.007427759765964751,-0.0016368467714256906,-0.03528802293314013, ,0.006811662208679042, ,0.007605976123030111, ,2.7765406984824815e-05, ,0.08267185541857337,-0.14962022670522565,0.09738508254000001,3.575632916298109,1.3026923887637092,-0.17481878221447295, ,0.014592794334687189,-0.009445757047749885,0.006650860759916493,0.05441803109222158,-0.0076423873074969026,0.017739382173585384, ,0.455341100692749
0.010478929284161439,0.020446123730234154,-0.08156261947667855, ,0.01070554744702146,0.020586994633594646,-0.08172817705673956, ,0.0003140218391566264, ,0.0022765196622648214,0.0018493861092351185,-0.007046287366993207,0.007071871540300834,-0.0028312986714220775,-0.0111399121771957, ,0.007632361129556057, ,0.00761758504246824, ,2.8120227769682067e-05, ,0.08286492374042899,-0.1497592358969617,0.09746934139,3.5758426062415936,1.302555752263944,-0.17446232809035495, ,0.01633056987755477,-0.011012050947467768,0.007471299962476548,0.04439033721898612,-0.009315327066358148,0.03196303653391237, ,0.468264102935791
0.010496025125161346,0.020464457712236393,-0.08163204229688704, ,0.010733823411829735,0.020615401099339785,-0.0818337738518478, ,0.0003464499264245121, ,0.0021362895842201995,0.0019244510756274364,-0.008063966274845989,-0.00453027286372375,0.002118929450110463,0.011403319941478564, ,0.008561238065372602, ,0.005001319839321447, ,2.857523939615044e-05, ,0.08300393293216503,-0.14985190869145237,0.09754193363000001,3.5758426062415936,1.3024191157641782,-0.17418755270637726, ,0.014927944243899762,-0.009835173272900882,0.008365972436974792,0.031813651473041396,-0.019989413385834754,0.042394389582371, ,0.4817209243774414
0.010525405772376496,0.020493642142927683,-0.08174552419975664, ,0.01076216422751184,0.02064346078721334,-0.08193897725584079, ,0.00034047654421701795, ,0.0020633146222496356,0.002220120113084663,-0.00879456832155478,-0.0005654746609095277,-0.001713255890131792,0.013334593591667058, ,0.009302184287005234, ,0.0018041493083104376, ,2.8982056229051585e-05, ,0.08320472398689487,-0.15000636334893688,0.09766248860000001,3.576261986128563,1.3024191157641782,-0.17410587396623683, ,0.014363090897301466,-0.011369263176848504,0.009170300241796202,0.01995385073031238,-0.0159243424671322,0.03240925351098704, ,0.4993460178375244
0.010570206552941646,0.02052652111826455,-0.08189721047301891, ,0.010790569662494498,0.020671175497261024,-0.08204378902320345, ,0.00030161243473845225, ,0.002286545763443678,0.0018330778012529863,-0.007723138175253497,0.0036856257083614113,0.004292529820669726,-0.03994163793705643, ,0.008260467845577914, ,0.00565770462701012, ,2.9228543808224866e-05, ,0.0834364059731216,-0.1501994316707925,0.09781933969,3.5779395056764387,1.302009206264882,-0.1736082627748664, ,0.013695618640275764,-0.010613825619950265,0.008081588797564689,0.06536314428022609,-0.014287746062028215,0.023870293344949348, ,0.5122640132904053
0.010597565964001427,0.020561900353855793,-0.08201970710375524, ,0.01081903948565374,0.020698547025453675,-0.08214821090397659, ,0.0002902344919598386, ,0.0016477295006070102,0.0018002158973124786,-0.006200022938275047,-0.013269726375860633,0.006331610337249542,0.0120265464307448, ,0.006663037912187199, ,0.014702888096951526, ,2.942237934600507e-05, ,0.08366808795934834,-0.15039249999264812,0.09794637611000001,3.5777298157329547,1.3015992967655858,-0.1730289728433556, ,0.012062659407457835,-0.01139638236357556,0.0063868530553328,0.019845228610914797,-0.029915550806465102,0.031157053872024276, ,0.5272409915924072
0.01061791637105516,0.02058261450740939,-0.08208958712879179, ,0.010847573466314568,0.02072557716369083,-0.08225224464376193, ,0.0003156551435828296, ,0.0017702454363586594,0.0019417104987816515,-0.006850714074970148,-0.0058329905135356555,-0.0032774657237385684,0.02767834390922493, ,0.007337321848128351, ,0.006690705853019293, ,2.9690861315285298e-05, ,0.08382254261683283,-0.15051606371863568,0.09802156093000002,3.5779395056764387,1.3015992967655858,-0.17294729410321497, ,0.014435190380053359,-0.010798059406144705,0.007155800323450135,0.0020904754479995433,-0.019395050809969828,0.029221983178307313, ,0.5407810211181641
0.010662484396748925,0.020620469266979607,-0.08223348624207294, ,0.010876171374250695,0.02075226769980463,-0.08235589198372702, ,0.00027931365315511935, ,0.0018194942720550277,0.0020044246704964013,-0.006970902091985999,-7.499773488003902e-05,-0.0036792792378726154,0.013142957036910829, ,0.007478084891320133, ,0.003680041291875123, ,2.9826974548617016e-05, ,0.08411600646605336,-0.15074774570486243,0.09817322686,3.5789879553938615,1.3013260237660549,-0.1723977433352597, ,0.014172183625817023,-0.010896292212469705,0.007936627563527655,0.08790150547190637,-0.010051456600921412,0.016088706510394832, ,0.5540640354156494
0.010682310704887926,0.020642137485615483,-0.082324220836965, ,0.010904832979683941,0.020778620417563412,-0.08245915466060882, ,0.00029385521989006545, ,0.0021681630941736193,0.0020900346224170356,-0.009323421875148416,-0.01792699378594023,0.016104082109067865,-0.014306435615046059, ,0.009797722765410055, ,0.024098101508779474, ,3.0097886644316845e-05, ,0.08424729292491517,-0.15085586396510156,0.09826526345000001,3.579197645337346,1.3009161142667585,-0.17190013214388944, ,0.011794173260231227,-0.01085782506965872,0.0094757950743605,0.05498917544210981,-0.03798163779144534,0.0396285514542786, ,0.5678160190582275
0.010692732295944465,0.0206565555430586,-0.0823807507207897, ,0.01093355805328421,0.020804637096675738,-0.08256203440671939, ,0.0003358406864931373, ,0.0020696725865166393,0.002155774560333077,-0.009209224978518197,-0.013182813959371003,0.010290125066298906,-0.00477769475949996, ,0.009681979822088106, ,0.01672343240869556, ,3.0487779105322823e-05, ,0.0843167975207832,-0.15092536856096958,0.09832359650000001,3.579197645337346,1.300779477766993,-0.17178871424019293, ,0.012068795823282562,-0.010992211369575901,0.00942533226035503,0.03995466736114697,-0.03135379397033976,0.034223989233769764, ,0.58309006690979
0.01072437205675374,0.020696971790020953,-0.08253399582374552, ,0.010962346366168687,0.020830319512793898,-0.08266453294995048, ,0.0003024125136764375, ,0.00196567337837436,0.0020728489258332143,-0.0082081638240896,-0.0027432819557957617,-7.739077409167801e-05,0.006072195539520587, ,0.008691060226627748, ,0.0027443665866652804, ,3.075911465391788e-05, ,0.08454075677413571,-0.1511184368828252,0.09848563275000001,3.579197645337346,1.300779477766993,-0.1717070355000524, ,0.013328222128998705,-0.010622260104900423,0.008540917705093834,0.022085177862112403,-0.017584891282035733,0.02728968899542146, ,0.5949668884277344
0.010747887109816997,0.020713365613400647,-0.08260320481413554, ,0.010991197689901653,0.020855669437517953,-0.08276665201377693, ,0.00032583032978861194, ,0.0019906165226169685,0.0019739327377931402,-0.007207625193647997,0.001647458137130854,-0.0024714540414913916,-0.006235746017303313, ,0.007733616587700514, ,0.002970216143810085, ,3.10890147351453e-05, ,0.08467204323299753,-0.15121883241019013,0.09855952128,3.5800364051112843,1.300779477766993,-0.17154367801977138, ,0.01411316798906466,-0.011319244629987566,0.007585148342857144,0.026898823710712613,-0.013719392021400214,0.019574056766444067, ,0.607180118560791
0.010793059356644454,0.0207453142221653,-0.08273200681024331, ,0.011020111796494286,0.02088068863839926,-0.08286839331726328, ,0.0002974564208578371, ,0.0015507405808557135,0.0017547349754511205,-0.006281241571340486,-0.03449956377244175,0.009140811118663428,0.06646191988578243, ,0.006703572693774571, ,0.03568997504367808, ,3.132244548868864e-05, ,0.0849500616164696,-0.1514350689306684,0.09869174286000001,3.5815042347156765,1.300096295268166,-0.17065987354072693, ,0.014136293990536388,-0.009540361265545392,0.0062810770977918,-0.014549247403548918,-0.04887367889316571,0.052198221282152665, ,0.6213150024414062
0.010813003381875873,0.02076634235818163,-0.08280841861261644, ,0.011049088458403983,0.020905378878944322,-0.08296975857506698, ,0.00031795896110759647, ,0.0016402632878384732,0.002006012676687964,-0.007268821475381656,-0.010289820192666662,-0.003194585484956285,0.0422783393873868, ,0.007716885132839094, ,0.010774309988409008, ,3.1605258791516076e-05, ,0.08509679354107987,-0.15153546445803334,0.09876692768,3.5815042347156765,1.2999596587684004,-0.17046677689688988, ,0.0135026951562992,-0.00999780614876785,0.007429482985074627,-0.012208774571955055,-0.023011924440076405,0.030618327273766635, ,0.6328780651092529
0.010831524730709268,0.020788287499411886,-0.08288894315683044, ,0.011078127448534134,0.020929741918618516,-0.08307074949744331, ,0.000337454883856696, ,0.002000834341821887,0.0022122701282377482,-0.008994611366632118,-0.0022330950274591812,-0.0032855594370031506,0.02460942928607734, ,0.009476313144913194, ,0.003972600576864724, ,3.193171405083091e-05, ,0.08524352546569014,-0.15164358271827247,0.09885118653000001,3.5815042347156765,1.2999596587684004,-0.17030341941660881, ,0.014096396547604098,-0.010229124663356159,0.009239449837587009,0.008482188238865599,-0.0157152329466891,0.03272969729769015, ,0.6440849304199219
0.010855824883947516,0.020805803083386858,-0.08297384329926578, ,0.01110722854023375,0.020953779512850126,-0.0831713677902509, ,0.00035230206727993334, ,0.002871056661973909,0.0018139277801906787,-0.009396442763208362,0.008976279638070548,0.011419578136522359,-0.08577220240251736, ,0.009991318078725301, ,0.014525160505321018, ,3.22864800809249e-05, ,0.08537481192455196,-0.15173625551276318,0.09894711199,3.582342994489614,1.2999596587684004,-0.17022174067646817, ,0.013777140179801218,-0.009249096404098132,0.009790295955746774,0.11601143308340972,-0.011956985324203999,0.02798856355871602, ,0.6553699970245361
0.01089852176813501,0.020844813814098175,-0.08314943331657988, ,0.011136391507297014,0.02097749341303357,-0.08327161515495463, ,0.0002985201675118265, ,0.0023657094894262765,0.002152125181252681,-0.010056729339344013,-0.0306948459944999,0.01766989714746878,0.048410308840882495, ,0.010553010432524271, ,0.035417491906674585, ,3.248246604564207e-05, ,0.08565283030802404,-0.15191387836887033,0.09912600001,3.5829720643200678,1.2992764762695732,-0.16909289997700216, ,0.015508570282476021,-0.00929133166470268,0.010126390031786397,0.03142931000194471,-0.04960569764315821,0.07959753287763838, ,0.6722080707550049
0.010927130292906408,0.020873917933457733,-0.08326797672600364, ,0.011165616123962944,0.02100088536653379,-0.08337149328863205, ,0.00028933008729658914, ,0.0020847525399158057,0.0019443731965790919,-0.006965997642505836,0.028050039377032095,-0.02339976383370387,-0.04291161859949954, ,0.007526745872929248, ,0.03652880562136433, ,3.264679714637707e-05, ,0.08587678956137655,-0.15204516482773214,0.09924785127,3.5829720643200678,1.298866566770277,-0.16835025256521008, ,0.015664731191560047,-0.010004220715568897,0.007636055378715245,0.018344569822877053,0.019083055629984056,-0.026080677791804868, ,0.6840419769287109
0.01095002798509414,0.020889126933429418,-0.0833321917800232, ,0.011194902164915017,0.02102395711668952,-0.08347100388397724, ,0.0003121079019586778, ,0.002234165568156648,0.0018737862895591747,-0.007139520594480008,0.022532705363175882,-0.020395317182448674,-0.036762196342722285, ,0.007712024712348944, ,0.03039229763289252, ,3.2864454234746966e-05, ,0.08602352148598681,-0.1521301148893486,0.09931655464000001,3.5836011341505216,1.298866566770277,-0.16826857382506943, ,0.016882572773255788,-0.009195341595809118,0.007755020214216165,0.022871859339750854,0.013110219447049404,-0.01527394535924225, ,0.6954569816589355
0.010978779414663374,0.020904535561851595,-0.0834010828233919, ,0.011224249405280759,0.02104671040281732,-0.08357014862930542, ,0.0003302309016832293, ,0.0029317404708635707,0.001631240823550498,-0.0072042349164631,0.019692051774878934,9.285053077380187e-05,-0.09757643548207666, ,0.007947140966693817, ,0.019692270181963022, ,3.320559314827196e-05, ,0.08619342160921975,-0.15222278768383932,0.09939173946,3.584649583867944,1.2990032032700423,-0.16846167046890653, ,0.017151082877005383,-0.010247693806066218,0.007736188207867897,0.10850639973964199,0.0,0.008435546479219624, ,0.7061879634857178
0.010992460597185769,0.02091563441340332,-0.08344207096435555, ,0.011253657620631357,0.021069146960215224,-0.08366892920855779, ,0.00037848996030018337, ,0.0024886325182244106,0.0018929230682702101,-0.007185227211235014,0.014404083401686968,-0.0106961062715905,-0.03475297689502822, ,0.007836066591742668, ,0.017941133990481854, ,3.365826082860163e-05, ,0.08629381713658467,-0.15228456954683312,0.09943581332000001,3.5848592738114284,1.2990032032700423,-0.16846167046890653, ,0.01801042732178227,-0.010505770757853533,0.007724932841901067,0.04366530590779188,0.0,0.007376450085167511, ,0.7172191143035889
0.011026340054798904,0.020946538569990375,-0.08356870993031226, ,0.01128312658698129,0.021091268520166608,-0.08376734730130575, ,0.00035544744582494077, ,0.0021199073562402594,0.0020128876264386237,-0.008896477034911213,-0.021998740185521566,0.0035051446181741056,0.054707910920716085, ,0.009364455532940177, ,0.022276232913449115, ,3.404009635311241e-05, ,0.08657183552005675,-0.15242357873856915,0.09956544232000002,3.5848592738114284,1.2984566572709806,-0.16752592641327751, ,0.01637848490826213,-0.007909636314645497,0.009065914354012522,0.0,-0.034772474800647685,0.05475001868847801, ,0.727294921875
0.011050245073536077,0.020964817230808903,-0.08364930377149751, ,0.01131265608078801,0.02111307680994397,-0.08386540458275661, ,0.00037086385663626266, ,0.0023994523751979776,0.0020411089763984875,-0.008910916171158256,-0.023375972024534234,0.01153488437141138,0.037792275148103766, ,0.00945134511928262, ,0.02606702072293168, ,3.444848674163591e-05, ,0.08671856744466702,-0.1525008060673114,0.09964321972000001,3.5852786536983974,1.298320020771215,-0.16716947228915935, ,0.017040212167080404,-0.009643814733961769,0.008948770516853935,0.029932041349272513,-0.042975110577061826,0.06938178304295112, ,0.7371389865875244
0.011082296765959253,0.020983314261952657,-0.0837449868222521, ,0.011342245878951527,0.02113457355281244,-0.08396310272375701, ,0.0003715204717188231, ,0.003189385703528192,0.001823927511728005,-0.010211282665433611,-0.004104804268835289,0.019477766038503697,-0.05998103189595286, ,0.010852151234077661, ,0.019905594111105242, ,3.4846625754362984e-05, ,0.08689619030077418,-0.1526012015946763,0.09975081179,3.586536793359304,1.298320020771215,-0.16700611480887828, ,0.016108800128750767,-0.0083489320058694,0.010493288221343874,0.12139166063670727,-0.02717853652459354,0.059467873740843016, ,0.7481241226196289
0.011096422632217872,0.02099491848110907,-0.08379785041938452, ,0.011371895758813887,0.0211557604680338,-0.08406044339079786, ,0.0004131714618293088, ,0.002891841335532702,0.002067226957712837,-0.010439976429252427,-0.0052100168024917055,0.0072284374127566785,-0.03426227117809759, ,0.011028566608944995, ,0.008910356810516168, ,3.533255839079901e-05, ,0.08698886309526488,-0.15264753799192166,0.09980655226000001,3.5867464833027887,1.298320020771215,-0.1669244360687377, ,0.01693076566609648,-0.008494528956721864,0.010769987505070995,0.07187057377540475,-0.02311454175356831,0.03624578734519862, ,0.7587730884552002
0.01113848562098567,0.021032948728799856,-0.08397269103298603, ,0.011401605498158924,0.0211766392708703,-0.08415742824601996, ,0.0003521461053649598, ,0.0026197244189980857,0.0023755789017500437,-0.010243898304420981,0.0009166670522008577,-0.007414969904985762,0.032566706560748046, ,0.010837148315920284, ,0.007471408459719606, ,3.5661550773475455e-05, ,0.08729004967735964,-0.1527865471836577,0.09998673657000001,3.586956173246274,1.2979101112719187,-0.16610010991680502, ,0.01912473630763216,-0.009551454927176696,0.010712045406859449,0.014071393870501206,-0.0123408216815387,0.045976280629636906, ,0.7690119743347168
0.011171600297842449,0.021056378274207567,-0.08408132507811286, ,0.011431374875212005,0.021197211672588125,-0.08425405894721749, ,0.0003422774703114471, ,0.0032124052372886442,0.0019736835579398024,-0.009991596694730837,-0.038370581581374054,0.02174624831821917,0.006143055609677161, ,0.010679278004883927, ,0.04410443001819649, ,3.5958560416231464e-05, ,0.08751400893071215,-0.15289466544389685,0.10009821751,3.587585243076727,1.2975002017726225,-0.16535746250501282, ,0.021810374984709443,-0.008912408066490024,0.010030737732997482,0.06875713573164541,-0.06123248619587851,0.07424160503328386, ,0.7791531085968018
0.011206689331114808,0.02107291410364095,-0.08417426614195303, ,0.011461203668639229,0.02121747938046148,-0.08435033714784303, ,0.0003415811270881425, ,0.003423505176675201,0.0017409403809332882,-0.00961983344043759,-0.004938741716248468,0.013551488976789205,-0.050438137072070066, ,0.010358207206193907, ,0.014423381740937935, ,3.624584298379026e-05, ,0.08771479998544199,-0.1529718927726391,0.10019543926,3.5888433827376343,1.297363565272857,-0.16500100838089493, ,0.020268462528507215,-0.007839810089065776,0.009936875558328137,0.11094809258277083,-0.02666181021165895,0.058747314370769854, ,0.7935080528259277
0.011254800877270923,0.021115673295616522,-0.08435020378847702, ,0.011491091657547584,0.021237444097776025,-0.08444626449701245, ,0.00028264663597264255, ,0.002428296509096792,0.0019590651918559906,-0.008037507576060691,0.0014407244627907922,-0.0032674539809617047,0.03397183776272104, ,0.00862183787815953, ,0.0035709815110126783, ,3.639262581728103e-05, ,0.08807776843053053,-0.15314951562874626,0.10038210502000001,3.589053072681119,1.297363565272857,-0.16459261468019215, ,0.017976310202400224,-0.009108085391020402,0.008450297888594166,0.024959414027413522,-0.01273835087682977,0.05819636480018531, ,0.8046069145202637
0.011283064158305245,0.021132967003545465,-0.0844303129217572, ,0.011521038621484058,0.02125710752383317,-0.08454184263950906, ,0.000290657172360076, ,0.002332493996322396,0.0016850894695865722,-0.007078694409050271,0.003549964499454344,-0.008114667018150437,0.01158020357262743, ,0.007641202084758074, ,0.008857203339070226, ,3.655329563385079e-05, ,0.08827083675238614,-0.15323446569036273,0.10046506758000001,3.589682142511572,1.2970902922733263,-0.16404306391223705, ,0.0179593000678408,-0.007445149028285265,0.007488862961918196,0.02268681912512009,-0.007560248891449165,0.03352268081023488, ,0.8145499229431152
0.011307985229403619,0.021144343336515457,-0.08449089506497659, ,0.011551044340435725,0.021276471353953122,-0.0846370732157889, ,0.0003128955036791516, ,0.003390209840135746,0.0012797479963622925,-0.006991093751712233,0.011598937247395334,0.013730322521285728,-0.06995262122094724, ,0.007874431378809289, ,0.017973788835612504, ,3.6758505567789486e-05, ,0.08842529140987064,-0.15329624755335652,0.1005272895,3.5905209022855105,1.2968170192737953,-0.1634935131442818, ,0.0194620470792598,-0.008103094156733498,0.007405305216178523,0.14127413067692038,-0.012007911059196645,0.06890113340403842, ,0.8240869045257568
0.011307985229403619,0.021144343336515457,-0.08449089506497659, ,0.011581108594828875,0.02129553727947927,-0.08473195786198495, ,0.00039442014810561765, ,0.003390209840135746,0.0012797479963622925,-0.006991093751712233,0.011598937247395334,0.013730322521285728,-0.06995262122094724, ,0.007874431378809289, ,0.017973788835612504, ,3.7215398453400484e-05, ,0.08842529140987064,-0.15329624755335652,0.1005272895,3.5905209022855105,1.2968170192737953,-0.1634935131442818, ,0.0194620470792598,-0.008103094156733498,0.007405305216178523,0.14127413067692038,-0.012007911059196645,0.06890113340403842, ,0.8345620632171631
0.011361111869451756,0.02118037671222993,-0.08464758336158092, ,0.011611231165529024,0.02131430698778156,-0.08482649820991205, ,0.0003354213826411121, ,0.0025212134446474417,0.00187482997562214,-0.008558566431359094,-0.009702976978314126,0.002746011605981786,0.03463323548885315, ,0.009117047988847545, ,0.010084061486402039, ,3.753587997780845e-05, ,0.08882687351933032,-0.153450702210841,0.10069321462000001,3.5911499721159643,1.2966803827740299,-0.1628920227997422, ,0.018106647883699825,-0.0076636640405387665,0.008849339733333334,0.029527317908234832,-0.024143463321216967,0.06365868055656948, ,0.8449459075927734
0.01139035539470072,0.02120113007030388,-0.08474693492341054, ,0.01164141183384032,0.021332782162260467,-0.08492069588707066, ,0.0004199832649220992, ,0.002739156325138637,0.0021777466541145073,-0.010234956268186565,0.009069452962722492,-0.014958125001495029,0.008258797246254862, ,0.010816648634153991, ,0.017492866211413292, ,3.802909412862173e-05, ,0.08902766457406015,-0.15352792953958325,0.10079691782000001,3.5915693520029333,1.2965437462742644,-0.16253556867562396, ,0.01975373471242106,-0.006930610936538859,0.010777274370771315,0.016586770235104933,0.0,0.02408595993526803, ,0.8533580303192139
0.01139035539470072,0.02120113007030388,-0.08474693492341054, ,0.011671650381505194,0.021350964482350666,-0.08501455251665326, ,0.0004161687120000253, ,0.002739156325138637,0.0021777466541145073,-0.010234956268186565,0.009069452962722492,-0.014958125001495029,0.008258797246254862, ,0.010816648634153991, ,0.017492866211413292, ,3.85039328709682e-05, ,0.08902766457406015,-0.15352792953958325,0.10079691782000001,3.5915693520029333,1.2965437462742644,-0.16253556867562396, ,0.01975373471242106,-0.006930610936538859,0.010777274370771315,0.016586770235104933,0.0,0.02408595993526803, ,0.8614680767059326
0.011428338075766431,0.02121969293055165,-0.08486147132991431, ,0.011701946590704075,0.021368855623524977,-0.08510806971754725, ,0.0003973938766571571, ,0.003928560566835916,0.0018112232588622487,-0.011493244148071773,0.006374634855389293,0.01976888696244345,-0.12898097468330158, ,0.012280422585071239, ,0.020771246008070857, ,3.892986678427862e-05, ,0.08922073289591576,-0.1536051568683255,0.10091358392000001,3.5930371816073245,1.296133836774968,-0.16195627874411295, ,0.01829162327649784,-0.007620878177014719,0.011896050425690816,0.17063838531973524,-0.019281507510659893,0.03875089418480624, ,0.8696489334106445
0.011460858924317443,0.02124017504601603,-0.08497759997727511, ,0.01173230024405482,0.0213864572572977,-0.08520124910434068, ,0.0003809170610978424, ,0.0031348011122788694,0.0022657019493208647,-0.012367460447590871,-0.02968247369634433,0.016229985589402078,0.02082871774282853, ,0.012958181248131459, ,0.03382988896863621, ,3.931313371262523e-05, ,0.08940607848489715,-0.1536746614641935,0.10103154631000001,3.593875941381263,1.2957239272756718,-0.16129531007246173, ,0.01935882120735838,-0.006894489910836603,0.012502991773940349,0.052249357367433455,-0.04805459751128573,0.0726532231565742, ,0.8819069862365723
0.011460858924317443,0.02124017504601603,-0.08497759997727511, ,0.011762711124612524,0.02140377105122891,-0.0852940922873262, ,0.0004669537301126027, ,0.0031348011122788694,0.0022657019493208647,-0.012367460447590871,-0.02968247369634433,0.016229985589402078,0.02082871774282853, ,0.012958181248131459, ,0.03382988896863621, ,3.9863822229019274e-05, ,0.08940607848489715,-0.1536746614641935,0.10103154631000001,3.593875941381263,1.2957239272756718,-0.16129531007246173, ,0.01935882120735838,-0.006894489910836603,0.012502991773940349,0.052249357367433455,-0.04805459751128573,0.0726532231565742, ,0.8906629085540771
0.011516585468375955,0.021285929434420828,-0.08519987431194993, ,0.011793179015869034,0.021420798668927786,-0.08538660087250638, ,0.00035994514769411656, ,0.0024409321362915434,0.002067447234017886,-0.009096512973363974,-0.0009750302304578056,-0.01187564712981262,0.029580537126345657, ,0.00964256376872915, ,0.011915603904896661, ,4.01876650446423e-05, ,0.08978449239573415,-0.15381367065592955,0.10126358222000001,3.594295321268232,1.2955872907759065,-0.16061214098778115, ,0.018933946839279885,-0.007176284673260589,0.009526801148325359,0.0,-0.009972480802497439,0.029218076460932663, ,0.8985819816589355
0.011552616768118956,0.02130238130563337,-0.08529132559822654, ,0.011823703701752447,0.021437541770056672,-0.08547877646159774, ,0.0003562222661605248, ,0.003939631603079154,0.0013438204573709847,-0.00889278157706292,0.023469831911121838,0.010722081208785133,-0.13233988727191984, ,0.00981876340314698, ,0.025803022686685075, ,4.049761303054512e-05, ,0.0899930061833382,-0.15389089798467182,0.10135950768000002,3.5955534609291395,1.2954506542761408,-0.1601740081235225, ,0.020182250437786212,-0.006595539714445107,0.009436499715639812,0.17649848596606427,0.0,0.04097367389626511, ,0.9067890644073486
0.011588317887923796,0.02131992773987034,-0.08539299489066231, ,0.01185428496662695,0.021454002010334733,-0.0855706206520358, ,0.00034679288928402436, ,0.0031683037965545644,0.0018925267764093937,-0.009934677828450861,-0.004973323509592566,0.0048955574100476,-0.014567412471383906, ,0.01059800123144934, ,0.0069785623383226015, ,4.078280043001409e-05, ,0.0902092427038165,-0.15396040258053983,0.10146321088000002,3.596601910646562,1.2950407447768446,-0.15943136071173025, ,0.020212341120015073,-0.0069254432035472475,0.010289929922480621,0.06917296461901307,-0.02180491272756038,0.053448031285731994, ,0.9157779216766357
0.01161222607317134,0.02133781979512615,-0.08548142353066844, ,0.01188492259529236,0.02147018104154154,-0.08566213503697974, ,0.0003529016027773655, ,0.0027758013157354058,0.0020414907259545534,-0.01036414859062831,-0.03132475198888432,0.015187733627475492,0.08257074292542974, ,0.010921919855832107, ,0.03481245783224186, ,4.107436129229842e-05, ,0.09037914282704944,-0.15402218444353363,0.10155265489000001,3.5968116005900463,1.2946308352775482,-0.15868871329993833, ,0.019598707467672612,-0.006617566087614806,0.010465710591327202,0.02447638974024478,-0.048120354512541534,0.10725793394341959, ,0.9244050979614258
0.01161222607317134,0.02133781979512615,-0.08548142353066844, ,0.01191561637298358,0.021486080511521278,-0.08575332120531648, ,0.0004335380715982948, ,0.0027758013157354058,0.0020414907259545534,-0.01036414859062831,-0.03132475198888432,0.015187733627475492,0.08257074292542974, ,0.010921919855832107, ,0.03481245783224186, ,4.159715862517046e-05, ,0.09037914282704944,-0.15402218444353363,0.10155265489000001,3.5968116005900463,1.2946308352775482,-0.15868871329993833, ,0.019598707467672612,-0.006617566087614806,0.010465710591327202,0.02447638974024478,-0.048120354512541534,0.10725793394341959, ,0.931143045425415
0.011641996825328025,0.02135885717486992,-0.08558879974597895, ,0.011946366085370523,0.02150170206418597,-0.08584418074166635, ,0.00042221411845273153, ,0.0027018504875180086,0.0021742021286928915,-0.011180161543400735,-0.014564701312085199,-0.0004017914162883548,0.02875795024199512, ,0.011705689347059007, ,0.014570236304658249, ,4.20900786327852e-05, ,0.09057221114890505,-0.15408396630652743,0.10166543212000001,3.5972309804770153,1.2946308352775482,-0.15836199833937614, ,0.018302206665085977,-0.005774226399349167,0.011467826868250543,0.016310269601719756,-0.025681207852752318,0.04486556343451545, ,0.9375970363616943
0.01168221873045265,0.021377710867570416,-0.0857139325544199, ,0.01197717151855729,0.021517047339519643,-0.08593471522638652, ,0.0003938994641614469, ,0.004311941739970325,0.0018012528179601967,-0.012504203977670129,0.023157251620036717,0.011985680179882337,-0.13139628002940457, ,0.01334887524843533, ,0.026075170685516326, ,4.2521319836667244e-05, ,0.09077300220363489,-0.15413802543664698,0.10179506112000002,3.5986988100814075,1.294494198777783,-0.15784218673497685, ,0.02013514567334411,-0.005579275490511994,0.013088587937551356,0.18082675132286638,0.0,0.0462721143446257, ,0.9440650939941406
0.01168221873045265,0.021377710867570416,-0.0857139325544199, ,0.012008032459082187,0.021532117973581948,-0.08602492623557692, ,0.0004761441062009798, ,0.004311941739970325,0.0018012528179601967,-0.012504203977670129,0.023157251620036717,0.011985680179882337,-0.13139628002940457, ,0.01334887524843533, ,0.026075170685516326, ,4.310207662386707e-05, ,0.09077300220363489,-0.15413802543664698,0.10179506112000002,3.5986988100814075,1.294494198777783,-0.15784218673497685, ,0.02013514567334411,-0.005579275490511994,0.013088587937551356,0.18082675132286638,0.0,0.0462721143446257, ,0.9508750438690186
0.011721476763346093,0.021399110867648778,-0.0858478058994427, ,0.012038948693917155,0.02154691559851194,-0.08611481534108344, ,0.0004403733723686612, ,0.003834598709120191,0.002284647336581883,-0.013510456746909476,0.003070895120306062,0.006817197286532798,-0.026985764130961258, ,0.014228710490506464, ,0.007476906147651322, ,4.360671893247949e-05, ,0.09097379325836473,-0.15419980729964078,0.10193246786000001,3.5999569497423143,1.294220925778252,-0.15721095722688117, ,0.021306003942180237,-0.006033627731570221,0.01398490914837577,0.09730960162878147,-0.01531790061402828,0.06877280431194496, ,0.9573290348052979
0.011721476763346093,0.021399110867648778,-0.0858478058994427, ,0.012069920010467397,0.021561441842531816,-0.08620438411050405, ,0.000524320572240519, ,0.003834598709120191,0.002284647336581883,-0.013510456746909476,0.003070895120306062,0.006817197286532798,-0.026985764130961258, ,0.014228710490506464, ,0.007476906147651322, ,4.4260725841845104e-05, ,0.09097379325836473,-0.15419980729964078,0.10193246786000001,3.5999569497423143,1.294220925778252,-0.15721095722688117, ,0.021306003942180237,-0.006033627731570221,0.01398490914837577,0.09730960162878147,-0.01531790061402828,0.06877280431194496, ,0.9641599655151367
0.011799464011090107,0.021447167331969427,-0.08613548411708996, ,0.012100946196571014,0.021575698329950536,-0.08629363410719258, ,0.0003638999106537719, ,0.003937301985170059,0.0023651112466781506,-0.013996655168532404,-0.007051512193379842,0.005750350839411578,0.011400077338805164, ,0.014731003157911291, ,0.0090988912405784, ,4.4607399324751205e-05, ,0.09144487996369242,-0.15430792555987993,0.10222542940000001,3.6014247793467056,1.2934011067796591,-0.15539894744273464, ,0.02406719288827562,-0.005219816982414483,0.014415214045248871,0.07380031715730272,-0.023931347101154618,0.08429367254819084, ,0.9741899967193604
0.011799464011090107,0.021447167331969427,-0.08613548411708996, ,0.012132027040498547,0.021589686681168008,-0.08638256689026323, ,0.00043813220633080616, ,0.003937301985170059,0.0023651112466781506,-0.013996655168532404,-0.007051512193379842,0.005750350839411578,0.011400077338805164, ,0.014731003157911291, ,0.0090988912405784, ,4.508567300620941e-05, ,0.09144487996369242,-0.15430792555987993,0.10222542940000001,3.6014247793467056,1.2934011067796591,-0.15539894744273464, ,0.02406719288827562,-0.005219816982414483,0.014415214045248871,0.07380031715730272,-0.023931347101154618,0.08429367254819084, ,0.9807929992675781
0.011840577833081345,0.021472913567866687,-0.08627230887748032, ,0.012163162330952767,0.021603408512678512,-0.08647118401459605, ,0.00040080046039295107, ,0.003968147371904116,0.0023104408985494497,-0.012339215167852803,0.008588949499420946,-0.010846914500183774,-0.03288887037735341, ,0.013165886284994573, ,0.013835654000830953, ,4.548870366136135e-05, ,0.09171517561429028,-0.15437743015574795,0.10236931759000001,3.6020538491771594,1.2934011067796591,-0.15515391122231303, ,0.02652234252612375,-0.006635297123984089,0.012960790496338487,0.06634688188508898,-0.0055718778889902315,0.032022238274943396, ,0.9875600337982178
0.011881498461888004,0.02149113758647089,-0.08638674668841961, ,0.012194351857067976,0.021616865437074344,-0.08655948703084042, ,0.0003788455690550667, ,0.004491960993510554,0.0017237983396775768,-0.011981369449594331,0.011309840510670684,0.0028792185088841096,-0.055614734570589644, ,0.0129113286756541, ,0.01167056745374172, ,4.58460371539378e-05, ,0.09197002579913968,-0.1544237665529933,0.10248857627,3.6031022988945822,1.2932644702798939,-0.1546340996179139, ,0.02708246049043116,-0.003487667390191006,0.012532503162863888,0.13029596192201137,-0.006931350874959626,0.07272326041646802, ,0.9941699504852295
0.011881498461888004,0.02149113758647089,-0.08638674668841961, ,0.012225595408409918,0.02163005906305,-0.08664747748542119, ,0.0004535222527789589, ,0.004491960993510554,0.0017237983396775768,-0.011981369449594331,0.011309840510670684,0.0028792185088841096,-0.055614734570589644, ,0.0129113286756541, ,0.01167056745374172, ,4.6332772476754386e-05, ,0.09197002579913968,-0.1544237665529933,0.10248857627,3.6031022988945822,1.2932644702798939,-0.1546340996179139, ,0.02708246049043116,-0.003487667390191006,0.012532503162863888,0.13029596192201137,-0.006931350874959626,0.07272326041646802, ,1.0007600784301758
0.011923143952019873,0.021509210849516507,-0.0865060644398829, ,0.012256892774975308,0.021642990995405585,-0.08673515692054172, ,0.00042634348705316514, ,0.004250005840360358,0.0018158437196625025,-0.011939188327467262,-0.03637360317004725,0.024598718703186258,-0.013654468823563661, ,0.012802501942044978, ,0.043910542319811216, ,4.68477279778707e-05, ,0.09223259871686332,-0.15447010295023864,0.10260913124000001,3.604150748612005,1.292717924280832,-0.15353499808200377, ,0.02707473368287326,-0.004918571119269595,0.012030824410876134,0.10691994052561207,-0.060020708619094504,0.09239470640425271, ,1.0074570178985596
0.011923143952019873,0.021509210849516507,-0.0865060644398829, ,0.012288243747191303,0.021655662835050722,-0.08682252687418963, ,0.0005048707922117074, ,0.004250005840360358,0.0018158437196625025,-0.011939188327467262,-0.03637360317004725,0.024598718703186258,-0.013654468823563661, ,0.012802501942044978, ,0.043910542319811216, ,4.7497153304569624e-05, ,0.09223259871686332,-0.15447010295023864,0.10260913124000001,3.604150748612005,1.292717924280832,-0.15353499808200377, ,0.02707473368287326,-0.004918571119269595,0.012030824410876134,0.10691994052561207,-0.060020708619094504,0.09239470640425271, ,1.0125958919525146
0.011940326939345275,0.021516600860295387,-0.08655536978573937, ,0.012319648115915304,0.02166807617900839,-0.08690958888014119, ,0.0005406482165073001, ,0.00417756425246368,0.0019817649790915375,-0.0123665510447357,-0.027768050244168174,0.0169856164578726,0.023341361291761106, ,0.013202689887211232, ,0.03255112120322193, ,4.820310500065755e-05, ,0.09234071697710246,-0.15448554841598708,0.10265968655,3.6045701284989735,1.2925812877810665,-0.15309686521774507, ,0.02762647498063196,-0.004762378892180217,0.012572069076558801,0.08457488935537903,-0.048534511032668676,0.10733272820278073, ,1.0179738998413086
0.011940326939345275,0.021516600860295387,-0.08655536978573937, ,0.0123511056724344,0.02168023262041845,-0.08699634446796556, ,0.000624478334967488, ,0.00417756425246368,0.0019817649790915375,-0.0123665510447357,-0.027768050244168174,0.0169856164578726,0.023341361291761106, ,0.013202689887211232, ,0.03255112120322193, ,4.904943484186657e-05, ,0.09234071697710246,-0.15448554841598708,0.10265968655,3.6045701284989735,1.2925812877810665,-0.15309686521774507, ,0.02762647498063196,-0.004762378892180217,0.012572069076558801,0.08457488935537903,-0.048534511032668676,0.10733272820278073, ,1.0230669975280762
0.01201960975596867,0.02155276106406522,-0.0867822253991365, ,0.012382616208465171,0.021692133748541613,-0.08708279516303008, ,0.0004914678145100551, ,0.004640660059852463,0.0020715055191390655,-0.013713525670416832,-0.0015824664702808822,0.006147691767072678,-0.021331853118086337, ,0.014624898195205151, ,0.0063480571191635365, ,4.965350415762877e-05, ,0.09283497188105283,-0.15456277574472935,0.10289820391000001,3.6064573379903346,1.2925812877810665,-0.15219839907619898, ,0.028549019722764975,-0.0038445051807546446,0.014196801711229948,0.11170016478145972,-0.02052607428672449,0.08893668099212457, ,1.0288701057434082
0.01201960975596867,0.02155276106406522,-0.0867822253991365, ,0.012414179516153152,0.02170378114876316,-0.08716894248650439, ,0.0005727499168891375, ,0.004640660059852463,0.0020715055191390655,-0.013713525670416832,-0.0015824664702808822,0.006147691767072678,-0.021331853118086337, ,0.014624898195205151, ,0.0063480571191635365, ,5.0393101722055045e-05, ,0.09283497188105283,-0.15456277574472935,0.10289820391000001,3.6064573379903346,1.2925812877810665,-0.15219839907619898, ,0.028549019722764975,-0.0038445051807546446,0.014196801711229948,0.11170016478145972,-0.02052607428672449,0.08893668099212457, ,1.0337810516357422
0.012065233297831442,0.021572519586652385,-0.0869169226886049, ,0.01244579538807243,0.021715176402596525,-0.08725478795536518, ,0.000528518126602012, ,0.005239246407517298,0.002065673739470683,-0.014875128142380909,0.00489219235035988,-0.000462309735175785,-0.07066461942480848, ,0.015905538286045972, ,0.004913913714692874, ,5.104820384260339e-05, ,0.09312071299739914,-0.15459366667622623,0.10303690694,3.607505787707757,1.2923080147815358,-0.15132213334768146, ,0.03211402421606456,-0.0023768508832147503,0.01546486555339806,0.13208708709544761,-0.012793487942670385,0.059538424750912144, ,1.0387070178985596
0.012065233297831442,0.021572519586652385,-0.0869169226886049, ,0.012477463617225286,0.021726321087687454,-0.08734033308240126, ,0.0006106268087162374, ,0.005239246407517298,0.002065673739470683,-0.014875128142380909,0.00489219235035988,-0.000462309735175785,-0.07066461942480848, ,0.015905538286045972, ,0.004913913714692874, ,5.183832853550222e-05, ,0.09312071299739914,-0.15459366667622623,0.10303690694,3.607505787707757,1.2923080147815358,-0.15132213334768146, ,0.03211402421606456,-0.0023768508832147503,0.01546486555339806,0.13208708709544761,-0.012793487942670385,0.059538424750912144, ,1.0435690879821777
0.012124586436548896,0.021595109396228343,-0.08709645453203714, ,0.012509183997041914,0.021737216777817363,-0.0874255793762174, ,0.0005257689173923699, ,0.005689388004440597,0.002134397868700872,-0.017401341964220655,-0.07777876333799384,0.06092631526942766,0.01642684009782274, ,0.01843180653877243, ,0.09880055831388435, ,5.2474503676027765e-05, ,0.09346823597673924,-0.15462455760772315,0.10321449867000002,3.609183307255633,1.2912149227834122,-0.14928728775614208, ,0.03266676129379373,-0.002768840535618489,0.017127754322580648,0.1663992320075194,-0.11355149334628697,0.18240022849876256, ,1.0483670234680176
0.012124586436548896,0.021595109396228343,-0.08709645453203714, ,0.012540956321379882,0.021747865042907395,-0.0875105283412401, ,0.000606758014412953, ,0.005689388004440597,0.002134397868700872,-0.017401341964220655,-0.07777876333799384,0.06092631526942766,0.01642684009782274, ,0.01843180653877243, ,0.09880055831388435, ,5.324259684420703e-05, ,0.09346823597673924,-0.15462455760772315,0.10321449867000002,3.609183307255633,1.2912149227834122,-0.14928728775614208, ,0.03266676129379373,-0.002768840535618489,0.017127754322580648,0.1663992320075194,-0.11355149334628697,0.18240022849876256, ,1.0533509254455566
0.012184260624084326,0.02161809972899683,-0.08727624259550285, ,0.012572780384523793,0.02175826744902186,-0.08759518147772097, ,0.0005218396349258087, ,0.006048291084920455,0.00252459086397713,-0.01851887525587385,-0.020900187246508488,0.009061713898043569,-0.03541307986892453, ,0.019644442593797915, ,0.022780041870749564, ,5.385843331426346e-05, ,0.0938312044218278,-0.1546400030734716,0.10339597927000001,3.610651136860025,1.290531740284585,-0.147995089576395, ,0.03791328068656444,-0.0015772302333560504,0.01896287085714286,0.127709138590615,-0.041590390742811185,0.09112773674173467, ,1.0592949390411377
0.012184260624084326,0.02161809972899683,-0.08727624259550285, ,0.012604655981184954,0.021768425558372297,-0.08767954028174203, ,0.0006016470185873675, ,0.006048291084920455,0.00252459086397713,-0.01851887525587385,-0.020900187246508488,0.009061713898043569,-0.03541307986892453, ,0.019644442593797915, ,0.022780041870749564, ,5.4603055511631606e-05, ,0.0938312044218278,-0.1546400030734716,0.10339597927000001,3.610651136860025,1.290531740284585,-0.147995089576395, ,0.03791328068656444,-0.0015772302333560504,0.01896287085714286,0.127709138590615,-0.041590390742811185,0.09112773674173467, ,1.0658390522003174
0.012228133492794849,0.021637827230059723,-0.08741264189872981, ,0.012636582906500844,0.021778340929321176,-0.08776360624522085, ,0.0005565527789390609, ,0.006213396952959806,0.002722584040512629,-0.018996713740700066,0.0072064305133183884,-0.014901996091383984,-0.08400806835594159, ,0.020171611202350868, ,0.016552934914766997, ,5.5357434378268705e-05, ,0.09410922280529987,-0.15465544853922003,0.10353727488000002,3.611489896633963,1.2903951037848196,-0.14747527797199594, ,0.03952392401435684,-0.0016375589568021266,0.019787343503105594,0.11850184936630268,-0.007236808921385213,0.03267813868111016, ,1.0692179203033447
0.012228133492794849,0.021637827230059723,-0.08741264189872981, ,0.012668560956034835,0.02178801511638558,-0.08784738085591409, ,0.0006368129336537641, ,0.006213396952959806,0.002722584040512629,-0.018996713740700066,0.0072064305133183884,-0.014901996091383984,-0.08400806835594159, ,0.020171611202350868, ,0.016552934914766997, ,5.624163280666741e-05, ,0.09410922280529987,-0.15465544853922003,0.10353727488000002,3.611489896633963,1.2903951037848196,-0.14747527797199594, ,0.03952392401435684,-0.0016375589568021266,0.019787343503105594,0.11850184936630268,-0.007236808921385213,0.03267813868111016, ,1.0725579261779785
0.012305993152079375,0.021672464475415664,-0.08765071668650591, ,0.012700589925775902,0.021797449670240956,-0.08793086559742286, ,0.0004998112894134909, ,0.005764387179952402,0.0027271847193070316,-0.01760742796537191,0.005886137413787704,-0.018646545630151556,-0.02534928208510675, ,0.018726644536845947, ,0.01955348013225675, ,5.6890423466299155e-05, ,0.09460347770925025,-0.1546786167378427,0.10378616256,3.612957726238355,1.2903951037848196,-0.1468218480508714, ,0.03908440756114941,-0.002427103164178762,0.018393546789838337,0.08044917999525365,-0.006440766143789278,0.05392239845894689, ,1.0759210586547852
0.012305993152079375,0.021672464475415664,-0.08765071668650591, ,0.012732669612137976,0.021806646137724903,-0.08801406194919753, ,0.0005762614857759037, ,0.005764387179952402,0.0027271847193070316,-0.01760742796537191,0.005886137413787704,-0.018646545630151556,-0.02534928208510675, ,0.018726644536845947, ,0.01955348013225675, ,5.766251134416777e-05, ,0.09460347770925025,-0.1546786167378427,0.10378616256,3.612957726238355,1.2903951037848196,-0.1468218480508714, ,0.03908440756114941,-0.002427103164178762,0.018393546789838337,0.08044917999525365,-0.006440766143789278,0.05392239845894689, ,1.0791759490966797
0.012305993152079375,0.021672464475415664,-0.08765071668650591, ,0.012764799811959663,0.021815606061840992,-0.08809697138654118, ,0.00065584778891023, ,0.005764387179952402,0.0027271847193070316,-0.01760742796537191,0.005886137413787704,-0.018646545630151556,-0.02534928208510675, ,0.018726644536845947, ,0.01955348013225675, ,5.8561883667332325e-05, ,0.09460347770925025,-0.1546786167378427,0.10378616256,3.612957726238355,1.2903951037848196,-0.1468218480508714, ,0.03908440756114941,-0.002427103164178762,0.018393546789838337,0.08044917999525365,-0.006440766143789278,0.05392239845894689, ,1.082556962966919
0.012372570313262006,0.021695464953706195,-0.08783230803897765, ,0.012796980322504007,0.02182433098176262,-0.08817959538061648, ,0.0005633283294797095, ,0.007563444019133172,0.002207988872681116,-0.018946482892686745,-0.0015409906450398018,0.017021787907879615,-0.10553678212521676, ,0.02051950570299676, ,0.017091327459447286, ,5.9301858065582814e-05, ,0.09503595075020682,-0.15468633947071692,0.10397153203000001,3.6144255558427463,1.2898485577857577,-0.1456410677748206, ,0.04478383273169929,-0.0014319291639355767,0.01959263409594096,0.2312246659619232,-0.03200610971169361,0.12285749826362394, ,1.0858778953552246
0.012372570313262006,0.021695464953706195,-0.08783230803897765, ,0.01282921094145777,0.021832822432836355,-0.08826193539844758, ,0.0006418468730134291, ,0.007563444019133172,0.002207988872681116,-0.018946482892686745,-0.0015409906450398018,0.017021787907879615,-0.10553678212521676, ,0.02051950570299676, ,0.017091327459447286, ,6.0166722787702255e-05, ,0.09503595075020682,-0.15468633947071692,0.10397153203000001,3.6144255558427463,1.2898485577857577,-0.1456410677748206, ,0.04478383273169929,-0.0014319291639355767,0.01959263409594096,0.2312246659619232,-0.03200610971169361,0.12285749826362394, ,1.0891718864440918
0.012372570313262006,0.021695464953706195,-0.08783230803897765, ,0.012861491466931536,0.021841081946586217,-0.08834399290292702, ,0.0007225438416565798, ,0.007563444019133172,0.002207988872681116,-0.018946482892686745,-0.0015409906450398018,0.017021787907879615,-0.10553678212521676, ,0.02051950570299676, ,0.017091327459447286, ,6.1158832171691e-05, ,0.09503595075020682,-0.15468633947071692,0.10397153203000001,3.6144255558427463,1.2898485577857577,-0.1456410677748206, ,0.04478383273169929,-0.0014319291639355767,0.01959263409594096,0.2312246659619232,-0.03200610971169361,0.12285749826362394, ,1.0923209190368652
0.01245419018830931,0.02171504272278825,-0.08804529417219221, ,0.012893821697458764,0.021849111050717015,-0.08842576935281947, ,0.0005966670289734331, ,0.008511718768865148,0.0022656351871192673,-0.022771143621038718,-0.06874926614007285,0.07939158541147648,-0.05761669693846291, ,0.024415311609957725, ,0.10502132786491951, ,6.193773096418698e-05, ,0.09548386925691184,-0.15468633947071692,0.10418153101000001,3.6173612150515297,1.2884821927881034,-0.14322002889560737, ,0.045733465811311214,-0.0009636083675230254,0.022690614700854702,0.3061089636473063,-0.11961626604022266,0.24639162300332057, ,1.0955219268798828
0.01245419018830931,0.02171504272278825,-0.08804529417219221, ,0.01292620143199563,0.021856911269118543,-0.08850726620276572, ,0.0006755290190927309, ,0.008511718768865148,0.0022656351871192673,-0.022771143621038718,-0.06874926614007285,0.07939158541147648,-0.05761669693846291, ,0.024415311609957725, ,0.10502132786491951, ,6.284060094317938e-05, ,0.09548386925691184,-0.15468633947071692,0.10418153101000001,3.6173612150515297,1.2884821927881034,-0.14322002889560737, ,0.045733465811311214,-0.0009636083675230254,0.022690614700854702,0.3061089636473063,-0.11961626604022266,0.24639162300332057, ,1.0987811088562012
0.01245419018830931,0.02171504272278825,-0.08804529417219221, ,0.012958630469920929,0.02186448412186891,-0.08858848490328883, ,0.000756206916009678, ,0.008511718768865148,0.0022656351871192673,-0.022771143621038718,-0.06874926614007285,0.07939158541147648,-0.05761669693846291, ,0.024415311609957725, ,0.10502132786491951, ,6.38691910151587e-05, ,0.09548386925691184,-0.15468633947071692,0.10418153101000001,3.6173612150515297,1.2884821927881034,-0.14322002889560737, ,0.045733465811311214,-0.0009636083675230254,0.022690614700854702,0.3061089636473063,-0.11961626604022266,0.24639162300332057, ,1.102489948272705
0.01252671514961929,0.02173535200333034,-0.0882348432616889, ,0.012991108611035132,0.021871831125238505,-0.08866942690079746, ,0.0006505004051524104, ,0.008669923918127355,0.002855184351824209,-0.02471089632954779,-0.005899259364932701,0.025623692184585108,-0.08860057493359526, ,0.026342893839490702, ,0.026293832895687742, ,6.471921056495072e-05, ,0.09587772863349729,-0.15469406220359116,0.10437597451000001,3.619877494373344,1.288072283288807,-0.14174227282255014, ,0.04844152197982173,0.0,0.02540480306220096,0.25762853232086436,-0.0402111167680253,0.1662338561108849, ,1.108361005783081
0.01252671514961929,0.02173535200333034,-0.0882348432616889, ,0.013023635655560506,0.021878953791693755,-0.08875009363759111, ,0.0007300920576978022, ,0.008669923918127355,0.002855184351824209,-0.02471089632954779,-0.005899259364932701,0.025623692184585108,-0.08860057493359526, ,0.026342893839490702, ,0.026293832895687742, ,6.569271726927469e-05, ,0.09587772863349729,-0.15469406220359116,0.10437597451000001,3.619877494373344,1.288072283288807,-0.14174227282255014, ,0.04844152197982173,0.0,0.02540480306220096,0.25762853232086436,-0.0402111167680253,0.1662338561108849, ,1.1128320693969727
0.01252671514961929,0.02173535200333034,-0.0882348432616889, ,0.013056211404140254,0.021885853629900944,-0.08883048655186465, ,0.0008110536062946283, ,0.008669923918127355,0.002855184351824209,-0.02471089632954779,-0.005899259364932701,0.025623692184585108,-0.08860057493359526, ,0.026342893839490702, ,0.026293832895687742, ,6.679072723980149e-05, ,0.09587772863349729,-0.15469406220359116,0.10437597451000001,3.619877494373344,1.288072283288807,-0.14174227282255014, ,0.04844152197982173,0.0,0.02540480306220096,0.25762853232086436,-0.0402111167680253,0.1662338561108849, ,1.1162409782409668
0.012634454420862473,0.021782328413887247,-0.08857956017730101, ,0.013088835657838624,0.021892532144729904,-0.08891060707771334, ,0.0005728867436764691, ,0.007473335781375115,0.003777077358851488,-0.025858987642550218,-0.0012460274733916941,-0.01115907792781641,0.08917615634306254, ,0.027180954784067003, ,0.011227913519788434, ,6.749814316443412e-05, ,0.09652643819493215,-0.15469406220359116,0.10473504684000001,3.621974393808189,1.288072283288807,-0.13912855313805206, ,0.04831819834952687,0.0,0.02677111179831933,0.0834887573626488,-0.016773302464076257,0.1724286738188533, ,1.1197268962860107
0.012634454420862473,0.021782328413887247,-0.08857956017730101, ,0.013121508218140072,0.021898990837257656,-0.0889904566451363, ,0.0006478174355084189, ,0.007473335781375115,0.003777077358851488,-0.025858987642550218,-0.0012460274733916941,-0.01115907792781641,0.08917615634306254, ,0.027180954784067003, ,0.011227913519788434, ,6.832129107643982e-05, ,0.09652643819493215,-0.15469406220359116,0.10473504684000001,3.621974393808189,1.288072283288807,-0.13912855313805206, ,0.04831819834952687,0.0,0.02677111179831933,0.0834887573626488,-0.016773302464076257,0.1724286738188533, ,1.1230039596557617
0.012634454420862473,0.021782328413887247,-0.08857956017730101, ,0.013154228886949044,0.021905231204772366,-0.08907003668004267, ,0.0007251467378018178, ,0.007473335781375115,0.003777077358851488,-0.025858987642550218,-0.0012460274733916941,-0.01115907792781641,0.08917615634306254, ,0.027180954784067003, ,0.011227913519788434, ,6.926289772547812e-05, ,0.09652643819493215,-0.15469406220359116,0.10473504684000001,3.621974393808189,1.288072283288807,-0.13912855313805206, ,0.04831819834952687,0.0,0.02677111179831933,0.0834887573626488,-0.016773302464076257,0.1724286738188533, ,1.126288890838623
0.012720159679006568,0.021820937556000036,-0.08884626618711934, ,0.013186997466589837,0.02191125474077713,-0.08914934860425519, ,0.0005638738026886957, ,0.008308641667400056,0.0029030550412792004,-0.022583242620625298,0.010251058866472547,-0.010802384722235967,-0.08516417486155871, ,0.024237658760531716, ,0.014891939081398709, ,7.005301099219251e-05, ,0.09708247496187632,-0.1547017849364654,0.10501374919,3.6232325334690962,1.288072283288807,-0.1379850507760842, ,0.05245823192839733,0.0,0.023563330650887577,0.1795038415612673,-0.011218711081510659,0.09200532219885275, ,1.1279408931732178
0.012720159679006568,0.021820937556000036,-0.08884626618711934, ,0.01321981375980558,0.021917062934993455,-0.08922839383551542, ,0.0006363299683453973, ,0.008308641667400056,0.0029030550412792004,-0.022583242620625298,0.010251058866472547,-0.010802384722235967,-0.08516417486155871, ,0.024237658760531716, ,0.014891939081398709, ,7.095616403422314e-05, ,0.09708247496187632,-0.1547017849364654,0.10501374919,3.6232325334690962,1.288072283288807,-0.1379850507760842, ,0.05245823192839733,0.0,0.023563330650887577,0.1795038415612673,-0.011218711081510659,0.09200532219885275, ,1.1295950412750244
0.012720159679006568,0.021820937556000036,-0.08884626618711934, ,0.013252677569758597,0.02192265727336531,-0.08930717378748804, ,0.0007115883788746769, ,0.008308641667400056,0.0029030550412792004,-0.022583242620625298,0.010251058866472547,-0.010802384722235967,-0.08516417486155871, ,0.024237658760531716, ,0.014891939081398709, ,7.19762790260073e-05, ,0.09708247496187632,-0.1547017849364654,0.10501374919,3.6232325334690962,1.288072283288807,-0.1379850507760842, ,0.05245823192839733,0.0,0.023563330650887577,0.1795038415612673,-0.011218711081510659,0.09200532219885275, ,1.1313180923461914
0.012720159679006568,0.021820937556000036,-0.08884626618711934, ,0.01328558870002944,0.0219280392380628,-0.08938568986976547, ,0.000788770345230518, ,0.008308641667400056,0.0029030550412792004,-0.022583242620625298,0.010251058866472547,-0.010802384722235967,-0.08516417486155871, ,0.024237658760531716, ,0.014891939081398709, ,7.311585623777917e-05, ,0.09708247496187632,-0.1547017849364654,0.10501374919,3.6232325334690962,1.288072283288807,-0.1379850507760842, ,0.05245823192839733,0.0,0.023563330650887577,0.1795038415612673,-0.011218711081510659,0.09200532219885275, ,1.1330029964447021
0.012720159679006568,0.021820937556000036,-0.08884626618711934, ,0.013318546954616687,0.02193321030748587,-0.08946394348787291, ,0.0008672933472617663, ,0.008308641667400056,0.0029030550412792004,-0.022583242620625298,0.010251058866472547,-0.010802384722235967,-0.08516417486155871, ,0.024237658760531716, ,0.014891939081398709, ,7.437645542988075e-05, ,0.09708247496187632,-0.1547017849364654,0.10501374919,3.6232325334690962,1.288072283288807,-0.1379850507760842, ,0.05245823192839733,0.0,0.023563330650887577,0.1795038415612673,-0.011218711081510659,0.09200532219885275, ,1.1346790790557861
0.012720159679006568,0.021820937556000036,-0.08884626618711934, ,0.013351552137936719,0.021938171956268113,-0.08954193604327268, ,0.0009467612637621399, ,0.008308641667400056,0.0029030550412792004,-0.022583242620625298,0.010251058866472547,-0.010802384722235967,-0.08516417486155871, ,0.024237658760531716, ,0.014891939081398709, ,0.00041568633203988703, ,0.09708247496187632,-0.1547017849364654,0.10501374919,3.6232325334690962,1.288072283288807,-0.1379850507760842, ,0.05245823192839733,0.0,0.023563330650887577,0.1795038415612673,-0.011218711081510659,0.09200532219885275, ,1.1363649368286133
0.012805774150357965,0.021844351754100128,-0.08906394242997165, ,0.013384604054823043,0.021942925655280558,-0.0896196689333686, ,0.0008084508759812111, ,0.010253959556845344,0.0024991601279410573,-0.02418184007714094,0.026503137685022264,0.01181511839396918,-0.19950522420325795, ,0.02638467125917869, ,0.02901732346261637, ,0.00041907223328076053, ,0.09758445259870091,-0.15469406220359116,0.10523800736000001,3.6257488127909108,1.2876623737895108,-0.13667065218330843, ,0.058398117882135864,0.0003185426109607266,0.02528382780952381,0.3379239377754538,-0.011442802677740322,0.13369220708013535, ,1.1380300521850586
0.012805774150357965,0.021844351754100128,-0.08906394242997165, ,0.013417702510526036,0.02194747287163534,-0.08969714355151122, ,0.0008865855532201423, ,0.010253959556845344,0.0024991601279410573,-0.02418184007714094,0.026503137685022264,0.01181511839396918,-0.19950522420325795, ,0.02638467125917869, ,0.02901732346261637, ,0.0004230680736221228, ,0.09758445259870091,-0.15469406220359116,0.10523800736000001,3.6257488127909108,1.2876623737895108,-0.13667065218330843, ,0.058398117882135864,0.0003185426109607266,0.02528382780952381,0.3379239377754538,-0.011442802677740322,0.13369220708013535, ,1.139681100845337
0.012805774150357965,0.021844351754100128,-0.08906394242997165, ,0.013450847310712638,0.02195181506868957,-0.08977436128700247, ,0.0009655893012132542, ,0.010253959556845344,0.0024991601279410573,-0.02418184007714094,0.026503137685022264,0.01181511839396918,-0.19950522420325795, ,0.02638467125917869, ,0.02901732346261637, ,0.00042766571114408153, ,0.09758445259870091,-0.15469406220359116,0.10523800736000001,3.6257488127909108,1.2876623737895108,-0.13667065218330843, ,0.058398117882135864,0.0003185426109607266,0.02528382780952381,0.3379239377754538,-0.011442802677740322,0.13369220708013535, ,1.14131498336792
0.012805774150357965,0.021844351754100128,-0.08906394242997165, ,0.013484038261465731,0.02195595370604908,-0.08985132352509931, ,0.0010452110739272032, ,0.010253959556845344,0.0024991601279410573,-0.02418184007714094,0.026503137685022264,0.01181511839396918,-0.19950522420325795, ,0.02638467125917869, ,0.02901732346261637, ,0.00043285516797419174, ,0.09758445259870091,-0.15469406220359116,0.10523800736000001,3.6257488127909108,1.2876623737895108,-0.13667065218330843, ,0.058398117882135864,0.0003185426109607266,0.02528382780952381,0.3379239377754538,-0.011442802677740322,0.13369220708013535, ,1.14296293258667
0.012805774150357965,0.021844351754100128,-0.08906394242997165, ,0.013517275169284027,0.021959890239572063,-0.08992803164701973, ,0.0011252701971423342, ,0.010253959556845344,0.0024991601279410573,-0.02418184007714094,0.026503137685022264,0.01181511839396918,-0.19950522420325795, ,0.02638467125917869, ,0.02901732346261637, ,0.0004386252932172596, ,0.09758445259870091,-0.15469406220359116,0.10523800736000001,3.6257488127909108,1.2876623737895108,-0.13667065218330843, ,0.058398117882135864,0.0003185426109607266,0.02528382780952381,0.3379239377754538,-0.011442802677740322,0.13369220708013535, ,1.1446149349212646
0.012805774150357965,0.021844351754100128,-0.08906394242997165, ,0.013550557841081452,0.02196362612137289,-0.09000448702994614, ,0.001205633968166619, ,0.010253959556845344,0.0024991601279410573,-0.02418184007714094,0.026503137685022264,0.01181511839396918,-0.19950522420325795, ,0.02638467125917869, ,0.02901732346261637, ,0.0004449642078862626, ,0.09758445259870091,-0.15469406220359116,0.10523800736000001,3.6257488127909108,1.2876623737895108,-0.13667065218330843, ,0.058398117882135864,0.0003185426109607266,0.02528382780952381,0.3379239377754538,-0.011442802677740322,0.13369220708013535, ,1.1463100910186768
0.012805774150357965,0.021844351754100128,-0.08906394242997165, ,0.0135838860841868,0.021967162799826127,-0.09008069104703129, ,0.0012862031273526931, ,0.013483796404992386,0.0023466822672303916,-0.03300635610974994,-0.12090285780175805,0.1473749823401397,-0.1324126507162032, ,0.03573148788951065, ,0.19062226331489163, ,0.0004518596088654956, ,0.09758445259870091,-0.15469406220359116,0.10523800736000001,3.6257488127909108,1.2876623737895108,-0.13667065218330843, ,0.058398117882135864,0.0003185426109607266,0.02528382780952381,0.3379239377754538,-0.011442802677740322,0.13369220708013535, ,1.1484160423278809
0.012935776662656965,0.02186782118214354,-0.08937839683311671, ,0.013617259706343528,0.021970501719569775,-0.09015664506740173, ,0.0010395348699135541, ,0.013483796404992386,0.0023466822672303916,-0.03300635610974994,-0.12090285780175805,0.1473749823401397,-0.1324126507162032, ,0.03573148788951065, ,0.19062226331489163, ,0.00045663745651629284, ,0.09827177582450689,-0.15466317127209425,0.10555041325000002,3.630781371434539,1.28588609929256,-0.1330985721916002, ,0.06987992750991957,0.003535149258552006,0.03257425668711657,0.5350228458342682,-0.20674662099713484,0.3991669124937517, ,1.152642011642456
0.012935776662656965,0.02186782118214354,-0.08937839683311671, ,0.013650678515709027,0.021973644321509587,-0.09023235045616332, ,0.0011187135409196497, ,0.013483796404992386,0.0023466822672303916,-0.03300635610974994,-0.12090285780175805,0.1473749823401397,-0.1324126507162032, ,0.03573148788951065, ,0.19062226331489163, ,0.0004619767797776102, ,0.09827177582450689,-0.15466317127209425,0.10555041325000002,3.630781371434539,1.28588609929256,-0.1330985721916002, ,0.06987992750991957,0.003535149258552006,0.03257425668711657,0.5350228458342682,-0.20674662099713484,0.3991669124937517, ,1.1544389724731445
0.012935776662656965,0.02186782118214354,-0.08937839683311671, ,0.013684142320854537,0.021976592042822422,-0.09030780857440517, ,0.0011982021713163196, ,0.013483796404992386,0.0023466822672303916,-0.03300635610974994,-0.12090285780175805,0.1473749823401397,-0.1324126507162032, ,0.03573148788951065, ,0.19062226331489163, ,0.0004678665829099199, ,0.09827177582450689,-0.15466317127209425,0.10555041325000002,3.630781371434539,1.28588609929256,-0.1330985721916002, ,0.06987992750991957,0.003535149258552006,0.03257425668711657,0.5350228458342682,-0.20674662099713484,0.3991669124937517, ,1.1561579704284668
0.012935776662656965,0.02186782118214354,-0.08937839683311671, ,0.01371765093076454,0.021979346316960274,-0.0903830207792047, ,0.0012779023827656144, ,0.013483796404992386,0.0023466822672303916,-0.03300635610974994,-0.12090285780175805,0.1473749823401397,-0.1324126507162032, ,0.03573148788951065, ,0.19062226331489163, ,0.0004742954384643302, ,0.09894365358456442,-0.1546477258063458,0.10588615236000001,3.6358139300781676,1.2841098247956093,-0.12952649219989226, ,0.07408036031106227,0.0008324034604696524,0.038382678361445786,0.5014928037247636,-0.1768181428369289,0.381465797836229, ,1.158060073852539
0.013066922089196074,0.021896066037791713,-0.08971556124171798, ,0.013751204154836548,0.021981908573653723,-0.09045798842363227, ,0.0010133158474856755, ,0.014202614522630197,0.0036272844129573937,-0.03832703538039704,-0.094295141221171,0.12350757940944762,-0.11631510405154537, ,0.041034535364021324, ,0.15538858750105602, ,0.0004785396936534746, ,0.09894365358456442,-0.1546477258063458,0.10588615236000001,3.6358139300781676,1.2841098247956093,-0.12952649219989226, ,0.07408036031106227,0.0008324034604696524,0.038382678361445786,0.5014928037247636,-0.1768181428369289,0.381465797836229, ,1.1616458892822266
0.013066922089196074,0.021896066037791713,-0.08971556124171798, ,0.013784801802880567,0.021984280238916024,-0.09053271285675622, ,0.0010912698064912002, ,0.014202614522630197,0.0036272844129573937,-0.03832703538039704,-0.094295141221171,0.12350757940944762,-0.11631510405154537, ,0.041034535364021324, ,0.15538858750105602, ,0.0004833266476600193, ,0.09894365358456442,-0.1546477258063458,0.10588615236000001,3.6358139300781676,1.2841098247956093,-0.12952649219989226, ,0.07408036031106227,0.0008324034604696524,0.038382678361445786,0.5014928037247636,-0.1768181428369289,0.381465797836229, ,1.1634209156036377
0.013066922089196074,0.021896066037791713,-0.08971556124171798, ,0.01381844368511871,0.02198646273504679,-0.09060719542364612, ,0.0011696015502706027, ,0.014202614522630197,0.0036272844129573937,-0.03832703538039704,-0.094295141221171,0.12350757940944762,-0.11631510405154537, ,0.041034535364021324, ,0.15538858750105602, ,0.0004886466081453726, ,0.09894365358456442,-0.1546477258063458,0.10588615236000001,3.6358139300781676,1.2841098247956093,-0.12952649219989226, ,0.07408036031106227,0.0008324034604696524,0.038382678361445786,0.5014928037247636,-0.1768181428369289,0.381465797836229, ,1.1650989055633545
0.013066922089196074,0.021896066037791713,-0.08971556124171798, ,0.013852129612184988,0.021988457480635597,-0.09068143746537914, ,0.00124820026930902, ,0.014202614522630197,0.0036272844129573937,-0.03832703538039704,-0.094295141221171,0.12350757940944762,-0.11631510405154537, ,0.041034535364021324, ,0.15538858750105602, ,0.0004944893286158623, ,0.09894365358456442,-0.1546477258063458,0.10588615236000001,3.6358139300781676,1.2841098247956093,-0.12952649219989226, ,0.07408036031106227,0.0008324034604696524,0.038382678361445786,0.5014928037247636,-0.1768181428369289,0.381465797836229, ,1.1667470932006836
0.013197907877869022,0.021942619484884907,-0.0901109023828673, ,0.013885859395124602,0.021990265890565873,-0.09075544031904342, ,0.0009439155795084355, ,0.01205811031142995,0.005486202397191661,-0.0406090440571574,-0.010887321074262959,-0.010744449512281042,0.01137380131204757, ,0.04271523030795592, ,0.015292694945354766, ,0.0004979200633555002, ,0.09969275867336419,-0.15462455760772315,0.10629059484000002,3.6389592792304355,1.2832900057970167,-0.12697937375448076, ,0.07322294873338794,0.0023950246699099144,0.04191792505263159,0.17473065275268673,-0.03678585997718985,0.18495293859481277, ,1.1684799194335938
0.013197907877869022,0.021942619484884907,-0.0901109023828673, ,0.013919632845393881,0.021991889376018613,-0.09082920531774341, ,0.0010194476726015516, ,0.01205811031142995,0.005486202397191661,-0.0406090440571574,-0.010887321074262959,-0.010744449512281042,0.01137380131204757, ,0.04271523030795592, ,0.015292694945354766, ,0.0005018710300922127, ,0.09969275867336419,-0.15462455760772315,0.10629059484000002,3.6389592792304355,1.2832900057970167,-0.12697937375448076, ,0.07322294873338794,0.0023950246699099144,0.04191792505263159,0.17473065275268673,-0.03678585997718985,0.18495293859481277, ,1.1701529026031494
0.013197907877869022,0.021942619484884907,-0.0901109023828673, ,0.013953449774859631,0.021993329344476238,-0.09090273379060451, ,0.0010956331622614546, ,0.01205811031142995,0.005486202397191661,-0.0406090440571574,-0.010887321074262959,-0.010744449512281042,0.01137380131204757, ,0.04271523030795592, ,0.015292694945354766, ,0.0005063354070258161, ,0.09969275867336419,-0.15462455760772315,0.10629059484000002,3.6389592792304355,1.2832900057970167,-0.12697937375448076, ,0.07322294873338794,0.0023950246699099144,0.04191792505263159,0.17473065275268673,-0.03678585997718985,0.18495293859481277, ,1.1728579998016357
0.013197907877869022,0.021942619484884907,-0.0901109023828673, ,0.01398730999579898,0.021994587199726134,-0.09097602706277681, ,0.0011723041665739561, ,0.01205811031142995,0.005486202397191661,-0.0406090440571574,-0.010887321074262959,-0.010744449512281042,0.01137380131204757, ,0.04271523030795592, ,0.015292694945354766, ,0.0005113053231418469, ,0.09969275867336419,-0.15462455760772315,0.10629059484000002,3.6389592792304355,1.2832900057970167,-0.12697937375448076, ,0.07322294873338794,0.0023950246699099144,0.04191792505263159,0.17473065275268673,-0.03678585997718985,0.18495293859481277, ,1.174626111984253
0.013197907877869022,0.021942619484884907,-0.0901109023828673, ,0.014021213320898625,0.0219956643418646,-0.09104908645544121, ,0.0012493338078374174, ,0.01205811031142995,0.005486202397191661,-0.0406090440571574,-0.010887321074262959,-0.010744449512281042,0.01137380131204757, ,0.04271523030795592, ,0.015292694945354766, ,0.0005167722008062585, ,0.09969275867336419,-0.15462455760772315,0.10629059484000002,3.6389592792304355,1.2832900057970167,-0.12697937375448076, ,0.07322294873338794,0.0023950246699099144,0.04191792505263159,0.17473065275268673,-0.03678585997718985,0.18495293859481277, ,1.1764130592346191
0.013333729183656507,0.022004274178736752,-0.09055885551583284, ,0.014055159563254888,0.021996562167300806,-0.0911219132858128, ,0.01406643536493914, ,0.013905253258532467,0.005488552187128012,-0.043136892421994116,0.013683414437223807,-0.003473557445055765,-0.05381345260505577, ,0.04565382526274714, ,0.01411212487740351, ,0.0006164020770131179, ,0.10052681382378044,-0.15460138940910045,0.10675596295,3.6408464887217966,1.2831533692972512,-0.12507102356769195, ,0.08048934822601424,0.0022870344837661494,0.04474385258426967,0.2838367509955756,-0.02316555692805527,0.2270454138116766, ,1.1784729957580566
0.013333729183656507,0.022004274178736752,-0.09055885551583284, ,0.014089148536373022,0.021997282068759828,-0.09119450886714596, ,0.0009873005981443363, ,0.013905253258532467,0.005488552187128012,-0.043136892421994116,0.013683414437223807,-0.003473557445055765,-0.05381345260505577, ,0.04565382526274714, ,0.01411212487740351, ,0.0006191093654885283, ,0.10052681382378044,-0.15460138940910045,0.10675596295,3.6408464887217966,1.2831533692972512,-0.12507102356769195, ,0.08048934822601424,0.0022870344837661494,0.04474385258426967,0.2838367509955756,-0.02316555692805527,0.2270454138116766, ,1.1801390647888184
0.013333729183656507,0.022004274178736752,-0.09055885551583284, ,0.014123180054166773,0.021997825435287485,-0.09126687450873937, ,0.0010604551652747326, ,0.013905253258532467,0.005488552187128012,-0.043136892421994116,0.013683414437223807,-0.003473557445055765,-0.05381345260505577, ,0.04565382526274714, ,0.01411212487740351, ,0.0006223075234579935, ,0.10052681382378044,-0.15460138940910045,0.10675596295,3.6408464887217966,1.2831533692972512,-0.12507102356769195, ,0.08048934822601424,0.0022870344837661494,0.04474385258426967,0.2838367509955756,-0.02316555692805527,0.2270454138116766, ,1.1817560195922852
0.013333729183656507,0.022004274178736752,-0.09055885551583284, ,0.01415725393095839,0.021998193652252945,-0.09133901151593998, ,0.0011344044105715222, ,0.013905253258532467,0.005488552187128012,-0.043136892421994116,0.013683414437223807,-0.003473557445055765,-0.05381345260505577, ,0.04565382526274714, ,0.01411212487740351, ,0.0006259916737249973, ,0.10052681382378044,-0.15460138940910045,0.10675596295,3.6408464887217966,1.2831533692972512,-0.12507102356769195, ,0.08048934822601424,0.0022870344837661494,0.04474385258426967,0.2838367509955756,-0.02316555692805527,0.2270454138116766, ,1.1834330558776855
0.013333729183656507,0.022004274178736752,-0.09055885551583284, ,0.014191369981477681,0.021998388101353405,-0.09141092119014782, ,0.001208965796596471, ,0.013905253258532467,0.005488552187128012,-0.043136892421994116,0.013683414437223807,-0.003473557445055765,-0.05381345260505577, ,0.04565382526274714, ,0.01411212487740351, ,0.0006301557746026508, ,0.10052681382378044,-0.15460138940910045,0.10675596295,3.6408464887217966,1.2831533692972512,-0.12507102356769195, ,0.08048934822601424,0.0022870344837661494,0.04474385258426967,0.2838367509955756,-0.02316555692805527,0.2270454138116766, ,1.1851420402526855
0.013333729183656507,0.022004274178736752,-0.09055885551583284, ,0.014225528020861982,0.02199841016061742,-0.0914826048288215, ,0.0012839985771006793, ,0.013905253258532467,0.005488552187128012,-0.043136892421994116,0.013683414437223807,-0.003473557445055765,-0.05381345260505577, ,0.04565382526274714, ,0.01411212487740351, ,0.0006347929575990908, ,0.10052681382378044,-0.15460138940910045,0.10675596295,3.6408464887217966,1.2831533692972512,-0.12507102356769195, ,0.08048934822601424,0.0022870344837661494,0.04474385258426967,0.2838367509955756,-0.02316555692805527,0.2270454138116766, ,1.1867899894714355
0.013501021959493487,0.02203913968152283,-0.09099671039615694, ,0.014259727864655652,0.021998261204408703,-0.09155406372548103, ,0.0009423101581367792, ,0.017802655379418428,0.002881688460752511,-0.04474548449570536,-0.07757152489515584,0.17111123065071654,-0.24400089686299592, ,0.04824310364910801, ,0.1878728702098963, ,0.0006369585716873844, ,0.10135314624132247,-0.15453188481323243,0.10720059042,3.6471371870263325,1.2819236407993624,-0.12112782778936404, ,0.08353604010428767,0.00780102985846911,0.0448698916056338,0.7523124162154263,-0.18663736318014146,0.5018090547241445, ,1.1885108947753906
0.013501021959493487,0.02203913968152283,-0.09099671039615694, ,0.014293969328809851,0.021997942603429948,-0.09162529916971489, ,0.0010127124843667256, ,0.017802655379418428,0.002881688460752511,-0.04474548449570536,-0.07757152489515584,0.17111123065071654,-0.24400089686299592, ,0.04824310364910801, ,0.1878728702098963, ,0.0006395862214264007, ,0.10135314624132247,-0.15453188481323243,0.10720059042,3.6471371870263325,1.2819236407993624,-0.12112782778936404, ,0.08353604010428767,0.00780102985846911,0.0448698916056338,0.7523124162154263,-0.18663736318014146,0.5018090547241445, ,1.1902170181274414
0.013501021959493487,0.02203913968152283,-0.09099671039615694, ,0.01432825222968173,0.021997455724726493,-0.09169631244718217, ,0.0010842003975135898, ,0.017802655379418428,0.002881688460752511,-0.04474548449570536,-0.07757152489515584,0.17111123065071654,-0.24400089686299592, ,0.04824310364910801, ,0.1878728702098963, ,0.0006426738198714505, ,0.10135314624132247,-0.15453188481323243,0.10720059042,3.6471371870263325,1.2819236407993624,-0.12112782778936404, ,0.08353604010428767,0.00780102985846911,0.0448698916056338,0.7523124162154263,-0.18663736318014146,0.5018090547241445, ,1.192007064819336
0.013501021959493487,0.02203913968152283,-0.09099671039615694, ,0.014362576384034516,0.021996801931690364,-0.09176710483961939, ,0.0011565362553871482, ,0.017802655379418428,0.002881688460752511,-0.04474548449570536,-0.07757152489515584,0.17111123065071654,-0.24400089686299592, ,0.04824310364910801, ,0.1878728702098963, ,0.000646217698737076, ,0.10135314624132247,-0.15453188481323243,0.10720059042,3.6471371870263325,1.2819236407993624,-0.12112782778936404, ,0.08353604010428767,0.00780102985846911,0.0448698916056338,0.7523124162154263,-0.18663736318014146,0.5018090547241445, ,1.1953721046447754
0.013501021959493487,0.02203913968152283,-0.09099671039615694, ,0.014396941609036856,0.021995982584063548,-0.09183767762484313, ,0.0012295366742082802, ,0.017802655379418428,0.002881688460752511,-0.04474548449570536,-0.07757152489515584,0.17111123065071654,-0.24400089686299592, ,0.04824310364910801, ,0.1878728702098963, ,0.0006502130341855089, ,0.10135314624132247,-0.15453188481323243,0.10720059042,3.6471371870263325,1.2819236407993624,-0.12112782778936404, ,0.08353604010428767,0.00780102985846911,0.0448698916056338,0.7523124162154263,-0.18663736318014146,0.5018090547241445, ,1.1979970932006836
0.013501021959493487,0.02203913968152283,-0.09099671039615694, ,0.014431347722262336,0.02199499903794226,-0.09190803207675657, ,0.001303058566150462, ,0.017802655379418428,0.002881688460752511,-0.04474548449570536,-0.07757152489515584,0.17111123065071654,-0.24400089686299592, ,0.04824310364910801, ,0.1878728702098963, ,0.0006546541602532977, ,0.10135314624132247,-0.15453188481323243,0.10720059042,3.6471371870263325,1.2819236407993624,-0.12112782778936404, ,0.08353604010428767,0.00780102985846911,0.0448698916056338,0.7523124162154263,-0.18663736318014146,0.5018090547241445, ,1.200002908706665
0.013658890138474761,0.022064915254989163,-0.09137734650670308, ,0.014465794541689466,0.02199385264578041,-0.09197816946535285, ,0.0010085300382217184, ,0.017794875206833725,0.0029876209753510637,-0.041755508734291506,-0.06433305360399005,0.12904005080216036,-0.07727105834541247, ,0.04548742653062094, ,0.14418720319670772, ,0.0006570452134828141, ,0.10215631046024182,-0.15446238021736441,0.10758429226,3.653218195387383,1.2804206393019424,-0.11647172376279957, ,0.09683361383517426,0.008186669924151372,0.04225148944297083,0.6195407611295589,-0.15950965521363428,0.5378355829538785, ,1.2021689414978027
0.013658890138474761,0.022064915254989163,-0.09137734650670308, ,0.014500281885700827,0.02199254475639333,-0.09204809105672024, ,0.0010784599263509336, ,0.017794875206833725,0.0029876209753510637,-0.041755508734291506,-0.06433305360399005,0.12904005080216036,-0.07727105834541247, ,0.04548742653062094, ,0.14418720319670772, ,0.0006598735001463585, ,0.10215631046024182,-0.15446238021736441,0.10758429226,3.653218195387383,1.2804206393019424,-0.11647172376279957, ,0.09683361383517426,0.008186669924151372,0.04225148944297083,0.6195407611295589,-0.15950965521363428,0.5378355829538785, ,1.2038888931274414
0.013658890138474761,0.022064915254989163,-0.09137734650670308, ,0.014534809573082952,0.02199107671496186,-0.09211779811304638, ,0.001149328311342789, ,0.017794875206833725,0.0029876209753510637,-0.041755508734291506,-0.06433305360399005,0.12904005080216036,-0.07727105834541247, ,0.04548742653062094, ,0.14418720319670772, ,0.0006631365322210014, ,0.10215631046024182,-0.15446238021736441,0.10758429226,3.653218195387383,1.2804206393019424,-0.11647172376279957, ,0.09683361383517426,0.008186669924151372,0.04225148944297083,0.6195407611295589,-0.15950965521363428,0.5378355829538785, ,1.2070739269256592
0.013658890138474761,0.022064915254989163,-0.09137734650670308, ,0.014569377423026005,0.021989449863035596,-0.09218729189262355, ,0.001220939658167454, ,0.017794875206833725,0.0029876209753510637,-0.041755508734291506,-0.06433305360399005,0.12904005080216036,-0.07727105834541247, ,0.04548742653062094, ,0.14418720319670772, ,0.0006668305926577329, ,0.10215631046024182,-0.15446238021736441,0.10758429226,3.653218195387383,1.2804206393019424,-0.11647172376279957, ,0.09683361383517426,0.008186669924151372,0.04225148944297083,0.6195407611295589,-0.15950965521363428,0.5378355829538785, ,1.208794116973877
0.013658890138474761,0.022064915254989163,-0.09137734650670308, ,0.014603985255123117,0.02198766553853721,-0.09225657364985299, ,0.001293140621686605, ,0.017794875206833725,0.0029876209753510637,-0.041755508734291506,-0.06433305360399005,0.12904005080216036,-0.07727105834541247, ,0.04548742653062094, ,0.14418720319670772, ,0.0006709510533750281, ,0.10215631046024182,-0.15446238021736441,0.10758429226,3.653218195387383,1.2804206393019424,-0.11647172376279957, ,0.09683361383517426,0.008186669924151372,0.04225148944297083,0.6195407611295589,-0.15950965521363428,0.5378355829538785, ,1.2104949951171875
0.013658890138474761,0.022064915254989163,-0.09137734650670308, ,0.014638632889370048,0.02198572507576576,-0.09232564463524916, ,0.0013658097535972173, ,0.017794875206833725,0.0029876209753510637,-0.041755508734291506,-0.06433305360399005,0.12904005080216036,-0.07727105834541247, ,0.04548742653062094, ,0.14418720319670772, ,0.0006754926135071992, ,0.10215631046024182,-0.15446238021736441,0.10758429226,3.653218195387383,1.2804206393019424,-0.11647172376279957, ,0.09683361383517426,0.008186669924151372,0.04225148944297083,0.6195407611295589,-0.15950965521363428,0.5378355829538785, ,1.212270975112915
0.013941769977399253,0.02213122125278631,-0.09204125066781219, ,0.014673320146165137,0.02198362980540076,-0.092394506095445, ,0.000825674440633109, ,0.014034490039341624,0.004148647680991709,-0.03303332150771925,0.024951615470582472,-0.07753418256671406,0.18687889425550067, ,0.0361300223924332, ,0.08144994320135869, ,0.000676467820176848, ,0.10398659815143302,-0.15430792555987993,0.10827521483000001,3.6590895138049504,1.2796008203033498,-0.10959563208993839, ,0.10662577703198964,0.009993194853783648,0.03508548792951543,0.07787709588307941,0.018953867823687975,0.26569281188791766, ,1.2146201133728027
0.013941769977399253,0.02213122125278631,-0.09204125066781219, ,0.014708046846308463,0.021981381054505773,-0.0924631592731962, ,0.0008874903921413127, ,0.014034490039341624,0.004148647680991709,-0.03303332150771925,0.024951615470582472,-0.07753418256671406,0.18687889425550067, ,0.0361300223924332, ,0.08144994320135869, ,0.0006778292561250059, ,0.10398659815143302,-0.15430792555987993,0.10827521483000001,3.6590895138049504,1.2796008203033498,-0.10959563208993839, ,0.10662577703198964,0.009993194853783648,0.03508548792951543,0.07787709588307941,0.018953867823687975,0.26569281188791766, ,1.216313123703003
0.013941769977399253,0.02213122125278631,-0.09204125066781219, ,0.01474281281100165,0.021978980146532115,-0.09253160540738609, ,0.0009514697821380595, ,0.014034490039341624,0.004148647680991709,-0.03303332150771925,0.024951615470582472,-0.07753418256671406,0.18687889425550067, ,0.0361300223924332, ,0.08144994320135869, ,0.000679583362060987, ,0.10398659815143302,-0.15430792555987993,0.10827521483000001,3.6590895138049504,1.2796008203033498,-0.10959563208993839, ,0.10662577703198964,0.009993194853783648,0.03508548792951543,0.07787709588307941,0.018953867823687975,0.26569281188791766, ,1.2179689407348633
0.013941769977399253,0.02213122125278631,-0.09204125066781219, ,0.014777617861847588,0.02197642840132278,-0.0925998457330298, ,0.0010171681078791459, ,0.014034490039341624,0.004148647680991709,-0.03303332150771925,0.024951615470582472,-0.07753418256671406,0.18687889425550067, ,0.0361300223924332, ,0.08144994320135869, ,0.0006817335833719306, ,0.10398659815143302,-0.15430792555987993,0.10827521483000001,3.6590895138049504,1.2796008203033498,-0.10959563208993839, ,0.10662577703198964,0.009993194853783648,0.03508548792951543,0.07787709588307941,0.018953867823687975,0.26569281188791766, ,1.2196331024169922
0.013941769977399253,0.02213122125278631,-0.09204125066781219, ,0.014812461820849734,0.02197372713511624,-0.09266788148127969, ,0.0010842393000342764, ,0.014034490039341624,0.004148647680991709,-0.03303332150771925,0.024951615470582472,-0.07753418256671406,0.18687889425550067, ,0.0361300223924332, ,0.08144994320135869, ,0.0006842810879077683, ,0.10398659815143302,-0.15430792555987993,0.10827521483000001,3.6590895138049504,1.2796008203033498,-0.10959563208993839, ,0.10662577703198964,0.009993194853783648,0.03508548792951543,0.07787709588307941,0.018953867823687975,0.26569281188791766, ,1.2212879657745361
0.013941769977399253,0.02213122125278631,-0.09204125066781219, ,0.014847344510412024,0.02197087766054996,-0.09273571387942925, ,0.0011524124499076012, ,0.014034490039341624,0.004148647680991709,-0.03303332150771925,0.024951615470582472,-0.07753418256671406,0.18687889425550067, ,0.0361300223924332, ,0.08144994320135869, ,0.000687225310310283, ,0.10398659815143302,-0.15430792555987993,0.10827521483000001,3.6590895138049504,1.2796008203033498,-0.10959563208993839, ,0.10662577703198964,0.009993194853783648,0.03508548792951543,0.07787709588307941,0.018953867823687975,0.26569281188791766, ,1.2229769229888916
0.014095556229232035,0.022155221536503022,-0.0923423921140146, ,0.014882265753338177,0.021967881286664454,-0.09280334415091826, ,0.0009308517738364814, ,0.017537268100905057,0.0008950917633335359,-0.030307733954147726,0.010815165243841223,0.014929792941462607,-0.1939129807224707, ,0.03502735643954891, ,0.018434775408757847, ,0.0006887479757073217, ,0.10506778075382446,-0.15416119363526967,0.10859539846,3.6618154830702485,1.2797374568031152,-0.10717500904927724, ,0.11243713454795115,0.01905943795108873,0.03173070023904383,0.5052294167721245,-0.03953002228920057,0.3069027988190465, ,1.224656105041504
0.014095556229232035,0.022155221536503022,-0.0923423921140146, ,0.014917225372831808,0.021964739318906648,-0.09287077351533699, ,0.0009952942087784022, ,0.017537268100905057,0.0008950917633335359,-0.030307733954147726,0.010815165243841223,0.014929792941462607,-0.1939129807224707, ,0.03502735643954891, ,0.018434775408757847, ,0.0006906519895773284, ,0.10506778075382446,-0.15416119363526967,0.10859539846,3.6618154830702485,1.2797374568031152,-0.10717500904927724, ,0.11243713454795115,0.01905943795108873,0.03173070023904383,0.5052294167721245,-0.03953002228920057,0.3069027988190465, ,1.2263059616088867
0.014095556229232035,0.022155221536503022,-0.0923423921140146, ,0.01495222319249529,0.02196145305913413,-0.09293800318843096, ,0.001061214898470594, ,0.017537268100905057,0.0008950917633335359,-0.030307733954147726,0.010815165243841223,0.014929792941462607,-0.1939129807224707, ,0.03502735643954891, ,0.018434775408757847, ,0.0006929394149408671, ,0.10506778075382446,-0.15416119363526967,0.10859539846,3.6618154830702485,1.2797374568031152,-0.10717500904927724, ,0.11243713454795115,0.01905943795108873,0.03173070023904383,0.5052294167721245,-0.03953002228920057,0.3069027988190465, ,1.227989912033081
0.014095556229232035,0.022155221536503022,-0.0923423921140146, ,0.014987259036330124,0.02195802380561847,-0.09300503438210593, ,0.0011283242515845577, ,0.017537268100905057,0.0008950917633335359,-0.030307733954147726,0.010815165243841223,0.014929792941462607,-0.1939129807224707, ,0.03502735643954891, ,0.018434775408757847, ,0.000695610487558313, ,0.10506778075382446,-0.15416119363526967,0.10859539846,3.6618154830702485,1.2797374568031152,-0.10717500904927724, ,0.11243713454795115,0.01905943795108873,0.03173070023904383,0.5052294167721245,-0.03953002228920057,0.3069027988190465, ,1.2296369075775146
