NicholasDascanio/dvrk_moveit_final/test/execution/third_experiment_notsharpbends/thirdexp_700vel5.0/thirdexp_700vel5.0_2.csv
Current Position (x),Current Position (y),Current Position (z), ,Planned Position (x),Planned Position (y),Planned Position (z), ,Position Error,,Cartesian linear Velocity(x),Cartesian linear Velocity(y),Cartesian linear Velocity(z),Cartesian Angular Velocity(x),Cartesian Angular Velocity(y),Cartesian Angular Velocity(z), ,Total Linear Velocity, ,Total Angular Velocity, ,MSE, ,Joint 1 Position,Joint 2 Position,Joint 3 Position,Joint 4 Position,Joint 5 Position,Joint 6 Position, ,Joint 1 Velocity,Joint 2 Velocity,Joint 3 Velocity,Joint 4 Velocity,Joint 5 Velocity,Joint 6 Velocity, ,Time Stamp
0.00998025678311297,0.02005581446557931,-0.07871184230907777, ,0.010091924293328591,0.019954714199024927,-0.07883204806808543, ,0.0001927182431264117, ,4.468996896671468e-05,7.225603186105776e-06,7.507545313184058e-06,-0.029540008619457794,-0.0006284130198684368,0.03997674446185462, ,4.5888624998778234e-05, ,0.02954669206799944, ,1.605985359386764e-05, ,0.2195881865456997,-0.2068920137004746,0.09298028912,2.0012808206163006,1.1094883780953764,-1.068479251996769, ,0.0005638182345861312,-7.223327093223196e-05,0.0,0.00020966000961968967,0.0,0.049923645751754786, ,0.016316890716552734
0.009981452708400854,0.020057675757809718,-0.07871950927101841, ,0.010116262125593585,0.01997487777984042,-0.07890938525965831, ,0.0002471476788918461, ,0.00027647196508029804,0.00020768625665324757,-0.0009225569835614712,0.11281638304595921,-0.0003995956520095794,-0.1528520568984209, ,0.0009852318085587985, ,0.11281709072767757, ,1.9993905546284442e-05, ,0.2195881865456997,-0.2068920137004746,0.09298936315,2.0012808206163006,1.1096250145951418,-1.0701425659631363, ,0.0008629025834958592,-7.015332180180636e-05,0.0009767882263563156,0.00020548708711637688,0.0,-0.1897652408484074, ,0.032887935638427734
0.009984402040181584,0.0200598087781304,-0.078730415005651, ,0.01014069923509143,0.019994850160303973,-0.07898692658755256, ,0.00030732169922777127, ,0.0005994161935937637,0.0005187705492560804,-0.00236948593347548,0.18628279993161526,-0.00014520857050475712,-0.2523070732971948, ,0.0024985768438965526, ,0.18628285652688614, ,2.334961316393841e-05, ,0.2195881865456997,-0.2068920137004746,0.09299973347000001,2.0012808206163006,1.1094883780953764,-1.0720731165629538, ,0.0008629025834958592,-6.915464674620772e-05,0.002491601989676209,0.00020345163504824758,0.0,-0.3134148625253941, ,0.05056190490722656
0.010006816545251245,0.02007121170922713,-0.07878215266738259, ,0.010165235272616358,0.020014632189803132,-0.07906466998028745, ,0.0003288065803617954, ,0.0015743289455311265,0.0005409731380208315,-0.0037441927846137485,-0.04181271904040132,-0.1575519713060026,-0.07983819316127376, ,0.004097577720208722, ,0.16300591135054934, ,2.5618909562091058e-05, ,0.21959590927857392,-0.20689973643334883,0.09303732588000001,2.0017002005032696,1.107165557599364,-1.0761415602303757, ,0.0008186703780836312,-2.6571427375700703e-05,0.002580400375830229,0.0010055372787439014,-0.17653373485433527,-0.038171064306739, ,0.06649088859558105
0.010034936327533595,0.020088181722349312,-0.07886624514631252, ,0.010189869889684237,0.020034224716172475,-0.07914261337227863, ,0.0003213956495037021, ,0.001914609416977231,0.0012286513432945142,-0.006490789930773281,0.16442037827810438,-0.08587012652579055,-0.28874206469877306, ,0.006877911548456051, ,0.18549323279071203, ,2.687288175214474e-05, ,0.2196190774771966,-0.20689973643334883,0.09311251070000001,2.001909890446754,1.1053892831024132,-1.08016560307174, ,0.001593360812903025,-0.0002199545628832378,0.006088995229357799,-0.005484736103943989,-0.09353356225657791,-0.3346151138802905, ,0.08634305000305176
0.010044785571219284,0.020093506936520452,-0.07889591797063718, ,0.01021460273853221,0.020053628585694372,-0.07922075470383058, ,0.0003687099895725054, ,0.0017102512642447447,0.000934445851157312,-0.00536298596890326,0.051093942695431376,-0.11283607726592965,-0.1602126557343797, ,0.005706116625012943, ,0.12386513354649259, ,2.8485481301355354e-05, ,0.21962680021007083,-0.20689973643334883,0.0931384365,2.001909890446754,1.1047061006035859,-1.08140544583635, ,0.0007034094278347336,-0.00021517054945337206,0.004660272533645407,-0.005484736103943989,-0.12479812094654083,-0.16385056338951365, ,0.1038808822631836
0.010087782199278132,0.020124546767211406,-0.0790469333326944, ,0.010239433472117379,0.020072844643100413,-0.07929909192113219, ,0.00029875604079966227, ,0.0011410713433829206,0.0009995223524803974,-0.0049429009190874035,-0.08834970268792805,0.015990230133186692,0.1368470853936802, ,0.00517043114640479, ,0.08978506235341688, ,2.8678553909495754e-05, ,0.21965769114156772,-0.2069151818990973,0.09328362098000001,2.001909890446754,1.1029298261066351,-1.0787318319861883, ,0.0016803986883417242,0.0006955730370463837,0.005325580581745236,-0.005484736103943989,0.020951726236443178,0.1573451575784654, ,0.1200098991394043
0.010099931341049577,0.02013742023885771,-0.07910689523956674, ,0.010264361744116848,0.02009187373157238,-0.07937762297624844, ,0.00032000835799640275, ,0.0005279948514917976,0.0007055166183927994,-0.0028818728049563582,-0.012670059826341977,0.05852493937503514,0.06436703356316426, ,0.003013589740820287, ,0.05988070594653876, ,2.9083710237562155e-05, ,0.21969630480593885,-0.2069151818990973,0.09335362064000001,2.0017002005032696,1.1038862816049935,-1.076571322667003, ,0.0015350813677086,0.0006281066284928018,0.0035381633762772108,0.00389704335068048,0.06660426249511307,0.06242165709070083, ,0.13917899131774902
0.010117985494783885,0.020160079161239942,-0.07918347638246837, ,0.010289387208926378,0.020110716692743575,-0.07945634582711592, ,0.0003259952986306737, ,0.0009674263496706338,0.0010312468511455104,-0.0041892764203244025,0.0076667395735501315,0.023806423536604747,-0.004267215120321513, ,0.004421472688586984, ,0.02501049171852755, ,2.946586454468229e-05, ,0.21971947300456152,-0.2069151818990973,0.09344176836000001,2.002329270333723,1.1047061006035859,-1.0765047214279164, ,0.0007686586470782044,0.0004808436625227945,0.004605033686036427,0.017060885104891343,0.02369873591785185,0.0070532337150631536, ,0.15659189224243164
0.0101285665880693,0.020171181830324222,-0.07922758345223706, ,0.010314509521660183,0.020129374366699815,-0.0795352584375354, ,0.0003619206199505929, ,0.0009015466032243772,0.0007586170303798888,-0.0044965881664294684,0.036020243969874466,0.007906410172329917,-0.020000437934782334, ,0.0046483966284129995, ,0.03687776153217686, ,3.012529566726827e-05, ,0.21971947300456152,-0.2069151818990973,0.0934884348,2.0025389602772075,1.1047061006035859,-1.0766680789081975, ,0.0005603372516923399,0.0004370892745880906,0.004763400574162679,-0.025645732763252254,0.015487804890799156,-0.06064034610142279, ,0.17348599433898926
0.010137474078494722,0.020179171337190424,-0.07926464928934825, ,0.010339728338149997,0.020147847591980638,-0.07961435877716604, ,0.000405197098252754, ,0.0010227935993403286,0.000903287649355483,-0.00518801536379946,0.008305855913245964,0.005581392321760092,0.014743195936268678, ,0.005364470033409539, ,0.01000695652746514, ,3.133312843526232e-05, ,0.2197426412031842,-0.20690745916622305,0.09361547122000001,2.002329270333723,1.1048427371033516,-1.0770245330323158, ,0.002080769560120953,0.0,0.004800726799276674,0.010535355192318862,0.0,-0.004902552481006229, ,0.18882083892822266
0.010170537753516062,0.020206685110614582,-0.0793985250232846, ,0.010365043314944549,0.020166137205580355,-0.07969364482151922, ,0.00035576992753649463, ,0.0014381366799148337,0.0011319159395953714,-0.0047969657957558235,0.0011034479541293927,-0.002133676076031409,-0.007494937802874793, ,0.005134233306938615, ,0.0024021174919026523, ,3.19478931987551e-05, ,0.2197735321346811,-0.2069151818990973,0.09366732282000001,2.002329270333723,1.1048427371033516,-1.0770245330323158, ,0.004143809648981826,-0.00021536473607838464,0.005068027846007001,0.009535842651216967,0.0,0.001892973336523573, ,0.20318293571472168
0.010191395202359597,0.020223280259119493,-0.07947210900412317, ,0.01039045410930867,0.020184244042949367,-0.07977311455195203, ,0.00036297742964596573, ,0.0014991086837628596,0.0011962727400104817,-0.005406833061562722,0.0004565783537763391,-0.001624073902001481,-0.006443948019166862, ,0.005736918952698662, ,0.0016870314791149043, ,3.253274894183394e-05, ,0.2198353139976749,-0.20692290463197152,0.09374639651000001,2.002329270333723,1.1048427371033516,-1.0770245330323158, ,0.00322668393237319,0.0004039305874287154,0.005705161719197709,0.007798000223235657,0.0,0.0013617737313724428, ,0.2191469669342041
0.010195605578765955,0.020226742506127014,-0.0794881256129043, ,0.010415960379222789,0.020202168937995188,-0.07985276595566093, ,0.00042675833665058215, ,0.0014277008756740722,0.001161686650619484,-0.00525634461532368,0.00093905771989781,-0.001230942955058492,-0.006886287343417837, ,0.005569291191854693, ,0.0015482396285361822, ,3.350349963874754e-05, ,0.2198430367305491,-0.20692290463197152,0.09376324828,2.002329270333723,1.1048427371033516,-1.0769428542921753, ,0.0027754195651086126,0.0003926840243969336,0.005542383966597078,0.007516597724446271,0.0,0.00047200818149953903, ,0.23452496528625488
0.010244330868799778,0.020268305411208887,-0.0796684772527909, ,0.010441561783382208,0.02021991272308355,-0.07993259702567597, ,0.00033316833637048724, ,0.0016021442147719893,0.0011868026093527534,-0.00531246000644463,-0.0005406233780588097,-0.003614863947275261,-0.0033657895627250607, ,0.005674292717032453, ,0.003655066451224912, ,3.371871623481393e-05, ,0.21992798679216558,-0.2069151818990973,0.09395380291000001,2.0027486502206924,1.1048427371033516,-1.0769428542921753, ,0.00481073217496005,0.00013439599850598673,0.005624580338983051,0.005813693720313659,0.0,0.002763387657225735, ,0.24994897842407227
0.01027337313053659,0.02028854549526994,-0.07976154031694682, ,0.01046725798119632,0.020237476229039715,-0.08001260576085373, ,0.0003212993345663988, ,0.001642371536710937,0.0010721741512796548,-0.0047922529424005164,-0.00039122290581119703,-0.005737205790115117,-0.0029547952279424966, ,0.005178091341335811, ,0.0057505289419859575, ,3.383301680182081e-05, ,0.2200283823195305,-0.2069151818990973,0.09405232095,2.0027486502206924,1.1048427371033516,-1.0769428542921753, ,0.006744915517891642,0.00013439599850598673,0.005098851318822024,0.0048993312798586855,0.0,0.0021869719636591883, ,0.2682030200958252
0.010289628505717012,0.020299378257248493,-0.0798143734098779, ,0.010493048632788025,0.020254860285149355,-0.0800927901658718, ,0.00034767439933876536, ,0.001431160596517833,0.0011407816351450583,-0.004967433786863234,1.536256371148215e-06,-0.0027829292440881455,-0.002464050860297259, ,0.005293864544827334, ,0.0027829291247060137, ,3.4094697093471586e-05, ,0.22008244144965008,-0.20690745916622305,0.09410806142000001,2.0027486502206924,1.1048427371033516,-1.0768611755520348, ,0.003705224031340594,-0.0003498252896390999,0.0052587690723010895,0.004483705280738136,0.0,0.0021721465971667824, ,0.2830028533935547
0.010320586529587205,0.020323529435180454,-0.07991826407184806, ,0.010518933398993105,0.02027206571915994,-0.08017314825122232, ,0.00032704118940135433, ,0.0015022421755383523,0.0011218392366585325,-0.004885103300583964,-7.270615535993781e-06,-0.003952164371540512,-0.0022410158541882803, ,0.005232541360013234, ,0.0039521707072759345, ,3.4210725343817046e-05, ,0.22016739151126655,-0.20690745916622305,0.09421694978,2.002958340164177,1.1048427371033516,-1.0768611755520348, ,0.0025715401652780987,-0.000306522518675158,0.0054983816085605805,0.000438436315478964,0.0,0.001936907979613809, ,0.2981870174407959
0.010339016117028655,0.020339246217306137,-0.0799803042916044, ,0.010544911941359276,0.020289093357281723,-0.08025367803320534, ,0.0003458924723701169, ,0.0015700045285499903,0.0011490928353194946,-0.005001647361848373,0.0016970888387003343,-0.0031258776081597404,-0.008803563944012258, ,0.0053667313046336556, ,0.003556855102121017, ,3.441835345461356e-05, ,0.22020600517563768,-0.2069151818990973,0.09427139396,2.003168030107661,1.1048427371033516,-1.0768611755520348, ,0.004850966189345914,0.000130828594111626,0.005509792985126254,0.009468331660582526,0.0,0.0018402985372371493, ,0.3147399425506592
0.010368087021037559,0.020359397978905132,-0.08007606128119808, ,0.010570983922145848,0.02030594402418917,-0.08033437753392317, ,0.00033279387641008855, ,0.0016392686949576877,0.001175042297421543,-0.005121164975536105,0.0018871590778173557,-0.003629685810965428,-0.009073271931490972, ,0.005504021889641764, ,0.004090963816617101, ,3.453829457606443e-05, ,0.2203064007030026,-0.20690745916622305,0.09438546748000001,2.003168030107661,1.1048427371033516,-1.0766978180717535, ,0.005574840004174043,0.00014125625061553438,0.005442026484455074,0.009468331660582526,0.0,0.0, ,0.33002686500549316
0.010384032862582052,0.02037049410267291,-0.08013020471063602, ,0.01059714900432281,0.020322618543021465,-0.08041524478127313, ,0.00035910778458732, ,0.0015357101093711155,0.0012278721760535308,-0.005185303036660136,0.0023742759001400787,-0.002192639625432589,-0.00896418295137429, ,0.0055455787076506185, ,0.0032318494439545365, ,3.495230171595845e-05, ,0.22035273710024794,-0.20689973643334883,0.09444250424,2.003168030107661,1.1048427371033516,-1.0766978180717535, ,0.004137722256855212,-0.00035749691462719604,0.0055040813821700075,0.009468331660582526,0.0,0.0, ,0.3438899517059326
0.010414141638454208,0.020392863075940054,-0.08023330947216206, ,0.010623406851570164,0.02033911773538448,-0.08049627780894296, ,0.0003403422354060869, ,0.0012669771576814231,0.0010363693926081713,-0.00434238744044347,0.0015803200976730787,-0.0014767155203209562,-0.007188801986194072, ,0.0046406488036634195, ,0.002162891304500078, ,3.5244243166335466e-05, ,0.22039907349749327,-0.20689973643334883,0.09450472616000001,2.003168030107661,1.1048427371033516,-1.076616139331613, ,0.004262802502471204,-0.00035749691462719604,0.00495144902704383,0.009037875836454783,0.0,0.0009791677529063971, ,0.36182498931884766
0.010428402796245715,0.020402982373370442,-0.08027986816094121, ,0.010649757128277223,0.020355442421351184,-0.08057747465640241, ,0.0003739350391282009, ,0.0014721417032904998,0.0011219640450684809,-0.004745733916527872,0.0012494307440449408,-0.003001517010569622,-0.006365667293689457, ,0.005093917443331454, ,0.0032511811917635683, ,3.5670081563546196e-05, ,0.22048402355910976,-0.20689973643334883,0.09460065162,2.003168030107661,1.1048427371033516,-1.0765344605914724, ,0.004612895620219928,-0.00035749691462719604,0.005045553221412734,0.00783939740168332,0.0,0.0013005082753855233, ,0.3748898506164551
0.010442845986378553,0.02041452354822792,-0.08033006626524541, ,0.010676199499542117,0.020371593419463322,-0.08065883336889892, ,0.0004054437895766074, ,0.0015306468686454575,0.0011664257854015465,-0.005239004181887042,0.0005226632361238592,-0.002488207359277929,-0.006078788369281419, ,0.005581271698024894, ,0.002542508362694797, ,3.620616699688654e-05, ,0.22052263722348087,-0.20690745916622305,0.09465379951000001,2.003168030107661,1.1048427371033516,-1.0765344605914724, ,0.003998474372298991,0.00030831627492327994,0.005540456180869566,0.0073471391884901765,0.0,0.0012535676910895202, ,0.3887670040130615
0.01047772164780841,0.02044444998141565,-0.08045343465087154, ,0.010702733631170924,0.020387571546732177,-0.08074035199745007, ,0.0003690353814425346, ,0.001635650484286344,0.0013755376453153637,-0.006312785718893372,-0.002548858360002412,-0.0014244688837521198,-0.00036402204719146957, ,0.006664737043056538, ,0.0029198939218147476, ,3.654834822734965e-05, ,0.22059214181934889,-0.20690745916622305,0.09478472480000001,2.0035874099946303,1.1048427371033516,-1.0762894243710508, ,0.0024480997708333325,0.00030831627492327994,0.006642540250208507,0.004959111648862159,0.0,0.00553734253040661, ,0.40202903747558594
0.010494710257341748,0.020457765336324544,-0.08051492435621015, ,0.010729359189676966,0.020403377618640053,-0.08082202859883782, ,0.00039029624789498144, ,0.0017324782461474648,0.0013301572322734266,-0.006081635970881185,-0.002545323012198844,-0.003213494172289106,-0.0003633306928671457, ,0.00646197301280804, ,0.0040994152890591095, ,3.695630431933375e-05, ,0.22063075548372002,-0.20690745916622305,0.09484953930000001,2.0035874099946303,1.1048427371033516,-1.0762894243710508, ,0.00423712505937032,0.0003047075043216696,0.006420319032648127,0.004959111648862159,0.0,0.00553734253040661, ,0.4151179790496826
0.010512603598628939,0.020471346998331603,-0.08057756956205164, ,0.010756075842280213,0.020419012449140916,-0.08090386123560236, ,0.0004104678972783481, ,0.0017847025796064735,0.00139984335846666,-0.006397773025786245,-0.0024384815566668326,-0.0029811832565941167,-0.0004674288136785841, ,0.0067879469956221156, ,0.003851445857447743, ,3.741927795934858e-05, ,0.22067709188096538,-0.20690745916622305,0.09491565009000001,2.0035874099946303,1.1048427371033516,-1.0762894243710508, ,0.004004694597421539,0.0002790004662191294,0.006749496406779663,0.004959111648862159,0.0,0.005400611531893956, ,0.4296238422393799
0.010550540308979747,0.020499840731727136,-0.08071004138166497, ,0.010782883256906605,0.020434476850662298,-0.08098584797603535, ,0.0003665036969764237, ,0.0017679690707310093,0.0013586412144997136,-0.006186762183373821,-0.00218357140219156,-0.0033354708688461236,-0.0007500681371171483, ,0.006576294313549473, ,0.003986645321752121, ,3.768158058943309e-05, ,0.22076976467545606,-0.20690745916622305,0.09505435312,2.0035874099946303,1.1047061006035859,-1.076178006467354, ,0.004358981095987339,0.00023951582558883982,0.006533556817063167,0.004959111648862159,0.0,0.005037956646304955, ,0.44440388679504395
0.010567895727478845,0.020512889779537836,-0.08077020636001418, ,0.010809781102187244,0.020449771634105614,-0.08106798689417433, ,0.00038880031032051203, ,0.0016858632366671931,0.0012387735959108381,-0.005617183050396845,-0.002071360667912856,-0.0038789139595419328,-0.0008751080657666262, ,0.005994117140691985, ,0.004397329067715365, ,3.801244295914918e-05, ,0.22081610107270142,-0.20690745916622305,0.09511787133,2.0035874099946303,1.1047061006035859,-1.076178006467354, ,0.004902273855600391,0.00022288001233481517,0.005943586388059703,0.004959111648862159,0.0,0.004877523636909102, ,0.4571809768676758
0.010584735615564656,0.020524779255833042,-0.08082804891722023, ,0.010836769047457872,0.02046489760884775,-0.08115027606979573, ,0.000413445280895138, ,0.0016649630793011496,0.0012756088980218788,-0.005744190982741736,-0.0018780164582101507,-0.0033073222491356623,-0.0008447984358696044, ,0.006115145964109117, ,0.0038033301228174634, ,3.8414449345994565e-05, ,0.22086243746994674,-0.20689973643334883,0.09517879696,2.0035874099946303,1.1047061006035859,-1.076178006467354, ,0.0043063488979460775,8.478514114908937e-05,0.006072745528021351,0.004841320635912293,0.0,0.004737378840478233, ,0.4725148677825928
0.010626531249957525,0.020554767311926535,-0.08096792833083823, ,0.010863846762758044,0.02047985558274227,-0.08123271358840922, ,0.0003633753602159738, ,0.0015128079566623493,0.0011332444328695191,-0.005263114374323335,-0.0010553948296122297,-0.0029245087006115147,-0.0020954124526393453, ,0.005592244967415106, ,0.003109116489918143, ,3.86146627940232e-05, ,0.22097827846306012,-0.20687656823472617,0.09532657402000001,2.0037970999381147,1.1047061006035859,-1.076014648987073, ,0.0037884414915834593,0.00046560738709416525,0.005553978912133891,0.0041931304293677234,0.0,0.0025088209341604705, ,0.4862189292907715
0.010641095451490099,0.020565055817813583,-0.08101842219417192, ,0.010891013918830527,0.02049464636212042,-0.08131529754125105, ,0.0003944004354360568, ,0.0017659518581846659,0.0012080159814101608,-0.005805905664759607,-0.0015995414421076414,-0.004542278530136885,-0.0020148984522542846, ,0.0061876028609515596, ,0.004815684839491761, ,3.90470592953399e-05, ,0.22101689212743125,-0.20686884550185194,0.09537972191,2.0037970999381147,1.1047061006035859,-1.076014648987073, ,0.005364660862677218,0.0009789365010585006,0.006128823208926511,0.003990908260610032,0.0,0.0025088209341604705, ,0.49828004837036133
0.010661193319946777,0.020578901239592207,-0.08108204645267221, ,0.010918270187120578,0.020509270751792166,-0.08139802602527786, ,0.0004132553820232935, ,0.0018801890262544133,0.0012728140587986482,-0.006097593321454576,-0.0016176143644656064,-0.0051677508284337275,-0.0018086438729978704, ,0.006506597476144536, ,0.005415008442060644, ,3.952299795845525e-05, ,0.22108639672329927,-0.20686884550185194,0.09544712899,2.0037970999381147,1.1047061006035859,-1.076014648987073, ,0.005947038135958162,0.000951451525600463,0.006441088362312981,0.003781098126596262,0.0,0.0025088209341604705, ,0.5103788375854492
0.010680951700495477,0.020593012919481946,-0.0811469885480509, ,0.010945615239775176,0.020523729555047363,-0.0814808971431608, ,0.0004316733991105996, ,0.0022008006332803007,0.0014395682780856264,-0.006793007842332387,-0.0014909674220461354,-0.007168878762586638,-0.0016072965025630977, ,0.007284286910927295, ,0.0073222805260062486, ,4.003798936510447e-05, ,0.22114817858629307,-0.20686884550185194,0.09551583236000001,2.0037970999381147,1.1047061006035859,-1.076014648987073, ,0.007910960819590805,0.0007875814797628345,0.0071945851490514915,0.003600010168703272,0.0,0.002499575059883433, ,0.5225870609283447
0.010704082882374,0.020609255938286424,-0.08122058609893881, ,0.010973048749642599,0.020538023573657277,-0.0815639090032783, ,0.00044191323149494913, ,0.002372856666818476,0.0016818163782727274,-0.007889649406400665,-0.0018378453161474622,-0.006301799908450222,-0.0008616961578849055, ,0.008408657612687631, ,0.006564322274440455, ,4.056281828049153e-05, ,0.22123312864790953,-0.20686884550185194,0.09559490605000001,2.0037970999381147,1.1048427371033516,-1.076044388150629, ,0.0070109393593392865,0.0006751271837645239,0.008335327849293564,0.0034369801574983478,0.0,0.0032049154585375252, ,0.533984899520874
0.01072782888426932,0.02062656271550969,-0.08130029308166509, ,0.011000570390271325,0.02055215360787512,-0.08164705971971094, ,0.00044740557177670194, ,0.0022584506172298826,0.001570744680570698,-0.007343747383363233,-0.0017278454856147114,-0.00642618873457392,-0.0007770572821972997, ,0.00784209561741385, ,0.006654421861825692, ,4.10817574672003e-05, ,0.22130263324377755,-0.20686884550185194,0.09567916490000002,2.0037970999381147,1.1048427371033516,-1.076044388150629, ,0.0071038045929393825,0.0005899789313213946,0.007766363490980011,0.0032839888944354257,0.0,0.003105073415180074, ,0.5452589988708496
0.010750927731364355,0.020642888739679614,-0.08137093866091338, ,0.011028179835909915,0.02056612045643757,-0.08173034741223453, ,0.00046036588634813195, ,0.0022765826200897813,0.0015751016023111818,-0.007231801262842024,-0.0017632807966941064,-0.007692050495667911,0.002229105178166083, ,0.007743560097845279, ,0.007891563863748181, ,4.161838350470878e-05, ,0.2213798605725198,-0.20686112276897772,0.09575434972,2.004006789881599,1.1048427371033516,-1.076044388150629, ,0.00773604843848236,0.0,0.007661766002886004,0.00019828421257561194,0.0,0.003018284151226508, ,0.5567820072174072
0.010798625289281952,0.020672574831996485,-0.08151948876993025, ,0.011055876761505525,0.020579924916565906,-0.08181377020631375, ,0.0004017012454429642, ,0.002297382832651819,0.001239577303369971,-0.00643806229424658,-0.0034596621199231136,-0.01003960554404495,0.001488989518765528, ,0.006947169630532481, ,0.010618989142263996, ,4.195386241324982e-05, ,0.22154976069575275,-0.2068302318374808,0.09591120081000001,2.004006789881599,1.1048427371033516,-1.0759627094104884, ,0.01008325746112597,0.001972998621742659,0.006815922772785623,0.00019828421257561194,0.0,0.0026360151151861777, ,0.5699179172515869
0.010819358275470353,0.02068382075562394,-0.08157696774578839, ,0.011083660842704048,0.020593567783967044,-0.08189732623309667, ,0.0004250070662114622, ,0.002066791076954464,0.0011232088346492684,-0.005627092858948718,-0.0027807700555938833,-0.00945510071801716,0.0016328767101713327, ,0.0060989669195073044, ,0.009855536821913907, ,4.234472559574599e-05, ,0.22164243349024343,-0.20681478637173237,0.09597212644000001,2.004006789881599,1.1048427371033516,-1.0759627094104884, ,0.009498776211994575,0.0012827159061637797,0.005974798019504878,0.00019828421257561194,0.0,0.002626602633440292, ,0.5811648368835449
0.010841697575997719,0.020696029763533935,-0.08164094571721711, ,0.011111531755848926,0.020607049852834698,-0.08198101362940712, ,0.0004431411671525065, ,0.002351586494742106,0.0012364727673048863,-0.00688776729869212,-0.0046140127917621175,-0.009446928591962216,0.001301330256430127, ,0.007382422522957665, ,0.01051349410814566, ,4.277250427791008e-05, ,0.22174282901760833,-0.2067916181731097,0.09603823723,2.004006789881599,1.1048427371033516,-1.075881030670348, ,0.009490585197972806,0.0031084013904825753,0.00724366144611187,0.00019828421257561194,0.0,0.002714071479357664, ,0.5930719375610352
0.010887819165739485,0.020723671202365006,-0.08177569183633704, ,0.011139489177980586,0.02062037191585051,-0.08206483053773998, ,0.00039700091474053435, ,0.002207427284999919,0.001339571104960906,-0.006342362848326599,-0.0006739067892490313,-0.007514702420501849,0.0013774372627852068, ,0.006847828302727938, ,0.007544858684345192, ,4.305134252018198e-05, ,0.22193589733946395,-0.206768449974487,0.09618471800000002,2.004006789881599,1.1051160101028823,-1.0760221877376, ,0.009295411399815197,0.0005860187798322103,0.006752357575243748,0.00019828421257561194,0.0019571233362207473,0.001446997708766187, ,0.6083669662475586
0.010911186517081463,0.020736772100850353,-0.08184173747861424, ,0.011167532786835683,0.020633534764185234,-0.08214877510625365, ,0.0004130901384504919, ,0.0022854015283166954,0.0013387621339544615,-0.00652694251626619,-0.0007146822018430295,-0.007930120843667546,0.0007023222101062709, ,0.007043885490805896, ,0.007962259440599966, ,4.348612365312973e-05, ,0.22203629286682888,-0.20675300450873857,0.09625471766,2.004006789881599,1.1051160101028823,-1.0759405089974594, ,0.009710100921106116,0.0010641890651496158,0.0069406586143790855,0.00019828421257561194,0.0019571233362207473,0.0007357490852006503, ,0.6186459064483643
0.010935685389391589,0.020750935244296866,-0.08191272971266, ,0.011195662260846704,0.02064653918749984,-0.08223284548876446, ,0.0004253946643733489, ,0.0024430697321951994,0.0014179091676745522,-0.007024206470700505,-0.0009915112122043871,-0.008442715490815949,0.0005386003494777107, ,0.0075709003868215516, ,0.008500736570625814, ,4.3940482554937946e-05, ,0.2221366883941938,-0.20673755904299013,0.09632990248000001,2.004006789881599,1.1051160101028823,-1.0759405089974594, ,0.010229145137798892,0.0014003542885659495,0.007460801648711945,0.0002300266300381397,0.0019571233362207473,0.0006617657995604516, ,0.62882399559021
0.0109605120168411,0.020766980709788337,-0.0819818567806788, ,0.011223877279140933,0.020659385973946662,-0.0823170398447402, ,0.0004396425536736481, ,0.0025164086690837124,0.001499341554188343,-0.007096207344110496,0.0008671254300884743,-0.008358166099026579,-0.0032246735170776697, ,0.007677010899859614, ,0.008403024994385487, ,4.441874249609018e-05, ,0.22223708392155872,-0.2067298363101159,0.09640379101,2.0042164798250837,1.1051160101028823,-1.0758588302573189, ,0.010761895522200025,0.000921319203384565,0.007559948514475558,0.003244897752879884,0.0019571233362207473,-0.0005752008405722675, ,0.6390688419342041
0.010987241086833865,0.020782737688732487,-0.08205910084660753, ,0.011252177521539742,0.02067207591017057,-0.08240135633929391, ,0.00044673948330446864, ,0.0026806721954703385,0.0016258198549721741,-0.007797689642525518,6.087457848403089e-05,-0.007251121727939179,-0.001477635562912165, ,0.008404359427198436, ,0.00725137526257518, ,4.490063294616485e-05, ,0.2223529249146721,-0.20671439084436746,0.09648675357000001,2.0042164798250837,1.1052526466026478,-1.0758885694208749, ,0.010873996301095439,0.001221197966386213,0.008300579218342888,0.0031572020145157124,0.0033478777762742376,0.0011077959144513766, ,0.650454044342041
0.011012865452299554,0.020797853287706697,-0.0821377478693839, ,0.011280562668558248,0.02068460978131006,-0.0824857931431774, ,0.00045345496352301186, ,0.002589103383658213,0.0017337357631811313,-0.008553588114014727,-0.00048192920699812976,-0.0041581358872276545,-0.0014813586023558133, ,0.009103469978640985, ,0.004185965125304236, ,4.538497811944385e-05, ,0.22244559770916278,-0.20669122264574477,0.09656971613000001,2.0042164798250837,1.1052526466026478,-1.0758885694208749, ,0.007756604476601674,0.0017515832592786115,0.009045321703577514,0.0030384439233096146,0.0033478777762742376,0.0011077959144513766, ,0.6603899002075195
0.011041364737701174,0.020817062765265022,-0.08223132543525352, ,0.01130903240140438,0.020696988370998426,-0.08257034843277551, ,0.00044833071632403, ,0.002932258029909391,0.0018722054795528404,-0.009303838919040967,-4.047836574452965e-05,-0.004617045434455861,-0.001061423148725483, ,0.009933011081394058, ,0.00461721532196431, ,4.584099067801216e-05, ,0.22253827050365346,-0.20667577717999633,0.09666953046000001,2.0042164798250837,1.1053892831024132,-1.0759183085844306, ,0.009873493950963824,0.002092892323267062,0.009863041188854489,0.002921885377995741,0.005241746983109355,0.0009385594703798833, ,0.670417070388794
0.011070485513133953,0.020835706537614098,-0.08232202856090916, ,0.011337586401978262,0.02070921246136487,-0.08265502039009902, ,0.0004452271268181824, ,0.002825185004376804,0.001725668904903267,-0.009084167374230848,-0.0016559396583515377,-0.004912431489985581,0.00261606970632543, ,0.00966859350481474, ,0.005184019428364828, ,4.6275126348293054e-05, ,0.22263094329814417,-0.20664488624849944,0.09676545592000001,2.0044261697685686,1.1053892831024132,-1.0759183085844306, ,0.009341715030028857,0.002857621927469384,0.009601453598553349,-0.0011075332053128103,0.005241746983109355,0.0009385594703798833, ,0.6808998584747314
0.011097374003887134,0.020852673262030455,-0.08240833109840925, ,0.011366224352871443,0.020721282833035717,-0.08273980720277936, ,0.0004465650711249014, ,0.0029502748122372377,0.0017361789434174374,-0.009146543211256774,0.00045729883321154357,-0.004011499902971114,0.0016077928975718767, ,0.009766150291014108, ,0.004037473179963161, ,4.66995341699894e-05, ,0.22272361609263486,-0.20662171804987675,0.09685749251,2.0044261697685686,1.1055259196021787,-1.0760297264881271, ,0.010743717569950155,0.002971542966207983,0.009700859634591961,-0.0011075332053128103,0.007837465668546078,-0.001178075067342228, ,0.6924660205841064
0.01112885675738648,0.020871387171850782,-0.08250674738633192, ,0.011394945937366226,0.020733200265135393,-0.0828247070640613, ,0.0004370325268805886, ,0.0028247170396255568,0.001732660230129362,-0.009085771678477912,0.0005390483141755641,-0.0027374714884794804,0.0016713581071774054, ,0.009671214237129392, ,0.0027900289099522216, ,4.708774041221873e-05, ,0.222831734352874,-0.20659082711837987,0.09696119571,2.0044261697685686,1.1055259196021787,-1.0760297264881271, ,0.009399780829937856,0.0028183010432017395,0.009624659528700907,-0.0011075332053128103,0.00775861661003056,-0.0011137789471743608, ,0.7021548748016357
0.011154352489286035,0.020884934026006018,-0.08258445396983477, ,0.011423750839435148,0.020744965535287745,-0.08290971817279759, ,0.00044493083865478826, ,0.002455012183278778,0.001198802706414256,-0.007167171813800304,-0.0013667324886345185,-0.0040213947148749355,0.0016037424060724214, ,0.007670238885294702, ,0.004247299640506031, ,4.7483848695588185e-05, ,0.2229244071473647,-0.20655221345400873,0.09704286198,2.0044261697685686,1.1055259196021787,-1.0760297264881271, ,0.010118023409582127,0.004212388826443564,0.007588762039066222,-0.0011075332053128103,0.007120922886681363,-0.0005945404351832433, ,0.7123758792877197
0.011180614157880058,0.02089730141662489,-0.08265966774015043, ,0.011452638743740097,0.020756579419617137,-0.08299483873344218, ,0.00045402604605722147, ,0.0024262103565647437,0.0011988948185287717,-0.007343595983324585,-0.002122618620233773,-0.0036729093091908004,0.0015806227213660679, ,0.007826381504022031, ,0.004242139936791929, ,4.7890394257808594e-05, ,0.22303252540760385,-0.20650587705676338,0.09712193567,2.0044261697685686,1.1055259196021787,-1.0760297264881271, ,0.009265607668504811,0.004604111454145574,0.007751246481751827,-0.0011075332053128103,0.0065530523316377305,-0.0003200616320018605, ,0.7263779640197754
0.011204730678813515,0.020908753609881408,-0.0827340578724171, ,0.011481609335631578,0.020768042692749414,-0.08308006695604392, ,0.00046495552341463235, ,0.0024143652126782968,0.0011141187601692538,-0.007292745625998969,-0.0031800258182774544,-0.004045214199892832,0.0013769044604106727, ,0.007762380997959278, ,0.005145512753847869, ,4.842603214884325e-05, ,0.2231174754692203,-0.20645181792664383,0.09719971307000001,2.0044261697685686,1.1055259196021787,-1.0760297264881271, ,0.009224797069725696,0.005430113569796688,0.0076765356722891575,-0.0011075332053128103,0.006087604112912383,-0.00018611761630220368, ,0.7343740463256836
0.011228874445081806,0.02091977931243775,-0.08280208358217199, ,0.011510662301148297,0.02077935612781341,-0.0831654010562405, ,0.0004807521747949887, ,0.0022997025134782727,0.0010289793908767673,-0.0063387556629168704,-0.005880499713630676,-0.009388652318625866,0.003382309640068467, ,0.006821088886058303, ,0.011078224542256163, ,4.8986177721732386e-05, ,0.22322559372945946,-0.20640548152939847,0.09727230531000002,2.0044261697685686,1.1056625561019442,-1.0761411443918234, ,0.010180811710700939,0.003993517586756058,0.006681548456375841,-0.0011075332053128103,0.0011421909204102508,0.003616943916981748, ,0.7425370216369629
0.01125094627153253,0.020929358270310918,-0.08286672570064746, ,0.011539797327016252,0.020790520496441686,-0.08325083925525274, ,0.0005002540180133791, ,0.002606833322390221,0.0010440678796388297,-0.00783455382265827,-0.00248426850101123,-0.0027171879729571673,-0.0009643903728154768, ,0.008322613249944207, ,0.003681666870937537, ,4.9578574773715485e-05, ,0.22331826652395015,-0.2063514223992789,0.09734100868000001,2.0044261697685686,1.1057991926017094,-1.0761708835553792, ,0.010114438364179947,0.0076095228563028555,0.008227691900826447,-0.0011012543107968788,0.008587282108924456,-0.003355117252064424, ,0.7509169578552246
0.01125094627153253,0.020929358270310918,-0.08286672570064746, ,0.011569014100647963,0.020801536568771862,-0.08333637977987667, ,0.0005814468896117489, ,0.002606833322390221,0.0010440678796388297,-0.00783455382265827,-0.00248426850101123,-0.0027171879729571673,-0.0009643903728154768, ,0.008322613249944207, ,0.003681666870937537, ,5.034360691991542e-05, ,0.22331826652395015,-0.2063514223992789,0.09734100868000001,2.0044261697685686,1.1057991926017094,-1.0761708835553792, ,0.010114438364179947,0.0076095228563028555,0.008227691900826447,-0.0011012543107968788,0.008587282108924456,-0.003355117252064424, ,0.7593278884887695
0.011278881337622913,0.020941890498090594,-0.08295130312147113, ,0.011598312310142161,0.020812405113447792,-0.08342202086247888, ,0.0005834190627157524, ,0.002950026221049047,0.001395493143138086,-0.008949508363958851,-0.00025055236593193614,-0.0036103985966753137,-0.0019348068334941217, ,0.009525951699121288, ,0.0036190740671953776, ,5.109576344625595e-05, ,0.2234263847841893,-0.20628191780341087,0.09743045269000002,2.0044261697685686,1.105935829101475,-1.0762006227189351, ,0.011149362764833944,0.006352247674791647,0.009436499715639812,-0.0010714630336197658,0.008742023789313675,-0.004931307752295614, ,0.7694008350372314
0.011349911296844362,0.020976771022484256,-0.0831722906969604, ,0.011627691644282687,0.020823126897620642,-0.08350776074098976, ,0.0004618534280149048, ,0.0031157343364027843,0.0014745674478821315,-0.00979852415679894,0.0025389771821586423,0.001703064750516973,-0.0031361830910285977, ,0.010387166373210997, ,0.003057244568551728, ,5.155848678882013e-05, ,0.2236812349690387,-0.2061274631459264,0.09766378489000001,2.0044261697685686,1.1062091021010059,-1.0763417797861876, ,0.01102546262838266,0.007598300033730839,0.010343384103896106,-0.0010070532007649703,0.014573830227263737,-0.008005384436560094, ,0.781714916229248
0.011349911296844362,0.020976771022484256,-0.0831722906969604, ,0.011657151792537998,0.020833702686949996,-0.0835935976588969, ,0.0005407077093983191, ,0.0031157343364027843,0.0014745674478821315,-0.00979852415679894,0.0025389771821586423,0.001703064750516973,-0.0031361830910285977, ,0.010387166373210997, ,0.003057244568551728, ,5.21857933862796e-05, ,0.2236812349690387,-0.2061274631459264,0.09766378489000001,2.0044261697685686,1.1062091021010059,-1.0763417797861876, ,0.01102546262838266,0.007598300033730839,0.010343384103896106,-0.0010070532007649703,0.014573830227263737,-0.008005384436560094, ,0.7899689674377441
0.011381271767859264,0.0209911165712099,-0.08326642563576747, ,0.011686692445060485,0.020844133245605072,-0.08367952986523909, ,0.0005343603582557822, ,0.0032592920732052643,0.00146875104283968,-0.009800891377057593,0.002010740854047855,6.892532866630701e-05,-0.002606745925711567, ,0.01043253019306358, ,0.002011899363753765, ,5.2785423630412024e-05, ,0.22379707596215206,-0.20605795855005837,0.09776230293,2.0044261697685686,1.1062091021010059,-1.076260101046047, ,0.012663055985918173,0.007702050862523416,0.010363572882238128,-0.0009824699844236421,0.01457123787717043,-0.0072844080006891875, ,0.798475980758667
0.011415487375011264,0.021006924128684445,-0.08336944088933212, ,0.011716313292685611,0.020854419336265903,-0.08376555561460017, ,0.0005202507280431359, ,0.003283948554040129,0.0014703856881952586,-0.009785888161642576,-0.004769384159768815,-0.007101309307959471,0.0005061402967088185, ,0.010426406825450847, ,0.008554269659510958, ,5.334144013776794e-05, ,0.22392836242101388,-0.20598073122131613,0.09787119129,2.0044261697685686,1.1063457386007713,-1.0763715189497434, ,0.012595824470197872,0.007484706738499328,0.010289929922480621,-0.000956516043309503,0.0064068931492278795,-0.0006269323173698428, ,0.8086948394775391
0.011432454765322,0.02101402561582591,-0.08341768869926461, ,0.011746014026931557,0.02086456172012427,-0.08385167316710228, ,0.0005558789301491707, ,0.003293519284725165,0.001430445948699986,-0.009552172038894326,-0.004667307361023599,-0.00781258375692536,0.000517218919221011, ,0.01020477513479074, ,0.009100557314525146, ,5.39619803297429e-05, ,0.2239978670168819,-0.205942117556945,0.09792174660000001,2.0044261697685686,1.1063457386007713,-1.0763715189497434, ,0.013309528970332508,0.00738261133513241,0.01005606787878788,-0.0009449259038633992,0.0064068931492278795,-0.0006269323173698428, ,0.8171908855438232
0.011480851260236402,0.021032614414732743,-0.08355966962507781, ,0.011775794339998254,0.02087456115688498,-0.08393788078840023, ,0.0005049910263335296, ,0.00321961105717424,0.0013160629170052207,-0.009365608088965059,-0.005465093379391984,-0.0075980369215593885,0.0008177978811275918, ,0.009990622194692513, ,0.009359344990395197, ,5.457717842551856e-05, ,0.22419865807161174,-0.2058185538309574,0.09807081995000001,2.0042164798250837,1.1064823751005366,-1.0764829368534397, ,0.012921696835303755,0.008133135786499678,0.009838672958616432,-0.0015789920144192338,0.006356998264075492,-0.000779639684357689, ,0.8236479759216309
0.01151282760855359,0.021045268026747038,-0.08365571551003845, ,0.01180565392476668,0.02088441840476712,-0.08402417674967494, ,0.0004973766555362955, ,0.0034503226956856736,0.0015035361879617635,-0.010165662567511585,-0.0017190115527797563,-0.003983173791900911,-0.006473778661400254, ,0.01084002044321783, ,0.004338267581987431, ,5.5165929357658265e-05, ,0.22432994453047356,-0.20574132650221516,0.09817193057000001,2.004006789881599,1.1066190116003023,-1.0765943547571362, ,0.013337588412996596,0.008534606239125503,0.010712045406859449,0.004554525051852194,0.009486431338098272,-0.0035346621169101847, ,0.830610990524292
0.01151282760855359,0.021045268026747038,-0.08365571551003845, ,0.01183559247479834,0.020894134220504887,-0.08411055932762662, ,0.0005778420931962435, ,0.0034503226956856736,0.0015035361879617635,-0.010165662567511585,-0.0017190115527797563,-0.003983173791900911,-0.006473778661400254, ,0.01084002044321783, ,0.004338267581987431, ,5.591316445340222e-05, ,0.22432994453047356,-0.20574132650221516,0.09817193057000001,2.004006789881599,1.1066190116003023,-1.0765943547571362, ,0.013337588412996596,0.008534606239125503,0.010712045406859449,0.004554525051852194,0.009486431338098272,-0.0035346621169101847, ,0.8370299339294434
0.011546758822906563,0.02105917845623762,-0.08375763902970752, ,0.011865609684334508,0.02090370935934908,-0.08419702680447011, ,0.0005647106591268646, ,0.0037002104770600666,0.001606740197705724,-0.011267001399649888,-0.0023559926675033207,-0.003935133129843848,-0.00786829467233991, ,0.011967392873018795, ,0.004586479328407299, ,5.662075366774507e-05, ,0.22445350825646115,-0.20564865370772448,0.09827822635000001,2.004006789881599,1.1066190116003023,-1.0765126760169956, ,0.013287166278139287,0.010007710427321244,0.011834183893016346,0.004554525051852194,0.009486431338098272,-0.004866033408402294, ,0.8437860012054443
0.011587139614008264,0.021077977866335584,-0.08388343835550353, ,0.011895705248295493,0.020913144575067964,-0.08428357746792609, ,0.0005315017157672242, ,0.004061614054141019,0.0019062671396612699,-0.012439871221331599,0.002960368010779136,-0.00022086162921441694,-0.009985620390540795, ,0.013224256468167212, ,0.0029685452181810253, ,5.7248364163827875e-05, ,0.22460024018107141,-0.20554825818035954,0.09841174422000001,2.004006789881599,1.1068922845998332,-1.0767355118243886, ,0.01457262616069883,0.00956811978628591,0.013131748985985164,0.004554525051852194,0.0151207036132471,-0.009560551472167245, ,0.8523590564727783
0.011629365382064008,0.021099448788542627,-0.08401098957253714, ,0.011925878862280075,0.020922440619948548,-0.08437020961121748, ,0.0004982882417721509, ,0.004345478453225034,0.0021067743548602493,-0.013554135645387273,0.010166334481928978,0.006041377010530184,-0.005024017815132988, ,0.01438875513250878, ,0.011825909500562216, ,5.779794535794387e-05, ,0.2247546948385559,-0.20545558538586886,0.09854785467,2.0042164798250837,1.107165557599364,-1.0769583476317812, ,0.01570101614137505,0.009366783030333597,0.01437618368231047,-0.0048585070492655,0.02561645680671085,-0.018231757863039523, ,0.8606579303741455
0.011629365382064008,0.021099448788542627,-0.08401098957253714, ,0.0119561302225645,0.02093159824479768,-0.08445692153306138, ,0.000577758063067733, ,0.004345478453225034,0.0021067743548602493,-0.013554135645387273,0.010166334481928978,0.006041377010530184,-0.005024017815132988, ,0.01438875513250878, ,0.011825909500562216, ,5.8499496535344596e-05, ,0.2247546948385559,-0.20545558538586886,0.09854785467,2.0042164798250837,1.107165557599364,-1.0769583476317812, ,0.01570101614137505,0.009366783030333597,0.01437618368231047,-0.0048585070492655,0.02561645680671085,-0.018231757863039523, ,0.8670740127563477
0.011674313107539656,0.02111977907339672,-0.08414600945904037, ,0.01198645902610222,0.020940618198943294,-0.08454371153766341, ,0.0005363773268430251, ,0.00403274328842027,0.0017250232670194881,-0.012036153909100053,0.00973196015207757,0.005331836056549703,-0.005713328585816799, ,0.01281045372442373, ,0.01109681357563769, ,5.910668396647241e-05, ,0.22491687222891463,-0.20535518985850393,0.09868915028000001,2.0042164798250837,1.107165557599364,-1.0768766688916407, ,0.016027181482599354,0.009984324435887797,0.0127737061106656,-0.0048585070492655,0.025186663066475903,-0.018773122913960365, ,0.8740239143371582
0.011715933086580213,0.02113572982449372,-0.08426268586831924, ,0.012016864970522912,0.020949501230235146,-0.08463057793471125, ,0.0005104759157952613, ,0.00403274328842027,0.0017250232670194881,-0.012036153909100053,0.00973196015207757,0.005331836056549703,-0.005713328585816799, ,0.01281045372442373, ,0.01109681357563769, ,5.965259866752693e-05, ,0.22509449508502177,-0.2052470715982648,0.09881229783,2.0042164798250837,1.1073021940991294,-1.0769880867953372, ,0.017463551998246372,0.01156135612713318,0.012049025355521938,-0.0048585070492655,0.011663785084899597,-0.007789847601685309, ,0.8804810047149658
0.011715933086580213,0.02113572982449372,-0.08426268586831924, ,0.012047347754131793,0.0209582480850467,-0.08471751903936875, ,0.0005900920802657972, ,0.004080794629836236,0.001440919330287906,-0.01145800283737782,-0.003367873404237137,-0.008102458665528093,-0.000982377939542191, ,0.012248059534010102, ,0.008774520511331575, ,6.0347226504672565e-05, ,0.22509449508502177,-0.2052470715982648,0.09881229783,2.0042164798250837,1.1073021940991294,-1.0769880867953372, ,0.017463551998246372,0.01156135612713318,0.012049025355521938,-0.0048585070492655,0.011663785084899597,-0.007789847601685309, ,0.8871538639068604
0.011758235944420332,0.02115087159751871,-0.08438214690234477, ,0.012077907075909217,0.02096685950827551,-0.0848045331722693, ,0.0005607675474880693, ,0.004313703220421662,0.001609274557191299,-0.012272789540924844,-0.00530253436715182,-0.010882771926367357,-0.0004797542866715221, ,0.013107980896771773, ,0.012105838140578903, ,6.109324982092807e-05, ,0.22524894974250628,-0.20513895333802565,0.09892377877000001,2.0042164798250837,1.107438830598895,-1.077017825958893, ,0.01787809750536375,0.011947241792580988,0.01282513004830918,-0.0048585070492655,0.008937416218197838,-0.00622729362340316, ,0.892765998840332
0.011758235944420332,0.02115087159751871,-0.08438214690234477, ,0.012108542635509463,0.020975336243344748,-0.08489161865950998, ,0.0006427199310242317, ,0.004313703220421662,0.001609274557191299,-0.012272789540924844,-0.00530253436715182,-0.010882771926367357,-0.0004797542866715221, ,0.013107980896771773, ,0.012105838140578903, ,6.199059392554027e-05, ,0.22524894974250628,-0.20513895333802565,0.09892377877000001,2.0042164798250837,1.107438830598895,-1.077017825958893, ,0.01787809750536375,0.011947241792580988,0.01282513004830918,-0.0048585070492655,0.008937416218197838,-0.00622729362340316, ,0.9014639854431152
0.011779746107937146,0.02115948392538213,-0.08444302781710662, ,0.012139254133260696,0.02098367903220424,-0.08497877383264427, ,0.0006687130729257419, ,0.004370345892747545,0.0016821173342245212,-0.012075527872285106,0.000345930978662971,-0.007584795453657346,-0.002211427040595483, ,0.012951749508953933, ,0.007592663139761611, ,6.292795565592691e-05, ,0.22536479073561963,-0.20506944874215763,0.09900285246000001,2.0042164798250837,1.1075754670986602,-1.0771292438625892, ,0.019194365201956064,0.010384702051950863,0.01276347076923077,-0.0048585070492655,0.01419807497036686,-0.010517008093805269, ,0.9070239067077637
0.011779746107937146,0.02115948392538213,-0.08444302781710662, ,0.012170041270163662,0.02099188861533172,-0.08506599702867712, ,0.0007539954510294363, ,0.004370345892747545,0.0016821173342245212,-0.012075527872285106,0.000345930978662971,-0.007584795453657346,-0.002211427040595483, ,0.012951749508953933, ,0.007592663139761611, ,6.401909771009999e-05, ,0.22536479073561963,-0.20506944874215763,0.09900285246000001,2.0042164798250837,1.1075754670986602,-1.0771292438625892, ,0.019194365201956064,0.010384702051950863,0.01276347076923077,-0.0048585070492655,0.01419807497036686,-0.010517008093805269, ,0.9119069576263428
0.011859295999440439,0.0211889791932384,-0.08467366358667891, ,0.012200903747891366,0.020999965731733763,-0.08515328659005787, ,0.0006184336405807282, ,0.004537365334734337,0.0016657031660202704,-0.013620314209343867,0.015199600400252668,0.012628567184692036,-0.005714971811253024, ,0.014452515711093112, ,0.019761277608538824, ,6.483747841537913e-05, ,0.2257045909820855,-0.2048686576874278,0.09924655498000001,2.0037970999381147,1.1079853765979566,-1.0774634975736788, ,0.018196920720703887,0.01401934429878428,0.014454456914700545,-0.011226547812748365,0.037300446191711245,-0.02937168324385762, ,0.9167819023132324
0.011859295999440439,0.0211889791932384,-0.08467366358667891, ,0.01223184126878831,0.021007911118947138,-0.08524064086467406, ,0.0007021672585672267, ,0.004537365334734337,0.0016657031660202704,-0.013620314209343867,0.015199600400252668,0.012628567184692036,-0.005714971811253024, ,0.014452515711093112, ,0.019761277608538824, ,6.580628533011403e-05, ,0.2257045909820855,-0.2048686576874278,0.09924655498000001,2.0037970999381147,1.1079853765979566,-1.0774634975736788, ,0.018196920720703887,0.01401934429878428,0.014454456914700545,-0.011226547812748365,0.037300446191711245,-0.02937168324385762, ,0.9215798377990723
0.011907187889619607,0.021208370042938737,-0.08481675996976606, ,0.012262853535869712,0.021015725513039808,-0.08532805820584544, ,0.0006519477379670561, ,0.005070772334337572,0.0021095444554186838,-0.015225374468146674,-0.01127891073230874,-0.016973245527010475,0.007116967405072544, ,0.01618563985671755, ,0.02037901059581699, ,6.666876897712867e-05, ,0.22588221383819268,-0.20473737122856597,0.09939692462000001,2.0037970999381147,1.108122013097722,-1.077574915477375, ,0.01859266096365023,0.012279624942866302,0.015928811520000002,-0.011226547812748365,0.004394480048243545,-0.0025603162396275856, ,0.9272160530090332
0.011907187889619607,0.021208370042938737,-0.08481675996976606, ,0.012293940252820957,0.02102340964861205,-0.08541553697231756, ,0.0007364249022784781, ,0.005070772334337572,0.0021095444554186838,-0.015225374468146674,-0.01127891073230874,-0.016973245527010475,0.007116967405072544, ,0.01618563985671755, ,0.02037901059581699, ,6.768087953438734e-05, ,0.22588221383819268,-0.20473737122856597,0.09939692462000001,2.0037970999381147,1.108122013097722,-1.077574915477375, ,0.01859266096365023,0.012279624942866302,0.015928811520000002,-0.011226547812748365,0.004394480048243545,-0.0025603162396275856, ,0.932075023651123
0.01196362321511931,0.021232128578662586,-0.0849911223606017, ,0.01232510112399676,0.021030964258797802,-0.08550307552825501, ,0.0006582016469618773, ,0.005475657292517981,0.002314207137710182,-0.016713800106943063,-0.010686956117829988,-0.015208561964271014,0.002819862916225645, ,0.01773948960585349, ,0.018587901543475137, ,6.853483639809975e-05, ,0.22608300489292252,-0.20459836203682993,0.09957970151000001,2.0035874099946303,1.1082586495974873,-1.077604654640931, ,0.019155620015839883,0.013847503510648005,0.01748497422612514,-0.007504864560978048,0.006161864580070694,-0.003654353620732419, ,0.9370269775390625
0.01196362321511931,0.021232128578662586,-0.0849911223606017, ,0.012356335854420558,0.02103839007526537,-0.0855906722432362, ,0.0007424404935970195, ,0.005475657292517981,0.002314207137710182,-0.016713800106943063,-0.010686956117829988,-0.015208561964271014,0.002819862916225645, ,0.01773948960585349, ,0.018587901543475137, ,6.953639607049288e-05, ,0.22608300489292252,-0.20459836203682993,0.09957970151000001,2.0035874099946303,1.1082586495974873,-1.077604654640931, ,0.019155620015839883,0.013847503510648005,0.01748497422612514,-0.007504864560978048,0.006161864580070694,-0.003654353620732419, ,0.9422190189361572
0.01198519240614726,0.02124053888867601,-0.08505470999310963, ,0.012387644149783779,0.02104568782821928,-0.085678325492246, ,0.0007673530038256742, ,0.0055966364190922725,0.0021440121501848214,-0.01672150996711087,-0.0023715823701744767,-0.008450519061739577,-0.004171333622733431, ,0.01776310848043884, ,0.008776922470019132, ,7.057302652617785e-05, ,0.22616795495453898,-0.20453658017383614,0.09964710859,2.0035874099946303,1.108395286097253,-1.077634393804487, ,0.02089320597940792,0.015951746773990718,0.017542743964757714,-0.007504864560978048,0.01573711487585323,-0.015074943252440935, ,0.9486839771270752
0.01198519240614726,0.02124053888867601,-0.08505470999310963, ,0.012419025716445242,0.02105285824640058,-0.08576603365567037, ,0.0008540589660719284, ,0.0055966364190922725,0.0021440121501848214,-0.01672150996711087,-0.0023715823701744767,-0.008450519061739577,-0.004171333622733431, ,0.01776310848043884, ,0.008776922470019132, ,7.189079531179628e-05, ,0.22616795495453898,-0.20453658017383614,0.09964710859,2.0035874099946303,1.108395286097253,-1.077634393804487, ,0.02089320597940792,0.015951746773990718,0.017542743964757714,-0.007504864560978048,0.01573711487585323,-0.015074943252440935, ,0.9519498348236084
0.01207502649908744,0.021278046455559897,-0.08532551237368732, ,0.012450480261430403,0.021059902057088502,-0.08585379511928946, ,0.0006838385522496289, ,0.005949367030759555,0.0025699432502794693,-0.018027034166636376,0.03217732993002795,0.02425602825363828,-0.01882761106865422, ,0.019156553375318356, ,0.04029557747776784, ,7.288537535162324e-05, ,0.2265154779338791,-0.20428945272186094,0.09993618126,2.0035874099946303,1.1092151050958454,-1.0783029012266654, ,0.02302206248385997,0.014953819974546296,0.019260957097944377,-0.007504864560978048,0.0549655661715298,-0.047063114905876, ,0.9553029537200928
0.01207502649908744,0.021278046455559897,-0.08532551237368732, ,0.012482007492430457,0.021066819986101604,-0.08594160827427146, ,0.0007680002012101668, ,0.005949367030759555,0.0025699432502794693,-0.018027034166636376,0.03217732993002795,0.02425602825363828,-0.01882761106865422, ,0.019156553375318356, ,0.04029557747776784, ,7.40270807653974e-05, ,0.2265154779338791,-0.20428945272186094,0.09993618126,2.0035874099946303,1.1092151050958454,-1.0783029012266654, ,0.02302206248385997,0.014953819974546296,0.019260957097944377,-0.007504864560978048,0.0549655661715298,-0.047063114905876, ,0.9586398601531982
0.01207502649908744,0.021278046455559897,-0.08532551237368732, ,0.012513607117802146,0.021073612757798694,-0.08602947151716668, ,0.0008542274706310277, ,0.005949367030759555,0.0025699432502794693,-0.018027034166636376,0.03217732993002795,0.02425602825363828,-0.01882761106865422, ,0.019156553375318356, ,0.04029557747776784, ,7.531807401786582e-05, ,0.2265154779338791,-0.20428945272186094,0.09993618126,2.0035874099946303,1.1092151050958454,-1.0783029012266654, ,0.02302206248385997,0.014953819974546296,0.019260957097944377,-0.007504864560978048,0.0549655661715298,-0.047063114905876, ,0.9620318412780762
0.012141089308906235,0.021301012768228895,-0.08552014972197468, ,0.012545278846566615,0.021080281095079926,-0.08611738324990094, ,0.0007541747415317643, ,0.006650558462000744,0.0023829127575152043,-0.01917704715306828,-0.005875895568265896,-0.014466743401916029,0.006514347625086723, ,0.020436911179956295, ,0.01561442345244001, ,7.641741571822289e-05, ,0.2267780508516027,-0.2041118298657538,0.10013969879000001,2.003168030107661,1.1093517415956111,-1.0783326403902214, ,0.026724004944655246,0.018148200718774293,0.020137561972187107,-0.01895871847898007,0.018128848540845514,-0.015561359401127047, ,0.96561598777771
0.012141089308906235,0.021301012768228895,-0.08552014972197468, ,0.012577022388408774,0.02108682571938835,-0.08620534187976911, ,0.0008398821553042891, ,0.006650558462000744,0.0023829127575152043,-0.01917704715306828,-0.005875895568265896,-0.014466743401916029,0.006514347625086723, ,0.020436911179956295, ,0.01561442345244001, ,7.76643255619032e-05, ,0.2267780508516027,-0.2041118298657538,0.10013969879000001,2.003168030107661,1.1093517415956111,-1.0783326403902214, ,0.026724004944655246,0.018148200718774293,0.020137561972187107,-0.01895871847898007,0.018128848540845514,-0.015561359401127047, ,0.968998908996582
0.012141089308906235,0.021301012768228895,-0.08552014972197468, ,0.012608837453676918,0.02109324735071052,-0.08629334581942949, ,0.0009272470009508538, ,0.006650558462000744,0.0023829127575152043,-0.01917704715306828,-0.005875895568265896,-0.014466743401916029,0.006514347625086723, ,0.020436911179956295, ,0.01561442345244001, ,7.906019961222336e-05, ,0.2267780508516027,-0.2041118298657538,0.10013969879000001,2.003168030107661,1.1093517415956111,-1.0783326403902214, ,0.026724004944655246,0.018148200718774293,0.020137561972187107,-0.01895871847898007,0.018128848540845514,-0.015561359401127047, ,0.9722368717193604
0.012211974593280179,0.021324935508866036,-0.08572702754283507, ,0.01264072375338175,0.02109954670757791,-0.08638139348689702, ,0.0008141380366878817, ,0.00762195057499998,0.002857218222201931,-0.022772464771078305,-0.01503971808002618,-0.022987696961359442,0.015389580769253793, ,0.02418352700263193, ,0.02747036962442016, ,8.024221337341873e-05, ,0.22705606923507482,-0.20391876154389818,0.10035488293000001,2.0027486502206924,1.1093517415956111,-1.0782509616500808, ,0.02821794277682747,0.02054046354079454,0.02380988269058296,-0.026572586528345262,0.011946582964423802,-0.010757548010443386, ,0.9758260250091553
0.012211974593280179,0.021324935508866036,-0.08572702754283507, ,0.012672680999195647,0.021105724507068244,-0.08646948330553725, ,0.0009008575999182215, ,0.00762195057499998,0.002857218222201931,-0.022772464771078305,-0.01503971808002618,-0.022987696961359442,0.015389580769253793, ,0.02418352700263193, ,0.02747036962442016, ,8.157142912417526e-05, ,0.22705606923507482,-0.20391876154389818,0.10035488293000001,2.0027486502206924,1.1093517415956111,-1.0782509616500808, ,0.02821794277682747,0.02054046354079454,0.02380988269058296,-0.026572586528345262,0.011946582964423802,-0.010757548010443386, ,0.9790840148925781
0.012278734142246216,0.021351612240365213,-0.08593609661448362, ,0.012704708903452315,0.021111781464806186,-0.08655761370405969, ,0.0007907318070780679, ,0.00782191840418036,0.0029649871895070772,-0.025031785046087676,-0.00258729666170142,-0.008225692083351097,0.025326182861122554, ,0.02639249550817685, ,0.008622429263411186, ,8.269412849596367e-05, ,0.22729547395417576,-0.20372569322204256,0.10057654852,2.0025389602772075,1.1098982875946728,-1.0786149545247259, ,0.02618569027551622,0.02285021467817741,0.02619870315789474,-0.049595173827991244,0.03151105100524118,-0.03181309600120344, ,0.9876399040222168
0.012278734142246216,0.021351612240365213,-0.08593609661448362, ,0.01273680717914567,0.021117718294964716,-0.08664578311651219, ,0.0008764657528910356, ,0.00782191840418036,0.0029649871895070772,-0.025031785046087676,-0.00258729666170142,-0.008225692083351097,0.025326182861122554, ,0.02639249550817685, ,0.008622429263411186, ,8.396164631396564e-05, ,0.22729547395417576,-0.20372569322204256,0.10057654852,2.0025389602772075,1.1098982875946728,-1.0786149545247259, ,0.02618569027551622,0.02285021467817741,0.02619870315789474,-0.049595173827991244,0.03151105100524118,-0.03181309600120344, ,0.9935929775238037
0.012346188172645229,0.021380394087243383,-0.08614452258023504, ,0.012768975539929374,0.021123535710266362,-0.08673398998227418, ,0.0007695435022304422, ,0.008095947681475903,0.003367739579451504,-0.025654017806066912,0.04815194968965558,0.03974110308180414,-0.0040638661582717535, ,0.027111153946857324, ,0.062433600100142324, ,8.503024348910331e-05, ,0.22753487867327674,-0.20354034763306117,0.10079821411,2.0025389602772075,1.1104448335937347,-1.0790606261395117, ,0.029507755459723495,0.021582201855462994,0.027369091958762887,-0.04055373865951639,0.08715257648477362,-0.0770928533772019, ,0.9972238540649414
0.012346188172645229,0.021380394087243383,-0.08614452258023504, ,0.01280121370011621,0.02112923442198419,-0.08682223274605022, ,0.0008540611669854752, ,0.008095947681475903,0.003367739579451504,-0.025654017806066912,0.04815194968965558,0.03974110308180414,-0.0040638661582717535, ,0.027111153946857324, ,0.062433600100142324, ,8.624086416168255e-05, ,0.22753487867327674,-0.20354034763306117,0.10079821411,2.0025389602772075,1.1104448335937347,-1.0790606261395117, ,0.029507755459723495,0.021582201855462994,0.027369091958762887,-0.04055373865951639,0.08715257648477362,-0.0770928533772019, ,1.0005090236663818
0.012346188172645229,0.021380394087243383,-0.08614452258023504, ,0.012833521374677186,0.021134815139942992,-0.08691050985786454, ,0.0009404994304358394, ,0.008095947681475903,0.003367739579451504,-0.025654017806066912,0.04815194968965558,0.03974110308180414,-0.0040638661582717535, ,0.027111153946857324, ,0.062433600100142324, ,8.759539273683683e-05, ,0.22753487867327674,-0.20354034763306117,0.10079821411,2.0025389602772075,1.1104448335937347,-1.0790606261395117, ,0.029507755459723495,0.021582201855462994,0.027369091958762887,-0.04055373865951639,0.08715257648477362,-0.0770928533772019, ,1.0038049221038818
0.01245066704955939,0.02142146106495915,-0.08646627953953148, ,0.012865898279241058,0.02114027857252039,-0.08699881977305372, ,0.0007314914001387477, ,0.007197598356637026,0.0025525848145172745,-0.021441981512761242,0.0050051846190591375,0.0020125277589351344,-0.02915544629341606, ,0.02276136381090472, ,0.0053942199333534575, ,8.857307395768933e-05, ,0.22789012438549106,-0.20324688378384065,0.10113524951000001,2.002329270333723,1.1107181065932652,-1.0793651406870448, ,0.02564089207199967,0.023897492208126613,0.02253014359264498,0.011668431584878852,0.02846623731483129,-0.02548841788469323, ,1.0070810317993164
0.01245066704955939,0.02142146106495915,-0.08646627953953148, ,0.012898344130093494,0.02114562542664796,-0.08708716095226174, ,0.0008136300120275788, ,0.007197598356637026,0.0025525848145172745,-0.021441981512761242,0.0050051846190591375,0.0020125277589351344,-0.02915544629341606, ,0.02276136381090472, ,0.0053942199333534575, ,8.98451036736014e-05, ,0.22789012438549106,-0.20324688378384065,0.10113524951000001,2.002329270333723,1.1107181065932652,-1.0793651406870448, ,0.02564089207199967,0.023897492208126613,0.02253014359264498,0.011668431584878852,0.02846623731483129,-0.02548841788469323, ,1.0087778568267822
0.01245066704955939,0.02142146106495915,-0.08646627953953148, ,0.012930858644176348,0.021150856407812498,-0.0871755318614317, ,0.0008982481306026132, ,0.007197598356637026,0.0025525848145172745,-0.021441981512761242,0.0050051846190591375,0.0020125277589351344,-0.02915544629341606, ,0.02276136381090472, ,0.0053942199333534575, ,9.126087079606905e-05, ,0.22789012438549106,-0.20324688378384065,0.10113524951000001,2.002329270333723,1.1107181065932652,-1.0793651406870448, ,0.02564089207199967,0.023897492208126613,0.02253014359264498,0.011668431584878852,0.02846623731483129,-0.02548841788469323, ,1.0104849338531494
0.01245066704955939,0.02142146106495915,-0.08646627953953148, ,0.012963441539087066,0.02115597222005705,-0.08726393097180249, ,0.000984718137987621, ,0.007197598356637026,0.0025525848145172745,-0.021441981512761242,0.0050051846190591375,0.0020125277589351344,-0.02915544629341606, ,0.02276136381090472, ,0.0053942199333534575, ,9.28228590254249e-05, ,0.22789012438549106,-0.20324688378384065,0.10113524951000001,2.002329270333723,1.1107181065932652,-1.0793651406870448, ,0.02564089207199967,0.023897492208126613,0.02253014359264498,0.011668431584878852,0.02846623731483129,-0.02548841788469323, ,1.0121779441833496
0.01245066704955939,0.02142146106495915,-0.08646627953953148, ,0.012996092533078131,0.02116097356598201,-0.08735235675989894, ,0.0010726022261999739, ,0.007197598356637026,0.0025525848145172745,-0.021441981512761242,0.0050051846190591375,0.0020125277589351344,-0.02915544629341606, ,0.02276136381090472, ,0.0053942199333534575, ,9.453277066098258e-05, ,0.22789012438549106,-0.20324688378384065,0.10113524951000001,2.002329270333723,1.1107181065932652,-1.0793651406870448, ,0.02564089207199967,0.023897492208126613,0.02253014359264498,0.011668431584878852,0.02846623731483129,-0.02548841788469323, ,1.0138449668884277
0.012526801596880074,0.021442531757998387,-0.08667727316446273, ,0.013028811345055857,0.021165861146746436,-0.08744080770752856, ,0.0009547488742327896, ,0.007902850014996538,0.0016773842088904853,-0.021652157922020365,-0.031331668737859836,-0.03381917432063023,-0.0021803756189712475, ,0.02311027041866614, ,0.04610211772505977, ,9.603140498776273e-05, ,0.22819131096758583,-0.20296114266749435,0.10135561881,2.0025389602772075,1.110854743093031,-1.0794765585907415, ,0.032365941868509815,0.03193033026866446,0.022403391729957808,-0.007194596577534875,0.0,-0.0022761100958665357, ,1.0155408382415771
0.012526801596880074,0.021442531757998387,-0.08667727316446273, ,0.013061597694580528,0.02117063566206889,-0.08752928230177426, ,0.0010420431484154885, ,0.007902850014996538,0.0016773842088904853,-0.021652157922020365,-0.031331668737859836,-0.03381917432063023,-0.0021803756189712475, ,0.02311027041866614, ,0.04610211772505977, ,0.0005348959010608694, ,0.22819131096758583,-0.20296114266749435,0.10135561881,2.0025389602772075,1.110854743093031,-1.0794765585907415, ,0.032365941868509815,0.03193033026866446,0.022403391729957808,-0.007194596577534875,0.0,-0.0022761100958665357, ,1.0171890258789062
0.012526801596880074,0.021442531757998387,-0.08667727316446273, ,0.013094451301864771,0.021175297810228956,-0.08761777903498714, ,0.0011305712993440655, ,0.007902850014996538,0.0016773842088904853,-0.021652157922020365,-0.031331668737859836,-0.03381917432063023,-0.0021803756189712475, ,0.02311027041866614, ,0.04610211772505977, ,0.0005405154802899562, ,0.22819131096758583,-0.20296114266749435,0.10135561881,2.0025389602772075,1.110854743093031,-1.0794765585907415, ,0.032365941868509815,0.03193033026866446,0.022403391729957808,-0.007194596577534875,0.0,-0.0022761100958665357, ,1.018833875656128
0.012526801596880074,0.021442531757998387,-0.08667727316446273, ,0.013127371887773605,0.021179848288068022,-0.0877062964047815, ,0.0012200721736007, ,0.007902850014996538,0.0016773842088904853,-0.021652157922020365,-0.031331668737859836,-0.03381917432063023,-0.0021803756189712475, ,0.02311027041866614, ,0.04610211772505977, ,0.0005468664774237015, ,0.22819131096758583,-0.20296114266749435,0.10135561881,2.0025389602772075,1.110854743093031,-1.0794765585907415, ,0.032365941868509815,0.03193033026866446,0.022403391729957808,-0.007194596577534875,0.0,-0.0022761100958665357, ,1.0205090045928955
0.012526801596880074,0.021442531757998387,-0.08667727316446273, ,0.013160359173823388,0.021184287790990648,-0.08779483291402822, ,0.0013103529843698771, ,0.007902850014996538,0.0016773842088904853,-0.021652157922020365,-0.031331668737859836,-0.03381917432063023,-0.0021803756189712475, ,0.02311027041866614, ,0.04610211772505977, ,0.0005539357969324624, ,0.22819131096758583,-0.20296114266749435,0.10135561881,2.0025389602772075,1.110854743093031,-1.0794765585907415, ,0.032365941868509815,0.03193033026866446,0.022403391729957808,-0.007194596577534875,0.0,-0.0022761100958665357, ,1.0221669673919678
0.012526801596880074,0.021442531757998387,-0.08667727316446273, ,0.013193412882181049,0.02118861701296553,-0.08788338707084803, ,0.0014012687317612256, ,0.007902850014996538,0.0016773842088904853,-0.021652157922020365,-0.031331668737859836,-0.03381917432063023,-0.0021803756189712475, ,0.02311027041866614, ,0.04610211772505977, ,0.0005617094935822676, ,0.22819131096758583,-0.20296114266749435,0.10135561881,2.0025389602772075,1.110854743093031,-1.0794765585907415, ,0.032365941868509815,0.03193033026866446,0.022403391729957808,-0.007194596577534875,0.0,-0.0022761100958665357, ,1.0238540172576904
0.012614830325751603,0.021458077513969814,-0.08693156818454062, ,0.013226532735663855,0.021192836646526908,-0.08797195738860594, ,0.0012356950481368768, ,0.009473571937379808,0.0020042505530813983,-0.028503595042724567,-0.006095789139969092,-0.007451639793234827,0.09043297178454458, ,0.030103496738616096, ,0.009626357883860546, ,0.0005678366349873095, ,0.22857744761129703,-0.20261361968815422,0.10162135826000002,2.001490510559785,1.1114012890920926,-1.0800039089456674, ,0.03944178784641346,0.03487575948492127,0.02982923505617978,-0.13034979992309237,0.06546994064099086,-0.054841406996323214, ,1.0255720615386963
0.012614830325751603,0.021458077513969814,-0.08693156818454062, ,0.01325971845773811,0.021196947382775392,-0.088060542385904, ,0.0013261419213412766, ,0.009473571937379808,0.0020042505530813983,-0.028503595042724567,-0.006095789139969092,-0.007451639793234827,0.09043297178454458, ,0.030103496738616096, ,0.009626357883860546, ,0.0005746682141436516, ,0.22857744761129703,-0.20261361968815422,0.10162135826000002,2.001490510559785,1.1114012890920926,-1.0800039089456674, ,0.03944178784641346,0.03487575948492127,0.02982923505617978,-0.13034979992309237,0.06546994064099086,-0.054841406996323214, ,1.0272319316864014
0.012614830325751603,0.021458077513969814,-0.08693156818454062, ,0.013292969772518969,0.021200949911379253,-0.08814914058657636, ,0.0014172050901245716, ,0.009473571937379808,0.0020042505530813983,-0.028503595042724567,-0.006095789139969092,-0.007451639793234827,0.09043297178454458, ,0.030103496738616096, ,0.009626357883860546, ,0.0005821908648220525, ,0.22857744761129703,-0.20261361968815422,0.10162135826000002,2.001490510559785,1.1114012890920926,-1.0800039089456674, ,0.03944178784641346,0.03487575948492127,0.02982923505617978,-0.13034979992309237,0.06546994064099086,-0.054841406996323214, ,1.0288889408111572
0.012614830325751603,0.021458077513969814,-0.08693156818454062, ,0.013326286404769402,0.02120484492057558,-0.08823775051968173, ,0.0015087772504128094, ,0.009473571937379808,0.0020042505530813983,-0.028503595042724567,-0.006095789139969092,-0.007451639793234827,0.09043297178454458, ,0.030103496738616096, ,0.009626357883860546, ,0.0005903907443405548, ,0.22857744761129703,-0.20261361968815422,0.10162135826000002,2.001490510559785,1.1114012890920926,-1.0800039089456674, ,0.03944178784641346,0.03487575948492127,0.02982923505617978,-0.13034979992309237,0.06546994064099086,-0.054841406996323214, ,1.0306060314178467
0.012614830325751603,0.021458077513969814,-0.08693156818454062, ,0.01335966807989976,0.021208633097171407,-0.08832637071949802, ,0.0016007747838468571, ,0.009473571937379808,0.0020042505530813983,-0.028503595042724567,-0.006095789139969092,-0.007451639793234827,0.09043297178454458, ,0.030103496738616096, ,0.009626357883860546, ,0.000599253762230961, ,0.22857744761129703,-0.20261361968815422,0.10162135826000002,2.001490510559785,1.1114012890920926,-1.0800039089456674, ,0.03944178784641346,0.03487575948492127,0.02982923505617978,-0.13034979992309237,0.06546994064099086,-0.054841406996323214, ,1.0323820114135742
0.012614830325751603,0.021458077513969814,-0.08693156818454062, ,0.013393114523966847,0.021212315126544798,-0.08841499972551531, ,0.0016931315899902548, ,0.009473571937379808,0.0020042505530813983,-0.028503595042724567,-0.006095789139969092,-0.007451639793234827,0.09043297178454458, ,0.030103496738616096, ,0.009626357883860546, ,0.0006087657433419113, ,0.22857744761129703,-0.20261361968815422,0.10162135826000002,2.001490510559785,1.1114012890920926,-1.0800039089456674, ,0.03944178784641346,0.03487575948492127,0.02982923505617978,-0.13034979992309237,0.06546994064099086,-0.054841406996323214, ,1.034132957458496
0.012709849677246142,0.021482967740281484,-0.08722373458758474, ,0.013426625463673469,0.021215891692645934,-0.08850363608243039, ,0.0014910549888375246, ,0.012618226086855535,0.00436713825699246,-0.03856699480650435,0.058138540371040714,0.052355094899786896,0.010216768294104426, ,0.040813044661475846, ,0.07823720670442158, ,0.0006163716851134253, ,0.22857744761129703,-0.20261361968815422,0.10162135826000002,2.001490510559785,1.1114012890920926,-1.0800039089456674, ,0.03944178784641346,0.03487575948492127,0.02982923505617978,-0.13034979992309237,0.06546994064099086,-0.054841406996323214, ,1.0360519886016846
0.012709849677246142,0.021482967740281484,-0.08722373458758474, ,0.01346020062636739,0.021219363477998476,-0.08859227834013976, ,0.0015828536750433688, ,0.012618226086855535,0.00436713825699246,-0.03856699480650435,0.058138540371040714,0.052355094899786896,0.010216768294104426, ,0.040813044661475846, ,0.07823720670442158, ,0.0006246322149418863, ,0.22896358425500826,-0.20227381944168835,0.10193117157,2.0004420608423623,1.1124943810902161,-1.080895252175239, ,0.04846626228726802,0.03817254286342348,0.04105363793814434,-0.07268014303190415,0.12964864192442876,-0.10717483453021634, ,1.0391318798065186
0.012709849677246142,0.021482967740281484,-0.08722373458758474, ,0.013493839740041265,0.021222731163700458,-0.0886809250537337, ,0.0016750425513960975, ,0.012618226086855535,0.00436713825699246,-0.03856699480650435,0.058138540371040714,0.052355094899786896,0.010216768294104426, ,0.040813044661475846, ,0.07823720670442158, ,0.0006335339974542101, ,0.22896358425500826,-0.20227381944168835,0.10193117157,2.0004420608423623,1.1124943810902161,-1.080895252175239, ,0.04846626228726802,0.03817254286342348,0.04105363793814434,-0.07268014303190415,0.12964864192442876,-0.10717483453021634, ,1.0409889221191406
0.012709849677246142,0.021482967740281484,-0.08722373458758474, ,0.013527542533331065,0.021225995429425538,-0.08876957478349017, ,0.0017675628098361548, ,0.012618226086855535,0.00436713825699246,-0.03856699480650435,0.058138540371040714,0.052355094899786896,0.010216768294104426, ,0.040813044661475846, ,0.07823720670442158, ,0.0006430636513397727, ,0.22896358425500826,-0.20227381944168835,0.10193117157,2.0004420608423623,1.1124943810902161,-1.080895252175239, ,0.04846626228726802,0.03817254286342348,0.04105363793814434,-0.07268014303190415,0.12964864192442876,-0.10717483453021634, ,1.0429179668426514
0.012709849677246142,0.021482967740281484,-0.08722373458758474, ,0.013561308735516291,0.021229156953424144,-0.08885822609486818, ,0.0018603668807031374, ,0.012618226086855535,0.00436713825699246,-0.03856699480650435,0.058138540371040714,0.052355094899786896,0.010216768294104426, ,0.040813044661475846, ,0.07823720670442158, ,0.0006532078449178007, ,0.22896358425500826,-0.20227381944168835,0.10193117157,2.0004420608423623,1.1124943810902161,-1.080895252175239, ,0.04846626228726802,0.03817254286342348,0.04105363793814434,-0.07268014303190415,0.12964864192442876,-0.10717483453021634, ,1.0446820259094238
0.012842568700271069,0.021539738475279548,-0.08763677521515643, ,0.013595138076518538,0.021232216412524506,-0.08894687755850168, ,0.0015418490961132778, ,0.015860460020374396,0.007065229684348086,-0.050041813285718335,0.03733297729428905,0.029076090271512787,-0.04221890241219581, ,0.05296843153684262, ,0.04731655535096164, ,0.0006605519874896643, ,0.22941922549458751,-0.20193401919522247,0.10237061388000002,2.000232370898878,1.1135874730883397,-1.0817865954048105, ,0.04981466748476156,0.040040903611169104,0.052919639601328915,-0.002032686803515701,0.08903502693849931,-0.07405715476650829, ,1.0475778579711914
0.012842568700271069,0.021539738475279548,-0.08763677521515643, ,0.013629030286901324,0.02123517448213408,-0.08903552775019309, ,0.0016333369852657975, ,0.015860460020374396,0.007065229684348086,-0.050041813285718335,0.03733297729428905,0.029076090271512787,-0.04221890241219581, ,0.05296843153684262, ,0.04731655535096164, ,0.0006685256350124194, ,0.22941922549458751,-0.20193401919522247,0.10237061388000002,2.000232370898878,1.1135874730883397,-1.0817865954048105, ,0.04981466748476156,0.040040903611169104,0.052919639601328915,-0.002032686803515701,0.08903502693849931,-0.07405715476650829, ,1.0492908954620361
0.012842568700271069,0.021539738475279548,-0.08763677521515643, ,0.013662985097869075,0.021238031836240335,-0.0891241752509078, ,0.0017252445704424558, ,0.015860460020374396,0.007065229684348086,-0.050041813285718335,0.03733297729428905,0.029076090271512787,-0.04221890241219581, ,0.05296843153684262, ,0.04731655535096164, ,0.0006771168458695742, ,0.22941922549458751,-0.20193401919522247,0.10237061388000002,2.000232370898878,1.1135874730883397,-1.0817865954048105, ,0.04981466748476156,0.040040903611169104,0.052919639601328915,-0.002032686803515701,0.08903502693849931,-0.07405715476650829, ,1.050997018814087
0.012842568700271069,0.021539738475279548,-0.08763677521515643, ,0.013697002241266684,0.02124078914741189,-0.0892128186467665, ,0.001817509360342351, ,0.015860460020374396,0.007065229684348086,-0.050041813285718335,0.03733297729428905,0.029076090271512787,-0.04221890241219581, ,0.05296843153684262, ,0.04731655535096164, ,0.0006863135596959676, ,0.22941922549458751,-0.20193401919522247,0.10237061388000002,2.000232370898878,1.1135874730883397,-1.0817865954048105, ,0.04981466748476156,0.040040903611169104,0.052919639601328915,-0.002032686803515701,0.08903502693849931,-0.07405715476650829, ,1.0526390075683594
0.012842568700271069,0.021539738475279548,-0.08763677521515643, ,0.013731081449578564,0.021243447086800014,-0.08930145652904034, ,0.0019100804614893432, ,0.015860460020374396,0.007065229684348086,-0.050041813285718335,0.03733297729428905,0.029076090271512787,-0.04221890241219581, ,0.05296843153684262, ,0.04731655535096164, ,0.0006961036949103145, ,0.22941922549458751,-0.20193401919522247,0.10237061388000002,2.000232370898878,1.1135874730883397,-1.0817865954048105, ,0.04981466748476156,0.040040903611169104,0.052919639601328915,-0.002032686803515701,0.08903502693849931,-0.07405715476650829, ,1.0543310642242432
0.013042834886388716,0.021624331703498242,-0.08828202899986844, ,0.013765222455928155,0.02124600632413958,-0.08939008749414414, ,0.0013757788775920724, ,0.017415254194328687,0.007394933016784584,-0.05624764043422531,-0.023132392784444154,-0.025241085657349595,0.0006479802214387869, ,0.05934452938050576, ,0.034229475369189695, ,0.0007014979423919158, ,0.23000615319302858,-0.20139342789402676,0.10304727726000001,1.9998129910119087,1.1142706555871669,-1.0823436849232926, ,0.04879020131540914,0.046932216398848065,0.058777902287822884,-0.026000892851206853,0.0322713309626942,-0.027770166863991377, ,1.0567500591278076
0.013042834886388716,0.021624331703498242,-0.08828202899986844, ,0.013799424994077054,0.02124846752774999,-0.08947871014362949, ,0.001464837270653645, ,0.017415254194328687,0.007394933016784584,-0.05624764043422531,-0.023132392784444154,-0.025241085657349595,0.0006479802214387869, ,0.05934452938050576, ,0.034229475369189695, ,0.0007075084882837405, ,0.23000615319302858,-0.20139342789402676,0.10304727726000001,1.9998129910119087,1.1142706555871669,-1.0823436849232926, ,0.04879020131540914,0.046932216398848065,0.058777902287822884,-0.026000892851206853,0.0322713309626942,-0.027770166863991377, ,1.0584158897399902
0.013042834886388716,0.021624331703498242,-0.08828202899986844, ,0.01383368879842456,0.021250831364536486,-0.08956732308417925, ,0.0015546489303219942, ,0.017415254194328687,0.007394933016784584,-0.05624764043422531,-0.023132392784444154,-0.025241085657349595,0.0006479802214387869, ,0.05934452938050576, ,0.034229475369189695, ,0.0007141267729871643, ,0.23000615319302858,-0.20139342789402676,0.10304727726000001,1.9998129910119087,1.1142706555871669,-1.0823436849232926, ,0.04879020131540914,0.046932216398848065,0.058777902287822884,-0.026000892851206853,0.0322713309626942,-0.027770166863991377, ,1.060119867324829
0.013042834886388716,0.021624331703498242,-0.08828202899986844, ,0.013868013604006801,0.021253098499991567,-0.0896559249276013, ,0.001645090887348356, ,0.017415254194328687,0.007394933016784584,-0.05624764043422531,-0.023132392784444154,-0.025241085657349595,0.0006479802214387869, ,0.05934452938050576, ,0.034229475369189695, ,0.0007213435490674836, ,0.23000615319302858,-0.20139342789402676,0.10304727726000001,1.9998129910119087,1.1142706555871669,-1.0823436849232926, ,0.04879020131540914,0.046932216398848065,0.058777902287822884,-0.026000892851206853,0.0322713309626942,-0.027770166863991377, ,1.0617749691009521
0.013042834886388716,0.021624331703498242,-0.08828202899986844, ,0.013902399146496016,0.021255269598195552,-0.0897445142908217, ,0.0017360647398869979, ,0.017415254194328687,0.007394933016784584,-0.05624764043422531,-0.023132392784444154,-0.025241085657349595,0.0006479802214387869, ,0.05934452938050576, ,0.034229475369189695, ,0.0007291490966891722, ,0.23000615319302858,-0.20139342789402676,0.10304727726000001,1.9998129910119087,1.1142706555871669,-1.0823436849232926, ,0.04879020131540914,0.046932216398848065,0.058777902287822884,-0.026000892851206853,0.0322713309626942,-0.027770166863991377, ,1.0634129047393799
0.013223574580433033,0.02168806193033977,-0.08887738336401749, ,0.013936845162200059,0.02125734532181814,-0.08983308979587894, ,0.0012679300073631787, ,0.017415254194328687,0.007394933016784584,-0.05624764043422531,-0.023132392784444154,-0.025241085657349595,0.0006479802214387869, ,0.05934452938050576, ,0.034229475369189695, ,0.0007332619280683631, ,0.23053902176135008,-0.2008373911270826,0.10366820017000002,1.998345161407517,1.1149538380859942,-1.0829007744417747, ,0.05231363922738191,0.05786398875516511,0.06010872271698114,-0.14349811423486555,0.09582616945820585,-0.08393066332789487, ,1.0651450157165527
0.013223574580433033,0.02168806193033977,-0.08887738336401749, ,0.013971351388061364,0.021259326332119473,-0.08992165006991723, ,0.0013540595704247408, ,0.017448050198735042,0.005763994308178498,-0.05749239035175129,-0.0034516901278175147,0.004528600895305817,0.08250175935912506, ,0.06035754331051287, ,0.005638639684586661, ,0.0007379649405104568, ,0.23053902176135008,-0.2008373911270826,0.10366820017000002,1.998345161407517,1.1149538380859942,-1.0829007744417747, ,0.05231363922738191,0.05786398875516511,0.06010872271698114,-0.14349811423486555,0.09582616945820585,-0.08393066332789487, ,1.0670769214630127
0.013223574580433033,0.02168806193033977,-0.08887738336401749, ,0.014005917561656705,0.021261213288951034,-0.0900101937451805, ,0.0014413603514028157, ,0.017448050198735042,0.005763994308178498,-0.05749239035175129,-0.0034516901278175147,0.004528600895305817,0.08250175935912506, ,0.06035754331051287, ,0.005638639684586661, ,0.0007432536278103993, ,0.23053902176135008,-0.2008373911270826,0.10366820017000002,1.998345161407517,1.1149538380859942,-1.0829007744417747, ,0.05231363922738191,0.05786398875516511,0.06010872271698114,-0.14349811423486555,0.09582616945820585,-0.08393066332789487, ,1.0687389373779297
0.013223574580433033,0.02168806193033977,-0.08887738336401749, ,0.014040543421196107,0.021263006850757275,-0.09009871945900647, ,0.001529631251112361, ,0.017448050198735042,0.005763994308178498,-0.05749239035175129,-0.0034516901278175147,0.004528600895305817,0.08250175935912506, ,0.06035754331051287, ,0.005638639684586661, ,0.0007491221175365333, ,0.23053902176135008,-0.2008373911270826,0.10366820017000002,1.998345161407517,1.1149538380859942,-1.0829007744417747, ,0.05231363922738191,0.05786398875516511,0.06010872271698114,-0.14349811423486555,0.09582616945820585,-0.08393066332789487, ,1.0703909397125244
0.013223574580433033,0.02168806193033977,-0.08887738336401749, ,0.014075228705522485,0.021264707674576146,-0.0901872258538196, ,0.001618712736326626, ,0.017448050198735042,0.005763994308178498,-0.05749239035175129,-0.0034516901278175147,0.004528600895305817,0.08250175935912506, ,0.06035754331051287, ,0.005638639684586661, ,0.000755563529527571, ,0.23053902176135008,-0.2008373911270826,0.10366820017000002,1.998345161407517,1.1149538380859942,-1.0829007744417747, ,0.05231363922738191,0.05786398875516511,0.06010872271698114,-0.14349811423486555,0.09582616945820585,-0.08393066332789487, ,1.0720410346984863
0.013223574580433033,0.02168806193033977,-0.08887738336401749, ,0.014109973154110533,0.021266316416040744,-0.0902757115771252, ,0.0017084769538456973, ,0.017448050198735042,0.005763994308178498,-0.05749239035175129,-0.0034516901278175147,0.004528600895305817,0.08250175935912506, ,0.06035754331051287, ,0.005638639684586661, ,0.0007625702458828514, ,0.23053902176135008,-0.2008373911270826,0.10366820017000002,1.998345161407517,1.1149538380859942,-1.0829007744417747, ,0.05231363922738191,0.05786398875516511,0.06010872271698114,-0.14349811423486555,0.09582616945820585,-0.08393066332789487, ,1.0736918449401855
0.013394275473356709,0.021744627463862097,-0.08942038240059821, ,0.014144776507066399,0.02126783372938018,-0.09036417528150353, ,0.0012966607377753398, ,0.018077219571076397,0.005378729167823085,-0.055249110839277936,0.053177789868082984,0.05754224960558524,-0.028340982225664856, ,0.058379626955064705, ,0.07834840801979569, ,0.0007664687166265922, ,0.2310796130625458,-0.20025046342864153,0.10423986406,1.9977160915770635,1.116183566583883,-1.084148571795464, ,0.06259692714938705,0.06508706554078929,0.05834729494505495,-0.0496154041480689,0.14566716280521338,-0.12520254560612692, ,1.0753400325775146
0.013394275473356709,0.021744627463862097,-0.08942038240059821, ,0.014179638505126973,0.021269260267420792,-0.09045261562460281, ,0.0013814030881183009, ,0.018077219571076397,0.005378729167823085,-0.055249110839277936,0.053177789868082984,0.05754224960558524,-0.028340982225664856, ,0.058379626955064705, ,0.07834840801979569, ,0.000770924762796822, ,0.2310796130625458,-0.20025046342864153,0.10423986406,1.9977160915770635,1.116183566583883,-1.084148571795464, ,0.06259692714938705,0.06508706554078929,0.05834729494505495,-0.0496154041480689,0.14566716280521338,-0.12520254560612692, ,1.076974868774414
0.013394275473356709,0.021744627463862097,-0.08942038240059821, ,0.014214558889658906,0.02127059668158721,-0.09054103126913358, ,0.0014674549233806644, ,0.018077219571076397,0.005378729167823085,-0.055249110839277936,0.053177789868082984,0.05754224960558524,-0.028340982225664856, ,0.058379626955064705, ,0.07834840801979569, ,0.0007759357711463461, ,0.2310796130625458,-0.20025046342864153,0.10423986406,1.9977160915770635,1.116183566583883,-1.084148571795464, ,0.06259692714938705,0.06508706554078929,0.05834729494505495,-0.0496154041480689,0.14566716280521338,-0.12520254560612692, ,1.0786418914794922
0.013394275473356709,0.021744627463862097,-0.08942038240059821, ,0.014249537402658255,0.02127184362190364,-0.09062942088286201, ,0.0015545969189871512, ,0.018077219571076397,0.005378729167823085,-0.055249110839277936,0.053177789868082984,0.05754224960558524,-0.028340982225664856, ,0.058379626955064705, ,0.07834840801979569, ,0.0007814976364880662, ,0.2310796130625458,-0.20025046342864153,0.10423986406,1.9977160915770635,1.116183566583883,-1.084148571795464, ,0.06259692714938705,0.06508706554078929,0.05834729494505495,-0.0496154041480689,0.14566716280521338,-0.12520254560612692, ,1.0803680419921875
0.013394275473356709,0.021744627463862097,-0.08942038240059821, ,0.01428457378674949,0.021273001736995,-0.09071778313860379, ,0.001642653520390215, ,0.018077219571076397,0.005378729167823085,-0.055249110839277936,0.053177789868082984,0.05754224960558524,-0.028340982225664856, ,0.058379626955064705, ,0.07834840801979569, ,0.0007876051250263793, ,0.2310796130625458,-0.20025046342864153,0.10423986406,1.9977160915770635,1.116183566583883,-1.084148571795464, ,0.06259692714938705,0.06508706554078929,0.05834729494505495,-0.0496154041480689,0.14566716280521338,-0.12520254560612692, ,1.082176923751831
0.013394275473356709,0.021744627463862097,-0.08942038240059821, ,0.014319667785185052,0.02127407167408772,-0.09080611671421808, ,0.0017314829684477733, ,0.018077219571076397,0.005378729167823085,-0.055249110839277936,0.053177789868082984,0.05754224960558524,-0.028340982225664856, ,0.058379626955064705, ,0.07834840801979569, ,0.000794252152092727, ,0.2310796130625458,-0.20025046342864153,0.10423986406,1.9977160915770635,1.116183566583883,-1.084148571795464, ,0.06259692714938705,0.06508706554078929,0.05834729494505495,-0.0496154041480689,0.14566716280521338,-0.12520254560612692, ,1.0839178562164307
0.013394275473356709,0.021744627463862097,-0.08942038240059821, ,0.014354819141844527,0.02127505407901137,-0.09089442029260057, ,0.0018209697992803073, ,0.018077219571076397,0.005378729167823085,-0.055249110839277936,0.053177789868082984,0.05754224960558524,-0.028340982225664856, ,0.058379626955064705, ,0.07834840801979569, ,0.0008014319957793535, ,0.23182871815134556,-0.19955541746996133,0.10481541682,1.99708702174661,1.1178232045810683,-1.0854855866398212, ,0.08008180722233821,0.06645444086727646,0.05257033504950496,-0.04053036770930505,0.16215501845217753,-0.138647286329049, ,1.0856690406799316
0.013394275473356709,0.021744627463862097,-0.08942038240059821, ,0.014390027601234055,0.021275949596199342,-0.09098269256167803, ,0.0019110191739546737, ,0.018077219571076397,0.005378729167823085,-0.055249110839277936,0.053177789868082984,0.05754224960558524,-0.028340982225664856, ,0.058379626955064705, ,0.07834840801979569, ,0.0008091374622944599, ,0.23182871815134556,-0.19955541746996133,0.10481541682,1.99708702174661,1.1178232045810683,-1.0854855866398212, ,0.08008180722233821,0.06645444086727646,0.05257033504950496,-0.04053036770930505,0.16215501845217753,-0.138647286329049, ,1.0874779224395752
0.013394275473356709,0.021744627463862097,-0.08942038240059821, ,0.014425292908485375,0.021276758868690474,-0.09107093221440177, ,0.0020015525628206987, ,0.018077219571076397,0.005378729167823085,-0.055249110839277936,0.053177789868082984,0.05754224960558524,-0.028340982225664856, ,0.058379626955064705, ,0.07834840801979569, ,0.0008173610147118823, ,0.23182871815134556,-0.19955541746996133,0.10481541682,1.99708702174661,1.1178232045810683,-1.0854855866398212, ,0.08008180722233821,0.06645444086727646,0.05257033504950496,-0.04053036770930505,0.16215501845217753,-0.138647286329049, ,1.0892958641052246
0.013394275473356709,0.021744627463862097,-0.08942038240059821, ,0.014460614809355465,0.021277482538129742,-0.09115913794874068, ,0.002092504436633762, ,0.018077219571076397,0.005378729167823085,-0.055249110839277936,0.053177789868082984,0.05754224960558524,-0.028340982225664856, ,0.058379626955064705, ,0.07834840801979569, ,0.0008260948737661418, ,0.23182871815134556,-0.19955541746996133,0.10481541682,1.99708702174661,1.1178232045810683,-1.0854855866398212, ,0.08008180722233821,0.06645444086727646,0.05257033504950496,-0.04053036770930505,0.16215501845217753,-0.138647286329049, ,1.091601848602295
0.01358354234387334,0.02179149003567101,-0.0899634958792039, ,0.0144959930502257,0.02127812124476955,-0.09124730846767631, ,0.0016565894389723736, ,0.01837315080206483,0.004098216629876989,-0.049377803449709455,0.06771506512034062,0.056717414990229933,-0.04378286884777906, ,0.05284444647698521, ,0.08832837411127763, ,0.0008317444966587012, ,0.23182871815134556,-0.19955541746996133,0.10481541682,1.99708702174661,1.1178232045810683,-1.0854855866398212, ,0.08008180722233821,0.06645444086727646,0.05257033504950496,-0.04053036770930505,0.16215501845217753,-0.138647286329049, ,1.0939128398895264
0.013767508023159255,0.02181561157315392,-0.09044351622962571, ,0.014531427378101081,0.021278675627471058,-0.09133544247919498, ,0.001291280537021985, ,0.017778782159197964,0.0010338195132936036,-0.04509947749262645,-0.048741128764129095,-0.048484756353253215,0.10991916291442869, ,0.04848831558177911, ,0.06874796473404719, ,0.0008348494699043991, ,0.23267821876751024,-0.19882175784691,0.10532096992000001,1.9958288820857029,1.1190529330789571,-1.0865700265132294, ,0.08472941210577749,0.07740370437069395,0.04698764460176992,-0.16254511668967267,0.07645005675905757,-0.059839244663268246, ,1.0955989360809326
0.013767508023159255,0.02181561157315392,-0.09044351622962571, ,0.014566917540609639,0.021279146323705027,-0.09142353869628297, ,0.0013737884027787935, ,0.017778782159197964,0.0010338195132936036,-0.04509947749262645,-0.048741128764129095,-0.048484756353253215,0.10991916291442869, ,0.04848831558177911, ,0.06874796473404719, ,0.000838466509722348, ,0.23267821876751024,-0.19882175784691,0.10532096992000001,1.9958288820857029,1.1190529330789571,-1.0865700265132294, ,0.08472941210577749,0.07740370437069395,0.04698764460176992,-0.16254511668967267,0.07645005675905757,-0.059839244663268246, ,1.0973060131072998
0.013767508023159255,0.02181561157315392,-0.09044351622962571, ,0.014602463286001902,0.021279533969552976,-0.09151159583691953, ,0.001457848941265211, ,0.017778782159197964,0.0010338195132936036,-0.04509947749262645,-0.048741128764129095,-0.048484756353253215,0.10991916291442869, ,0.04848831558177911, ,0.06874796473404719, ,0.0008425957259326337, ,0.23267821876751024,-0.19882175784691,0.10532096992000001,1.9958288820857029,1.1190529330789571,-1.0865700265132294, ,0.08472941210577749,0.07740370437069395,0.04698764460176992,-0.16254511668967267,0.07645005675905757,-0.059839244663268246, ,1.0989389419555664
0.013767508023159255,0.02181561157315392,-0.09044351622962571, ,0.014638064363149876,0.02127983919970866,-0.09159961262407058, ,0.0015432042154211053, ,0.017778782159197964,0.0010338195132936036,-0.04509947749262645,-0.048741128764129095,-0.048484756353253215,0.10991916291442869, ,0.04848831558177911, ,0.06874796473404719, ,0.0008472355172537495, ,0.23267821876751024,-0.19882175784691,0.10532096992000001,1.9958288820857029,1.1190529330789571,-1.0865700265132294, ,0.08472941210577749,0.07740370437069395,0.04698764460176992,-0.16254511668967267,0.07645005675905757,-0.059839244663268246, ,1.1006238460540771
0.013767508023159255,0.02181561157315392,-0.09044351622962571, ,0.014673720521546352,0.02128006264747887,-0.09168758778568273, ,0.0016296465201431922, ,0.017778782159197964,0.0010338195132936036,-0.04509947749262645,-0.048741128764129095,-0.048484756353253215,0.10991916291442869, ,0.04848831558177911, ,0.06874796473404719, ,0.0008523829580622327, ,0.23267821876751024,-0.19882175784691,0.10532096992000001,1.9958288820857029,1.1190529330789571,-1.0865700265132294, ,0.08472941210577749,0.07740370437069395,0.04698764460176992,-0.16254511668967267,0.07645005675905757,-0.059839244663268246, ,1.102323055267334
0.013767508023159255,0.02181561157315392,-0.09044351622962571, ,0.014709431511304641,0.021280204944784685,-0.09177552005467654, ,0.001717007368991679, ,0.017778782159197964,0.0010338195132936036,-0.04509947749262645,-0.048741128764129095,-0.048484756353253215,0.10991916291442869, ,0.04848831558177911, ,0.06874796473404719, ,0.000858034098002948, ,0.23267821876751024,-0.19882175784691,0.10532096992000001,1.9958288820857029,1.1190529330789571,-1.0865700265132294, ,0.08472941210577749,0.07740370437069395,0.04698764460176992,-0.16254511668967267,0.07645005675905757,-0.059839244663268246, ,1.1040070056915283
0.013945657199316777,0.02182543126183662,-0.09087545475395037, ,0.014745197083157417,0.021280266722162534,-0.09186340816894123, ,0.0013829390266248427, ,0.018462067945896974,0.0004362728121993772,-0.043071570266250754,-0.04158355174660811,-0.0519243253759397,0.006263642126850306, ,0.0468636154389112, ,0.06652201970524067, ,0.0008614425715654279, ,0.23353544211654917,-0.19802631636086487,0.10577078255000001,1.9949901223117648,1.119599479078019,-1.0869340193878747, ,0.09177653922482666,0.0866638735693797,0.0448698916056338,-0.06139404001812256,0.058044048351175666,-0.0598102655123179, ,1.10565185546875
0.013945657199316777,0.02182543126183662,-0.09087545475395037, ,0.014781016988456354,0.021280248608765387,-0.09195125087132688, ,0.0014671016967761621, ,0.018462067945896974,0.0004362728121993772,-0.043071570266250754,-0.04158355174660811,-0.0519243253759397,0.006263642126850306, ,0.0468636154389112, ,0.06652201970524067, ,0.000865350049792594, ,0.23353544211654917,-0.19802631636086487,0.10577078255000001,1.9949901223117648,1.119599479078019,-1.0869340193878747, ,0.09177653922482666,0.0866638735693797,0.0448698916056338,-0.06139404001812256,0.058044048351175666,-0.0598102655123179, ,1.1073548793792725
0.013945657199316777,0.02182543126183662,-0.09087545475395037, ,0.01481689097917121,0.021280151232364024,-0.09203904690963953, ,0.0015525222428301722, ,0.018462067945896974,0.0004362728121993772,-0.043071570266250754,-0.04158355174660811,-0.0519243253759397,0.006263642126850306, ,0.0468636154389112, ,0.06652201970524067, ,0.000869754999747963, ,0.23353544211654917,-0.19802631636086487,0.10577078255000001,1.9949901223117648,1.119599479078019,-1.0869340193878747, ,0.09177653922482666,0.0866638735693797,0.0448698916056338,-0.06139404001812256,0.058044048351175666,-0.0598102655123179, ,1.109009027481079
0.013945657199316777,0.02182543126183662,-0.09087545475395037, ,0.014852818807889145,0.021279975219347987,-0.09212679503663462, ,0.0016389987740761975, ,0.018462067945896974,0.0004362728121993772,-0.043071570266250754,-0.04158355174660811,-0.0519243253759397,0.006263642126850306, ,0.0468636154389112, ,0.06652201970524067, ,0.0008746546416226651, ,0.23353544211654917,-0.19802631636086487,0.10577078255000001,1.9949901223117648,1.119599479078019,-1.0869340193878747, ,0.09177653922482666,0.0866638735693797,0.0448698916056338,-0.06139404001812256,0.058044048351175666,-0.0598102655123179, ,1.1106369495391846
0.013945657199316777,0.02182543126183662,-0.09087545475395037, ,0.014888800227814195,0.021279721194726698,-0.0922144940100098, ,0.001726367393927669, ,0.018462067945896974,0.0004362728121993772,-0.043071570266250754,-0.04158355174660811,-0.0519243253759397,0.006263642126850306, ,0.0468636154389112, ,0.06652201970524067, ,0.0008800452286625703, ,0.23353544211654917,-0.19802631636086487,0.10577078255000001,1.9949901223117648,1.119599479078019,-1.0869340193878747, ,0.09177653922482666,0.0866638735693797,0.0448698916056338,-0.06139404001812256,0.058044048351175666,-0.0598102655123179, ,1.112267017364502
0.013945657199316777,0.02182543126183662,-0.09087545475395037, ,0.01492483499276645,0.021279389782130793,-0.09230214259239994, ,0.0018144940443892911, ,0.018462067945896974,0.0004362728121993772,-0.043071570266250754,-0.04158355174660811,-0.0519243253759397,0.006263642126850306, ,0.0468636154389112, ,0.06652201970524067, ,0.0008859222652394679, ,0.23353544211654917,-0.19802631636086487,0.10577078255000001,1.9949901223117648,1.119599479078019,-1.0869340193878747, ,0.09177653922482666,0.0866638735693797,0.0448698916056338,-0.06139404001812256,0.058044048351175666,-0.0598102655123179, ,1.113893985748291
0.01413075948676876,0.021825441198479373,-0.09132349101974278, ,0.01496092285718144,0.021278981603813103,-0.09238973955137018, ,0.0014576265781658046, ,0.01784819058115583,-0.00013818549983013836,-0.044373676252917486,0.05068168359941693,0.06531105852102254,-0.06400727900381623, ,0.047828863110598356, ,0.08266798278990031, ,0.0008894954171952575, ,0.23444672459570767,-0.19706869748446104,0.10624263211000001,1.9943610524813111,1.1211024805754388,-1.0882412950686757, ,0.08472941210577749,0.09823699954293041,0.046849445647058834,-0.03563539175610465,0.1754457830274261,-0.15280202274028107, ,1.1155779361724854
0.01413075948676876,0.021825441198479373,-0.09132349101974278, ,0.014997063576109188,0.021278497280649806,-0.0924772836594097, ,0.0015430061178777796, ,0.01784819058115583,-0.00013818549983013836,-0.044373676252917486,0.05068168359941693,0.06531105852102254,-0.06400727900381623, ,0.047828863110598356, ,0.08266798278990031, ,0.0008935544898703042, ,0.23444672459570767,-0.19706869748446104,0.10624263211000001,1.9943610524813111,1.1211024805754388,-1.0882412950686757, ,0.08472941210577749,0.09823699954293041,0.046849445647058834,-0.03563539175610465,0.1754457830274261,-0.15280202274028107, ,1.117218017578125
0.01413075948676876,0.021825441198479373,-0.09132349101974278, ,0.015033256905214006,0.021277937432141594,-0.0925647736939251, ,0.0016294307722881608, ,0.01784819058115583,-0.00013818549983013836,-0.044373676252917486,0.05068168359941693,0.06531105852102254,-0.06400727900381623, ,0.047828863110598356, ,0.08266798278990031, ,0.0008980969360580689, ,0.23444672459570767,-0.19706869748446104,0.10624263211000001,1.9943610524813111,1.1211024805754388,-1.0882412950686757, ,0.08472941210577749,0.09823699954293041,0.046849445647058834,-0.03563539175610465,0.1754457830274261,-0.15280202274028107, ,1.1189169883728027
