NicholasDascanio/dvrk_moveit_final/test/execution/third_experiment_notsharpbends/thirdexp_700vel5.0/thirdexp_700vel5.0_30.csv
Current Position (x),Current Position (y),Current Position (z), ,Planned Position (x),Planned Position (y),Planned Position (z), ,Position Error,,Cartesian linear Velocity(x),Cartesian linear Velocity(y),Cartesian linear Velocity(z),Cartesian Angular Velocity(x),Cartesian Angular Velocity(y),Cartesian Angular Velocity(z), ,Total Linear Velocity, ,Total Angular Velocity, ,MSE, ,Joint 1 Position,Joint 2 Position,Joint 3 Position,Joint 4 Position,Joint 5 Position,Joint 6 Position, ,Joint 1 Velocity,Joint 2 Velocity,Joint 3 Velocity,Joint 4 Velocity,Joint 5 Velocity,Joint 6 Velocity, ,Time Stamp
0.009880424699442825,0.020011571944407877,-0.07941260060339876, ,0.009940818385091466,0.01994408038702626,-0.07914045910959423, ,0.0002868161436080317, ,-3.240635807436961e-05,-4.263230513344791e-06,-5.106274341719875e-06,0.005876117779770613,0.018693046361561588,0.1660801435510757, ,3.308203765953786e-05, ,0.019594865205895835, ,2.3901345300669307e-05, ,0.0791193982964301,-0.14836914397960127,0.09508157521,3.5628418297455533,1.2875257372897455,-0.19749157442447157, ,-0.0003632157994251256,7.367730394690987e-05,0.0,-0.00046043152377629027,0.0,0.16675813377462112, ,0.018374919891357422
0.009882085841481642,0.020014277701092792,-0.07937928389240734, ,0.009967635822104911,0.019966575765931065,-0.07922222291617537, ,0.00018510111846705568, ,0.0003384078450255,0.0006752646738253949,0.00441876327316547,0.5596914963328351,-0.14064786745189573,0.8727751473937959, ,0.004482853010479748, ,0.5770930546174843, ,2.1450784639776698e-05, ,0.07911167556355587,-0.14836142124672705,0.09507509376,3.562632139802069,1.287799010289276,-0.19297704330371157, ,5.5451929724791344e-05,0.0,-0.0009547604096959787,0.0,0.0011001013463531409,0.8776641796036646, ,0.034889936447143555
0.009903712059743608,0.020030593349598756,-0.07924368075430657, ,0.009994554556203976,0.01998881636479916,-0.07930407603882567, ,0.00011681295310983282, ,0.00014413985750289234,0.0011597311737059132,0.006102389228611915,0.8140560622488348,-0.3329150954858671,0.40546616070731917, ,0.006213284718348659, ,0.8794997062506077, ,1.8397819224528757e-05, ,0.07913484376217855,-0.1483768667124755,0.09511138988000001,3.5645193492934295,1.3093875772522159,-0.17317220910336872, ,0.0010516643181089377,-0.00012499469058954734,0.00193521691095773,-0.03871165252153042,0.8832137344122738,0.3586413587201809, ,0.05520009994506836
0.009906674253881222,0.020042470154738902,-0.07921707207079895, ,0.010021574132094523,0.02001080348550238,-0.07938601716684252, ,0.00020675397319310776, ,0.00028293565323203287,0.0010605047708111177,-0.0004668661218629925,0.3657674183278962,-0.15576391803213868,0.13867956307023532, ,0.0011927644061282049, ,0.39755276690142277, ,1.894009972328638e-05, ,0.07914256649505277,-0.14839231217822396,0.09514379713000001,3.564309659349945,1.3158094927411914,-0.16958754664191966, ,0.0005578835837357658,-0.0007892934124653768,0.004153536250325946,-0.021700364352445527,0.3981478086596472,0.1130267735610353, ,0.07189106941223145
0.009916561073252058,0.02005299416744832,-0.07931164036104392, ,0.010048694095713647,0.020032538427107935,-0.0794680449933982, ,0.00020576681452456156, ,0.0006503521098905241,0.00044695631211710536,-0.008727210709427329,-0.41738949223971644,0.09477937084387092,-0.8991290562857868, ,0.008762815448160677, ,0.4280153236965493, ,1.9254826978895952e-05, ,0.07919662562517235,-0.14840003491109818,0.09522157453,3.564309659349945,1.3137599452447097,-0.17877955052516808, ,0.00425457112601438,-0.000882224890671171,0.0049330478538247135,0.0036146547009472717,-0.43295237470802794,-0.8942048375303586, ,0.0884408950805664
0.009936034947189592,0.02005444605640801,-0.07951258991795773, ,0.01007591399422814,0.020054022485880323,-0.07955015821553485, ,0.00014483681919749182, ,0.0012177890946664237,0.00020236569662532896,-0.008686416764597325,-0.36307117111339104,0.1929105721672393,0.12098649781289288, ,0.008773699240487822, ,0.4111388623057746, ,1.8485287453227115e-05, ,0.07928157568678881,-0.14841548037684663,0.0953162037,3.565358109067368,1.301735933265351,-0.18310519704420042, ,0.004406252453609447,-0.0008858394633987861,0.005103752489586671,0.07283033943213157,-0.4113153623512328,0.19851507973776222, ,0.10772991180419922
0.009946420868575875,0.02006206103329561,-0.07956574860946114, ,0.01010323337603322,0.020075256955283956,-0.07963235553416122, ,0.0001708823492060664, ,0.0007964312088067195,0.0010705673462112068,-0.0031273142778315472,0.18640365304409579,-0.10193281721079434,-0.06422720500459642, ,0.003400075249970814, ,0.21245380931490432, ,1.829125237925205e-05, ,0.07933563481690839,-0.14841548037684663,0.09537194417000001,3.5655677990108523,1.3018725697651168,-0.18239982754649126, ,0.006161700863588321,-0.0006997333189381544,0.00515495518446602,-0.019290225122098603,0.20784715388929587,-0.08615737240327659, ,0.12395095825195312
0.009958760469936512,0.02007738279915746,-0.07961836085829165, ,0.010130651790750941,0.020096243125986017,-0.07971463565404752, ,0.00019791708970486537, ,0.0010393340415038102,0.0007850213471863324,-0.004100895141677234,0.03983289887737842,-0.0054794236600217835,0.14389635586579602, ,0.004302768263385658, ,0.04020800810114366, ,1.8474234890378208e-05, ,0.07943603034427331,-0.14844637130834354,0.09544324012000001,3.565358109067368,1.3036488442620673,-0.1815612555706091, ,0.007295344325228987,-0.0014283408385179768,0.004594407706951255,0.011280790643616477,0.036031927757192245,0.15525839069761516, ,0.14256501197814941
0.009991698777479055,0.020094271611030952,-0.0797243451088884, ,0.010158168789228782,0.02011698228585834,-0.07979699728382211, ,0.0001830474749502657, ,0.0014089607442873073,0.0006002282549148348,-0.004184753941539144,0.015025188987742969,-0.0017614544374997647,-0.037269037510050264, ,0.0044561878201180155, ,0.015128087273988634, ,1.8455812347405203e-05, ,0.07962909866612893,-0.14848498497271465,0.09555860993000001,3.5664065587847906,1.304195390261129,-0.18078174608328623, ,0.0077317597230819055,-0.0016411397889993314,0.0044481461938006145,0.05523214370246403,0.009354417769774389,0.01702619806499008, ,0.15974998474121094
0.010001542454305377,0.020102533706604038,-0.07976803283854197, ,0.010185783923538244,0.02013747571998051,-0.07987943913596701, ,0.00021812204471314512, ,0.0012125387407184293,0.0007665600189984946,-0.004215399572320786,0.006571095519832813,0.0005012145017690424,-0.006694459435154516, ,0.004452803388292849, ,0.0065901829243582, ,1.8970859214598256e-05, ,0.07970632599487117,-0.1485004304384631,0.09560527637,3.5664065587847906,1.3043320267608947,-0.1805664490264205, ,0.0073592235959425035,-0.002982238235294467,0.004414859068736143,0.03525739205027066,0.0,0.02796408377018817, ,0.17552804946899414
0.0100310335663624,0.02011766908011359,-0.07986751010162592, ,0.010213496746973286,0.020157724710641887,-0.0799619599268136, ,0.00020932757891315565, ,0.001526563569311748,0.0009512788663048851,-0.00536874677379093,0.0055423227865920854,-0.005295383739791511,-0.026044315082283057, ,0.005662046426312545, ,0.007665404513926238, ,1.9321675996250723e-05, ,0.07989167158385255,-0.14853904410283422,0.09570768328000001,3.567245318558728,1.304195390261129,-0.1803733523825834, ,0.01044788229985752,-0.002907384612198198,0.00561466743743391,0.031651931119123476,0.0,0.004951499149179418, ,0.19058489799499512
0.010047739871237587,0.02012533424673836,-0.07991972267650585, ,0.01024130681404898,0.02017773053734438,-0.08004455837653877, ,0.00023621491193684066, ,0.001968246311870707,0.000759506240216686,-0.005956532449632292,0.00855931334509855,0.002696333083909543,-0.079240486270311, ,0.0063191076978196216, ,0.008973965095797136, ,1.9845372029616973e-05, ,0.07998434437834324,-0.1485622123014569,0.09576212746000001,3.567874388389182,1.304195390261129,-0.1803733523825834, ,0.01010565848663726,-0.0018062008163213631,0.006190754574426739,0.08417925488251304,0.0,0.0036187369033569726, ,0.20502901077270508
0.010076665821289495,0.020147531338593684,-0.08005096636736028, ,0.01026921368050003,0.0201974944768047,-0.08012723320915989, ,0.0002130437148205496, ,0.0012270935909369867,0.0010370723869741704,-0.005763323892034674,-0.0002598312135154079,-0.007909743616932446,0.005503676233501504, ,0.00598307446897, ,0.007914009728732163, ,2.0114398330820074e-05, ,0.0801928581659473,-0.14860082596582802,0.09589694162000001,3.5680840783326664,1.3040587537613637,-0.18034361321902764, ,0.009478965407658269,-0.0019478234887018511,0.005959151335578003,0.0,-0.0025870142760779447,0.0054049191195439, ,0.22314810752868652
0.010105573466570133,0.020159187785318666,-0.08013665464393036, ,0.010297216903279331,0.020217017802957093,-0.08020998315253232, ,0.00021318674430545996, ,0.0021703607351582326,0.0004494578498056734,-0.004550447459683852,0.008838762814631633,0.008025616118025295,-0.11175151224240833, ,0.0050615264656832274, ,0.011938770465008647, ,2.0349122121535982e-05, ,0.08036275828918024,-0.1486317168973249,0.09598508934000001,3.569132528050089,1.303922117261598,-0.17998715909490948, ,0.010755632047882895,-0.0020847986124628392,0.004754869110447762,0.11680765906787453,-0.0028620299155809863,0.003278030141851045, ,0.2388920783996582
0.01012410628459895,0.020168884895446576,-0.08019468050707775, ,0.0103253160405564,0.020236301786955596,-0.08029280693834315, ,0.00023379307018403986, ,0.0010736363590960227,0.0007679432222323561,-0.004034751571331558,-0.004458034951269184,-0.005360297351852022,0.01004581478881585, ,0.004245191640728137, ,0.006971862180059771, ,2.069604658105801e-05, ,0.08049404474804206,-0.14866260782882182,0.09604471868000002,3.5695519079370577,1.3037854807618328,-0.1797123837109319, ,0.00932578525160501,-0.0019557477918521323,0.004161131536050157,0.0,-0.007352431252909637,0.01002525367755986, ,0.2537219524383545
0.010148801886442045,0.020184813766913563,-0.08027982070082196, ,0.010353510651716167,0.020255347697176768,-0.08037570330210854, ,0.00023679988836127332, ,0.0014178958058219655,0.0008012387600596563,-0.005034804445836445,-0.00502342799477311,-0.0010495901829630097,0.015173446078246135, ,0.005291660219118749, ,0.005131906578997113, ,2.1022081865778984e-05, ,0.0806948358027719,-0.14870894422606715,0.0961328664,3.569761597880543,1.3036488442620673,-0.17902921462625154, ,0.010803688755113849,-0.001359189031329164,0.0051599648590864924,0.017996768714510458,-0.009639426601126204,0.033082709791781476, ,0.2691059112548828
0.010168256997299237,0.020191227077152436,-0.08033051729094827, ,0.010381800297357233,0.02027415679922186,-0.08045867098316913, ,0.0002624908543778412, ,0.0020370509974118687,0.0005866154536052636,-0.004839604861758521,0.005864985023553042,0.011943439401097138,-0.06608996022964171, ,0.005283509219677952, ,0.013305780375433557, ,2.1468985021790146e-05, ,0.08080295406301105,-0.14873211242468984,0.09618471800000002,3.5706003576544805,1.3035122077623018,-0.17867276050213338, ,0.010014597482536506,-0.0028153529975900767,0.005016948510236221,0.10483268830410526,-0.007038626316718171,0.037287639520100245, ,0.2839090824127197
0.010194549871774797,0.020211827549441473,-0.08044240060052714, ,0.01041018453929061,0.020292730355919688,-0.08054170872468554, ,0.00025081004257119854, ,0.0016143789505316877,0.001053496479361677,-0.006036115030562093,-0.0005781475160206744,0.0008560937385992473,-0.004036384442109692, ,0.006336462648049371, ,0.0010330261500514047, ,2.180187044014325e-05, ,0.08099602238486665,-0.14878617155480942,0.09630008781,3.5708100475979654,1.3033755712625366,-0.1782346276378749, ,0.010518374133827814,-0.0032440553240808295,0.006227056888193902,0.03469540138559866,-0.008206717637619662,0.03014843150714116, ,0.29918408393859863
0.010218012800939234,0.020226310248371564,-0.08052403797449444, ,0.01043866294053834,0.020311069627328718,-0.08062481527363474, ,0.00025695661199572604, ,0.001644043125865101,0.0011991700090016768,-0.006038425688187959,-0.0025288871481478734,-0.0008568194315418535,0.019649878861358386, ,0.006372085318164031, ,0.0026700939530523876, ,2.2135605484288505e-05, ,0.08114275430947693,-0.14884023068492896,0.09638434666000001,3.571439117428419,1.3032389347627709,-0.17779649477361598, ,0.012235525595719478,-0.004417428585164068,0.006246592752941177,0.021036744564982904,-0.01077141927753705,0.04035667651443141, ,0.31890201568603516
0.010250674618395626,0.020242189254874317,-0.08061366473780932, ,0.010467235065331683,0.02032917587073992,-0.0807079893808054, ,0.00025171856664384627, ,0.0016306447561287107,0.0007763782693718736,-0.004099140725489223,0.0016546176023550215,0.005491541283953851,-0.013491116861378582, ,0.004479366051709465, ,0.005735397451445202, ,2.25284145514966e-05, ,0.08135126809708099,-0.14890973528079698,0.09647897583000001,3.572487567145841,1.3032389347627709,-0.17755145855319415, ,0.010539420430749753,-0.004338555637769899,0.004278488186946012,0.055907727874209376,-0.00921989410758988,0.041578067072870206, ,0.3322110176086426
0.010266033253933295,0.020254348330783302,-0.0806647703798991, ,0.010495900479110067,0.020347050340678893,-0.08079122980079403, ,0.00027825274299139296, ,0.0016824859588809023,0.001002878456047602,-0.004916463336721401,0.004679798339285794,-0.004050621952182302,-0.004309056221565294, ,0.005292271340432342, ,0.006189349547679212, ,2.3023492463513873e-05, ,0.08149027728881703,-0.14896379441091656,0.09653212372000002,3.572487567145841,1.3031022982630056,-0.17719500442907615, ,0.012642811292095761,-0.004328662366717143,0.005181786441119064,0.031724769148090276,-0.0032730021769841106,0.026779434975765855, ,0.3452119827270508
0.010302344580002938,0.02027586558256368,-0.08078022655691887, ,0.010524658748519461,0.020364694288908684,-0.08087453529200023, ,0.0002573096696721018, ,0.0022401449056243263,0.0010918372664759702,-0.006753120088215404,0.0037986211525674893,0.009557342392673165,-0.04843491401532896, ,0.007198262897430099, ,0.0102845662147949, ,2.3378452317708003e-05, ,0.08172195927504376,-0.1490641899382815,0.09665008611,3.573536016863264,1.3026923887637092,-0.17612564205672188, ,0.011963810080493038,-0.004798214261531132,0.006989386362439668,0.09017474061858641,-0.010399094003046451,0.04037642671117249, ,0.36070704460144043
0.010322327150666222,0.02028558558393795,-0.08084220274448564, ,0.010553509441410808,0.020382108964432145,-0.08095790461662379, ,0.0002759509698337994, ,0.0023637734855975604,0.001057083301940869,-0.006891332046600282,0.005299666565983335,0.012921600707207537,-0.04961328625686911, ,0.007361746231360891, ,0.013966181117427437, ,2.3793981996643216e-05, ,0.08182235480240868,-0.1491028036026526,0.09671490061000002,3.5743747766372023,1.3026923887637092,-0.17588060583630016, ,0.011934387387967977,-0.004749528350773499,0.007130175255147718,0.10437957311495677,-0.010399094003046451,0.05326298954492717, ,0.37488389015197754
0.010357960473528497,0.02031385904785278,-0.0809711854811837, ,0.01058245212683877,0.020399295613494205,-0.08104133654065868, ,0.0002502340510403047, ,0.0016554966022353506,0.0013202453313962428,-0.005808781058753472,-0.0027236790084101976,-0.005421821756703717,0.05069575655626393, ,0.0061826898776842654, ,0.006067501288744517, ,2.4063721614062853e-05, ,0.08210809591875498,-0.14921092186289175,0.09685101106,3.5745844665806867,1.3026923887637092,-0.17539053339545685, ,0.014519115905518786,-0.0052540764172731595,0.006058886085964246,0.0,-0.010399094003046451,0.050641229703525484, ,0.3885319232940674
0.01037228808144463,0.020323451638624423,-0.08101904470974824, ,0.010611486375060217,0.02041625547958475,-0.08112482983389083, ,0.00027752273610545935, ,0.001805287797208979,0.001394837000578992,-0.006504848338442797,-0.0018843939076823462,-0.007318924205046113,0.01639235958705246, ,0.00689330734807885, ,0.007557617367416561, ,2.4433343193162665e-05, ,0.08221621417899413,-0.14924953552726286,0.09690027008,3.5747941565241708,1.302555752263944,-0.17511575801147944, ,0.014788365522591676,-0.005220049888323004,0.006778217668085108,0.00850593748404776,-0.009350586062985092,0.02458276478486997, ,0.4021930694580078
0.010404823626023393,0.020338481721514697,-0.08110325105120626, ,0.010640611757532666,0.020432989803440816,-0.08120838326989234, ,0.0002749192679967071, ,0.002564645606503266,0.000977078198783988,-0.0059318787075487095,0.007693259249419858,0.006892396698371625,-0.10846168291468654, ,0.006535998308947548, ,0.010329151116235249, ,2.476717732110975e-05, ,0.08240928250084974,-0.14933448558887935,0.09698712151000001,3.5760522961850785,1.302282479264413,-0.1745662072435244, ,0.014195503598873716,-0.005861857893599482,0.00622462349355217,0.11517388575723146,-0.008429869214257988,0.004687617270250379, ,0.4152710437774658
0.01044149876481873,0.020364641253420093,-0.08122015848858288, ,0.01066982784691295,0.020449499823049114,-0.08129199562601823, ,0.00025396007734361937, ,0.0018357582212626493,0.0012472767754118995,-0.005913488007236892,-0.012538318591132828,0.0026404476077382657,0.02717031078468411, ,0.006316252687563241, ,0.012813328585134343, ,2.4994098698242845e-05, ,0.08270274635007027,-0.14945804931486695,0.09710767648000002,3.5764716760720474,1.3018725697651168,-0.17398691731201338, ,0.01464911107725699,-0.005399608037584388,0.0060565823269962,0.020886090504240284,-0.023160296179317013,0.04783060628208834, ,0.4286360740661621
0.010449330562600502,0.020370590678180978,-0.08124578868077174, ,0.010699134217055675,0.02046578677364874,-0.08137566568340171, ,0.0003174727234772761, ,0.0018442069275170848,0.0013636694222917654,-0.006187969299673083,-0.009569775661481532,0.002424769315121784,0.044121891793866615, ,0.006599367965077576, ,0.00987218837795616, ,2.5456775603326835e-05, ,0.08277225094593829,-0.1494812175134896,0.09713489857,3.5764716760720474,1.3018725697651168,-0.1738235598317323, ,0.014737838415665597,-0.006081740301559071,0.006371524608000002,0.017777623300969807,-0.02081499273884234,0.06170229001897501, ,0.4431130886077881
0.010490638378350837,0.020387478403521703,-0.08134191936063062, ,0.010728530443011844,0.02048185188773322,-0.08145939222695084, ,0.00028160053848028403, ,0.0030066080480104836,0.0007837584946988213,-0.005983016743657742,0.019343753809365767,0.013452952429215672,-0.14096281742093872, ,0.0067416955350462745, ,0.02356189153768268, ,2.5852956098564366e-05, ,0.0829962101992908,-0.14958933577372877,0.09723600919000001,3.5783588855634085,1.301735933265351,-0.17354878444775462, ,0.014218900443283004,-0.00555333705421841,0.006348669398166602,0.16807664186376214,-0.0007713406770787882,0.024333620570636993, ,0.45543694496154785
0.01051281634244234,0.020399260782426158,-0.08140308127052368, ,0.010758016101027293,0.020497696395053486,-0.08154317404534317, ,0.0002990626640021493, ,0.0022121821157195373,0.0012352643349878081,-0.005812717634967665,0.010406100662506601,-0.0038643140873829904,-0.0228765548676225, ,0.00634092374928656, ,0.011100443582502615, ,2.6293597782565107e-05, ,0.08314294212390107,-0.14964339490384831,0.09730082369000001,3.5789879553938615,1.301735933265351,-0.17322206948719232, ,0.015664731191560047,-0.006303474043198117,0.006188349463869465,0.055228079783870274,-0.0014855239935855596,0.031193805663112566, ,0.46696901321411133
0.010544609512308319,0.020423707990901728,-0.08150884252516914, ,0.010787590768541439,0.02051332152261998,-0.08162700993102258, ,0.000284664735704607, ,0.0019442595707072417,0.0014632321512814811,-0.006632681850561877,-0.016652826663654075,0.00167145293547169,0.07837161799628939, ,0.007064960165323189, ,0.016736498378356463, ,2.6659450696116566e-05, ,0.08342868324024738,-0.14975151316408747,0.09740841576,3.5789879553938615,1.3011893872662894,-0.17220464669142277, ,0.017207061026014648,-0.00578068357504134,0.006783991277683136,0.0,-0.027283199522975633,0.07862073216253104, ,0.47908496856689453
0.010573367930112479,0.020441030526484685,-0.0815918730147035, ,0.01081725402418545,0.02052872849470536,-0.08171089868019438, ,0.00028519899992417896, ,0.0020011496423467455,0.0013077495696419755,-0.0067699412104884945,-0.016931327902187033,-0.0012472519310358417,0.005104729742738678, ,0.007179617874332429, ,0.016977204943394976, ,2.7009035253036294e-05, ,0.08365264249359988,-0.1498210177599555,0.09749656348,3.579407335280831,1.3011893872662894,-0.17179625299072004, ,0.01619678128664803,-0.004339966990671773,0.0069015647833622195,0.015541014569898334,-0.025503511395130275,0.020478158714205698, ,0.49092602729797363
0.010602910735896743,0.020452972625011792,-0.0816666318189773, ,0.010847005447781246,0.020543918532846903,-0.08179483909282181, ,0.0002903282480031381, ,0.003023837194070131,0.0011535207828767097,-0.007451286254653992,0.009737695640985042,0.011372028493938865,-0.09886831259217094, ,0.008123784119581584, ,0.014971497102616962, ,2.7359433181174297e-05, ,0.0838148198839586,-0.1498827996229493,0.09757434088000001,3.580665474941738,1.301052750766524,-0.17143979886660188, ,0.016084227382791656,-0.006055131940721603,0.007789149887530563,0.13552156906273932,-0.009424920095742204,0.034444511062656974, ,0.5024778842926025
0.010626395512967705,0.020465071854172127,-0.08173797865684997, ,0.010876844620339754,0.020558892855848967,-0.08187882997262132, ,0.000302268471550743, ,0.002271066656795689,0.0014477537367304934,-0.00771437650014078,-0.004130233449250573,-0.0007916782950258879,0.0068282352877269475, ,0.008171006022990717, ,0.0042054197824530695, ,2.7733596827399036e-05, ,0.0839692745414431,-0.14992913602019464,0.09764693312000002,3.581294544772191,1.300779477766993,-0.17105360557892796, ,0.016336192383968114,-0.004881342857886634,0.007976370315473212,0.03603703169503667,-0.014620229341852127,0.04231890247676798, ,0.5139880180358887
0.010640567111979794,0.020476731134414713,-0.08179590856946461, ,0.010906771124059442,0.0205736526797855,-0.08196287012705854, ,0.0003288381421285432, ,0.00222654112106212,0.0014798696603639532,-0.007983726908671523,-0.026229107878023232,0.01126976755505779,0.059882031338940996, ,0.008419465240007352, ,0.02854774471628071, ,2.8178161066134185e-05, ,0.08408511553455646,-0.14996774968456575,0.09770526617000001,3.581294544772191,1.3005062047674623,-0.17058573355111345, ,0.016936809130549846,-0.004904909607453081,0.00802863483870968,0.024348305843218714,-0.03934459864261443,0.08437637410353366, ,0.5280399322509766
0.010675572821280493,0.020497206272923466,-0.08191068235128543, ,0.010936784542324891,0.020588199218002583,-0.08204695836734426, ,0.0003083543932199008, ,0.0022892592514201352,0.0014608928903891334,-0.008317968907858417,-0.018197612472243024,0.0012200188559407694,-0.0029965116696831387, ,0.008750058440347788, ,0.018238462267421072, ,2.853657160083406e-05, ,0.08433224298653165,-0.15002953154755955,0.09782452485000001,3.581923614602645,1.3003695682676968,-0.16998424320657357, ,0.016858579065281716,-0.003909792669027472,0.008454783184713377,0.027480687830637673,-0.02769508883601727,0.02422214671483097, ,0.541438102722168
0.010732412848939134,0.020520162980300356,-0.08204623088354339, ,0.010966884459705686,0.020602533681120715,-0.08213109350843001, ,0.0002626090891643805, ,0.0020892909455631596,0.001015344013637554,-0.005509595175450788,-0.0064738399619358525,-0.004886299145523018,0.019470178347237875, ,0.00597927245729716, ,0.008110888860994118, ,2.8734846326255333e-05, ,0.08471837963024287,-0.15012220434205023,0.09796841304000001,3.5836011341505216,1.3003695682676968,-0.16965752824601127, ,0.017691450700684334,-0.003018800133125006,0.005723611757096659,0.02113224300472898,-0.013762193576063248,0.040409507212322816, ,0.5527300834655762
0.010751965678049985,0.020531594922944617,-0.08210618919798668, ,0.010997070461954271,0.020616657277037598,-0.0822152743690041, ,0.0002814454364748269, ,0.002096991818412729,0.001121506584863271,-0.006056777686327345,-0.0032797844092608227,-0.006778004953702565,0.032895776545465515, ,0.006506896929257019, ,0.007529829265839834, ,2.8982690499684467e-05, ,0.08489600248635004,-0.15015309527354714,0.09802933867000001,3.5836011341505216,1.300096295268166,-0.16894461999777516, ,0.017727805260315855,-0.0029191984114542826,0.006313440951248514,0.015086500920342865,-0.009817475944197705,0.04787542627342976, ,0.5644741058349609
0.01075798469718662,0.02053502465727228,-0.08212584325816137, ,0.011027342136005048,0.02063057121093035,-0.08229949977148715, ,0.00033442362115021794, ,0.002175902225601399,0.0011868130817267843,-0.006335333026087646,-0.0046285433463554865,-0.008423803841763791,0.022035647852645585, ,0.006802905286550137, ,0.009611653055942122, ,2.9469137403175713e-05, ,0.0849500616164696,-0.15016081800642136,0.09804878302000002,3.5836011341505216,1.2999596587684004,-0.16875152335393806, ,0.01852732166311417,-0.0031445505315501523,0.006598513471416737,0.013749901456527117,-0.011024269857360302,0.035634838987981136, ,0.580082893371582
0.010799531404081294,0.020549581328822474,-0.08222366733044453, ,0.011057699069972754,0.02064427668525813,-0.0823837685420283, ,0.00031819829068194065, ,0.003103595066127492,0.0008683050107771478,-0.007536243986686603,-0.014836583606810253,0.02618193132181408,-0.03794402309159875, ,0.008196415640577385, ,0.030093482958152774, ,2.9889921528958114e-05, ,0.08521263453419324,-0.15022259986941516,0.09814989364000001,3.585068963754913,1.2996863857688694,-0.16771190014513954, ,0.01738039222682615,-0.003066161459462737,0.007595999771101576,0.1323080241607527,-0.03517399813842545,0.09305545314923079, ,0.589993953704834
0.010836512041681028,0.020565065041754392,-0.0823301646879065, ,0.01108814085315096,0.020657774899764544,-0.08246807951050095, ,0.00030155045154217354, ,0.0021136411387221417,0.0012215483844792555,-0.007347273804968776,-0.01649770024897345,-0.002606924502205874,0.06435326092747516, ,0.007742227824347645, ,0.016702399452008902, ,3.024726340722836e-05, ,0.08546748471904266,-0.15024576806803783,0.09826137458,3.5859077235288512,1.2996863857688694,-0.16722182770429628, ,0.018103193734923844,-0.0014476465132346288,0.007485343759398498,0.0,-0.021990206306382667,0.06483720188109038, ,0.5997629165649414
0.010836512041681028,0.020565065041754392,-0.0823301646879065, ,0.011118667076010598,0.02067106705148025,-0.08255243151049815, ,0.00037450024017138836, ,0.0021136411387221417,0.0012215483844792555,-0.007347273804968776,-0.01649770024897345,-0.002606924502205874,0.06435326092747516, ,0.007742227824347645, ,0.016702399452008902, ,3.0801908981159445e-05, ,0.08546748471904266,-0.15024576806803783,0.09826137458,3.5859077235288512,1.2996863857688694,-0.16722182770429628, ,0.018103193734923844,-0.0014476465132346288,0.007485343759398498,0.0,-0.021990206306382667,0.06483720188109038, ,0.6094129085540771
0.010875973299459253,0.02058753127160119,-0.08245870350816022, ,0.011149277330198621,0.02068415433472528,-0.08263682337932877, ,0.0003402319768201852, ,0.0026978143375853293,0.0010706931779037206,-0.008066073655298607,-0.005987961757753112,0.0020946000546262934,-0.04007699963922673, ,0.008572405163896114, ,0.006343737168060152, ,3.1240950006394554e-05, ,0.08574550310251473,-0.15029210446528318,0.09838841100000001,3.5861174134723357,1.2996863857688694,-0.16665007652331232, ,0.017222675418960214,-0.0013379128435578099,0.008143564171779142,0.03196434489894031,-0.015753187157508997,0.03012907954367465, ,0.6216480731964111
0.010928578712780652,0.020606321797738757,-0.08260448982830575, ,0.011179971208536421,0.020697037941111586,-0.08272125395801337, ,0.00029165299171641146, ,0.0027033117624046593,0.0013475643457215147,-0.008596027959872871,-0.0357459163120815,0.019495050518571696,0.022343013888581086, ,0.009111285355949038, ,0.04071642765245782, ,3.153041470550023e-05, ,0.08607758061610639,-0.15034616359540276,0.09854266951000001,3.588214312907181,1.2990032032700423,-0.16568459330412744, ,0.018724731957077894,-0.0039133618463499656,0.008545499742489271,0.05696695702140122,-0.05187791226154069,0.07919731573292, ,0.6319680213928223
0.010928578712780652,0.020606321797738757,-0.08260448982830575, ,0.011210748305018422,0.020709719059545585,-0.08280572209128013, ,0.0003616698718369726, ,0.00256141767685114,0.0012700793435966016,-0.008066067122392275,-0.02164211320421828,0.0010552461929984932,0.023246096938887836, ,0.00855776845195369, ,0.0216678234792618, ,3.200169170988267e-05, ,0.08632470806808157,-0.15037705452689965,0.09865155787,3.588214312907181,1.298866566770277,-0.1654098179201498, ,0.020251161237403066,-0.0019846061720841146,0.008181207765793529,0.02534552806180784,-0.03014699138524653,0.04868565279393763, ,0.6415839195251465
0.010987400520835248,0.020635530323224086,-0.08278356799825957, ,0.011241608214810623,0.02072219887623058,-0.08289022662756006, ,0.0002889793296427528, ,0.002572000502938745,0.001189889278953213,-0.007458461923356094,-0.009766188896969348,0.002383223565235189,0.028778630353264653, ,0.007978701482411636, ,0.01005276962098592, ,3.226236154693497e-05, ,0.08651777638993718,-0.15040022272552234,0.09872933527000001,3.589053072681119,1.298866566770277,-0.16508310295958756, ,0.019244968882269477,-0.0026072452474894194,0.007661766002886004,0.0422122326146296,-0.020046164116210533,0.0707531639975138, ,0.6516189575195312
0.011003858341279538,0.020639328943907426,-0.08282049790967734, ,0.01127255053424915,0.020734478574669184,-0.08297476641898345, ,0.00032411065974516693, ,0.003688214955794295,0.0006392349236437277,-0.007355414750182622,0.017807590771006306,0.009742337913903037,-0.1467659884871885, ,0.008253101053237783, ,0.02029835992307526, ,3.260769617779094e-05, ,0.0866181719173021,-0.15040794545839656,0.09876692768,3.589682142511572,1.2987299302705115,-0.16472664883546956, ,0.01957849010903049,-0.0017511503331449107,0.007743710024307245,0.17772104311198017,0.0,0.028279610512509237, ,0.6693210601806641
0.011047043343753638,0.020653317966548304,-0.08293265814540056, ,0.01130357486083867,0.020746559335666017,-0.08305934032137562, ,0.00030091650982069573, ,0.002943577629934006,0.0015230371153131302,-0.009758825604654709,-0.026615792426494762,0.019911780519641462,0.06081314551536093, ,0.010306258705278728, ,0.03323972505066126, ,3.288183766933769e-05, ,0.08686529936927728,-0.15045428185564189,0.09887970491,3.591359662059449,1.2981833842714496,-0.16362754729955936, ,0.01972089392320673,-0.003840416757500538,0.00981442484288355,0.061342521309332904,-0.043719850327525574,0.12209337569241815, ,0.680030107498169
0.011075445383747455,0.020668726165774053,-0.0830253997487159, ,0.011334680793251232,0.020758442337329822,-0.08314394719425214, ,0.0002988402346110435, ,0.0020556430838252256,0.0010897669525177344,-0.006725296853451683,-0.03511658447866597,0.003046096732560826,0.03232239467483563, ,0.007116380980942868, ,0.0352484495686454, ,3.322741876513295e-05, ,0.0870892586226298,-0.15047745005426458,0.09897563037000001,3.5915693520029333,1.2980467477716844,-0.16294437821487895, ,0.018013846157644415,-0.001490593736258039,0.006678746968553461,0.0,-0.041666847112530166,0.03291563998969369, ,0.6884119510650635
0.011096099874290749,0.020682013930959062,-0.08308767753348131, ,0.011365867931324365,0.0207701287550764,-0.08322858590081558, ,0.00031685042971365965, ,0.002212026706411888,0.001218096192738014,-0.006406036444195592,-0.01879914103988102,-0.0011037892309647777,0.050932258896734445, ,0.006885791414863246, ,0.018831517297222267, ,3.360993992220908e-05, ,0.08729004967735964,-0.15050834098576146,0.09904174116000002,3.591359662059449,1.2980467477716844,-0.16245430577403563, ,0.019350926092673488,-0.0034161225751153193,0.006544293968775678,0.006801143081220029,-0.02720043530945683,0.057994097050288074, ,0.6969039440155029
0.011127737856490464,0.020689850699373652,-0.08315386160145177, ,0.011397135876060135,0.020781619761630617,-0.08331325530795074, ,0.00032619504503756893, ,0.0033268065756492126,0.0005929089039984248,-0.006860641222183344,-0.005389096488767413,0.01069631277410223,-0.09809681889623169, ,0.007647717367930435, ,0.011977205547512715, ,3.4006294171398354e-05, ,0.0874985634649637,-0.1505237864515099,0.09911174082000002,3.5924081117768716,1.2980467477716844,-0.1623726270338951, ,0.02039040428845526,-0.0005529808729752087,0.00703880314626602,0.13020849043467908,-0.02008333332426251,0.030524274146065088, ,0.7056760787963867
0.01114309471722193,0.02069278719866649,-0.08318323706279535, ,0.011428484229623165,0.02079291652702932,-0.08339795428622006, ,0.0003709131195067438, ,0.003721010176837845,0.0005762768999463819,-0.0070956193063920255,0.00037925141342751503,0.014073341115976388,-0.13659249880773325, ,0.008032796844361612, ,0.014078449623964867, ,3.450352597498685e-05, ,0.08759123625945439,-0.15053150918438415,0.09914285178000001,3.5930371816073245,1.2980467477716844,-0.16229094829375446, ,0.02136837233921882,-0.0014607213873923997,0.007330332038656236,0.16661412868930986,-0.01810941257431936,0.027762531546671097, ,0.7161600589752197
0.011194554887174208,0.02071041121843875,-0.08331747253600143, ,0.011459912595339582,0.020804020218623553,-0.08348268170986077, ,0.00032629960056007547, ,0.002764761408446604,0.0015793325774007027,-0.00972554736936317,-0.0038605420304749427,-0.007631966141255738,0.019423463205430244, ,0.010233497382097757, ,0.00855281269174752, ,3.487952101333683e-05, ,0.08793103650592027,-0.15057012284875526,0.09927896223,3.5945050112117167,1.2975002017726225,-0.16135520423812533, ,0.020355414319706302,-0.0021108861614930457,0.01005606787878788,0.025633303507003085,-0.010619041883831747,0.044854150134368664, ,0.7243509292602539
0.011224672209494906,0.020726940484772215,-0.08342683403955534, ,0.011491420577695404,0.020814932001081,-0.08356743645677928, ,0.00031411182500689613, ,0.003074141858991202,0.0016859843794173642,-0.01151591101807166,-0.04236784670398667,0.018353501540279142,0.08457176104535252, ,0.012037819489965178, ,0.04617234291857567, ,3.521699497454507e-05, ,0.08813955029352433,-0.15059329104737793,0.09938914688000001,3.5949243910986857,1.2970902922733263,-0.16053087808619287, ,0.022038305053058704,-0.0016338310064137487,0.011467826868250543,0.03244691977295203,-0.05598686776893156,0.11774752542647621, ,0.7325270175933838
0.011224672209494906,0.020726940484772215,-0.08342683403955534, ,0.01152300778233492,0.020825653036388666,-0.08365221740854809, ,0.000386711707718983, ,0.003074141858991202,0.0016859843794173642,-0.01151591101807166,-0.04236784670398667,0.018353501540279142,0.08457176104535252, ,0.012037819489965178, ,0.04617234291857567, ,3.571968407441681e-05, ,0.08813955029352433,-0.15059329104737793,0.09938914688000001,3.5949243910986857,1.2970902922733263,-0.16053087808619287, ,0.022038305053058704,-0.0016338310064137487,0.011467826868250543,0.03244691977295203,-0.05598686776893156,0.11774752542647621, ,0.7404670715332031
0.011262840253165885,0.02074234133835571,-0.08354102424421804, ,0.011554673816059478,0.020836184483855352,-0.08373702345040063, ,0.0003638530654160277, ,0.004022362701591028,0.0014131359208207658,-0.011700448665657061,-0.0033138413647069223,0.015591601486611224,-0.12385146270406565, ,0.012452985738831501, ,0.015939867070364662, ,3.615660540706762e-05, ,0.08835578681400262,-0.15062418197887484,0.09950710927,3.5961825307595925,1.2969536557735608,-0.16001106648179358, ,0.020934688188500063,-0.002754339331242708,0.011985561715575624,0.15704690853690317,-0.02300694939119878,0.03104014746111427, ,0.7490129470825195
0.011299606428540936,0.020756245314081875,-0.08365590661065608, ,0.011586418286826036,0.020846527500113798,-0.08382185347122795, ,0.0003434388966050774, ,0.0035733205031729274,0.0015358339193743843,-0.011297461874333494,-0.0021439192448908144,0.004007797348426647,-0.009921192191081504, ,0.011948223719378365, ,0.004545178244906942, ,3.653575661818589e-05, ,0.0885720233344809,-0.15062418197887484,0.09962636795000002,3.5972309804770153,1.2969536557735608,-0.15952099404095016, ,0.022551554552868527,-0.0015376305602433883,0.0116353626880935,0.08573242967778955,-0.015001215460617051,0.07495712942908275, ,0.76055908203125
0.011331908625124364,0.020770981961721748,-0.08375898094097455, ,0.011618240803745395,0.0208566832391237,-0.08390670636357382, ,0.0003333970994839749, ,0.003351021517977248,0.0014729128150730748,-0.010353773709006664,0.006925451272252546,-0.010941787378753159,-0.007171914456894153, ,0.010981777970441337, ,0.012949303741162184, ,3.696821406162985e-05, ,0.08878825985495918,-0.15063962744462328,0.09973266373,3.597860050307469,1.2968170192737953,-0.15891950369641028, ,0.023582738955882403,-0.0006995961160826603,0.010806520705563096,0.05448785004704142,0.0,0.04666127571685435, ,0.7677550315856934
0.01136776686276083,0.020787489310353097,-0.08386635335594592, ,0.01165014097708104,0.020866652852173685,-0.08399158102363144, ,0.00031887924916127554, ,0.003156617866591379,0.0014707457150039585,-0.009040020571069118,-0.00019467280692098392,-0.008021173396030312,0.010817309617303223, ,0.009687584902298365, ,0.008023531627490234, ,3.735953303855149e-05, ,0.0890431100398086,-0.1506705183761202,0.09984284838000002,3.598489120137922,1.2965437462742644,-0.1579615592277525, ,0.023759875202421326,-0.002711558588499844,0.009430912682060394,0.043446456253859185,-0.009323473126219877,0.053762778344844914, ,0.7744290828704834
0.01136776686276083,0.020787489310353097,-0.08386635335594592, ,0.011682118418247548,0.02087643748788409,-0.08407647635123817, ,0.0003884332013018385, ,0.003156617866591379,0.0014707457150039585,-0.009040020571069118,-0.00019467280692098392,-0.008021173396030312,0.010817309617303223, ,0.009687584902298365, ,0.008023531627490234, ,3.7901471970859044e-05, ,0.0890431100398086,-0.1506705183761202,0.09984284838000002,3.598489120137922,1.2965437462742644,-0.1579615592277525, ,0.023759875202421326,-0.002711558588499844,0.009430912682060394,0.043446456253859185,-0.009323473126219877,0.053762778344844914, ,0.7811379432678223
0.011404904888533962,0.02079725061564512,-0.08395779503808685, ,0.011714172739809209,0.020886038292209256,-0.08416139124987218, ,0.00038076406447484074, ,0.004130753026611629,0.0009959378174273694,-0.009624065366603027,-0.00927077264860615,0.021834897974269785,-0.06279972966492914, ,0.010520344427997165, ,0.02372150738221575, ,3.8416434165446466e-05, ,0.08929023749178377,-0.1506705183761202,0.09993618126,3.599537569855345,1.2962704732747337,-0.15708529349923517, ,0.024251710083943466,-0.001781893669339216,0.009826533942011105,0.15746449066575272,-0.03095210631230756,0.09300598747436409, ,0.7877519130706787
0.011442712645205674,0.020805318469795542,-0.08404701408153716, ,0.011746303555478394,0.02089545640844036,-0.0842463246266479, ,0.00037418843137608727, ,0.003992429259554875,0.001138140227994286,-0.010231339815956982,-0.0024200690466927993,0.010812149900659311,-0.0831769710385859, ,0.011041520230507909, ,0.011079675426220351, ,3.890757602449837e-05, ,0.08950647401226207,-0.1506705183761202,0.10002821785,3.601005399459737,1.296133836774968,-0.15640212441455464, ,0.02358860093424578,-0.0012427903772929195,0.010527965313945805,0.1381378991857839,-0.019520236446059196,0.05327984738619751, ,0.7960720062255859
0.011487668908539188,0.02082042778242343,-0.08416955544501623, ,0.011778510480114369,0.020904692977207394,-0.08433127539231196, ,0.0003432823679737063, ,0.0038368733934573064,0.0013733935375495653,-0.0110591833942268,-0.008803064259609647,0.0052305766468556504,-0.01208600157726491, ,0.01178615054178188, ,0.01023976108056511, ,3.932181899111142e-05, ,0.08979221512860837,-0.15068596384186864,0.10015395798000001,3.602263539120644,1.295860563775437,-0.1553625012057563, ,0.025305851082258874,-0.0004225213747051401,0.011345307350427351,0.09002088262864247,-0.021873395093205916,0.07721645034290664, ,0.8049049377441406
0.011487668908539188,0.02082042778242343,-0.08416955544501623, ,0.011810793129721464,0.020913749136482022,-0.08441624246123894, ,0.00041710025342937276, ,0.0038368733934573064,0.0013733935375495653,-0.0110591833942268,-0.008803064259609647,0.0052305766468556504,-0.01208600157726491, ,0.01178615054178188, ,0.01023976108056511, ,3.98903375413629e-05, ,0.08979221512860837,-0.15068596384186864,0.10015395798000001,3.602263539120644,1.295860563775437,-0.1553625012057563, ,0.025305851082258874,-0.0004225213747051401,0.011345307350427351,0.09002088262864247,-0.021873395093205916,0.07721645034290664, ,0.811621904373169
0.011526319032792377,0.020837539963725425,-0.08429661291938177, ,0.011843151121447983,0.02092262602157992,-0.08450122475142732, ,0.00038663705390990367, ,0.0036901311809178156,0.0017250844298935097,-0.012548222687083945,-0.010181004487750162,-0.00037673089436438944,0.019084031750738997, ,0.013192834306065212, ,0.010187956980593495, ,4.0382909566838935e-05, ,0.090054788046332,-0.15068596384186864,0.10028488327000001,3.6028926089510973,1.2957239272756718,-0.15443429590065433, ,0.024979452897728554,-0.000353330071456284,0.012866568271405495,0.05682002349237039,-0.02001742797465535,0.07566801276709706, ,0.8181450366973877
0.0115696765935576,0.020854197723624422,-0.08443117369406097, ,0.011875584073584466,0.0209313247651632,-0.08458622118449508, ,0.00035152196398351143, ,0.0043049355400574755,0.0015714290912141556,-0.012563692859098665,0.008194402763134049,-0.0020663179057593033,-0.052746836905145596, ,0.013373415332312493, ,0.008450893047583388, ,4.0791490912465074e-05, ,0.09032508369692986,-0.15068596384186864,0.1004235863,3.6039410586685197,1.2955872907759065,-0.15375112681597397, ,0.026731532833372047,-0.0005992566960614651,0.013056402885245903,0.11274319156395418,-0.004800887428407199,0.05857757446093211, ,0.824613094329834
0.0115696765935576,0.020854197723624422,-0.08443117369406097, ,0.0119080916055625,0.02093984649724308,-0.08467123068567553, ,0.00042365999574622175, ,0.0043049355400574755,0.0015714290912141556,-0.012563692859098665,0.008194402763134049,-0.0020663179057593033,-0.052746836905145596, ,0.013373415332312493, ,0.008450893047583388, ,4.134691528793706e-05, ,0.09032508369692986,-0.15068596384186864,0.1004235863,3.6039410586685197,1.2955872907759065,-0.15375112681597397, ,0.026731532833372047,-0.0005992566960614651,0.013056402885245903,0.11274319156395418,-0.004800887428407199,0.05857757446093211, ,0.8311409950256348
0.011619154262410631,0.020867977663882386,-0.08456665966232309, ,0.011940673337952814,0.02094819234518212,-0.08475625218381337, ,0.00038177773015009867, ,0.004786918050257128,0.0013021646820300476,-0.012471789913411418,-0.005447212611469486,0.01740930544775669,-0.07686300149940793, ,0.013422211476626148, ,0.018241593671063053, ,4.189296822074699e-05, ,0.09057221114890505,-0.15068596384186864,0.10054284498,3.605408888272912,1.2953140177763756,-0.15287486108745663, ,0.027300616098524386,-0.0005992566960614651,0.012732862925659475,0.17407670221333238,-0.02196585788517264,0.08418985957099484, ,0.8365600109100342
0.011619154262410631,0.020867977663882386,-0.08456665966232309, ,0.011973328892464434,0.02095636343369695,-0.08484128461136063, ,0.00045680474550220554, ,0.004786918050257128,0.0013021646820300476,-0.012471789913411418,-0.005447212611469486,0.01740930544775669,-0.07686300149940793, ,0.013422211476626148, ,0.018241593671063053, ,4.259007525409429e-05, ,0.09057221114890505,-0.15068596384186864,0.10054284498,3.605408888272912,1.2953140177763756,-0.15287486108745663, ,0.027300616098524386,-0.0005992566960614651,0.012732862925659475,0.17407670221333238,-0.02196585788517264,0.08418985957099484, ,0.841792106628418
0.011647651794055094,0.020876161859469645,-0.08464354423160572, ,0.012006057891942564,0.020964360884860592,-0.08492632690437177, ,0.0004649731595474561, ,0.004683861449391303,0.001449703500997779,-0.013133614118904985,-0.04072383264485216,0.03365691725877485,0.019161897033326575, ,0.014018987771668809, ,0.05283198116557718, ,4.329552072226411e-05, ,0.09078844766938333,-0.15068596384186864,0.10063877044000001,3.6064573379903346,1.2949041082770791,-0.1518054987151023, ,0.029416286905911585,-0.0005844190873381235,0.013120932059308074,0.1322373568032463,-0.06470994688021622,0.15099646706195688, ,0.8472681045532227
0.011647651794055094,0.020876161859469645,-0.08464354423160572, ,0.012038859960367708,0.02097218581810486,-0.08501137800250026, ,0.0005454962080822855, ,0.004683861449391303,0.001449703500997779,-0.013133614118904985,-0.04072383264485216,0.03365691725877485,0.019161897033326575, ,0.014018987771668809, ,0.05283198116557718, ,4.415957404017574e-05, ,0.09078844766938333,-0.15068596384186864,0.10063877044000001,3.6064573379903346,1.2949041082770791,-0.1518054987151023, ,0.029416286905911585,-0.0005844190873381235,0.013120932059308074,0.1322373568032463,-0.06470994688021622,0.15099646706195688, ,0.8520851135253906
0.01170690870048188,0.020896608475557417,-0.08481248202935752, ,0.012071734722853741,0.02097983935022308,-0.08509643684899386, ,0.0004697400820581403, ,0.0047359488695924035,0.00179913524764427,-0.014312983209045812,-0.010211060573163233,0.006621116107081312,-0.01311402795935566, ,0.015183134975265711, ,0.012169812481780376, ,4.4856395031782376e-05, ,0.09116686158022033,-0.15068596384186864,0.10081376959,3.607925167594726,1.2947674717773137,-0.150713935929719, ,0.030347598835455954,-0.000462988036644279,0.014680932276497697,0.10828328742750701,-0.026177450120934885,0.0943113188830242, ,0.856935977935791
0.01170690870048188,0.020896608475557417,-0.08481248202935752, ,0.012104681805646793,0.020987322595372428,-0.0851815023906908, ,0.0005501168255969768, ,0.0047359488695924035,0.00179913524764427,-0.014312983209045812,-0.010211060573163233,0.006621116107081312,-0.01311402795935566, ,0.015183134975265711, ,0.012169812481780376, ,4.570967560776109e-05, ,0.09116686158022033,-0.15068596384186864,0.10081376959,3.607925167594726,1.2947674717773137,-0.150713935929719, ,0.030347598835455954,-0.000462988036644279,0.014680932276497697,0.10828328742750701,-0.026177450120934885,0.0943113188830242, ,0.8618021011352539
0.011767837273041197,0.020915790327329452,-0.08498416352931613, ,0.012137700836123502,0.020994636665076397,-0.08526657357801566, ,0.000471986478491188, ,0.005991794868676736,0.0017672572648133964,-0.016201125512877196,0.02259365207626128,0.008078832552592796,-0.08941739814004374, ,0.017363791978491822, ,0.023994572998853707, ,4.639305816218538e-05, ,0.09152210729243467,-0.15068596384186864,0.10099136132000001,3.609812377086087,1.2946308352775482,-0.14954069440419543, ,0.03362754839067001,-0.00039035712952185275,0.016891634697773068,0.20529538574103495,0.0,0.11325010952814153, ,0.8667550086975098
0.011767837273041197,0.020915790327329452,-0.08498416352931613, ,0.012170791442789807,0.02100178266822732,-0.08535164936497461, ,0.0005520983472357923, ,0.005991794868676736,0.0017672572648133964,-0.016201125512877196,0.02259365207626128,0.008078832552592796,-0.08941739814004374, ,0.017363791978491822, ,0.023994572998853707, ,4.7230622407112835e-05, ,0.09152210729243467,-0.15068596384186864,0.10099136132000001,3.609812377086087,1.2946308352775482,-0.14954069440419543, ,0.03362754839067001,-0.00039035712952185275,0.016891634697773068,0.20529538574103495,0.0,0.11325010952814153, ,0.8716270923614502
0.011820628038558925,0.020932294518868397,-0.08513977467799635, ,0.012203953255279286,0.021008761711088772,-0.08543672870915191, ,0.0004908840493225586, ,0.005804189011609762,0.0020303980840127253,-0.018382758820157847,-0.03369747671861399,0.037115930660670274,0.01776585727298713, ,0.019383935315155826, ,0.0501309300413528, ,4.7934638903284647e-05, ,0.09182329387452942,-0.15068596384186864,0.10114821241000001,3.611489896633963,1.2940842892784865,-0.14803319916758245, ,0.033215590324981024,0.00044915595515486635,0.018521873860465117,0.16792274706804136,-0.06096300043742115,0.1849458124808756, ,0.8771998882293701
0.011820628038558925,0.020932294518868397,-0.08513977467799635, ,0.012237185904351763,0.021015574897298276,-0.08552181057170548, ,0.0005713208389927999, ,0.005804189011609762,0.0020303980840127253,-0.018382758820157847,-0.03369747671861399,0.037115930660670274,0.01776585727298713, ,0.019383935315155826, ,0.0501309300413528, ,4.888936091369877e-05, ,0.09182329387452942,-0.15068596384186864,0.10114821241000001,3.611489896633963,1.2940842892784865,-0.14803319916758245, ,0.033215590324981024,0.00044915595515486635,0.018521873860465117,0.16792274706804136,-0.06096300043742115,0.1849458124808756, ,0.880856990814209
0.011820628038558925,0.020932294518868397,-0.08513977467799635, ,0.012270489021892015,0.021022223327869377,-0.08560689391736234, ,0.0006547232077753225, ,0.005804189011609762,0.0020303980840127253,-0.018382758820157847,-0.03369747671861399,0.037115930660670274,0.01776585727298713, ,0.019383935315155826, ,0.0501309300413528, ,5.000324988559462e-05, ,0.09182329387452942,-0.15068596384186864,0.10114821241000001,3.611489896633963,1.2940842892784865,-0.14803319916758245, ,0.033215590324981024,0.00044915595515486635,0.018521873860465117,0.16792274706804136,-0.06096300043742115,0.1849458124808756, ,0.8847908973693848
0.011847412018402332,0.020941728606974915,-0.0852234005877692, ,0.012303862240907895,0.021028708101194577,-0.08569197771441515, ,0.000659906631013711, ,0.0058847299819612675,0.002229111892678577,-0.019453958849656693,-0.03969826526268694,0.037198928019765425,0.03204046149633897, ,0.02044640559401116, ,0.05440321428287838, ,5.1118588792452234e-05, ,0.09197002579913968,-0.15068596384186864,0.10123376755,3.6123286564079007,1.293947652778721,-0.1473500300829021, ,0.03412331591458856,0.00044915595515486635,0.019568564520884523,0.1557828483012275,-0.06660958122484348,0.1873586874568085, ,0.8883171081542969
0.011847412018402332,0.020941728606974915,-0.0852234005877692, ,0.01233730519552934,0.021035030313047463,-0.08577706093471724, ,0.000745144491447306, ,0.0058847299819612675,0.002229111892678577,-0.019453958849656693,-0.03969826526268694,0.037198928019765425,0.03204046149633897, ,0.02044640559401116, ,0.05440321428287838, ,5.239419854217922e-05, ,0.09197002579913968,-0.15068596384186864,0.10123376755,3.6123286564079007,1.293947652778721,-0.1473500300829021, ,0.03412331591458856,0.00044915595515486635,0.019568564520884523,0.1557828483012275,-0.06660958122484348,0.1873586874568085, ,0.891618013381958
0.011942079777735048,0.020980132231582033,-0.08553278037441212, ,0.012370817521006534,0.021041191056585334,-0.0858621425536791, ,0.0005440805801972823, ,0.0058847299819612675,0.002229111892678577,-0.019453958849656693,-0.03969826526268694,0.037198928019765425,0.03204046149633897, ,0.02044640559401116, ,0.05440321428287838, ,5.3262364911967606e-05, ,0.09254923076470653,-0.15067824110899442,0.10155135860000002,3.6144255558427463,1.2935377432794248,-0.14448373542745535, ,0.03566213512155985,0.0002950492106064439,0.019237695072463774,0.09718633116814392,0.008331178705157661,0.17139904022830676, ,0.8950290679931641
0.011942079777735048,0.020980132231582033,-0.08553278037441212, ,0.012404398853708682,0.021047191422351775,-0.08594722155026405, ,0.0006244976791929172, ,0.0055705860657233874,0.0024866903433017557,-0.018431085520064956,0.021656330504770137,-0.008275729168097361,0.07492254866651565, ,0.019414426888967128, ,0.023183662723107505, ,5.428199670206403e-05, ,0.09254923076470653,-0.15067824110899442,0.10155135860000002,3.6144255558427463,1.2935377432794248,-0.14448373542745535, ,0.03566213512155985,0.0002950492106064439,0.019237695072463774,0.09718633116814392,0.008331178705157661,0.17139904022830676, ,0.8983769416809082
0.011942079777735048,0.020980132231582033,-0.08553278037441212, ,0.012438048831122506,0.021053032498278938,-0.08603229690698347, ,0.0007076839104534166, ,0.0055705860657233874,0.0024866903433017557,-0.018431085520064956,0.021656330504770137,-0.008275729168097361,0.07492254866651565, ,0.019414426888967128, ,0.023183662723107505, ,5.5456741637454796e-05, ,0.09254923076470653,-0.15067824110899442,0.10155135860000002,3.6144255558427463,1.2935377432794248,-0.14448373542745535, ,0.03566213512155985,0.0002950492106064439,0.019237695072463774,0.09718633116814392,0.008331178705157661,0.17139904022830676, ,0.9015960693359375
0.012013292389663057,0.021001218851481575,-0.08572823112417693, ,0.012471767091850612,0.021058715369690156,-0.0861173676098936, ,0.0006040961071452032, ,0.008439832978861824,0.001908564380872944,-0.021082288298356098,0.033585740372992806,0.019554874022580545,-0.22907925576300575, ,0.02278895080081624, ,0.038863747756655735, ,5.6419988949701464e-05, ,0.0929508128741662,-0.1506705183761202,0.10175617242000001,3.616732145221076,1.29367437977919,-0.14345165096918383, ,0.04355068451513115,0.0002735079240188886,0.02197077451034483,0.34463430317320165,-0.001593189273395867,0.11080121482540733, ,0.9054551124572754
0.012013292389663057,0.021001218851481575,-0.08572823112417693, ,0.012505553275610195,0.02106424111930221,-0.08620243264859047, ,0.0006864107165763343, ,0.008439832978861824,0.001908564380872944,-0.021082288298356098,0.033585740372992806,0.019554874022580545,-0.22907925576300575, ,0.02278895080081624, ,0.038863747756655735, ,5.753588532845036e-05, ,0.0929508128741662,-0.1506705183761202,0.10175617242000001,3.616732145221076,1.29367437977919,-0.14345165096918383, ,0.04355068451513115,0.0002735079240188886,0.02197077451034483,0.34463430317320165,-0.001593189273395867,0.11080121482540733, ,0.9087851047515869
0.012013292389663057,0.021001218851481575,-0.08572823112417693, ,0.012539407023231662,0.0210696108272283,-0.08628749101620599, ,0.0007708733338453973, ,0.008439832978861824,0.001908564380872944,-0.021082288298356098,0.033585740372992806,0.019554874022580545,-0.22907925576300575, ,0.02278895080081624, ,0.038863747756655735, ,5.880681859044357e-05, ,0.0929508128741662,-0.1506705183761202,0.10175617242000001,3.616732145221076,1.29367437977919,-0.14345165096918383, ,0.04355068451513115,0.0002735079240188886,0.02197077451034483,0.34463430317320165,-0.001593189273395867,0.11080121482540733, ,0.9121088981628418
0.01209876722383807,0.02101964855109467,-0.08595095695604012, ,0.012573327976656869,0.0210748255709799,-0.08637254170940452, ,0.0006371703978596964, ,0.009278893984194271,0.0020767714496827405,-0.025121711729921708,-0.04969422939031036,0.08298730679793356,-0.11666930088887721, ,0.02686096151416438, ,0.0967284834916891, ,5.980982391993934e-05, ,0.09338328591512277,-0.15066279564324597,0.10198172688000001,3.620296874260313,1.292991197280363,-0.14158770160845274, ,0.046770301408807675,0.0010407648582446477,0.025163999241706165,0.38110782806357574,-0.10403105470168654,0.2613902176146854, ,0.9154438972473145
0.01209876722383807,0.02101964855109467,-0.08595095695604012, ,0.012607315778937877,0.02107988642546966,-0.08645758372837724, ,0.000720361659759907, ,0.009278893984194271,0.0020767714496827405,-0.025121711729921708,-0.04969422939031036,0.08298730679793356,-0.11666930088887721, ,0.02686096151416438, ,0.0967284834916891, ,6.0965097019785546e-05, ,0.09338328591512277,-0.15066279564324597,0.10198172688000001,3.620296874260313,1.292991197280363,-0.14158770160845274, ,0.046770301408807675,0.0010407648582446477,0.025163999241706165,0.38110782806357574,-0.10403105470168654,0.2613902176146854, ,0.919213056564331
0.01209876722383807,0.02101964855109467,-0.08595095695604012, ,0.012641370074235493,0.02108479446301374,-0.08654261607683923, ,0.0008054330253496925, ,0.009278893984194271,0.0020767714496827405,-0.025121711729921708,-0.04969422939031036,0.08298730679793356,-0.11666930088887721, ,0.02686096151416438, ,0.0967284834916891, ,6.227448941693137e-05, ,0.09338328591512277,-0.15066279564324597,0.10198172688000001,3.620296874260313,1.292991197280363,-0.14158770160845274, ,0.046770301408807675,0.0010407648582446477,0.025163999241706165,0.38110782806357574,-0.10403105470168654,0.2613902176146854, ,0.9250600337982178
0.012174122260108533,0.02104328923103123,-0.08617767917389006, ,0.012675490507817647,0.021089550753334428,-0.08662763776202476, ,0.0006752577132420511, ,0.008271447374339744,0.003028429396755939,-0.02584817992100424,-0.04615934562406816,0.038596924216446366,0.046334094653294786, ,0.027307812645948306, ,0.06016972834324069, ,6.332546028412258e-05, ,0.09380803622320512,-0.15065507291037172,0.10220987392000001,3.622603463638643,1.2921713782817703,-0.13936729812360354, ,0.050638709476238414,0.0005724405342179914,0.026155683940886704,0.19400377002680008,-0.0807094586709685,0.23973910855447964, ,0.9296278953552246
0.012174122260108533,0.02104328923103123,-0.08617767917389006, ,0.012709676726058201,0.021094156363562228,-0.08671264779468292, ,0.0007586814063910976, ,0.008271447374339744,0.003028429396755939,-0.02584817992100424,-0.04615934562406816,0.038596924216446366,0.046334094653294786, ,0.027307812645948306, ,0.06016972834324069, ,6.452703915450824e-05, ,0.09380803622320512,-0.15065507291037172,0.10220987392000001,3.622603463638643,1.2921713782817703,-0.13936729812360354, ,0.050638709476238414,0.0005724405342179914,0.026155683940886704,0.19400377002680008,-0.0807094586709685,0.23973910855447964, ,0.9331979751586914
0.012174122260108533,0.02104328923103123,-0.08617767917389006, ,0.012743928376435065,0.021098612358238927,-0.08679764518907365, ,0.0008438587077169878, ,0.008271447374339744,0.003028429396755939,-0.02584817992100424,-0.04615934562406816,0.038596924216446366,0.046334094653294786, ,0.027307812645948306, ,0.06016972834324069, ,6.600584687474064e-05, ,0.09380803622320512,-0.15065507291037172,0.10220987392000001,3.622603463638643,1.2921713782817703,-0.13936729812360354, ,0.050638709476238414,0.0005724405342179914,0.026155683940886704,0.19400377002680008,-0.0807094586709685,0.23973910855447964, ,0.9349160194396973
0.012174122260108533,0.02104328923103123,-0.08617767917389006, ,0.012778245107529264,0.021102919799319487,-0.08688262896296432, ,0.0009303087791512865, ,0.008271447374339744,0.003028429396755939,-0.02584817992100424,-0.04615934562406816,0.038596924216446366,0.046334094653294786, ,0.027307812645948306, ,0.06016972834324069, ,6.764278424647653e-05, ,0.09380803622320512,-0.15065507291037172,0.10220987392000001,3.622603463638643,1.2921713782817703,-0.13936729812360354, ,0.050638709476238414,0.0005724405342179914,0.026155683940886704,0.19400377002680008,-0.0807094586709685,0.23973910855447964, ,0.9368610382080078
0.012174122260108533,0.02104328923103123,-0.08617767917389006, ,0.012812626569022954,0.021107079746175,-0.08696759813762395, ,0.0010177076945719755, ,0.008271447374339744,0.003028429396755939,-0.02584817992100424,-0.04615934562406816,0.038596924216446366,0.046334094653294786, ,0.027307812645948306, ,0.06016972834324069, ,6.943874816013532e-05, ,0.09380803622320512,-0.15065507291037172,0.10220987392000001,3.622603463638643,1.2921713782817703,-0.13936729812360354, ,0.050638709476238414,0.0005724405342179914,0.026155683940886704,0.19400377002680008,-0.0807094586709685,0.23973910855447964, ,0.9385631084442139
0.012174122260108533,0.02104328923103123,-0.08617767917389006, ,0.012847072411698385,0.0211110932555948,-0.08705255173782027, ,0.001105830590727909, ,0.008271447374339744,0.003028429396755939,-0.02584817992100424,-0.04615934562406816,0.038596924216446366,0.046334094653294786, ,0.027307812645948306, ,0.06016972834324069, ,7.139420446686695e-05, ,0.09380803622320512,-0.15065507291037172,0.10220987392000001,3.622603463638643,1.2921713782817703,-0.13936729812360354, ,0.050638709476238414,0.0005724405342179914,0.026155683940886704,0.19400377002680008,-0.0807094586709685,0.23973910855447964, ,0.9404599666595459
0.012174122260108533,0.02104328923103123,-0.08617767917389006, ,0.01288158228743604,0.02111496138178917,-0.08713748879181499, ,0.001194517094947451, ,0.008271447374339744,0.003028429396755939,-0.02584817992100424,-0.04615934562406816,0.038596924216446366,0.046334094653294786, ,0.027307812645948306, ,0.06016972834324069, ,0.0004024066542514118, ,0.09380803622320512,-0.15065507291037172,0.10220987392000001,3.622603463638643,1.2921713782817703,-0.13936729812360354, ,0.050638709476238414,0.0005724405342179914,0.026155683940886704,0.19400377002680008,-0.0807094586709685,0.23973910855447964, ,0.9422891139984131
0.012174122260108533,0.02104328923103123,-0.08617767917389006, ,0.01291615584921358,0.021118685176391833,-0.08722240833136002, ,0.0012836500334611587, ,0.008271447374339744,0.003028429396755939,-0.02584817992100424,-0.04615934562406816,0.038596924216446366,0.046334094653294786, ,0.027307812645948306, ,0.06016972834324069, ,0.0004113989336311031, ,0.09380803622320512,-0.15065507291037172,0.10220987392000001,3.622603463638643,1.2921713782817703,-0.13936729812360354, ,0.050638709476238414,0.0005724405342179914,0.026155683940886704,0.19400377002680008,-0.0807094586709685,0.23973910855447964, ,0.9442000389099121
0.012174122260108533,0.02104328923103123,-0.08617767917389006, ,0.012950792751104062,0.021122265688462205,-0.08730730939169302, ,0.0013731419305320015, ,0.008271447374339744,0.003028429396755939,-0.02584817992100424,-0.04615934562406816,0.038596924216446366,0.046334094653294786, ,0.027307812645948306, ,0.06016972834324069, ,0.0004211135093573748, ,0.09486605062697388,-0.15063962744462328,0.10273876024,3.624700363073488,1.2918981052822394,-0.13669410011199373, ,0.05325305362428214,0.0007851340369796249,0.0228533881205165,0.06871702763265027,-0.008304418538012776,0.052563854200379886, ,0.9460980892181396
0.012331075217268873,0.021112669372111717,-0.08668782388623766, ,0.012985492648274671,0.021125703964488065,-0.08739219101153292, ,0.0009615430940937338, ,0.007289670864788231,0.003077621976980492,-0.021919263700863032,5.543125924214326e-05,-0.034040464664679575,-0.01554092111369497, ,0.02330375891434915, ,0.03404043547684255, ,0.0004265178052047384, ,0.09486605062697388,-0.15063962744462328,0.10273876024,3.624700363073488,1.2918981052822394,-0.13669410011199373, ,0.05325305362428214,0.0007851340369796249,0.0228533881205165,0.06871702763265027,-0.008304418538012776,0.052563854200379886, ,0.948232889175415
0.012331075217268873,0.021112669372111717,-0.08668782388623766, ,0.01302025519698502,0.021129001048388118,-0.08747705223307634, ,0.001047910850953099, ,0.007289670864788231,0.003077621976980492,-0.021919263700863032,5.543125924214326e-05,-0.034040464664679575,-0.01554092111369497, ,0.02330375891434915, ,0.03404043547684255, ,0.0004326702115982865, ,0.09486605062697388,-0.15063962744462328,0.10273876024,3.624700363073488,1.2918981052822394,-0.13669410011199373, ,0.05325305362428214,0.0007851340369796249,0.0228533881205165,0.06871702763265027,-0.008304418538012776,0.052563854200379886, ,0.9501080513000488
0.012331075217268873,0.021112669372111717,-0.08668782388623766, ,0.013055080054586058,0.021132157981514153,-0.08756189210199335, ,0.001135146711288654, ,0.007289670864788231,0.003077621976980492,-0.021919263700863032,5.543125924214326e-05,-0.034040464664679575,-0.01554092111369497, ,0.02330375891434915, ,0.03404043547684255, ,0.0004395572361050548, ,0.09486605062697388,-0.15063962744462328,0.10273876024,3.624700363073488,1.2918981052822394,-0.13669410011199373, ,0.05325305362428214,0.0007851340369796249,0.0228533881205165,0.06871702763265027,-0.008304418538012776,0.052563854200379886, ,0.9518969058990479
0.012331075217268873,0.021112669372111717,-0.08668782388623766, ,0.013089966879518144,0.021135175802653748,-0.0876467096674226, ,0.0012230637905709832, ,0.007289670864788231,0.003077621976980492,-0.021919263700863032,5.543125924214326e-05,-0.034040464664679575,-0.01554092111369497, ,0.02330375891434915, ,0.03404043547684255, ,0.0004471640958571512, ,0.09486605062697388,-0.15063962744462328,0.10273876024,3.624700363073488,1.2918981052822394,-0.13669410011199373, ,0.05325305362428214,0.0007851340369796249,0.0228533881205165,0.06871702763265027,-0.008304418538012776,0.052563854200379886, ,0.953618049621582
0.012331075217268873,0.021112669372111717,-0.08668782388623766, ,0.01312491533131007,0.021138055548032803,-0.08773150398196783, ,0.0013115238186217448, ,0.007289670864788231,0.003077621976980492,-0.021919263700863032,5.543125924214326e-05,-0.034040464664679575,-0.01554092111369497, ,0.02330375891434915, ,0.03404043547684255, ,0.00045547524703757995, ,0.09486605062697388,-0.15063962744462328,0.10273876024,3.624700363073488,1.2918981052822394,-0.13669410011199373, ,0.05325305362428214,0.0007851340369796249,0.0228533881205165,0.06871702763265027,-0.008304418538012776,0.052563854200379886, ,0.9553201198577881
0.012480396618799912,0.02113088626514075,-0.08703185761830254, ,0.013159925070577118,0.02114079825131783,-0.08781627410169365, ,0.0010378662648243197, ,0.014764322899454785,0.0011573056984298929,-0.034435737782402775,-0.10474072522548522,0.17630290861951192,-0.3225260848983253, ,0.03748525875297362, ,0.205068980311475, ,0.0004610218281593584, ,0.09565376938014478,-0.15056240011588104,0.10308357338000002,3.630991061378024,1.2903951037848196,-0.13342653466781929, ,0.06802648140392172,0.008635574228787591,0.03389108834042554,0.735141234104946,-0.20321585121805336,0.40685412080362765, ,0.9569809436798096
0.012480396618799912,0.02113088626514075,-0.08703185761830254, ,0.013194995759019952,0.021143404943618632,-0.08790101908612079, ,0.0011252778793053864, ,0.014764322899454785,0.0011573056984298929,-0.034435737782402775,-0.10474072522548522,0.17630290861951192,-0.3225260848983253, ,0.03748525875297362, ,0.205068980311475, ,0.000467288394679604, ,0.09565376938014478,-0.15056240011588104,0.10308357338000002,3.630991061378024,1.2903951037848196,-0.13342653466781929, ,0.06802648140392172,0.008635574228787591,0.03389108834042554,0.735141234104946,-0.20321585121805336,0.40685412080362765, ,0.9587280750274658
0.012480396618799912,0.02113088626514075,-0.08703185761830254, ,0.013230127059423074,0.021145876653490592,-0.08798573799822265, ,0.0012133458800096613, ,0.014764322899454785,0.0011573056984298929,-0.034435737782402775,-0.10474072522548522,0.17630290861951192,-0.3225260848983253, ,0.03748525875297362, ,0.205068980311475, ,0.0004742608945425017, ,0.09565376938014478,-0.15056240011588104,0.10308357338000002,3.630991061378024,1.2903951037848196,-0.13342653466781929, ,0.06802648140392172,0.008635574228787591,0.03389108834042554,0.735141234104946,-0.20321585121805336,0.40685412080362765, ,0.9603779315948486
0.012480396618799912,0.02113088626514075,-0.08703185761830254, ,0.01326531863565324,0.02114821440693723,-0.08807042990442031, ,0.0013019351867628074, ,0.014764322899454785,0.0011573056984298929,-0.034435737782402775,-0.10474072522548522,0.17630290861951192,-0.3225260848983253, ,0.03748525875297362, ,0.205068980311475, ,0.00048192454539639347, ,0.09565376938014478,-0.15056240011588104,0.10308357338000002,3.630991061378024,1.2903951037848196,-0.13342653466781929, ,0.06802648140392172,0.008635574228787591,0.03389108834042554,0.735141234104946,-0.20321585121805336,0.40685412080362765, ,0.9622220993041992
0.012480396618799912,0.02113088626514075,-0.08703185761830254, ,0.013300570152658002,0.0211504192274127,-0.08815509387457951, ,0.0013909442295331224, ,0.014764322899454785,0.0011573056984298929,-0.034435737782402775,-0.10474072522548522,0.17630290861951192,-0.3225260848983253, ,0.03748525875297362, ,0.205068980311475, ,0.0004902641755260882, ,0.09565376938014478,-0.15056240011588104,0.10308357338000002,3.630991061378024,1.2903951037848196,-0.13342653466781929, ,0.06802648140392172,0.008635574228787591,0.03389108834042554,0.735141234104946,-0.20321585121805336,0.40685412080362765, ,0.9639151096343994
0.012480396618799912,0.02113088626514075,-0.08703185761830254, ,0.013335881276464455,0.021152492135824385,-0.08823972898200527, ,0.0014802952558190948, ,0.014764322899454785,0.0011573056984298929,-0.034435737782402775,-0.10474072522548522,0.17630290861951192,-0.3225260848983253, ,0.03748525875297362, ,0.205068980311475, ,0.0004992644580742064, ,0.09565376938014478,-0.15056240011588104,0.10308357338000002,3.630991061378024,1.2903951037848196,-0.13342653466781929, ,0.06802648140392172,0.008635574228787591,0.03389108834042554,0.735141234104946,-0.20321585121805336,0.40685412080362765, ,0.9655609130859375
0.012620235554406528,0.02114915039335396,-0.08738457771599427, ,0.013371251674177527,0.021154434150534935,-0.08832433430343799, ,0.0012029944197250867, ,0.015399969405639443,0.0030386274056794973,-0.04227818169647951,-0.1284308738676654,0.17348498075429797,-0.1250058480493123, ,0.045098081575225706, ,0.21585039456230076, ,0.0005056043676386287, ,0.09631020167445387,-0.15050061825288724,0.10343097910000001,3.637491449626044,1.288345556288338,-0.1291415464278748, ,0.07634508572684696,0.005167818589158255,0.04180790425196851,0.6251018984807947,-0.22799963458958883,0.49650874157668823, ,0.9672510623931885
0.012620235554406528,0.02114915039335396,-0.08738457771599427, ,0.013406681013978648,0.021156246287365347,-0.08840890891905022, ,0.0012914337869776656, ,0.015399969405639443,0.0030386274056794973,-0.04227818169647951,-0.1284308738676654,0.17348498075429797,-0.1250058480493123, ,0.045098081575225706, ,0.21585039456230076, ,0.0005126207017398702, ,0.09631020167445387,-0.15050061825288724,0.10343097910000001,3.637491449626044,1.288345556288338,-0.1291415464278748, ,0.07634508572684696,0.005167818589158255,0.04180790425196851,0.6251018984807947,-0.22799963458958883,0.49650874157668823, ,0.9690999984741211
0.012620235554406528,0.02114915039335396,-0.08738457771599427, ,0.013442168965124263,0.021157929559597104,-0.08849345191244103, ,0.0013803092367145322, ,0.015399969405639443,0.0030386274056794973,-0.04227818169647951,-0.1284308738676654,0.17348498075429797,-0.1250058480493123, ,0.045098081575225706, ,0.21585039456230076, ,0.0005202993613414159, ,0.09631020167445387,-0.15050061825288724,0.10343097910000001,3.637491449626044,1.288345556288338,-0.1291415464278748, ,0.07634508572684696,0.005167818589158255,0.04180790425196851,0.6251018984807947,-0.22799963458958883,0.49650874157668823, ,0.9709970951080322
0.012620235554406528,0.02114915039335396,-0.08738457771599427, ,0.01347771519794421,0.02115948497797456,-0.08857796237063274, ,0.0014695390694525212, ,0.015399969405639443,0.0030386274056794973,-0.04227818169647951,-0.1284308738676654,0.17348498075429797,-0.1250058480493123, ,0.045098081575225706, ,0.21585039456230076, ,0.0005286260254476536, ,0.09631020167445387,-0.15050061825288724,0.10343097910000001,3.637491449626044,1.288345556288338,-0.1291415464278748, ,0.07634508572684696,0.005167818589158255,0.04180790425196851,0.6251018984807947,-0.22799963458958883,0.49650874157668823, ,0.9728240966796875
0.012620235554406528,0.02114915039335396,-0.08738457771599427, ,0.013513319383840669,0.02116091355070761,-0.08866243938406682, ,0.0015590598259838612, ,0.015399969405639443,0.0030386274056794973,-0.04227818169647951,-0.1284308738676654,0.17348498075429797,-0.1250058480493123, ,0.045098081575225706, ,0.21585039456230076, ,0.0005375863193653597, ,0.09631020167445387,-0.15050061825288724,0.10343097910000001,3.637491449626044,1.288345556288338,-0.1291415464278748, ,0.07634508572684696,0.005167818589158255,0.04180790425196851,0.6251018984807947,-0.22799963458958883,0.49650874157668823, ,0.9747068881988525
0.012684233285021591,0.021164269859533888,-0.08756788100131713, ,0.013548981195286166,0.021162216283474287,-0.08874688204659892, ,0.0014621342723078266, ,0.015534348451674732,0.003917804428662351,-0.04497625106799421,-0.07676177515394947,0.11627969262975697,-0.05525427887766214, ,0.047744406305771, ,0.1393310912938849, ,0.0005455565603390016, ,0.09664227918804552,-0.15047745005426458,0.10361375599000001,3.639798039004374,1.2875257372897455,-0.12708450042330693, ,0.08244738623672526,0.006339325220865376,0.04525230545454546,0.5244596021855964,-0.15671043129208853,0.46619626057318864, ,0.9783411026000977
0.012684233285021591,0.021164269859533888,-0.08756788100131713, ,0.01358470030582247,0.021163394179422815,-0.08883128945549551, ,0.0015514646449259096, ,0.015534348451674732,0.003917804428662351,-0.04497625106799421,-0.07676177515394947,0.11627969262975697,-0.05525427887766214, ,0.047744406305771, ,0.1393310912938849, ,0.0005541540653354709, ,0.09664227918804552,-0.15047745005426458,0.10361375599000001,3.639798039004374,1.2875257372897455,-0.12708450042330693, ,0.08244738623672526,0.006339325220865376,0.04525230545454546,0.5244596021855964,-0.15671043129208853,0.46619626057318864, ,0.9804329872131348
0.012684233285021591,0.021164269859533888,-0.08756788100131713, ,0.013620476390059085,0.021164448239174415,-0.08891566071142933, ,0.0016410549443999936, ,0.015534348451674732,0.003917804428662351,-0.04497625106799421,-0.07676177515394947,0.11627969262975697,-0.05525427887766214, ,0.047744406305771, ,0.1393310912938849, ,0.0005633650897343229, ,0.09664227918804552,-0.15047745005426458,0.10361375599000001,3.639798039004374,1.2875257372897455,-0.12708450042330693, ,0.08244738623672526,0.006339325220865376,0.04525230545454546,0.5244596021855964,-0.15671043129208853,0.46619626057318864, ,0.9822161197662354
0.012684233285021591,0.021164269859533888,-0.08756788100131713, ,0.013656309123671623,0.021165379460825938,-0.08899999491847527, ,0.0017308619063981455, ,0.015534348451674732,0.003917804428662351,-0.04497625106799421,-0.07676177515394947,0.11627969262975697,-0.05525427887766214, ,0.047744406305771, ,0.1393310912938849, ,0.0005731759873533466, ,0.09664227918804552,-0.15047745005426458,0.10361375599000001,3.639798039004374,1.2875257372897455,-0.12708450042330693, ,0.08244738623672526,0.006339325220865376,0.04525230545454546,0.5244596021855964,-0.15671043129208853,0.46619626057318864, ,0.9840819835662842
0.012684233285021591,0.021164269859533888,-0.08756788100131713, ,0.013692198183400442,0.021166188839951718,-0.08908429118410581, ,0.001820850559852438, ,0.015534348451674732,0.003917804428662351,-0.04497625106799421,-0.07676177515394947,0.11627969262975697,-0.05525427887766214, ,0.047744406305771, ,0.1393310912938849, ,0.0005835732754575058, ,0.09664227918804552,-0.15047745005426458,0.10361375599000001,3.639798039004374,1.2875257372897455,-0.12708450042330693, ,0.08244738623672526,0.006339325220865376,0.04525230545454546,0.5244596021855964,-0.15671043129208853,0.46619626057318864, ,0.9858779907226562
0.012906722921654606,0.02124655152352522,-0.08831124889616836, ,0.01372814324704925,0.021166877369606797,-0.08916854861918784, ,0.0011899756875093474, ,0.013770233682353233,0.006764542901790007,-0.052389645032362916,0.026946829815098418,-0.015221571806517528,0.1268033705629236, ,0.054589864287738994, ,0.03094241783631868, ,0.0005885848656397523, ,0.09786247098217299,-0.15037705452689965,0.1043772708,3.6452499775349714,1.2868425547909181,-0.12138165027596926, ,0.078687347892596,0.005571990158760565,0.054179631020408174,0.20525749261298573,0.0,0.33118088788969713, ,0.9876658916473389
0.012906722921654606,0.02124655152352522,-0.08831124889616836, ,0.013764143993483543,0.021167446040328795,-0.08925276633797714, ,0.0012758854435717126, ,0.013770233682353233,0.006764542901790007,-0.052389645032362916,0.026946829815098418,-0.015221571806517528,0.1268033705629236, ,0.054589864287738994, ,0.03094241783631868, ,0.0005942184769342767, ,0.09786247098217299,-0.15037705452689965,0.1043772708,3.6452499775349714,1.2868425547909181,-0.12138165027596926, ,0.078687347892596,0.005571990158760565,0.054179631020408174,0.20525749261298573,0.0,0.33118088788969713, ,0.9893929958343506
0.012906722921654606,0.02124655152352522,-0.08831124889616836, ,0.013800200102629053,0.02116789584014088,-0.08933694345811558, ,0.0013625481730415257, ,0.013770233682353233,0.006764542901790007,-0.052389645032362916,0.026946829815098418,-0.015221571806517528,0.1268033705629236, ,0.054589864287738994, ,0.03094241783631868, ,0.0006004650598294576, ,0.09786247098217299,-0.15037705452689965,0.1043772708,3.6452499775349714,1.2868425547909181,-0.12138165027596926, ,0.078687347892596,0.005571990158760565,0.054179631020408174,0.20525749261298573,0.0,0.33118088788969713, ,0.9910659790039062
0.012906722921654606,0.02124655152352522,-0.08831124889616836, ,0.013836311255470544,0.021168227754553706,-0.08942107910062534, ,0.0014498248742098577, ,0.013770233682353233,0.006764542901790007,-0.052389645032362916,0.026946829815098418,-0.015221571806517528,0.1268033705629236, ,0.054589864287738994, ,0.03094241783631868, ,0.0006073147357518802, ,0.09786247098217299,-0.15037705452689965,0.1043772708,3.6452499775349714,1.2868425547909181,-0.12138165027596926, ,0.078687347892596,0.005571990158760565,0.054179631020408174,0.20525749261298573,0.0,0.33118088788969713, ,0.9927599430084229
0.012906722921654606,0.02124655152352522,-0.08831124889616836, ,0.013872477134050107,0.02116844276656858,-0.08950517238990657, ,0.0015376070647512763, ,0.013770233682353233,0.006764542901790007,-0.052389645032362916,0.026946829815098418,-0.015221571806517528,0.1268033705629236, ,0.054589864287738994, ,0.03094241783631868, ,0.0006147570743838753, ,0.09786247098217299,-0.15037705452689965,0.1043772708,3.6452499775349714,1.2868425547909181,-0.12138165027596926, ,0.078687347892596,0.005571990158760565,0.054179631020408174,0.20525749261298573,0.0,0.33118088788969713, ,0.9944560527801514
0.013075059741768622,0.021313238932863722,-0.08889136795716204, ,0.013908697421465827,0.021168541856679147,-0.0895892224537318, ,0.0010967633852613473, ,0.01768729595906105,0.00455411362347528,-0.05198437363116477,0.023778679541924943,0.021282498925297315,-0.12874908766725685, ,0.05509950536133223, ,0.0319059669679144, ,0.0006185825212956013, ,0.09882781259145106,-0.1502612135337863,0.10497874936000001,3.6483953266872393,1.2869791912906836,-0.11798088235362159, ,0.09793286022546002,0.015766230529734304,0.05363236202020203,0.48607244397997273,-0.024367410891318456,0.35336629849015483, ,0.9968318939208984
0.013075059741768622,0.021313238932863722,-0.08889136795716204, ,0.013944971801870279,0.02116852600287456,-0.0896732284232422, ,0.0011785561559957314, ,0.01768729595906105,0.00455411362347528,-0.05198437363116477,0.023778679541924943,0.021282498925297315,-0.12874908766725685, ,0.05509950536133223, ,0.0319059669679144, ,0.0006229917625137125, ,0.09882781259145106,-0.1502612135337863,0.10497874936000001,3.6483953266872393,1.2869791912906836,-0.11798088235362159, ,0.09793286022546002,0.015766230529734304,0.05363236202020203,0.48607244397997273,-0.024367410891318456,0.35336629849015483, ,0.9986310005187988
0.013075059741768622,0.021313238932863722,-0.08889136795716204, ,0.013981299960468884,0.02116839618064164,-0.08975718943294334, ,0.0012617042382370206, ,0.01768729595906105,0.00455411362347528,-0.05198437363116477,0.023778679541924943,0.021282498925297315,-0.12874908766725685, ,0.05509950536133223, ,0.0319059669679144, ,0.0006279817037303008, ,0.09882781259145106,-0.1502612135337863,0.10497874936000001,3.6483953266872393,1.2869791912906836,-0.11798088235362159, ,0.09793286022546002,0.015766230529734304,0.05363236202020203,0.48607244397997273,-0.024367410891318456,0.35336629849015483, ,1.0003330707550049
0.013075059741768622,0.021313238932863722,-0.08889136795716204, ,0.01401768158351886,0.021168153362967165,-0.08984110462070127, ,0.0013459515181489447, ,0.01768729595906105,0.00455411362347528,-0.05198437363116477,0.023778679541924943,0.021282498925297315,-0.12874908766725685, ,0.05509950536133223, ,0.0319059669679144, ,0.0006335473612064143, ,0.09882781259145106,-0.1502612135337863,0.10497874936000001,3.6483953266872393,1.2869791912906836,-0.11798088235362159, ,0.09793286022546002,0.015766230529734304,0.05363236202020203,0.48607244397997273,-0.024367410891318456,0.35336629849015483, ,1.0020248889923096
0.013075059741768622,0.021313238932863722,-0.08889136795716204, ,0.014054116358327423,0.021167798520341,-0.08992497312773841, ,0.0014310990254571988, ,0.01768729595906105,0.00455411362347528,-0.05198437363116477,0.023778679541924943,0.021282498925297315,-0.12874908766725685, ,0.05509950536133223, ,0.0319059669679144, ,0.0006396823740083434, ,0.09882781259145106,-0.1502612135337863,0.10497874936000001,3.6483953266872393,1.2869791912906836,-0.11798088235362159, ,0.09793286022546002,0.015766230529734304,0.05363236202020203,0.48607244397997273,-0.024367410891318456,0.35336629849015483, ,1.0036160945892334
0.013075059741768622,0.021313238932863722,-0.08889136795716204, ,0.014090603973250283,0.02116733262075765,-0.0900087940986285, ,0.0015169904151446307, ,0.01768729595906105,0.00455411362347528,-0.05198437363116477,0.023778679541924943,0.021282498925297315,-0.12874908766725685, ,0.05509950536133223, ,0.0319059669679144, ,0.0006463793819559486, ,0.09882781259145106,-0.1502612135337863,0.10497874936000001,3.6483953266872393,1.2869791912906836,-0.11798088235362159, ,0.09793286022546002,0.015766230529734304,0.05363236202020203,0.48607244397997273,-0.024367410891318456,0.35336629849015483, ,1.0053129196166992
0.013294743452686079,0.021348552037637435,-0.08946357821422712, ,0.014127144117690494,0.021166756629719556,-0.09009256668129335, ,0.001059040570111526, ,0.02102014795855434,0.0027501919931376753,-0.0517470399348695,0.011955364458587317,0.12327117975520688,-0.3511986747735043, ,0.05592107221986729, ,0.1238480659992062, ,0.0006495056030783394, ,0.09990899519384248,-0.15009131341055335,0.10556467244,3.656992614370105,1.286159372292091,-0.11290172296385248, ,0.10214956034281031,0.01508455596224301,0.052919639601328915,0.8737436505723416,-0.09101882069285502,0.5140214702813825, ,1.0069620609283447
0.013294743452686079,0.021348552037637435,-0.08946357821422712, ,0.014163736482096647,0.021166071510239068,-0.09017629002699817, ,0.0011385983295733126, ,0.02102014795855434,0.0027501919931376753,-0.0517470399348695,0.011955364458587317,0.12327117975520688,-0.3511986747735043, ,0.05592107221986729, ,0.1238480659992062, ,0.0006531829919993543, ,0.09990899519384248,-0.15009131341055335,0.10556467244,3.656992614370105,1.286159372292091,-0.11290172296385248, ,0.10214956034281031,0.01508455596224301,0.052919639601328915,0.8737436505723416,-0.09101882069285502,0.5140214702813825, ,1.0085899829864502
0.013294743452686079,0.021348552037637435,-0.08946357821422712, ,0.014200380757961583,0.0211652782228413,-0.09025996329034817, ,0.001219834992679311, ,0.02102014795855434,0.0027501919931376753,-0.0517470399348695,0.011955364458587317,0.12327117975520688,-0.3511986747735043, ,0.05592107221986729, ,0.1238480659992062, ,0.0006574117382730854, ,0.09990899519384248,-0.15009131341055335,0.10556467244,3.656992614370105,1.286159372292091,-0.11290172296385248, ,0.10214956034281031,0.01508455596224301,0.052919639601328915,0.8737436505723416,-0.09101882069285502,0.5140214702813825, ,1.0102369785308838
0.013294743452686079,0.021348552037637435,-0.08946357821422712, ,0.014237076637821025,0.021164377725566237,-0.0903435856292828, ,0.001302430443281497, ,0.02102014795855434,0.0027501919931376753,-0.0517470399348695,0.011955364458587317,0.12327117975520688,-0.3511986747735043, ,0.05592107221986729, ,0.1238480659992062, ,0.000662189654606481, ,0.09990899519384248,-0.15009131341055335,0.10556467244,3.656992614370105,1.286159372292091,-0.11290172296385248, ,0.10214956034281031,0.01508455596224301,0.052919639601328915,0.8737436505723416,-0.09101882069285502,0.5140214702813825, ,1.0144579410552979
0.013294743452686079,0.021348552037637435,-0.08946357821422712, ,0.014273823815251822,0.02116337097397142,-0.09042715620507322, ,0.0013861359699341678, ,0.02102014795855434,0.0027501919931376753,-0.0517470399348695,0.011955364458587317,0.12327117975520688,-0.3511986747735043, ,0.05592107221986729, ,0.1238480659992062, ,0.0006675127892780082, ,0.09990899519384248,-0.15009131341055335,0.10556467244,3.656992614370105,1.286159372292091,-0.11290172296385248, ,0.10214956034281031,0.01508455596224301,0.052919639601328915,0.8737436505723416,-0.09101882069285502,0.5140214702813825, ,1.0176689624786377
0.013294743452686079,0.021348552037637435,-0.08946357821422712, ,0.01431062198487066,0.021162258921134477,-0.09051067418231709, ,0.0014707563645281797, ,0.02102014795855434,0.0027501919931376753,-0.0517470399348695,0.011955364458587317,0.12327117975520688,-0.3511986747735043, ,0.05592107221986729, ,0.1238480659992062, ,0.0006733758810681553, ,0.09990899519384248,-0.15009131341055335,0.10556467244,3.656992614370105,1.286159372292091,-0.11290172296385248, ,0.10214956034281031,0.01508455596224301,0.052919639601328915,0.8737436505723416,-0.09101882069285502,0.5140214702813825, ,1.0194330215454102
0.013294743452686079,0.021348552037637435,-0.08946357821422712, ,0.014347470842332649,0.021161042517655465,-0.09059413872893496, ,0.0015561368366607076, ,0.02102014795855434,0.0027501919931376753,-0.0517470399348695,0.011955364458587317,0.12327117975520688,-0.3511986747735043, ,0.05592107221986729, ,0.1238480659992062, ,0.000679772699586942, ,0.09990899519384248,-0.15009131341055335,0.10556467244,3.656992614370105,1.286159372292091,-0.11290172296385248, ,0.10214956034281031,0.01508455596224301,0.052919639601328915,0.8737436505723416,-0.09101882069285502,0.5140214702813825, ,1.021315097808838
0.013294743452686079,0.021348552037637435,-0.08946357821422712, ,0.014384370084329839,0.0211597227116593,-0.09067754901616552, ,0.0016421534090016203, ,0.02102014795855434,0.0027501919931376753,-0.0517470399348695,0.011955364458587317,0.12327117975520688,-0.3511986747735043, ,0.05592107221986729, ,0.1238480659992062, ,0.0006866963018129469, ,0.10081255494012675,-0.14994458148594308,0.10598207782,3.6630736227311558,1.2853395532934981,-0.10847599349520803, ,0.1221324859182378,0.018743223693160338,0.04962246579439253,0.6318464996414505,-0.11175444641790665,0.5771956160626134, ,1.0235249996185303
0.013463420324286168,0.021370899012905044,-0.08987195788348935, ,0.014421319408589515,0.021158300448798427,-0.0907609042185621, ,0.0013240069455288587, ,0.020714572535171,0.002894268018265554,-0.04850896335511164,-0.029689685419793166,0.08392071755460906,-0.051010223876969824, ,0.052826033624189306, ,0.08901626622565807, ,0.0006912485206966319, ,0.10081255494012675,-0.14994458148594308,0.10598207782,3.6630736227311558,1.2853395532934981,-0.10847599349520803, ,0.1221324859182378,0.018743223693160338,0.04962246579439253,0.6318464996414505,-0.11175444641790665,0.5771956160626134, ,1.0254878997802734
0.013463420324286168,0.021370899012905044,-0.08987195788348935, ,0.01445831851387308,0.021156776672255212,-0.09084420351398777, ,0.001407455985255645, ,0.01503082284136016,0.004153764810908357,-0.036438894849101296,0.004572798374674433,-0.07523918125737292,0.347195787875023, ,0.0396354948905215, ,0.07537758710803871, ,0.0006963280062608802, ,0.10228759691910363,-0.14974379043121325,0.10651226043,3.667057731657362,1.284656370794671,-0.10220139216688662, ,0.11966827434863908,0.015308427417078689,0.038382678361445786,0.04034699282281232,0.0,0.3906569805038821, ,1.027472972869873
0.013679929014230293,0.021413964644345612,-0.09038346295695039, ,0.014495367099974439,0.02115515232274443,-0.09092744608361193, ,0.0010138248032017846, ,0.01503082284136016,0.004153764810908357,-0.036438894849101296,0.004572798374674433,-0.07523918125737292,0.347195787875023, ,0.0396354948905215, ,0.07537758710803871, ,0.0006985638991970837, ,0.10228759691910363,-0.14974379043121325,0.10651226043,3.667057731657362,1.284656370794671,-0.10220139216688662, ,0.11966827434863908,0.015308427417078689,0.038382678361445786,0.04034699282281232,0.0,0.3906569805038821, ,1.0293099880218506
0.013679929014230293,0.021413964644345612,-0.09038346295695039, ,0.014532464867718349,0.02115342833851557,-0.09101063111190535, ,0.0010899708448980573, ,0.01503082284136016,0.004153764810908357,-0.036438894849101296,0.004572798374674433,-0.07523918125737292,0.347195787875023, ,0.0396354948905215, ,0.07537758710803871, ,0.0007013010107054822, ,0.10228759691910363,-0.14974379043121325,0.10651226043,3.667057731657362,1.284656370794671,-0.10220139216688662, ,0.11966827434863908,0.015308427417078689,0.038382678361445786,0.04034699282281232,0.0,0.3906569805038821, ,1.0309770107269287
0.013679929014230293,0.021413964644345612,-0.09038346295695039, ,0.014569611518959325,0.02115160565535561,-0.09109375778663636, ,0.0011682833318178451, ,0.01503082284136016,0.004153764810908357,-0.036438894849101296,0.004572798374674433,-0.07523918125737292,0.347195787875023, ,0.0396354948905215, ,0.07537758710803871, ,0.0007045439434909847, ,0.10228759691910363,-0.14974379043121325,0.10651226043,3.667057731657362,1.284656370794671,-0.10220139216688662, ,0.11966827434863908,0.015308427417078689,0.038382678361445786,0.04034699282281232,0.0,0.3906569805038821, ,1.0326259136199951
0.013679929014230293,0.021413964644345612,-0.09038346295695039, ,0.014606806756579837,0.021149685206591284,-0.09117682529886685, ,0.0012483468172162337, ,0.01503082284136016,0.004153764810908357,-0.036438894849101296,0.004572798374674433,-0.07523918125737292,0.347195787875023, ,0.0396354948905215, ,0.07537758710803871, ,0.0007082943081373657, ,0.10228759691910363,-0.14974379043121325,0.10651226043,3.667057731657362,1.284656370794671,-0.10220139216688662, ,0.11966827434863908,0.015308427417078689,0.038382678361445786,0.04034699282281232,0.0,0.3906569805038821, ,1.0342841148376465
0.013679929014230293,0.021413964644345612,-0.09038346295695039, ,0.014644050284489032,0.02114766792309175,-0.09125983284294778, ,0.001329837563238066, ,0.01503082284136016,0.004153764810908357,-0.036438894849101296,0.004572798374674433,-0.07523918125737292,0.347195787875023, ,0.0396354948905215, ,0.07537758710803871, ,0.0007125514537202472, ,0.10228759691910363,-0.14974379043121325,0.10651226043,3.667057731657362,1.284656370794671,-0.10220139216688662, ,0.11966827434863908,0.015308427417078689,0.038382678361445786,0.04034699282281232,0.0,0.3906569805038821, ,1.03593111038208
0.01383245640774456,0.021442335653961597,-0.09071720432416903, ,0.014681341807621264,0.02114555473327059,-0.0913427796165153, ,0.0010954587091278898, ,0.015419010247777844,0.0016252657600171402,-0.03114087066717847,0.007738295566620215,-0.10479877580139134,0.15065395662812764, ,0.03478708369095775, ,0.10508394426443914, ,0.0007151562649815237, ,0.10351551144610532,-0.14950438571211228,0.10686614760000002,3.667686801487816,1.284929643794202,-0.09948379332921936, ,0.1255250549715222,0.03249895258851739,0.03297890583850932,0.07659359174499247,0.02678273367997677,0.2302352272634185, ,1.0375950336456299
0.01383245640774456,0.021442335653961597,-0.09071720432416903, ,0.014718681031934418,0.02114334656308914,-0.09142566482048595, ,0.001173330659201743, ,0.015419010247777844,0.0016252657600171402,-0.03114087066717847,0.007738295566620215,-0.10479877580139134,0.15065395662812764, ,0.03478708369095775, ,0.10508394426443914, ,0.0007182520379154442, ,0.10351551144610532,-0.14950438571211228,0.10686614760000002,3.667686801487816,1.284929643794202,-0.09948379332921936, ,0.1255250549715222,0.03249895258851739,0.03297890583850932,0.07659359174499247,0.02678273367997677,0.2302352272634185, ,1.0392351150512695
0.01383245640774456,0.021442335653961597,-0.09071720432416903, ,0.014756067664408807,0.021141044336058068,-0.09150848765905331, ,0.0012529818545160725, ,0.015419010247777844,0.0016252657600171402,-0.03114087066717847,0.007738295566620215,-0.10479877580139134,0.15065395662812764, ,0.03478708369095775, ,0.10508394426443914, ,0.0007218408286308846, ,0.10351551144610532,-0.14950438571211228,0.10686614760000002,3.667686801487816,1.284929643794202,-0.09948379332921936, ,0.1255250549715222,0.03249895258851739,0.03297890583850932,0.07659359174499247,0.02678273367997677,0.2302352272634185, ,1.0408999919891357
0.01383245640774456,0.021442335653961597,-0.09071720432416903, ,0.014793501413045366,0.021138648973240366,-0.09159124733968317, ,0.0013340855651831891, ,0.015419010247777844,0.0016252657600171402,-0.03114087066717847,0.007738295566620215,-0.10479877580139134,0.15065395662812764, ,0.03478708369095775, ,0.10508394426443914, ,0.0007259224602078999, ,0.10351551144610532,-0.14950438571211228,0.10686614760000002,3.667686801487816,1.284929643794202,-0.09948379332921936, ,0.1255250549715222,0.03249895258851739,0.03297890583850932,0.07659359174499247,0.02678273367997677,0.2302352272634185, ,1.0425961017608643
0.01383245640774456,0.021442335653961597,-0.09071720432416903, ,0.014830981986864437,0.021136161393253805,-0.09167394307310962, ,0.0014163844971620708, ,0.015419010247777844,0.0016252657600171402,-0.03114087066717847,0.007738295566620215,-0.10479877580139134,0.15065395662812764, ,0.03478708369095775, ,0.10508394426443914, ,0.0007304950564791196, ,0.10351551144610532,-0.14950438571211228,0.10686614760000002,3.667686801487816,1.284929643794202,-0.09948379332921936, ,0.1255250549715222,0.03249895258851739,0.03297890583850932,0.07659359174499247,0.02678273367997677,0.2302352272634185, ,1.04426908493042
0.01383245640774456,0.021442335653961597,-0.09071720432416903, ,0.014868509095904077,0.02113358251227319,-0.09175657407333118, ,0.001499674348189768, ,0.015419010247777844,0.0016252657600171402,-0.03114087066717847,0.007738295566620215,-0.10479877580139134,0.15065395662812764, ,0.03478708369095775, ,0.10508394426443914, ,0.0007355554465561633, ,0.10351551144610532,-0.14950438571211228,0.10686614760000002,3.667686801487816,1.284929643794202,-0.09948379332921936, ,0.1255250549715222,0.03249895258851739,0.03297890583850932,0.07659359174499247,0.02678273367997677,0.2302352272634185, ,1.0459270477294922
0.014045704176700247,0.021429667073696868,-0.09105847892138193, ,0.014906082451218675,0.021130913244033024,-0.0918391395576056, ,0.0011995564409194215, ,0.022427550618551704,-0.0021446052197105214,-0.03573381011354802,-0.005081156737022252,0.09587913124134348,-0.5245547196509813, ,0.04224333726787238, ,0.09601337249505087, ,0.0007385881327938317, ,0.10485926696622039,-0.1491336945341495,0.10722133106000001,3.674816259566289,1.2845197342949057,-0.09620910497306978, ,0.12720769645907612,0.03727295426491389,0.03661795751724139,0.9281952541562808,-0.09231486857755383,0.3957999872749066, ,1.047663927078247
0.014045704176700247,0.021429667073696868,-0.09105847892138193, ,0.014943701764877694,0.021128154499829927,-0.0919216387464469, ,0.0012815437503958188, ,0.022427550618551704,-0.0021446052197105214,-0.03573381011354802,-0.005081156737022252,0.09587913124134348,-0.5245547196509813, ,0.04224333726787238, ,0.09601337249505087, ,0.000742113818622416, ,0.10485926696622039,-0.1491336945341495,0.10722133106000001,3.674816259566289,1.2845197342949057,-0.09620910497306978, ,0.12720769645907612,0.03727295426491389,0.03661795751724139,0.9281952541562808,-0.09231486857755383,0.3957999872749066, ,1.0495638847351074
0.014045704176700247,0.021429667073696868,-0.09105847892138193, ,0.0149813667499639,0.0211253071885251,-0.09200407086362053, ,0.001364640433203817, ,0.022427550618551704,-0.0021446052197105214,-0.03573381011354802,-0.005081156737022252,0.09587913124134348,-0.5245547196509813, ,0.04224333726787238, ,0.09601337249505087, ,0.0007461301193616509, ,0.10485926696622039,-0.1491336945341495,0.10722133106000001,3.674816259566289,1.2845197342949057,-0.09620910497306978, ,0.12720769645907612,0.03727295426491389,0.03661795751724139,0.9281952541562808,-0.09231486857755383,0.3957999872749066, ,1.0512840747833252
0.014045704176700247,0.021429667073696868,-0.09105847892138193, ,0.015019077120571942,0.021122372216546805,-0.0920864351361389, ,0.0014486472988791334, ,0.022427550618551704,-0.0021446052197105214,-0.03573381011354802,-0.005081156737022252,0.09587913124134348,-0.5245547196509813, ,0.04224333726787238, ,0.09601337249505087, ,0.000750633434614968, ,0.10485926696622039,-0.1491336945341495,0.10722133106000001,3.674816259566289,1.2845197342949057,-0.09620910497306978, ,0.12720769645907612,0.03727295426491389,0.03661795751724139,0.9281952541562808,-0.09231486857755383,0.3957999872749066, ,1.052941083908081
0.014045704176700247,0.021429667073696868,-0.09105847892138193, ,0.015056832591807165,0.021119350487892888,-0.09216873079425808, ,0.0015334067550675102, ,0.022427550618551704,-0.0021446052197105214,-0.03573381011354802,-0.005081156737022252,0.09587913124134348,-0.5245547196509813, ,0.04224333726787238, ,0.09601337249505087, ,0.0007556192519426912, ,0.10485926696622039,-0.1491336945341495,0.10722133106000001,3.674816259566289,1.2845197342949057,-0.09620910497306978, ,0.12720769645907612,0.03727295426491389,0.03661795751724139,0.9281952541562808,-0.09231486857755383,0.3957999872749066, ,1.0546679496765137
0.014045704176700247,0.021429667073696868,-0.09105847892138193, ,0.015094632879783753,0.02111624290413318,-0.09225095707147292, ,0.0016187928442711772, ,0.022427550618551704,-0.0021446052197105214,-0.03573381011354802,-0.005081156737022252,0.09587913124134348,-0.5245547196509813, ,0.04224333726787238, ,0.09601337249505087, ,0.0007610823759447703, ,0.10485926696622039,-0.1491336945341495,0.10722133106000001,3.674816259566289,1.2845197342949057,-0.09620910497306978, ,0.12720769645907612,0.03727295426491389,0.03661795751724139,0.9281952541562808,-0.09231486857755383,0.3957999872749066, ,1.0564520359039307
0.014222904812447305,0.02141271539982276,-0.09135957090962005, ,0.015132477701623563,0.021113050364412064,-0.09233311320451316, ,0.001365615822300656, ,0.022818654251982,-0.0017528639195834774,-0.04160222427288504,-0.08536701854093698,0.14741849776721586,-0.3274697029233338, ,0.04748166570628603, ,0.1703514505953614, ,0.0007648844730916626, ,0.10584777677412113,-0.14882478521918052,0.10752466292000001,3.6821554075882474,1.2832900057970167,-0.09234758793488246, ,0.12964063054435898,0.041952670892338985,0.0416984594764398,0.8776124065183362,-0.18332334260381836,0.5458169365742045, ,1.0581951141357422
0.014222904812447305,0.02141271539982276,-0.09135957090962005, ,0.015170366775454509,0.021109773765450833,-0.09241519843333897, ,0.0014504507140934968, ,0.022818654251982,-0.0017528639195834774,-0.04160222427288504,-0.08536701854093698,0.14741849776721586,-0.3274697029233338, ,0.04748166570628603, ,0.1703514505953614, ,0.0007691692620979241, ,0.10584777677412113,-0.14882478521918052,0.10752466292000001,3.6821554075882474,1.2832900057970167,-0.09234758793488246, ,0.12964063054435898,0.041952670892338985,0.0416984594764398,0.8776124065183362,-0.18332334260381836,0.5458169365742045, ,1.0598740577697754
0.014222904812447305,0.02141271539982276,-0.09135957090962005, ,0.015208299820409154,0.02110641400155027,-0.09249721200113682, ,0.0015359202848479125, ,0.022818654251982,-0.0017528639195834774,-0.04160222427288504,-0.08536701854093698,0.14741849776721586,-0.3274697029233338, ,0.04748166570628603, ,0.1703514505953614, ,0.000773931690810657, ,0.10584777677412113,-0.14882478521918052,0.10752466292000001,3.6821554075882474,1.2832900057970167,-0.09234758793488246, ,0.12964063054435898,0.041952670892338985,0.0416984594764398,0.8776124065183362,-0.18332334260381836,0.5458169365742045, ,1.062087059020996
0.014222904812447305,0.02141271539982276,-0.09135957090962005, ,0.015246276556623209,0.021102971964593105,-0.09257915315431611, ,0.0016219160194114223, ,0.022818654251982,-0.0017528639195834774,-0.04160222427288504,-0.08536701854093698,0.14741849776721586,-0.3274697029233338, ,0.04748166570628603, ,0.1703514505953614, ,0.0007791661619748593, ,0.10584777677412113,-0.14882478521918052,0.10752466292000001,3.6821554075882474,1.2832900057970167,-0.09234758793488246, ,0.12964063054435898,0.041952670892338985,0.0416984594764398,0.8776124065183362,-0.18332334260381836,0.5458169365742045, ,1.065490961074829
0.014222904812447305,0.02141271539982276,-0.09135957090962005, ,0.015284296705234077,0.021099448544046436,-0.09266102114250366, ,0.001708350544143173, ,0.022818654251982,-0.0017528639195834774,-0.04160222427288504,-0.08536701854093698,0.14741849776721586,-0.3274697029233338, ,0.04748166570628603, ,0.1703514505953614, ,0.0007848666796568735, ,0.10584777677412113,-0.14882478521918052,0.10752466292000001,3.6821554075882474,1.2832900057970167,-0.09234758793488246, ,0.12964063054435898,0.041952670892338985,0.0416984594764398,0.8776124065183362,-0.18332334260381836,0.5458169365742045, ,1.067392110824585
