NicholasDascanio/dvrk_moveit_final/test/execution/third_experiment_notsharpbends/thirdexp_700vel5.0/thirdexp_700vel5.0_15.csv
Current Position (x),Current Position (y),Current Position (z), ,Planned Position (x),Planned Position (y),Planned Position (z), ,Position Error,,Cartesian linear Velocity(x),Cartesian linear Velocity(y),Cartesian linear Velocity(z),Cartesian Angular Velocity(x),Cartesian Angular Velocity(y),Cartesian Angular Velocity(z), ,Total Linear Velocity, ,Total Angular Velocity, ,MSE, ,Joint 1 Position,Joint 2 Position,Joint 3 Position,Joint 4 Position,Joint 5 Position,Joint 6 Position, ,Joint 1 Velocity,Joint 2 Velocity,Joint 3 Velocity,Joint 4 Velocity,Joint 5 Velocity,Joint 6 Velocity, ,Time Stamp
0.009831691911571539,0.020848163530806242,-0.07818319407743914, ,0.009878851072656,0.02072786207492932,-0.07817979691816271, ,0.00012925930315241065, ,6.2137422874198015e-06,-2.827189961342267e-05,-0.00011066573203812464,-0.0022823651003162247,0.00018946848040438374,0.010093454056028463, ,0.00011438887685653672, ,0.0022902158754598266, ,1.077160859603422e-05, ,0.14329530848123578,-0.1514273461977942,0.09447620778000002,2.9786456471976686,1.3319325997135134,-0.6274755993434589, ,0.0001359141819673139,0.0005088076898374092,0.00010025849806253452,-0.0023339030686881086,0.0,0.008043275932156924, ,0.018717050552368164
0.009834473829299297,0.02085020175087979,-0.07819854711714085, ,0.009898867244139227,0.02072785569749948,-0.0782706697613019, ,0.0001559382712911312, ,0.00011628953960493129,0.00011635566481380842,-0.000800224895734055,0.030518480231302242,-0.015039967506530754,-0.1657522377432915, ,0.0008169588615764991, ,0.034023201763290274, ,1.2963526111070084e-05, ,0.14330303121411,-0.15141962346491997,0.09449305955000001,2.9786456471976686,1.332069236213279,-0.6309358455929186, ,0.0002687108343444957,4.377691676697477e-05,0.0008161658912174782,-0.0023339030686881086,0.0,-0.17145293886934, ,0.03527402877807617
0.009837553114265103,0.020850903660743905,-0.07821921885137059, ,0.009919087092764092,0.020727759798087393,-0.07836165489983488, ,0.00020518340201380585, ,0.0002554184417937678,-0.0001035433212392231,-0.001566884220674743,-0.04120213944886464,-0.03214184175221539,-0.22600754800912315, ,0.0015909387042815641, ,0.0522562368179981, ,1.5324405514292116e-05, ,0.14330303121411,-0.15138100980054883,0.09452417051,2.9786456471976686,1.3312494172146863,-0.636393243681282, ,0.0002687108343444957,0.002057439406271638,0.0008235747307158695,-0.0023339030686881086,-0.08049966224476887,-0.21909906547073754, ,0.0525510311126709
0.009848710456294178,0.02085123704135531,-0.07829083032016247, ,0.009939509576416705,0.020727575061582713,-0.07845275066504889, ,0.000223058206628765, ,0.00038629998295878614,9.083213954667386e-05,-0.0025581816323403694,-0.048738074550220715,0.008062242684284751,0.13521165287211237, ,0.0025887779778212385, ,0.04940040149486251, ,1.698664721633602e-05, ,0.14330303121411,-0.15132695067042926,0.09456176292000001,2.9786456471976686,1.3294731427177355,-0.6363333495156182, ,0.0003808042657830166,0.003111079923702553,0.002360873205869275,-0.0023339030686881086,-0.0206777769060362,0.13961635242034864, ,0.0755620002746582
0.009855185030364467,0.020856247862395767,-0.07833570045324938, ,0.009960133655482865,0.020727302171239977,-0.07854395539294029, ,0.0002664795021902298, ,0.0006171124396999029,0.0005008198148976544,-0.004208721031845456,0.061377936691394755,-0.03122460565315407,-0.3422638925698714, ,0.00428310412833085, ,0.06886383019675354, ,1.884459010146813e-05, ,0.14330303121411,-0.1513037824718066,0.09460713307000002,2.9786456471976686,1.3294731427177355,-0.638211960538851, ,0.0003808042657830166,0.0017570353401659806,0.004264742040160643,-0.0023339030686881086,0.0,-0.35141902162078253, ,0.09155488014221191
0.009871491704701741,0.020861187655403762,-0.07842364029821068, ,0.009980958292845808,0.020726941808679792,-0.07863526742420983, ,0.00027347928941913983, ,0.0012279947836928156,0.0004866498533518686,-0.007099648932756867,-0.21906166764420593,0.015250633381446624,0.37732439630087483, ,0.007221482828127466, ,0.21959188516782216, ,2.0216096366056168e-05, ,0.14331847667985845,-0.15123427787593857,0.09468231789,2.978855337141153,1.3279701412203158,-0.6397634407629694, ,0.0006079574345116437,0.0037948063027348645,0.005882131285081241,0.01170633208213505,-0.14460434946039177,0.4218172146462856, ,0.10995793342590332
0.00989861360681925,0.020880273081707222,-0.07858214072213456, ,0.010001982453883607,0.020726494653890693,-0.07872668510425822, ,0.0002350021314980979, ,0.0007370871620065444,0.00023993874371140266,-0.0032523223467421166,0.04085933399444074,-0.0005418273752115649,-0.10221333994196094, ,0.003343421710201514, ,0.040862926363757913, ,2.067222369713306e-05, ,0.1433339221456069,-0.15111071414995098,0.09485990962000002,2.979274717028122,1.3298830522170317,-0.6343805985027714, ,0.0009456735304624122,0.004348558702845046,0.003524073345132744,0.022889161003088875,0.027252525741562533,-0.08542098670205751, ,0.1335759162902832
0.009905154614589042,0.020880559837692172,-0.07861494770912131, ,0.01002320510646694,0.020725961385230494,-0.07881820678318066, ,0.0002813376109296887, ,0.0006805301113097768,-4.465445797486125e-05,-0.003073660175586988,-0.007064028452339897,-0.005057268340285933,-0.06769299542943068, ,0.003148412636235244, ,0.008687718962235847, ,2.1582167281991086e-05, ,0.14335709034422958,-0.15104893228695718,0.09489361316000001,2.979274717028122,1.3300196887167974,-0.6347370526268898, ,0.0011415320880489247,0.006290827180330544,0.0029302449448123627,0.016007491730475693,-0.012466058745822494,-0.050086063705508506, ,0.14963006973266602
0.009921981909149334,0.020882148310215648,-0.07869299925173268, ,0.010044625220956487,0.020725342679427786,-0.07890983081576336, ,0.0002943557625354032, ,0.0007500601098410463,0.0001024558685350619,-0.00448854022690602,-0.01415041436153448,-0.0017791927680612272,0.003447955946198613, ,0.004551931539679126, ,0.014261828483302487, ,2.2435798691942093e-05, ,0.1434034267414749,-0.15091764582809536,0.09497139056000001,2.979484406971607,1.3300196887167974,-0.6352271250677333, ,0.001243743028623815,0.006975136920048796,0.004394154902068966,0.0,-0.006405098697519035,0.005615607393423571, ,0.168259859085083
0.009929455209477954,0.020882733851748138,-0.078740131192158, ,0.010066241770200584,0.020724639211583396,-0.07900155556147728, ,0.00033473449077907693, ,0.0007333659134210269,4.908268896308465e-05,-0.00511757682283216,-0.009015670989270209,0.00015697624266849865,-0.0002993529476142031, ,0.005170089671457605, ,0.009017037286016492, ,2.3517921278801465e-05, ,0.14341114947434916,-0.150732300239114,0.09507898263,2.9799037868585754,1.3298830522170317,-0.6350340284238959, ,-0.00017381846767365602,0.009415625352029184,0.005932518256983241,0.010971527306351573,0.0,0.004986946988983321, ,0.1846010684967041
0.009948369964156233,0.020885573444315818,-0.07884981601577977, ,0.010088053729532748,0.02072385165517218,-0.07909337938447415, ,0.000324019453063141, ,0.0009555352966490118,0.00021843158809667406,-0.005963732357604549,-0.0077824663776994984,0.0019678226858763992,-0.007660069163594, ,0.006043745833087296, ,0.008027396931712252, ,2.4311137709829378e-05, ,0.1434034267414749,-0.15066279564324597,0.09512564907000001,2.9799037868585754,1.3298830522170317,-0.6350340284238959, ,0.0,0.008638367825162224,0.0059281025381466325,0.010710183413571182,0.0,0.004138428596802703, ,0.20599699020385742
0.009973298930665382,0.0208899266203778,-0.0789838515650344, ,0.010110060076769322,0.020722980682044357,-0.07918530065358226, ,0.00029522244610879323, ,0.0011965948613121998,0.0001698829741137173,-0.006373589592857563,-0.00880523430896034,-0.00024317030932067977,-0.009792510442572861, ,0.006487167624255961, ,0.008808590836072178, ,2.494272619512135e-05, ,0.14344976313872027,-0.15046200458851614,0.09525916694000001,2.9801134768020603,1.3298830522170317,-0.6349523496837554, ,0.0021880025724623107,0.01000743645056886,0.006341087388535033,0.011345922715938497,0.0,0.0027973560064126876, ,0.221466064453125
0.009992633544714503,0.020886684573169077,-0.07907895961944257, ,0.01013225979220698,0.020722026962426966,-0.07927731774230068, ,0.0002931783802873661, ,0.0010254205508233689,-0.00027844495122775133,-0.0045495580230000745,-0.010558525471405258,-0.0021373502402404453,-0.01090161248517437, ,0.004671990700072023, ,0.010772684170187856, ,2.5471140383823456e-05, ,0.14351926773458829,-0.15024576806803783,0.09535249982,2.9801134768020603,1.3298830522170317,-0.6348706709436147, ,0.003542151622782343,0.012009230771762944,0.004445663276583869,0.009385065695143375,0.0,0.0, ,0.23685503005981445
0.010005142409621004,0.020885796329868186,-0.07913132911404648, ,0.010154651858620273,0.02072099116492547,-0.0793694290287943, ,0.0003258916800637634, ,0.0009904522883760762,-4.458361554158472e-05,-0.0051101338464863595,-0.008007758996662381,0.001880546602800694,-0.017491346840961965, ,0.005205425185643305, ,0.00822560977613604, ,2.616647431626484e-05, ,0.14353471320033673,-0.15012992707492448,0.09540435142,2.9805328566890292,1.3298830522170317,-0.6347073134633336, ,0.0010932537867524715,0.010342602321804653,0.005042358822412157,0.018583068317108015,0.0,0.002218199660976655, ,0.25394296646118164
0.010029141101290938,0.020886756599870503,-0.07925023858912575, ,0.010177235261259295,0.0207198739565254,-0.0794616328958908, ,0.00030735850370415557, ,0.0012634981672955989,3.3830876141392394e-05,-0.006412875726052555,-0.01229556669948472,0.001978727232907565,-0.0018935091479558436, ,0.006536248711970339, ,0.01245376694329328, ,2.6652016443682223e-05, ,0.14357332686470786,-0.14991369055444617,0.09552231381000001,2.980952236575998,1.3298830522170317,-0.634298919762631, ,0.0022236938043216988,0.011769451179145617,0.006353734152373355,0.017803832097643545,0.0,0.01757016937350865, ,0.26853489875793457
0.01004920738264984,0.020888002573361437,-0.0793588190827218, ,0.010200008987847196,0.02071867600259358,-0.07955392773107368, ,0.0003331204884760772, ,0.0013004414936466312,0.00011779659571705157,-0.006417270474036745,-0.011253010639140998,0.0015226045301486102,-0.0019075172739100852, ,0.006548769690048978, ,0.01135555203927894, ,2.724598039580284e-05, ,0.14362738599482744,-0.1497283449654648,0.09562990588,2.980952236575998,1.3298830522170317,-0.6342172410224903, ,0.0026655013654588076,0.010745839149693796,0.006384293194388779,0.017803832097643545,0.0,0.017407778727675922, ,0.2866530418395996
0.010065319364116204,0.020888575722509774,-0.07943584612639237, ,0.010222972028577701,0.020717397966879995,-0.07964631192647956, ,0.00031377068002061046, ,0.0012445004985767887,2.2001695972955978e-05,-0.005929082409852211,-0.010038079464011522,0.0004123449965740809,-0.009616020252128583, ,0.006058323513019296, ,0.010046544699289395, ,2.7658973506997934e-05, ,0.14366599965919855,-0.14958933577372877,0.09570638699,2.981161926519483,1.3298830522170317,-0.6341355622823497, ,0.0029179940431370856,0.010973401284032545,0.005882131285081241,0.01709897436132536,0.0,0.00886928190400433, ,0.3027338981628418
0.010093922872150822,0.02089226644093278,-0.07955611416188219, ,0.010246123376112764,0.020716040511519096,-0.0797387838788916, ,0.0002959540456156788, ,0.0013028900027387549,0.00017507904889624732,-0.005969997558910662,-0.009152766070163656,-0.002605842662365824,-0.0018992926647423138, ,0.006113022647266921, ,0.009516487541768027, ,2.7927677987299063e-05, ,0.14375867245368926,-0.14940399018474737,0.09582694196000001,2.9815813064064516,1.3298830522170317,-0.6339722048020686, ,0.004513948619292042,0.009039587615327773,0.005968082248032972,0.008276477542055504,0.0,0.007651353602727515, ,0.31756091117858887
0.010107756583718925,0.02089295141776308,-0.07961727980495263, ,0.010269462025580042,0.020714604297031328,-0.07983134198973621, ,0.0003221474264294602, ,0.001172927062996191,1.7685325285561973e-05,-0.005480795131250103,-0.010158714821325219,-0.0015322644737770477,-0.002073185919526418, ,0.005604925149952866, ,0.010273622354993635, ,2.8312451490254328e-05, ,0.14379728611806036,-0.14929587192450822,0.09588786759000001,2.9817909963499365,1.3298830522170317,-0.6337271685816469, ,0.0036711158145063824,0.010024352598409794,0.005440167868852459,0.009261806331805914,0.0,0.008602758921501667, ,0.3324768543243408
0.010125473327252305,0.020893176146208177,-0.07970089271276477, ,0.010292986974570643,0.020713089982324656,-0.07992398466507718, ,0.0003320570246911442, ,0.0012666438068163338,3.487359784045416e-05,-0.005354598864992068,-0.009218175242338754,0.002303589962984699,-0.010009887213803283, ,0.005502484139563407, ,0.009501646021305276, ,2.8712684450248396e-05, ,0.14384362251530572,-0.14914141726702373,0.09597083015,2.982000686293421,1.3298830522170317,-0.6334821323612252, ,0.0031815143035115946,0.009890151415148606,0.005334498164768922,0.026407456023492048,0.0,0.017611275252300242, ,0.3490450382232666
0.01013943987464597,0.020894264012580578,-0.0797713265338003, ,0.010316697223136488,0.020711498224696197,-0.08001671031561153, ,0.00035360529010588625, ,0.001208999698106438,0.00011567660796788767,-0.005436488054918585,-0.009245651358147295,0.0017857602884896345,-0.0034423337497039123, ,0.00557049941378014, ,0.009416528240039777, ,2.9183927668335776e-05, ,0.14388995891255107,-0.14902557627391036,0.09604082981,2.982000686293421,1.3298830522170317,-0.6333187748809441, ,0.0029356242830041674,0.008941920114842931,0.005427193022146509,0.020733662961286762,0.0,0.018509308589876105, ,0.364055871963501
0.010174464665775011,0.020897740864631302,-0.07990154498458156, ,0.010340591773787955,0.020709829679833716,-0.0801095173566647, ,0.0003258240889478035, ,0.001757564531525627,0.00018728289577056264,-0.005904470800512401,-0.0032419465806744633,0.006510861805255623,-0.04886657128159748, ,0.006163350014369511, ,0.00727334392853192, ,2.948330558270915e-05, ,0.14397490897416754,-0.14880933975343208,0.0961717551,2.9830491360108433,1.3298830522170317,-0.6330737386605224, ,0.004214324569708001,0.00974386780929667,0.005965847011235956,0.0633512123322423,8.341365551552392e-05,0.014822702589595463, ,0.38070201873779297
0.010185804898975937,0.020897960396353547,-0.07995373801670387, ,0.010364669631491548,0.02070808500181705,-0.08020240420818577, ,0.000360388863277407, ,0.0016916385083292737,4.0646230026615137e-05,-0.005261167773557197,-0.004798776256012524,0.002919616282372817,-0.04054954235310701, ,0.005526588396144104, ,0.00561715308324288, ,3.0051901101502454e-05, ,0.1440212453714129,-0.1487166669589414,0.0962236067,2.9830491360108433,1.3298830522170317,-0.6329103811802412, ,0.005799764745812458,0.0101247352227699,0.005299005828343314,0.051752519166304224,0.0,0.011795626858903748, ,0.39400291442871094
0.010210707481259447,0.020896788791498203,-0.08006899316431142, ,0.010388929803667242,0.020706264843119607,-0.08029536929474235, ,0.00034541094878286585, ,0.001650107129049576,0.00015428662123399004,-0.006743694580531305,-0.007621519698676727,1.5483452722837247e-05,-0.02521514591206201, ,0.006944355585244705, ,0.007621534511326925, ,3.0514437400933493e-05, ,0.1441216408987778,-0.14849270770558887,0.09633768022000001,2.9830491360108433,1.3298830522170317,-0.6326653449598196, ,0.004977465227318104,0.010987375267680326,0.006755221170483461,0.030107783128435203,4.781863210144884e-05,0.005944261872698177, ,0.4078528881072998
0.010224515554248076,0.02089923085078553,-0.08012968045707206, ,0.010413371300186307,0.02070436985461021,-0.08038841104551647, ,0.0003749384189451895, ,0.0013496639196973904,0.00020653481644920162,-0.007153510006764339,-0.012860711934197975,-0.002582908112035197,0.011965922586238627, ,0.00728264750921093, ,0.01311751908849881, ,3.107113067641316e-05, ,0.14416025456314893,-0.1484077576439724,0.09639860585000001,2.9832588259543282,1.3298830522170317,-0.6325019874795386, ,0.003812845230515673,0.010490781168675979,0.007126985020134229,0.0,0.0,0.0137543052671845, ,0.4225039482116699
0.010247847424435453,0.020900913085970772,-0.0802214354098665, ,0.010437993133368776,0.020702400685554064,-0.08048152789429888, ,0.00037843184882244065, ,0.001631363019926063,0.00011047134841670424,-0.00760905524079811,-0.01469855015591483,0.0005846975261361289,0.005476447436672913, ,0.007782754710198727, ,0.014710174111014057, ,3.1605545505265565e-05, ,0.14425292735763962,-0.14812973926050033,0.09656323468000001,2.9843072756717506,1.3297464157172665,-0.6318188183948583, ,0.0037559468607933104,0.012669818632639624,0.0071333683475145555,0.08389212782951845,0.0,0.035083754216060144, ,0.43596887588500977
0.010278697871043737,0.02090190671447569,-0.08036486861857414, ,0.010462794317980799,0.020700357983614817,-0.08057471827948541, ,0.00034431130227027487, ,0.001866247608286075,2.8229201516251985e-05,-0.007093355742717662,-0.010429758515027959,0.00456331552023896,-0.02747404986885252, ,0.0073348055677023485, ,0.011384361785406395, ,3.196995561772832e-05, ,0.14429154102201075,-0.1479984528016385,0.09663193805,2.9843072756717506,1.3297464157172665,-0.6317371396547177, ,0.004863560325278442,0.01339406373443483,0.007088923684913219,0.04959751036127312,0.0,0.023478288361465358, ,0.4487769603729248
0.010278697871043737,0.02090190671447569,-0.08036486861857414, ,0.010487773871232555,0.0206982423948558,-0.08066798064407125, ,0.00042079547162742766, ,0.001866247608286075,2.8229201516251985e-05,-0.007093355742717662,-0.010429758515027959,0.00456331552023896,-0.02747404986885252, ,0.0073348055677023485, ,0.011384361785406395, ,3.2607159581765386e-05, ,0.14429154102201075,-0.1479984528016385,0.09663193805,2.9843072756717506,1.3297464157172665,-0.6317371396547177, ,0.004863560325278442,0.01339406373443483,0.007088923684913219,0.04959751036127312,0.0,0.023478288361465358, ,0.46532392501831055
0.01032838254877211,0.020900512937666774,-0.08059372129340316, ,0.01051293081277575,0.020696054563741597,-0.08076131343564677, ,0.00032241032017708143, ,0.0015357353300214074,-3.6789487908505444e-05,-0.007394164625080113,-0.016579852324708988,-0.004089988021491435,0.014411964802373462, ,0.007552053162755322, ,0.017076869825070073, ,3.2837695325297066e-05, ,0.1444691638781179,-0.14757370249355617,0.09685360364000001,2.984516965615235,1.3297464157172665,-0.6312470672138742, ,0.005602982224216805,0.013630701171857338,0.007343850401106501,0.0,0.0,0.017147427332381414, ,0.4784219264984131
0.010346516036982245,0.020900187475765913,-0.08066272631128076, ,0.010538264164700906,0.020693795133139587,-0.08085471510639278, ,0.00034091764552008827, ,0.0017521472940047102,-4.196191748313382e-05,-0.007391798853879058,-0.010539021589242971,0.0006545205582376866,-0.02864825399087225, ,0.007596740830028009, ,0.010559325317098099, ,3.312211744499784e-05, ,0.14452322300823747,-0.14742697056894588,0.09692878846000001,2.9849363455022044,1.3298830522170317,-0.6310317701570083, ,0.004698657718592068,0.01434138454865812,0.0073472377859778604,0.032904724270178314,0.0,0.00574361510185609, ,0.4916069507598877
0.010367522771329572,0.020899289201643065,-0.08073003996841842, ,0.01056377295153524,0.02069146474432133,-0.08094818411307483, ,0.0003595719762991965, ,0.0021490747874444768,-0.00015611004415197168,-0.0064463292932034275,-0.010782094208936098,0.013738461778692777,-0.044638839939336865, ,0.006796915046131389, ,0.017464217029207224, ,3.345637552534842e-05, ,0.14456955940548283,-0.14728023864433562,0.09699619554000001,2.9857751052761423,1.3298830522170317,-0.6307867339365866, ,0.0046330813835944815,0.015123018575055103,0.006454137568881686,0.09402486996424615,-0.00010421020302479571,0.05063276765570196, ,0.5062758922576904
0.010393889160121557,0.02089325232481304,-0.0808543423596226, ,0.010589456200240101,0.020689064036964643,-0.0810417189170401, ,0.00033918917781205457, ,0.0014337066884454765,-0.00029339768858011267,-0.005997920901486799,-0.019298892078922637,0.0009121709510368442,0.021773298105499585, ,0.006173868496546526, ,0.01932043694007156, ,3.370221117349023e-05, ,0.14466995493284773,-0.1469867747951151,0.09711804680000001,2.9857751052761423,1.3298830522170317,-0.6301333040154622, ,0.005088573726621676,0.014465997188791277,0.005899559822222223,0.015950684943431628,0.0,0.040301527108910315, ,0.5205278396606445
0.010407170385620884,0.020890319840272998,-0.0809152351706526, ,0.01061531294020855,0.02068659364915412,-0.08113531798421084, ,0.0003650535971632007, ,0.0014004406557601651,-0.00024793962441007597,-0.00592873026358449,-0.015268804806283091,-0.001576805023968413,0.00522953486134667, ,0.006096929606449561, ,0.01535000674172398, ,3.4021394811534646e-05, ,0.1447240140629673,-0.14684004287050484,0.09717897243000001,2.9857751052761423,1.3300196887167974,-0.6301630431790184, ,0.005186385197375462,0.0137233465738931,0.0058411483388338846,0.012338296540815185,9.768457511525003e-05,0.019675326421319663, ,0.5336840152740479
0.010428136522240925,0.020887604990542718,-0.08098166248271219, ,0.010641342203262908,0.020684054217383705,-0.08122897978508115, ,0.00038477971324478503, ,0.0018793246020462518,-0.00017593658004505454,-0.006288002495365344,-0.01361580975284063,0.0021401300681974595,-0.01188481212503933, ,0.006565195352902688, ,0.013782975807282197, ,3.45005776532472e-05, ,0.14479351865883533,-0.1466778654801461,0.09724508322000001,2.9864041751065957,1.3300196887167974,-0.6299180069585967, ,0.0070951313180231766,0.014081754200693096,0.006266251581431944,0.042736577959313016,9.768457511525003e-05,0.03263771527821661, ,0.5450048446655273
0.010446264857547865,0.020886791090967298,-0.08104125166357973, ,0.0106675430236524,0.02068144637655752,-0.08132270279471109, ,0.0004127289882546899, ,0.0022381779809761727,-1.6286405336597308e-05,-0.007032060276723097,-0.007409276253872779,0.005130771462182516,-0.05086440316818802, ,0.007379673275761759, ,0.009012334503774491, ,3.504762220494675e-05, ,0.14486302325470335,-0.1465543017541585,0.09730471256,2.9868235549935647,1.3300196887167974,-0.629672970738175, ,0.007120119658119874,0.014004861505087188,0.007070045059920108,0.07076364554295589,9.768457511525003e-05,0.020841954233741643, ,0.5581350326538086
0.01048603546406183,0.02088846077595837,-0.0812182671733266, ,0.010693914438050624,0.020678770759991666,-0.08141648549272273, ,0.00035563193440266155, ,0.002087398248360182,0.00017587651629055007,-0.00878176262018177,-0.012873573821103858,0.001468984413593266,-0.007905548208136052, ,0.009028151456054637, ,0.01295711256052754, ,3.5392305264221855e-05, ,0.1450097551793136,-0.14625311517206377,0.09748230429000002,2.9870332449370496,1.3301563252165627,-0.6292943162010278, ,0.006139263610795907,0.014081754200693096,0.008800448353591162,0.033689686390199314,0.0012234901276733999,0.02747394924334466, ,0.5695688724517822
0.010506699583079645,0.02089038331327326,-0.08130766592205084, ,0.010720455485553145,0.020676027999415772,-0.08151032636329462, ,0.0003642952660498462, ,0.0019473249793460065,0.00015247105292471197,-0.009005906444058662,-0.02073512528941013,-0.0034004245259913147,0.041373950922032894, ,0.009215295593539159, ,0.021012097669711214, ,3.574872461957444e-05, ,0.14507925977518163,-0.14611410598032773,0.09757174830000001,2.987242934880534,1.3301563252165627,-0.6290492799806062, ,0.007627561221341194,0.014127875771694326,0.00899424704686618,0.0,0.0012234901276733999,0.04412484333250302, ,0.5806539058685303
0.010531689274297673,0.02089227702905996,-0.08139248306766561, ,0.010747165207675172,0.020673218724974175,-0.08160422389515753, ,0.0003731629623647144, ,0.002149021921844129,0.00010327110569356007,-0.008346295465365477,-0.012033790774811603,-0.0027086702081581893,-0.010707818062254312, ,0.008619141960602466, ,0.01233486822820666, ,3.611675423043579e-05, ,0.14516420983679812,-0.1459750967885917,0.09765730344000001,2.9878720047109875,1.3301563252165627,-0.6286408862799033, ,0.008372800666101776,0.014025560384048298,0.008370368638991068,0.02660883998971882,0.0012234901276733999,0.017529833605565787, ,0.592473030090332
0.010556154107521509,0.02089399602592671,-0.08146533435653237, ,0.01077404264834889,0.020670343565228184,-0.0816981765815902, ,0.0003895014007295379, ,0.0027911884841522396,0.00013184456591608753,-0.008129631052689752,-0.004364375623338645,0.0048867607857658625,-0.06680616874271673, ,0.008596453757014177, ,0.006551959252666685, ,3.6517587430190885e-05, ,0.14524143716554036,-0.1458515330626041,0.09773119197,2.988710764484926,1.3301563252165627,-0.6283958500594816, ,0.009987164396033565,0.014424219723129773,0.0082489961263594,0.08761161350769296,0.0012234901276733999,0.021287379292732368, ,0.6043820381164551
0.010580271421732207,0.02089316031673876,-0.08155644132897902, ,0.010801086853921279,0.020667403147156697,-0.08179218292041289, ,0.00039408102294112796, ,0.0018820880781579355,-0.00011079809655818013,-0.007982558890918746,-0.016182563781587087,-0.005615718721966383,0.02398340291589427, ,0.008202181307379828, ,0.01712926253219962, ,3.6915454990333964e-05, ,0.1453495554257795,-0.14567391020649692,0.09782322856,2.9889204544284103,1.3302929617163284,-0.6282622317427565, ,0.008601756156204874,0.015432906417054932,0.007956449310689312,0.0,0.003886055270028858,0.026116461026840405, ,0.6153998374938965
0.010595592877536898,0.020891978205291567,-0.0816298693891831, ,0.010828296873151509,0.02066439809615839,-0.08188624141398443, ,0.0004143313538085286, ,0.0019600150175269893,-0.00016586858768328203,-0.007444376954565963,-0.01391853109031388,-0.004526115128120371,0.009578247543223766, ,0.007699864901346267, ,0.014635955828082543, ,3.73546751843514e-05, ,0.14542678275452176,-0.14553490101476088,0.0978958208,2.988710764484926,1.3302929617163284,-0.6279355167821943, ,0.009138033992834872,0.01535549216156485,0.007432949846010267,0.012557159861926615,0.003886055270028858,0.023950338925465532, ,0.6270599365234375
0.010619238244782319,0.02089064287860892,-0.08170895700556904, ,0.01085567175720862,0.020661329036052882,-0.08198035056919661, ,0.0004267787606764475, ,0.002063395584553358,-0.00017551059673951255,-0.007821096378230993,-0.01436913708015723,-0.00413595126716301,0.006912134362924621, ,0.008090608992251455, ,0.014952530356043204, ,3.781129406387071e-05, ,0.14552717828188666,-0.14537272362440218,0.09797489449,2.9891301443718947,1.3302929617163284,-0.6275271230814915, ,0.009330413664476133,0.0161581715577168,0.007808240941176472,0.016023885187440263,0.003886055270028858,0.0248143356262667, ,0.6431288719177246
0.010635469905018265,0.020889275701762088,-0.08175962761936624, ,0.01088321055966902,0.020658196589082575,-0.08207450889746923, ,0.0004625183321591777, ,0.0024179932348130477,-0.00018680403943481213,-0.008087761871272716,-0.009370053948437524,0.0012831980054275939,-0.030445725188482133, ,0.008443546596020157, ,0.009457508842847037, ,3.834744385712838e-05, ,0.14558896014488046,-0.1452568826312888,0.09802674609,2.9895495242588637,1.3304295982160936,-0.6274751835049066, ,0.00921316175573005,0.017409088526595264,0.008114524462557312,0.05277376295124683,0.0046206108115651795,0.023467837999323234, ,0.6560399532318115
0.010701813459328084,0.020879382220632556,-0.08198967013277898, ,0.010910912336513923,0.020655001375913768,-0.08216871491474574, ,0.00035514241913156395, ,0.0019139313167609673,-0.0006395263585583648,-0.007071021776937482,-0.02230765826065071,-0.005469784130969725,0.042131575637724114, ,0.007353330947162204, ,0.022968459631335578, ,3.857805638939345e-05, ,0.1459133149255979,-0.1447240140629673,0.09825618942000001,2.990178594089317,1.3305662347158589,-0.6266064565269165, ,0.010490840023875998,0.019948905099531383,0.006967984041994751,0.0,0.005685207689764132,0.04502656891324422, ,0.6686539649963379
0.010727046933888693,0.020875850490826277,-0.08207054076870181, ,0.010938776146127331,0.02065174401563857,-0.08226296714148856, ,0.0003634293335438407, ,0.0021930934494031277,-0.0002619575858486511,-0.0072190211878839705,-0.008811778614192961,-0.004143772010070245,-0.011933970636559417, ,0.007549340869620093, ,0.009737467289335219, ,3.882187607299158e-05, ,0.14602915591871127,-0.1445309457411117,0.09833785569,2.9905979739762865,1.3307028712156246,-0.6263911594700506, ,0.010636688325720303,0.016282934378598284,0.007246957015468609,0.02759373589386647,0.006500535329257495,0.016723292003248857, ,0.6877849102020264
0.010777583944224503,0.02086995369843813,-0.08221158992891711, ,0.010966801049293057,0.020648425125776214,-0.08235726410267388, ,0.0003257283933829971, ,0.0024192336711894597,-0.00015719499721669045,-0.007113937934210806,-0.0029710539301005755,0.0037803968145250196,-0.04755251213087529, ,0.007515684583241256, ,0.004808174633970114, ,3.90604291242642e-05, ,0.14622994697344108,-0.14419114549464582,0.09847915130000001,2.992065803580678,1.3307028712156246,-0.6257377295489261, ,0.009114240955898356,0.015528872779982128,0.007201090198915011,0.0690251459240578,0.006500535329257495,0.021665402015158916, ,0.6979148387908936
0.010796221496395836,0.020867010326265117,-0.08228096073169278, ,0.010994986109192782,0.020645045322274517,-0.08245160432778717, ,0.0003433585169831874, ,0.001731421890533221,-0.000360283334594746,-0.007058392571262701,-0.016968658409607314,-0.011651889963637377,0.043512967586030404, ,0.007276574161943299, ,0.020584020268811787, ,3.933636821853661e-05, ,0.146330342500806,-0.14403669083716134,0.09854785467,2.992065803580678,1.3307028712156246,-0.6254926933285044, ,0.010916575288303452,0.016141680823009145,0.007010920563380283,-0.025170599210623416,0.006500535329257495,0.020575901845433238, ,0.7077059745788574
0.010796221496395836,0.020867010326265117,-0.08228096073169278, ,0.011023330391403165,0.02064160521951174,-0.08254598635081839, ,0.0004154810358305982, ,0.001731421890533221,-0.000360283334594746,-0.007058392571262701,-0.016968658409607314,-0.011651889963637377,0.043512967586030404, ,0.007276574161943299, ,0.020584020268811787, ,3.978390643928319e-05, ,0.146330342500806,-0.14403669083716134,0.09854785467,2.992065803580678,1.3307028712156246,-0.6254926933285044, ,0.010916575288303452,0.016141680823009145,0.007010920563380283,-0.025170599210623416,0.006500535329257495,0.020575901845433238, ,0.7174489498138428
0.010837478854086367,0.020861052100160912,-0.08243819814704599, ,0.011051832963893825,0.020638105430297645,-0.08264040871025712, ,0.0003695159182885479, ,0.00210553697017155,-0.0003611378420880337,-0.007514692285055563,-0.011327712283938526,-0.004369421700808757,0.004663432868558109, ,0.007812445623031293, ,0.012141206184863697, ,4.010531302319682e-05, ,0.1465465790212843,-0.14368916785782124,0.09870600205,2.992065803580678,1.3309761442151555,-0.6250620992147727, ,0.010110185926527715,0.01763228196924392,0.007513590339622642,0.01689434103855454,0.00800776821105939,0.02293156879300263, ,0.7285120487213135
0.010862685888647606,0.020860612060991043,-0.08251409841661557, ,0.011080492897024643,0.020634546565875506,-0.08273486994908803, ,0.00038377802246901453, ,0.0024951529708915248,0.00011976108692989874,-0.008753336549667702,-0.0038074886600472577,-0.002008146661945962,-0.023198966857071058, ,0.009102803514183964, ,0.00430459888067562, ,4.0451913856925235e-05, ,0.14664697454864922,-0.14354243593321095,0.09878248316,2.9926948734111316,1.3309761442151555,-0.624817062994351, ,0.010239293702343062,0.014512454742081479,0.008878936187290971,0.03886883683857728,0.00800776821105939,0.015985592070324357, ,0.739750862121582
0.010892929768565091,0.020862922623266365,-0.0826114254532747, ,0.011109309263543454,0.020630929235923086,-0.08282936861478589, ,0.0003848899053854145, ,0.003156648408506442,0.00022286364929225842,-0.009821980815153045,0.001524823675348827,0.006625657202813511,-0.07448696917438159, ,0.01031917654245418, ,0.0067988476376325225, ,4.07912418336409e-05, ,0.14674737007601413,-0.14338798127572647,0.09888100120000001,2.99353363318507,1.3309761442151555,-0.6245720267739294, ,0.01018649564394589,0.016073330209768085,0.010018120452830188,0.09610094128544795,0.007513329467883976,0.02115310278908813, ,0.7496750354766846
0.010917593818257774,0.02086321571355725,-0.08270877222335198, ,0.011138281138583471,0.020627254048554793,-0.08292390325931095, ,0.000388152242472012, ,0.0026377304282854236,8.862750047956575e-06,-0.00915566033900128,-0.01052462048104659,-0.0013560827038907979,-0.021709950778076012, ,0.009528054187702873, ,0.010611622507171107, ,4.112866487239423e-05, ,0.14684776560337906,-0.14321808115249354,0.09897951924000001,2.9937433231285544,1.3311127807149208,-0.6242750509769229, ,0.010552582046064933,0.016403965697229177,0.009223399837869139,0.04467021186812566,0.003706907226998093,0.024320693241282675, ,0.7597310543060303
0.01093772963504103,0.020862805104550602,-0.08279201744955633, ,0.011167407599661039,0.020623521610322687,-0.0830184724391038, ,0.0004016097861517527, ,0.0025485575185595208,9.64128908372097e-05,-0.009999318414086151,-0.014016724604550192,-0.002076922703265865,-0.00021759411808322716, ,0.010319438435167303, ,0.014169759228343246, ,4.148791730143689e-05, ,0.14694043839786974,-0.14307134922788325,0.0990624818,2.9937433231285544,1.3311127807149208,-0.6240300147565012, ,0.00963363414657218,0.01649234298895912,0.010049723356466879,0.029026718184513987,0.003706907226998093,0.030643505975608464, ,0.7701840400695801
0.010958361925988971,0.02086393106226667,-0.08287480474939449, ,0.011196687726673035,0.020619732526218043,-0.08311307471508099, ,0.00041617867416320043, ,0.00230575879676568,6.814061157012468e-05,-0.010111395978515122,-0.023386912214124294,-0.0035146087053469673,0.055863280652292936, ,0.01037118582449178, ,0.023649524975516468, ,4.187064309172197e-05, ,0.14701766572661198,-0.14294006276902144,0.09914544436000002,2.9939530130720384,1.3311127807149208,-0.6236216210557984, ,0.009580442856599128,0.01646944490775265,0.010119956493011438,0.0,0.003614900973060275,0.058907992122818366, ,0.7803268432617188
0.01099887074377998,0.020865313141175387,-0.08298998996939322, ,0.011226120601894561,0.020615887399673367,-0.0832077086526308, ,0.0004015683298862566, ,0.0032485992530576968,5.219016513224634e-05,-0.008519830663509937,0.0057927037310159385,0.008557684576161299,-0.08206321154488165, ,0.009118313191330276, ,0.010333892632007383, ,4.221002113085498e-05, ,0.14716439765122225,-0.14273154898141738,0.09926470304000001,2.995211152732946,1.3313860537144517,-0.6232727056822074, ,0.011757767508173804,0.01609240996412935,0.008761722508250826,0.11244131096841202,0.010915415193522,0.029192664649808586, ,0.7899868488311768
0.011024405889552386,0.020862979359693327,-0.0830838293481058, ,0.011255705309976376,0.02061198683256334,-0.08330237282160692, ,0.00040528745400456647, ,0.0027726648362230624,-0.0003209887821019039,-0.00922160755061571,-0.00668188551993347,-0.0022122889994066414,-0.03335934503979379, ,0.009634767766263793, ,0.007038590059992193, ,4.254861206007421e-05, ,0.14728023864433562,-0.1425384806595618,0.09935933221000001,2.99542084267643,1.3315226902142172,-0.6232207661056226, ,0.011678186261195024,0.020372894280478913,0.009277117949912638,0.047296407321323015,0.009475490966190821,0.014676963069641048, ,0.8000450134277344
0.011024405889552386,0.020862979359693327,-0.0830838293481058, ,0.01128544093794264,0.020608031425206626,-0.08339706579632525, ,0.00048088961132495753, ,0.0027726648362230624,-0.0003209887821019039,-0.00922160755061571,-0.00668188551993347,-0.0022122889994066414,-0.03335934503979379, ,0.009634767766263793, ,0.007038590059992193, ,4.3139243229731896e-05, ,0.14728023864433562,-0.1425384806595618,0.09935933221000001,2.99542084267643,1.3315226902142172,-0.6232207661056226, ,0.011678186261195024,0.020372894280478913,0.009277117949912638,0.047296407321323015,0.009475490966190821,0.014676963069641048, ,0.8085958957672119
0.01104956288249749,0.020860888693244498,-0.08317496823770236, ,0.011315326575188194,0.020604021776367477,-0.08349178615555819, ,0.0004868105857651499, ,0.0024823235915059066,-0.00019933573118726083,-0.009393466677427154,-0.0037895679265998344,-0.010046108727703744,0.005455109140976333, ,0.009717966935867248, ,0.010737087710522217, ,4.372990634436477e-05, ,0.147396079637449,-0.1423531350705804,0.09945136880000001,2.995630532619915,1.3316593267139827,-0.623168826529038, ,0.012883103659852128,0.01859266096365023,0.009492736305125149,0.0,0.016010275140177267,0.005650605842457696, ,0.8184449672698975
0.01104956288249749,0.020860888693244498,-0.08317496823770236, ,0.011345361313476455,0.020599958483256874,-0.0835865324825302, ,0.0005700582548077997, ,0.0024823235915059066,-0.00019933573118726083,-0.009393466677427154,-0.0037895679265998344,-0.010046108727703744,0.005455109140976333, ,0.009717966935867248, ,0.010737087710522217, ,4.448725273032592e-05, ,0.147396079637449,-0.1423531350705804,0.09945136880000001,2.995630532619915,1.3316593267139827,-0.623168826529038, ,0.012883103659852128,0.01859266096365023,0.009492736305125149,0.0,0.016010275140177267,0.005650605842457696, ,0.8282489776611328
0.011116623316276554,0.020858376272946226,-0.0833771126444381, ,0.011375544246936743,0.020595842141534565,-0.0836813033649133, ,0.00047801277484313826, ,0.0033409811429979666,-0.0002741720136223162,-0.010096343031079251,0.0035957645499072825,0.005010949734325405,-0.07353144641247823, ,0.01063830192710022, ,0.006167579349099276, ,4.5032191986597794e-05, ,0.14763548435654994,-0.14195155296112072,0.09965488633000001,2.9975177421112758,1.3316593267139827,-0.6225153966079136, ,0.01204759958328696,0.022069056176388553,0.010263409484536084,0.09269020677753011,0.015591975200506461,0.01827325531245009, ,0.8363499641418457
0.011145583212151148,0.020854167567189566,-0.08348420602912897, ,0.011405874472062014,0.02059167334531012,-0.08377609739482172, ,0.0004710152076866151, ,0.0029320480854796195,-0.00026136133774549877,-0.01090696131799866,-0.00815599008768816,-0.004197247521613165,-0.01155405046662726, ,0.011297212971204531, ,0.00917261722268015, ,4.555087183417928e-05, ,0.14776677081541176,-0.14171987097489397,0.09976118211000001,2.99772743205476,1.3316593267139827,-0.6220253241670702, ,0.01224792740816608,0.02210504112706051,0.01097781634734666,0.030495356200036263,0.013144885481267873,0.019796820751912844, ,0.8444888591766357
0.011173897356510221,0.020850742494838797,-0.08359921919100637, ,0.011436351087706232,0.02058745268714491,-0.0838709131688076, ,0.00046045749144481155, ,0.0030511643050148375,-0.00034425751917521556,-0.011458849913014645,-0.019918081913967794,-0.0040652123677892135,0.0358247842132192, ,0.01186310912807857, ,0.020328692559138304, ,4.603668213120207e-05, ,0.14789805727427358,-0.14148818898866725,0.09987525563,2.99772743205476,1.3316593267139827,-0.6215352517262268, ,0.013821284817720766,0.023700534854762933,0.011492649004329005,0.01910405954057784,0.011343786057469451,0.05734562992624772, ,0.852855920791626
0.011225578938253076,0.020849222890018382,-0.08375240475516402, ,0.011466973195082112,0.02058318075805305,-0.08396574928785595, ,0.0004178103551137077, ,0.004497053797523605,-3.626621187161408e-05,-0.01219670276835175,0.0014473827396199465,0.009187276792001216,-0.12568324871505818, ,0.01299939869822694, ,0.009300575344676466, ,4.642434110735434e-05, ,0.14810657106187763,-0.14118700240657248,0.10003210672000001,2.9989855717156675,1.3319325997135134,-0.6212680150927763, ,0.015644072132949355,0.023448713011729867,0.012434669414519907,0.15178313658288026,0.0072725668948713535,0.025737871793284198, ,0.8661789894104004
0.011243443642031887,0.02084921928176304,-0.08379971691194694, ,0.011497739897758583,0.02057885814750362,-0.08406060435737997, ,0.0004536782866517053, ,0.004293026021827153,-7.605662799508705e-05,-0.01179290251969094,-0.004016507260337709,0.011185068286571457,-0.08320850912872711, ,0.01255023533140634, ,0.011884353371514627, ,4.687742205032967e-05, ,0.14816835292487143,-0.1410943296120818,0.10008136574000001,2.999614641546121,1.332069236213279,-0.6212160755161916, ,0.015164100600586573,0.023038830191422863,0.012021744543396226,0.14002984567403037,0.00877952037787353,0.05705052705764987, ,0.8757219314575195
0.011291015345558285,0.02084214472768206,-0.08396174199844299, ,0.011528650301658335,0.020574485443421626,-0.08415547698721651, ,0.0004069952219456118, ,0.002401574114348918,-0.0008362332639107033,-0.009156141591382052,0.009223265969957168,-0.011054296994965821,0.055642246413150034, ,0.00950272451141344, ,0.014396737576736386, ,4.72268311833134e-05, ,0.14840003491109818,-0.140723638434119,0.10024729086,3.00003402143309,1.3326157822123406,-0.6210083172098526, ,0.015276391107287634,0.025366731237228223,0.009347894084507044,-0.029627037143602396,0.04394040095380103,0.02358291217250872, ,0.8846168518066406
0.011318509078387492,0.020832543516160026,-0.08406116592196253, ,0.01155970351505542,0.020570063232189705,-0.08425036579162085, ,0.0004035681434794185, ,0.003081364079556743,-0.0007474576264399644,-0.008892639096234453,0.01389573957795493,-0.0030791007917129096,-0.03990989915919314, ,0.009441002467428095, ,0.014232792575380761, ,4.756237023654557e-05, ,0.1485699350343311,-0.14044562005064692,0.10034710519000001,2.9998243314896054,1.3328890552118715,-0.6207410805764021, ,0.015390357048081537,0.02492041532522867,0.009112592402745997,0.04978849727633931,0.033327682871846634,0.007148150952975205, ,0.8927409648895264
0.011318509078387492,0.020832543516160026,-0.08406116592196253, ,0.011590898648572967,0.02056559209864984,-0.0843452693892623, ,0.0004755774567704835, ,0.003081364079556743,-0.0007474576264399644,-0.008892639096234453,0.01389573957795493,-0.0030791007917129096,-0.03990989915919314, ,0.009441002467428095, ,0.014232792575380761, ,4.803412739048952e-05, ,0.1485699350343311,-0.14044562005064692,0.10034710519000001,2.9998243314896054,1.3328890552118715,-0.6207410805764021, ,0.015390357048081537,0.02492041532522867,0.009112592402745997,0.04978849727633931,0.033327682871846634,0.007148150952975205, ,0.9008259773254395
0.0113492675963858,0.020825816641330097,-0.08414176163993686, ,0.011622234815180457,0.020561072626104484,-0.08444018640321937, ,0.000483381666465013, ,0.0035720874811119665,-0.0006672398016622864,-0.008985754399690979,0.0034632265969500847,0.007125987452933026,-0.05986027908739347, ,0.009692718919746149, ,0.007922977789823168, ,4.8607444628487664e-05, ,0.14870122149319293,-0.14022166079729442,0.10042747517000002,3.0006630912635437,1.3328890552118715,-0.6201693293954181, ,0.015020092047874451,0.024732067124959806,0.009180871193083574,0.10650540955223443,0.021004998491209625,0.04556700492600252, ,0.9072420597076416
0.011378787379821658,0.02082124272852861,-0.08421394114519735, ,0.011653711130191338,0.02055650539631867,-0.08453511546097484, ,0.0004988204734151333, ,0.003973041766254393,-0.0005739868083575125,-0.009620317718577026,0.002063173357184346,0.004511346687117583,-0.08228868821607904, ,0.010424252238838878, ,0.00496073087653353, ,4.920195770446654e-05, ,0.14883250795205474,-0.14003631520831303,0.10050006741,3.0015018510374816,1.3328890552118715,-0.6196792569545748, ,0.017393134449866343,0.024751419290159303,0.009826533942011105,0.11755165092702607,0.015883068591537968,0.034583072423495224, ,0.9156570434570312
0.011424010628189473,0.02081377439188256,-0.08434633048715999, ,0.011685326711260966,0.02055189098952078,-0.08463005519441139, ,0.00046622818577312525, ,0.003973041766254393,-0.0005739868083575125,-0.009620317718577026,0.002063173357184346,0.004511346687117583,-0.08228868821607904, ,0.010424252238838878, ,0.00496073087653353, ,4.972409017531006e-05, ,0.1490410217396588,-0.13971968316046984,0.10063228899000001,3.00234061081142,1.3328890552118715,-0.6187807908130286, ,0.017263405777418733,0.02754628201987541,0.012463858779342725,0.048257620350244036,0.0115691278554024,0.05408086137862312, ,0.9227650165557861
0.011424010628189473,0.02081377439188256,-0.08434633048715999, ,0.011717080678383604,0.020547229984404707,-0.08472500423980579, ,0.0005480235272516733, ,0.0037717815974161184,-0.0005398240918245755,-0.012401341773490332,-0.01858677339881682,-0.0037730639201256277,0.0035185035299385636, ,0.012973473869848332, ,0.018965860470940038, ,5.039548857252244e-05, ,0.1490410217396588,-0.13971968316046984,0.10063228899000001,3.00234061081142,1.3328890552118715,-0.6187807908130286, ,0.017263405777418733,0.02754628201987541,0.012463858779342725,0.048257620350244036,0.0115691278554024,0.05408086137862312, ,0.9292459487915039
0.011463423536488075,0.020809721348217274,-0.08448680167392043, ,0.011748972153890395,0.020542522958131103,-0.08481996123782598, ,0.0005137395133593995, ,0.003428165234871409,-0.0003698479945697271,-0.012934283980866207,-0.03256950065921019,-0.006402992220419325,0.031492330268313086, ,0.013385992922243772, ,0.033192925760803585, ,5.0991209105097455e-05, ,0.14921092186289175,-0.13943394204412352,0.10077358460000001,3.002759990698389,1.333025691711637,-0.6180754213153192, ,0.014975057844164554,0.02564089207199967,0.01287696970088925,0.021759164391237488,0.0,0.0578298001528011, ,0.9357249736785889
0.0115064183937039,0.02080734953776529,-0.08462659530388689, ,0.011781000262446792,0.02053777048632894,-0.08491492483352431, ,0.0004808346756179274, ,0.003428165234871409,-0.0003698479945697271,-0.012934283980866207,-0.03256950065921019,-0.006402992220419325,0.031492330268313086, ,0.013385992922243772, ,0.033192925760803585, ,5.151558380054734e-05, ,0.14938082198612468,-0.13915592366065144,0.10091747279,3.0035987504723267,1.3334356012109334,-0.6180829600658466, ,0.01766510453433931,0.02667142820642799,0.015170296685714287,0.11070194395926831,0.012388592547525395,0.017945370372889784, ,0.9423918724060059
0.0115064183937039,0.02080734953776529,-0.08462659530388689, ,0.011813164131050009,0.020532973143097124,-0.08500989367633423, ,0.0005623993204582394, ,0.004749447830928913,-2.917478924892693e-05,-0.014928662261003032,-0.0011900443772406917,0.0010978810918468092,-0.09275216292135229, ,0.01566598425794368, ,0.0016188906766859842, ,5.218539016381059e-05, ,0.14938082198612468,-0.13915592366065144,0.10091747279,3.0035987504723267,1.3334356012109334,-0.6180829600658466, ,0.01766510453433931,0.02667142820642799,0.015170296685714287,0.11070194395926831,0.012388592547525395,0.017945370372889784, ,0.949652910232544
0.0115537807158694,0.020807011443459745,-0.08477452986082891, ,0.011845462889026777,0.02052813150100578,-0.0851048664200645, ,0.0005215119891321239, ,0.0049207403670310165,-9.858377815233398e-05,-0.01584563035675215,0.019713823562664747,0.006945375147538869,-0.08283288261593225, ,0.01659239000035464, ,0.02090148502956349, ,5.276891708261074e-05, ,0.1495429993764834,-0.13888562801005358,0.10106913872,3.004856890133234,1.3337088742104641,-0.6176523659521146, ,0.0173899471428387,0.02953530705212287,0.016287128343558284,0.11735361979805868,0.038029471433255226,0.03081819807677818, ,0.956467866897583
0.0115537807158694,0.020807011443459745,-0.08477452986082891, ,0.011877895668030781,0.020523246131098034,-0.08519984172289528, ,0.0006053622343099053, ,0.0049207403670310165,-9.858377815233398e-05,-0.01584563035675215,0.019713823562664747,0.006945375147538869,-0.08283288261593225, ,0.01659239000035464, ,0.02090148502956349, ,5.3499077389980116e-05, ,0.1495429993764834,-0.13888562801005358,0.10106913872,3.004856890133234,1.3337088742104641,-0.6176523659521146, ,0.0173899471428387,0.02953530705212287,0.016287128343558284,0.11735361979805868,0.038029471433255226,0.03081819807677818, ,0.9676928520202637
0.011637618769664232,0.020801547740794173,-0.08506727342237362, ,0.011910461602040316,0.020518317602891415,-0.08529481824737298, ,0.00045435577423359166, ,0.0034032395003653847,-0.0007873243663855499,-0.010548217997827581,-0.03393241908435731,-0.010462094678631042,0.03603201870439886, ,0.011111562522185857, ,0.035508651894931714, ,5.394091464121848e-05, ,0.14993685875306886,-0.13833731397598364,0.10136339655000001,3.005485959963688,1.3338455107102296,-0.6160485303128596, ,0.01888496349422304,0.02625814652973735,0.01047259140039448,0.019177710666166678,0.0,0.060000497102484715, ,0.9748389720916748
0.011637618769664232,0.020801547740794173,-0.08506727342237362, ,0.011943159827355778,0.02051334648437938,-0.08538979466040529, ,0.0005295613761556022, ,0.0034032395003653847,-0.0007873243663855499,-0.010548217997827581,-0.03393241908435731,-0.010462094678631042,0.03603201870439886, ,0.011111562522185857, ,0.035508651894931714, ,5.4513538213464334e-05, ,0.14993685875306886,-0.13833731397598364,0.10136339655000001,3.005485959963688,1.3338455107102296,-0.6160485303128596, ,0.01888496349422304,0.02625814652973735,0.01047259140039448,0.019177710666166678,0.0,0.060000497102484715, ,0.9812650680541992
0.011672469857201353,0.02079106496651095,-0.08516332299563695, ,0.01197598948259714,0.02050833334203294,-0.0854847696332566, ,0.0005247754522815968, ,0.003361326272295095,-0.0012251442027623326,-0.009365667596408642,0.0315596287815015,-0.008567612311856567,-0.014789214861383375, ,0.010025728011112322, ,0.0327018971543326, ,5.506919274141313e-05, ,0.15012992707492448,-0.13804385012676312,0.10146321088000002,3.0059053398506568,1.3343920567092913,-0.6159224507466612, ,0.02017366954899464,0.030790701349276698,0.00974239236697248,0.02351943189063995,0.06042876441367579,0.002842168934550412, ,0.9889299869537354
0.011719422146940994,0.020781949419414688,-0.08525723751402942, ,0.012008949708701781,0.020503278740801986,-0.08557974184154338, ,0.0005152597378049665, ,0.005095861608518042,-0.0007736429204629558,-0.010857036016380859,0.022543395388756597,0.019002862264498366,-0.11582008411854108, ,0.01201838424924672, ,0.0294841194381562, ,5.56999173532703e-05, ,0.1502998271981574,-0.13777355447616527,0.10155265489000001,3.007582859398533,1.3348019662085877,-0.6154399170563447, ,0.019982510330273904,0.030503677775143293,0.011000560441988952,0.21439193424620226,0.04381371584973388,0.06423930039303768, ,0.9938900470733643
0.011719422146940994,0.020781949419414688,-0.08525723751402942, ,0.012042039648921744,0.020498183244117,-0.08567470996522936, ,0.000599073069281422, ,0.005095861608518042,-0.0007736429204629558,-0.010857036016380859,0.022543395388756597,0.019002862264498366,-0.11582008411854108, ,0.01201838424924672, ,0.0294841194381562, ,5.6474063083058134e-05, ,0.1502998271981574,-0.13777355447616527,0.10155265489000001,3.007582859398533,1.3348019662085877,-0.6154399170563447, ,0.019982510330273904,0.030503677775143293,0.011000560441988952,0.21439193424620226,0.04381371584973388,0.06423930039303768, ,0.998837947845459
0.011768779155283678,0.02077338003303957,-0.08538524391593483, ,0.01207525844882156,0.02049304741389047,-0.08576967268862047, ,0.0005659517788602333, ,0.004298691023508851,-0.0007122660266729224,-0.013425403087515948,-0.04047270824547218,0.0008607366278472021,0.053565286651117115, ,0.014114797748130533, ,0.04048185450439287, ,5.7180889446001204e-05, ,0.15053150918438415,-0.13742603149682514,0.10169135792000002,3.0090506890029243,1.3349386027083532,-0.6142444751177921, ,0.01962708201829799,0.030454730923771108,0.013419386284751476,0.06222979106346485,0.002236899435582099,0.12125261698391986, ,1.0046510696411133
0.011768779155283678,0.02077338003303957,-0.08538524391593483, ,0.012108605256275507,0.02048787181051857,-0.08586462870036035, ,0.0006533042901903483, ,0.004298691023508851,-0.0007122660266729224,-0.013425403087515948,-0.04047270824547218,0.0008607366278472021,0.053565286651117115, ,0.014114797748130533, ,0.04048185450439287, ,5.803507671878905e-05, ,0.15053150918438415,-0.13742603149682514,0.10169135792000002,3.0090506890029243,1.3349386027083532,-0.6142444751177921, ,0.01962708201829799,0.030454730923771108,0.013419386284751476,0.06222979106346485,0.002236899435582099,0.12125261698391986, ,1.0099668502807617
0.011790815804316724,0.020770230495949206,-0.08546076903138512, ,0.012142079221465546,0.020482656992882396,-0.08595957669342576, ,0.000674457998398438, ,0.004449120289765231,-0.000497370709584529,-0.016179418930942272,-0.040011170432223714,-0.002995147608136621,0.07780072821590849, ,0.01678736566345317, ,0.04012310506241467, ,5.8917533100168365e-05, ,0.15063190471174906,-0.13726385410646644,0.10176783903000002,3.009260378946409,1.3350752392081187,-0.6136207843602237, ,0.019570414839857865,0.031984139386070365,0.016204284354018314,0.03246214488228199,0.0077291657551918445,0.11553309282538066, ,1.0151188373565674
0.011790815804316724,0.020770230495949206,-0.08546076903138512, ,0.012175679496878526,0.020477403518349795,-0.08605451536512095, ,0.0007657691620110086, ,0.004449120289765231,-0.000497370709584529,-0.016179418930942272,-0.040011170432223714,-0.002995147608136621,0.07780072821590849, ,0.01678736566345317, ,0.04012310506241467, ,5.995089549088855e-05, ,0.15063190471174906,-0.13726385410646644,0.10176783903000002,3.009260378946409,1.3350752392081187,-0.6136207843602237, ,0.019570414839857865,0.031984139386070365,0.016204284354018314,0.03246214488228199,0.0077291657551918445,0.11553309282538066, ,1.0211999416351318
0.011867695184569359,0.020770356990276788,-0.0857309651162007, ,0.012209405237304048,0.020472111942776684,-0.08614944341707433, ,0.0006171223191559062, ,0.0056158433446235,0.0003345427405600566,-0.019619360539108434,0.07019178712417282,0.008743839256989933,-0.07324594753988861, ,0.020410020168538264, ,0.070734283044196, ,6.071401875909665e-05, ,0.15091764582809536,-0.13679276740113874,0.10204913396000001,3.010518518607316,1.336168331206242,-0.6129602315271241, ,0.019526119662236788,0.030860794002754727,0.02052681896907217,0.1065568054642354,0.09072079907470719,0.02121587890830929, ,1.0263540744781494
0.011867695184569359,0.020770356990276788,-0.0857309651162007, ,0.01224325559983181,0.02046678282050874,-0.08624435955523237, ,0.0007048239156634161, ,0.0056158433446235,0.0003345427405600566,-0.019619360539108434,0.07019178712417282,0.008743839256989933,-0.07324594753988861, ,0.020410020168538264, ,0.070734283044196, ,6.16214525427531e-05, ,0.15091764582809536,-0.13679276740113874,0.10204913396000001,3.010518518607316,1.336168331206242,-0.6129602315271241, ,0.019526119662236788,0.030860794002754727,0.02052681896907217,0.1065568054642354,0.09072079907470719,0.02121587890830929, ,1.0312390327453613
0.011922056758233478,0.020770434862291756,-0.08591660124228973, ,0.012277229743849193,0.02046141670438266,-0.0863392624898555, ,0.0006326789089440016, ,0.006134357679787854,-0.00034538300234652824,-0.019620261196789734,-0.0071058636782614665,0.008853182962051124,-0.031716288861827806, ,0.020559773417820903, ,0.011352058828488776, ,6.239488009252123e-05, ,0.15111071414995098,-0.13647613535329553,0.10223968859000002,3.011566968324739,1.3365782407055387,-0.612314340356527, ,0.022546196616410257,0.03736100061357117,0.019985961756587206,0.13253504328878377,0.028844884527465576,0.10101770331907861, ,1.0364789962768555
0.011922056758233478,0.020770434862291756,-0.08591660124228973, ,0.012311326831038949,0.020456014145728056,-0.08643415093551328, ,0.000719895312904732, ,0.006134357679787854,-0.00034538300234652824,-0.019620261196789734,-0.0071058636782614665,0.008853182962051124,-0.031716288861827806, ,0.020559773417820903, ,0.011352058828488776, ,6.331019052658854e-05, ,0.15111071414995098,-0.13647613535329553,0.10223968859000002,3.011566968324739,1.3365782407055387,-0.612314340356527, ,0.022546196616410257,0.03736100061357117,0.019985961756587206,0.13253504328878377,0.028844884527465576,0.10101770331907861, ,1.0413658618927002
0.01198416776813223,0.02076848834997233,-0.08611732825031743, ,0.012345546025376674,0.02045057569436866,-0.08652902361107931, ,0.0006333685905338743, ,0.006258909790292333,-0.00013742030071367843,-0.02052873048786715,-0.02600911524721475,0.004148608222683872,0.013413864018416523, ,0.02146209709104755, ,0.026337831728907735, ,6.40682042342024e-05, ,0.15134239613617773,-0.1361208896410812,0.10244190983000001,3.0128251079856456,1.3365782407055387,-0.6109258017741372, ,0.024642155689034217,0.03564873837658557,0.020821975843137257,0.10869795112051743,0.015822606663381967,0.12523333129819136, ,1.0464179515838623
0.01198416776813223,0.02076848834997233,-0.08611732825031743, ,0.012379886493128397,0.02044510189862399,-0.086623879239727, ,0.000719559595238702, ,0.006258909790292333,-0.00013742030071367843,-0.02052873048786715,-0.02600911524721475,0.004148608222683872,0.013413864018416523, ,0.02146209709104755, ,0.026337831728907735, ,6.507573947571908e-05, ,0.15134239613617773,-0.1361208896410812,0.10244190983000001,3.0128251079856456,1.3365782407055387,-0.6109258017741372, ,0.024642155689034217,0.03564873837658557,0.020821975843137257,0.10869795112051743,0.015822606663381967,0.12523333129819136, ,1.0500140190124512
0.0120516713823028,0.0207645110980781,-0.08633393944183868, ,0.012414347402848018,0.02043959330531088,-0.08671871654892438, ,0.0006206117063611363, ,0.00670562541845438,-0.0003019468292255389,-0.020310813530070446,-0.04348919708696817,-0.002542719699914566,0.01613515011057072, ,0.021391253595654313, ,0.043563427668644544, ,6.590843935247578e-05, ,0.15162813725252403,-0.13571930753162154,0.10266098284000001,3.0138735577030684,1.336714877205304,-0.6095670023553035, ,0.029888800490856935,0.03668223485058786,0.02050040092664093,0.1088289100647064,0.0,0.13101398039739495, ,1.053617000579834
0.0120516713823028,0.0207645110980781,-0.08633393944183868, ,0.01244892792537508,0.020434050459744963,-0.08681353427042925, ,0.0007050022653240927, ,0.00670562541845438,-0.0003019468292255389,-0.020310813530070446,-0.04348919708696817,-0.002542719699914566,0.01613515011057072, ,0.021391253595654313, ,0.043563427668644544, ,6.687829618262662e-05, ,0.15162813725252403,-0.13571930753162154,0.10266098284000001,3.0138735577030684,1.336714877205304,-0.6095670023553035, ,0.029888800490856935,0.03668223485058786,0.02050040092664093,0.1088289100647064,0.0,0.13101398039739495, ,1.0573348999023438
0.0120516713823028,0.0207645110980781,-0.08633393944183868, ,0.012483627233832211,0.02042847390574215,-0.08690833114028498, ,0.0007933679320136158, ,0.00670562541845438,-0.0003019468292255389,-0.020310813530070446,-0.04348919708696817,-0.002542719699914566,0.01613515011057072, ,0.021391253595654313, ,0.043563427668644544, ,6.799062559181441e-05, ,0.15162813725252403,-0.13571930753162154,0.10266098284000001,3.0138735577030684,1.336714877205304,-0.6095670023553035, ,0.029888800490856935,0.03668223485058786,0.02050040092664093,0.1088289100647064,0.0,0.13101398039739495, ,1.0641310214996338
0.0120516713823028,0.0207645110980781,-0.08633393944183868, ,0.012518444503622649,0.020422864185620365,-0.08700310589881527, ,0.0008845244523025837, ,0.00670562541845438,-0.0003019468292255389,-0.020310813530070446,-0.04348919708696817,-0.002542719699914566,0.01613515011057072, ,0.021391253595654313, ,0.043563427668644544, ,6.924868139201433e-05, ,0.15162813725252403,-0.13571930753162154,0.10266098284000001,3.0138735577030684,1.336714877205304,-0.6095670023553035, ,0.029888800490856935,0.03668223485058786,0.02050040092664093,0.1088289100647064,0.0,0.13101398039739495, ,1.0675580501556396
0.012153819196240579,0.02076269516187578,-0.08661935939495041, ,0.0125533789124279,0.020417221840200672,-0.0870978572906194, ,0.0007127131393124294, ,0.007244500838421432,-0.00035558302285001704,-0.020988618803693265,0.0413828728684262,0.007773075748618989,-0.0562838959425513, ,0.02220656098928365, ,0.04210651731492687, ,7.021051686358619e-05, ,0.15206061029348059,-0.13520188442904849,0.10295783325,3.0161801470813985,1.3375346962038965,-0.6082752200141086, ,0.03051348603166263,0.04045052922355958,0.021880235604395604,0.15173255514513576,0.0759596539415009,0.08760632619422117, ,1.070970058441162
0.012153819196240579,0.02076269516187578,-0.08661935939495041, ,0.01258842964020524,0.0204115474088094,-0.08719258406456794, ,0.0008004857927189261, ,0.007244500838421432,-0.00035558302285001704,-0.020988618803693265,0.0413828728684262,0.007773075748618989,-0.0562838959425513, ,0.02220656098928365, ,0.04210651731492687, ,7.13124613694155e-05, ,0.15206061029348059,-0.13520188442904849,0.10295783325,3.0161801470813985,1.3375346962038965,-0.6082752200141086, ,0.03051348603166263,0.04045052922355958,0.021880235604395604,0.15173255514513576,0.0759596539415009,0.08760632619422117, ,1.0742919445037842
0.012153819196240579,0.02076269516187578,-0.08661935939495041, ,0.012623595869185242,0.020405841429278912,-0.08728728497379676, ,0.0008911561523035686, ,0.007244500838421432,-0.00035558302285001704,-0.020988618803693265,0.0413828728684262,0.007773075748618989,-0.0562838959425513, ,0.02220656098928365, ,0.04210651731492687, ,7.255793762493087e-05, ,0.15206061029348059,-0.13520188442904849,0.10295783325,3.0161801470813985,1.3375346962038965,-0.6082752200141086, ,0.03051348603166263,0.04045052922355958,0.021880235604395604,0.15173255514513576,0.0759596539415009,0.08760632619422117, ,1.0774998664855957
0.012246436325066237,0.020752931023570998,-0.08689028676399269, ,0.012658876783869418,0.020400104437949863,-0.0873819587757041, ,0.0007323490279089542, ,0.007237254470053776,-0.0007477020917166801,-0.021187506482005198,-0.018553016814574448,0.005859398887909834,0.01780844522943194, ,0.02240194950461417, ,0.01945617430357346, ,7.353179028274031e-05, ,0.15246991513581448,-0.1346381249292301,0.10323523931,3.0178576666292747,1.3380812422029584,-0.606515565645099, ,0.031329462383120094,0.04359069433094661,0.02161304141112619,0.1359728741390685,0.03263057151248258,0.15540499575285505, ,1.08097505569458
0.012246436325066237,0.020752931023570998,-0.08689028676399269, ,0.012694271571027755,0.020394336969672168,-0.08747660423194407, ,0.0008203135231373049, ,0.007237254470053776,-0.0007477020917166801,-0.021187506482005198,-0.018553016814574448,0.005859398887909834,0.01780844522943194, ,0.02240194950461417, ,0.01945617430357346, ,7.464460010517309e-05, ,0.15246991513581448,-0.1346381249292301,0.10323523931,3.0178576666292747,1.3380812422029584,-0.606515565645099, ,0.031329462383120094,0.04359069433094661,0.02161304141112619,0.1359728741390685,0.03263057151248258,0.15540499575285505, ,1.0844428539276123
0.012246436325066237,0.020752931023570998,-0.08689028676399269, ,0.012729779419696169,0.02038853955780687,-0.08757122010842322, ,0.0009110828211559696, ,0.007237254470053776,-0.0007477020917166801,-0.021187506482005198,-0.018553016814574448,0.005859398887909834,0.01780844522943194, ,0.02240194950461417, ,0.01945617430357346, ,7.589961430771941e-05, ,0.15246991513581448,-0.1346381249292301,0.10323523931,3.0178576666292747,1.3380812422029584,-0.606515565645099, ,0.031329462383120094,0.04359069433094661,0.02161304141112619,0.1359728741390685,0.03263057151248258,0.15540499575285505, ,1.0877048969268799
0.012335997612235295,0.020746098173655556,-0.08714322037191241, ,0.012765399521174368,0.0203827127342275,-0.08766580517529504, ,0.0007678084746310794, ,0.008887452340002737,-0.0005658130403772849,-0.02600499073661245,-0.036137787281849916,0.021596104269517715,-0.04978289921507305, ,0.027487569858097322, ,0.04209892512243634, ,7.691112374288467e-05, ,0.1528097153822804,-0.1341361472924055,0.10349320102000001,3.0201642560076043,1.3383545152024894,-0.6046147542088374, ,0.030840734988128296,0.049528675134901244,0.02637220450331126,0.240528271613452,0.011774856072385301,0.19546295481815737, ,1.0909559726715088
0.012335997612235295,0.020746098173655556,-0.08714322037191241, ,0.012801131069022972,0.020376857029321592,-0.08776035820695458, ,0.0008564737373281438, ,0.008887452340002737,-0.0005658130403772849,-0.02600499073661245,-0.036137787281849916,0.021596104269517715,-0.04978289921507305, ,0.027487569858097322, ,0.04209892512243634, ,7.80611261812519e-05, ,0.1528097153822804,-0.1341361472924055,0.10349320102000001,3.0201642560076043,1.3383545152024894,-0.6046147542088374, ,0.030840734988128296,0.049528675134901244,0.02637220450331126,0.240528271613452,0.011774856072385301,0.19546295481815737, ,1.0942490100860596
0.012335997612235295,0.020746098173655556,-0.08714322037191241, ,0.012836973259061397,0.020370972971992383,-0.08785487798203565, ,0.0009477088528034232, ,0.008887452340002737,-0.0005658130403772849,-0.02600499073661245,-0.036137787281849916,0.021596104269517715,-0.04978289921507305, ,0.027487569858097322, ,0.04209892512243634, ,7.935245831900217e-05, ,0.1528097153822804,-0.1341361472924055,0.10349320102000001,3.0201642560076043,1.3383545152024894,-0.6046147542088374, ,0.030840734988128296,0.049528675134901244,0.02637220450331126,0.240528271613452,0.011774856072385301,0.19546295481815737, ,1.097503900527954
0.012403914774839923,0.02074326746161017,-0.08734477784550813, ,0.012872925289365313,0.020365061089660127,-0.08794936328340414, ,0.0008535423095751525, ,0.009638139415996665,-0.0001000362637332032,-0.028788935759640564,-0.002899106858545734,0.020218615070822375,-0.057241965505200984, ,0.030359620564640814, ,0.02042492204227316, ,8.048227521808697e-05, ,0.15305684283425555,-0.13376545611444274,0.10370060742000001,3.0218417755554805,1.3387644247017856,-0.6033971118572558, ,0.0344203632783717,0.04909308926977277,0.02955252601113173,0.2400301946953321,0.04280678537802094,0.18199097782634585, ,1.10337495803833
0.012403914774839923,0.02074326746161017,-0.08734477784550813, ,0.01290898636026427,0.020359121908263635,-0.08804381289815405, ,0.0009440948667303817, ,0.009638139415996665,-0.0001000362637332032,-0.028788935759640564,-0.002899106858545734,0.020218615070822375,-0.057241965505200984, ,0.030359620564640814, ,0.02042492204227316, ,8.175153018776965e-05, ,0.15305684283425555,-0.13376545611444274,0.10370060742000001,3.0218417755554805,1.3387644247017856,-0.6033971118572558, ,0.0344203632783717,0.04909308926977277,0.02955252601113173,0.2400301946953321,0.04280678537802094,0.18199097782634585, ,1.1069178581237793
0.012403914774839923,0.02074326746161017,-0.08734477784550813, ,0.012945155674339084,0.02035315595226202,-0.08813822561760268, ,0.0010366716298126166, ,0.009638139415996665,-0.0001000362637332032,-0.028788935759640564,-0.002899106858545734,0.020218615070822375,-0.057241965505200984, ,0.030359620564640814, ,0.02042492204227316, ,8.316214177005894e-05, ,0.15305684283425555,-0.13376545611444274,0.10370060742000001,3.0218417755554805,1.3387644247017856,-0.6033971118572558, ,0.0344203632783717,0.04909308926977277,0.02955252601113173,0.2400301946953321,0.04280678537802094,0.18199097782634585, ,1.1106889247894287
0.01250459059036347,0.020742208994242943,-0.08765800383493602, ,0.012981432436419568,0.02034716374463602,-0.08823260023728553, ,0.0008447484365065054, ,0.00920085049160306,-0.0003506978103159806,-0.02891625013987177,0.023609212078417173,0.014783958522560557,0.034409428240570875, ,0.030346798198073992, ,0.027855701532705536, ,8.439050676156934e-05, ,0.15343525674509256,-0.13323258754612124,0.10402467992000002,3.0239386749903256,1.3395842437003782,-0.6014518995949364, ,0.03637291742371437,0.05168678734121502,0.029941375037593993,0.1675555055111149,0.08614839830504002,0.1961057563211145, ,1.1126270294189453
0.01250459059036347,0.020742208994242943,-0.08765800383493602, ,0.013017815853582105,0.020341145806889494,-0.08832693555695262, ,0.0009336602699997653, ,0.00920085049160306,-0.0003506978103159806,-0.02891625013987177,0.023609212078417173,0.014783958522560557,0.034409428240570875, ,0.030346798198073992, ,0.027855701532705536, ,8.57580909213732e-05, ,0.15343525674509256,-0.13323258754612124,0.10402467992000002,3.0239386749903256,1.3395842437003782,-0.6014518995949364, ,0.03637291742371437,0.05168678734121502,0.029941375037593993,0.1675555055111149,0.08614839830504002,0.1961057563211145, ,1.114656925201416
0.01250459059036347,0.020742208994242943,-0.08765800383493602, ,0.013054305135147,0.02033510265905113,-0.08842123038056204, ,0.0010249080001873843, ,0.00920085049160306,-0.0003506978103159806,-0.02891625013987177,0.023609212078417173,0.014783958522560557,0.034409428240570875, ,0.030346798198073992, ,0.027855701532705536, ,8.72679782353057e-05, ,0.15343525674509256,-0.13323258754612124,0.10402467992000002,3.0239386749903256,1.3395842437003782,-0.6014518995949364, ,0.03637291742371437,0.05168678734121502,0.029941375037593993,0.1675555055111149,0.08614839830504002,0.1961057563211145, ,1.116415023803711
0.01250459059036347,0.020742208994242943,-0.08765800383493602, ,0.01309089949267637,0.020329034819675726,-0.08851548351627646, ,0.0011179187946234541, ,0.00920085049160306,-0.0003506978103159806,-0.02891625013987177,0.023609212078417173,0.014783958522560557,0.034409428240570875, ,0.030346798198073992, ,0.027855701532705536, ,8.892231341409886e-05, ,0.15343525674509256,-0.13323258754612124,0.10402467992000002,3.0239386749903256,1.3395842437003782,-0.6014518995949364, ,0.03637291742371437,0.05168678734121502,0.029941375037593993,0.1675555055111149,0.08614839830504002,0.1961057563211145, ,1.118082046508789
0.01250459059036347,0.020742208994242943,-0.08765800383493602, ,0.013127598139971256,0.020322942805845987,-0.08860969377645804, ,0.0012122855638814617, ,0.00920085049160306,-0.0003506978103159806,-0.02891625013987177,0.023609212078417173,0.014783958522560557,0.034409428240570875, ,0.030346798198073992, ,0.027855701532705536, ,9.072257503343759e-05, ,0.15343525674509256,-0.13323258754612124,0.10402467992000002,3.0239386749903256,1.3395842437003782,-0.6014518995949364, ,0.03637291742371437,0.05168678734121502,0.029941375037593993,0.1675555055111149,0.08614839830504002,0.1961057563211145, ,1.1196980476379395
0.01250459059036347,0.020742208994242943,-0.08765800383493602, ,0.01316440029306967,0.02031682713317382,-0.08870385997766354, ,0.0013077131347481255, ,0.00920085049160306,-0.0003506978103159806,-0.02891625013987177,0.023609212078417173,0.014783958522560557,0.034409428240570875, ,0.030346798198073992, ,0.027855701532705536, ,0.000508057894347484, ,0.15343525674509256,-0.13323258754612124,0.10402467992000002,3.0239386749903256,1.3395842437003782,-0.6014518995949364, ,0.03637291742371437,0.05168678734121502,0.029941375037593993,0.1675555055111149,0.08614839830504002,0.1961057563211145, ,1.1213698387145996
0.01260207109930631,0.020734963758876877,-0.08796927360734087, ,0.013201305170243854,0.02031068831580197,-0.08879798094063944, ,0.0011071797359198774, ,0.007838593238840721,-0.0010939415971505271,-0.025604650000588248,0.029785862361696024,-0.015816463006454284,0.09137196613284218, ,0.026799969287941348, ,0.033724576995994036, ,0.0005132676494915918, ,0.1538831752517976,-0.13264565984768018,0.10434745613000002,3.0249871247077484,1.3406773356985016,-0.5997295231400097, ,0.04090385412003051,0.05301505114998367,0.026503846123128123,0.02393834911328901,0.10001161706044084,0.10845276872630068, ,1.1230289936065674
0.01260207109930631,0.020734963758876877,-0.08796927360734087, ,0.01323831199199784,0.02030452686640555,-0.0888920554903174, ,0.0012006684785913983, ,0.007838593238840721,-0.0010939415971505271,-0.025604650000588248,0.029785862361696024,-0.015816463006454284,0.09137196613284218, ,0.026799969287941348, ,0.033724576995994036, ,0.0005191935187079694, ,0.1538831752517976,-0.13264565984768018,0.10434745613000002,3.0249871247077484,1.3406773356985016,-0.5997295231400097, ,0.04090385412003051,0.05301505114998367,0.026503846123128123,0.02393834911328901,0.10001161706044084,0.10845276872630068, ,1.1247060298919678
0.01260207109930631,0.020734963758876877,-0.08796927360734087, ,0.013275419981065104,0.020298343296193528,-0.08898608245580977, ,0.0012953518361141462, ,0.007838593238840721,-0.0010939415971505271,-0.025604650000588248,0.029785862361696024,-0.015816463006454284,0.09137196613284218, ,0.026799969287941348, ,0.033724576995994036, ,0.0005258273504806718, ,0.1538831752517976,-0.13264565984768018,0.10434745613000002,3.0249871247077484,1.3406773356985016,-0.5997295231400097, ,0.04090385412003051,0.05301505114998367,0.026503846123128123,0.02393834911328901,0.10001161706044084,0.10845276872630068, ,1.1263840198516846
0.01260207109930631,0.020734963758876877,-0.08796927360734087, ,0.013312628362406216,0.02029213811491025,-0.08908006067040403, ,0.001390983132380459, ,0.007838593238840721,-0.0010939415971505271,-0.025604650000588248,0.029785862361696024,-0.015816463006454284,0.09137196613284218, ,0.026799969287941348, ,0.033724576995994036, ,0.0005331591791408395, ,0.1538831752517976,-0.13264565984768018,0.10434745613000002,3.0249871247077484,1.3406773356985016,-0.5997295231400097, ,0.04090385412003051,0.05301505114998367,0.026503846123128123,0.02393834911328901,0.10001161706044084,0.10845276872630068, ,1.1280169486999512
0.01260207109930631,0.020734963758876877,-0.08796927360734087, ,0.013349936363206109,0.02028591183083692,-0.08917398897155865, ,0.0014873766153219855, ,0.007838593238840721,-0.0010939415971505271,-0.025604650000588248,0.029785862361696024,-0.015816463006454284,0.09137196613284218, ,0.026799969287941348, ,0.033724576995994036, ,0.0005411778130583281, ,0.1538831752517976,-0.13264565984768018,0.10434745613000002,3.0249871247077484,1.3406773356985016,-0.5997295231400097, ,0.04090385412003051,0.05301505114998367,0.026503846123128123,0.02393834911328901,0.10001161706044084,0.10845276872630068, ,1.1296679973602295
0.01260207109930631,0.020734963758876877,-0.08796927360734087, ,0.013387343212871992,0.020279664950793235,-0.08926786620089835, ,0.0015843901101145023, ,0.007838593238840721,-0.0010939415971505271,-0.025604650000588248,0.029785862361696024,-0.015816463006454284,0.09137196613284218, ,0.026799969287941348, ,0.033724576995994036, ,0.0005498712488671297, ,0.1538831752517976,-0.13264565984768018,0.10434745613000002,3.0249871247077484,1.3406773356985016,-0.5997295231400097, ,0.04090385412003051,0.05301505114998367,0.026503846123128123,0.02393834911328901,0.10001161706044084,0.10845276872630068, ,1.1313278675079346
0.012727289644753555,0.020721981027475248,-0.0882879198180232, ,0.01342484814303059,0.02027339798013887,-0.08936169120420889, ,0.001356760700590658, ,0.015365627801445772,-0.0007672116553915694,-0.03762963648338619,-0.011994051729698765,0.04388721087071605,-0.25431498457940965, ,0.040653175439669176, ,0.04549581416450822, ,0.0005565397567326133, ,0.1543928756214964,-0.13197378208762264,0.10467412121000001,3.028342163803501,1.341087245197798,-0.5976134146468821, ,0.053857515072911914,0.07172860284086982,0.03866216388349515,0.5223332709381382,0.027874999116628645,0.2692677366610283, ,1.1329679489135742
0.012727289644753555,0.020721981027475248,-0.0882879198180232, ,0.013462450387525806,0.020267111422774976,-0.08945546283143252, ,0.0014527643866623899, ,0.015365627801445772,-0.0007672116553915694,-0.03762963648338619,-0.011994051729698765,0.04388721087071605,-0.25431498457940965, ,0.040653175439669176, ,0.04549581416450822, ,0.0005638858602566278, ,0.1543928756214964,-0.13197378208762264,0.10467412121000001,3.028342163803501,1.341087245197798,-0.5976134146468821, ,0.053857515072911914,0.07172860284086982,0.03866216388349515,0.5223332709381382,0.027874999116628645,0.2692677366610283, ,1.1346559524536133
0.012727289644753555,0.020721981027475248,-0.0882879198180232, ,0.013500149182416578,0.020260805781145624,-0.0895491799366637, ,0.001549442338280757, ,0.015365627801445772,-0.0007672116553915694,-0.03762963648338619,-0.011994051729698765,0.04388721087071605,-0.25431498457940965, ,0.040653175439669176, ,0.04549581416450822, ,0.000571898514549507, ,0.1543928756214964,-0.13197378208762264,0.10467412121000001,3.028342163803501,1.341087245197798,-0.5976134146468821, ,0.053857515072911914,0.07172860284086982,0.03866216388349515,0.5223332709381382,0.027874999116628645,0.2692677366610283, ,1.13624906539917
0.012727289644753555,0.020721981027475248,-0.0882879198180232, ,0.013537943765973875,0.020254481556239486,-0.08964284137814338, ,0.0016466718841152634, ,0.015365627801445772,-0.0007672116553915694,-0.03762963648338619,-0.011994051729698765,0.04388721087071605,-0.25431498457940965, ,0.040653175439669176, ,0.04549581416450822, ,0.0005805660417234244, ,0.1543928756214964,-0.13197378208762264,0.10467412121000001,3.028342163803501,1.341087245197798,-0.5976134146468821, ,0.053857515072911914,0.07172860284086982,0.03866216388349515,0.5223332709381382,0.027874999116628645,0.2692677366610283, ,1.1379029750823975
0.012727289644753555,0.020721981027475248,-0.0882879198180232, ,0.013575833378678709,0.02024813924759125,-0.08973644601825488, ,0.0017443568022354017, ,0.015365627801445772,-0.0007672116553915694,-0.03762963648338619,-0.011994051729698765,0.04388721087071605,-0.25431498457940965, ,0.040653175439669176, ,0.04549581416450822, ,0.0005898763678075203, ,0.1543928756214964,-0.13197378208762264,0.10467412121000001,3.028342163803501,1.341087245197798,-0.5976134146468821, ,0.053857515072911914,0.07172860284086982,0.03866216388349515,0.5223332709381382,0.027874999116628645,0.2692677366610283, ,1.1395649909973145
0.012727289644753555,0.020721981027475248,-0.0882879198180232, ,0.013613817263219627,0.020241779353283255,-0.0898299927235191, ,0.0018424206121471023, ,0.015365627801445772,-0.0007672116553915694,-0.03762963648338619,-0.011994051729698765,0.04388721087071605,-0.25431498457940965, ,0.040653175439669176, ,0.04549581416450822, ,0.0005998171951435488, ,0.1543928756214964,-0.13197378208762264,0.10467412121000001,3.028342163803501,1.341087245197798,-0.5976134146468821, ,0.053857515072911914,0.07172860284086982,0.03866216388349515,0.5223332709381382,0.027874999116628645,0.2692677366610283, ,1.141373872756958
0.012901046914722887,0.02072408831586785,-0.08871994566743846, ,0.013651894664489938,0.020235402369946812,-0.08992348036458953, ,0.0015003606447509515, ,0.01866531765798282,0.0007756409981713886,-0.04835234535054328,-0.028396517537679064,0.06459580217383414,-0.24004275843019146, ,0.05183575024179407, ,0.0705600139774213, ,0.0006069080884475441, ,0.15494891238844055,-0.13127873612894245,0.10511745239,3.0346328621080363,1.341087245197798,-0.5938561926004162, ,0.05972117152830131,0.07087150228414546,0.049777536000000004,0.6388966093572613,0.015639886347707153,0.40241235422457905, ,1.1437978744506836
0.012901046914722887,0.02072408831586785,-0.08871994566743846, ,0.013690064829585812,0.02022900879276396,-0.0900169078162476, ,0.0015967979896076548, ,0.01866531765798282,0.0007756409981713886,-0.04835234535054328,-0.028396517537679064,0.06459580217383414,-0.24004275843019146, ,0.05183575024179407, ,0.0705600139774213, ,0.0006146416033003575, ,0.15494891238844055,-0.13127873612894245,0.10511745239,3.0346328621080363,1.341087245197798,-0.5938561926004162, ,0.05972117152830131,0.07087150228414546,0.049777536000000004,0.6388966093572613,0.015639886347707153,0.40241235422457905, ,1.1477818489074707
0.012901046914722887,0.02072408831586785,-0.08871994566743846, ,0.01372832700780335,0.020222599115468816,-0.09011027395739818, ,0.0016937817227690231, ,0.01866531765798282,0.0007756409981713886,-0.04835234535054328,-0.028396517537679064,0.06459580217383414,-0.24004275843019146, ,0.05183575024179407, ,0.0705600139774213, ,0.0006230070305830602, ,0.15494891238844055,-0.13127873612894245,0.10511745239,3.0346328621080363,1.341087245197798,-0.5938561926004162, ,0.05972117152830131,0.07087150228414546,0.049777536000000004,0.6388966093572613,0.015639886347707153,0.40241235422457905, ,1.1522610187530518
0.013112686202627104,0.020737266307615947,-0.08933834373749452, ,0.013766680450636424,0.02021617383034924,-0.09020357767106399, ,0.0012032770279920234, ,0.01484760968247593,0.0011943718282305862,-0.0515587866419071,0.04547468921320769,0.012798371410786446,0.19222177727455517, ,0.053667369204507515, ,0.047237499132359306, ,0.0006274706459477446, ,0.15569801747724035,-0.13043695824565196,0.10575652336000001,3.03987511069515,1.3419070641963906,-0.5888888669528961, ,0.05793464075608717,0.06715990202298003,0.05363236202020203,0.16709155227689537,0.15069587081835428,0.34826586919754904, ,1.1542658805847168
0.013112686202627104,0.020737266307615947,-0.08933834373749452, ,0.013805124411774084,0.020209733428248253,-0.09029681784438191, ,0.0012947718817900792, ,0.01484760968247593,0.0011943718282305862,-0.0515587866419071,0.04547468921320769,0.012798371410786446,0.19222177727455517, ,0.053667369204507515, ,0.047237499132359306, ,0.0006325645485114266, ,0.15569801747724035,-0.13043695824565196,0.10575652336000001,3.03987511069515,1.3419070641963906,-0.5888888669528961, ,0.05793464075608717,0.06715990202298003,0.05363236202020203,0.16709155227689537,0.15069587081835428,0.34826586919754904, ,1.155911922454834
0.013112686202627104,0.020737266307615947,-0.08933834373749452, ,0.01384365814709835,0.020203278398565453,-0.09038999336859728, ,0.001387598651345105, ,0.01484760968247593,0.0011943718282305862,-0.0515587866419071,0.04547468921320769,0.012798371410786446,0.19222177727455517, ,0.053667369204507515, ,0.047237499132359306, ,0.0006382845038359242, ,0.15569801747724035,-0.13043695824565196,0.10575652336000001,3.03987511069515,1.3419070641963906,-0.5888888669528961, ,0.05793464075608717,0.06715990202298003,0.05363236202020203,0.16709155227689537,0.15069587081835428,0.34826586919754904, ,1.157585859298706
0.013112686202627104,0.020737266307615947,-0.08933834373749452, ,0.013882280914681373,0.02019680922925895,-0.09048310313905975, ,0.001481500577738677, ,0.01484760968247593,0.0011943718282305862,-0.0515587866419071,0.04547468921320769,0.012798371410786446,0.19222177727455517, ,0.053667369204507515, ,0.047237499132359306, ,0.000644624474316396, ,0.15569801747724035,-0.13043695824565196,0.10575652336000001,3.03987511069515,1.3419070641963906,-0.5888888669528961, ,0.05793464075608717,0.06715990202298003,0.05363236202020203,0.16709155227689537,0.15069587081835428,0.34826586919754904, ,1.1592988967895508
0.013112686202627104,0.020737266307615947,-0.08933834373749452, ,0.013920991974783505,0.02019032640684635,-0.09057614605521844, ,0.0015762791802589736, ,0.01484760968247593,0.0011943718282305862,-0.0515587866419071,0.04547468921320769,0.012798371410786446,0.19222177727455517, ,0.053667369204507515, ,0.047237499132359306, ,0.0006515771213756689, ,0.15569801747724035,-0.13043695824565196,0.10575652336000001,3.03987511069515,1.3419070641963906,-0.5888888669528961, ,0.05793464075608717,0.06715990202298003,0.05363236202020203,0.16709155227689537,0.15069587081835428,0.34826586919754904, ,1.1610548496246338
0.013112686202627104,0.020737266307615947,-0.08933834373749452, ,0.013959790589850323,0.02018383041640673,-0.09066912102061687, ,0.0016717790840317002, ,0.01484760968247593,0.0011943718282305862,-0.0515587866419071,0.04547468921320769,0.012798371410786446,0.19222177727455517, ,0.053667369204507515, ,0.047237499132359306, ,0.0006591341729508987, ,0.15569801747724035,-0.13043695824565196,0.10575652336000001,3.03987511069515,1.3419070641963906,-0.5888888669528961, ,0.05793464075608717,0.06715990202298003,0.05363236202020203,0.16709155227689537,0.15069587081835428,0.34826586919754904, ,1.1631178855895996
0.01324597303580122,0.020740776393155837,-0.0898213049102708, ,0.01399867602451062,0.020177321741581798,-0.09076202694288822, ,0.0013300379228594762, ,0.014916904283876169,-0.00020371623216022903,-0.0542718106289676,0.10258908861216787,-0.004595323627202351,0.24381074633605887, ,0.05628485553560646, ,0.1026896648327469, ,0.00066406728875905, ,0.1562463315113103,-0.12972646682122332,0.10626078017000001,3.0407138704690877,1.3438199751931068,-0.5861197443771959, ,0.06360384822953806,0.08587958512078804,0.05668616199288257,0.06384455285855987,0.2328372360446169,0.286547151273528, ,1.1648838520050049
0.01324597303580122,0.020740776393155837,-0.0898213049102708, ,0.014037647545573663,0.020170800864577804,-0.09085486273375118, ,0.0014212186345101008, ,0.014916904283876169,-0.00020371623216022903,-0.0542718106289676,0.10258908861216787,-0.004595323627202351,0.24381074633605887, ,0.05628485553560646, ,0.1026896648327469, ,0.0006695939409178169, ,0.1562463315113103,-0.12972646682122332,0.10626078017000001,3.0407138704690877,1.3438199751931068,-0.5861197443771959, ,0.06360384822953806,0.08587958512078804,0.05668616199288257,0.06384455285855987,0.2328372360446169,0.286547151273528, ,1.166576862335205
0.01324597303580122,0.020740776393155837,-0.0898213049102708, ,0.014076704422027048,0.020164268266166675,-0.09094762730900399, ,0.0015136308672966938, ,0.014916904283876169,-0.00020371623216022903,-0.0542718106289676,0.10258908861216787,-0.004595323627202351,0.24381074633605887, ,0.05628485553560646, ,0.1026896648327469, ,0.000675710150529258, ,0.1562463315113103,-0.12972646682122332,0.10626078017000001,3.0407138704690877,1.3438199751931068,-0.5861197443771959, ,0.06360384822953806,0.08587958512078804,0.05668616199288257,0.06384455285855987,0.2328372360446169,0.286547151273528, ,1.1681909561157227
0.01324597303580122,0.020740776393155837,-0.0898213049102708, ,0.014115845925033942,0.020157724425687765,-0.09104031958852116, ,0.0016070548297990046, ,0.014916904283876169,-0.00020371623216022903,-0.0542718106289676,0.10258908861216787,-0.004595323627202351,0.24381074633605887, ,0.05628485553560646, ,0.1026896648327469, ,0.0006824104719628533, ,0.1562463315113103,-0.12972646682122332,0.10626078017000001,3.0407138704690877,1.3438199751931068,-0.5861197443771959, ,0.06360384822953806,0.08587958512078804,0.05668616199288257,0.06384455285855987,0.2328372360446169,0.286547151273528, ,1.169827938079834
0.01324597303580122,0.020740776393155837,-0.0898213049102708, ,0.014155071327930839,0.020151169821049437,-0.09113293849624762, ,0.0017013166308734195, ,0.014916904283876169,-0.00020371623216022903,-0.0542718106289676,0.10258908861216787,-0.004595323627202351,0.24381074633605887, ,0.05628485553560646, ,0.1026896648327469, ,0.0006896883730979288, ,0.1562463315113103,-0.12972646682122332,0.10626078017000001,3.0407138704690877,1.3438199751931068,-0.5861197443771959, ,0.06360384822953806,0.08587958512078804,0.05668616199288257,0.06384455285855987,0.2328372360446169,0.286547151273528, ,1.1715030670166016
0.013420278734027334,0.02073922222751033,-0.09034734423628804, ,0.014194379906225154,0.020144604928730266,-0.091225482960194, ,0.0013129851389980518, ,0.020097673405100488,-9.664479282499826e-05,-0.05698083382022906,0.07466113156659557,0.050096234521222124,-0.11603616517308012, ,0.060421364097168674, ,0.08990726666328913, ,0.0006941089175369368, ,0.1562463315113103,-0.12972646682122332,0.10626078017000001,3.0407138704690877,1.3438199751931068,-0.5861197443771959, ,0.06360384822953806,0.08587958512078804,0.05668616199288257,0.06384455285855987,0.2328372360446169,0.286547151273528, ,1.1736600399017334
0.013420278734027334,0.02073922222751033,-0.09034734423628804, ,0.01423377093759255,0.020138030223780957,-0.09131795191243267, ,0.0014018846784241562, ,0.020097673405100488,-9.664479282499826e-05,-0.05698083382022906,0.07466113156659557,0.050096234521222124,-0.11603616517308012, ,0.060421364097168674, ,0.08990726666328913, ,0.000699093253881213, ,0.15689504107274513,-0.12887696620505862,0.10681170342000001,3.0442785995083246,1.345732886189823,-0.5829422281007934, ,0.06957253779946537,0.09107192088144989,0.05943586388059702,0.5237134198247633,0.15594440487221303,0.3930154970962082, ,1.175642967224121
0.013420278734027334,0.02073922222751033,-0.09034734423628804, ,0.014273243701874763,0.020131446179825596,-0.09141034428909192, ,0.0014922835095166388, ,0.020097673405100488,-9.664479282499826e-05,-0.05698083382022906,0.07466113156659557,0.050096234521222124,-0.11603616517308012, ,0.060421364097168674, ,0.08990726666328913, ,0.0007046400388856564, ,0.15689504107274513,-0.12887696620505862,0.10681170342000001,3.0442785995083246,1.345732886189823,-0.5829422281007934, ,0.06957253779946537,0.09107192088144989,0.05943586388059702,0.5237134198247633,0.15594440487221303,0.3930154970962082, ,1.1773159503936768
0.013420278734027334,0.02073922222751033,-0.09034734423628804, ,0.014312797481077012,0.020124853269063256,-0.09150265903035246, ,0.001583916413300454, ,0.020097673405100488,-9.664479282499826e-05,-0.05698083382022906,0.07466113156659557,0.050096234521222124,-0.11603616517308012, ,0.060421364097168674, ,0.08990726666328913, ,0.0007107461248190925, ,0.15689504107274513,-0.12887696620505862,0.10681170342000001,3.0442785995083246,1.345732886189823,-0.5829422281007934, ,0.06957253779946537,0.09107192088144989,0.05943586388059702,0.5237134198247633,0.15594440487221303,0.3930154970962082, ,1.1789789199829102
0.013420278734027334,0.02073922222751033,-0.09034734423628804, ,0.014352431559365528,0.02011825196226958,-0.09159489508044087, ,0.001676572715048646, ,0.020097673405100488,-9.664479282499826e-05,-0.05698083382022906,0.07466113156659557,0.050096234521222124,-0.11603616517308012, ,0.060421364097168674, ,0.08990726666328913, ,0.0007174069978551584, ,0.15689504107274513,-0.12887696620505862,0.10681170342000001,3.0442785995083246,1.345732886189823,-0.5829422281007934, ,0.06957253779946537,0.09107192088144989,0.05943586388059702,0.5237134198247633,0.15594440487221303,0.3930154970962082, ,1.1806750297546387
0.013420278734027334,0.02073922222751033,-0.09034734423628804, ,0.014392145223065337,0.020111642728798184,-0.09168705138762691, ,0.0017700835435276348, ,0.020097673405100488,-9.664479282499826e-05,-0.05698083382022906,0.07466113156659557,0.050096234521222124,-0.11603616517308012, ,0.060421364097168674, ,0.08990726666328913, ,0.0007246171111816822, ,0.15689504107274513,-0.12887696620505862,0.10681170342000001,3.0442785995083246,1.345732886189823,-0.5829422281007934, ,0.06957253779946537,0.09107192088144989,0.05943586388059702,0.5237134198247633,0.15594440487221303,0.3930154970962082, ,1.1823949813842773
0.013648797250045202,0.020728978889025796,-0.09094122101325623, ,0.014431937760657473,0.020105026036582294,-0.09177912690421694, ,0.0013056463929950897, ,0.021222100719890342,-0.0018480917307192191,-0.05169252976312245,-0.01151147692200732,0.05244574934704234,-0.1300917792791269, ,0.05590984381414084, ,0.05369079650968094, ,0.0007285696913300727, ,0.15769820529166448,-0.1278343972670383,0.10742744117000001,3.0509886776998294,1.3468259781879466,-0.5779527020402443, ,0.08021719489304377,0.10031389171085707,0.053452387651006725,0.6199879753459662,0.0786776770086607,0.48966954416878944, ,1.1840660572052002
0.013648797250045202,0.020728978889025796,-0.09094122101325623, ,0.014471808462776814,0.020098402352136228,-0.09187112058655071, ,0.0013927266212616367, ,0.021222100719890342,-0.0018480917307192191,-0.05169252976312245,-0.01151147692200732,0.05244574934704234,-0.1300917792791269, ,0.05590984381414084, ,0.05369079650968094, ,0.0007330572381539346, ,0.15769820529166448,-0.1278343972670383,0.10742744117000001,3.0509886776998294,1.3468259781879466,-0.5779527020402443, ,0.08021719489304377,0.10031389171085707,0.053452387651006725,0.6199879753459662,0.0786776770086607,0.48966954416878944, ,1.1857218742370605
0.013648797250045202,0.020728978889025796,-0.09094122101325623, ,0.014511756622209545,0.02009177214055676,-0.09196303139499487, ,0.0014814951145817586, ,0.021222100719890342,-0.0018480917307192191,-0.05169252976312245,-0.01151147692200732,0.05244574934704234,-0.1300917792791269, ,0.05590984381414084, ,0.05369079650968094, ,0.0007380803111500945, ,0.15769820529166448,-0.1278343972670383,0.10742744117000001,3.0509886776998294,1.3468259781879466,-0.5779527020402443, ,0.08021719489304377,0.10031389171085707,0.053452387651006725,0.6199879753459662,0.0786776770086607,0.48966954416878944, ,1.1874799728393555
0.013648797250045202,0.020728978889025796,-0.09094122101325623, ,0.014551781533890747,0.02008513586552505,-0.09205485829394, ,0.0015716559574892246, ,0.021222100719890342,-0.0018480917307192191,-0.05169252976312245,-0.01151147692200732,0.05244574934704234,-0.1300917792791269, ,0.05590984381414084, ,0.05369079650968094, ,0.0007436374821256887, ,0.15769820529166448,-0.1278343972670383,0.10742744117000001,3.0509886776998294,1.3468259781879466,-0.5779527020402443, ,0.08021719489304377,0.10031389171085707,0.053452387651006725,0.6199879753459662,0.0786776770086607,0.48966954416878944, ,1.1892650127410889
0.013648797250045202,0.020728978889025796,-0.09094122101325623, ,0.014591882494901846,0.02007849398930774,-0.09214660025179484, ,0.0016629730883353012, ,0.021222100719890342,-0.0018480917307192191,-0.05169252976312245,-0.01151147692200732,0.05244574934704234,-0.1300917792791269, ,0.05590984381414084, ,0.05369079650968094, ,0.0007497257973986, ,0.15769820529166448,-0.1278343972670383,0.10742744117000001,3.0509886776998294,1.3468259781879466,-0.5779527020402443, ,0.08021719489304377,0.10031389171085707,0.053452387651006725,0.6199879753459662,0.0786776770086607,0.48966954416878944, ,1.1921160221099854
0.01375267905586656,0.020717092739244346,-0.09119227935412254, ,0.014632058804468313,0.0200718469727586,-0.09223825624098116, ,0.0015111977002566894, ,0.021222100719890342,-0.0018480917307192191,-0.05169252976312245,-0.01151147692200732,0.05244574934704234,-0.1300917792791269, ,0.05590984381414084, ,0.05369079650968094, ,0.0007547354809700348, ,0.15812295559974685,-0.12731697416446527,0.10768799546,3.053714646965128,1.3473725241870083,-0.5755396177501102, ,0.08488098529380213,0.10193011982649922,0.04962246579439253,0.4782238354747282,0.08394549164384717,0.4868714609588671, ,1.1958119869232178
0.01375267905586656,0.020717092739244346,-0.09119227935412254, ,0.014672309763957185,0.020065195275320243,-0.0923298252379301, ,0.0016014685699386863, ,0.021222100719890342,-0.0018480917307192191,-0.05169252976312245,-0.01151147692200732,0.05244574934704234,-0.1300917792791269, ,0.05590984381414084, ,0.05369079650968094, ,0.0007602696841659083, ,0.15812295559974685,-0.12731697416446527,0.10768799546,3.053714646965128,1.3473725241870083,-0.5755396177501102, ,0.08488098529380213,0.10193011982649922,0.04962246579439253,0.4782238354747282,0.08394549164384717,0.4868714609588671, ,1.199660062789917
0.01375267905586656,0.020717092739244346,-0.09119227935412254, ,0.014712634676874508,0.02005853935502543,-0.09242130622307677, ,0.0016928421068671455, ,0.01985645371068168,-0.0026570192020214933,-0.0480638981033537,-0.029186361286590783,0.029457014510426253,0.006641324063702314, ,0.052071842735723524, ,0.04146447738174022, ,0.0007663253492483839, ,0.15812295559974685,-0.12731697416446527,0.10768799546,3.053714646965128,1.3473725241870083,-0.5755396177501102, ,0.08488098529380213,0.10193011982649922,0.04962246579439253,0.4782238354747282,0.08394549164384717,0.4868714609588671, ,1.201369047164917
0.01375267905586656,0.020717092739244346,-0.09119227935412254, ,0.014753032848863099,0.020051879668498654,-0.09251269818085522, ,0.0017851392154797335, ,0.01985645371068168,-0.0026570192020214933,-0.0480638981033537,-0.029186361286590783,0.029457014510426253,0.006641324063702314, ,0.052071842735723524, ,0.04146447738174022, ,0.0007728983419337474, ,0.15812295559974685,-0.12731697416446527,0.10768799546,3.053714646965128,1.3473725241870083,-0.5755396177501102, ,0.08488098529380213,0.10193011982649922,0.04962246579439253,0.4782238354747282,0.08394549164384717,0.4868714609588671, ,1.2030580043792725
0.014028867618890554,0.020660440234917955,-0.09186931690270478, ,0.014793503587699932,0.020045216670957645,-0.09260400009969448, ,0.001225939475825822, ,0.01814405023275009,-0.004822680369163956,-0.04424099217298733,-0.011482434732673777,-0.023160866066149678,0.20095061071828357, ,0.04805965244612163, ,0.025847679625974646, ,0.000775802451766389, ,0.15947443385273613,-0.12570292299375235,0.10838539948,3.0583278257217876,1.3488755256844283,-0.568924055637277, ,0.09833879954245676,0.11658100928559063,0.04577244689655173,0.20049571175914277,0.14497157066465977,0.3995121373550824, ,1.2047910690307617
0.014028867618890554,0.020660440234917955,-0.09186931690270478, ,0.014834046203293821,0.02003855081621501,-0.09269521097201248, ,0.0013104045236467926, ,0.01814405023275009,-0.004822680369163956,-0.04424099217298733,-0.011482434732673777,-0.023160866066149678,0.20095061071828357, ,0.04805965244612163, ,0.025847679625974646, ,0.0007792075605044807, ,0.15947443385273613,-0.12570292299375235,0.10838539948,3.0583278257217876,1.3488755256844283,-0.568924055637277, ,0.09833879954245676,0.11658100928559063,0.04577244689655173,0.20049571175914277,0.14497157066465977,0.3995121373550824, ,1.2065980434417725
0.014028867618890554,0.020660440234917955,-0.09186931690270478, ,0.01487466000768279,0.0200318825566796,-0.09278632979421331, ,0.0013969116518248754, ,0.01814405023275009,-0.004822680369163956,-0.04424099217298733,-0.011482434732673777,-0.023160866066149678,0.20095061071828357, ,0.04805965244612163, ,0.025847679625974646, ,0.0007831170800697996, ,0.15947443385273613,-0.12570292299375235,0.10838539948,3.0583278257217876,1.3488755256844283,-0.568924055637277, ,0.09833879954245676,0.11658100928559063,0.04577244689655173,0.20049571175914277,0.14497157066465977,0.3995121373550824, ,1.2082738876342773
0.014028867618890554,0.020660440234917955,-0.09186931690270478, ,0.014915344315031972,0.02002521234335815,-0.09287735556668031, ,0.0014850916992182298, ,0.01814405023275009,-0.004822680369163956,-0.04424099217298733,-0.011482434732673777,-0.023160866066149678,0.20095061071828357, ,0.04805965244612163, ,0.025847679625974646, ,0.000787532014781425, ,0.15947443385273613,-0.12570292299375235,0.10838539948,3.0583278257217876,1.3488755256844283,-0.568924055637277, ,0.09833879954245676,0.11658100928559063,0.04577244689655173,0.20049571175914277,0.14497157066465977,0.3995121373550824, ,1.2099390029907227
0.014028867618890554,0.020660440234917955,-0.09186931690270478, ,0.01495609844163076,0.020018540625856604,-0.09296828729377254, ,0.001574651716157016, ,0.01814405023275009,-0.004822680369163956,-0.04424099217298733,-0.011482434732673777,-0.023160866066149678,0.20095061071828357, ,0.04805965244612163, ,0.025847679625974646, ,0.0007924515129150223, ,0.15947443385273613,-0.12570292299375235,0.10838539948,3.0583278257217876,1.3488755256844283,-0.568924055637277, ,0.09833879954245676,0.11658100928559063,0.04577244689655173,0.20049571175914277,0.14497157066465977,0.3995121373550824, ,1.2116420269012451
0.014028867618890554,0.020660440234917955,-0.09186931690270478, ,0.014996921705890643,0.020011867852382008,-0.09305912398381992, ,0.0016653575414960202, ,0.01814405023275009,-0.004822680369163956,-0.04424099217298733,-0.011482434732673777,-0.023160866066149678,0.20095061071828357, ,0.04805965244612163, ,0.025847679625974646, ,0.0007978732894900596, ,0.15947443385273613,-0.12570292299375235,0.10838539948,3.0583278257217876,1.3488755256844283,-0.568924055637277, ,0.09833879954245676,0.11658100928559063,0.04577244689655173,0.20049571175914277,0.14497157066465977,0.3995121373550824, ,1.2133588790893555
0.01423701826437906,0.020605116807023673,-0.09234762642563017, ,0.01503781342834272,0.02000519446974358,-0.09314986464911795, ,0.001282484258234784, ,0.018952690068909737,-0.00550980223256164,-0.04020309841825585,-0.005805753995727566,-0.004656192659661815,-0.039301845661989215, ,0.04478673357053467, ,0.007435178770501759, ,0.0008008647152230518, ,0.16048611185925954,-0.12452134486399599,0.10884169356000001,3.060844105043602,1.3509250731809097,-0.5657762785244301, ,0.09461310225171563,0.11586928151217434,0.0416984594764398,0.3399300825247804,0.12313094251103646,0.3375895857172702, ,1.215052843093872
0.01423701826437906,0.020605116807023673,-0.09234762642563017, ,0.015078772931635091,0.019998520923354787,-0.09324050830592381, ,0.001368848982937146, ,0.018952690068909737,-0.00550980223256164,-0.04020309841825585,-0.005805753995727566,-0.004656192659661815,-0.039301845661989215, ,0.04478673357053467, ,0.007435178770501759, ,0.0008043492812826476, ,0.16048611185925954,-0.12452134486399599,0.10884169356000001,3.060844105043602,1.3509250731809097,-0.5657762785244301, ,0.09461310225171563,0.11586928151217434,0.0416984594764398,0.3399300825247804,0.12313094251103646,0.3375895857172702, ,1.2167279720306396
