NicholasDascanio/dvrk_moveit_final/test/execution/third_experiment_notsharpbends/thirdexp_700vel5.0/thirdexp_700vel5.0_20.csv
Current Position (x),Current Position (y),Current Position (z), ,Planned Position (x),Planned Position (y),Planned Position (z), ,Position Error,,Cartesian linear Velocity(x),Cartesian linear Velocity(y),Cartesian linear Velocity(z),Cartesian Angular Velocity(x),Cartesian Angular Velocity(y),Cartesian Angular Velocity(z), ,Total Linear Velocity, ,Total Angular Velocity, ,MSE, ,Joint 1 Position,Joint 2 Position,Joint 3 Position,Joint 4 Position,Joint 5 Position,Joint 6 Position, ,Joint 1 Velocity,Joint 2 Velocity,Joint 3 Velocity,Joint 4 Velocity,Joint 5 Velocity,Joint 6 Velocity, ,Time Stamp
0.008233020818727808,0.02019065400594921,-0.07361669080959574, ,0.008331441464227755,0.02008477220103493,-0.07376728011300449, ,0.00020874558288419928, ,0.00014720191337012743,1.4993717618355795e-05,-0.0008070860523446597,0.005746412500715908,-0.004158351639949433,-0.03912616962202559, ,0.0008205370867652067, ,0.007093175945196322, ,1.739546524034994e-05, ,0.13437555201150647,-0.15304912010138133,0.08966956446,2.9474018456184745,1.3267404127224267,-0.6570567174211877, ,0.0005807707484020725,0.001428345350386426,0.0007988833490479231,-0.0006075722530945855,0.0,-0.04033864545966326, ,0.01660299301147461
0.008239790259802917,0.02019363834911739,-0.07364466074490836, ,0.008401338429478817,0.020092092138249695,-0.07399899606351931, ,0.00040244622259669204, ,0.0006182907229455927,0.0003708391113115668,-0.0033880114366782736,0.026120047843483672,-0.012342143536185441,-0.15801597283627072, ,0.003463874501136223, ,0.02888919185382796, ,2.7781445703676874e-05, ,0.13439099747725491,-0.15302595190275867,0.08969808284000001,2.9476115355619585,1.3267404127224267,-0.6585269347437177, ,0.000923398348234766,0.0022991658406062657,0.003435154522320466,0.010426726078693533,0.0,-0.15051320442291782, ,0.034600019454956055
0.008274277976728828,0.0202082674345255,-0.07376385340772643, ,0.008471143007323894,0.02009937836908842,-0.07422987091563936, ,0.0005174794551712536, ,0.0013193236204150918,0.0010076045270757884,-0.008065337995236649,0.05736623672820467,-0.03315867975193838,-0.33714258105216705, ,0.008234413074152689, ,0.06625996623240815, ,3.5270976895379524e-05, ,0.13443733387450027,-0.15294872457401643,0.08981604523,2.9492890551098347,1.326193866723365,-0.6634720599782093, ,0.0030446079170272852,0.003216316118250614,0.00818541188078109,0.0,-0.0010392991756309742,-0.34343431160512305, ,0.05084395408630371
0.008334056558953258,0.02024091662404287,-0.0740519249799397, ,0.00854085508322959,0.020106630925941296,-0.07445990624703613, ,0.0004767043031682264, ,0.00428959063670284,0.0024937264304640966,-0.01766084799159566,-0.051538102140305395,0.013013291893248215,-0.10420792985095911, ,0.018344612591241392, ,0.05315562077510281, ,3.822322771000884e-05, ,0.13455317486761365,-0.15283288358090305,0.09008696984,2.9505471947707425,1.3235977732278217,-0.6638871607523347, ,0.00630837006603741,0.0055826286886166525,0.017679036093229746,0.16014198959304948,-0.057546530353876996,0.06391443515942274, ,0.06705784797668457
0.008376492219519294,0.020268335904955994,-0.07426391193098655, ,0.008610474543419589,0.020113849841431608,-0.07468910363392335, ,0.0005093148888137246, ,0.0037503321907791987,0.002514555974739382,-0.019650595650696673,0.050852225546496994,-0.010210105126212425,-0.21513269811380764, ,0.020162685652424163, ,0.05186706237725498, ,4.0667124089117225e-05, ,0.1346381249292301,-0.15274021078641234,0.09030345027000002,2.9513859545446803,1.3235977732278217,-0.663642124531913, ,0.008092320702780188,0.009048614342860896,0.020239912986022877,0.055834175042222246,0.02328643728017016,-0.16635080634788935, ,0.08506393432617188
0.008448351268468648,0.020305027019520396,-0.07460781887206965, ,0.008680001274873573,0.02012103514841545,-0.07491746465105753, ,0.0004282467075706659, ,0.003970841753589341,0.0012695361926654452,-0.014891638841923922,-0.11892960968653833,0.014371245469929982,0.11930867622718366, ,0.01546415900638742, ,0.11979475791623692, ,4.1015115487173575e-05, ,0.1348234705182115,-0.15250852880018562,0.09064826341000001,2.9526440942055876,1.3230512272287598,-0.6663002450424687, ,0.01188142501045083,0.014081754200693096,0.014480737745454548,0.11641145234525678,-0.07746631049638099,0.2527961855503961, ,0.10137391090393066
0.008470549500953438,0.020311251677667924,-0.07468256883832261, ,0.00874943516532588,0.02012818687998115,-0.07514499087173895, ,0.000570196519573264, ,0.004175344571483081,0.0010837340036661993,-0.013603411718179997,-0.14800916521090776,0.03733147234226031,0.33964386166873906, ,0.014270977263510459, ,0.15264452609847534, ,4.32379677746948e-05, ,0.13490842057982796,-0.15243130147144338,0.09072215194000001,2.953273164036041,1.3227779542292288,-0.6642804769519833, ,0.015239592349200382,0.014619772232086088,0.013318404280936457,0.13102142612423667,-0.06497366501019322,0.4903761277368117, ,0.12380599975585938
0.008561540634821663,0.020311836563275176,-0.07499609365253393, ,0.008818776103264583,0.02013530506944887,-0.07537168386781376, ,0.0004882637241814564, ,0.002544661246801676,-0.0002364728720857538,-0.009314781239083433,-0.07697526765422939,0.01112132256916348,0.21550012009646746, ,0.009659004597378937, ,0.07777451752344199, ,4.391948053609125e-05, ,0.13541039821665254,-0.15172853277988893,0.09105140960000001,2.9545313036969483,1.3246908652259453,-0.6606128882347373, ,0.01340920468538516,0.021800354137025222,0.009091787397260276,0.028380208580997452,-0.014130972845994422,0.2536621990941957, ,0.14031600952148438
0.008600200040045186,0.020311897675769117,-0.07509342508470138, ,0.00888802397793025,0.02014238975036982,-0.075597545209674, ,0.0006047418096967132, ,0.004443997718044143,6.096376846023081e-05,-0.011581307708560707,0.007662957281060746,0.02192278040660204,-0.1443840519184166, ,0.012404818440405087, ,0.023223458112436556, ,4.5718904496262995e-05, ,0.13554940740838858,-0.15150457352653643,0.09114733506000001,2.9562088232448245,1.3244175922264143,-0.6588381563646739, ,0.015227365461885554,0.027198894112488037,0.011842982542750931,0.19538251529834086,0.017778433688486084,0.04880485833424192, ,0.1571488380432129
0.008686497291152315,0.020319113551545746,-0.07543325803345823, ,0.008957178679314828,0.020149440956526193,-0.07582257646625909, ,0.000503612991806978, ,0.004003381611729674,0.0003948594039729419,-0.016902835955921038,-0.05402526824517816,-0.014771948813778284,0.021706195806675762, ,0.017374948679947756, ,0.056008380631637135, ,4.617404123003112e-05, ,0.13595098951784826,-0.15090220036234692,0.09148696304000001,2.957257272962247,1.3244175922264143,-0.6596549437660795, ,0.01932334383190201,0.028125945927229036,0.016696867421383647,0.02308152703120133,-0.020459204687346237,0.05248288036445744, ,0.17788982391357422
0.008779116585655054,0.020329445044123054,-0.0757418966793265, ,0.00902624009816076,0.020156458721930295,-0.07604677920505701, ,0.00042889118969121785, ,0.005157860813967235,0.00036213123569196455,-0.014576312522515254,-0.020289936610529295,0.0004169495222444367,-0.14004984609611904, ,0.015466206838205597, ,0.020294204013572813, ,4.5880744599592787e-05, ,0.13639118529167907,-0.15038477725977387,0.09179807264,2.959144482453608,1.3244175922264143,-0.6586747988843928, ,0.023033238242347275,0.027198894112488037,0.01465392044158234,0.15757906480312578,-0.0112371958359379,0.02022100534484889, ,0.19380784034729004
0.008822585241205187,0.02033266901877017,-0.0758836111447896, ,0.009095208125959571,0.0201634430808243,-0.07627015499210486, ,0.0005023711787739696, ,0.003969040505432865,0.00028420475722061144,-0.013709889313403618,-0.033251835199169605,-0.009005813899294255,-0.01602830911657858, ,0.014275682816018726, ,0.03444980034397608, ,4.6237824376461976e-05, ,0.13660742181215735,-0.15012992707492448,0.09194066454000001,2.959983242227546,1.3244175922264143,-0.658429762663971, ,0.020381645523726538,0.02417756472827281,0.013684545979381443,0.058135826378499504,-0.009042392471933404,0.046619352008717696, ,0.21225190162658691
0.008894055142076744,0.02033660580642139,-0.07612370133998016, ,0.009164082654950938,0.020170394067679794,-0.07649270539198998, ,0.0004865235762059146, ,0.0037230614010018946,0.0003176044844654072,-0.012713759818334147,-0.021306457882466177,-0.011339628764187457,-0.013839567421935173, ,0.013251480955820396, ,0.02413611393388639, ,4.677510038270439e-05, ,0.13700900392161702,-0.1496974540339679,0.09218047819000001,2.960822002001484,1.3242809557266486,-0.6575832360990095, ,0.020634255611757076,0.021611692452395984,0.012783957881219905,0.04268675107827477,0.0,0.0315761938064956, ,0.22758197784423828
0.008978272421375144,0.02034061750074747,-0.07637978439802881, ,0.009232863578121666,0.02017731171719693,-0.07671443196785123, ,0.00045108140287828156, ,0.0032318745666584906,0.00011192919349951023,-0.012214778257350553,-0.034933547175182975,-0.006145289341410563,0.06047506476046157, ,0.012635598491374094, ,0.035469945410426876, ,4.699013966437541e-05, ,0.13742603149682514,-0.14921092186289175,0.0924384399,2.9627092114928444,1.3242809557266486,-0.656358054996901, ,0.017431473467757305,0.02256227806906105,0.012196639754977033,0.02161530190675505,0.0,0.08652517582671013, ,0.242966890335083
0.009012083555410009,0.020343089163160556,-0.07649322027967972, ,0.009301550789204555,0.02018419606430444,-0.07693533628137929, ,0.000551819585791927, ,0.003824559057875059,0.0003130057807018724,-0.013344012209468913,-0.023481495496269003,-0.0038337536322726982,-0.015027734788012474, ,0.013884807757127297, ,0.02379239110650414, ,4.785529623358714e-05, ,0.13758820888718387,-0.14901013080816192,0.09255251342000001,2.9633382813232982,1.3242809557266486,-0.6557046250757765, ,0.018203902082960056,0.023072438988201018,0.013408090505050508,0.06405914783619143,0.0,0.05196084732543881, ,0.25988197326660156
0.009106275709474993,0.020361174216862548,-0.07680599101622192, ,0.009370144182677296,0.02019104714415889,-0.07715541989281804, ,0.00046975560860522137, ,0.004457265194896457,0.0009304457346279271,-0.015776694205849158,-0.02015599888168537,-0.01250666739406541,-0.00983481433284236, ,0.01642062795229211, ,0.02372087778323014, ,4.810249840132725e-05, ,0.13805157285963734,-0.14860082596582802,0.09287010447,2.9650158008711744,1.3242809557266486,-0.6544794439736681, ,0.02356517048881817,0.019550255780484298,0.015992782650602413,0.048512027800602646,0.0,0.04123057939563454, ,0.27469301223754883
0.009153761638519562,0.020371065349245397,-0.07697737471696203, ,0.009438643653761519,0.020197864992144203,-0.07737468436096535, ,0.0005186627801629358, ,0.004008051494959194,0.0008242118881840468,-0.015530493034588387,-0.02838436961134051,-0.01596732138662578,0.045102450436550236, ,0.0160605110728229, ,0.03256726710979946, ,4.861591333875834e-05, ,0.13830642304448673,-0.14839231217822396,0.09304251104000001,2.9654351807581434,1.3241443192268834,-0.6537962748889877, ,0.022637629188566502,0.01944211054260823,0.01567796409448819,0.00852676079652621,0.0,0.05732667520266653, ,0.28939199447631836
0.009241235571300285,0.02038848299616619,-0.0772427128370276, ,0.009507049098421707,0.020204649643871257,-0.0775931312431736, ,0.00047670178516827984, ,0.004718805265194257,0.001054349286172552,-0.014961628370074389,-0.013245935159283118,-0.0029332812719297515,-0.046679160928629754, ,0.015723520567363165, ,0.013566804618348399, ,4.883840518602797e-05, ,0.13871572788682066,-0.1480602346646323,0.09331343565000001,2.9675320801929885,1.3241443192268834,-0.652816130007301, ,0.022492756946781416,0.017323282504284554,0.01527211075743049,0.09839836956361307,0.0,0.05320993448408804, ,0.3073890209197998
0.009332974398364542,0.020404759169237133,-0.07755472284330574, ,0.009575360413364022,0.02021140113517749,-0.07781076209535108, ,0.00040211243227569575, ,0.003555735165442899,0.0003570490332505231,-0.011571131706062058,-0.021932822019877972,-0.009994830537878821,0.01027494094264829, ,0.012110401543216765, ,0.024102802986435436, ,4.8636063486576314e-05, ,0.13920998279077101,-0.1476509298222984,0.09362973041000001,2.9685805299104113,1.3241443192268834,-0.6514275914249115, ,0.020346685582862515,0.018165570742433152,0.011686582186353635,0.03757203155513229,0.0,0.05065745093876032, ,0.32333993911743164
0.009372632728068897,0.020408993743222872,-0.07765882104670335, ,0.009643577496035474,0.02021811950212623,-0.07802757847196232, ,0.0004958085133257616, ,0.0045242479308258785,0.0003843207636574609,-0.0109033730112699,-0.006170855801562916,0.007602139168975942,-0.10829939991012816, ,0.011811014554721763, ,0.009791415993999745, ,4.893546524918753e-05, ,0.1393876056468782,-0.14748102969906546,0.09373602619000002,2.9698386695713186,1.3241443192268834,-0.6508558402439274, ,0.020368521476383513,0.019070928769789147,0.011162446755430976,0.15785058344610864,0.0,0.050017495651258105, ,0.338346004486084
0.00944177542064692,0.020414122376173103,-0.07788115538936569, ,0.009711700244622737,0.02022480478100649,-0.07824358192602889, ,0.000489952606805726, ,0.0035989944282184667,0.00038318602972435187,-0.012491890960003091,-0.025222696213612984,-0.010421447474417598,0.024645891259689568, ,0.013005650010066025, ,0.027290853184887057, ,4.91794722421089e-05, ,0.1397737422905894,-0.1471103385211027,0.09396028436000001,2.9706774293452565,1.3241443192268834,-0.6495489804016785, ,0.02006277834217141,0.01919048363164222,0.01259194586561265,0.02872866907806104,0.0,0.0566479220940986, ,0.35692691802978516
0.009490590504639415,0.02042116562576083,-0.07804505946643979, ,0.009779728558051107,0.02023145700833223,-0.078458774009131, ,0.0005392122924151193, ,0.0038925021769165413,0.0005482786454926944,-0.014058610897059528,-0.025206943674057083,-0.011176926413064333,0.019721451960470128, ,0.014597832819474412, ,0.02757377638723978, ,4.963511866775106e-05, ,0.1400285924754388,-0.14687865653487595,0.09412620948000001,2.97130649917571,1.3241443192268834,-0.6486505142601322, ,0.020724381209537186,0.02000357115482099,0.01418415985752449,0.030253494261929467,0.0,0.05326683833935744, ,0.37168097496032715
0.009586829224419158,0.020437758872996613,-0.07834428151100373, ,0.009847662335983668,0.02023807622084215,-0.07867315627140667, ,0.00046482865842152653, ,0.004511144158338481,0.0010742176428115945,-0.016262668618238465,-0.02287399721271441,-0.009822397127335347,0.015881531561835412, ,0.016910906414148157, ,0.024893736085495402, ,4.9717076090428736e-05, ,0.14045334278352115,-0.14647707442541627,0.09443213392000001,2.97361308855404,1.3242809557266486,-0.6472100361011581, ,0.022713485294033216,0.0177942886852561,0.01652366340248963,0.04569582594048454,0.0,0.06448860686977356, ,0.3873779773712158
0.009586829224419158,0.020437758872996613,-0.07834428151100373, ,0.00991550147882002,0.02024466245549906,-0.07888673026155431, ,0.0006629949654689852, ,0.004511144158338481,0.0010742176428115945,-0.016262668618238465,-0.02287399721271441,-0.009822397127335347,0.015881531561835412, ,0.016910906414148157, ,0.024893736085495402, ,5.065421209327711e-05, ,0.14045334278352115,-0.14647707442541627,0.09443213392000001,2.97361308855404,1.3242809557266486,-0.6472100361011581, ,0.022713485294033216,0.0177942886852561,0.01652366340248963,0.04569582594048454,0.0,0.06448860686977356, ,0.4065220355987549
0.009734099938195526,0.020454649302349706,-0.07882198182696, ,0.009983245887695485,0.020251215749489525,-0.07909949752683226, ,0.00042482217251120974, ,0.0037767314809853438,0.00017963009867894638,-0.011683382239368144,-0.027532144569656324,-0.0013838813237401233,0.02260323878525663, ,0.012279958802984648, ,0.027566898527589628, ,5.073651661329809e-05, ,0.1411947251394467,-0.14575886026811338,0.09491565009000001,2.9759196779323696,1.3242809557266486,-0.644432958936379, ,0.019390466195028766,0.020460746347233886,0.011790386025166546,0.063786368730192,0.0,0.08986218606115004, ,0.41989684104919434
0.00976992479766733,0.020456112959046337,-0.07893932285410366, ,0.01005089546447996,0.020257736140223373,-0.07931145961305969, ,0.000506738241325591, ,0.003492192678685075,3.675621247885242e-05,-0.011350717545480567,-0.03303145580133642,-0.004776272609034989,0.057021184069258844, ,0.011875838897589417, ,0.03337498560263327, ,5.114646014345747e-05, ,0.1413877934613023,-0.14555034648050932,0.09503490877000001,2.976339057819339,1.3244175922264143,-0.6436459106985293, ,0.019446094581653847,0.020980973150225686,0.011402155705082321,0.03576717333619679,0.000210510925977112,0.09703048763315822, ,0.4327549934387207
0.009806682634779953,0.020457492890815554,-0.07904972410798217, ,0.010118450111776848,0.020264223665333193,-0.07952261806461793, ,0.0005984819524882799, ,0.00423608027745604,0.00024115770920636842,-0.013209301661621056,-0.02025335041981024,0.0026388235713837374,-0.03807045744498128, ,0.013874011083513898, ,0.020424524251696285, ,5.189177617235755e-05, ,0.14155769358453527,-0.1453495554257795,0.09514638971000001,2.977177817593277,1.3244175922264143,-0.6428291232971236, ,0.0182775311168087,0.023038830191422863,0.013340713165829148,0.1004373424327061,0.000210510925977112,0.06490297817148125, ,0.4470820426940918
0.009902153032151506,0.020470977325464344,-0.07936310747536092, ,0.01018590973292231,0.020270678362674113,-0.07973297442445025, ,0.0005073845679125686, ,0.0040098093996549285,0.0005868290438900993,-0.015442185081730899,-0.023963504464749687,-0.0102753815421978,0.033985349352229424, ,0.015965087530193697, ,0.026073590737952505, ,5.224387677744804e-05, ,0.1419824438926176,-0.14490163691907448,0.09546657334000001,2.9790650270846375,1.3246908652259453,-0.6414183843017053, ,0.01995309957074659,0.021272571521737452,0.015601186601371206,0.02185889843201693,0.004743270596708586,0.05888197674060444, ,0.46184802055358887
0.009946790498615313,0.0204775240674636,-0.07953147474608864, ,0.01025327423198398,0.020277100270322906,-0.07994253023406359, ,0.000550516658670936, ,0.004541080432241311,0.0007466454061364988,-0.0174211101529338,-0.02138162740995825,-0.010175827761214834,0.006160436727179169, ,0.01801871165803046, ,0.023679523996030252, ,5.273486064578638e-05, ,0.14219095768022166,-0.14466995493284773,0.09563638733,2.979484406971607,1.3246908652259453,-0.6406832756404401, ,0.021125766152820743,0.023111773394659224,0.01762036672566372,0.03847403058431043,0.004743270596708586,0.047355323449491026, ,0.47500085830688477
0.010004613951853225,0.020487492334178653,-0.07970533273440068, ,0.010320543513760251,0.02028348942657802,-0.08015128703352813, ,0.0005833557330707622, ,0.0058424383750642975,0.0010750212657543337,-0.016932408426829727,-0.005884166911945956,0.01380203231606704,-0.0980414809713835, ,0.017944252896713822, ,0.015003936964923963, ,5.331571261666578e-05, ,0.1424149169335742,-0.14444599567949523,0.09581397906000001,2.981161926519483,1.3246908652259453,-0.6398664882390346, ,0.022074189708878988,0.021041450456423676,0.017389532227074237,0.18463873648709445,0.004743270596708586,0.08688070040252094, ,0.490872859954834
0.010123487406499562,0.020509775662111332,-0.0801326445144879, ,0.010387717483778898,0.02028984586995896,-0.08035924636147873, ,0.00041174633486515204, ,0.003975664724500991,0.0006756163042199901,-0.0151689228370529,-0.0167439411922785,-0.016492809706334887,0.03843014683856562, ,0.015695814328305316, ,0.023502585720560652, ,5.32640365115323e-05, ,0.1429863991662668,-0.14392084984404796,0.09624953250000001,2.98242006618039,1.324964138225476,-0.6373122468816483, ,0.022002536878847852,0.019101638800014246,0.01540504015473888,0.0,0.009687061501814417,0.040431404371735306, ,0.5043919086456299
0.010163066216719797,0.020513602607237218,-0.08024768051375804, ,0.010454796048296564,0.020296169639205688,-0.08056640975511584, ,0.0004837062326612371, ,0.00481654300642167,0.0003255914592202717,-0.012671159582828152,0.017884666594075612,0.012453186201617974,-0.04026336072906005, ,0.013559623206583743, ,0.021793182858500938, ,5.345993426856964e-05, ,0.1431794674881224,-0.14373550425506657,0.09637008747,2.9832588259543282,1.3253740477247724,-0.6366663557110508, ,0.022074189708878988,0.022187734757650405,0.013251923061564062,0.13619098290733933,0.038147112222796965,0.09203702139623096, ,0.5173828601837158
0.01021923411485148,0.020518176600917686,-0.0803833168502585, ,0.010521779114297365,0.020302460773278387,-0.0807727787502052, ,0.0005382818652842749, ,0.004808717799714695,0.0002981530348334588,-0.012974946988492239,0.0310067895549528,0.0058920631642315514,-0.12073477061288768, ,0.013840589274436878, ,0.031561638726583206, ,5.38261673518005e-05, ,0.1434034267414749,-0.14349609953596562,0.09651397566000001,2.985355725389173,1.325920593723834,-0.6362135611842902, ,0.02103678598059649,0.022955235016562842,0.013533399762107054,0.1391439003550762,0.037335033381781034,0.013028551314811915, ,0.5310418605804443
0.010298456937219189,0.020523603194941814,-0.08064795635092206, ,0.010588666589492151,0.02030871931135693,-0.08097835488107887, ,0.0004894485820049866, ,0.0037390517360600035,0.0004465298321928487,-0.013703304616153558,-0.017136527988773572,-0.012525872689960969,0.06599718701771874, ,0.01421127911832946, ,0.021226342005996632, ,5.40159713620927e-05, ,0.1438127315838088,-0.1430790719607575,0.0967810114,2.9861944851631113,1.325920593723834,-0.6346616651216195, ,0.021421431503040808,0.01913244789485298,0.013948171208406305,0.0,0.014349912923104169,0.06783459783132928, ,0.5462589263916016
0.0103493160528699,0.02052869695163119,-0.08080367302063844, ,0.010655458382317462,0.020314945292840402,-0.08118313968063666, ,0.0005323606329975909, ,0.005390328256733804,0.000498507986696576,-0.015411299277368671,0.004047278423745081,0.003509924738164148,-0.12886654448623017, ,0.01633438992875973, ,0.005357160157551835, ,5.4331169041655116e-05, ,0.14404441357003556,-0.14284738997453075,0.09693915878,2.987242934880534,1.325920593723834,-0.6340899139406356, ,0.02204854590113169,0.024103871363594303,0.015786730941526265,0.1524472790678529,0.010581404894456003,0.022677248283643175, ,0.5592169761657715
0.010400391419833522,0.020534605759509703,-0.08095243115885399, ,0.010722154401934487,0.020321138757346775,-0.08138713468034539, ,0.0005814350602259529, ,0.005360592998753482,0.0007507441038823873,-0.01614570556287721,-0.004146304652239507,0.0036290748603289074,-0.0786697524287018, ,0.01702889844150006, ,0.005510075263797672, ,5.478143194930148e-05, ,0.1442452046247654,-0.14263115345405247,0.09709082471000001,2.988710764484926,1.325920593723834,-0.6335998414997922, ,0.022260600881649256,0.021895925601862203,0.016540821931464174,0.13412059901410828,0.008638529150636365,0.05562778303766781, ,0.5722529888153076
0.010502699936617756,0.02054917418720318,-0.08129887758043888, ,0.010788754558228246,0.0203272997447124,-0.08159034141024059, ,0.0004647651867965075, ,0.004817111166374623,0.0005407819605482327,-0.01672245502113304,-0.028335377421072172,-0.013673568910886698,0.01833584032661372, ,0.01741084452437282, ,0.03146202143345665, ,5.5025561568374744e-05, ,0.14473945952871575,-0.14217551221447322,0.09744341559000001,2.9899689041458326,1.3260572302235996,-0.632159363340818, ,0.024796692333020846,0.023230585448830058,0.016909566369426754,0.03692846117388559,0.0,0.05912095587513478, ,0.5881979465484619
0.010548596304128476,0.02055479573687194,-0.08144052439291764, ,0.010855258761806342,0.020333428294991625,-0.08179276139892687, ,0.0005168329669013057, ,0.00518112265600528,0.0006247894218685849,-0.01498535379466119,-0.013315954597843339,0.0009707364900913311,-0.03402746221752487, ,0.015868056659509903, ,0.01335126288072061, ,5.541277932108852e-05, ,0.14495569604919406,-0.14197472115974338,0.09758989636000001,2.990807663919771,1.3263305032231303,-0.6316470904869457, ,0.02401846154352589,0.020715333236950618,0.015345675838150292,0.11362044544788394,0.005635087950679144,0.08106727628472427, ,0.599355936050415
0.010604171820757298,0.020561805114432872,-0.08159687737945978, ,0.01092166692399834,0.020339524448456298,-0.08199439617357827, ,0.0005551873798335565, ,0.0049471101799132815,0.0005370204543761413,-0.014655526426393511,0.02918875712930796,0.002667987439032727,-0.03427370229076722, ,0.015477297727166023, ,0.029310425169801133, ,5.5894905904909664e-05, ,0.14521826896691767,-0.14175076190639088,0.09775452519000001,2.992065803580678,1.3268770492221922,-0.6311126172200447, ,0.023688702336113525,0.021880779699901032,0.015345675838150292,0.09632447796072394,0.04837572492423098,0.05651952170102916, ,0.6106789112091064
0.010642535856126747,0.020565019688209188,-0.08171570099810313, ,0.010987978956854598,0.020345588245595264,-0.08219524725993867, ,0.00063043295526847, ,0.005130541336910536,0.0004651059147126953,-0.015661025155839815,0.008650474259876108,0.004051229397305363,-0.0008843071973421551, ,0.016486554729642455, ,0.009552079482596483, ,5.657052345839582e-05, ,0.14540361455589906,-0.1415731390502837,0.09787508016000002,2.9926948734111316,1.3268770492221922,-0.6302141510784987, ,0.02403671265412127,0.024042802523048083,0.016220785661914462,0.09601305659762951,0.03619509205532216,0.0926863324465653, ,0.6237609386444092
0.010745947423220794,0.02057355730549005,-0.08203566833200127, ,0.011054194773145308,0.020351619727114197,-0.08239531618232322, ,0.000523086315699453, ,0.004258016299419566,0.00023968178768296144,-0.014660633248458024,0.01654892085190307,-0.0057652106667273485,0.02907835524710916, ,0.015268343636795134, ,0.017524376112189502, ,5.69225806647412e-05, ,0.14590559219272367,-0.14107888414633335,0.09820563411000001,2.994372392959008,1.3275602317210193,-0.6281575209124828, ,0.022213703548331177,0.02388546225987183,0.015184758360343184,0.029606893519243612,0.04693770327361076,0.05501482579649362, ,0.635098934173584
0.010806026855012741,0.020578842425423384,-0.08220747291027236, ,0.011120314286359506,0.020357618933934778,-0.08259460446361785, ,0.0005455155930719596, ,0.006544571226935688,0.0008558623669715341,-0.018295516502500636,0.035716424394273964,0.0201069471127397,-0.11942524588525527, ,0.01944967447102665, ,0.04098719609646782, ,5.732219351370525e-05, ,0.14614499691182462,-0.14081631122860971,0.09838192955000001,2.996049912506884,1.3276968682207848,-0.6272071151943517, ,0.024159099174763436,0.025794221679388635,0.019145206153846156,0.2085481413602296,0.047121078735518386,0.0826325472273125, ,0.6464519500732422
0.010870330146436423,0.020589265902904483,-0.08241077781694894, ,0.01118633741070434,0.020363585907194774,-0.08279311362528112, ,0.0005449520362992011, ,0.005943397567758333,0.0011203121308912913,-0.019184426206038635,0.002842286539266457,0.004443715411482675,-0.0006081838055533474, ,0.020115200291669973, ,0.005274713338352831, ,5.770538466491395e-05, ,0.14639984709667403,-0.14056918377663452,0.09858933595000001,2.9975177421112758,1.3276968682207848,-0.6258185766119623, ,0.025675579425993175,0.02192628039705887,0.01983662704856787,0.10938900249695484,0.02865538503418477,0.10731831172788824, ,0.6596298217773438
0.010973903704916367,0.020605659353183012,-0.0827643645446264, ,0.01125226406110378,0.020369520688247107,-0.08299084518734358, ,0.0004295805378506789, ,0.005032039076664262,0.0005959591146311501,-0.017606000067474505,-0.022771052709863925,-0.010799547719101635,0.020018410436690965, ,0.0183206938436103, ,0.025202170161116824, ,5.777251253191993e-05, ,0.14687865653487595,-0.14013671073567796,0.09895100086000001,2.9987758817721826,1.3279701412203158,-0.6240811226559815, ,0.024282738372177783,0.023483529215162283,0.01787745400673401,0.04300101453617964,0.006208116706975261,0.06596156846012044, ,0.6754879951477051
0.011029479356151561,0.020610359029657285,-0.08293156804404196, ,0.011318094153197901,0.020375423318659675,-0.08318780066840904, ,0.0004518278955156423, ,0.005019517324759293,0.00029661422622649907,-0.014496923620443112,-0.008414743505632042,-0.005757126537179217,-0.04078320880089323, ,0.01534419527475195, ,0.010195674275737374, ,5.7894415636784205e-05, ,0.14715667491834802,-0.13988958328370277,0.09912340743,2.999614641546121,1.3282434142198467,-0.62365052854225, ,0.024622973938368133,0.022610660366564398,0.014831295642458102,0.08953197102884891,0.010095083939617576,0.049627617217446185, ,0.6868648529052734
0.011078437650498886,0.020611809709906302,-0.08306279932770504, ,0.011383827603341912,0.02038129384021492,-0.08338398158565483, ,0.000499558437321166, ,0.005135072169211651,0.00012150928820042891,-0.01348328168234354,0.012992928614291778,-0.0007064644703496199,-0.049911562088337795, ,0.014428534770223617, ,0.013012103611262716, ,5.8132540707147024e-05, ,0.147396079637449,-0.13966562403035027,0.09925822159000001,3.0006630912635437,1.328380050719612,-0.6231085165248218, ,0.025780206889016784,0.023759875202421326,0.014009508812664908,0.10846855099721785,0.031476182153938104,0.05583118562984271, ,0.6982448101043701
0.011113719522434897,0.020612330932178652,-0.0831570945075269, ,0.01144946432860498,0.020387132294909453,-0.08357938945483256, ,0.0005846127125011801, ,0.005344003919471338,6.492497511963484e-05,-0.013930117795209546,0.0021763524748293697,-0.0014614140053241568,-0.03217695905687032, ,0.014920146612286791, ,0.00262139589823643, ,5.857344623456924e-05, ,0.1475814252264304,-0.13950344663999154,0.09935414705000001,3.001292161093997,1.328380050719612,-0.6224550866036973, ,0.027434790852405543,0.024946619757747313,0.014402180397830021,0.10789022843420046,0.025119636510615183,0.07462568477522043, ,0.7107758522033691
0.011187705376510215,0.020617519790808857,-0.08336426054800357, ,0.011515004246769727,0.020392938724953458,-0.0837740257902689, ,0.0005704986935854111, ,0.005398835274761945,0.0008083054662814514,-0.015800012151002137,-0.006891803193720611,0.003173579490106079,0.011216031625686046, ,0.01671649377180064, ,0.007587329792434597, ,5.8964872014919054e-05, ,0.1479366709386447,-0.13919453732502257,0.09956544232000002,3.002759990698389,1.328380050719612,-0.620821511800886, ,0.025131605285611962,0.01902123502875742,0.016337242584615386,0.10317569880245489,0.017836329828961325,0.11459128942702083, ,0.7224938869476318
0.01124052803781458,0.02062085961551429,-0.08351988950621489, ,0.011580447276330756,0.02039871317277041,-0.08396789210486522, ,0.0006046490379837072, ,0.005284252460037699,0.0001214141022583496,-0.016351870320368153,-0.02887981751239666,-0.0032070541752536215,-0.008460729699686967, ,0.017184927361492644, ,0.029057320712194853, ,5.9425051712471275e-05, ,0.14817607565774565,-0.1389551326059216,0.09972488599000001,3.0038084404158116,1.3285166872193777,-0.6198711060827552, ,0.02410999531465213,0.027020769236466628,0.016540821931464174,0.08920386861108973,0.0,0.08471826211400604, ,0.7339398860931396
0.011296804689035753,0.020624390797332585,-0.08369008669313448, ,0.011645793336494119,0.020404455680996556,-0.08416098991009917, ,0.0006260306471733289, ,0.00531804578903492,0.0004609939042657125,-0.016130124075153116,0.024793621017151535,0.004142484522280623,-0.04020189574153404, ,0.016990439343168157, ,0.025137277681666455, ,6.006212106684125e-05, ,0.14843092584259507,-0.13868483695532374,0.09990247772000001,3.004856890133234,1.329063233218439,-0.6193366328158542, ,0.023066830714261247,0.024054991523059767,0.016802543797468355,0.10735768628571714,0.04508756691207645,0.062400958886792535, ,0.7443239688873291
0.0113469071090724,0.020629635672829195,-0.08384434954080233, ,0.011711042347176133,0.02041016629248061,-0.08435332071602476, ,0.0006631839396025485, ,0.0055974770124829175,0.0007134353820986341,-0.017362601491574585,0.02428662777915808,0.009198047858314563,-0.017365100103123008, ,0.01825652402580877, ,0.02597003649221852, ,6.07679747106676e-05, ,0.14863943963019913,-0.13846860043484546,0.10006192139000002,3.0059053398506568,1.32933650621797,-0.6184159662612793, ,0.02305562234170816,0.02329902812631249,0.01812151481228669,0.11743435356714864,0.0482682779364441,0.09517183714002314, ,0.7552130222320557
0.011416746152291612,0.020639752646676376,-0.08406436739741936, ,0.011776194229002664,0.020415845050283193,-0.08454488603127301, ,0.0006404964395329806, ,0.006121356730551896,0.0009820133335177307,-0.019396483825200372,-0.02215495215182663,0.0029760288774445566,0.027486385025895305, ,0.02036317615675755, ,0.022353879020644313, ,6.140220135726294e-05, ,0.1489406262122939,-0.1381983047842476,0.10028877214000001,3.0071634795115636,1.329609779217501,-0.6170052272658608, ,0.026514931980573,0.02228150776202648,0.01988615670411985,0.10604731727179263,0.008887924832053721,0.13610337858378527, ,0.7647788524627686
0.01148102603368551,0.020649630810705547,-0.08425971673718592, ,0.011841248903307806,0.020421491997676594,-0.08473568736305219, ,0.0006390272846261792, ,0.006297418678729872,0.0008682521583616713,-0.019477410582272224,-0.01239745073688035,0.0026133506035279186,0.010682218980985245, ,0.020488554532131484, ,0.012669790169428607, ,6.20158387189015e-05, ,0.14921864459576598,-0.13796662279802085,0.10049099338,3.008421619172471,1.3298830522170317,-0.6158395244908638, ,0.02765062399722342,0.02392158849469896,0.020036240905660377,0.11252567385628157,0.01733946733233596,0.12424021339737266, ,0.7744488716125488
0.01154185611587944,0.020657861656277594,-0.08444397946423812, ,0.011906206292133327,0.02042710717814418,-0.08492572621714872, ,0.0006465899891389985, ,0.006673113810529753,0.0009815376175858672,-0.019173313800873174,0.03877903220518058,0.0018670900367585945,-0.06752082464932448, ,0.020325103348563144, ,0.038823920112032645, ,6.262992139636367e-05, ,0.14949666297923805,-0.13773494081179413,0.1006828443,3.0094700688898937,1.3302929617163284,-0.6150302758399855, ,0.030097349051211794,0.023350625383481982,0.020137561972187107,0.13622013697761098,0.05404909141317132,0.061752180504679004, ,0.7898299694061279
0.011635272974224287,0.020671614949300157,-0.08473222048321993, ,0.011971066318227655,0.02043269063538009,-0.08511500409792751, ,0.0005624635929086757, ,0.006300437700557159,0.0008244717716987672,-0.019416331252647714,-0.012773420233596082,0.00676356275163827,-0.016362089600112737, ,0.02042961546954505, ,0.014453486984968915, ,6.304202749908e-05, ,0.1498827996229493,-0.13738741783245403,0.100980991,3.0113572783812543,1.3307028712156246,-0.6136492760081229, ,0.025238548286827336,0.024208403458793566,0.019935934317897377,0.1341466100102508,0.012920589768982488,0.11904159282423643, ,0.8005259037017822
0.011691858641258985,0.0206776125969562,-0.08491583680045406, ,0.012035828905044817,0.020438242413288666,-0.08530352250833285, ,0.0005708886365057618, ,0.004985028084804295,0.0003720010641097334,-0.016626985714722493,-0.02501120144090588,-0.005810711444611923,0.051349306857790475, ,0.01736218718236767, ,0.02567729141163786, ,6.34617148008475e-05, ,0.15012992707492448,-0.13714801311335306,0.10116765676000002,3.012196038155192,1.3307028712156246,-0.6124240949060146, ,0.023706455547956723,0.023385150704403838,0.016927536153028694,0.047101254875228045,0.009531880902715159,0.10156873322177977, ,0.8102638721466064
0.01174230923447834,0.02067947537118704,-0.08508679300313292, ,0.012100493976743494,0.02044376255598419,-0.08549128294988804, ,0.0005894649759471479, ,0.004525784344335458,-5.367511831471674e-05,-0.015200662874126377,-0.02732592071899085,-0.01644990863340514,0.07285551458069628, ,0.01586019409599397, ,0.03189521320892675, ,6.391052057964763e-05, ,0.15039249999264812,-0.13688544019562943,0.10134265591000001,3.012405728098677,1.3309761442151555,-0.6116667858317205, ,0.025620124610818248,0.025225130664133646,0.01540504015473888,0.0,0.011556228934836864,0.07634893069259767, ,0.8199670314788818
0.011795851852615656,0.020680681241160723,-0.08521728196157173, ,0.012165061458186199,0.02044925110779057,-0.08567828692269691, ,0.0006343510177018014, ,0.006795608272889298,0.00014786029209418097,-0.014496832931473481,0.018762336309899548,0.016417166503731075,-0.1633359251577577, ,0.016011256025296506, ,0.02493086399512249, ,6.444319126802112e-05, ,0.15063190471174906,-0.13666148094227692,0.10147876636000001,3.0138735577030684,1.3312494172146863,-0.6109911554975672, ,0.02784534670142922,0.02573127482604956,0.015170296685714287,0.24566026677838207,0.022342941459461495,0.07911929617799604, ,0.8311300277709961
0.011873248931726126,0.020682019849009976,-0.08540186353362822, ,0.012229531274938399,0.02045470811324049,-0.08586453592544376, ,0.0006266366374955054, ,0.00572923974346397,0.0002709939478722379,-0.015141234315135872,0.0037547050923344176,-0.0007481399346667712,0.0022289940098589606, ,0.016191189034277825, ,0.0038284106216189572, ,6.494628873109738e-05, ,0.15096398222534071,-0.1363448488944337,0.10166932099,3.0161801470813985,1.3313860537144517,-0.6097140348188741, ,0.028940817797642814,0.02332766508320324,0.015755501008902082,0.1026137851853076,0.03068148503615329,0.1033533319862625, ,0.8423559665679932
0.011921611463661289,0.020682732046437176,-0.08554896222086797, ,0.012293903353267374,0.020460133617075608,-0.08605003145539415, ,0.0006627380248705831, ,0.004653601477300883,-5.2207080098862733e-05,-0.016074260756909597,-0.021259720481279592,-0.012801969128465476,0.09349118175534776, ,0.016734413379914857, ,0.024816628606070285, ,6.551163095156116e-05, ,0.15121883241019013,-0.136113166908207,0.10181839434,3.0165995269683674,1.3313860537144517,-0.6084888537167658, ,0.02529910465435105,0.026566892933502458,0.01637082376156218,0.0,0.02264207600417331,0.0957784813909192, ,0.8521928787231445
0.011977487270982958,0.02068428251889351,-0.08572838725782457, ,0.012358177620141388,0.020465527664245538,-0.08623477500839524, ,0.0006702293505229738, ,0.005570096098164887,0.0005544302073239769,-0.019327300780926367,-0.032797319228002386,-0.00760742229098429,0.03176761601685789, ,0.020121578438929238, ,0.033668001509023465, ,6.607841942766259e-05, ,0.15148140532791377,-0.1358351485247349,0.10200117123,3.0172285967988213,1.3315226902142172,-0.6076201267387752, ,0.02433878983289838,0.024940063484486404,0.01959263409594096,0.05506696499355337,0.0,0.0914241557593386, ,0.8618738651275635
0.012051183164962313,0.020693277771043735,-0.08593453532435534, ,0.012422354003228846,0.020470890299907913,-0.08641876807887625, ,0.000649388434643373, ,0.006972617769596534,0.0008401751434319212,-0.020054081839734582,0.00817277047585456,0.007104203091157528,-0.11171154096696821, ,0.02124828207802472, ,0.010828694995765609, ,6.672416100155948e-05, ,0.15175170097851162,-0.13557257560701128,0.10221635537000001,3.0193254962336664,1.3319325997135134,-0.6069742355681778, ,0.026301813070529596,0.024999194298859533,0.02071366907672302,0.18043837704860627,0.01826551487754219,0.067192493382787, ,0.8734188079833984
0.012093296151688736,0.020699222009777037,-0.08606401815611169, ,0.012486432430897322,0.020476221569427615,-0.08660201215984933, ,0.0007026541670577868, ,0.006541208672261092,0.0010142408320486665,-0.02071836632213841,0.018215056152939203,0.003199848865118568,-0.03103003324902452, ,0.02175009881397732, ,0.018493876984763985, ,6.746370681729092e-05, ,0.15192160110174455,-0.13541812094952677,0.10235116953000001,3.0201642560076043,1.3322058727130444,-0.6065436414544461, ,0.02634562508563875,0.023653275562928906,0.021525420972972976,0.1197597486011945,0.03968961667442567,0.08505718813459794, ,0.8828849792480469
0.01219387174588722,0.020715061126745364,-0.08639419125583367, ,0.012550412832212554,0.02048152151837661,-0.0867845087429093, ,0.000577936013441034, ,0.006181206891530702,0.0009059414850794366,-0.020217696172636128,-0.017843466581403823,-0.004849301510761277,0.08716197004008613, ,0.021160890509128394, ,0.01849058265156038, ,6.794112245093095e-05, ,0.15236179687557536,-0.13506287523731245,0.10268820493000001,3.021422395668511,1.3322058727130444,-0.6043383154706509, ,0.029434535222850736,0.02264843473949183,0.020821975843137257,0.05454577838086983,0.02246420597004082,0.1433471736696769, ,0.8911550045013428
0.012257496059456682,0.02072236170826564,-0.0865790577238891, ,0.012614295136937587,0.020486790192533473,-0.08696625931823498, ,0.0005768228457503808, ,0.006904225077129269,0.0007522676068286278,-0.018429381042852275,-0.023090010620956093,0.005327608657606454,-0.023062451167772037, ,0.019694575803773668, ,0.023696621669154327, ,6.840697163265145e-05, ,0.15265526072479588,-0.13483891598395994,0.10287875956,3.022470845385934,1.3323425092128096,-0.6029795160518171, ,0.030078269907597717,0.022439570006732273,0.01896287085714286,0.15848909208267456,0.0,0.13854159420954115, ,0.8993589878082275
0.0123320623370916,0.02073031639073171,-0.08677337987390508, ,0.012678079275531835,0.020492027637882926,-0.08714726537458954, ,0.0005624052089408919, ,0.006767319421634551,0.0006027948565207994,-0.017473277878307426,0.06859458589462425,0.011233252095934267,-0.09993260346898218, ,0.018747677552327056, ,0.06950828395155648, ,6.883570772365853e-05, ,0.1529718927726391,-0.13458406579911053,0.10308486967000001,3.024358054877295,1.333025691711637,-0.6019847095076285, ,0.02840375383372367,0.024622973938368133,0.01867387048065651,0.17719820559734836,0.07953910724959436,0.06549195856791087, ,0.9083068370819092
0.0123320623370916,0.02073031639073171,-0.08677337987390508, ,0.012741765179150164,0.020497233900615443,-0.0873275283993203, ,0.0007275056386101217, ,0.006767319421634551,0.0006027948565207994,-0.017473277878307426,0.06859458589462425,0.011233252095934267,-0.09993260346898218, ,0.018747677552327056, ,0.06950828395155648, ,6.957429558491445e-05, ,0.1529718927726391,-0.13458406579911053,0.10308486967000001,3.024358054877295,1.333025691711637,-0.6019847095076285, ,0.02840375383372367,0.024622973938368133,0.01867387048065651,0.17719820559734836,0.07953910724959436,0.06549195856791087, ,0.9203388690948486
0.012395441589017673,0.020736841715562872,-0.08694939405501992, ,0.01280535277964196,0.020502409027126904,-0.0875070498783601, ,0.0007307296948335596, ,0.0061335230718032735,0.0007052073457434016,-0.017892916763131667,0.015631082628791742,0.008333317226031433,0.003947859774229326, ,0.01892812439110626, ,0.017713641243709836, ,7.030494103703083e-05, ,0.15323446569036273,-0.1343523838128838,0.10327023914000001,3.0258258844816868,1.3335722377106989,-0.6011235212801653, ,0.025647822042829938,0.022354992122136815,0.01869578816901409,0.12388261694622067,0.042061623861618096,0.12431444145648188, ,0.9286818504333496
0.012505573231258107,0.02074537732279011,-0.08729470046247459, ,0.012868842009550227,0.020507553064018073,-0.08768583129622748, ,0.0005843867832647726, ,0.00545989423263802,0.0004053889346058025,-0.017627342349124386,-0.03737070323132239,-0.01364138016634047,0.07352666648825783, ,0.018458005946285987, ,0.03978259683511847, ,7.074513400126451e-05, ,0.15376733425868422,-0.13389674257330456,0.10362412631000001,3.026874334199109,1.3338455107102296,-0.5984059224424981, ,0.027902658499991406,0.022833720297995855,0.017917673250843646,0.026754421181147407,0.0,0.1054792696940915, ,0.9367198944091797
0.012505573231258107,0.02074537732279011,-0.08729470046247459, ,0.01293223280211069,0.02051266605809429,-0.08786387413602673, ,0.0007484327576885404, ,0.00545989423263802,0.0004053889346058025,-0.017627342349124386,-0.03737070323132239,-0.01364138016634047,0.07352666648825783, ,0.018458005946285987, ,0.03978259683511847, ,7.148428585085668e-05, ,0.15376733425868422,-0.13389674257330456,0.10362412631000001,3.026874334199109,1.3338455107102296,-0.5984059224424981, ,0.027902658499991406,0.022833720297995855,0.017917673250843646,0.026754421181147407,0.0,0.1054792696940915, ,0.9446418285369873
0.012585835384202463,0.020753627582126316,-0.08749031941480884, ,0.012995525091250786,0.02051774805636511,-0.08804117987944937, ,0.0007259008597864157, ,0.008750570203559889,0.0009349155141737666,-0.02072486288763091,0.011027452884540885,0.02801251791109153,-0.15742792036569403, ,0.022515916317511354, ,0.030104850993890188, ,7.21679211579664e-05, ,0.15407624357365318,-0.13364961512132936,0.10382894013,3.029390613520923,1.3341187837097606,-0.5972402196675013, ,0.030860794002754727,0.02568948066011661,0.021642406956521743,0.31198329404744346,0.01653432594493662,0.15253777264105328, ,0.9528839588165283
0.012660840681933584,0.020762883346704133,-0.08768106036689274, ,0.013058718811588727,0.02052279910604363,-0.08821775000677305, ,0.0007099177545506668, ,0.007622980703781836,0.0010801329118150065,-0.02105856722139599,0.02421964567986102,0.004292770932468593,-0.09562927671147363, ,0.022421859319322064, ,0.02459705221700455, ,7.280960893142381e-05, ,0.1543542619571253,-0.13342565586797686,0.10402856879000001,3.0316972028992533,1.3343920567092913,-0.5962378743727856, ,0.030951383417635606,0.02313431047256723,0.022001120883977904,0.17750918157046322,0.03456618915043634,0.07763698724905935, ,0.9614219665527344
0.012735036079391691,0.02077398329380705,-0.08791806617851229, ,0.013121813898432843,0.020527819254546463,-0.08839358599686414, ,0.000660539864938292, ,0.006795299511753259,0.001111723557419616,-0.02373334231307362,-0.01737204561395887,-0.011776808799311457,0.08608008488743828, ,0.024712012505501986, ,0.02098746445659845, ,7.334966689186311e-05, ,0.15468633947071692,-0.13317852841600167,0.10427097502,3.032535962673191,1.3343920567092913,-0.5949310145305367, ,0.031154609835348256,0.024559249885732604,0.024393279509954065,0.03360556590436438,0.023892948557258216,0.12135988279461361, ,0.969782829284668
0.012809677691841529,0.02078618643987253,-0.08816274525584836, ,0.013184810287780402,0.020532808549492996,-0.08856868932717635, ,0.0006080422755987984, ,0.008186393605954086,0.0015634005170638778,-0.026450067233727937,-0.011649117134923784,0.0026778494924349803,0.007810062785430222, ,0.027732062997856646, ,0.01195239984178987, ,7.391864267492159e-05, ,0.15498752605281169,-0.13293140096402647,0.10452115899000002,3.033584412390614,1.3343920567092913,-0.5934607972080066, ,0.03171689223210922,0.02464855624895345,0.027275362191780828,0.13459777947717677,0.018072069828951095,0.14346001448743156, ,0.9765729904174805
0.012809677691841529,0.02078618643987253,-0.08816274525584836, ,0.01324770791631662,0.02053776703870526,-0.08874306147375209, ,0.0007683421042687289, ,0.008186393605954086,0.0015634005170638778,-0.026450067233727937,-0.011649117134923784,0.0026778494924349803,0.007810062785430222, ,0.027732062997856646, ,0.01195239984178987, ,7.47672378877924e-05, ,0.15498752605281169,-0.13293140096402647,0.10452115899000002,3.033584412390614,1.3343920567092913,-0.5934607972080066, ,0.03171689223210922,0.02464855624895345,0.027275362191780828,0.13459777947717677,0.018072069828951095,0.14346001448743156, ,0.983055830001831
0.012889405938116973,0.020801558532473896,-0.08840334532819988, ,0.013310506721414076,0.02054269477020732,-0.08891670391122296, ,0.0007126523359055981, ,0.008846824700694611,0.0016647947011559578,-0.02564524362597456,-0.024135122480996207,0.014048480720927176,-0.023170370020969454, ,0.027179337175829106, ,0.027925845647333435, ,7.550446317184665e-05, ,0.15528871263490643,-0.1327151644435482,0.10477004667,3.03526193193849,1.334528693209057,-0.5919386403088919, ,0.03287043351523061,0.022735251930635067,0.026459819800664457,0.20886424483943877,0.0,0.18891387138179327, ,0.9899208545684814
0.012972680601005203,0.02081598082434752,-0.08864531047322681, ,0.013373206641131598,0.020547591792224842,-0.08908961811280992, ,0.0006556394283255058, ,0.008474414196264652,0.0013138613794223732,-0.025006885868650165,0.020537106419466537,0.0077516067222124976,-0.024336242042107634, ,0.026436457185899265, ,0.021951090355127482, ,7.613034206678137e-05, ,0.15560534468274964,-0.13247575972444725,0.10502411951000001,3.037149141429851,1.3350752392081187,-0.590587379640585, ,0.033687235200025124,0.026041970789920633,0.026112805770491805,0.16917824588413197,0.04623472168985963,0.1406064086986598, ,0.9969308376312256
0.012972680601005203,0.02081598082434752,-0.08864531047322681, ,0.013435807614213351,0.020552458153185012,-0.08926180555032392, ,0.000814860116010534, ,0.008474414196264652,0.0013138613794223732,-0.025006885868650165,0.020537106419466537,0.0077516067222124976,-0.024336242042107634, ,0.026436457185899265, ,0.021951090355127482, ,7.702724672010898e-05, ,0.15560534468274964,-0.13247575972444725,0.10502411951000001,3.037149141429851,1.3350752392081187,-0.590587379640585, ,0.033687235200025124,0.026041970789920633,0.026112805770491805,0.16917824588413197,0.04623472168985963,0.1406064086986598, ,1.0037219524383545
0.013055479382956236,0.020828259730149623,-0.08888926424202051, ,0.013498309580087851,0.020557293901715807,-0.08943326769416667, ,0.0007519712890911349, ,0.008575464811323322,0.0011437979599795535,-0.02476914565496073,0.027761893552443073,0.0029967980887037927,0.010286865632945565, ,0.02623656698160333, ,0.02792300502119044, ,7.78018755197786e-05, ,0.15595286766208974,-0.13221318680672361,0.10528078493000001,3.038616971034242,1.3357584217069458,-0.5893475368759749, ,0.037419929636620976,0.027474505373037285,0.025985010636215337,0.14489886396896995,0.06039559143752293,0.149479477778087, ,1.0108740329742432
0.01315137744272726,0.02084080613222694,-0.08916697096192533, ,0.013560712478867238,0.020562099086645597,-0.08960400601333028, ,0.000660478936246212, ,0.008699903480977027,0.0010661755605475168,-0.0245406730276249,-0.0313336965062718,0.005378685408877464,0.05193452913528053, ,0.02605896551195042, ,0.03179185261363564, ,7.840719862925365e-05, ,0.15636217250442364,-0.13191200022462884,0.10556856131000002,3.0402944905821188,1.3360316947064768,-0.5872016892192913, ,0.03767246588267994,0.026761686846720468,0.025324024674085854,0.15657678098153927,0.008941019379474729,0.21243393030606916, ,1.0189208984375
0.01315137744272726,0.02084080613222694,-0.08916697096192533, ,0.013623016251346234,0.020566873757003033,-0.0897740219753986, ,0.0008160839693011179, ,0.008699903480977027,0.0010661755605475168,-0.0245406730276249,-0.0313336965062718,0.005378685408877464,0.05193452913528053, ,0.02605896551195042, ,0.03179185261363564, ,7.927200960134333e-05, ,0.15636217250442364,-0.13191200022462884,0.10556856131000002,3.0402944905821188,1.3360316947064768,-0.5872016892192913, ,0.03767246588267994,0.026761686846720468,0.025324024674085854,0.15657678098153927,0.008941019379474729,0.21243393030606916, ,1.0253019332885742
0.01323977265668742,0.02084978801371762,-0.08940907969734511, ,0.013685220839001346,0.020571617962016318,-0.0899433170465475, ,0.0007491409787703997, ,0.008790405325367952,0.0006936333542109149,-0.023728177145201,-0.01895004913887942,0.006891556828815735,0.010852948948192538, ,0.025313607874982387, ,0.020164086790356767, ,8.001056163615535e-05, ,0.15674830914813487,-0.13162625910828255,0.10582004157000001,3.041972010129995,1.3363049677060077,-0.5852191990428889, ,0.03771738535710285,0.02986998475243021,0.02454362329738059,0.17862563424520547,0.017359635738691447,0.19157359808680663, ,1.0317158699035645
0.013329225842425057,0.020854134851380567,-0.08964961813895134, ,0.013747326183989755,0.020576331751113,-0.09011189269154483, ,0.0006824076641643952, ,0.008615327936157567,0.00037104872219179564,-0.022842476998129663,0.0379292804949267,0.009366842126251659,-0.04299112397237105, ,0.02441598468241369, ,0.03906868095222143, ,8.062578305826022e-05, ,0.15712672305897188,-0.13128645886181667,0.10607152183000002,3.0438592196213556,1.3368515137050692,-0.583704580894301, ,0.03615121583179839,0.033088194406719236,0.02402535674208145,0.1898019055162816,0.0673032824436538,0.13966738959304778, ,1.0386629104614258
0.013329225842425057,0.020854134851380567,-0.08964961813895134, ,0.013809332229148496,0.0205810151739195,-0.09027975037375154, ,0.0008379517492811655, ,0.008615327936157567,0.00037104872219179564,-0.022842476998129663,0.0379292804949267,0.009366842126251659,-0.04299112397237105, ,0.02441598468241369, ,0.03906868095222143, ,8.14950050094375e-05, ,0.15712672305897188,-0.13128645886181667,0.10607152183000002,3.0438592196213556,1.3368515137050692,-0.583704580894301, ,0.03615121583179839,0.033088194406719236,0.02402535674208145,0.1898019055162816,0.0673032824436538,0.13966738959304778, ,1.0452690124511719
0.013407867383789601,0.02085935901465994,-0.08985926391082574, ,0.013871238917993824,0.020585668280260823,-0.09044689155512185, ,0.0007968224677729033, ,0.008974443028912411,0.0008172651668910029,-0.023986148765155774,0.009113682508264017,0.009179251620647304,-0.02010398410132661, ,0.025623112274202598, ,0.012934833957327134, ,8.228368582641432e-05, ,0.15745880057256353,-0.1310084404783446,0.10629059484000002,3.045536739169232,1.3372614232043656,-0.582241902322298, ,0.037375715462178334,0.02921703865716465,0.025045301132075475,0.19454804344752638,0.03906383191679069,0.17203432539169747, ,1.0532000064849854
0.013407867383789601,0.02085935901465994,-0.08985926391082574, ,0.013933046194719766,0.020590291120159823,-0.09061331769620343, ,0.0009575006143826552, ,0.008974443028912411,0.0008172651668910029,-0.023986148765155774,0.009113682508264017,0.009179251620647304,-0.02010398410132661, ,0.025623112274202598, ,0.012934833957327134, ,8.332921972171714e-05, ,0.15745880057256353,-0.1310084404783446,0.10629059484000002,3.045536739169232,1.3372614232043656,-0.582241902322298, ,0.037375715462178334,0.02921703865716465,0.025045301132075475,0.19454804344752638,0.03906383191679069,0.17203432539169747, ,1.060910940170288
0.013407867383789601,0.02085935901465994,-0.08985926391082574, ,0.013994754004197649,0.020594883743837302,-0.09077903025613873, ,0.0011226545346014066, ,0.008974443028912411,0.0008172651668910029,-0.023986148765155774,0.009113682508264017,0.009179251620647304,-0.02010398410132661, ,0.025623112274202598, ,0.012934833957327134, ,8.477403242939306e-05, ,0.15745880057256353,-0.1310084404783446,0.10629059484000002,3.045536739169232,1.3372614232043656,-0.582241902322298, ,0.037375715462178334,0.02921703865716465,0.025045301132075475,0.19454804344752638,0.03906383191679069,0.17203432539169747, ,1.0660178661346436
0.013608068720143867,0.02086925887507461,-0.09041754121128232, ,0.014056362291975079,0.02059944620171123,-0.0909440306926642, ,0.0007422648983068273, ,0.008850052634843786,0.0005283315465131142,-0.02520518816897913,-0.04245094612897992,-0.005625763104643931,0.03937405180475473, ,0.0267189834480317, ,0.04282197875786807, ,8.5577892068633e-05, ,0.158300578455854,-0.13025933538954482,0.10686485131000001,3.049311158151953,1.3375346962038965,-0.5781357649022412, ,0.03982246813196424,0.03202731743451596,0.025816550275526744,0.1275985433502567,0.0,0.1730305265520378, ,1.0709428787231445
0.013608068720143867,0.02086925887507461,-0.09041754121128232, ,0.014117871004274883,0.020603978544396488,-0.09110832046211205, ,0.0008985811015855968, ,0.008850052634843786,0.0005283315465131142,-0.02520518816897913,-0.04245094612897992,-0.005625763104643931,0.03937405180475473, ,0.0267189834480317, ,0.04282197875786807, ,8.663010096269808e-05, ,0.158300578455854,-0.13025933538954482,0.10686485131000001,3.049311158151953,1.3375346962038965,-0.5781357649022412, ,0.03982246813196424,0.03202731743451596,0.025816550275526744,0.1275985433502567,0.0,0.1730305265520378, ,1.0758068561553955
0.013690103668217294,0.020873350014205927,-0.0906415112571718, ,0.014179280087994472,0.02060848082270446,-0.0912719010194097, ,0.0008407380749121607, ,0.009413853630328923,0.0002127824179418373,-0.024723638302869107,-0.0032334598584776966,-0.004271609839429387,-0.04624127576141881, ,0.026456080727532916, ,0.005356554453948246, ,8.757765034609786e-05, ,0.158678992366691,-0.12995814880745005,0.10709818351000001,3.0505692978128605,1.3379446057031927,-0.5770814800309406, ,0.04217641847043145,0.035675541939274726,0.025609021736334413,0.17328736866357616,0.027956095435753472,0.12703491382617838, ,1.0806739330291748
0.013690103668217294,0.020873350014205927,-0.0906415112571718, ,0.014240589490704673,0.020612953087642563,-0.09143477381808095, ,0.001000053343908904, ,0.009413853630328923,0.0002127824179418373,-0.024723638302869107,-0.0032334598584776966,-0.004271609839429387,-0.04624127576141881, ,0.026456080727532916, ,0.005356554453948246, ,8.877459903582287e-05, ,0.158678992366691,-0.12995814880745005,0.10709818351000001,3.0505692978128605,1.3379446057031927,-0.5770814800309406, ,0.04217641847043145,0.035675541939274726,0.025609021736334413,0.17328736866357616,0.027956095435753472,0.12703491382617838, ,1.0855369567871094
0.013801353061740056,0.020875535902957765,-0.09092691353004058, ,0.014301799160648922,0.020617395390413944,-0.09159694031024575, ,0.0008752249472687541, ,0.010871632696839606,0.0005195810307328718,-0.02842626999380984,0.01559101159042531,0.00681192564535924,-0.09401181739988154, ,0.030438711991532478, ,0.017013624319809625, ,8.975828425417714e-05, ,0.15914235633914448,-0.12954112123224193,0.10739373763000001,3.0530855771346745,1.3382178787027237,-0.5754257048151008, ,0.04411759254229232,0.03845094876761376,0.02960745635687733,0.24714916644692891,0.04216984370634404,0.150115813645676, ,1.0908219814300537
0.013801353061740056,0.020875535902957765,-0.09092691353004058, ,0.014362909046742416,0.02062180778241716,-0.0917584019466214, ,0.0010349377132722098, ,0.010871632696839606,0.0005195810307328718,-0.02842626999380984,0.01559101159042531,0.00681192564535924,-0.09401181739988154, ,0.030438711991532478, ,0.017013624319809625, ,9.098925348329237e-05, ,0.15914235633914448,-0.12954112123224193,0.10739373763000001,3.0530855771346745,1.3382178787027237,-0.5754257048151008, ,0.04411759254229232,0.03845094876761376,0.02960745635687733,0.24714916644692891,0.04216984370634404,0.150115813645676, ,1.0959270000457764
0.01391304773932872,0.020884536198623196,-0.09122642957028482, ,0.014423919098571214,0.020626190315245523,-0.09191916017652253, ,0.0008986700362040213, ,0.011519542869279647,0.001002222698985672,-0.03134406573083629,-0.005667326455460895,0.008685853581631148,-0.05459756703614114, ,0.03340890262781045, ,0.010369782448205458, ,9.1990377124499e-05, ,0.15958255211297526,-0.1291858755200276,0.10770225465000001,3.055601856456489,1.3382178787027237,-0.5734654150517272, ,0.04553596044072494,0.03682457957255366,0.0325077786122449,0.24881260156949675,0.026501418662908484,0.19450275192872782, ,1.10111403465271
0.01391304773932872,0.020884536198623196,-0.09122642957028482, ,0.01448482926639117,0.020630543040686896,-0.09207921644786173, ,0.0010576824180895208, ,0.011519542869279647,0.001002222698985672,-0.03134406573083629,-0.005667326455460895,0.008685853581631148,-0.05459756703614114, ,0.03340890262781045, ,0.010369782448205458, ,9.323514031990669e-05, ,0.15958255211297526,-0.1291858755200276,0.10770225465000001,3.055601856456489,1.3382178787027237,-0.5734654150517272, ,0.04553596044072494,0.03682457957255366,0.0325077786122449,0.24881260156949675,0.026501418662908484,0.19450275192872782, ,1.1065809726715088
0.0140341397524175,0.020895846292013,-0.09157342625031493, ,0.014545639501127167,0.020634866010723316,-0.0922385722071495, ,0.0008787274003042459, ,0.01131806447090762,0.0012014453421854195,-0.03296654231020978,-0.02381531865297418,0.008763247321012205,0.011939131391426893, ,0.03487599412445088, ,0.025375676715073726, ,9.418446199874112e-05, ,0.1600381933525545,-0.12879201614344216,0.10805873440000001,3.058118135778303,1.3382178787027237,-0.5710150528475104, ,0.043630777728032547,0.03609621208005735,0.03403592205128206,0.21319519920451058,0.018936577613515807,0.2280590182586789, ,1.111771821975708
0.0140341397524175,0.020895846292013,-0.09157342625031493, ,0.014606349754372224,0.020639159277530374,-0.092397228899496, ,0.0010353566122543354, ,0.01131806447090762,0.0012014453421854195,-0.03296654231020978,-0.02381531865297418,0.008763247321012205,0.011939131391426893, ,0.03487599412445088, ,0.025375676715073726, ,9.537184879094635e-05, ,0.1600381933525545,-0.12879201614344216,0.10805873440000001,3.058118135778303,1.3382178787027237,-0.5710150528475104, ,0.043630777728032547,0.03609621208005735,0.03403592205128206,0.21319519920451058,0.018936577613515807,0.2280590182586789, ,1.1166508197784424
0.014147627664863952,0.020907785815658032,-0.09191088775345552, ,0.01466695997838647,0.02064342289347726,-0.09255518796861016, ,0.0008687442510548945, ,0.011600529059481833,0.0010699501625745546,-0.03421401925856426,-0.039186674033335964,0.00375090929397226,0.01954155204293513, ,0.036142996301298566, ,0.039365185872516285, ,9.628649353926983e-05, ,0.16048611185925954,-0.12842132496547937,0.10840743641000002,3.060005345269664,1.3384911517022546,-0.5687058477105458, ,0.0454487268000339,0.03852900591086918,0.03516293933774835,0.19928634697682537,0.0072021114423014045,0.22435405815414236, ,1.1217219829559326
0.014147627664863952,0.020907785815658032,-0.09191088775345552, ,0.014727470126096426,0.020647656911125717,-0.09271245085680065, ,0.0010229309534204108, ,0.011600529059481833,0.0010699501625745546,-0.03421401925856426,-0.039186674033335964,0.00375090929397226,0.01954155204293513, ,0.036142996301298566, ,0.039365185872516285, ,9.758595827532909e-05, ,0.16048611185925954,-0.12842132496547937,0.10840743641000002,3.060005345269664,1.3384911517022546,-0.5687058477105458, ,0.0454487268000339,0.03852900591086918,0.03516293933774835,0.19928634697682537,0.0072021114423014045,0.22435405815414236, ,1.1250419616699219
0.014265841899993623,0.020919605260316648,-0.0922572880763928, ,0.014787880151093964,0.02065186138323036,-0.09286901900497624, ,0.0008475998161365146, ,0.012070425025097562,0.001215321983352129,-0.03452262388864408,0.05093033117565815,0.01081760472673637,-0.07977389585619953, ,0.0365921265843692, ,0.05206601741289989, ,9.86037865118125e-05, ,0.16092630763309032,-0.1280274655888939,0.10876910132,3.0623119346479934,1.3391743342010818,-0.5668942537649517, ,0.04459442742409342,0.0391812310315734,0.03620184436363637,0.25290790995452667,0.07990378314810007,0.1640203509976116, ,1.1282789707183838
0.014265841899993623,0.020919605260316648,-0.0922572880763928, ,0.014848190007635327,0.02065603636273771,-0.09302489385264673, ,0.0009989076583865218, ,0.012070425025097562,0.001215321983352129,-0.03452262388864408,0.05093033117565815,0.01081760472673637,-0.07977389585619953, ,0.0365921265843692, ,0.05206601741289989, ,9.985059846416536e-05, ,0.16092630763309032,-0.1280274655888939,0.10876910132,3.0623119346479934,1.3391743342010818,-0.5668942537649517, ,0.04459442742409342,0.0391812310315734,0.03620184436363637,0.25290790995452667,0.07990378314810007,0.1640203509976116, ,1.1315629482269287
0.014265841899993623,0.020919605260316648,-0.0922572880763928, ,0.014908399650640464,0.02066018190278622,-0.09318007683792266, ,0.0011540017503255803, ,0.012070425025097562,0.001215321983352129,-0.03452262388864408,0.05093033117565815,0.01081760472673637,-0.07977389585619953, ,0.0365921265843692, ,0.05206601741289989, ,0.00010133013420586652, ,0.16092630763309032,-0.1280274655888939,0.10876910132,3.0623119346479934,1.3391743342010818,-0.5668942537649517, ,0.04459442742409342,0.0391812310315734,0.03620184436363637,0.25290790995452667,0.07990378314810007,0.1640203509976116, ,1.1348400115966797
0.014386283741618227,0.0209312102392605,-0.09258299831850342, ,0.01496850903569195,0.020664298056705468,-0.09333456939751647, ,0.0009874651857480186, ,0.013692808011759414,0.0013414283634787172,-0.036329049768803676,-0.0011479413396705655,0.020819168652074477,-0.05758320933031471, ,0.03884703693211958, ,0.020849275098681872, ,0.00010254312480453157, ,0.16138194887266957,-0.12766449714380537,0.10910872930000001,3.0650379039132924,1.3395842437003782,-0.5647781452718239, ,0.05112981765003813,0.039789074028708925,0.03783565681710214,0.32748729353556627,0.03422335377532065,0.26930376515035803, ,1.1384129524230957
0.014386283741618227,0.0209312102392605,-0.09258299831850342, ,0.015028518119034108,0.020668384878016154,-0.09348837296674216, ,0.0011407214470331524, ,0.013692808011759414,0.0013414283634787172,-0.036329049768803676,-0.0011479413396705655,0.020819168652074477,-0.05758320933031471, ,0.03884703693211958, ,0.020849275098681872, ,0.00010398478150318195, ,0.16138194887266957,-0.12766449714380537,0.10910872930000001,3.0650379039132924,1.3395842437003782,-0.5647781452718239, ,0.05112981765003813,0.039789074028708925,0.03783565681710214,0.32748729353556627,0.03422335377532065,0.26930376515035803, ,1.1431968212127686
0.014386283741618227,0.0209312102392605,-0.09258299831850342, ,0.015088426857572194,0.02067244242042946,-0.09364148897951649, ,0.0012962901753835873, ,0.013692808011759414,0.0013414283634787172,-0.036329049768803676,-0.0011479413396705655,0.020819168652074477,-0.05758320933031471, ,0.03884703693211958, ,0.020849275098681872, ,0.00010565654895691041, ,0.16138194887266957,-0.12766449714380537,0.10910872930000001,3.0650379039132924,1.3395842437003782,-0.5647781452718239, ,0.05112981765003813,0.039789074028708925,0.03783565681710214,0.32748729353556627,0.03422335377532065,0.26930376515035803, ,1.1465389728546143
0.014540142870746904,0.020946427032494584,-0.09298790171437661, ,0.015148235208871385,0.0206764707378467,-0.09379391886835912, ,0.0010451393903302007, ,0.014506702812983344,0.001636928280961675,-0.03937567606900594,-0.023904068749793738,0.03094335279069277,-0.028303051627462494, ,0.04199485476332211, ,0.03909988402123868, ,0.00010693346517806871, ,0.1619302629067395,-0.12723202410284878,0.10952743097,3.0690220128394987,1.3395842437003782,-0.5611026019654988, ,0.05080136057733982,0.04029594121378802,0.040843106461538464,0.36108044079846346,0.017767033768973345,0.3357585247222701, ,1.1499509811401367
0.014540142870746904,0.020946427032494584,-0.09298790171437661, ,0.015207943131155872,0.020680469884359114,-0.09394566406439285, ,0.0011974970194348156, ,0.014506702812983344,0.001636928280961675,-0.03937567606900594,-0.023904068749793738,0.03094335279069277,-0.028303051627462494, ,0.04199485476332211, ,0.03909988402123868, ,0.0001084351905049064, ,0.1619302629067395,-0.12723202410284878,0.10952743097,3.0690220128394987,1.3395842437003782,-0.5611026019654988, ,0.05080136057733982,0.04029594121378802,0.040843106461538464,0.36108044079846346,0.017767033768973345,0.3357585247222701, ,1.1532788276672363
0.014540142870746904,0.020946427032494584,-0.09298790171437661, ,0.01526755058330815,0.020684439914247156,-0.0940967259973448, ,0.0013517583071396618, ,0.014506702812983344,0.001636928280961675,-0.03937567606900594,-0.023904068749793738,0.03094335279069277,-0.028303051627462494, ,0.04199485476332211, ,0.03909988402123868, ,0.00011016256938790464, ,0.1619302629067395,-0.12723202410284878,0.10952743097,3.0690220128394987,1.3395842437003782,-0.5611026019654988, ,0.05080136057733982,0.04029594121378802,0.040843106461538464,0.36108044079846346,0.017767033768973345,0.3357585247222701, ,1.1566460132598877
0.014688630840103988,0.02096362749207168,-0.09339877152801401, ,0.015327057524867762,0.020688380881980366,-0.09424710609554551, ,0.0010968230790123269, ,0.015087513845236392,0.0019075213030943037,-0.04322666495134374,-0.03468438891078171,0.016394994865407228,0.039002619644727454, ,0.045823752294718155, ,0.03836211368827417, ,0.00011149261178583562, ,0.1624862996736837,-0.12681499652764067,0.10995520667000001,3.072167361991766,1.3399941531996744,-0.557842991110403, ,0.05631865967861767,0.041749644328407734,0.04474385258426967,0.29125022892138897,0.019189025646072645,0.33467404462021766, ,1.159862995147705
0.014688630840103988,0.02096362749207168,-0.09339877152801401, ,0.015386463916030919,0.020692292842216846,-0.09439680578593099, ,0.0012476641671721497, ,0.015087513845236392,0.0019075213030943037,-0.04322666495134374,-0.03468438891078171,0.016394994865407228,0.039002619644727454, ,0.045823752294718155, ,0.03836211368827417, ,0.0001130428068593613, ,0.1624862996736837,-0.12681499652764067,0.10995520667000001,3.072167361991766,1.3399941531996744,-0.557842991110403, ,0.05631865967861767,0.041749644328407734,0.04474385258426967,0.29125022892138897,0.019189025646072645,0.33467404462021766, ,1.1631369590759277
0.014688630840103988,0.02096362749207168,-0.09339877152801401, ,0.015445769717648964,0.02069617584980287,-0.09454582649404229, ,0.0014001874002905785, ,0.015087513845236392,0.0019075213030943037,-0.04322666495134374,-0.03468438891078171,0.016394994865407228,0.039002619644727454, ,0.045823752294718155, ,0.03836211368827417, ,0.00011481369944845911, ,0.1624862996736837,-0.12681499652764067,0.10995520667000001,3.072167361991766,1.3399941531996744,-0.557842991110403, ,0.05631865967861767,0.041749644328407734,0.04474385258426967,0.29125022892138897,0.019189025646072645,0.33467404462021766, ,1.1663579940795898
0.014845748596564953,0.020985022455073,-0.09385039415764967, ,0.015504974891228165,0.020700029959772527,-0.09469416964402555, ,0.0011080420124534192, ,0.016229576839200885,0.0022599244824783064,-0.04729793524020573,0.05167002613700094,0.022126099831089104,-0.024781657536481178, ,0.050055979673089265, ,0.056206042271601586, ,0.00011613462367937114, ,0.1630577819063763,-0.1263825234866841,0.11042835252000001,3.075312711144034,1.3408139721982673,-0.5549176339663972, ,0.05689265081443092,0.045038890155895,0.04962246579439253,0.33294612036927707,0.09671606180349866,0.29826003407965945, ,1.1699628829956055
0.014845748596564953,0.020985022455073,-0.09385039415764967, ,0.015564079398928028,0.02070385522734742,-0.09484183665863342, ,0.0012561896291274578, ,0.016229576839200885,0.0022599244824783064,-0.04729793524020573,0.05167002613700094,0.022126099831089104,-0.024781657536481178, ,0.050055979673089265, ,0.056206042271601586, ,0.00011766973669551616, ,0.1630577819063763,-0.1263825234866841,0.11042835252000001,3.075312711144034,1.3408139721982673,-0.5549176339663972, ,0.05689265081443092,0.045038890155895,0.04962246579439253,0.33294612036927707,0.09671606180349866,0.29826003407965945, ,1.1731979846954346
0.014845748596564953,0.020985022455073,-0.09385039415764967, ,0.015623083203561131,0.020707651707936123,-0.09498882895922517, ,0.0014061356335856817, ,0.016229576839200885,0.0022599244824783064,-0.04729793524020573,0.05167002613700094,0.022126099831089104,-0.024781657536481178, ,0.050055979673089265, ,0.056206042271601586, ,0.00011941980569431235, ,0.1630577819063763,-0.1263825234866841,0.11042835252000001,3.075312711144034,1.3408139721982673,-0.5549176339663972, ,0.05689265081443092,0.045038890155895,0.04962246579439253,0.33294612036927707,0.09671606180349866,0.29826003407965945, ,1.1763780117034912
0.015015725686064196,0.021008047032699914,-0.09433550097670466, ,0.015681986268591873,0.020711419457133735,-0.09513514796576639, ,0.0010822783327461875, ,0.017011095936374128,0.0023314010544783154,-0.04729423926662303,0.01516961122996584,0.02363083666886245,-0.008052194104989262, ,0.05031458917294202, ,0.02807662608134924, ,0.00012067679335654418, ,0.16363698687194314,-0.1259423277128533,0.11091705385000002,3.078877440183271,1.3414971546970944,-0.5516358226982728, ,0.061581402698553396,0.04341122669646422,0.04962246579439253,0.36179023104996283,0.062093627198122545,0.35006333978887705, ,1.1802978515625
0.015015725686064196,0.021008047032699914,-0.09433550097670466, ,0.015740788558135488,0.020715158530721863,-0.09528079509683086, ,0.0012268173525804011, ,0.017011095936374128,0.0023314010544783154,-0.04729423926662303,0.01516961122996584,0.02363083666886245,-0.008052194104989262, ,0.05031458917294202, ,0.02807662608134924, ,0.00012214107829839753, ,0.16363698687194314,-0.1259423277128533,0.11091705385000002,3.078877440183271,1.3414971546970944,-0.5516358226982728, ,0.061581402698553396,0.04341122669646422,0.04962246579439253,0.36179023104996283,0.062093627198122545,0.35006333978887705, ,1.1837010383605957
0.015015725686064196,0.021008047032699914,-0.09433550097670466, ,0.015799490036957443,0.020718868984667693,-0.09542577176959956, ,0.0013735359125390564, ,0.017011095936374128,0.0023314010544783154,-0.04729423926662303,0.01516961122996584,0.02363083666886245,-0.008052194104989262, ,0.05031458917294202, ,0.02807662608134924, ,0.00012399774719192968, ,0.16363698687194314,-0.1259423277128533,0.11091705385000002,3.078877440183271,1.3414971546970944,-0.5516358226982728, ,0.061581402698553396,0.04341122669646422,0.04962246579439253,0.36179023104996283,0.062093627198122545,0.35006333978887705, ,1.1854989528656006
0.015015725686064196,0.021008047032699914,-0.09433550097670466, ,0.015858090670472183,0.020722550875124073,-0.09557007939986213, ,0.0015216013623394326, ,0.017011095936374128,0.0023314010544783154,-0.04729423926662303,0.01516961122996584,0.02363083666886245,-0.008052194104989262, ,0.05031458917294202, ,0.02807662608134924, ,0.00012606827106622227, ,0.16363698687194314,-0.1259423277128533,0.11091705385000002,3.078877440183271,1.3414971546970944,-0.5516358226982728, ,0.061581402698553396,0.04341122669646422,0.04962246579439253,0.36179023104996283,0.062093627198122545,0.35006333978887705, ,1.1871929168701172
0.015188422452086419,0.02103069663002178,-0.09482400780339942, ,0.015916590424742593,0.020726204258428815,-0.09571371940201676, ,0.0011893405439464047, ,0.017137508425969908,0.0018824012136394886,-0.04828659775580517,-0.009874258454435101,0.01962541050527772,0.03059792812167045, ,0.0512721479188285, ,0.02196349733705287, ,0.00012764115904385567, ,0.16427797370050376,-0.1254712410075256,0.11144464388000001,3.082442169222508,1.342043700696156,-0.5477525210856087, ,0.06292900633850848,0.04817103632409685,0.0502486167823344,0.335979537944971,0.0484350477665085,0.36675323821985634, ,1.1888978481292725
0.015188422452086419,0.02103069663002178,-0.09482400780339942, ,0.015974989266478758,0.020729829191104464,-0.09585669318907067, ,0.001332534305405664, ,0.017137508425969908,0.0018824012136394886,-0.04828659775580517,-0.009874258454435101,0.01962541050527772,0.03059792812167045, ,0.0512721479188285, ,0.02196349733705287, ,0.0001294209125835334, ,0.16427797370050376,-0.1254712410075256,0.11144464388000001,3.082442169222508,1.342043700696156,-0.5477525210856087, ,0.06292900633850848,0.04817103632409685,0.0502486167823344,0.335979537944971,0.0484350477665085,0.36675323821985634, ,1.1905889511108398
0.015188422452086419,0.02103069663002178,-0.09482400780339942, ,0.01603328716303741,0.020733425729857886,-0.09599900217264136, ,0.001477422801923952, ,0.017137508425969908,0.0018824012136394886,-0.04828659775580517,-0.009874258454435101,0.01962541050527772,0.03059792812167045, ,0.0512721479188285, ,0.02196349733705287, ,0.00013140911596014166, ,0.16427797370050376,-0.1254712410075256,0.11144464388000001,3.082442169222508,1.342043700696156,-0.5477525210856087, ,0.06292900633850848,0.04817103632409685,0.0502486167823344,0.335979537944971,0.0484350477665085,0.36675323821985634, ,1.1923198699951172
0.015188422452086419,0.02103069663002178,-0.09482400780339942, ,0.016091484082420757,0.020736993931579774,-0.09614064776295544, ,0.0016233676005002451, ,0.017137508425969908,0.0018824012136394886,-0.04828659775580517,-0.009874258454435101,0.01962541050527772,0.03059792812167045, ,0.0512721479188285, ,0.02196349733705287, ,0.00013360640386078984, ,0.16427797370050376,-0.1254712410075256,0.11144464388000001,3.082442169222508,1.342043700696156,-0.5477525210856087, ,0.06292900633850848,0.04817103632409685,0.0502486167823344,0.335979537944971,0.0484350477665085,0.36675323821985634, ,1.1939740180969238
0.015188422452086419,0.02103069663002178,-0.09482400780339942, ,0.01614957999327565,0.02074053385334446,-0.09628163136885078, ,0.0017699391838459165, ,0.017137508425969908,0.0018824012136394886,-0.04828659775580517,-0.009874258454435101,0.01962541050527772,0.03059792812167045, ,0.0512721479188285, ,0.02196349733705287, ,0.0007458765113332437, ,0.16427797370050376,-0.1254712410075256,0.11144464388000001,3.082442169222508,1.342043700696156,-0.5477525210856087, ,0.06292900633850848,0.04817103632409685,0.0502486167823344,0.335979537944971,0.0484350477665085,0.36675323821985634, ,1.1956379413604736
0.015188422452086419,0.02103069663002178,-0.09482400780339942, ,0.016207574864892712,0.020744045552409333,-0.09642195439777586, ,0.001916839534051958, ,0.017137508425969908,0.0018824012136394886,-0.04828659775580517,-0.009874258454435101,0.01962541050527772,0.03059792812167045, ,0.0512721479188285, ,0.02196349733705287, ,0.0007552442155149934, ,0.16489579233044174,-0.12501559976794635,0.11192038231000001,3.0857972083182603,1.3424536101954523,-0.5443295527502319, ,0.07419620137487942,0.05077417953904269,0.05492693627586208,0.416802009954357,0.04707735729879237,0.40087695260205003, ,1.197566032409668
0.015354652630108613,0.021048339211291418,-0.09528093579277772, ,0.016265468667205515,0.020747529086214463,-0.09656161825579065, ,0.0016000687972242335, ,0.019750133476131894,0.0021973440728680176,-0.052623643177268066,-0.006330567104369133,0.02158897848328732,-0.015753226661257454, ,0.056250723680216115, ,0.02248903099556927, ,0.0007619491725126857, ,0.16489579233044174,-0.12501559976794635,0.11192038231000001,3.0857972083182603,1.3424536101954523,-0.5443295527502319, ,0.07419620137487942,0.05077417953904269,0.05492693627586208,0.416802009954357,0.04707735729879237,0.40087695260205003, ,1.199206829071045
0.015354652630108613,0.021048339211291418,-0.09528093579277772, ,0.01632326137078962,0.02075098451238237,-0.09670062434756689, ,0.0017441726698025955, ,0.019750133476131894,0.0021973440728680176,-0.052623643177268066,-0.006330567104369133,0.02158897848328732,-0.015753226661257454, ,0.056250723680216115, ,0.02248903099556927, ,0.000769683215798433, ,0.16489579233044174,-0.12501559976794635,0.11192038231000001,3.0857972083182603,1.3424536101954523,-0.5443295527502319, ,0.07419620137487942,0.05077417953904269,0.05492693627586208,0.416802009954357,0.04707735729879237,0.40087695260205003, ,1.200927972793579
0.015354652630108613,0.021048339211291418,-0.09528093579277772, ,0.016380952946861534,0.02075441188871753,-0.09683897407638867, ,0.0018886950268161248, ,0.019750133476131894,0.0021973440728680176,-0.052623643177268066,-0.006330567104369133,0.02158897848328732,-0.015753226661257454, ,0.056250723680216115, ,0.02248903099556927, ,0.0007784254955720088, ,0.16489579233044174,-0.12501559976794635,0.11192038231000001,3.0857972083182603,1.3424536101954523,-0.5443295527502319, ,0.07419620137487942,0.05077417953904269,0.05492693627586208,0.416802009954357,0.04707735729879237,0.40087695260205003, ,1.2025768756866455
0.015354652630108613,0.021048339211291418,-0.09528093579277772, ,0.01643854336727809,0.020757811273205924,-0.09697666884415282, ,0.0020334050738738505, ,0.019750133476131894,0.0021973440728680176,-0.052623643177268066,-0.006330567104369133,0.02158897848328732,-0.015753226661257454, ,0.056250723680216115, ,0.02248903099556927, ,0.0007881540194348138, ,0.16489579233044174,-0.12501559976794635,0.11192038231000001,3.0857972083182603,1.3424536101954523,-0.5443295527502319, ,0.07419620137487942,0.05077417953904269,0.05492693627586208,0.416802009954357,0.04707735729879237,0.40087695260205003, ,1.2042348384857178
0.015354652630108613,0.021048339211291418,-0.09528093579277772, ,0.01649603260453526,0.020761182724014816,-0.09711371005136932, ,0.002178134196316472, ,0.019750133476131894,0.0021973440728680176,-0.052623643177268066,-0.006330567104369133,0.02158897848328732,-0.015753226661257454, ,0.056250723680216115, ,0.02248903099556927, ,0.0007988461746415958, ,0.16489579233044174,-0.12501559976794635,0.11192038231000001,3.0857972083182603,1.3424536101954523,-0.5443295527502319, ,0.07419620137487942,0.05077417953904269,0.05492693627586208,0.416802009954357,0.04707735729879237,0.40087695260205003, ,1.2058160305023193
0.015354652630108613,0.021048339211291418,-0.09528093579277772, ,0.016553420631767554,0.020764526299492193,-0.09725009909716155, ,0.002322756683347867, ,0.019750133476131894,0.0021973440728680176,-0.052623643177268066,-0.006330567104369133,0.02158897848328732,-0.2985897239172902, ,0.056250723680216115, ,0.02248903099556927, ,0.0008104790792882086, ,0.16572984748085798,-0.1244595630010022,0.11255426812000001,3.092507286509765,1.3424536101954523,-0.5394288283417981, ,0.0857244277854298,0.055592818722009836,0.06895589402597403,0.7937985291244102,0.024434378541877026,0.4935825922019835, ,1.2081518173217773
0.015598329190602753,0.02107645880537604,-0.09588980795849109, ,0.016610707422746885,0.02076784205816652,-0.09738583737926743, ,0.001832555049488515, ,0.026586756141775338,0.003525087679074248,-0.06588405644775815,0.012764983391343535,0.06505824420128248,-0.2985897239172902, ,0.07113361188143599, ,0.06628935486464224, ,0.0008182220790624533, ,0.16572984748085798,-0.1244595630010022,0.11255426812000001,3.092507286509765,1.3424536101954523,-0.5394288283417981, ,0.0857244277854298,0.055592818722009836,0.06895589402597403,0.7937985291244102,0.024434378541877026,0.4935825922019835, ,1.2099049091339111
0.015598329190602753,0.02107645880537604,-0.09588980795849109, ,0.016667892951881768,0.020771130058746187,-0.09752092629403886, ,0.001974269309775138, ,0.026586756141775338,0.003525087679074248,-0.06588405644775815,0.012764983391343535,0.06505824420128248,-0.2985897239172902, ,0.07113361188143599, ,0.06628935486464224, ,0.000826914163503902, ,0.16572984748085798,-0.1244595630010022,0.11255426812000001,3.092507286509765,1.3424536101954523,-0.5394288283417981, ,0.0857244277854298,0.055592818722009836,0.06895589402597403,0.7937985291244102,0.024434378541877026,0.4935825922019835, ,1.211582899093628
0.015598329190602753,0.02107645880537604,-0.09588980795849109, ,0.01672497719421642,0.020774390360119282,-0.0976553672364429, ,0.0021160767078790468, ,0.026586756141775338,0.003525087679074248,-0.06588405644775815,0.012764983391343535,0.06505824420128248,-0.2985897239172902, ,0.07113361188143599, ,0.06628935486464224, ,0.0008365347795067016, ,0.16572984748085798,-0.1244595630010022,0.11255426812000001,3.092507286509765,1.3424536101954523,-0.5394288283417981, ,0.0857244277854298,0.055592818722009836,0.06895589402597403,0.7937985291244102,0.024434378541877026,0.4935825922019835, ,1.2133839130401611
0.015598329190602753,0.02107645880537604,-0.09588980795849109, ,0.016781960125429853,0.020777623021353237,-0.09778916160006182, ,0.002257837299594504, ,0.026586756141775338,0.003525087679074248,-0.06588405644775815,0.012764983391343535,0.06505824420128248,-0.2985897239172902, ,0.07113361188143599, ,0.06628935486464224, ,0.0008470629463221668, ,0.16572984748085798,-0.1244595630010022,0.11255426812000001,3.092507286509765,1.3424536101954523,-0.5394288283417981, ,0.0857244277854298,0.055592818722009836,0.06895589402597403,0.7937985291244102,0.024434378541877026,0.4935825922019835, ,1.2152109146118164
0.01580375958509254,0.02110692223280533,-0.09641445366811814, ,0.016838841721835023,0.020780828101694168,-0.09792231077709417, ,0.0018577850987770515, ,0.02814481933686739,0.004613199270443114,-0.0748451158233455,-0.010752576802935745,0.07976025010583992,-0.19425238268096853, ,0.08009496754243506, ,0.08046717815444793, ,0.0008544947268549234, ,0.16634766611079593,-0.1240502581586683,0.11310130250000001,3.098797984814301,1.3424536101954523,-0.5350181763742078, ,0.08427792323132396,0.05494901074607457,0.07808240941176472,0.8052093829805734,0.018127610979844347,0.6124787999862776, ,1.2191970348358154
0.01580375958509254,0.02110692223280533,-0.09641445366811814, ,0.016895621960377864,0.02078400566056671,-0.09805481615835418, ,0.001996804361614684, ,0.02814481933686739,0.004613199270443114,-0.0748451158233455,-0.010752576802935745,0.07976025010583992,-0.19425238268096853, ,0.08009496754243506, ,0.08046717815444793, ,0.0008628327533860164, ,0.16634766611079593,-0.1240502581586683,0.11310130250000001,3.098797984814301,1.3424536101954523,-0.5350181763742078, ,0.08427792323132396,0.05494901074607457,0.07808240941176472,0.8052093829805734,0.018127610979844347,0.6124787999862776, ,1.2208988666534424
0.01580375958509254,0.02110692223280533,-0.09641445366811814, ,0.016952300818636214,0.020787155757573728,-0.09818667913327303, ,0.002135926183924793, ,0.02814481933686739,0.004613199270443114,-0.0748451158233455,-0.010752576802935745,0.07976025010583992,-0.19425238268096853, ,0.08009496754243506, ,0.08046717815444793, ,0.0008720580681000656, ,0.16634766611079593,-0.1240502581586683,0.11310130250000001,3.098797984814301,1.3424536101954523,-0.5350181763742078, ,0.08427792323132396,0.05494901074607457,0.07808240941176472,0.8052093829805734,0.018127610979844347,0.6124787999862776, ,1.2227458953857422
0.01580375958509254,0.02110692223280533,-0.09641445366811814, ,0.017008878274819565,0.02079027845249559,-0.09831790108989912, ,0.0022750135004924385, ,0.02814481933686739,0.004613199270443114,-0.0748451158233455,-0.010752576802935745,0.07976025010583992,-0.19425238268096853, ,0.08009496754243506, ,0.08046717815444793, ,0.000882151272649651, ,0.16634766611079593,-0.1240502581586683,0.11310130250000001,3.098797984814301,1.3424536101954523,-0.5350181763742078, ,0.08427792323132396,0.05494901074607457,0.07808240941176472,0.8052093829805734,0.018127610979844347,0.6124787999862776, ,1.2246129512786865
0.01580375958509254,0.02110692223280533,-0.09641445366811814, ,0.017065354307767355,0.020793373805290134,-0.0984484834148982, ,0.0024139616549283364, ,0.02814481933686739,0.004613199270443114,-0.0748451158233455,-0.010752576802935745,0.07976025010583992,-0.19425238268096853, ,0.08009496754243506, ,0.08046717815444793, ,0.0008930927753802129, ,0.16634766611079593,-0.1240502581586683,0.11310130250000001,3.098797984814301,1.3424536101954523,-0.5350181763742078, ,0.08427792323132396,0.05494901074607457,0.07808240941176472,0.8052093829805734,0.018127610979844347,0.6124787999862776, ,1.2267348766326904
0.016132439030200812,0.021161452326894883,-0.09734198504074314, ,0.017121728896948532,0.02079644187609205,-0.09857842749355444, ,0.0016250283101407956, ,0.025274175250100204,0.004231546874765362,-0.07618026161228089,-0.0885712515062243,0.028067224243053683,0.2475355347351437, ,0.08037488527420535, ,0.09289816969205499, ,0.0008982838075416355, ,0.16743657144606158,-0.12336293493286232,0.11406703855000001,3.105927442892775,1.3428635196947487,-0.5271845560712407, ,0.08868873042847737,0.05685856294695672,0.07885550257425744,0.3922469212266457,0.01604049172850957,0.6516011597832283, ,1.228860855102539
0.016132439030200812,0.021161452326894883,-0.09734198504074314, ,0.01717800202246057,0.020799482725212634,-0.09870773470976965, ,0.001757696254126752, ,0.025274175250100204,0.004231546874765362,-0.07618026161228089,-0.0885712515062243,0.028067224243053683,0.2475355347351437, ,0.08037488527420535, ,0.09289816969205499, ,0.0009043360078696997, ,0.16743657144606158,-0.12336293493286232,0.11406703855000001,3.105927442892775,1.3428635196947487,-0.5271845560712407, ,0.08868873042847737,0.05685856294695672,0.07885550257425744,0.3922469212266457,0.01604049172850957,0.6516011597832283, ,1.2306678295135498
0.016132439030200812,0.021161452326894883,-0.09734198504074314, ,0.017234173665028673,0.020802496413139207,-0.09883640644606545, ,0.0018910219169234843, ,0.025274175250100204,0.004231546874765362,-0.07618026161228089,-0.0885712515062243,0.028067224243053683,0.2475355347351437, ,0.08037488527420535, ,0.09289816969205499, ,0.0009112359093316143, ,0.16743657144606158,-0.12336293493286232,0.11406703855000001,3.105927442892775,1.3428635196947487,-0.5271845560712407, ,0.08868873042847737,0.05685856294695672,0.07885550257425744,0.3922469212266457,0.01604049172850957,0.6516011597832283, ,1.232583999633789
0.016132439030200812,0.021161452326894883,-0.09734198504074314, ,0.017290243806004607,0.020805483000534974,-0.09896444408358228, ,0.002024746751046586, ,0.025274175250100204,0.004231546874765362,-0.07618026161228089,-0.0885712515062243,0.028067224243053683,0.2475355347351437, ,0.08037488527420535, ,0.09289816969205499, ,0.0009189686235101904, ,0.16743657144606158,-0.12336293493286232,0.11406703855000001,3.105927442892775,1.3428635196947487,-0.5271845560712407, ,0.08868873042847737,0.05685856294695672,0.07885550257425744,0.3922469212266457,0.01604049172850957,0.6516011597832283, ,1.2345130443572998
0.016132439030200812,0.021161452326894883,-0.09734198504074314, ,0.017346212427366125,0.020808442548238548,-0.09909184900208061, ,0.002158676827753726, ,0.025274175250100204,0.004231546874765362,-0.07618026161228089,-0.0885712515062243,0.028067224243053683,0.2475355347351437, ,0.08037488527420535, ,0.09289816969205499, ,0.000927518335263594, ,0.16743657144606158,-0.12336293493286232,0.11406703855000001,3.105927442892775,1.3428635196947487,-0.5271845560712407, ,0.08868873042847737,0.05685856294695672,0.07885550257425744,0.3922469212266457,0.01604049172850957,0.6516011597832283, ,1.23624587059021
0.01641441309470159,0.021206592348079034,-0.09819010495269924, ,0.0174020795117157,0.020811375117263442,-0.09921862257994064, ,0.0014797060925661287, ,0.02706392301570941,0.0038462781063221957,-0.07802630518298356,0.07264024397493271,0.022659154167410024,0.09794980262763077, ,0.08267620023186543, ,0.07607332164581922, ,0.0009313004431903237, ,0.16845597218545924,-0.12269105717280479,0.11495629349000001,3.1099115518189806,1.3443665211921687,-0.5211407451393915, ,0.0954697601191859,0.06508706554078929,0.08210727587628867,0.4630966976164334,0.15708567853263558,0.5463351075143082, ,1.2385149002075195
0.01641441309470159,0.021206592348079034,-0.09819010495269924, ,0.017457845042280134,0.02081428076879779,-0.09934476619416394, ,0.0016049614285105086, ,0.02706392301570941,0.0038462781063221957,-0.07802630518298356,0.07264024397493271,0.022659154167410024,0.09794980262763077, ,0.08267620023186543, ,0.07607332164581922, ,0.0009358831709816175, ,0.16845597218545924,-0.12269105717280479,0.11495629349000001,3.1099115518189806,1.3443665211921687,-0.5211407451393915, ,0.0954697601191859,0.06508706554078929,0.08210727587628867,0.4630966976164334,0.15708567853263558,0.5463351075143082, ,1.240170955657959
0.01641441309470159,0.021206592348079034,-0.09819010495269924, ,0.01751350900290912,0.020817159564204074,-0.09947028122037242, ,0.0017316238000526503, ,0.02706392301570941,0.0038462781063221957,-0.07802630518298356,0.07264024397493271,0.022659154167410024,0.09794980262763077, ,0.08267620023186543, ,0.07607332164581922, ,0.0009412597968537191, ,0.16845597218545924,-0.12269105717280479,0.11495629349000001,3.1099115518189806,1.3443665211921687,-0.5211407451393915, ,0.0954697601191859,0.06508706554078929,0.08210727587628867,0.4630966976164334,0.15708567853263558,0.5463351075143082, ,1.2418098449707031
0.01641441309470159,0.021206592348079034,-0.09819010495269924, ,0.017569071378074785,0.020820011565018545,-0.09959516903281027, ,0.0018592701585332459, ,0.02706392301570941,0.0038462781063221957,-0.07802630518298356,0.07264024397493271,0.022659154167410024,0.09794980262763077, ,0.08267620023186543, ,0.07607332164581922, ,0.0009474209402206957, ,0.16845597218545924,-0.12269105717280479,0.11495629349000001,3.1099115518189806,1.3443665211921687,-0.5211407451393915, ,0.0954697601191859,0.06508706554078929,0.08210727587628867,0.4630966976164334,0.15708567853263558,0.5463351075143082, ,1.243454933166504
0.01641441309470159,0.021206592348079034,-0.09819010495269924, ,0.017624532152870402,0.02082283683295081,-0.09971943100434269, ,0.0019875851183207348, ,0.02706392301570941,0.0038462781063221957,-0.07802630518298356,0.07264024397493271,0.022659154167410024,0.09794980262763077, ,0.08267620023186543, ,0.07607332164581922, ,0.000954355368074696, ,0.16845597218545924,-0.12269105717280479,0.11495629349000001,3.1099115518189806,1.3443665211921687,-0.5211407451393915, ,0.0954697601191859,0.06508706554078929,0.08210727587628867,0.4630966976164334,0.15708567853263558,0.5463351075143082, ,1.2451319694519043
0.01641441309470159,0.021206592348079034,-0.09819010495269924, ,0.017679891313009892,0.020825635429883735,-0.09984306850645837, ,0.0021163297957997058, ,0.02706392301570941,0.0038462781063221957,-0.07802630518298356,0.07264024397493271,0.022659154167410024,0.09794980262763077, ,0.08267620023186543, ,0.07607332164581922, ,0.0009620505629602921, ,0.16845597218545924,-0.12269105717280479,0.11495629349000001,3.1099115518189806,1.3443665211921687,-0.5211407451393915, ,0.0954697601191859,0.06508706554078929,0.08210727587628867,0.4630966976164334,0.15708567853263558,0.5463351075143082, ,1.2467989921569824
0.016674469827868216,0.021239222357126233,-0.09887803908881818, ,0.017735148844826694,0.020828407417872726,-0.09996608290926794, ,0.001574054715233488, ,0.030441231054982462,0.003383244885209637,-0.07697115651720957,0.07309477204186732,0.05534387409968155,-0.1256670508230454, ,0.0828412568089892, ,0.0916683608555369, ,0.0009660769060673525, ,0.16934408646599505,-0.12210412947436372,0.11568221589000001,3.1157828702365475,1.3455962496900575,-0.5159359220219765, ,0.10314884952007694,0.06783198109969318,0.08126944653061226,0.7551787882584512,0.12229339043608013,0.6162603890332946, ,1.2485859394073486
0.016674469827868216,0.021239222357126233,-0.09887803908881818, ,0.017790304735272815,0.02083115285914552,-0.1000884755815057, ,0.0016961028148654604, ,0.030441231054982462,0.003383244885209637,-0.07697115651720957,0.07309477204186732,0.05534387409968155,-0.1256670508230454, ,0.0828412568089892, ,0.0916683608555369, ,0.0009708483172359675, ,0.16934408646599505,-0.12210412947436372,0.11568221589000001,3.1157828702365475,1.3455962496900575,-0.5159359220219765, ,0.10314884952007694,0.06783198109969318,0.08126944653061226,0.7551787882584512,0.12229339043608013,0.6162603890332946, ,1.2502570152282715
0.016674469827868216,0.021239222357126233,-0.09887803908881818, ,0.017845358971918142,0.020833871816101884,-0.1002102478905296, ,0.0018193599809053955, ,0.030441231054982462,0.003383244885209637,-0.07697115651720957,0.07309477204186732,0.05534387409968155,-0.1256670508230454, ,0.0828412568089892, ,0.0916683608555369, ,0.000976358133233821, ,0.16934408646599505,-0.12210412947436372,0.11568221589000001,3.1157828702365475,1.3455962496900575,-0.5159359220219765, ,0.10314884952007694,0.06783198109969318,0.08126944653061226,0.7551787882584512,0.12229339043608013,0.6162603890332946, ,1.251971960067749
0.016674469827868216,0.021239222357126233,-0.09887803908881818, ,0.017900311542949337,0.020836564351312988,-0.10033140120232205, ,0.0019434718451901915, ,0.030441231054982462,0.003383244885209637,-0.07697115651720957,0.07309477204186732,0.05534387409968155,-0.1256670508230454, ,0.0828412568089892, ,0.0916683608555369, ,0.0009825975765367654, ,0.16934408646599505,-0.12210412947436372,0.11568221589000001,3.1157828702365475,1.3455962496900575,-0.5159359220219765, ,0.10314884952007694,0.06783198109969318,0.08126944653061226,0.7551787882584512,0.12229339043608013,0.6162603890332946, ,1.2536888122558594
0.016674469827868216,0.021239222357126233,-0.09887803908881818, ,0.0179551624371692,0.020839230527521114,-0.10045193688148935, ,0.002068168582355944, ,0.030441231054982462,0.003383244885209637,-0.07697115651720957,0.07309477204186732,0.05534387409968155,-0.1256670508230454, ,0.0828412568089892, ,0.0916683608555369, ,0.0009895563650356063, ,0.16934408646599505,-0.12210412947436372,0.11568221589000001,3.1157828702365475,1.3455962496900575,-0.5159359220219765, ,0.10314884952007694,0.06783198109969318,0.08126944653061226,0.7551787882584512,0.12229339043608013,0.6162603890332946, ,1.2553768157958984
0.016674469827868216,0.021239222357126233,-0.09887803908881818, ,0.018009911643995343,0.020841870407639483,-0.1005718562912633, ,0.0021932419226617225, ,0.030441231054982462,0.003383244885209637,-0.07697115651720957,0.07309477204186732,0.05534387409968155,-0.1256670508230454, ,0.0828412568089892, ,0.0916683608555369, ,0.0009972231520268553, ,0.16934408646599505,-0.12210412947436372,0.11568221589000001,3.1157828702365475,1.3455962496900575,-0.5159359220219765, ,0.10314884952007694,0.06783198109969318,0.08126944653061226,0.7551787882584512,0.12229339043608013,0.6162603890332946, ,1.2570199966430664
0.017012081858254747,0.021269540985795254,-0.09968392163140152, ,0.018064559153459798,0.020844484054751575,-0.1006911607935011, ,0.001517535034593096, ,0.03115377018207488,0.0021824429488160844,-0.07123583276301293,0.010831520992179357,0.03549580955933823,-0.1071046095137597, ,0.0777808737622709, ,0.037086924241154465, ,0.0010005162652076544, ,0.1705565555272483,-0.12135502438556395,0.11653258213,3.124170467975928,1.3465527051884156,-0.5091197245147793, ,0.11936722208612675,0.07008636747302126,0.07513590339622642,0.7374556455460319,0.06502346429496854,0.6278283350843639, ,1.258692979812622
0.017012081858254747,0.021269540985795254,-0.09968392163140152, ,0.01811910495620784,0.020847071532110874,-0.100809851748686, ,0.00163453333025248, ,0.03115377018207488,0.0021824429488160844,-0.07123583276301293,0.010831520992179357,0.03549580955933823,-0.1071046095137597, ,0.0777808737622709, ,0.037086924241154465, ,0.0010045037939186282, ,0.1705565555272483,-0.12135502438556395,0.11653258213,3.124170467975928,1.3465527051884156,-0.5091197245147793, ,0.11936722208612675,0.07008636747302126,0.07513590339622642,0.7374556455460319,0.06502346429496854,0.6278283350843639, ,1.2604649066925049
0.017012081858254747,0.021269540985795254,-0.09968392163140152, ,0.018173549043497033,0.020849632903140503,-0.1009279305159269, ,0.00175296518078697, ,0.03115377018207488,0.0021824429488160844,-0.07123583276301293,0.010831520992179357,0.03549580955933823,-0.1071046095137597, ,0.0777808737622709, ,0.037086924241154465, ,0.0010091816775865553, ,0.1705565555272483,-0.12135502438556395,0.11653258213,3.124170467975928,1.3465527051884156,-0.5091197245147793, ,0.11936722208612675,0.07008636747302126,0.07513590339622642,0.7374556455460319,0.06502346429496854,0.6278283350843639, ,1.2622368335723877
0.017012081858254747,0.021269540985795254,-0.09968392163140152, ,0.018227891407196585,0.020852168231432756,-0.10104539845296051, ,0.0018724347815143412, ,0.03115377018207488,0.0021824429488160844,-0.07123583276301293,0.010831520992179357,0.03549580955933823,-0.1071046095137597, ,0.0777808737622709, ,0.037086924241154465, ,0.0010145434981078457, ,0.1705565555272483,-0.12135502438556395,0.11653258213,3.124170467975928,1.3465527051884156,-0.5091197245147793, ,0.11936722208612675,0.07008636747302126,0.07513590339622642,0.7374556455460319,0.06502346429496854,0.6278283350843639, ,1.2640049457550049
0.017012081858254747,0.021269540985795254,-0.09968392163140152, ,0.018282132039786184,0.020854677580748836,-0.10116225691614991, ,0.001992640038387979, ,0.03115377018207488,0.0021824429488160844,-0.07123583276301293,0.010831520992179357,0.03549580955933823,-0.1071046095137597, ,0.0777808737622709, ,0.037086924241154465, ,0.001020581131072538, ,0.1705565555272483,-0.12135502438556395,0.11653258213,3.124170467975928,1.3465527051884156,-0.5091197245147793, ,0.11936722208612675,0.07008636747302126,0.07513590339622642,0.7374556455460319,0.06502346429496854,0.6278283350843639, ,1.2657020092010498
0.017012081858254747,0.021269540985795254,-0.09968392163140152, ,0.018336270934355338,0.02085716101501836,-0.10127850726048623, ,0.002113347410636872, ,0.03115377018207488,0.0021824429488160844,-0.07123583276301293,0.010831520992179357,0.03549580955933823,-0.1071046095137597, ,0.0777808737622709, ,0.037086924241154465, ,0.0010272852186772271, ,0.1705565555272483,-0.12135502438556395,0.11653258213,3.124170467975928,1.3465527051884156,-0.5091197245147793, ,0.11936722208612675,0.07008636747302126,0.07513590339622642,0.7374556455460319,0.06502346429496854,0.6278283350843639, ,1.2675349712371826
0.01729997332049353,0.021284858839197698,-0.10033185465328742, ,0.01839030808460224,0.02085961859833904,-0.10139415083958839, ,0.001580548116223956, ,0.03092134492089993,0.0016178815114466522,-0.06846353881807263,-0.04664694836227687,0.010366136349535133,0.05022339193159467, ,0.07513989126819444, ,0.04776913653225874, ,0.001030658772930561, ,0.17171496545838197,-0.12068314662550642,0.11721443067000001,3.1304611662804644,1.3469626146877118,-0.5030013577547638, ,0.13143620714469637,0.07024199967318341,0.07207607022624436,0.6071324282605645,0.03450499895356174,0.6636542142304106, ,1.269428014755249
