NicholasDascanio/dvrk_moveit_final/test/execution/third_experiment_notsharpbends/thirdexp_700vel5.0/thirdexp_700vel5.0_6.csv
Current Position (x),Current Position (y),Current Position (z), ,Planned Position (x),Planned Position (y),Planned Position (z), ,Position Error,,Cartesian linear Velocity(x),Cartesian linear Velocity(y),Cartesian linear Velocity(z),Cartesian Angular Velocity(x),Cartesian Angular Velocity(y),Cartesian Angular Velocity(z), ,Total Linear Velocity, ,Total Angular Velocity, ,MSE, ,Joint 1 Position,Joint 2 Position,Joint 3 Position,Joint 4 Position,Joint 5 Position,Joint 6 Position, ,Joint 1 Velocity,Joint 2 Velocity,Joint 3 Velocity,Joint 4 Velocity,Joint 5 Velocity,Joint 6 Velocity, ,Time Stamp
0.009914955989560461,0.021002644344288328,-0.07819875158282415, ,0.009925088168929022,0.020861233635198383,-0.07817020172610412, ,0.000144619307226981, ,-1.6573782835002834e-05,8.90961360105563e-05,2.537909861170801e-05,0.00682770781476743,-0.0002154091215113942,-0.013474313208895928, ,9.411115967735271e-05, ,0.0068311049687050296, ,1.205160893558175e-05, ,0.20321599285234374,-0.1820865957084655,0.09453065196,2.3843843473625266,1.3307028712156246,-0.9293376066513961, ,0.0,-0.001272973823996526,-3.424243821594038e-06,-0.0017296090318027156,0.0,-0.01649791241154383, ,0.01689004898071289
0.009913940669304594,0.021001626872447245,-0.07820049786213415, ,0.009944140815113196,0.02085875550692194,-0.07825900670040684, ,0.0001573135723640689, ,-7.052764803449436e-06,-0.00012441585040494645,-2.6727402997754047e-05,-0.08186974068911233,-0.0016765188183223033,0.2097125687912343, ,0.00012744959550490203, ,0.08188690466644032, ,1.3724221799593177e-05, ,0.20321599285234374,-0.1820865957084655,0.09453194825000001,2.3841746574190417,1.3307028712156246,-0.9285208192499904, ,0.0,0.0014206575900125,-7.309367466074327e-06,-0.0019154307636149673,0.0,0.22303741307716196, ,0.03266596794128418
0.009911855639706198,0.02100115953077622,-0.07820041878367175, ,0.009963397917194899,0.02085620494468044,-0.07834792852815428, ,0.00021313742776955796, ,-7.979502134093162e-05,0.00014668307653448466,-0.0005923945816650737,-0.10577513014183312,0.08361353389263693,0.5378221684539258, ,0.0006154790904316401, ,0.13483175147767237, ,1.6095947105018995e-05, ,0.20320827011946951,-0.1820634275098428,0.09453972599,2.3841746574190417,1.3316593267139827,-0.9214595855223713, ,8.42660775885496e-05,0.0018402528082014625,0.00171539015560992,-0.0019154307636149673,0.12966575984700573,0.5372629489972192, ,0.05134987831115723
0.009898586579801512,0.021000491302412046,-0.07820527087965448, ,0.009982858457266415,0.02085358256656049,-0.07843696560620433, ,0.0002869954221097846, ,0.00020096423722309038,0.0001523452172156853,-0.002438138279360413,0.09344791329400677,0.09024726145886997,0.0446311291974015, ,0.002451145438184709, ,0.1299118189378614, ,1.909680308262839e-05, ,0.20321599285234374,-0.1819939229139748,0.09459676275000001,2.383335897645104,1.3379446057031927,-0.914904749252306, ,0.000814497323442089,0.004389136223748711,0.0036300846672743855,-0.024245477737862314,0.1408551550544305,-0.01673662853573421, ,0.06779193878173828
0.009903969229018154,0.021004916235278497,-0.07824189275721344, ,0.010002521419755226,0.020850888989161175,-0.07852611633574126, ,0.0003379644499599386, ,0.0007622550324884485,0.0005607400977100173,-0.004770288028813743,0.11956962542123507,0.03173628835783506,-0.20232616010892748, ,0.004863240696241295, ,0.123709689675611, ,2.1923657296737136e-05, ,0.20322371558521798,-0.1819630319824779,0.09464213290000001,2.3831262077016193,1.3389010612015508,-0.9163381044993058, ,0.0007122622356606612,0.002608127502775309,0.005283187900497513,-0.030813037412876353,0.05154036950222737,-0.2623323283058989, ,0.08571290969848633
0.009933280437388253,0.02101997791079127,-0.07837613453769268, ,0.010022385791421994,0.020848124827595266,-0.07861537912227225, ,0.00030775187663457053, ,0.0021624632531752146,0.0009137474688100117,-0.008356329839464367,-0.15350221468742137,-0.18164710022658476,-0.15997599099523963, ,0.008679828923660442, ,0.23782051823575862, ,2.3351323484917767e-05, ,0.20322371558521798,-0.18189352738660988,0.09476139158,2.382916517758135,1.3368515137050692,-0.9253667509022728, ,0.0006662931938578053,0.0029377474031111257,0.006244144068992553,-0.001677792751859395,-0.2685094049444638,-0.095159778969726, ,0.10327005386352539
0.00995757383760858,0.021026444191300987,-0.07849985831154663, ,0.010042450561358716,0.020845290695490737,-0.07870475237562397, ,0.0002863603058612688, ,0.0005685254391137879,4.1087537168789845e-05,-0.004539424622997111,-0.08452336178429146,-0.013553165995416519,0.2353366168816113, ,0.004575072159923008, ,0.08560307817999299, ,2.4085310582307923e-05, ,0.20323916105096643,-0.18179313185924495,0.09486768736000001,2.3820777579841965,1.3348019662085877,-0.9249206634489351, ,0.0005348075300434892,0.004941368414479668,0.004458105659109992,-0.06259789732640927,0.0,0.18845332286473493, ,0.11986994743347168
0.009966831731662486,0.02103029774395811,-0.07854775300677787, ,0.010062714720986006,0.020842387204992027,-0.0787942345099366, ,0.0003244334287577727, ,0.0007405654349426034,7.170391218877333e-05,-0.004931294769308593,-0.05809453031056884,-0.0022854570708417997,0.17605249661659425, ,0.004987108051392629, ,0.05813946820458669, ,2.510458281321882e-05, ,0.20323916105096643,-0.18172362726337693,0.09491953896000001,2.3820777579841965,1.3352118757078841,-0.9235396636170726, ,0.00045939826229392553,0.007011474545837755,0.004962246579439253,-0.04516616561116679,0.01127293457967758,0.1401579376254813, ,0.13978290557861328
0.009980776782260038,0.021036109259745178,-0.07862226758470463, ,0.010083177264051302,0.02083941496676143,-0.07888382394366134, ,0.00034290848994177737, ,0.0006448725888991252,5.297551551768835e-05,-0.004216151014980007,0.003039331904524035,0.021291912740622455,0.06563764658976289, ,0.004265512447792735, ,0.02150774477363686, ,2.6103090006801312e-05, ,0.20324688378384065,-0.18160006353738933,0.09500639039000001,2.3820777579841965,1.3365782407055387,-0.9231019465913662, ,0.00021678589948327125,0.007457661642219199,0.004630468465116279,-0.02827843539619529,0.040385228902948954,0.031167563719014683, ,0.15615606307983398
0.009993284405410268,0.021031689361585414,-0.07871325272833916, ,0.010103837186626632,0.020836374589980482,-0.07897351909955497, ,0.00034366897070815393, ,0.00044725151815688596,-0.00040681702721938806,-0.0044944806001168385,0.001996791258213151,-0.0027015917339071977,0.02394027843025195, ,0.004534963051553549, ,0.0033594302182959057, ,2.691326716993995e-05, ,0.20325460651671487,-0.1814224406812822,0.09509453811000002,2.3810293082667737,1.3365782407055387,-0.9231019465913661, ,-0.00019724216427618468,0.010016291956500147,0.004397794456101602,-0.0677710547876562,0.013074799966555174,-0.045833327223811435, ,0.17616009712219238
0.010015297916652979,0.021029561251411526,-0.07884003774052481, ,0.010124693487106463,0.020833266682351408,-0.07906331840467684, ,0.00031678573778109553, ,0.0013539051763454203,0.00034245659784699466,-0.005605830742549691,0.007984483551846428,0.009763588083683756,-0.05001362641096775, ,0.005777168342887291, ,0.012612677127458265, ,2.733874097424081e-05, ,0.20325460651671487,-0.18115986776355855,0.09521898195,2.3804002384363203,1.3365782407055387,-0.9238370552526312, ,0.00023814589720542567,0.010867626637939698,0.005719501443447038,0.028921829100110524,0.0067186847637951755,-0.02328377757632074, ,0.19269895553588867
0.010029280277656337,0.02103290264570164,-0.078895153748143, ,0.010145745166205491,0.020830091850098275,-0.07915322029038373, ,0.00034827378497687914, ,0.0011980801950711468,0.00013147449675145607,-0.005409388769241174,0.010165605314556672,0.0031680849842525543,-0.044701011443760326, ,0.005542036498789078, ,0.0106478302600616, ,2.818357664538719e-05, ,0.2032700519824633,-0.18105947223619362,0.09527342613,2.3806099283798052,1.3365782407055387,-0.9240820914730529, ,0.0011301515095572048,0.010706795100460253,0.005502180145077721,0.0,0.005684627833834823,-0.04873039301314323, ,0.2076549530029297
0.010046021621041179,0.02102650226159083,-0.07900357297879579, ,0.010166991226956464,0.020826850697968604,-0.07924322319232587, ,0.00033455435620704594, ,0.0007366829249550085,-0.0004333763767672438,-0.005520620943137357,-0.012557104488277652,-0.011995778341603194,0.04329816610016395, ,0.005586391716812112, ,0.017366046355532336, ,2.8805901002299197e-05, ,0.20328549744821175,-0.18082006751709268,0.09537972191,2.3795614786623824,1.3365782407055387,-0.9246538426540369, ,0.0013394077254326663,0.011720012542728267,0.0053416537625754525,-0.07702289522986379,0.004248271522143214,-0.031764778999249066, ,0.225006103515625
0.010057146653738296,0.0210265985999571,-0.07905343601034506, ,0.010188430674708177,0.020823543829234542,-0.07933332555044327, ,0.00036987144892732156, ,0.000888543697885985,-0.0001707420165229535,-0.005590282663663901,-0.010712365771557516,-0.01003232922560514,0.02676262605509367, ,0.005663031255336702, ,0.014676593768816637, ,2.960171639731092e-05, ,0.20330094291396023,-0.18071194925685352,0.09542768464000001,2.3795614786623824,1.336714877205304,-0.9248469392978738, ,0.001239874105778769,0.010444012014812818,0.005455072438356166,-0.057350321975627984,0.0,-0.021514197801596392, ,0.2396399974822998
0.010070486099735204,0.021028939099119317,-0.07911304506250808, ,0.01021006251712304,0.020820171845694346,-0.0794235258089607, ,0.0003993289825585009, ,0.0011971325524959638,2.507584107566468e-07,-0.006309662608199011,-0.0098520223214771,-0.007014892774601772,0.015307313588924922, ,0.006422224586576681, ,0.012094257085961775, ,3.0499780822869717e-05, ,0.20331638837970867,-0.18059610826374015,0.09549249914,2.3795614786623824,1.3369881502048349,-0.9252331325855478, ,0.0017904498745360633,0.011269583859889423,0.0062514958869701745,-0.03764698784792351,0.001965950525168743,-0.02056292008142555, ,0.25580501556396484
0.010097094796250735,0.021030289639149123,-0.0792478062274814, ,0.010231885764175214,0.020816735347673712,-0.07951382241638442, ,0.00036679511065453594, ,0.0012950972353419656,0.00013174440362693037,-0.006026813110829886,-0.0075286379052191725,-0.0038441048959440643,0.0003329602573920157, ,0.006165801627505414, ,0.008453255184106015, ,3.108766033400799e-05, ,0.2033550020440798,-0.1803567035446392,0.09562731330000002,2.378932408831929,1.3371247867046,-0.9255079079695252, ,0.001988512594326901,0.010661000894371877,0.006019959002267574,-0.016425216137473157,0.001393187357480883,-0.014674548717616627, ,0.27260398864746094
0.010115653864312646,0.021026120077391856,-0.07935011483651462, ,0.010253899428148232,0.020813234934027192,-0.07960421382549732, ,0.00035916321691904985, ,0.0009941247151010837,-0.00019768878060714127,-0.005178832506268382,0.004506132940587436,3.963987646106665e-05,0.005204611382313286, ,0.005277089247978927, ,0.004506306877340861, ,3.156581861059219e-05, ,0.2033936157084509,-0.18014046702416092,0.09572842392000001,2.3780936490579907,1.3372614232043656,-0.926109398314065, ,0.002655718601841922,0.011014625518822358,0.005191920312907433,-0.04120571796527019,0.014257202243055498,-0.03861764091720777, ,0.28800487518310547
0.010143095482443657,0.02102927547578544,-0.07946277428234241, ,0.010276102523632948,0.02080967120213942,-0.07969469849335484, ,0.0003845637687486125, ,0.001450854182131844,0.00019573178974210842,-0.005762774859907151,-0.008792735271390347,-0.003612955319026576,-0.001156944571527153, ,0.0059458273501088975, ,0.009506084016797312, ,3.213994090346809e-05, ,0.20344767483857049,-0.17992423050368261,0.09584249744000001,2.3780936490579907,1.337398059704131,-0.9267108886586048, ,0.003580273399856102,0.010211491434186069,0.00579862086639971,-0.004360748167866254,0.0010444698075340883,-0.0038255203178096664, ,0.3048970699310303
0.01014825475812422,0.021028552558658896,-0.07948929535628119, ,0.010298494067525355,0.02080604474792677,-0.07978527488128112, ,0.0003996066255022818, ,0.0013439546808290857,4.9358422544592764e-05,-0.005427372099440344,0.0028913466170093337,0.0005432263034930853,-0.01905374250645256, ,0.005591513063901575, ,0.002941933950191409, ,3.273965371526738e-05, ,0.20346312030431893,-0.17987017137356306,0.09586971953000001,2.3778839591145062,1.3375346962038965,-0.9269856640425824, ,0.0035168162795884265,0.011053433066490212,0.005481352897453545,-0.007873675943108584,0.0076294888438987185,-0.02830097132020206, ,0.32016491889953613
0.010167450350553792,0.021019611614745703,-0.07959813276924023, ,0.010321073079024334,0.020802356165838243,-0.07987594145486437, ,0.0003846784872993687, ,0.0014246575930913971,6.0519526114914175e-05,-0.005331044306665575,0.0029551109215094234,0.004742707624334954,-0.04455886767041877, ,0.005518454971296367, ,0.0055880185989735, ,3.320608689589931e-05, ,0.20350945670156428,-0.1795998757229652,0.09597601531000001,2.376835509397084,1.337671332703662,-0.927668833127263, ,0.0022902914030154607,0.012893606190009618,0.00537228044519393,0.02202056110082981,0.0042132098528254855,-0.023393632104538545, ,0.3346560001373291
0.010185536966453159,0.021023242433740215,-0.07966482995008256, ,0.01034383857962971,0.020798606048857374,-0.0799666966839532, ,0.0004082210567391884, ,0.001521042652253919,0.0003321973746166434,-0.006725580099095848,0.0019821760252347696,-0.0016531030698924557,-0.006019636254291222, ,0.006903430561324706, ,0.002581038123264149, ,3.3747504097266114e-05, ,0.20354034763306117,-0.17949175746272605,0.09603564465000002,2.377045199340568,1.3378079692034275,-0.9277802510309591, ,0.003315521408185599,0.009926367926862247,0.006815922772785623,-0.02123282282433812,0.007811005914099647,-0.029982032233869783, ,0.3510708808898926
0.01021551711904651,0.021029233003235462,-0.07980740194480357, ,0.010366789593139846,0.020794794988503305,-0.08005753904265189, ,0.00037471737601805393, ,0.0012409216194547758,0.00013113735294295793,-0.006446377989935936,-0.0040923335436921756,-0.0016208366920567694,0.0238595913037333, ,0.006566039343477743, ,0.004401624050620539, ,3.408394883253938e-05, ,0.20360212949605497,-0.17931413460661888,0.09616527365000001,2.376625819453599,1.3380812422029584,-0.9283298017989142, ,0.002512711837452958,0.010629103269922204,0.007956449310689312,-0.02660111510844312,0.011099905084144426,-0.01579892697889626, ,0.36701393127441406
0.01022694695074353,0.021028692097268764,-0.0798571176785907, ,0.010389925145649615,0.020790923574832164,-0.08014846700931669, ,0.00040985387004517746, ,0.0009638655834619963,-0.00045044706371181103,-0.0045750950619474545,-0.015869327231818102,-0.0031056929292821566,0.04672485700531523, ,0.004697173005760498, ,0.016170370229436366, ,3.455257760777721e-05, ,0.2036407431604261,-0.17917512541488284,0.09623916218,2.37620643956663,1.3380812422029584,-0.9284114805390548, ,0.0035663440470364545,0.012664197253746621,0.004516249367734619,-0.03938261809281631,0.011099905084144426,0.008961637427686322, ,0.38150596618652344
0.010238875726368574,0.02102571968926463,-0.07991021439229525, ,0.010413244265548193,0.02078699239643847,-0.08023947906655082, ,0.0004425046141096985, ,0.0014315533669251208,-9.296880330641929e-05,-0.006176496001717104,-0.009694595477892714,0.00082443489685996,0.022334000607013706, ,0.006340906173408518, ,0.009729587113035674, ,3.528101617465212e-05, ,0.20371797048916834,-0.17892799796290768,0.09635193941,2.375787059679661,1.3384911517022546,-0.9289090917304252, ,0.0055204407751655625,0.011443003738702825,0.006420319032648127,-0.018512586262133767,0.015680193949515243,-0.007079592068738368, ,0.39542198181152344
0.010266741204722558,0.021024241097829466,-0.08003912441431513, ,0.01043674598351698,0.02078300204045661,-0.08033057370120164, ,0.00041477776512458166, ,0.0011447331745569102,-0.0002176940771671475,-0.006823420212748979,0.007557739306816366,0.002787441026535149,0.06086430042436365, ,0.006922201106000614, ,0.008055385534830964, ,3.5842582427734175e-05, ,0.20377975235216214,-0.17880443423692008,0.09642453165,2.3749482999057228,1.3387644247017856,-0.929131927537818, ,0.0047178001510869635,0.011132996680250234,0.00697103348796499,-0.09239535218555127,0.034509864791932965,-0.03758810517157465, ,0.4105401039123535
0.010281093735461893,0.021022152685431734,-0.08011303194859137, ,0.010460429332527344,0.020778953092561843,-0.08042174940435523, ,0.0004319881547452572, ,0.0016442892014300902,0.00015779741126481807,-0.005792983010037432,0.02212102268310005,0.021696003998749193,-0.06097026161477701, ,0.0060238890391111815, ,0.030984774124334168, ,3.643785904791198e-05, ,0.20381836601653325,-0.17866542504518404,0.09649712389000001,2.3743192300752693,1.3387644247017856,-0.9292136062779586, ,0.0029310004935768756,0.01419975184175831,0.006058886085964246,0.037516083710775354,0.025835819435143473,-0.030851451450780595, ,0.4239180088043213
0.010312096391659264,0.021020378156216497,-0.08023585919608467, ,0.010484293347838375,0.020774846136972294,-0.08051300467133246, ,0.0004083471300766187, ,0.0016343705585630205,8.038064418788968e-05,-0.0070342937845438765,-0.008516984326026824,-0.0020308211492396817,-0.017656813959037065, ,0.007222113071527631, ,0.008755754640648353, ,3.69015267371712e-05, ,0.20387242514665282,-0.17836423846308927,0.09661767886000001,2.374528920018754,1.3389010612015508,-0.9296517391422172, ,0.002185805642628437,0.014380503342699013,0.006943684184829993,0.0,0.0,-0.015769385702739534, ,0.4368290901184082
0.010324085021107968,0.02102139570999518,-0.0802825108170608, ,0.010508337066995057,0.020770681756449694,-0.08060433800168582, ,0.00044763717414849773, ,0.0020321927757504573,0.00022964346029817284,-0.007911120260868668,0.0017308748388113508,0.001684255702766363,-0.02634722961408258, ,0.008171191307183844, ,0.002415080535342282, ,3.748777658429093e-05, ,0.20390331607814974,-0.17826384293572436,0.09666823417,2.374528920018754,1.3390376977013165,-0.9298448357860543, ,0.004976884027825751,0.014783757837431187,0.00802863483870968,0.0,0.009354086339129306,-0.027658120375982517, ,0.45787596702575684
0.01036927882397131,0.021017843270758365,-0.08049182633608495, ,0.010532559529825684,0.0207664605323011,-0.08069574789919344, ,0.00036254361668519916, ,0.001370540994750649,-0.0005743586011164738,-0.006432071855964888,-0.05564993607356849,-0.03726975748713477,0.07547059014239878, ,0.006601501252083814, ,0.06697723641008885, ,3.7721513166421046e-05, ,0.20407321620138266,-0.17787770629201313,0.09688212202,2.3728514004708776,1.3398575166999092,-0.9310034156490763, ,0.005334857088632092,0.015110977955170506,0.005988275007518798,-0.06827078581885357,-0.028687701484265735,0.02179716309175316, ,0.4708089828491211
0.010383678321220767,0.021013836129822806,-0.08054191276704133, ,0.010556959778440048,0.02076218304438015,-0.0807872328718564, ,0.0003918388605732235, ,0.0014993514983644197,-0.0004067350193731367,-0.004913685698005016,0.0013352522347012047,0.00833196716213536,-0.030439257917810558, ,0.005153425601520908, ,0.008438280183589272, ,3.8047841989761106e-05, ,0.20411955259862802,-0.17772325163452865,0.09693008475,2.3728514004708776,1.3397208802001437,-0.9310553552256611, ,0.004645561999281507,0.017182136802185548,0.004949910354257303,0.01827289132252998,0.014038315000739498,-0.013997696376265285, ,0.4841289520263672
0.010395933614986662,0.021011407533372255,-0.08058526826423348, ,0.010581536857227044,0.0207578498710886,-0.08087879143189403, ,0.010588643425808172, ,0.0011448095858453463,-0.0004675887036417868,-0.004944009981695312,0.0027488490839579355,0.004655707682682886,-0.025737672587568625, ,0.005096318561738432, ,0.005406642429369883, ,7.426002751754309e-05, ,0.20414272079725068,-0.1775842424427926,0.09697286232,2.373061090414362,1.3397208802001437,-0.9313003914460827, ,0.002172856699811155,0.01594906580814635,0.004895147977873387,-0.006461171372383948,0.011158845872001623,-0.03392454685250358, ,0.49884796142578125
0.010425393268928631,0.021001902481033244,-0.08068877133489828, ,0.010606289812852547,0.02075346158937731,-0.08097042209573954, ,0.0004168615925374659, ,0.0015200534545314732,-0.0004032881022918231,-0.005408827128016186,-0.009503696406406803,-0.005435008120086037,-0.01880820708076885, ,0.005632815876526325, ,0.01094803882077739, ,7.365311440931405e-05, ,0.20425856179036406,-0.17725988766207518,0.09707526923000001,2.3728514004708776,1.3398575166999092,-0.9314934880899195, ,0.005071098527486,0.016280140943295725,0.005311374298099368,-0.0031563963687884005,0.0,-0.01985026387816083, ,0.5125560760498047
0.010437653536408662,0.020995541717788592,-0.08074143387675373, ,0.01063121769425742,0.020749018774748114,-0.08106212338403618, ,0.00044842212783280356, ,0.0016828551865715488,-0.00039205029384883363,-0.006233989569051229,-0.00168122403679002,-0.0015688285703015876,-0.008258687086688971, ,0.006469028594690029, ,0.0022995060186173834, ,7.318377178450835e-05, ,0.20431262092048363,-0.17709771027171645,0.09712841712,2.3724320205839082,1.3401307896994399,-0.931798002637453, ,0.006550999504213684,0.016810795670233972,0.006236809522317934,-0.020617373336219887,0.01215359860657671,-0.029912012169798587, ,0.5260190963745117
0.010466352964722613,0.02098817898376478,-0.08087299852723971, ,0.010656319552655193,0.020744522001254748,-0.08115389382163236, ,0.0004175622062263018, ,0.0015851316855826874,-0.00040239586076374544,-0.007308364471493747,0.0012929666586760581,0.004514539552774834,0.022108485947529417, ,0.007489109168491943, ,0.004696041876331575, ,7.263861604408704e-05, ,0.2043975709821001,-0.17678880095674748,0.09725674983,2.3715932608099703,1.3406773356985016,-0.932325352992379, ,0.004892497792682497,0.017399512570310006,0.007316863353238402,-0.04983447847345471,0.026983245605362832,-0.030192621516020236, ,0.5454409122467041
0.01050404764036568,0.020989566608766403,-0.0810155139919106, ,0.010681594441529847,0.020739971841504525,-0.08124573193757881, ,0.0003831719156668793, ,0.001907308697938525,0.00023222410253540335,-0.007028172609256017,0.007938274136101129,0.009941074392746038,-0.03297391452633934, ,0.00728608020327301, ,0.0127216798888377, ,7.201223309254964e-05, ,0.20450568924233925,-0.1764876143746527,0.09740582318,2.3715932608099703,1.3408139721982673,-0.932600128376357, ,0.007068409682600631,0.015254290557542322,0.006675947829002515,-0.002981910319113345,0.0,-0.008287168859581728, ,0.5594348907470703
0.0105203446245572,0.020987003953911582,-0.08107469774585509, ,0.010707041416633811,0.020735368866659578,-0.08133763626512307, ,0.0004090385974732202, ,0.001796061689315811,-0.0002500028031454146,-0.005874174358171368,-0.003368416106494299,-0.000939867953353958,-0.006358489790095591, ,0.006147703911510909, ,0.0034970804740661137, ,7.171796982885112e-05, ,0.20457519383820727,-0.17634088245004245,0.09746674881,2.371383570866486,1.341087245197798,-0.9329863216640307, ,0.007732203379203011,0.01526410512441222,0.005936940559075662,-0.007594821857860052,0.011640698865083286,-0.014626262301653212, ,0.5714540481567383
0.010527466625247712,0.020982746282044128,-0.08110452020127588, ,0.010732659535985695,0.020730713646438192,-0.0814296053417055, ,0.00045967915827862225, ,0.0015279878563354736,-0.0005563819692918799,-0.005520429186450272,-0.004940976053131879,-0.005493417721082434,0.011107456190862366, ,0.0057549497119847885, ,0.007388563966625354, ,7.158964670605312e-05, ,0.2046215302354526,-0.176255932388426,0.09749656348,2.370964190979517,1.3412238816975635,-0.9332610970480083, ,0.007740531573760262,0.015818793391977126,0.005492693627586208,-0.03757308966776619,0.012489972323424123,-0.026979303133281184, ,0.5841860771179199
0.010547174491079454,0.020973709685323992,-0.08119042401419677, ,0.010758447859868193,0.02072600674911616,-0.08152163770895599, ,0.00046443050347859063, ,0.0014071615383112284,-0.00043415179444381143,-0.006207659483737039,0.006947260302699757,0.0008871959426924401,0.010429832729977547, ,0.006379939470053897, ,0.007003679970996674, ,7.148075346135348e-05, ,0.2047142030299433,-0.17602425040219924,0.09758211862,2.3701254312055786,1.3414971546970944,-0.933728969075823, ,0.005937244031302485,0.014781455071412894,0.006261325283018869,-0.05290237912206042,0.02275184549116377,-0.046654920945530864, ,0.5963308811187744
0.010567229084303397,0.02097217057161875,-0.08126873066582299, ,0.01078440545082587,0.020721248741528402,-0.0816137319126888, ,0.00047869948749790003, ,0.0020050522046704366,5.417212052399222e-05,-0.007850496236741462,-0.0005684786296110271,0.0067274014700168,-0.010202785717399611, ,0.008102682279664413, ,0.006751375317120607, ,7.14177715231803e-05, ,0.2047759848929371,-0.17585435027896631,0.09765989602000001,2.369915741262094,1.3414971546970944,-0.9338923265561041, ,0.004780649990689352,0.016429525893087046,0.007992379086803815,0.0,0.01658632441957448,-0.012050505888739975, ,0.6075940132141113
0.010610024159018624,0.02097654684363351,-0.08143414796709121, ,0.010810531373662967,0.020716440189070037,-0.08170588650289905, ,0.000426263353709442, ,0.002288413732347957,0.00013673919020518714,-0.008430436376246173,0.0033369512199304128,0.003463740785180184,-0.01723776895786208, ,0.008736577848933265, ,0.004809646669636024, ,7.120791099055118e-05, ,0.20488410315317623,-0.17554544096399732,0.09782971001000001,2.369915741262094,1.3419070641963906,-0.9343082590073337, ,0.007168854724567072,0.016232798761284774,0.00861016838918919,-0.005950865000773738,0.0166251273815817,-0.02576618799800618, ,0.6225869655609131
0.010627600773206443,0.02097379483056184,-0.08150672098596029, ,0.010836824695441356,0.020711581655697853,-0.08179810003375759, ,0.00044433337507199965, ,0.0017346874980472878,-0.00040638816224239393,-0.006600650069624087,0.02663680441031035,0.0191991669841709,0.003759369652532922, ,0.006836875996821997, ,0.03283484961972131, ,7.105673221440074e-05, ,0.20495360774904425,-0.17538326357363862,0.09790489483,2.369496361375125,1.342316973695687,-0.9348058701987041, ,0.008385916914173544,0.016596177257515003,0.006925570226086957,-0.04104790910673955,0.04986031557753607,-0.04884449891330342, ,0.6348628997802734
0.010645257552206452,0.020967956798913986,-0.08157178301842244, ,0.010863284485478172,0.020706673703931734,-0.08189037106360814, ,0.000466157636310529, ,0.0018585682172838275,-0.0006855230789959787,-0.006838134740052862,0.0007388741118935421,-0.002111897984362788,0.03129141253428291, ,0.007119291006360924, ,0.0022374166125157424, ,7.097114457278355e-05, ,0.20505400327640919,-0.1752210861832799,0.09796970933000002,2.368867291544672,1.3424536101954523,-0.9349989668425409, ,0.010562903272669705,0.01833757324801368,0.006910547297180044,-0.06292855152230033,0.02772925657920975,-0.03529954404558024, ,0.6465530395507812
0.010669581179555843,0.020966071414636495,-0.0816482503700065, ,0.010889909815344018,0.02070171689485593,-0.08198269815496184, ,0.0004798784645493302, ,0.0019751906402555733,-0.0003687664632900139,-0.007382089675824838,-0.002790684188139469,-0.0037074619716021785,0.012924711435923596, ,0.007650661066321021, ,0.00464038474546881, ,7.092566191832076e-05, ,0.2051543988037741,-0.17503574059429852,0.09804619044000001,2.368867291544672,1.3424536101954523,-0.9351623243228222, ,0.0087220776692459,0.01719458988194796,0.007439893283512378,-0.041190891749591896,0.01729512665112396,-0.029818038060148877, ,0.6590580940246582
0.010705402256925008,0.020964814463873598,-0.08176621316900758, ,0.010916699758860296,0.020696711788120575,-0.08207507987449417, ,0.0004603523876642364, ,0.0020676404908454788,-0.0002726069261511496,-0.007941743375996754,-0.012205609319394743,-0.005768325405669818,0.0071468536848911, ,0.008211013310533458, ,0.013500016490776482, ,7.083033937013076e-05, ,0.20529340799551013,-0.17476544494370067,0.09816674541,2.368867291544672,1.3427268831949832,-0.9354668388703559, ,0.006915481296949669,0.018298677508382332,0.007932675059760957,-0.024046612401244487,0.007529358175246728,-0.015301842387839772, ,0.6722838878631592
0.01072398747716379,0.020960952003166687,-0.08184549971565437, ,0.010943653392097479,0.02069165894194285,-0.08216751479303944, ,0.0004737779828888954, ,0.002171907542490349,-0.00016389475579395735,-0.008138662999405352,-0.003617550077495172,-0.0004511570418746034,-0.006322774715388596, ,0.008425074437771629, ,0.0036455693014445013, ,7.077325545121362e-05, ,0.20535518985850393,-0.17458009935471927,0.09824711539000001,2.3684479116577024,1.3430001561945142,-0.9358530321580297, ,0.00714334677846895,0.018120477670129993,0.008214962104177412,-0.016081207906927845,0.01345291532023751,-0.023212668916081997, ,0.683459997177124
0.010760806146203523,0.020949425205846466,-0.08199556084706966, ,0.010970769793372734,0.02068655891310853,-0.08226000148558836, ,0.00042791619774269003, ,0.0018910516599016226,-0.0005867916735280956,-0.007148224029477053,0.0018805426378142684,4.077915527541656e-05,0.013818378597463397, ,0.0074173787569552984, ,0.001880979768296814, ,7.060150840180954e-05, ,0.20552508998173688,-0.1742171309096307,0.09839748503000001,2.3671897719967956,1.3434100656938104,-0.9365956795698217, ,0.008863707284665068,0.018706276672278886,0.007214135652173914,-0.04788907671016927,0.024429670352218623,-0.03745188515352808, ,0.6971039772033691
0.010782005467827751,0.020943517230694885,-0.08206940250802998, ,0.010998048043247813,0.02068141225697335,-0.08235253853128194, ,0.00044219839360476476, ,0.0023548352040306184,-0.0004149640763878031,-0.0069870357119656435,0.008873277420914039,0.0063694638544284626,-0.057576002086736446, ,0.007384856942630477, ,0.010922687642216747, ,7.047147798878978e-05, ,0.20561004004335334,-0.17400861712202664,0.09847007727000001,2.3669800820533107,1.3434100656938104,-0.9367590370501029, ,0.009321675748929156,0.021450484077412024,0.0070952389844098004,0.021073153599926536,0.016901652013751014,-0.03996870615204623, ,0.7123808860778809
0.01080523250278214,0.02094012282345701,-0.08214110539584497, ,0.011025487224526854,0.02067621952746423,-0.08244512451340888, ,0.00045889510340711763, ,0.0022920523293235504,-0.00019941570261513495,-0.0067154475405522135,-0.007352008918300822,-0.006673254286536487,-0.03596552373018981, ,0.0070986270625182, ,0.009928964913319986, ,7.05603110810912e-05, ,0.20571043557071828,-0.17381554880017103,0.09854266951000001,2.3669800820533107,1.3435467021935759,-0.9369521336939397, ,0.009421169999328249,0.017599581149568024,0.006732380185967879,0.014778444887459415,0.0,-0.019392952003500018, ,0.7223420143127441
0.010827949210993601,0.02093748768250185,-0.0822047452127643, ,0.011053086422254211,0.02067098127708075,-0.08253775801940015, ,0.00048229654509250526, ,0.002188642201003236,-0.0005332367611178329,-0.006351728882819982,-0.0028245745101540152,-0.001961279626064814,-0.023173254254688375, ,0.006739358717880308, ,0.0034387248503588725, ,7.070335641751343e-05, ,0.20581083109808318,-0.17363020321118966,0.0986087803,2.3671897719967956,1.3438199751931068,-0.9373383269816136, ,0.01041907570909868,0.019786685062233272,0.006389414969915765,0.0,0.011937210076655977,-0.023847391842380744, ,0.7318449020385742
0.010848434883789483,0.020926988032263595,-0.08227737955649152, ,0.01108084472371242,0.02066569805689659,-0.08263043764082607, ,0.0004969273546850495, ,0.0019229226933632645,-0.0007988206383664717,-0.006334614301398176,0.01905499694664085,0.010596857318202322,-0.021480558694339565, ,0.00666806452011451, ,0.021803354867056892, ,7.087729712607795e-05, ,0.20592667209119656,-0.1733985212249629,0.09868137254,2.366560702166342,1.3440932481926378,-0.9378878777495689, ,0.009967781032171013,0.020967066186140252,0.006485672442996744,-0.029346690300004537,0.03633137600859183,-0.058952551255004815, ,0.741894006729126
0.010860320493135647,0.020919689050401778,-0.08232752568123994, ,0.011108761218419808,0.020660370416560717,-0.08272316197339066, ,0.0005343192149864053, ,0.0016144847567327145,-0.0010244871549559996,-0.0073783818758650175,0.0032811723874360934,-0.0033103062352999226,0.05224717100710512, ,0.007622116114733854, ,0.004660922412968368, ,7.113450333416742e-05, ,0.20599617668706457,-0.17325178930035265,0.09873192785000001,2.3659316323358883,1.3443665211921687,-0.9383557497773833, ,0.009520747693848395,0.019915412709018,0.007384706314325453,-0.10549220169604204,0.034517443710664744,-0.058336212868152326, ,0.7544898986816406
0.010860320493135647,0.020919689050401778,-0.08232752568123994, ,0.01113683499812862,0.020654998904298855,-0.08281592961692869, ,0.0006205316666470402, ,0.0016144847567327145,-0.0010244871549559996,-0.0073783818758650175,0.0032811723874360934,-0.0033103062352999226,0.05224717100710512, ,0.007622116114733854, ,0.004660922412968368, ,7.158502576821868e-05, ,0.20599617668706457,-0.17325178930035265,0.09873192785000001,2.3659316323358883,1.3443665211921687,-0.9383557497773833, ,0.009520747693848395,0.019915412709018,0.007384706314325453,-0.10549220169604204,0.034517443710664744,-0.058336212868152326, ,0.7643759250640869
0.010925736219130257,0.02092187982804638,-0.0825624010829522, ,0.011165065156822423,0.020649584066915014,-0.08290873917540098, ,0.0005013715151741611, ,0.003200338575086474,0.00038571429951504135,-0.011124899243869547,0.006389614149463361,0.0037466673680562656,-0.04874081238934371, ,0.011582500839727408, ,0.007407058454044109, ,7.174984540254172e-05, ,0.2061969677417944,-0.17281159352652187,0.09896396376000001,2.365721942392404,1.3443665211921687,-0.9390091796985078, ,0.009217896143402295,0.019894537014354462,0.011385855268048606,0.01519120595120865,0.014939091873833023,-0.03651521489636818, ,0.7739920616149902
0.01095376564319725,0.02092406461720805,-0.08266285083111116, ,0.011193450790714486,0.02064412644979245,-0.08300158925689008, ,0.0005005577575220908, ,0.0028147058913741405,-6.159516492589451e-05,-0.01025977399642208,-0.013988236519668296,-0.013442205152850988,-0.009021015086858921, ,0.010639047216594973, ,0.01940009089206108, ,7.190834921500064e-05, ,0.2062896405362851,-0.17261852520466625,0.09907025954000001,2.365721942392404,1.344503157691934,-0.9392022763423447, ,0.009660862101826661,0.0201994341333484,0.010263409484536084,-0.023673503074255104,0.0,-0.029655945918806492, ,0.7837209701538086
0.01097872715283196,0.020920197982078705,-0.08276266516126414, ,0.011221990998245184,0.02063862659689546,-0.08309447847359606, ,0.0004985577375589745, ,0.0024309067616139967,-0.0005285779523792923,-0.009432492090147413,-0.0015807883843952848,-0.013684562759353517,-0.004400799356191852, ,0.009755029952086033, ,0.013775560793060823, ,7.205814305935102e-05, ,0.20639003606365003,-0.1724100114170622,0.09917137016000001,2.3650928725619504,1.344776430691465,-0.9398335058504406, ,0.01046956910623149,0.020920842495253698,0.009391987924528302,-0.064866183691784,0.010478661245519291,-0.07001994251676578, ,0.7945499420166016
0.010991655467864323,0.02091812369527696,-0.08280986281603422, ,0.011250684880080016,0.020633085050770637,-0.08318740544183319, ,0.0005393344969033466, ,0.002512644520000927,-0.0006765197822622295,-0.009259412016699818,-0.013028372347711011,-0.014196189649300871,0.02455939523192573, ,0.009618096089907182, ,0.019268373530881743, ,7.229379424557843e-05, ,0.2064440951937696,-0.17230189315682304,0.09921933289000001,2.3648831826184655,1.3449130671912302,-0.9401899599745586, ,0.01182888381227542,0.022339204698321746,0.00921273078079815,-0.06434273776619147,0.012003629311290216,-0.03860457137378046, ,0.804624080657959
0.011029732043219245,0.020911514128509865,-0.08293297779362484, ,0.011279531539107407,0.020627502352547934,-0.08328036878202437, ,0.000513559125955555, ,0.0023163675615896365,-0.0005072562049012626,-0.007599161146485008,0.022176880360515162,0.006684005265320167,-0.01697379427297105, ,0.007960535011419955, ,0.023162252126470065, ,7.246726459445253e-05, ,0.20662944078275097,-0.17199298384185405,0.09934636931000002,2.3644638027314966,1.345459613190292,-0.9411257040301877, ,0.012354763905542347,0.01899458397887726,0.007842841713441656,-0.0426668745438355,0.037147098898277414,-0.06850776083911853, ,0.8144230842590332
0.011056173737296938,0.02090614724171008,-0.08301527887184351, ,0.011308530080436526,0.020621879041942556,-0.08337336711869783, ,0.0005222253592626991, ,0.002819014888039245,-0.00031996482670102296,-0.008537766453771403,0.008783064771530019,0.0037468931720382468,-0.03683517407630077, ,0.008996814905757317, ,0.009548894693026659, ,7.265486496289884e-05, ,0.20675300450873857,-0.17177674732137577,0.09942803558,2.364254112788012,1.345459613190292,-0.9410440252900472, ,0.012438975168235783,0.021690729499079034,0.008737691453647835,0.0,0.022845020280865085,-0.04110247892675138, ,0.8241250514984131
0.011085341921880034,0.020903388006167225,-0.08311141472826672, ,0.01133767961139517,0.020616215657255924,-0.08346639908048302, ,0.0005216858804371629, ,0.002943136912256032,-0.0002423953087903737,-0.009677068227206896,-0.017052796050345032,-0.012417651276970438,-0.013158349859974277, ,0.01011763113797023, ,0.021094924306761204, ,7.283655286683903e-05, ,0.20687656823472617,-0.1715605108008975,0.09952525733,2.3640444228445276,1.3455962496900575,-0.941237121933884, ,0.011260907211564275,0.02208960464582653,0.009677285249088702,-0.007745234464633606,0.0,-0.017219935462455656, ,0.8341109752655029
0.011085341921880034,0.020903388006167225,-0.08311141472826672, ,0.011366979241527523,0.020610512735377215,-0.08355946330010573, ,0.0006048495902168758, ,0.002943136912256032,-0.0002423953087903737,-0.009677068227206896,-0.017052796050345032,-0.012417651276970438,-0.013158349859974277, ,0.01011763113797023, ,0.021094924306761204, ,7.33410954787524e-05, ,0.20687656823472617,-0.1715605108008975,0.09952525733,2.3640444228445276,1.3455962496900575,-0.941237121933884, ,0.011260907211564275,0.02208960464582653,0.009677285249088702,-0.007745234464633606,0.0,-0.017219935462455656, ,0.8430180549621582
0.011121366499091637,0.02089407338078196,-0.08324872120853859, ,0.011396428082591984,0.020604770811784714,-0.08365255841438474, ,0.0005678374238915139, ,0.0021746851849195653,-0.0008877529322616712,-0.00907991411261544,-0.014274252978640604,-0.013548764513233133,0.04582882435579606, ,0.009378816621233238, ,0.019680529876396166, ,7.375838167480582e-05, ,0.20703102289221065,-0.17122843328730583,0.09966396036000001,2.3632056630705893,1.3460061591893537,-0.9418164118653951, ,0.010032349289413961,0.02241307075070165,0.008984101252115061,-0.08797425094692114,0.016004206100810044,-0.04132939118303518, ,0.8512840270996094
0.011157905199442882,0.020887163948571614,-0.08337081938349306, ,0.011426025248559226,0.02059899042054709,-0.08374568306422661, ,0.0005435578369643482, ,0.0027188527942146375,-0.0005554610992201054,-0.009605607758415891,0.024565104064077782,0.017686517052407785,-0.0056695292997881565, ,0.009998419773038893, ,0.03026973969740056, ,7.411724395117198e-05, ,0.20718547754969516,-0.1709040785065884,0.09979099678000002,2.362995973127105,1.3466893416881809,-0.9425368588641583, ,0.012191472439657871,0.023712379200017685,0.009961733283302064,-0.04167822282093865,0.052575216703262824,-0.05867420204674997, ,0.8591039180755615
0.011189023000620066,0.020886395737393162,-0.08347029195262777, ,0.011455769855609704,0.02059317209432498,-0.08383883589462252, ,0.0005412565257639531, ,0.003237328299823706,-0.0002493407689219695,-0.010626486241894969,-0.0019802012302091703,-0.003403292471911549,-0.00036901814173449657, ,0.011111465933398216, ,0.0039374434673585266, ,7.446413481704208e-05, ,0.20730904127568273,-0.17068784198611012,0.09989340369000001,2.362995973127105,1.3469626146877118,-0.9428413734116917, ,0.014218900443283004,0.022740700109865987,0.010828559836845685,-0.028793814145963877,0.022246264586190417,-0.03136773639857863, ,0.8681769371032715
0.011222710304213544,0.02088345902706234,-0.0835778771740671, ,0.011485661022131624,0.020587316364372204,-0.0839320155546436, ,0.0005312791632618169, ,0.003641375334207557,-0.00017720498220815856,-0.011072147895640504,-0.010747435098115578,-0.00825415936381071,-0.019978856253871347, ,0.011656906748929195, ,0.013551322503322884, ,7.478397081136121e-05, ,0.20745577320029301,-0.17044843726700915,0.10000229205000001,2.3627862831836204,1.3470992511874775,-0.9430344700555288, ,0.015422873648378155,0.02473851448343868,0.011225378097251586,0.0,0.010090096378524493,-0.01876920155733684, ,0.8761990070343018
0.011251729870961583,0.020877879371299386,-0.08368428712648744, ,0.011515697868718932,0.020581423760536975,-0.08402522069743666, ,0.000523259718297448, ,0.003098851317249205,-0.0006208452117758393,-0.0116457279844445,-0.013754681657036576,-0.010417719548578331,0.07010099480243528, ,0.012066951087622584, ,0.017254562697225084, ,7.508146058076487e-05, ,0.20760250512490327,-0.17022447801365664,0.10011118041000001,2.3619475234096825,1.3475091606867737,-0.9434504025067586, ,0.015113384545066218,0.02409775052271985,0.011772957516629714,-0.0948822340288318,0.02960202751181382,-0.025922912800946152, ,0.8870060443878174
0.011288647801401649,0.02087120167339785,-0.08381535755437641, ,0.011545879518168841,0.02057549481126376,-0.0841184499802203, ,0.00049545506660859, ,0.0033828687612465977,-0.0004941574259979001,-0.011492299946867136,0.013933033748893889,0.011504800348457286,0.01594233777701526, ,0.011990035474770261, ,0.01806902487801794, ,7.531824117978808e-05, ,0.20778012798101042,-0.16993873689731034,0.10024469828000002,2.361108763635744,1.3479190701860702,-0.9437846562178479, ,0.015740079873688965,0.02596359550163359,0.011878308366890382,-0.05013868550609049,0.050881715758836286,-0.04327507170333852, ,0.8950390815734863
0.011288647801401649,0.02087120167339785,-0.08381535755437641, ,0.011576205095479911,0.020569530043594058,-0.08421170206428022, ,0.0005751381922086007, ,0.0033828687612465977,-0.0004941574259979001,-0.011492299946867136,0.013933033748893889,0.011504800348457286,0.01594233777701526, ,0.011990035474770261, ,0.01806902487801794, ,7.570602826242414e-05, ,0.20778012798101042,-0.16993873689731034,0.10024469828000002,2.361108763635744,1.3479190701860702,-0.9437846562178479, ,0.015740079873688965,0.02596359550163359,0.011878308366890382,-0.05013868550609049,0.050881715758836286,-0.04327507170333852, ,0.9036190509796143
0.011319878417690433,0.02086807915664494,-0.08391803174120974, ,0.011606673727849834,0.02056352998316835,-0.08430497561496561, ,0.0005698484977885825, ,0.0036449367728391426,-0.00019496578288214598,-0.011336134817287707,0.011409370031437605,0.011645426893755334,-0.03673469327906733, ,0.011909304275658275, ,0.016303052010093223, ,7.607608311054108e-05, ,0.20791141443987224,-0.1697070549110836,0.10034969777000001,2.3608990736922597,1.3481923431856009,-0.9441708495055218, ,0.014404514504928778,0.02634562508563875,0.01169516264317181,0.009385340105032575,0.03477800927227444,-0.03359176538082294, ,0.9115920066833496
0.011356455539834005,0.020865773021163388,-0.0840331697538715, ,0.011637284544673129,0.020557495154226932,-0.08439826930168459, ,0.000554254321602592, ,0.003624873611270485,-0.00010841162412982566,-0.010996747100336856,-0.012819916827625153,-0.008539376647624754,-0.024571056873727695, ,0.0115792879127647, ,0.015403605428087714, ,7.6409174884583e-05, ,0.20805814636448253,-0.16944448199335996,0.10046766016000001,2.3608990736922597,1.3484656161851316,-0.9444753640530551, ,0.01451467445066852,0.02414066180576718,0.011139029034965036,0.008963048875307994,0.006239243336210526,-0.013462605616404095, ,0.9196360111236572
0.0113937647781274,0.020863375049401937,-0.08414297115911949, ,0.01166803667753914,0.020551426079611673,-0.08449158179790024, ,0.0005422790905348038, ,0.003474603219391299,-0.000524453988510142,-0.010494298677686156,0.012597722063333285,0.012421308191698954,-0.03044507558344348, ,0.01106698803897221, ,0.017691562144031517, ,7.671322273299265e-05, ,0.208212601021967,-0.1691741863427621,0.10058173368000001,2.361108763635744,1.3488755256844283,-0.944891296504285, ,0.015181081676287116,0.027666746810049787,0.010821203478260872,0.0,0.03925250652514038,-0.037496238392336845, ,0.9302198886871338
0.011421064269103071,0.020854422016209077,-0.0842400019303557, ,0.011698929260229883,0.020545323280767056,-0.0845849117811259, ,0.000540105347783261, ,0.0030998413136947606,-0.0008282336391067282,-0.010290326295109425,0.029196558022162804,0.020515937331295066,0.019375769008916934, ,0.010778951822457382, ,0.035683925926656514, ,7.71524928965544e-05, ,0.2083670556794515,-0.16892705889078694,0.10068414059000001,2.3602700038618063,1.3496953446830207,-0.9456414826666042, ,0.016781068356935595,0.02607058834023922,0.010791877723577238,-0.06733660466853926,0.08303555462306765,-0.07375403690764254, ,0.9370260238647461
0.011421064269103071,0.020854422016209077,-0.0842400019303557, ,0.011729961428717676,0.020539187277742108,-0.08467825793292208, ,0.0006219796775938651, ,0.0030998413136947606,-0.0008282336391067282,-0.010290326295109425,0.029196558022162804,0.020515937331295066,0.019375769008916934, ,0.010778951822457382, ,0.035683925926656514, ,7.773823066479299e-05, ,0.2083670556794515,-0.16892705889078694,0.10068414059000001,2.3602700038618063,1.3496953446830207,-0.9456414826666042, ,0.016781068356935595,0.02607058834023922,0.010791877723577238,-0.06733660466853926,0.08303555462306765,-0.07375403690764254, ,0.9434950351715088
0.011457197445344961,0.02084390632013888,-0.08435584413937657, ,0.011761132321163171,0.020533018589191075,-0.08477161893889074, ,0.0006015781527811283, ,0.0032592091818423306,-0.0011462468566447736,-0.010359930885953411,-0.02384494423244381,-0.013312190839584112,0.04403038786001996, ,0.010920828462580337, ,0.027309259804292416, ,7.827742404164263e-05, ,0.20855240126843289,-0.16861814957581794,0.10080080669000001,2.359640934031353,1.3499686176825516,-0.9459459972141375, ,0.016882572773255788,0.029461950188907415,0.010289929922480621,-0.06096004854367966,0.019733101628780444,-0.01250687257783097, ,0.9498989582061768
0.011495396450698536,0.020835499930052834,-0.08446661521763524, ,0.011792441077913055,0.020526817732375226,-0.08486499348867266, ,0.0005850003902176942, ,0.004103608254161465,-0.00044079234189783255,-0.011764872560362294,-0.02437339614741268,-0.01360814452158423,-0.009388163739411277, ,0.012467803533656742, ,0.027914938862341428, ,7.877814355186569e-05, ,0.20873774685741428,-0.1683169629937232,0.10091099134,2.359431244087868,1.3499686176825516,-0.9460276759542781, ,0.0181377946403805,0.02902934890133704,0.011860619151154134,0.006586211267992309,0.004957482049851064,0.0017959012759960861, ,0.9565799236297607
0.011495396450698536,0.020835499930052834,-0.08446661521763524, ,0.011823886841498056,0.020520585223164117,-0.08495838027594185, ,0.0006700075238635282, ,0.004103608254161465,-0.00044079234189783255,-0.011764872560362294,-0.02437339614741268,-0.01360814452158423,-0.009388163739411277, ,0.012467803533656742, ,0.027914938862341428, ,7.942694601924425e-05, ,0.20873774685741428,-0.1683169629937232,0.10091099134,2.359431244087868,1.3499686176825516,-0.9460276759542781, ,0.0181377946403805,0.02902934890133704,0.011860619151154134,0.006586211267992309,0.004957482049851064,0.0017959012759960861, ,0.9651260375976562
0.011528276619746435,0.020834459312130783,-0.08456153990748329, ,0.011855468756630544,0.020514321576036998,-0.0850517779984026, ,0.0006707281493259846, ,0.004328689161228372,-0.00034500690781488785,-0.013286363048529821,-0.021335290489092485,-0.015504431899594353,-0.01438458404616391, ,0.01397798349828453, ,0.026373881298631333, ,8.006763633730051e-05, ,0.2088690333162761,-0.1681007264732449,0.10100691680000001,2.359640934031353,1.3499686176825516,-0.9460276759542781, ,0.017945715120739555,0.029888800490856935,0.013385555899159665,-0.006516159690856293,0.00484024873935348,-0.016845616779994885, ,0.9722440242767334
0.011574995555554968,0.020828275095542276,-0.08471623189347309, ,0.011887185970202555,0.020508027304084173,-0.08514518535778429, ,0.0006196955522482005, ,0.004362112050216836,-0.00043681782353548117,-0.0142495127658873,-0.02875317496017904,-0.028009377296295785,0.01755139687887371, ,0.014908636604827094, ,0.04014062405254139, ,8.060714085423565e-05, ,0.20907754710388016,-0.16776864895965324,0.10116247160000001,2.359011864200899,1.350105254182317,-0.9464658088185367, ,0.019327279339810745,0.029154206315966442,0.014260350510295436,-0.053784687702010434,0.0,-0.030256404361094346, ,0.9798910617828369
0.01161935539135853,0.020821958636453915,-0.08486634988420458, ,0.011919037631283508,0.02050170291900824,-0.08523860105983769, ,0.000575277417637202, ,0.0032819302274702897,-0.0008015497970801553,-0.011222967432245537,0.044031702823549124,0.01727377756793477,-0.022936804764544745, ,0.011720432845267552, ,0.047298774476293264, ,8.105946438593557e-05, ,0.20929378362435844,-0.16745201691181005,0.10131802640000001,2.3581731044269607,1.3507884366811442,-0.9475946495180027, ,0.01704939661488875,0.026514931980573,0.01167801431085044,-0.0771443339185839,0.06609348531188518,-0.11682421423946412, ,0.9868040084838867
0.01161935539135853,0.020821958636453915,-0.08486634988420458, ,0.011951022891118143,0.020495348931125756,-0.0853320238143311, ,0.0006584295248626205, ,0.0032819302274702897,-0.0008015497970801553,-0.011222967432245537,0.044031702823549124,0.01727377756793477,-0.022936804764544745, ,0.011720432845267552, ,0.047298774476293264, ,8.165305526927284e-05, ,0.20929378362435844,-0.16745201691181005,0.10131802640000001,2.3581731044269607,1.3507884366811442,-0.9475946495180027, ,0.01704939661488875,0.026514931980573,0.01167801431085044,-0.0771443339185839,0.06609348531188518,-0.11682421423946412, ,0.993211030960083
0.01165635357736558,0.020812147137417976,-0.08497242013552846, ,0.011983140903124237,0.02048896584936808,-0.08542545233504516, ,0.0006453481812332188, ,0.0043373155821044476,-0.0010999420162170908,-0.011709614324607508,0.005208515061943714,0.0010536999095725281,-0.0494197307068531, ,0.012535439622480701, ,0.005314009080048175, ,8.221519981981275e-05, ,0.20947912921333983,-0.16714310759684106,0.10142561847,2.3579634144834767,1.3510617096806752,-0.9479808428056768, ,0.02165113884519069,0.03601401956678208,0.011922763113772456,0.0,0.031838940827090795,-0.0538048575062359, ,1.0003039836883545
0.011704889501834601,0.020806735274638402,-0.08510393830333224, ,0.012015390822890404,0.020482554181283558,-0.08551888533976956, ,0.000611298204409484, ,0.004609278695811777,-0.0003492444443595221,-0.013411198655277857,-0.017949143357035305,-0.012651129001464114,-0.005473847584387339, ,0.014185473948688035, ,0.021959562345700633, ,8.270983625611788e-05, ,0.20970308846669233,-0.16680330735037519,0.10156043263000002,2.3581731044269607,1.3513349826802061,-0.9483670360933507, ,0.020824433082833174,0.029907639949092592,0.013626014987168523,-0.007773260459212903,0.01344228686003704,-0.01098883675936204, ,1.0071380138397217
0.011704889501834601,0.020806735274638402,-0.08510393830333224, ,0.012047771808174228,0.020476114433037994,-0.0856123215502984, ,0.0006966576940630139, ,0.004609278695811777,-0.0003492444443595221,-0.013411198655277857,-0.017949143357035305,-0.012651129001464114,-0.005473847584387339, ,0.014185473948688035, ,0.021959562345700633, ,8.334604208053274e-05, ,0.20970308846669233,-0.16680330735037519,0.10156043263000002,2.3581731044269607,1.3513349826802061,-0.9483670360933507, ,0.020824433082833174,0.029907639949092592,0.013626014987168523,-0.007773260459212903,0.01344228686003704,-0.01098883675936204, ,1.014389991760254
0.011740184476458493,0.020802943781675513,-0.0852088453929745, ,0.012080283018899749,0.020469647109416785,-0.0857057596924263, ,0.0006882423347259885, ,0.004505942283991124,-0.0004933776377103026,-0.012831657347302254,0.015135706860615307,0.010146446547607291,-0.028220119940029202, ,0.013608760694443403, ,0.018221955214699076, ,8.410418084953688e-05, ,0.20987298858992529,-0.1665639026312742,0.10166932099,2.3579634144834767,1.3517448921795023,-0.9488646472847211, ,0.021518580852260945,0.030880879127390425,0.01330727779448622,-0.007492663139403919,0.04663861246918987,-0.04412572561206897, ,1.019486904144287
0.011740184476458493,0.020802943781675513,-0.0852088453929745, ,0.012112923617155377,0.020463152713825723,-0.0857991984959441, ,0.0007764722937644195, ,0.004505942283991124,-0.0004933776377103026,-0.012831657347302254,0.015135706860615307,0.010146446547607291,-0.028220119940029202, ,0.013608760694443403, ,0.018221955214699076, ,8.50063490960357e-05, ,0.20987298858992529,-0.1665639026312742,0.10166932099,2.3579634144834767,1.3517448921795023,-0.9488646472847211, ,0.021518580852260945,0.030880879127390425,0.01330727779448622,-0.007492663139403919,0.04663861246918987,-0.04412572561206897, ,1.0244379043579102
0.011789946057764497,0.02079178764449783,-0.0853767129834366, ,0.012145692767191876,0.02045663174829267,-0.0858926366946344, ,0.0007106774738273321, ,0.004407745297377201,-0.0008486393876813716,-0.01567216543722593,0.0005055149460682973,0.0006522620255278453,0.05814851685152911, ,0.01630230587704249, ,0.0008246488019492702, ,8.578658612778094e-05, ,0.21012011604190045,-0.166177765987563,0.10184172756000001,2.356914964766054,1.3524280746783297,-0.9495034155433437, ,0.020473989548753135,0.03328549335618056,0.01602496128772636,-0.10228756288283715,0.05384252854411127,-0.051011566584207024, ,1.0292789936065674
0.011789946057764497,0.02079178764449783,-0.0853767129834366, ,0.01217858963541998,0.020450084713468916,-0.08598607302626751, ,0.0007994525535173998, ,0.004407745297377201,-0.0008486393876813716,-0.01567216543722593,0.0005055149460682973,0.0006522620255278453,0.05814851685152911, ,0.01630230587704249, ,0.0008246488019492702, ,8.671008322340965e-05, ,0.21012011604190045,-0.166177765987563,0.10184172756000001,2.356914964766054,1.3524280746783297,-0.9495034155433437, ,0.020473989548753135,0.03328549335618056,0.01602496128772636,-0.10228756288283715,0.05384252854411127,-0.051011566584207024, ,1.0341119766235352
0.011843399009541906,0.02078726455326802,-0.08555023010128542, ,0.012211613390408502,0.02044351210863046,-0.08607950623259766, ,0.0007306714697099719, ,0.005702367702144701,-0.0002928279073475152,-0.018381236928737082,-0.011427978808054339,-0.007062368068784646,-0.0018143052433361555, ,0.019247665225272194, ,0.013434047939728766, ,8.750761071500244e-05, ,0.21034407529525298,-0.16581479754247444,0.10201931929000001,2.356495584879085,1.352837984177626,-0.9497559905142925, ,0.02282273726754949,0.03714166010116273,0.01873977825882353,-0.029702209827273434,0.02915749291718249,-0.032468351594593464, ,1.0389230251312256
0.011843399009541906,0.02078726455326802,-0.08555023010128542, ,0.012244763202881741,0.020436914431679488,-0.0861729350593585, ,0.0008195119817313438, ,0.005702367702144701,-0.0002928279073475152,-0.018381236928737082,-0.011427978808054339,-0.007062368068784646,-0.0018143052433361555, ,0.019247665225272194, ,0.013434047939728766, ,8.844688415443978e-05, ,0.21034407529525298,-0.16581479754247444,0.10201931929000001,2.356495584879085,1.352837984177626,-0.9497559905142925, ,0.02282273726754949,0.03714166010116273,0.01873977825882353,-0.029702209827273434,0.02915749291718249,-0.032468351594593464, ,1.0437390804290771
0.011906445242659432,0.020786625755006165,-0.08574286871659377, ,0.012278038245717906,0.02043029217914544,-0.08626635825625839, ,0.0007342317586062192, ,0.005987867801748825,-7.394083902563232e-05,-0.018735820635330688,0.010216304176059664,0.005615654055072221,-0.025154568820828508, ,0.019669545061799965, ,0.011657878572226107, ,8.92336141983037e-05, ,0.21059892548010237,-0.16542866089876324,0.10221765166,2.356495584879085,1.353247893676922,-0.9502536017056626, ,0.024578332441976374,0.036331141484866304,0.019331081941747576,-0.0187649892328471,0.04698515686214959,-0.051316383232447575, ,1.0489819049835205
0.011906445242659432,0.020786625755006165,-0.08574286871659377, ,0.012311437693946282,0.020423645846186812,-0.08635977457697709, ,0.0008224026631651447, ,0.005987867801748825,-7.394083902563232e-05,-0.018735820635330688,0.010216304176059664,0.005615654055072221,-0.025154568820828508, ,0.019669545061799965, ,0.011657878572226107, ,9.015966064332913e-05, ,0.21059892548010237,-0.16542866089876324,0.10221765166,2.356495584879085,1.353247893676922,-0.9502536017056626, ,0.024578332441976374,0.036331141484866304,0.019331081941747576,-0.0187649892328471,0.04698515686214959,-0.051316383232447575, ,1.0545580387115479
0.011923754616279408,0.02078665226627636,-0.08579692945681176, ,0.012344960724745583,0.020416975926592383,-0.08645318277916132, ,0.0008629852866800211, ,0.005821843161844663,-0.00019555093867302934,-0.01832669458749428,0.026859471451128394,0.018560485855673863,-0.03838217720295091, ,0.01923018025068994, ,0.032648442144315844, ,9.114389038543883e-05, ,0.2106684300759704,-0.16532054263852408,0.10227468842000001,2.356495584879085,1.353521166676453,-0.9505581162531962, ,0.023795622256386855,0.037229086527450286,0.019030838136200722,-0.016974314288236352,0.06374697298904335,-0.06810832881116016, ,1.0597929954528809
0.011923754616279408,0.02078665226627636,-0.08579692945681176, ,0.012378606517441593,0.020410282912782376,-0.08654658162442005, ,0.0009542130342015591, ,0.005821843161844663,-0.00019555093867302934,-0.01832669458749428,0.026859471451128394,0.018560485855673863,-0.03838217720295091, ,0.01923018025068994, ,0.032648442144315844, ,9.226914883675329e-05, ,0.2106684300759704,-0.16532054263852408,0.10227468842000001,2.356495584879085,1.353521166676453,-0.9505581162531962, ,0.023795622256386855,0.037229086527450286,0.019030838136200722,-0.016974314288236352,0.06374697298904335,-0.06810832881116016, ,1.0647730827331543
0.012021524509032308,0.02077284129414468,-0.08613314956799287, ,0.012412374253504896,0.020403567295809968,-0.08663996987832091, ,0.000738913821471361, ,0.006074321067592616,-0.0009455606568107769,-0.020905248391802633,0.0002070713048494712,-0.006939639662005181,0.0801240176661423, ,0.02179038484540543, ,0.006942440807958517, ,9.302919221662352e-05, ,0.21111634858267542,-0.16464094214559233,0.10262079785000001,2.354608375387724,1.3547508951743419,-0.9516425561266045, ,0.02962751843848604,0.04078080857691052,0.021409692903225808,-0.14667969301603143,0.06572743057554564,-0.07489675564174388, ,1.0696220397949219
0.012021524509032308,0.02077284129414468,-0.08613314956799287, ,0.012446263116548855,0.020396829565362862,-0.08673334631038598, ,0.0008258473433243556, ,0.006074321067592616,-0.0009455606568107769,-0.020905248391802633,0.0002070713048494712,-0.006939639662005181,0.0801240176661423, ,0.02179038484540543, ,0.006942440807958517, ,9.392405271854575e-05, ,0.21111634858267542,-0.16464094214559233,0.10262079785000001,2.354608375387724,1.3547508951743419,-0.9516425561266045, ,0.02962751843848604,0.04078080857691052,0.021409692903225808,-0.14667969301603143,0.06572743057554564,-0.07489675564174388, ,1.0745129585266113
0.012093607454592932,0.020770433687856447,-0.08635027315583739, ,0.012480272292327487,0.020390070209764227,-0.08682670969408704, ,0.000721926483228044, ,0.006547459824514776,-0.00046232994385023504,-0.01989579846625514,-0.022106751483940246,-0.02109499222095487,0.01324130909733606, ,0.020950555499567453, ,0.0305565711504407, ,9.479530618965661e-05, ,0.2114252578976444,-0.16420846910463574,0.10284375973000001,2.3543986854442394,1.3551608046736385,-0.9520584885778346, ,0.02944366787417647,0.03988942478287969,0.020239912986022877,-0.04826660830417433,0.022731372044971884,-0.03304765752022283, ,1.0777370929718018
0.012093607454592932,0.020770433687856447,-0.08635027315583739, ,0.01251440096873306,0.02038328971597455,-0.08692005880684173, ,0.0008072195021165711, ,0.006547459824514776,-0.00046232994385023504,-0.01989579846625514,-0.022106751483940246,-0.02109499222095487,0.01324130909733606, ,0.020950555499567453, ,0.0305565711504407, ,9.579958080711556e-05, ,0.2114252578976444,-0.16420846910463574,0.10284375973000001,2.3543986854442394,1.3551608046736385,-0.9520584885778346, ,0.02944366787417647,0.03988942478287969,0.020239912986022877,-0.04826660830417433,0.022731372044971884,-0.03304765752022283, ,1.0809619426727295
0.012093607454592932,0.020770433687856447,-0.08635027315583739, ,0.012548648335793985,0.020376488569592666,-0.08701339243000987, ,0.0008955345507277382, ,0.006547459824514776,-0.00046232994385023504,-0.01989579846625514,-0.022106751483940246,-0.02109499222095487,0.01324130909733606, ,0.020950555499567453, ,0.0305565711504407, ,9.694048095154587e-05, ,0.2114252578976444,-0.16420846910463574,0.10284375973000001,2.3543986854442394,1.3551608046736385,-0.9520584885778346, ,0.02944366787417647,0.03988942478287969,0.020239912986022877,-0.04826660830417433,0.022731372044971884,-0.03304765752022283, ,1.084212064743042
0.01216210363724585,0.020765595394162,-0.08654288449059132, ,0.012583013585673077,0.02036966725485722,-0.08710670934888814, ,0.0008073554031600905, ,0.007091503435387018,-0.0009561731160420867,-0.01974289224517142,-0.018109724990398077,-0.01360556758314913,-0.03429471121914254, ,0.020999654335402698, ,0.022651061982893586, ,9.793155436230032e-05, ,0.21173416721261337,-0.1637837187965534,0.10304079581000002,2.3543986854442394,1.3554340776731693,-0.9523630031253679, ,0.032354906770702616,0.04851581879267422,0.020086773669609086,0.0,0.02633065535007238,-0.033148071536775, ,1.088097095489502
0.01216210363724585,0.020765595394162,-0.08654288449059132, ,0.012617495912664648,0.02036282625464799,-0.08720000835270701, ,0.0008952188974869837, ,0.007091503435387018,-0.0009561731160420867,-0.01974289224517142,-0.018109724990398077,-0.01360556758314913,-0.03429471121914254, ,0.020999654335402698, ,0.022651061982893586, ,9.905773115579853e-05, ,0.21173416721261337,-0.1637837187965534,0.10304079581000002,2.3543986854442394,1.3554340776731693,-0.9523630031253679, ,0.032354906770702616,0.04851581879267422,0.020086773669609086,0.0,0.02633065535007238,-0.033148071536775, ,1.0936939716339111
0.01216210363724585,0.020765595394162,-0.08654288449059132, ,0.012652094513193027,0.02035596605048744,-0.08729328823462576, ,0.0009853897892568404, ,0.007091503435387018,-0.0009561731160420867,-0.01974289224517142,-0.018109724990398077,-0.01360556758314913,-0.03429471121914254, ,0.020999654335402698, ,0.022651061982893586, ,0.0001003214138635758, ,0.21173416721261337,-0.1637837187965534,0.10304079581000002,2.3543986854442394,1.3554340776731693,-0.9523630031253679, ,0.032354906770702616,0.04851581879267422,0.020086773669609086,0.0,0.02633065535007238,-0.033148071536775, ,1.1012389659881592
0.01216210363724585,0.020765595394162,-0.08654288449059132, ,0.01268680858580987,0.020349087122541933,-0.0873865477917286, ,0.0010772939195323402, ,0.007091503435387018,-0.0009561731160420867,-0.01974289224517142,-0.018109724990398077,-0.01360556758314913,-0.03429471121914254, ,0.020999654335402698, ,0.022651061982893586, ,0.00010172405561046411, ,0.21173416721261337,-0.1637837187965534,0.10304079581000002,2.3543986854442394,1.3554340776731693,-0.9523630031253679, ,0.032354906770702616,0.04851581879267422,0.020086773669609086,0.0,0.02633065535007238,-0.033148071536775, ,1.1047120094299316
0.01230920929431021,0.02073990001545808,-0.08698512976914785, ,0.012721637331192318,0.0203421899496231,-0.08747978582502072, ,0.0007569377753056067, ,0.006667364820938792,-0.001436102326700428,-0.021302611357187563,0.011679511540745837,0.0012299041835660404,0.04324185446107592, ,0.022367775798760658, ,0.011743903404134757, ,0.00010260681424536791, ,0.21243693590416782,-0.16272570439278464,0.10350097876000001,2.3531405457833325,1.3574836251696507,-0.9543609866413764, ,0.033308859795883036,0.04783111973713245,0.021880235604395604,-0.12563107295021295,0.07694145386765244,-0.09407785956689976, ,1.1081080436706543
0.01230920929431021,0.02073990001545808,-0.08698512976914785, ,0.01275657995214059,0.02033527500918935,-0.08757300113942366, ,0.000842291308975417, ,0.006667364820938792,-0.001436102326700428,-0.021302611357187563,0.011679511540745837,0.0012299041835660404,0.04324185446107592, ,0.022367775798760658, ,0.011743903404134757, ,0.00010361965634470764, ,0.21243693590416782,-0.16272570439278464,0.10350097876000001,2.3531405457833325,1.3574836251696507,-0.9543609866413764, ,0.033308859795883036,0.04783111973713245,0.021880235604395604,-0.12563107295021295,0.07694145386765244,-0.09407785956689976, ,1.1114590167999268
0.01230920929431021,0.02073990001545808,-0.08698512976914785, ,0.012791635653576192,0.02032834277734703,-0.08766619254377131, ,0.000930570285004863, ,0.006667364820938792,-0.001436102326700428,-0.021302611357187563,0.011679511540745837,0.0012299041835660404,0.04324185446107592, ,0.022367775798760658, ,0.011743903404134757, ,0.00010476598118197458, ,0.21243693590416782,-0.16272570439278464,0.10350097876000001,2.3531405457833325,1.3574836251696507,-0.9543609866413764, ,0.033308859795883036,0.04783111973713245,0.021880235604395604,-0.12563107295021295,0.07694145386765244,-0.09407785956689976, ,1.1147229671478271
0.012390255789865577,0.020723915485788016,-0.08722664190441728, ,0.012826803642539193,0.020321393728851965,-0.08775935885080555, ,0.0007977375116227553, ,0.007980127784449646,-0.0013749756692375305,-0.02318236537859719,-0.05034028464095279,-0.02960442445384421,0.029595226265963715, ,0.024555957771871213, ,0.058399995799549166, ,0.000105695215856949, ,0.21243693590416782,-0.16272570439278464,0.10350097876000001,2.3531405457833325,1.3574836251696507,-0.9543609866413764, ,0.033308859795883036,0.04783111973713245,0.021880235604395604,-0.12563107295021295,0.07694145386765244,-0.09407785956689976, ,1.1179869174957275
0.012390255789865577,0.020723915485788016,-0.08722664190441728, ,0.012862083128186628,0.020314428337110654,-0.0878524988771725, ,0.0008843063453721052, ,0.007980127784449646,-0.0013749756692375305,-0.02318236537859719,-0.05034028464095279,-0.02960442445384421,0.029595226265963715, ,0.024555957771871213, ,0.058399995799549166, ,0.00010675492595719815, ,0.21282307254787905,-0.16215422216009204,0.10374468128000001,2.352301786009394,1.3577568981691817,-0.9546655011889097, ,0.036082487284589654,0.055854585967316524,0.02339032528634362,-0.03871878787071654,0.018158994050126324,-0.0007398195101152756, ,1.1214189529418945
0.012390255789865577,0.020723915485788016,-0.08722664190441728, ,0.012897473321789893,0.020307447074181997,-0.08794561144341796, ,0.0009734643088310337, ,0.007980127784449646,-0.0013749756692375305,-0.02318236537859719,-0.05034028464095279,-0.02960442445384421,0.029595226265963715, ,0.024555957771871213, ,0.058399995799549166, ,0.00010794794708265598, ,0.21282307254787905,-0.16215422216009204,0.10374468128000001,2.352301786009394,1.3577568981691817,-0.9546655011889097, ,0.036082487284589654,0.055854585967316524,0.02339032528634362,-0.03871878787071654,0.018158994050126324,-0.0007398195101152756, ,1.1247038841247559
0.01247125658305031,0.020710788560639567,-0.08745803545923794, ,0.012932973436732755,0.020300450410778218,-0.08803869537398325, ,0.000847776967602963, ,0.008784899180427689,-0.001143962436349656,-0.02422883491699876,-0.036287877012427375,-0.025356638343635437,-0.04581583894856195, ,0.02579766549711885, ,0.04426918540719903, ,0.00010893680635251146, ,0.2131860409929676,-0.16159046266027363,0.10397930977000001,2.3520920960659097,1.3580301711687126,-0.9549700157364434, ,0.03835769666874324,0.058905612388870744,0.02454362329738059,0.01590393630819403,0.014552013362752558,-0.023331490546502957, ,1.1281728744506836
0.01247125658305031,0.020710788560639567,-0.08745803545923794, ,0.012968582688509192,0.020293438816266496,-0.08813174949720103, ,0.0009356306265015534, ,0.008784899180427689,-0.001143962436349656,-0.02422883491699876,-0.036287877012427375,-0.025356638343635437,-0.04581583894856195, ,0.02579766549711885, ,0.04426918540719903, ,0.0001100565520838633, ,0.2131860409929676,-0.16159046266027363,0.10397930977000001,2.3520920960659097,1.3580301711687126,-0.9549700157364434, ,0.03835769666874324,0.058905612388870744,0.02454362329738059,0.01590393630819403,0.014552013362752558,-0.023331490546502957, ,1.1318140029907227
0.01247125658305031,0.020710788560639567,-0.08745803545923794, ,0.013004300294721218,0.0202864127586703,-0.08822477264529135, ,0.0010257272212075008, ,0.008784899180427689,-0.001143962436349656,-0.02422883491699876,-0.036287877012427375,-0.025356638343635437,-0.04581583894856195, ,0.02579766549711885, ,0.04426918540719903, ,0.00011130945117723776, ,0.2131860409929676,-0.16159046266027363,0.10397930977000001,2.3520920960659097,1.3580301711687126,-0.9549700157364434, ,0.03835769666874324,0.058905612388870744,0.02454362329738059,0.01590393630819403,0.014552013362752558,-0.023331490546502957, ,1.1352579593658447
0.01247125658305031,0.020710788560639567,-0.08745803545923794, ,0.01304012547507667,0.020279372704670773,-0.08831776365435703, ,0.0011175258505194932, ,0.008784899180427689,-0.001143962436349656,-0.02422883491699876,-0.036287877012427375,-0.025356638343635437,-0.04581583894856195, ,0.02579766549711885, ,0.04426918540719903, ,0.00011269690381005174, ,0.2131860409929676,-0.16159046266027363,0.10397930977000001,2.3520920960659097,1.3580301711687126,-0.9549700157364434, ,0.03835769666874324,0.058905612388870744,0.02454362329738059,0.01590393630819403,0.014552013362752558,-0.023331490546502957, ,1.138782024383545
0.012538267870467471,0.020703192921880685,-0.08763684826431152, ,0.013076057451387095,0.020272319119608005,-0.08841072136437987, ,0.0010362188194778267, ,0.008919135094757568,-0.0010429252265470113,-0.023876018884643555,0.05695437818234202,0.038482298351948524,-0.07836536220364129, ,0.025508879662708824, ,0.0687363129758749, ,0.00011395011093811623, ,0.21349495030793658,-0.16115026688644285,0.10416597553000001,2.352301786009394,1.35871335366754,-0.9556904627352065, ,0.04319387417317742,0.05733954172717268,0.0251243083911672,0.0,0.11502608249142625,-0.10291643919691325, ,1.143254041671753
0.012538267870467471,0.020703192921880685,-0.08763684826431152, ,0.013112095447565352,0.02026525246748254,-0.08850364461921638, ,0.001128009685558075, ,0.008919135094757568,-0.0010429252265470113,-0.023876018884643555,0.05695437818234202,0.038482298351948524,-0.07836536220364129, ,0.025508879662708824, ,0.0687363129758749, ,0.00011551501768907297, ,0.21349495030793658,-0.16115026688644285,0.10416597553000001,2.352301786009394,1.35871335366754,-0.9556904627352065, ,0.04319387417317742,0.05733954172717268,0.0251243083911672,0.0,0.11502608249142625,-0.10291643919691325, ,1.1449840068817139
0.012538267870467471,0.020703192921880685,-0.08763684826431152, ,0.013148238689623958,0.02025817321095659,-0.08859653226659324, ,0.0012211061901279754, ,0.008919135094757568,-0.0010429252265470113,-0.023876018884643555,0.05695437818234202,0.038482298351948524,-0.07836536220364129, ,0.025508879662708824, ,0.0687363129758749, ,0.0001172185480009973, ,0.21349495030793658,-0.16115026688644285,0.10416597553000001,2.352301786009394,1.35871335366754,-0.9556904627352065, ,0.04319387417317742,0.05733954172717268,0.0251243083911672,0.0,0.11502608249142625,-0.10291643919691325, ,1.1467230319976807
0.012652213269091928,0.020682844468275854,-0.08796219703302877, ,0.013184486405672349,0.02025108181135556,-0.08868938315810322, ,0.0009992664030862002, ,0.009040276100006555,-0.0017076752795315057,-0.026682106782722356,-0.02325245106996591,-0.016634446477298125,0.06685922110423055, ,0.028223705801848048, ,0.02858964439285046, ,0.00011857554470112838, ,0.21406643254062918,-0.1603857163318946,0.10450301093000001,2.3512533362919714,1.3599430821654288,-0.9568565813487553, ,0.044489892901299004,0.06055963086054293,0.027275362191780828,-0.11041034910700144,0.06413117896236181,-0.046518327225740334, ,1.1484379768371582
0.012652213269091928,0.020682844468275854,-0.08796219703302877, ,0.013220837825915106,0.020243978728669343,-0.08878219614920195, ,0.0010901080563630052, ,0.009040276100006555,-0.0017076752795315057,-0.026682106782722356,-0.02325245106996591,-0.016634446477298125,0.06685922110423055, ,0.028223705801848048, ,0.02858964439285046, ,0.0001200679141506858, ,0.21406643254062918,-0.1603857163318946,0.10450301093000001,2.3512533362919714,1.3599430821654288,-0.9568565813487553, ,0.044489892901299004,0.06055963086054293,0.027275362191780828,-0.11041034910700144,0.06413117896236181,-0.046518327225740334, ,1.1500780582427979
0.012652213269091928,0.020682844468275854,-0.08796219703302877, ,0.013257292182649413,0.02023686442155369,-0.088874970099202, ,0.0011824438100973363, ,0.009040276100006555,-0.0017076752795315057,-0.026682106782722356,-0.02325245106996591,-0.016634446477298125,0.06685922110423055, ,0.028223705801848048, ,0.02858964439285046, ,0.00012169732503403957, ,0.21406643254062918,-0.1603857163318946,0.10450301093000001,2.3512533362919714,1.3599430821654288,-0.9568565813487553, ,0.044489892901299004,0.06055963086054293,0.027275362191780828,-0.11041034910700144,0.06413117896236181,-0.046518327225740334, ,1.151705026626587
0.012652213269091928,0.020682844468275854,-0.08796219703302877, ,0.013293848710263399,0.020229739347331636,-0.08896770387127012, ,0.001275948389137785, ,0.009040276100006555,-0.0017076752795315057,-0.026682106782722356,-0.02325245106996591,-0.016634446477298125,0.06685922110423055, ,0.028223705801848048, ,0.02858964439285046, ,0.0006775008765658116, ,0.21406643254062918,-0.1603857163318946,0.10450301093000001,2.3512533362919714,1.3599430821654288,-0.9568565813487553, ,0.044489892901299004,0.06055963086054293,0.027275362191780828,-0.11041034910700144,0.06413117896236181,-0.046518327225740334, ,1.1533849239349365
0.012652213269091928,0.020682844468275854,-0.08796219703302877, ,0.013330506645233437,0.020222603961994663,-0.08906039633242223, ,0.0013703813078584023, ,0.009040276100006555,-0.0017076752795315057,-0.026682106782722356,-0.02325245106996591,-0.016634446477298125,0.06685922110423055, ,0.028223705801848048, ,0.02858964439285046, ,0.0006832748801599166, ,0.21406643254062918,-0.1603857163318946,0.10450301093000001,2.3512533362919714,1.3599430821654288,-0.9568565813487553, ,0.044489892901299004,0.06055963086054293,0.027275362191780828,-0.11041034910700144,0.06413117896236181,-0.046518327225740334, ,1.155029058456421
0.012652213269091928,0.020682844468275854,-0.08796219703302877, ,0.013367265226122272,0.02021545872020443,-0.0891530463535198, ,0.001465561613466714, ,0.009040276100006555,-0.0017076752795315057,-0.026682106782722356,-0.02325245106996591,-0.016634446477298125,0.06685922110423055, ,0.028223705801848048, ,0.02858964439285046, ,0.0006897400597740224, ,0.21406643254062918,-0.1603857163318946,0.10450301093000001,2.3512533362919714,1.3599430821654288,-0.9568565813487553, ,0.044489892901299004,0.06055963086054293,0.027275362191780828,-0.11041034910700144,0.06413117896236181,-0.046518327225740334, ,1.1567258834838867
0.012740847879409944,0.020668568132091187,-0.08821415288112291, ,0.01340412369357692,0.020208304075293802,-0.08924565280926518, ,0.0013098740051607806, ,0.011367611269470723,-0.0015979415642770048,-0.03201903866307094,-0.02592917710384709,-0.01756765502778137,0.007296708176897821, ,0.03401462685557308, ,0.0313194999016512, ,0.0006948231249001433, ,0.21449118284871152,-0.15980651136632779,0.10476097264,2.350624266461518,1.3604896281644907,-0.9573022529635411, ,0.052720523088039324,0.07305384261622076,0.03277533234567902,-0.05006539313531952,0.060753515085846976,-0.044144522355865884, ,1.1585359573364258
0.012740847879409944,0.020668568132091187,-0.08821415288112291, ,0.013441081290326128,0.020201140479268485,-0.08933821457819807, ,0.0014043967171772143, ,0.011367611269470723,-0.0015979415642770048,-0.03201903866307094,-0.02592917710384709,-0.01756765502778137,0.007296708176897821, ,0.03401462685557308, ,0.0313194999016512, ,0.0007005920158942658, ,0.21449118284871152,-0.15980651136632779,0.10476097264,2.350624266461518,1.3604896281644907,-0.9573022529635411, ,0.052720523088039324,0.07305384261622076,0.03277533234567902,-0.05006539313531952,0.060753515085846976,-0.044144522355865884, ,1.1602089405059814
0.012740847879409944,0.020668568132091187,-0.08821415288112291, ,0.013478137261178745,0.020193968382808142,-0.08943073054269028, ,0.0014996338756887535, ,0.011367611269470723,-0.0015979415642770048,-0.03201903866307094,-0.02592917710384709,-0.01756765502778137,0.007296708176897821, ,0.03401462685557308, ,0.0313194999016512, ,0.0007070359018603505, ,0.21449118284871152,-0.15980651136632779,0.10476097264,2.350624266461518,1.3604896281644907,-0.9573022529635411, ,0.052720523088039324,0.07305384261622076,0.03277533234567902,-0.05006539313531952,0.060753515085846976,-0.044144522355865884, ,1.1618518829345703
0.012740847879409944,0.020668568132091187,-0.08821415288112291, ,0.013515290853020858,0.02018678823526806,-0.08952319958894245, ,0.0015954551299273126, ,0.011367611269470723,-0.0015979415642770048,-0.03201903866307094,-0.02592917710384709,-0.01756765502778137,0.007296708176897821, ,0.03401462685557308, ,0.0313194999016512, ,0.0007141432556848861, ,0.21449118284871152,-0.15980651136632779,0.10476097264,2.350624266461518,1.3604896281644907,-0.9573022529635411, ,0.052720523088039324,0.07305384261622076,0.03277533234567902,-0.05006539313531952,0.060753515085846976,-0.044144522355865884, ,1.1635029315948486
0.012740847879409944,0.020668568132091187,-0.08821415288112291, ,0.013552541314814376,0.02017960048468015,-0.08961562060697952, ,0.001691758664795604, ,0.011367611269470723,-0.0015979415642770048,-0.03201903866307094,-0.02592917710384709,-0.01756765502778137,0.007296708176897821, ,0.03401462685557308, ,0.0313194999016512, ,0.0007219021081381459, ,0.21449118284871152,-0.15980651136632779,0.10476097264,2.350624266461518,1.3604896281644907,-0.9573022529635411, ,0.052720523088039324,0.07305384261622076,0.03277533234567902,-0.05006539313531952,0.060753515085846976,-0.044144522355865884, ,1.1651620864868164
0.012740847879409944,0.020668568132091187,-0.08821415288112291, ,0.013589887897594272,0.020172405577754696,-0.08970799249064651, ,0.0017884638692983884, ,0.011367611269470723,-0.0015979415642770048,-0.03201903866307094,-0.02592917710384709,-0.01756765502778137,0.007296708176897821, ,0.03401462685557308, ,0.0313194999016512, ,0.0007303002322417698, ,0.21449118284871152,-0.15980651136632779,0.10476097264,2.350624266461518,1.3604896281644907,-0.9573022529635411, ,0.052720523088039324,0.07305384261622076,0.03277533234567902,-0.05006539313531952,0.060753515085846976,-0.044144522355865884, ,1.1668128967285156
0.012885326031247129,0.020660037724902488,-0.08863662727938393, ,0.013627329854466796,0.020165203959881403,-0.08980031413760448, ,0.0014661504809100443, ,0.014727390531417967,0.00041888113967182095,-0.04425165368921732,0.08584561858129644,0.05980843036363076,-0.06996680402432409, ,0.04663990080933377, ,0.10462480052824795, ,0.0007360490623094907, ,0.21511672421152372,-0.15895701075016308,0.10520171124000001,2.350204886574549,1.3619926296619105,-0.9585278499042016, ,0.06021379540512105,0.07537485429584652,0.04657547228070176,-0.032264676953102187,0.17596604112985714,-0.13988811314838648, ,1.1685969829559326
0.012885326031247129,0.020660037724902488,-0.08863662727938393, ,0.013664866440606925,0.020157996075131124,-0.08989258444932621, ,0.0015611398017664605, ,0.014727390531417967,0.00041888113967182095,-0.04425165368921732,0.08584561858129644,0.05980843036363076,-0.06996680402432409, ,0.04663990080933377, ,0.10462480052824795, ,0.0007424451145533432, ,0.21511672421152372,-0.15895701075016308,0.10520171124000001,2.350204886574549,1.3619926296619105,-0.9585278499042016, ,0.06021379540512105,0.07537485429584652,0.04657547228070176,-0.032264676953102187,0.17596604112985714,-0.13988811314838648, ,1.1703009605407715
0.012885326031247129,0.020660037724902488,-0.08863662727938393, ,0.013702496913256586,0.020150782366256798,-0.08998480233109196, ,0.0016567091599799357, ,0.014727390531417967,0.00041888113967182095,-0.04425165368921732,0.08584561858129644,0.05980843036363076,-0.06996680402432409, ,0.04663990080933377, ,0.10462480052824795, ,0.0007494779149027786, ,0.21511672421152372,-0.15895701075016308,0.10520171124000001,2.350204886574549,1.3619926296619105,-0.9585278499042016, ,0.06021379540512105,0.07537485429584652,0.04657547228070176,-0.032264676953102187,0.17596604112985714,-0.13988811314838648, ,1.1720199584960938
0.012885326031247129,0.020660037724902488,-0.08863662727938393, ,0.013740220531722329,0.020143563274695152,-0.09007696669198548, ,0.0017527601342320308, ,0.014727390531417967,0.00041888113967182095,-0.04425165368921732,0.08584561858129644,0.05980843036363076,-0.06996680402432409, ,0.04663990080933377, ,0.10462480052824795, ,0.0007571365577984218, ,0.21511672421152372,-0.15895701075016308,0.10520171124000001,2.350204886574549,1.3619926296619105,-0.9585278499042016, ,0.06021379540512105,0.07537485429584652,0.04657547228070176,-0.032264676953102187,0.17596604112985714,-0.13988811314838648, ,1.1737229824066162
0.012885326031247129,0.020660037724902488,-0.08863662727938393, ,0.01377803655737301,0.020136339240568017,-0.0901690764448898, ,0.001849214057595775, ,0.014727390531417967,0.00041888113967182095,-0.04425165368921732,0.08584561858129644,0.05980843036363076,-0.06996680402432409, ,0.04663990080933377, ,0.10462480052824795, ,0.000765409872190826, ,0.21511672421152372,-0.15895701075016308,0.10520171124000001,2.350204886574549,1.3619926296619105,-0.9585278499042016, ,0.06021379540512105,0.07537485429584652,0.04657547228070176,-0.032264676953102187,0.17596604112985714,-0.13988811314838648, ,1.1754729747772217
0.012885326031247129,0.020660037724902488,-0.08863662727938393, ,0.013815944253637746,0.020129110702683504,-0.09026113050648264, ,0.0019460073261994486, ,0.014727390531417967,0.00041888113967182095,-0.04425165368921732,0.08584561858129644,0.05980843036363076,-0.06996680402432409, ,0.04663990080933377, ,0.10462480052824795, ,0.0007742865447773569, ,0.21511672421152372,-0.15895701075016308,0.10520171124000001,2.350204886574549,1.3619926296619105,-0.9585278499042016, ,0.06021379540512105,0.07537485429584652,0.04657547228070176,-0.032264676953102187,0.17596604112985714,-0.13988811314838648, ,1.1773231029510498
0.013023280709579137,0.020663022596802395,-0.08907881132186428, ,0.013853942886003778,0.02012187809853768,-0.0903531277972327, ,0.0016145338332596477, ,0.01654562858088414,0.000604857355679689,-0.05360109977072348,0.07182053166819061,0.04961455054556321,0.0244111637240365, ,0.05609992490358915, ,0.08728888784121326, ,0.0007805570469302097, ,0.2156804837113421,-0.15826196479148288,0.10566578306,2.348946746913642,1.363768904158861,-0.9599762826522551, ,0.06486462170777224,0.08166690323448432,0.05608736450704226,-0.14057351666695606,0.19170761414251572,-0.15352563942521363, ,1.1814348697662354
0.013023280709579137,0.020663022596802395,-0.08907881132186428, ,0.013892031722014414,0.02011464186431559,-0.09044506724139545, ,0.0017094165633408517, ,0.01654562858088414,0.000604857355679689,-0.05360109977072348,0.07182053166819061,0.04961455054556321,0.0244111637240365, ,0.05609992490358915, ,0.08728888784121326, ,0.0007874374877925108, ,0.2156804837113421,-0.15826196479148288,0.10566578306,2.348946746913642,1.363768904158861,-0.9599762826522551, ,0.06486462170777224,0.08166690323448432,0.05608736450704226,-0.14057351666695606,0.19170761414251572,-0.15352563942521363, ,1.1847069263458252
0.013023280709579137,0.020663022596802395,-0.08907881132186428, ,0.013930210031266453,0.02010740243489298,-0.09053694776700849, ,0.0018048258784476305, ,0.01654562858088414,0.000604857355679689,-0.05360109977072348,0.07182053166819061,0.04961455054556321,0.0244111637240365, ,0.05609992490358915, ,0.08728888784121326, ,0.000794918284782622, ,0.2156804837113421,-0.15826196479148288,0.10566578306,2.348946746913642,1.363768904158861,-0.9599762826522551, ,0.06486462170777224,0.08166690323448432,0.05608736450704226,-0.14057351666695606,0.19170761414251572,-0.15352563942521363, ,1.1864650249481201
0.013083455159458789,0.020667192233352335,-0.0892688065808852, ,0.013968477085408418,0.020100160243837387,-0.09062876830588765, ,0.0017188033569947789, ,0.017417623656629442,0.0008766957634712081,-0.0569886629382544,0.05667462863926357,0.04012528606692855,0.023895148184712937, ,0.059597398540503735, ,0.06943666912681283, ,0.0008016619714411049, ,0.2159044429646946,-0.15797622367513656,0.10586411543000002,2.3487370569701573,1.3643154501579229,-0.9604219542670409, ,0.06526612211724263,0.0846538283304824,0.05943586388059702,-0.13342721871259566,0.17725228038001642,-0.14196418130370628, ,1.1884939670562744
0.013083455159458789,0.020667192233352335,-0.0892688065808852, ,0.014006832158138187,0.02009291572340973,-0.09072052779362309, ,0.0018138117518296183, ,0.017417623656629442,0.0008766957634712081,-0.0569886629382544,0.05667462863926357,0.04012528606692855,0.023895148184712937, ,0.059597398540503735, ,0.06943666912681283, ,0.0008089963901395724, ,0.2159044429646946,-0.15797622367513656,0.10586411543000002,2.3487370569701573,1.3643154501579229,-0.9604219542670409, ,0.06526612211724263,0.0846538283304824,0.05943586388059702,-0.13342721871259566,0.17725228038001642,-0.14196418130370628, ,1.1904098987579346
0.013083455159458789,0.020667192233352335,-0.0892688065808852, ,0.014045274525200931,0.020085669304565318,-0.09081222516957468, ,0.0019092947255292742, ,0.017417623656629442,0.0008766957634712081,-0.0569886629382544,0.05667462863926357,0.04012528606692855,0.023895148184712937, ,0.059597398540503735, ,0.06943666912681283, ,0.0008169122055020883, ,0.2159044429646946,-0.15797622367513656,0.10586411543000002,2.3487370569701573,1.3643154501579229,-0.9604219542670409, ,0.06526612211724263,0.0846538283304824,0.05943586388059702,-0.13342721871259566,0.17725228038001642,-0.14196418130370628, ,1.1920108795166016
0.013083455159458789,0.020667192233352335,-0.0892688065808852, ,0.014083803464386773,0.020078421416955865,-0.09090385937686803, ,0.0020051796555580095, ,0.017417623656629442,0.0008766957634712081,-0.0569886629382544,0.05667462863926357,0.04012528606692855,0.023895148184712937, ,0.059597398540503735, ,0.06943666912681283, ,0.0008253998301453448, ,0.2159044429646946,-0.15797622367513656,0.10586411543000002,2.3487370569701573,1.3643154501579229,-0.9604219542670409, ,0.06526612211724263,0.0846538283304824,0.05943586388059702,-0.13342721871259566,0.17725228038001642,-0.14196418130370628, ,1.1936368942260742
0.013083455159458789,0.020667192233352335,-0.0892688065808852, ,0.01412241825552889,0.020071172488930054,-0.09099542936238984, ,0.002101406690849637, ,0.017417623656629442,0.0008766957634712081,-0.0569886629382544,0.05667462863926357,0.04012528606692855,0.023895148184712937, ,0.059597398540503735, ,0.06943666912681283, ,0.000834449524192893, ,0.2159044429646946,-0.15797622367513656,0.10586411543000002,2.3487370569701573,1.3643154501579229,-0.9604219542670409, ,0.06526612211724263,0.0846538283304824,0.05943586388059702,-0.13342721871259566,0.17725228038001642,-0.14196418130370628, ,1.195307970046997
0.013083455159458789,0.020667192233352335,-0.0892688065808852, ,0.014161118180500972,0.02006392294753564,-0.09108693407678448, ,0.0021979260700661757, ,0.017417623656629442,0.0008766957634712081,-0.0569886629382544,0.05667462863926357,0.04012528606692855,0.023895148184712937, ,0.059597398540503735, ,0.06943666912681283, ,0.0008440514716990428, ,0.2159044429646946,-0.15797622367513656,0.10586411543000002,2.3487370569701573,1.3643154501579229,-0.9604219542670409, ,0.06526612211724263,0.0846538283304824,0.05943586388059702,-0.13342721871259566,0.17725228038001642,-0.14196418130370628, ,1.1969890594482422
0.013442832064769348,0.0207003737120633,-0.09040350562286184, ,0.014199902523215437,0.02005667321852031,-0.09117837247444939, ,0.0012601288196563314, ,0.02064430983922456,0.001737678765536854,-0.06398854547775107,0.012625126981537064,0.003886778220881697,-0.0504025895039389, ,0.0672587615748931, ,0.013169210110911659, ,0.00084696110350294, ,0.2159044429646946,-0.15797622367513656,0.10586411543000002,2.3487370569701573,1.3643154501579229,-0.9604219542670409, ,0.06526612211724263,0.0846538283304824,0.05943586388059702,-0.13342721871259566,0.17725228038001642,-0.14196418130370628, ,1.1986110210418701
0.013442832064769348,0.0207003737120633,-0.09040350562286184, ,0.014238770569620932,0.020049423726333292,-0.09126974351353077, ,0.001344478363774528, ,0.02064430983922456,0.001737678765536854,-0.06398854547775107,0.012625126981537064,0.003886778220881697,-0.0504025895039389, ,0.0672587615748931, ,0.013169210110911659, ,0.0008504160844770483, ,0.21711691202594788,-0.1564162316345432,0.10699707289000002,2.3481079871397035,1.3669115436534662,-0.9625388944372728, ,0.072551178561522,0.09231219995960192,0.06721017518987342,-0.029053515225926647,0.12055156733150053,-0.0983017198365839, ,1.200373888015747
0.013442832064769348,0.0207003737120633,-0.09040350562286184, ,0.01427772160770044,0.020042174894126796,-0.09136104615591949, ,0.0014307865337907745, ,0.02064430983922456,0.001737678765536854,-0.06398854547775107,0.012625126981537064,0.003886778220881697,-0.0504025895039389, ,0.0672587615748931, ,0.013169210110911659, ,0.0008544186392999016, ,0.21711691202594788,-0.1564162316345432,0.10699707289000002,2.3481079871397035,1.3669115436534662,-0.9625388944372728, ,0.072551178561522,0.09231219995960192,0.06721017518987342,-0.029053515225926647,0.12055156733150053,-0.0983017198365839, ,1.2020599842071533
0.013442832064769348,0.0207003737120633,-0.09040350562286184, ,0.01431675492746888,0.020034927143756938,-0.09145227936724695, ,0.001518712175539271, ,0.02064430983922456,0.001737678765536854,-0.06398854547775107,0.012625126981537064,0.003886778220881697,-0.0504025895039389, ,0.0672587615748931, ,0.013169210110911659, ,0.0008589685950275686, ,0.21711691202594788,-0.1564162316345432,0.10699707289000002,2.3481079871397035,1.3669115436534662,-0.9625388944372728, ,0.072551178561522,0.09231219995960192,0.06721017518987342,-0.029053515225926647,0.12055156733150053,-0.0983017198365839, ,1.2037479877471924
0.013442832064769348,0.0207003737120633,-0.09040350562286184, ,0.014355869820971074,0.020027680895785844,-0.09154344211688123, ,0.00160798282942275, ,0.02064430983922456,0.001737678765536854,-0.06398854547775107,0.012625126981537064,0.003886778220881697,-0.0504025895039389, ,0.0672587615748931, ,0.013169210110911659, ,0.0008640639299554271, ,0.21711691202594788,-0.1564162316345432,0.10699707289000002,2.3481079871397035,1.3669115436534662,-0.9625388944372728, ,0.072551178561522,0.09231219995960192,0.06721017518987342,-0.029053515225926647,0.12055156733150053,-0.0983017198365839, ,1.205488920211792
0.013442832064769348,0.0207003737120633,-0.09040350562286184, ,0.014395065582279478,0.020020436569482308,-0.09163453337792196, ,0.0016983793814867396, ,0.02064430983922456,0.001737678765536854,-0.06398854547775107,0.012625126981537064,0.003886778220881697,-0.0504025895039389, ,0.0672587615748931, ,0.013169210110911659, ,0.0008697011965198277, ,0.21711691202594788,-0.1564162316345432,0.10699707289000002,2.3481079871397035,1.3669115436534662,-0.9625388944372728, ,0.072551178561522,0.09231219995960192,0.06721017518987342,-0.029053515225926647,0.12055156733150053,-0.0983017198365839, ,1.2072079181671143
0.01362980433524466,0.020705899165686506,-0.09095281065344306, ,0.014434341507492256,0.020013194582823534,-0.0917255521271973, ,0.0013131066544296364, ,0.019398067558862673,-0.0007259483800628229,-0.053898703895765836,-0.03371498982286393,-0.03074565987365214,-0.05509387096037486, ,0.05728771515527705, ,0.04562391111361905, ,0.0008726770720762694, ,0.21789690804624454,-0.15545861275813938,0.10761410693000001,2.3478982971962195,1.3678679991518243,-0.9631554622828666, ,0.08042113691395829,0.1014940551427495,0.05550108543554008,0.0,0.0695906842829278,-0.05475696881055323, ,1.2088220119476318
0.01362980433524466,0.020705899165686506,-0.09095281065344306, ,0.014473696894730673,0.02000595535249654,-0.09181649734525867, ,0.0013957187020306593, ,0.019398067558862673,-0.0007259483800628229,-0.053898703895765836,-0.03371498982286393,-0.03074565987365214,-0.05509387096037486, ,0.05728771515527705, ,0.04562391111361905, ,0.0008761640162759652, ,0.21789690804624454,-0.15545861275813938,0.10761410693000001,2.3478982971962195,1.3678679991518243,-0.9631554622828666, ,0.08042113691395829,0.1014940551427495,0.05550108543554008,0.0,0.0695906842829278,-0.05475696881055323, ,1.2104408740997314
0.01362980433524466,0.020705899165686506,-0.09095281065344306, ,0.014513131044137251,0.019998719293899354,-0.09190736801637729, ,0.0014803881939666585, ,0.019398067558862673,-0.0007259483800628229,-0.053898703895765836,-0.03371498982286393,-0.03074565987365214,-0.05509387096037486, ,0.05728771515527705, ,0.04562391111361905, ,0.0008801655008964333, ,0.21789690804624454,-0.15545861275813938,0.10761410693000001,2.3478982971962195,1.3678679991518243,-0.9631554622828666, ,0.08042113691395829,0.1014940551427495,0.05550108543554008,0.0,0.0695906842829278,-0.05475696881055323, ,1.2120990753173828
0.01362980433524466,0.020705899165686506,-0.09095281065344306, ,0.014552643257873536,0.019991486821142376,-0.09199816312853965, ,0.0015667732676894967, ,0.019398067558862673,-0.0007259483800628229,-0.053898703895765836,-0.03371498982286393,-0.03074565987365214,-0.05509387096037486, ,0.05728771515527705, ,0.04562391111361905, ,0.0008846826572569141, ,0.21789690804624454,-0.15545861275813938,0.10761410693000001,2.3478982971962195,1.3678679991518243,-0.9631554622828666, ,0.08042113691395829,0.1014940551427495,0.05550108543554008,0.0,0.0695906842829278,-0.05475696881055323, ,1.2137329578399658
0.01362980433524466,0.020705899165686506,-0.09095281065344306, ,0.014592232840118003,0.019984258347049935,-0.09208888167344383, ,0.001654597068956905, ,0.019398067558862673,-0.0007259483800628229,-0.053898703895765836,-0.03371498982286393,-0.03074565987365214,-0.05509387096037486, ,0.05728771515527705, ,0.04562391111361905, ,0.0008897147775948225, ,0.21789690804624454,-0.15545861275813938,0.10761410693000001,2.3478982971962195,1.3678679991518243,-0.9631554622828666, ,0.08042113691395829,0.1014940551427495,0.05550108543554008,0.0,0.0695906842829278,-0.05475696881055323, ,1.2154181003570557
0.01362980433524466,0.020705899165686506,-0.09095281065344306, ,0.014631899097063642,0.019977034283161457,-0.0921795226464943, ,0.0017436342054854995, ,0.019398067558862673,-0.0007259483800628229,-0.053898703895765836,-0.03371498982286393,-0.03074565987365214,-0.05509387096037486, ,0.05728771515527705, ,0.04562391111361905, ,0.000895259708944762, ,0.21789690804624454,-0.15545861275813938,0.10761410693000001,2.3478982971962195,1.3678679991518243,-0.9631554622828666, ,0.08042113691395829,0.1014940551427495,0.05550108543554008,0.0,0.0695906842829278,-0.05475696881055323, ,1.2170660495758057
0.013820180955495113,0.020677283207532246,-0.09145969570418255, ,0.014671641336915947,0.019969815039733056,-0.09227008504679866, ,0.0013719427379465326, ,0.018456919750454714,-0.003998723132339902,-0.04726879641424776,-0.025908538261592513,-0.028198681382084746,0.045207479753444135, ,0.050901736589387965, ,0.03829075616759264, ,0.0008983350833254185, ,0.21880819052540304,-0.15434653922425104,0.10813521551000001,2.3468498474787967,1.3688244546501822,-0.9639353876087415, ,0.09489694155847078,0.11516619121173638,0.04871196183486239,-0.1347416069617089,0.12232322417663648,-0.09782214674528673, ,1.2189440727233887
0.013820180955495113,0.020677283207532246,-0.09145969570418255, ,0.01471145886989081,0.01996260102573864,-0.09236056787716282, ,0.001454894365138926, ,0.018456919750454714,-0.003998723132339902,-0.04726879641424776,-0.025908538261592513,-0.028198681382084746,0.045207479753444135, ,0.050901736589387965, ,0.03829075616759264, ,0.0009019027710293513, ,0.21880819052540304,-0.15434653922425104,0.10813521551000001,2.3468498474787967,1.3688244546501822,-0.9639353876087415, ,0.09489694155847078,0.11516619121173638,0.04871196183486239,-0.1347416069617089,0.12232322417663648,-0.09782214674528673, ,1.2206230163574219
0.013820180955495113,0.020677283207532246,-0.09145969570418255, ,0.014751351008212255,0.019955392648871376,-0.09245097014408803, ,0.001539749544884121, ,0.018456919750454714,-0.003998723132339902,-0.04726879641424776,-0.025908538261592513,-0.028198681382084746,0.045207479753444135, ,0.050901736589387965, ,0.03829075616759264, ,0.0009059654893341587, ,0.21880819052540304,-0.15434653922425104,0.10813521551000001,2.3468498474787967,1.3688244546501822,-0.9639353876087415, ,0.09489694155847078,0.11516619121173638,0.04871196183486239,-0.1347416069617089,0.12232322417663648,-0.09782214674528673, ,1.222337007522583
0.013820180955495113,0.020677283207532246,-0.09145969570418255, ,0.014791317066110126,0.019948190315545282,-0.09254129085776448, ,0.0016262010536026248, ,0.018456919750454714,-0.003998723132339902,-0.04726879641424776,-0.025908538261592513,-0.028198681382084746,0.045207479753444135, ,0.050901736589387965, ,0.03829075616759264, ,0.0009105239422725667, ,0.21880819052540304,-0.15434653922425104,0.10813521551000001,2.3468498474787967,1.3688244546501822,-0.9639353876087415, ,0.09489694155847078,0.11516619121173638,0.04871196183486239,-0.1347416069617089,0.12232322417663648,-0.09782214674528673, ,1.2272529602050781
0.01401039996886416,0.020636830465029253,-0.09191317226304492, ,0.01483135635981834,0.019940994430896305,-0.09263152903206928, ,0.0012939063450843346, ,0.0192293971837047,-0.004453970345011445,-0.04331702295908394,0.02207719164264268,-0.0017756545414480828,-0.04779221873961592, ,0.04760222732100586, ,0.02214504079343329, ,0.0009129351523531438, ,0.21981214579905223,-0.15317268382736893,0.10860706507000001,2.3462207776483432,1.3703274561476022,-0.9650793058092617, ,0.10662577703198964,0.11832536353924038,0.04525230545454546,-0.05815559305179024,0.15901030870539679,-0.127561830013412, ,1.2290420532226562
0.01401039996886416,0.020636830465029253,-0.09191317226304492, ,0.01487146820757212,0.019933805398783803,-0.09272168368456125, ,0.0013745448243703835, ,0.0192293971837047,-0.004453970345011445,-0.04331702295908394,0.02207719164264268,-0.0017756545414480828,-0.04779221873961592, ,0.04760222732100586, ,0.02214504079343329, ,0.0009158202128032516, ,0.21981214579905223,-0.15317268382736893,0.10860706507000001,2.3462207776483432,1.3703274561476022,-0.9650793058092617, ,0.10662577703198964,0.11832536353924038,0.04525230545454546,-0.05815559305179024,0.15901030870539679,-0.127561830013412, ,1.230691909790039
0.01401039996886416,0.020636830465029253,-0.09191317226304492, ,0.014911651929606534,0.019926623621791838,-0.09281175383647655, ,0.0014574284548594806, ,0.0192293971837047,-0.004453970345011445,-0.04331702295908394,0.02207719164264268,-0.0017756545414480828,-0.04779221873961592, ,0.04760222732100586, ,0.02214504079343329, ,0.000919184239151427, ,0.21981214579905223,-0.15317268382736893,0.10860706507000001,2.3462207776483432,1.3703274561476022,-0.9650793058092617, ,0.10662577703198964,0.11832536353924038,0.04525230545454546,-0.05815559305179024,0.15901030870539679,-0.127561830013412, ,1.2323229312896729
0.01401039996886416,0.020636830465029253,-0.09191317226304492, ,0.01495190684815361,0.019919449501230743,-0.092901738512725, ,0.00154218477523816, ,0.0192293971837047,-0.004453970345011445,-0.04331702295908394,0.02207719164264268,-0.0017756545414480828,-0.04779221873961592, ,0.04760222732100586, ,0.02214504079343329, ,0.00092302992147295, ,0.21981214579905223,-0.15317268382736893,0.10860706507000001,2.3462207776483432,1.3703274561476022,-0.9650793058092617, ,0.10662577703198964,0.11832536353924038,0.04525230545454546,-0.05815559305179024,0.15901030870539679,-0.127561830013412, ,1.234057903289795
