NicholasDascanio/dvrk_moveit_final/test/execution/third_experiment_notsharpbends/thirdexp_700vel5.0/thirdexp_700vel5.0_1.csv
Current Position (x),Current Position (y),Current Position (z), ,Planned Position (x),Planned Position (y),Planned Position (z), ,Position Error,,Cartesian linear Velocity(x),Cartesian linear Velocity(y),Cartesian linear Velocity(z),Cartesian Angular Velocity(x),Cartesian Angular Velocity(y),Cartesian Angular Velocity(z), ,Total Linear Velocity, ,Total Angular Velocity, ,MSE, ,Joint 1 Position,Joint 2 Position,Joint 3 Position,Joint 4 Position,Joint 5 Position,Joint 6 Position, ,Joint 1 Velocity,Joint 2 Velocity,Joint 3 Velocity,Joint 4 Velocity,Joint 5 Velocity,Joint 6 Velocity, ,Time Stamp
0.010116956545422981,0.019936610241978302,-0.08019331017039329, ,0.010247441127587223,0.01983586439221918,-0.08031562079235281, ,0.00020527016507615245, ,-1.534078907305367e-05,5.6969572717872926e-05,1.2073875320259774e-05,0.07543689393764767,-9.764182729921333e-05,-0.0995293011606303, ,6.022167790995292e-05, ,0.07543695712902491, ,1.710584708967937e-05, ,0.21720186208756434,-0.20276807434563873,0.09433231959,1.992264153046466,1.100607005610623,-1.0794514473078471, ,-0.00015378936937317524,-0.000707418469673177,1.4886270689427207e-07,0.0,0.0,-0.12459331351206937, ,0.016023874282836914
0.010126618440991973,0.019940699726300564,-0.08021559766035913, ,0.010264759483686102,0.019870885306318274,-0.08034928964693998, ,0.00020452517739882035, ,0.001081866297039145,7.470494255083441e-05,-0.0014159451298268945,0.056481684619638955,-0.1770584591061246,-0.22101239255362476, ,0.00178351229987102, ,0.18584907489277924, ,1.862706102158967e-05, ,0.21720186208756434,-0.20278351981138718,0.09434657878000001,1.992264153046466,1.099377277112734,-1.0852280216062458, ,8.550076978876313e-05,-0.0009848757763285673,0.0,0.0,-0.19740018721592026,-0.21065468903900575, ,0.034895896911621094
0.010142753447187878,0.01994978536660402,-0.0802369785760427, ,0.010282228738156693,0.019905505195739838,-0.08038338022345357, ,0.0002069964557358701, ,0.0014220482902307745,0.0008556946560028056,-0.0018948699531353697,0.14962652868149978,-0.1449781742175081,-0.38743716773569586, ,0.002518921758085246, ,0.20834291224971724, ,1.927474369408884e-05, ,0.21720958482043856,-0.20279896527713562,0.09435565281000001,1.993102912820404,1.0973277296162522,-1.0878857262782493, ,0.0002772733969237609,-0.0010789401599222803,0.0008328273443718423,0.08392299161580596,-0.17949378941476718,-0.32483113778025885, ,0.05170297622680664
0.010160841295185075,0.01996143144346789,-0.08027352671891565, ,0.010299848273446988,0.019939726147677608,-0.08041789008463708, ,0.0002015808553242892, ,0.0006804561210541742,0.0005623091840872426,-0.002364591595176826,-0.05490546953095596,-0.032723275870093556,0.05153855272680327, ,0.0025239860465481657, ,0.0639173166521488, ,1.9485063179407907e-05, ,0.21721730755331278,-0.20284530167438097,0.09438028232000001,1.9935222927073728,1.0952781821197706,-1.0898900010291284, ,0.00041480837939068794,-0.0017887545894636984,0.0022334284240044873,-0.004178633072732755,-0.03561237463331066,0.07110502674876717, ,0.06822586059570312
0.010174982990753796,0.01998056421653127,-0.08032859346317625, ,0.010317617473537703,0.01997355024442675,-0.080452816799164, ,0.00018927553642148214, ,0.0008528273658278722,0.0011454285024774585,-0.003303904582433933,0.017934368958064714,-0.008456495988141586,-0.03539337435036836, ,0.0035993202774997116, ,0.019828109186903708, ,1.9377849806857965e-05, ,0.21723275301906123,-0.202914806270249,0.09443991166000001,1.9937319826508577,1.0952781821197706,-1.09013503724955, ,0.00037198891689422663,-0.004281501929004604,0.003485516743982495,0.013602657456218224,-0.0119830190815102,-0.025202750602596302, ,0.0850517749786377
0.010185489246451442,0.01999474868663914,-0.08035830632466179, ,0.010335535723940633,0.02000697956338912,-0.08048815794163222, ,0.0001988089087109121, ,0.000923555113965792,0.0013888329403924631,-0.002636064514350693,-0.09180499743692722,0.01510928731221747,0.07470130018032128, ,0.003119398517129624, ,0.0930400350244456, ,1.9458985462379453e-05, ,0.2172481984848097,-0.20295341993462013,0.09447231891,1.9943610524813111,1.095141545620005,-1.0898602618655726, ,0.0010292906283033531,-0.0029744430357032028,0.002998646746987952,0.07537472082583167,0.0,0.18329982202972928, ,0.1011049747467041
0.01019779209214132,0.02001154077582004,-0.08040213137366212, ,0.010353602411696732,0.020040016177077857,-0.08052391109255837, ,0.0001997949050681803, ,0.0006251586665845782,0.0008587446913789374,-0.0018876869109786614,-0.18181846998905202,0.013073947428317979,0.22335443521064768, ,0.00216601654593345, ,0.18228791548123607, ,1.953127782966259e-05, ,0.21727136668343236,-0.20302292453048815,0.09452028164000001,1.9945707424247956,1.095141545620005,-1.0844694650162954, ,0.0015519819652368243,-0.0034807520500045558,0.0023920726115032294,0.04170389089553303,0.005263676655035963,0.4252671827227011, ,0.12178778648376465
0.01020112166920269,0.020033163212974756,-0.08042667272379227, ,0.010371816925374585,0.020072662153122308,-0.08056007383837202, ,0.00022021102180292714, ,0.0003161826055351915,0.0008108276636596857,-0.001495129694458848,0.06599102806281172,0.05110961066322662,-0.05267584726949164, ,0.0017299785384366638, ,0.083468605397035, ,1.983491494559309e-05, ,0.21730998034780347,-0.20312332005785305,0.0945643555,1.9951998122552494,1.0970544566167213,-1.0821904148814387, ,0.0017260746491937397,-0.0032020912747553624,0.0021089383715080104,0.017238760892054637,0.05562608713371434,-0.06488053772453822, ,0.13825297355651855
0.010217056542142947,0.020057834709172554,-0.0804627121634322, ,0.010390178655068805,0.020104919554272814,-0.08059664377140963, ,0.00022388819584213615, ,0.0007389218360861886,0.0012432762425055265,-0.0016453554336498546,0.05312050995595151,0.007973088075199256,-0.097385127173873, ,0.002190647346805219, ,0.05371553510320054, ,2.0112513275877933e-05, ,0.21737176221079726,-0.20323916105096643,0.09460583678000001,1.9960385720291873,1.0970544566167213,-1.0833339172434067, ,0.0023633834549308713,-0.005698567414034141,0.0019328244484652687,0.05466331409479527,0.0,-0.05055759492189495, ,0.15553998947143555
0.010224090639078965,0.020066644751615986,-0.08048348436945191, ,0.010408686992398107,0.02013679043840553,-0.08063361848990923, ,0.0002480654856270725, ,0.000717058766412056,0.0012551106414819483,-0.0019286999845319944,0.019674872301175834,0.003281123921184237,-0.04080300111394641, ,0.002410261319272938, ,0.019946588034725512, ,2.0776403039681604e-05, ,0.21739493040941996,-0.20330094291396023,0.09462917000000001,1.9960385720291873,1.0969178201169558,-1.0833858568199914, ,0.0019863821466112306,-0.006816461901068523,0.0022422313513513516,0.03484701619599402,-0.0019261304706997132,-0.010558300371321952, ,0.17363977432250977
0.010243504076835882,0.020096014812159606,-0.08052702923263812, ,0.010427341330504014,0.020168276858527342,-0.08067099559800392, ,0.00024442637651884844, ,0.0010154228252617216,0.0014602404549816587,-0.0025262631517527245,-0.022086552127059563,-0.0003389631184482051,0.0292417070848423, ,0.00308956165375141, ,0.02208915301124271, ,2.129857348660628e-05, ,0.2174721577381622,-0.20346312030431893,0.09467972531,1.9968773318031257,1.0967811836171906,-1.0827026877353112, ,0.004690342107204099,-0.008965277880843846,0.0029216455465884087,0.020097737477299094,0.0,0.058274957146173686, ,0.188215970993042
0.010259359091241406,0.02011804774653459,-0.08055970787240342, ,0.01044614106404889,0.020199380862780517,-0.08070877270571694, ,0.00025243396303769515, ,0.0012777581617206006,0.001930397084670409,-0.002754993424212346,0.0014928669691614016,0.009974410259290887,-0.037743366760469695, ,0.0035984840685767796, ,0.010085509984604198, ,2.1809050811465425e-05, ,0.21754166233403022,-0.20356351583168386,0.09471861401000001,1.9977160915770635,1.0967811836171906,-1.0822126152944678, ,0.005037119261533688,-0.009108159589903388,0.003289038100351023,0.07327026250266472,0.0,0.03801906118419946, ,0.20457077026367188
0.010280388122588066,0.02014625262496714,-0.0806143012561094, ,0.010465085589214293,0.02023010449444772,-0.08074694742895505, ,0.00024236191401318333, ,0.001059249483356584,0.0014242953712982204,-0.0025937132663930215,0.0027755128702433786,-0.005799087988618469,0.0116342548377742, ,0.0031429246381286147, ,0.00642906626775937, ,2.2169054379512257e-05, ,0.21764978059426934,-0.20375658415353948,0.09478083593000002,1.9977160915770635,1.0967811836171906,-1.0817225428536243, ,0.005858903660580867,-0.010137672016360804,0.002984041124016486,0.0,0.0,0.011830088913325414, ,0.21903276443481445
0.010291167193564097,0.020163177565824083,-0.08063951680490654, ,0.010484174303699398,0.0202604497919567,-0.08078551738950332, ,0.0002608252312223207, ,0.0010393590078024903,0.0015329705564139178,-0.0023985793737149683,0.005229956898006035,-0.004564474660293326,0.0059965020925606145, ,0.003030420579052199, ,0.006941676886752215, ,2.261652694744445e-05, ,0.21770383972438892,-0.20387242514665282,0.0948106506,1.9979257815205482,1.0967811836171906,-1.0818042215937649, ,0.00587908115905137,-0.01133215156649604,0.002819258676106195,0.006197757614100213,0.0,0.01186756097901186, ,0.23612189292907715
0.010317649496691832,0.020203446129090884,-0.08068853923377334, ,0.010503406606719114,0.020290418788885333,-0.08082448021501905, ,0.0002460688884427603, ,0.0010002688923991172,0.0012448627976058048,-0.0018132783950055706,-0.02105700164593141,-0.014405350180824093,0.04821205943785733, ,0.0024162366977923096, ,0.02551296596104271, ,2.2907760823579796e-05, ,0.21782740345037652,-0.2041118298657538,0.09486898365000002,1.9991839211814553,1.0965079106176596,-1.0811729920856692, ,0.005967974225899468,-0.011941228332511737,0.0027196195185248424,0.05047741133185913,-0.006084987640550772,0.017629836547950188, ,0.25721096992492676
0.010337219541879453,0.02023053238721804,-0.08072482028963697, ,0.010522781899002884,0.020320013513966027,-0.08086383353902596, ,0.00024852553979617145, ,0.0009088762093999349,0.0013815088196880592,-0.0016930143088787057,-0.014605047170381346,-0.010431574448417356,0.033597970994778285, ,0.0023666262976982932, ,0.01794784522743688, ,2.318102335508917e-05, ,0.21796641264211256,-0.2043357891191063,0.09491305751000001,1.9991839211814553,1.0965079106176596,-1.080682919644826, ,0.006198498129724054,-0.011924722487870167,0.0020463529701952726,0.0,-0.004991487253661493,0.04054795087543339, ,0.2723808288574219
0.010361212291959337,0.020266252791650854,-0.08076506426667056, ,0.010542299582792394,0.020349235991091005,-0.0809035750009087, ,0.00024261912906810914, ,0.0013395185593698571,0.002003211537129562,-0.00243382478701615,-0.0028462343578831853,0.0018531640225906974,-0.022313160640155472, ,0.0034250065003266035, ,0.0033963608214118636, ,2.338827895796909e-05, ,0.21811314456672282,-0.20457519383820727,0.09496361282000002,2.000022680955393,1.0965079106176596,-1.0801928472039826, ,0.0069227298608031335,-0.011878450564334807,0.0029734574425984697,0.06050233916469212,-0.0042062679297939585,0.04270641766755827, ,0.2894008159637451
0.010373290682380035,0.020284102899724623,-0.08078986600825766, ,0.010561959061840197,0.020378088239316767,-0.08094370224590657, ,0.0002609494002299005, ,0.0014789847942801456,0.0021444017841751846,-0.00273270324751919,0.00694405684200886,0.004834708670943337,-0.045912985004073176, ,0.0037753836987367956, ,0.00846134346339591, ,2.367992571871001e-05, ,0.21817492642971661,-0.2046833120984464,0.09499342749,2.0004420608423623,1.0965079106176596,-1.0800294897237013, ,0.0071853793232713485,-0.011418283296811752,0.003316429631480325,0.07552585468103057,-0.0039331779704981674,0.03116192406625856, ,0.30405592918395996
0.010398929386892316,0.02031571561268993,-0.08084808966109755, ,0.010581759741408186,0.02040657227286914,-0.08098421292510814, ,0.00024538014230213526, ,0.0012712297335285899,0.0016556662540875744,-0.0024951585930155784,-0.0017855182327035357,-0.0012215731664855629,-0.0020249931954800073, ,0.00325316341191632, ,0.0021634038605124113, ,2.3857182921093222e-05, ,0.21832165835432688,-0.20490727135179893,0.09505953828000001,2.0004420608423623,1.0963712741178944,-1.0791829631587402, ,0.007401363945312605,-0.010317234967718483,0.0029729024860022397,0.029585934136669545,0.0,0.030095480186807737, ,0.31948280334472656
0.010412541705053352,0.02033384779991303,-0.0808739575088914, ,0.010601701028265539,0.020434690101148022,-0.08102510469544495, ,0.00026228970868014763, ,0.0011955990913893142,0.0015404500822821289,-0.002623401991096074,-0.018007403326615486,-0.00446838638495075,0.032226583234660974, ,0.0032687431300456784, ,0.018553518570027565, ,2.4233142106942706e-05, ,0.21839888568306914,-0.20501538961203805,0.09509064924,2.0008614407293313,1.0963712741178944,-1.0786928907178968, ,0.0069268672346083394,-0.010345450920215509,0.003059702558586247,0.010743856880747244,0.0,0.0504359056728981, ,0.33374786376953125
0.010432101457655493,0.0203631848930929,-0.08091098590333348, ,0.010621782330687352,0.02046244372873222,-0.08106637521968654, ,0.0002645316421210769, ,0.00145744979911,0.0021507265827500023,-0.0027719812338910213,0.0054675392390126365,0.008800083979286685,-0.04173380808906618, ,0.003799166317985733, ,0.010360282969541793, ,2.4590043648687834e-05, ,0.21849155847755983,-0.20516984426952256,0.09513601939,2.001909890446754,1.0963712741178944,-1.0780394607967723, ,0.006941223375091829,-0.011225143340651972,0.0033847878283042926,0.07626281172302395,0.0,0.035982516871123735, ,0.34726595878601074
0.010445818589544839,0.02038025990199782,-0.0809438041452771, ,0.010642003058452792,0.020489835155384238,-0.08110802216643365, ,0.0002783211103527066, ,0.0014120332963001349,0.0018624274980338813,-0.0031159400154518024,0.029682566609656007,0.0010743498807426514,-0.05086172100947328, ,0.0038950682144458966, ,0.02970200309590566, ,2.498616384850921e-05, ,0.21856878580630207,-0.2052856852626359,0.09517361180000002,2.001909890446754,1.0963712741178944,-1.077876103316491, ,0.006980660989099479,-0.010234862711463037,0.0036417035939643352,0.0400209128577954,0.0,-0.018583753106973893, ,0.3603639602661133
0.010464651532353075,0.02040177213857462,-0.08099093383264461, ,0.010662362622843478,0.020516866376054856,-0.08115004321011283, ,0.0002786613586459171, ,0.0015437315581499373,0.0017534763853180185,-0.00348351940963795,0.0028441350121546937,-0.003167777324139604,-0.005941128206227707, ,0.004194364556738042, ,0.0042572193541944945, ,2.535425753008792e-05, ,0.218669181333667,-0.20541697172149773,0.09522675969000001,2.001909890446754,1.0963712741178944,-1.0775493883559288, ,0.00822673011528223,-0.009409249497198069,0.0039871868635794755,0.024292532520603052,0.0,0.019086964697319783, ,0.37422990798950195
0.0104888278693318,0.02043217969192372,-0.08104317375188087, ,0.010682860436641765,0.020543539380888657,-0.0811924360309715, ,0.00026894022656082935, ,0.001273746642141984,0.0016054103887457973,-0.0028621939297492067,0.01448645819404126,-0.002187746860828481,-0.01991453418157628, ,0.0035202169132248257, ,0.014650723775386806, ,2.5652033054052453e-05, ,0.21878502232678035,-0.205563703646108,0.09528768532000001,2.0027486502206924,1.0963712741178944,-1.0772226733953665, ,0.006718911943264141,-0.00944094098347358,0.003317120266555602,0.022223431775702067,0.0,-0.0009105941123284528, ,0.38777589797973633
0.010504431491566109,0.020453261113720436,-0.08107179372198144, ,0.010703495914128981,0.020569856155227988,-0.08123519831507056, ,0.00028270498594305, ,0.0015427834703003007,0.0020530410969788215,-0.003150353061903193,0.006718220054048356,0.00686468363758562,-0.040701510109420094, ,0.004064465893172025, ,0.009605121645686897, ,2.598894053888128e-05, ,0.21885452692264837,-0.20566409917347292,0.09532138886000001,2.0035874099946303,1.0962346376181287,-1.0770295767515294, ,0.007216999904019012,-0.009758323861837604,0.0037374029845143137,0.06885472130689282,-0.00017071969014765853,0.028845443121537646, ,0.4006388187408447
0.01053271179743456,0.020484348602159,-0.08113807218973017, ,0.010724268471084007,0.020595818679618197,-0.0812783277542792, ,0.00026228069081686133, ,0.001487833632469533,0.0015608085783300528,-0.003293155081888177,-0.012139559891588521,-0.006694883425570249,0.02321574751814715, ,0.003936323504167574, ,0.013863274434855856, ,2.6217382414956116e-05, ,0.2190167043130071,-0.20585716749532854,0.09539657368000001,2.0035874099946303,1.0962346376181287,-1.0766211830508265, ,0.008648919829609554,-0.008935078498798422,0.0037488377312308785,0.009233306168958106,-0.00017071969014765853,0.037772657177675556, ,0.41470885276794434
0.010548678357523215,0.020501261772443158,-0.08117464994428143, ,0.010745177524781215,0.020621428929812623,-0.08132182204626996, ,0.00027333440333603744, ,0.0015309266211737237,0.0015765571591865816,-0.0038409873937539445,0.004923417064044402,-0.007770941863310198,0.0049101345530560775, ,0.004425206543719465, ,0.009199324550936059, ,2.647590007355932e-05, ,0.2190784861760009,-0.2059112266254481,0.09542379577000001,2.0035874099946303,1.0962346376181287,-1.076376146830405, ,0.00815880804456062,-0.008039692006356167,0.004101135818743564,0.008357865991258831,-0.00017071969014765853,0.00486419796702495, ,0.4279167652130127
0.01056515909538154,0.020520294520473804,-0.08121036971040979, ,0.010766222493989088,0.02064668887677709,-0.08136567889451195, ,0.00028376568896083365, ,0.001661557335876423,0.0020056965796177353,-0.003721008311293225,0.001350266876954188,0.0012190233711659088,-0.028895902575664167, ,0.004541970321634467, ,0.0018191310851880453, ,2.6759201208883572e-05, ,0.21917115897049158,-0.20601934488568724,0.09547823995000002,2.0044261697685686,1.0960980011183634,-1.0760196927062868, ,0.007456526167280175,-0.008919633541622653,0.004268170289389067,0.05636420673664008,-0.0034179067879707052,0.030012428047408925, ,0.44111084938049316
0.010597682577804492,0.020558427167135837,-0.08128234895595716, ,0.010787402798968398,0.020671600486694704,-0.08140989600826504, ,0.00025508863779259494, ,0.0015623533991807855,0.0015554599328757516,-0.0039132760152434595,-0.005881913116229003,-0.014581425495640857,0.03032381086514099, ,0.004491562413926063, ,0.015723068099899856, ,2.6915747117744362e-05, ,0.2193333363608503,-0.20620469047466863,0.09556120251000001,2.0052649295425065,1.0960980011183634,-1.0756929777457247, ,0.00875509019560886,-0.009553731861386923,0.0043343704816326545,-0.01555772612105355,-0.0030990633671334556,0.01782961387192827, ,0.4546849727630615
0.010608778703033537,0.020568070462459842,-0.08130931859452284, ,0.010808717861470564,0.020696165720970865,-0.08145447110257456, ,0.00027830435304396065, ,0.0016853110438419224,0.0016413584679625382,-0.0037581345205118808,-0.002653392739468581,-0.012545171889758764,0.015580679384524333, ,0.004433723718175383, ,0.01282270759332064, ,2.7249926014472055e-05, ,0.21940284095671833,-0.20626647233766243,0.09559101718000002,2.005055239599022,1.0960980011183634,-1.0756929777457247, ,0.009986822844089886,-0.009512257720992127,0.0042217894301616755,0.0,-0.0030038980880129473,0.017959882916148435, ,0.46872591972351074
0.010629562184496632,0.02058985547146704,-0.08135047913807543, ,0.010830167104735808,0.020720386536238068,-0.0814994018982651, ,0.0002818841630828789, ,0.0013712866199773865,0.0014473524749840578,-0.002568711295572646,-0.0036344233439532985,-0.008513170472178975,0.015713374263035193, ,0.0032516970801373833, ,0.009256516862168945, ,2.7580124133970515e-05, ,0.2195264046827059,-0.20639003606365003,0.09563638733,2.0052649295425065,1.0959613646185977,-1.0753365236216066, ,0.009356710813710445,-0.00960171929055907,0.003074466612623046,0.005092759138147958,-0.0004505121786666981,0.0235618446342534, ,0.47992777824401855
0.01064630872230217,0.020609558520295036,-0.08137524838862092, ,0.010851749953491788,0.020744264884360524,-0.08154468612193488, ,0.0002984309793956092, ,0.0016927634160304088,0.0020771471831661273,-0.002673504774066525,0.01181775070883217,0.00544628205888905,-0.0665366375623778, ,0.0037851837709868743, ,0.013012348748188947, ,2.795245667975785e-05, ,0.2196190774771966,-0.20649043159101493,0.09566749829000001,2.006103689316445,1.0958247281188325,-1.075061748237629, ,0.009070545320483132,-0.009234182319707195,0.003268118900287239,0.09086032641198726,-0.004810857982658506,0.024519363810267383, ,0.49107885360717773
0.010670555121992832,0.020636190060239954,-0.08142839115768323, ,0.010873465833951516,0.020767802712439207,-0.08159032150595003, ,0.0002910602771528722, ,0.0017962695302819586,0.002110699610102599,-0.003897041397017997,-0.0037060939050847608,-0.003542150149479208,-0.013679413717510136, ,0.004782109233338215, ,0.005126593295350928, ,2.828139833629084e-05, ,0.21975808666893265,-0.20664488624849944,0.09572842392000001,2.006313379259929,1.0958247281188325,-1.0746533545369261, ,0.008910799555252185,-0.010565931531374499,0.0044718729702414375,0.04583996419797158,-0.004810857982658506,0.03650357366026801, ,0.5039768218994141
0.010697617649362917,0.02066486876108449,-0.08149405952278309, ,0.01089531417381201,0.02079100196281643,-0.08163630578843867, ,0.0002742763213464822, ,0.0018999202258607477,0.0019053667170786995,-0.004782264167711508,-0.01109831673089218,-0.013753597285093741,0.02610182373626221, ,0.005487273435957376, ,0.017672975698461976, ,2.8538322689800763e-05, ,0.2198970958606687,-0.2067916181731097,0.09580231245000001,2.0065230692034137,1.0958247281188325,-1.0742449608362232, ,0.009684830849783737,-0.010009561410835864,0.005290206416472933,0.0,-0.004810857982658506,0.03163741171491744, ,0.5152969360351562
0.010716739907681433,0.02068711621923954,-0.08153824201781794, ,0.010917294402252328,0.020813864573080838,-0.08168263671328455, ,0.0002777356271221964, ,0.0018843138752745482,0.002049123230600772,-0.0044176821847608455,-0.0081694490836594,-0.010068454279411004,0.011613985344967517, ,0.005221633909064603, ,0.012965865502330582, ,2.8794794296029678e-05, ,0.21998976865515937,-0.20689973643334883,0.09585286776000002,2.0069424490903827,1.0958247281188325,-1.0741632820960827, ,0.00970981570768382,-0.010978218281675046,0.004971539176029963,0.01794948906544037,-0.004810857982658506,0.03470156740974985, ,0.5265548229217529
0.01073847007988498,0.020711850165426676,-0.08157876268535652, ,0.010939405949932186,0.02083639247607213,-0.08172931203012246, ,0.0002802697204872281, ,0.002061042205884375,0.0024109574901505964,-0.003406484708927762,0.005479082597684689,0.005903927673504904,-0.063876355166485, ,0.004654540693334698, ,0.008054607850635843, ,2.9047868766817527e-05, ,0.22010560964827275,-0.20700785469358798,0.09590083049,2.0077812088643205,1.0958247281188325,-1.0739999246158016, ,0.01099622972581663,-0.010220900461741313,0.00410642215003867,0.10167330101161602,-0.004810857982658506,0.04050876201203982, ,0.538240909576416
0.01075424185261007,0.020727808285239766,-0.0816115552380395, ,0.010961648248989885,0.020858587599885865,-0.08177632949433114, ,0.000295416989922769, ,0.0018840529177578172,0.002107275648165913,-0.0034259597327465324,0.007735703532449547,-0.003476018907182302,-0.035003198660643414, ,0.004441561228291861, ,0.008480791007510717, ,2.9337434516990626e-05, ,0.22020600517563768,-0.2071082502209529,0.09593842290000001,2.0077812088643205,1.0958247281188325,-1.0738365671355206, ,0.010758070690224553,-0.010745855979179758,0.004028530986342944,0.05548113683147125,-0.004810857982658506,0.021254968129282452, ,0.5527698993682861
0.010778537081830266,0.020750933904357737,-0.08166262203610554, ,0.010984020733040873,0.020880451867878336,-0.08182368686702866, ,0.00029144521534871774, ,0.0018838107957108905,0.0019387374449401085,-0.0037367290222714454,0.0023942215030541393,-0.007508980839937775,-0.01198049555569581, ,0.004612004963173339, ,0.007881439534227975, ,2.9602305820774573e-05, ,0.22034501436737372,-0.2072395366798147,0.09599416337000001,2.0077812088643205,1.095688091619067,-1.073561791751543, ,0.010868719293379096,-0.010171072968852031,0.00429232323362975,0.032014380037782654,-0.0036028482594940197,0.020617524989800098, ,0.5638959407806396
0.010795788250360719,0.02076921471873542,-0.08169865062683111, ,0.011006522837176147,0.020901987198671174,-0.08187138191506514, ,0.00030310673935685903, ,0.0017992649223918312,0.001756941014574576,-0.003961050622357572,0.006159117956590638,-0.011684426060856826,-0.008279356132455262, ,0.004691920504710553, ,0.013208351350555493, ,2.989113292502589e-05, ,0.220561250887852,-0.2074480504674188,0.09608231109000001,2.0084102786947744,1.0955514551193015,-1.072796943926722, ,0.00998350564564027,-0.008994917288525027,0.004445663276583869,0.014346699906534557,-0.005298752229957672,0.006154963742464102, ,0.5759267807006836
0.010834739548311182,0.020812239612573207,-0.08177492464615296, ,0.011029153997960178,0.020923195506156504,-0.08191941241101852, ,0.0002664299208967241, ,0.002029291143889037,0.00234099470417849,-0.00385473213403732,-0.0003848870452280937,0.003361347923544006,-0.046851663870069594, ,0.00494542602581801, ,0.0033833115507763637, ,3.0148775301790887e-05, ,0.22065392368234268,-0.20754072326190948,0.09612508866000001,2.0092490384687127,1.0955514551193015,-1.0727152651865814, ,0.00998742206305336,-0.009655929315448536,0.004516249367734619,0.08611496739012665,-0.005298752229957672,0.04353697359807646, ,0.5870959758758545
0.010854067414572566,0.020829741289047295,-0.08181758012932233, ,0.01105191365342957,0.02094407869950145,-0.08196777613318756, ,0.0002734502097938665, ,0.0019519627841561638,0.001935931489577772,-0.0037287057930286997,0.010515016377841822,-0.005824299317948347,-0.03685490459107827, ,0.004632627368355379, ,0.012020317435516232, ,3.041783797034647e-05, ,0.22076976467545606,-0.20763339605640016,0.09617305139000001,2.0092490384687127,1.0955514551193015,-1.0724702289661596, ,0.011004694228083978,-0.008658871326018334,0.004285394543987088,0.04756699507380468,-0.005298752229957672,0.010186841233581535, ,0.5967168807983398
0.010872293120722736,0.02084618210324691,-0.08185527934217537, ,0.011074801243091258,0.020964638683153042,-0.08201647086558671, ,0.0002846475156539202, ,0.0019088863530235022,0.0018570151556657531,-0.0038049719139190983,-0.0029799523293466725,-0.009086264043759087,-0.007378483158994576, ,0.004644369027418561, ,0.009562442646130698, ,3.07096679355803e-05, ,0.22088560566856943,-0.20772606885089087,0.09621582896000001,2.0092490384687127,1.0955514551193015,-1.072388550226019, ,0.010970744688840552,-0.009010291678823798,0.0043343704816326545,0.031015391123944996,-0.005298752229957672,0.027239918526193757, ,0.6066489219665527
0.010872293120722736,0.02084618210324691,-0.08185527934217537, ,0.011097816207920712,0.020984877356843085,-0.08206549439794004, ,0.0003380642038127628, ,0.0019088863530235022,0.0018570151556657531,-0.0038049719139190983,-0.0029799523293466725,-0.009086264043759087,-0.007378483158994576, ,0.004644369027418561, ,0.009562442646130698, ,3.114170781254457e-05, ,0.22088560566856943,-0.20772606885089087,0.09621582896000001,2.0092490384687127,1.0955514551193015,-1.072388550226019, ,0.010970744688840552,-0.009010291678823798,0.0043343704816326545,0.031015391123944996,-0.005298752229957672,0.027239918526193757, ,0.6167159080505371
0.010908475014703652,0.02087811233062618,-0.08193766255838762, ,0.011120957990360414,0.021004796615592736,-0.08211484452567516, ,0.0003042883049565371, ,0.002113201563726751,0.0018288874441702771,-0.004932324860621814,-0.005991756671522425,-0.015868493035800353,0.017072322536827448, ,0.0056690632967968235, ,0.016962022766133015, ,3.146612233763095e-05, ,0.22108639672329927,-0.2078650780426269,0.09630786555000001,2.0094587284121967,1.0955514551193015,-1.072061835265457, ,0.011680644295267878,-0.008566389289661906,0.00544574752820513,0.0,-0.004883361683703906,0.020747372074932876, ,0.6287548542022705
0.010938830722495074,0.020908243307392986,-0.0820011317505067, ,0.011144226034318016,0.021024398349717633,-0.08216451904991787, ,0.0002870098214088797, ,0.0024931552225197144,0.002445505978284308,-0.005211608224278142,0.00910009788174478,0.0060993770887600475,-0.07496043857682959, ,0.006273530324846225, ,0.010955098287261468, ,3.173300572725893e-05, ,0.22123312864790953,-0.2079577508371176,0.09638045779000001,2.0105071781296195,1.0955514551193015,-1.0717351203048946, ,0.011167984498149671,-0.005977947520158057,0.005919290791527314,0.10204582593434912,-0.004515499223998331,0.02808115279207491, ,0.638577938079834
0.01096176909340842,0.02092741914376737,-0.08205629339760917, ,0.011167619785164815,0.021043684444832438,-0.08221451577748617, ,0.0002844757441721191, ,0.00243212583701243,0.0021934337683757747,-0.005723969859974968,-0.011362517418601116,-0.004367613382549808,-0.012335686669564756, ,0.0065947114221333765, ,0.012173037525734485, ,3.1984550405891455e-05, ,0.2213489696410229,-0.2080195327001114,0.09644138342000001,2.010716868073104,1.0955514551193015,-1.0715717628246135, ,0.011245045806193956,-0.006355017021756607,0.006346140047808766,0.05012000747049899,-0.004274862516193166,0.04427143735146345, ,0.6484298706054688
0.010984364729526467,0.020946869874848412,-0.08211277096573205, ,0.011191138689733697,0.021062656781855937,-0.08226483252088444, ,0.00028157555826014796, ,0.0022762288788148216,0.0018344022458163646,-0.005619038738269132,-0.015292327844627635,-0.015943166356216627,0.03005271139570765, ,0.006334022880474609, ,0.022091623724117625, ,3.222051950016724e-05, ,0.22145708790126203,-0.2080813145631052,0.09650360534,2.0109265580165885,1.0955514551193015,-1.071326726604192, ,0.011905610844584275,-0.007151655893510294,0.006138270335260117,-0.0032918138881088545,-0.004057349152027317,0.03319372552773299, ,0.6587998867034912
0.01100721385452494,0.020964229734726603,-0.08217108852018733, ,0.011214782196317875,0.02108131723701534,-0.0823154670982973, ,0.0002786382484942476, ,0.002258853220630545,0.001752275987420068,-0.005457132630648797,-0.011985395136393481,-0.013782559320796816,0.01781319760484668, ,0.006160615680022072, ,0.018264956423901534, ,3.2441543156885486e-05, ,0.22155748342862697,-0.208143096426099,0.09655416065000001,2.010716868073104,1.0955514551193015,-1.0710000116436296, ,0.011179703216078174,-0.006137318089447399,0.005974798019504878,0.005624837178338961,-0.0038888614254729355,0.029520287937702745, ,0.6688377857208252
0.01102186001940442,0.020975784528942013,-0.08220378154383533, ,0.01123854975466906,0.02109966768185157,-0.08236641733358427, ,0.00029791253255130856, ,0.0022933015297065523,0.0016211752035020322,-0.005242844067898977,-0.012335748405664315,-0.01520758123629592,0.018589978827590288, ,0.005947676425874878, ,0.019581654981770998, ,3.270496987527833e-05, ,0.22165787895599187,-0.2081817100904701,0.09660341967000001,2.0109265580165885,1.0955514551193015,-1.070918332903489, ,0.012811791758940297,-0.004994282049562424,0.005727727982740022,0.0034864800785464564,-0.003736202446841383,0.027417070579002736, ,0.6792919635772705
0.01105483362921367,0.02100371607076664,-0.08227012468222558, ,0.01126244081599553,0.02111770998322387,-0.08241768105627399, ,0.00027904881222305585, ,0.0023741046028972696,0.002005955486554187,-0.004649182166945363,0.0023515122802692814,-0.0014294378495263804,-0.04371603300814355, ,0.005592416731698168, ,0.0027518903317176047, ,3.2995962225018046e-05, ,0.22183550181209905,-0.20825893741921236,0.09667860449000001,2.0117653177905264,1.0955514551193015,-1.0705099392027861, ,0.01262767020072798,-0.00519611126307795,0.005262243647175422,0.06823443322094375,-0.0035064295851498432,0.026642115551073757, ,0.687924861907959
0.01105483362921367,0.02100371607076664,-0.08227012468222558, ,0.011286454832960759,0.021135446003314528,-0.08246925610155785, ,0.00033264768046629257, ,0.0023741046028972696,0.002005955486554187,-0.004649182166945363,0.0023515122802692814,-0.0014294378495263804,-0.04371603300814355, ,0.005592416731698168, ,0.0027518903317176047, ,3.3413046477110585e-05, ,0.22183550181209905,-0.20825893741921236,0.09667860449000001,2.0117653177905264,1.0955514551193015,-1.0705099392027861, ,0.01262767020072798,-0.00519611126307795,0.005262243647175422,0.06823443322094375,-0.0035064295851498432,0.026642115551073757, ,0.696159839630127
0.011076511365457863,0.02101880680389095,-0.08231976904680412, ,0.011310591259681499,0.021152877599633916,-0.08252114031028474, ,0.00033662852063763235, ,0.0024084986772968035,0.0018940497946321052,-0.005092684325300289,0.014211106072128516,-0.0046123752474089,-0.05021937654194497, ,0.005943376493227199, ,0.014940868040064503, ,3.382966389296336e-05, ,0.22195906553808664,-0.2083052738164577,0.09673304867000002,2.0117653177905264,1.0955514551193015,-1.0702649029823645, ,0.012501243783226293,-0.004182989079043551,0.005668616199288257,0.05250127586345551,-0.0033541684363205156,-0.00013428537681151216, ,0.7041769027709961
0.01110170847338954,0.0210360475397324,-0.08237913350629696, ,0.011334849551726131,0.021170006625025002,-0.0825733315289545, ,0.0003316815806530133, ,0.0026775209188381337,0.0019982618274371586,-0.006083783572379204,-0.0011586512304156593,-0.008819892580677648,-0.019029283190183478, ,0.006940791824954799, ,0.008895671389734619, ,3.422416209973083e-05, ,0.22209807472982268,-0.20835161021370305,0.09679786317000001,2.0117653177905264,1.0955514551193015,-1.070183224242224, ,0.013685742941804266,-0.0042675440699089994,0.006687158488664989,0.03657765562804627,-0.003212249349940589,0.019861517919432595, ,0.7134578227996826
0.01112365027390894,0.021052814364204614,-0.08243233886248211, ,0.011359229166112988,0.021186834927668347,-0.08262582760971308, ,0.0003330117433188147, ,0.0027861806862730463,0.002089151556289777,-0.007190431202114864,-0.008481251729037216,-0.016106406928976434,0.017474629101427774, ,0.007989346526096858, ,0.018202965577952798, ,3.46123897563739e-05, ,0.2222061929900618,-0.20839022387807418,0.09685619622000001,2.0119750077340113,1.0955514551193015,-1.0701015455020835, ,0.013305796629062085,-0.006150211692681408,0.007577931265461467,0.0,-0.0031095855662113944,0.022573867043723432, ,0.7229189872741699
0.011158817554743964,0.02108111042618918,-0.08251707914285161, ,0.011383729561308776,0.02120336435108677,-0.08267862641034643, ,0.0003027027460808983, ,0.0029739939446561214,0.0021311513053272357,-0.007409820108177641,-0.013959256040005356,-0.011368320624513107,0.004890453582718201, ,0.0082638901193447, ,0.018002764250927214, ,3.491959543717729e-05, ,0.22236837038042054,-0.20844428300819373,0.09694952910000001,2.0126040775644647,1.0955514551193015,-1.0698565092816616, ,0.01410687402385473,-0.003507975039306087,0.008040793296314994,0.024650123556324954,-0.002970141728916504,0.03572078125007193, ,0.7308359146118164
0.011185937964456907,0.02110276622368483,-0.08257773171987424, ,0.011408350197226563,0.02121959673415039,-0.08273172579427342, ,0.00029467056929948865, ,0.002791331112128321,0.002186472199099132,-0.005890660286478032,-0.0009792885406680726,-0.0020310056010770785,-0.041427779743528424, ,0.006875468614258841, ,0.0022547688805406975, ,3.5200795887092046e-05, ,0.22249965683928236,-0.20848289667256487,0.09701693618000001,2.0132331473949185,1.0955514551193015,-1.0696931518013806, ,0.014108971388413735,-0.0039844222639301265,0.006565874492992582,0.06946003392028614,-0.0028678727370271737,0.031084910289084017, ,0.7391588687896729
0.011211675119650322,0.02112008424951277,-0.08263295916354743, ,0.01143309053522447,0.02123553391108108,-0.08278512363054236, ,0.00029241654471995966, ,0.0025620366676485074,0.0016114375208223872,-0.005757001156883159,-0.02136762921166711,-0.01875941122831753,0.03800615700961455, ,0.006504139073716344, ,0.02843397758732614, ,3.54702694178432e-05, ,0.22264638876389262,-0.20852151033693597,0.09707786181000001,2.0134428373384026,1.0955514551193015,-1.0693664368408184, ,0.014979785565662315,-0.004460816360173926,0.006266251581431944,-0.007849102864212264,-0.002767133968448962,0.03802882792917175, ,0.7475409507751465
0.011211675119650322,0.02112008424951277,-0.08263295916354743, ,0.011457950038103624,0.021251177711457583,-0.08283881779382304, ,0.00034671978149913613, ,0.0025620366676485074,0.0016114375208223872,-0.005757001156883159,-0.02136762921166711,-0.01875941122831753,0.03800615700961455, ,0.006504139073716344, ,0.02843397758732614, ,3.585784020596659e-05, ,0.22264638876389262,-0.20852151033693597,0.09707786181000001,2.0134428373384026,1.0955514551193015,-1.0693664368408184, ,0.014979785565662315,-0.004460816360173926,0.006266251581431944,-0.007849102864212264,-0.002767133968448962,0.03802882792917175, ,0.7588458061218262
0.011239390311224071,0.0211362855769399,-0.08269760436908645, ,0.01148292817010664,0.021266529960220066,-0.08289280616440169, ,0.0003381982096041145, ,0.0028295320330724368,0.001746538118738107,-0.006428123403589285,0.008093074587692305,-0.018060670473799806,-0.008413759770706918, ,0.007237224427787257, ,0.019791050080016425, ,3.629948838914175e-05, ,0.22280856615425132,-0.2085601240013071,0.09714786147000001,2.0132331473949185,1.0955514551193015,-1.0691214006203966, ,0.015927650479770187,-0.0034958924925080396,0.006983258009644893,0.0014208943132623067,-0.002669354164043287,-0.008901465903027008, ,0.7658689022064209
0.011267807038095521,0.02115409785028564,-0.08275905139497072, ,0.011508024396915902,0.021281592477675127,-0.08294708662817589, ,0.0003306304710977874, ,0.0026489909648399657,0.0017265303049218417,-0.005575965787420772,-0.005138950449042446,-0.017386211368337373,0.010201094743266904, ,0.00641010565342758, ,0.018129786321743332, ,3.6716190675751235e-05, ,0.22297846627748427,-0.20860646039855246,0.09721526855000001,2.0132331473949185,1.0955514551193015,-1.068876364399975, ,0.01596516513433223,-0.0051805867013576,0.0061335431343858314,0.003552327324206447,-0.002579658698140927,0.01652227734056168, ,0.7725088596343994
0.011295233684013192,0.021174161650264773,-0.08281199156293138, ,0.011533238185651858,0.02129636707950037,-0.08300165707664747, ,0.0003279532235367032, ,0.0028202656821418744,0.001802334362002063,-0.005646791357779001,-0.005225623358293922,-0.011589620375450067,-0.01260943478671736, ,0.006564187711256295, ,0.012713238540533828, ,3.711950573328731e-05, ,0.22313292093496875,-0.20864507406292357,0.09727489789,2.013862217225372,1.0955514551193015,-1.068876364399975, ,0.016515304830920778,-0.0032342114711760095,0.006244144068992553,0.033535372759487675,-0.0024987736174314737,0.024310340816926342, ,0.7792119979858398
0.011295233684013192,0.021174161650264773,-0.08281199156293138, ,0.011558569004871282,0.021310855576749454,-0.08305651540691769, ,0.0003844770877790676, ,0.0028202656821418744,0.001802334362002063,-0.005646791357779001,-0.005225623358293922,-0.011589620375450067,-0.01260943478671736, ,0.006564187711256295, ,0.012713238540533828, ,3.764047497135777e-05, ,0.22313292093496875,-0.20864507406292357,0.09727489789,2.013862217225372,1.0955514551193015,-1.068876364399975, ,0.016515304830920778,-0.0032342114711760095,0.006244144068992553,0.033535372759487675,-0.0024987736174314737,0.024310340816926342, ,0.7856559753417969
0.011326804304788714,0.021194771338125973,-0.08287765838518651, ,0.011584016324565597,0.021325059775856754,-0.08311165952168062, ,0.00037133493237852564, ,0.0032546723362156782,0.0023107125608532266,-0.006944921366155963,-0.0006064512096390444,-0.0038728509214640745,-0.04436652017789985, ,0.008010257008180331, ,0.003920043516780509, ,3.812356694617854e-05, ,0.22331054379107593,-0.20867596499442048,0.09734749013,2.014281597112341,1.0955514551193015,-1.0686313281795534, ,0.016581677714218205,-0.002583044876617272,0.007680236991321119,0.07056343430925734,-0.0024187041455574123,0.02894324926495254, ,0.7924799919128418
0.011350424235273299,0.021209593719789217,-0.08293513786369784, ,0.011609579616159226,0.021338981478641935,-0.08316708732921786, ,0.0003710838963604895, ,0.003383408955238242,0.002359201549226867,-0.00762494030331122,-0.007350016941055886,-0.008032962365052377,-0.022469635408276303, ,0.008669083154366474, ,0.010888122318293992, ,3.859773099948825e-05, ,0.22343410751706352,-0.20869913319304315,0.09740971205000001,2.014281597112341,1.0955514551193015,-1.0685496494394129, ,0.01702492672380172,-0.0030329644593556702,0.008365972436974792,0.052180744656292834,-0.002363190396530104,0.03427361147878495, ,0.8019378185272217
0.011374493076539838,0.021224784987060746,-0.08299220575072389, ,0.011635258352507756,0.021352622482315342,-0.08322279674339297, ,0.00037082766919919715, ,0.003511988011619273,0.00242085410998649,-0.008134959882063674,0.0013055410233213567,-0.00916998297222142,-0.023767558231006344, ,0.009185432308736557, ,0.00926245050985884, ,3.9063186365512434e-05, ,0.22355767124305112,-0.20873002412454006,0.09747063768000001,2.014281597112341,1.095414818619536,-1.0683565527955758, ,0.01773443123873496,-0.0034050823234074747,0.008908731275167786,0.04064917188329729,0.0,0.017903449861746724, ,0.8087198734283447
0.011374493076539838,0.021224784987060746,-0.08299220575072389, ,0.011661052007896355,0.02136598457948217,-0.08327878568364466, ,0.0004291636098191962, ,0.003511988011619273,0.00242085410998649,-0.008134959882063674,0.0013055410233213567,-0.00916998297222142,-0.023767558231006344, ,0.009185432308736557, ,0.00926245050985884, ,3.9645085863075646e-05, ,0.22355767124305112,-0.20873002412454006,0.09747063768000001,2.014281597112341,1.095414818619536,-1.0683565527955758, ,0.01773443123873496,-0.0034050823234074747,0.008908731275167786,0.04064917188329729,0.0,0.017903449861746724, ,0.815180778503418
0.011426054159546483,0.021255303215873378,-0.08311708590207964, ,0.011686960058038062,0.021379069558147636,-0.08333505207498179, ,0.00036180001088620373, ,0.003498568589773815,0.002106584019308611,-0.007906801440237221,-0.0038032254512428755,-0.012868055009459586,-0.010990565133363198, ,0.008899167793849926, ,0.013418320783772048, ,4.007472575194224e-05, ,0.22382796689364898,-0.20876091505603694,0.09760545184000001,2.014281597112341,1.095414818619536,-1.0681115165751542, ,0.018680500306785586,-0.0015149834801922786,0.00861016838918919,0.027343141806531194,0.0,0.01853598289192701, ,0.8216958045959473
0.011464558409071622,0.021279314484229598,-0.08320106606096178, ,0.01171298198007202,0.02139187920172161,-0.08339159384797735, ,0.0003326949411663765, ,0.0036806499813881286,0.002216581721491592,-0.00843911398029075,-0.006532419995109494,-0.016674881481012687,0.0025737223515263133, ,0.009469903039940896, ,0.01790877272719533, ,4.0436143022715006e-05, ,0.22403648068125304,-0.2087840832546596,0.09769748843,2.0147009769993103,1.095414818619536,-1.067948159094873, ,0.0198737050384232,-0.002509299053477494,0.00917558267281106,0.014657119401655438,0.0,0.02009723361108369, ,0.8281347751617432
0.011464558409071622,0.021279314484229598,-0.08320106606096178, ,0.011739117252561862,0.021404415289023582,-0.08344840893876246, ,0.0003901426266091949, ,0.0036806499813881286,0.002216581721491592,-0.00843911398029075,-0.006532419995109494,-0.016674881481012687,0.0025737223515263133, ,0.009469903039940896, ,0.01790877272719533, ,4.099621426759219e-05, ,0.22403648068125304,-0.2087840832546596,0.09769748843,2.0147009769993103,1.095414818619536,-1.067948159094873, ,0.0198737050384232,-0.002509299053477494,0.00917558267281106,0.014657119401655438,0.0,0.02009723361108369, ,0.8330528736114502
0.011464558409071622,0.021279314484229598,-0.08320106606096178, ,0.011765365355493794,0.02141667959428722,-0.08350549528902101, ,0.00044947875074770224, ,0.0036806499813881286,0.002216581721491592,-0.00843911398029075,-0.006532419995109494,-0.016674881481012687,0.0025737223515263133, ,0.009469903039940896, ,0.01790877272719533, ,4.1672177223999904e-05, ,0.22423727173598287,-0.20879180598753386,0.09779082131000001,2.015539736773248,1.095414818619536,-1.0677848016145919, ,0.02191615278486623,-0.0015332695164864223,0.00972454915750916,0.10506175537314698,0.0,0.02130810804484603, ,0.8390049934387207
0.011504092649558442,0.02130530117737376,-0.08328573501426152, ,0.011791725770275334,0.021428673887165222,-0.08356285084598288, ,0.00041802729796658447, ,0.004254675125419964,0.002894838027056191,-0.008754786777065808,0.01145176936484696,3.876985204722067e-05,-0.08290554015776565, ,0.010155227182965642, ,0.011451832746583925, ,4.227508003530563e-05, ,0.22423727173598287,-0.20879180598753386,0.09779082131000001,2.015539736773248,1.095414818619536,-1.0677848016145919, ,0.02191615278486623,-0.0015332695164864223,0.00972454915750916,0.10506175537314698,0.0,0.02130810804484603, ,0.8439218997955322
0.01154806555774298,0.021329748911037706,-0.08338496035281373, ,0.011818197979733065,0.021440399932734444,-0.08362047356241936, ,0.0003750755202775929, ,0.004282270763669898,0.002553612066229815,-0.009542016502137266,-0.010106221257496127,-0.010946282452812681,-0.021818714572545837, ,0.010766097547637044, ,0.014898212259791085, ,4.278274931991029e-05, ,0.22447667645508382,-0.20879952872040808,0.09789841338000001,2.0157494267167326,1.095414818619536,-1.0676214441343108, ,0.0222501621473554,-0.00021226236954356335,0.010404187798824299,0.0530664885630046,0.0,0.036119938381456766, ,0.8499698638916016
0.01154806555774298,0.021329748911037706,-0.08338496035281373, ,0.011844781468111347,0.02145185949150017,-0.08367836139663627, ,0.0004347821268667397, ,0.004282270763669898,0.002553612066229815,-0.009542016502137266,-0.010106221257496127,-0.010946282452812681,-0.021818714572545837, ,0.010766097547637044, ,0.014898212259791085, ,4.340558240711966e-05, ,0.22447667645508382,-0.20879952872040808,0.09789841338000001,2.0157494267167326,1.095414818619536,-1.0676214441343108, ,0.0222501621473554,-0.00021226236954356335,0.010404187798824299,0.0530664885630046,0.0,0.036119938381456766, ,0.8549118041992188
0.011588226690115049,0.021353022758294038,-0.08348122584820958, ,0.011871475721070382,0.0214630543194014,-0.08373651231246892, ,0.00039687294794543134, ,0.004432813870055152,0.0023943953891715536,-0.010644287762254479,-0.013226778815419065,-0.022760892576941853,0.018004907667532828, ,0.011776409896565242, ,0.026325002793722078, ,4.394428180252183e-05, ,0.22468519024268788,-0.20879952872040808,0.09800341287000001,2.015959116660217,1.0955514551193015,-1.067569504557726, ,0.023236273643112336,-0.0002457134942781107,0.011451338260244429,0.0,0.0003241195394661448,0.022442613759156852, ,0.8601419925689697
0.011588226690115049,0.021353022758294038,-0.08348122584820958, ,0.011898280225684631,0.02147398616781516,-0.08379492427927569, ,0.0004573533065536046, ,0.004432813870055152,0.0023943953891715536,-0.010644287762254479,-0.013226778815419065,-0.022760892576941853,0.018004907667532828, ,0.011776409896565242, ,0.026325002793722078, ,4.459793734699179e-05, ,0.22468519024268788,-0.20879952872040808,0.09800341287000001,2.015959116660217,1.0955514551193015,-1.067569504557726, ,0.023236273643112336,-0.0002457134942781107,0.011451338260244429,0.0,0.0003241195394661448,0.022442613759156852, ,0.8649687767028809
0.01163706626031087,0.02137893270463201,-0.08360492306461058, ,0.011925194470441138,0.02148465678356168,-0.08385359527193238, ,0.00039501052268603806, ,0.004870221121985628,0.0027569242163755876,-0.01230002940348596,-0.022644897229112514,-0.023155481430242583,0.030099959509414742, ,0.013513341860490776, ,0.03238776635165573, ,4.511932798700189e-05, ,0.22493231769466307,-0.20879952872040808,0.09813563445000001,2.0157494267167326,1.0955514551193015,-1.0673244683373042, ,0.02383147703628096,-0.00022373089226097455,0.013197026942833473,0.00034756196992049795,0.0003241195394661448,0.03807210871199339, ,0.8701009750366211
0.01163706626031087,0.02137893270463201,-0.08360492306461058, ,0.011952217945237535,0.021495067908909225,-0.08391252327082648, ,0.00045544028922427267, ,0.004870221121985628,0.0027569242163755876,-0.01230002940348596,-0.022644897229112514,-0.023155481430242583,0.030099959509414742, ,0.013513341860490776, ,0.03238776635165573, ,4.575441192601631e-05, ,0.22493231769466307,-0.20879952872040808,0.09813563445000001,2.0157494267167326,1.0955514551193015,-1.0673244683373042, ,0.02383147703628096,-0.00022373089226097455,0.013197026942833473,0.00034756196992049795,0.0003241195394661448,0.03807210871199339, ,0.8748879432678223
0.011682367052516903,0.021404841518564983,-0.08371834931011846, ,0.011979350141380797,0.021505221281578328,-0.08397170626185163, ,0.000403069220959975, ,0.005036249180201294,0.0027782377332022765,-0.012407897153218671,-0.011629269863069874,-0.024435487177266343,0.014115429264909907, ,0.013676195467750493, ,0.02706164549766383, ,4.627868408613846e-05, ,0.22515627694801557,-0.2088072514532823,0.09825748571000001,2.0157494267167326,1.0955514551193015,-1.0671611108570231, ,0.025326111971836346,0.0,0.013329549389121339,0.0021049922823583593,0.0003241195394661448,0.020154103899434797, ,0.8805677890777588
0.011682367052516903,0.021404841518564983,-0.08371834931011846, ,0.012006590551585152,0.02151511863474737,-0.08403114223640089, ,0.0004638117446053829, ,0.005036249180201294,0.0027782377332022765,-0.012407897153218671,-0.011629269863069874,-0.024435487177266343,0.014115429264909907, ,0.013676195467750493, ,0.02706164549766383, ,4.700806400054534e-05, ,0.22515627694801557,-0.2088072514532823,0.09825748571000001,2.0157494267167326,1.0955514551193015,-1.0671611108570231, ,0.025326111971836346,0.0,0.013329549389121339,0.0021049922823583593,0.0003241195394661448,0.020154103899434797, ,0.8849008083343506
0.011682367052516903,0.021404841518564983,-0.08371834931011846, ,0.012033938669970675,0.02152476169705674,-0.08409082919136217, ,0.0005260463034181362, ,0.005036249180201294,0.0027782377332022765,-0.012407897153218671,-0.011629269863069874,-0.024435487177266343,0.014115429264909907, ,0.013676195467750493, ,0.02706164549766383, ,4.78535242264104e-05, ,0.2254420180643619,-0.20879952872040808,0.09840526277000002,2.016378496547186,1.0955514551193015,-1.066834395896461, ,0.027707136221451323,7.649707921106034e-05,0.01398490914837577,0.03134899583080248,0.0003241195394661448,0.0021860447749916436, ,0.8887519836425781
0.011740565965055377,0.021439317801497285,-0.08385465961261974, ,0.012061393992061163,0.021534152192614005,-0.0841507651291109, ,0.0004467691367444721, ,0.005476198327123634,0.003116415708960471,-0.012938215487895468,0.005578815533580838,-0.020903906714896423,-0.02808001805938273, ,0.014390907372374594, ,0.02163552948622896, ,4.8537855782534484e-05, ,0.2254420180643619,-0.20879952872040808,0.09840526277000002,2.016378496547186,1.0955514551193015,-1.066834395896461, ,0.027707136221451323,7.649707921106034e-05,0.01398490914837577,0.03134899583080248,0.0003241195394661448,0.0021860447749916436, ,0.8927137851715088
0.011740565965055377,0.021439317801497285,-0.08385465961261974, ,0.012088956014783084,0.021543291840998464,-0.08421094805750602, ,0.0005090458560866089, ,0.005476198327123634,0.003116415708960471,-0.012938215487895468,0.005578815533580838,-0.020903906714896423,-0.02808001805938273, ,0.014390907372374594, ,0.02163552948622896, ,4.933779781073164e-05, ,0.2254420180643619,-0.20879952872040808,0.09840526277000002,2.016378496547186,1.0955514551193015,-1.066834395896461, ,0.027707136221451323,7.649707921106034e-05,0.01398490914837577,0.03134899583080248,0.0003241195394661448,0.0021860447749916436, ,0.896000862121582
0.011794612264320652,0.021469616998011844,-0.08397806817682668, ,0.012116624236463116,0.021552182357266206,-0.0842713759898822, ,0.000443326315428367, ,0.005633365383554066,0.0032212322976003776,-0.012513520691075681,-0.001065274918412521,-0.014901182127169132,-0.037668018373022506, ,0.01409607545190179, ,0.014939201203847311, ,5.000443363240844e-05, ,0.2257277591807082,-0.20879180598753386,0.09854007693000001,2.0167978764341554,1.095688091619067,-1.0669458138001575, ,0.02944366787417647,0.0004192497579750092,0.013637681095890414,0.06015778822489769,0.002110405767888949,0.02413471167442814, ,0.899249792098999
0.011794612264320652,0.021469616998011844,-0.08397806817682668, ,0.012144398156827073,0.021560825451954525,-0.08433204694504565, ,0.0005059348980026421, ,0.005633365383554066,0.0032212322976003776,-0.012513520691075681,-0.001065274918412521,-0.014901182127169132,-0.037668018373022506, ,0.01409607545190179, ,0.014939201203847311, ,5.078656471282814e-05, ,0.2257277591807082,-0.20879180598753386,0.09854007693000001,2.0167978764341554,1.095688091619067,-1.0669458138001575, ,0.02944366787417647,0.0004192497579750092,0.013637681095890414,0.06015778822489769,0.002110405767888949,0.02413471167442814, ,0.902533769607544
0.011794612264320652,0.021469616998011844,-0.08397806817682668, ,0.012172277276997719,0.02156922283108713,-0.08439295894726731, ,0.0005698127193910377, ,0.005633365383554066,0.0032212322976003776,-0.012513520691075681,-0.001065274918412521,-0.014901182127169132,-0.037668018373022506, ,0.01409607545190179, ,0.014939201203847311, ,5.16852971311878e-05, ,0.2257277591807082,-0.20879180598753386,0.09854007693000001,2.0167978764341554,1.095688091619067,-1.0669458138001575, ,0.02944366787417647,0.0004192497579750092,0.013637681095890414,0.06015778822489769,0.002110405767888949,0.02413471167442814, ,0.9058139324188232
0.011854969833412016,0.021500438820911013,-0.08411497789529372, ,0.01220026109949348,0.021577376196178784,-0.08445411002627759, ,0.0004900571603505999, ,0.006027694273634701,0.002882294067476234,-0.014299611709128366,-0.02061294707664035,-0.03624138698893636,0.04457444665012986, ,0.015783523446292285, ,0.04169329826454501, ,5.2424659590247504e-05, ,0.22605211396142563,-0.2087763605217854,0.09868785399,2.01700756637764,1.095688091619067,-1.0667824563198764, ,0.032734371010165846,0.0012360121446456768,0.015330906179018288,-0.026724921584506997,0.0020667512472061942,0.023636754502048697, ,0.9090728759765625
0.011854969833412016,0.021500438820911013,-0.08411497789529372, ,0.012228349128226493,0.021585287244239786,-0.0845154982172596, ,0.0005541009664719783, ,0.006027694273634701,0.002882294067476234,-0.014299611709128366,-0.02061294707664035,-0.03624138698893636,0.04457444665012986, ,0.015783523446292285, ,0.04169329826454501, ,5.3280377013659846e-05, ,0.22605211396142563,-0.2087763605217854,0.09868785399,2.01700756637764,1.095688091619067,-1.0667824563198764, ,0.032734371010165846,0.0012360121446456768,0.015330906179018288,-0.026724921584506997,0.0020667512472061942,0.023636754502048697, ,0.9133977890014648
0.011854969833412016,0.021500438820911013,-0.08411497789529372, ,0.012256540868500797,0.021592957667781184,-0.08457712156084488, ,0.0006191896323885905, ,0.006027694273634701,0.002882294067476234,-0.014299611709128366,-0.02061294707664035,-0.03624138698893636,0.04457444665012986, ,0.015783523446292285, ,0.04169329826454501, ,5.425310733313095e-05, ,0.22605211396142563,-0.2087763605217854,0.09868785399,2.01700756637764,1.095688091619067,-1.0667824563198764, ,0.032734371010165846,0.0012360121446456768,0.015330906179018288,-0.026724921584506997,0.0020667512472061942,0.023636754502048697, ,0.9167938232421875
0.011916417168901058,0.021530726770576287,-0.0842588279229242, ,0.012284835827011044,0.021600389154819544,-0.08463897810310606, ,0.0005339469214391179, ,0.0066482560988629265,0.0031868117131593128,-0.01592818414578085,-0.02468697548134642,-0.03801773019754076,0.04272144864679968, ,0.017551698727846884, ,0.04532983060343283, ,5.505734307372236e-05, ,0.2263841914750173,-0.20875319232316272,0.09884340879,2.01700756637764,1.0958247281188325,-1.0667305167432917, ,0.035108006495919636,0.0024312872488027027,0.01705440205567452,-0.019821368236994378,0.00105679813059672,0.03028218319591324, ,0.9205639362335205
0.011916417168901058,0.021530726770576287,-0.0842588279229242, ,0.012313233511840313,0.02160758338888152,-0.0847010658955522, ,0.0005991198329509009, ,0.0066482560988629265,0.0031868117131593128,-0.01592818414578085,-0.02468697548134642,-0.03801773019754076,0.04272144864679968, ,0.017551698727846884, ,0.04532983060343283, ,5.5978256721186496e-05, ,0.2263841914750173,-0.20875319232316272,0.09884340879,2.01700756637764,1.0958247281188325,-1.0667305167432917, ,0.035108006495919636,0.0024312872488027027,0.01705440205567452,-0.019821368236994378,0.00105679813059672,0.03028218319591324, ,0.9239368438720703
0.011916417168901058,0.021530726770576287,-0.0842588279229242, ,0.012341733432458627,0.021614542049008714,-0.0847633829951218, ,0.0006652027854914624, ,0.0066482560988629265,0.0031868117131593128,-0.01592818414578085,-0.02468697548134642,-0.03801773019754076,0.04272144864679968, ,0.017551698727846884, ,0.04532983060343283, ,5.701624222221669e-05, ,0.22672399172148316,-0.20873774685741428,0.09901840794000001,2.0167978764341554,1.0960980011183634,-1.066871673810544, ,0.03746424854262565,0.0015399207776972932,0.019738304237918218,0.007537548855397434,0.010626845597639562,0.00979383821518749, ,0.929311990737915
0.011981455756270165,0.02156420593372697,-0.0844204137167927, ,0.01237033509972139,0.021621266809762507,-0.08482592746417826, ,0.0005647339963696928, ,0.007475291851654981,0.004014197540399565,-0.018305216805928795,-0.0017636566988084863,-0.02643912948718859,0.0032208059097355354, ,0.020176093092390986, ,0.02649784892581923, ,5.7858674954787266e-05, ,0.22672399172148316,-0.20873774685741428,0.09901840794000001,2.0167978764341554,1.0960980011183634,-1.066871673810544, ,0.03746424854262565,0.0015399207776972932,0.019738304237918218,0.007537548855397434,0.010626845597639562,0.00979383821518749, ,0.9337458610534668
0.011981455756270165,0.02156420593372697,-0.0844204137167927, ,0.012399038025867393,0.021627759341228795,-0.08488869737050267, ,0.00063063742976375, ,0.007475291851654981,0.004014197540399565,-0.018305216805928795,-0.0017636566988084863,-0.02643912948718859,0.0032208059097355354, ,0.020176093092390986, ,0.02649784892581923, ,5.881755778505575e-05, ,0.22672399172148316,-0.20873774685741428,0.09901840794000001,2.0167978764341554,1.0960980011183634,-1.066871673810544, ,0.03746424854262565,0.0015399207776972932,0.019738304237918218,0.007537548855397434,0.010626845597639562,0.00979383821518749, ,0.9373397827148438
0.012065278685628495,0.021608606013928854,-0.0846303095559781, ,0.012427841724517287,0.021634021309023033,-0.08495169078728934, ,0.00048516367365264516, ,0.007475291851654981,0.004014197540399565,-0.018305216805928795,-0.0017636566988084863,-0.008114116516756585,-0.005916300661920546, ,0.020176093092390986, ,0.02649784892581923, ,5.9610022684437885e-05, ,0.22714101929669128,-0.20870685592591737,0.09924525869,2.0167978764341554,1.0963712741178944,-1.0670128308777964, ,0.03755320204134183,0.0028878640417417997,0.02068676820779221,0.0065930010541052405,0.03190241336620871,-0.009927599833148216, ,0.9391629695892334
0.012065278685628495,0.021608606013928854,-0.0846303095559781, ,0.012456745710671834,0.02164005437429458,-0.08501490579313897, ,0.0005496814502093723, ,0.0075937262177485235,0.004089862440235879,-0.019080047463083255,0.01672719842293294,-0.008114116516756585,-0.005916300661920546, ,0.02093895565312853, ,0.018591275513745488, ,6.051924611212793e-05, ,0.22714101929669128,-0.20870685592591737,0.09924525869,2.0167978764341554,1.0963712741178944,-1.0670128308777964, ,0.03755320204134183,0.0028878640417417997,0.02068676820779221,0.0065930010541052405,0.03190241336620871,-0.009927599833148216, ,0.9408698081970215
0.012065278685628495,0.021608606013928854,-0.0846303095559781, ,0.012485749500710172,0.02164586019373196,-0.08507834047205352, ,0.0006155609490599912, ,0.0075937262177485235,0.004089862440235879,-0.019080047463083255,0.01672719842293294,-0.008114116516756585,-0.005916300661920546, ,0.02093895565312853, ,0.018591275513745488, ,6.154710111758695e-05, ,0.22714101929669128,-0.20870685592591737,0.09924525869,2.0167978764341554,1.0963712741178944,-1.0670128308777964, ,0.03755320204134183,0.0028878640417417997,0.02068676820779221,0.0065930010541052405,0.03190241336620871,-0.009927599833148216, ,0.9425389766693115
0.012065278685628495,0.021608606013928854,-0.0846303095559781, ,0.01251485261238814,0.02165144041956719,-0.08514199291342948, ,0.0006824744392438443, ,0.0075937262177485235,0.004089862440235879,-0.019080047463083255,0.01672719842293294,-0.008114116516756585,-0.005916300661920546, ,0.02093895565312853, ,0.018591275513745488, ,6.269484111412347e-05, ,0.22714101929669128,-0.20870685592591737,0.09924525869,2.0167978764341554,1.0963712741178944,-1.0670128308777964, ,0.03755320204134183,0.0028878640417417997,0.02068676820779221,0.0065930010541052405,0.03190241336620871,-0.009927599833148216, ,0.9442338943481445
0.012065278685628495,0.021608606013928854,-0.0846303095559781, ,0.012544054564836645,0.021656796699581007,-0.08520586121205312, ,0.0007502055674985763, ,0.0075937262177485235,0.004089862440235879,-0.019080047463083255,0.01672719842293294,-0.008114116516756585,-0.005916300661920546, ,0.02093895565312853, ,0.018591275513745488, ,0.00035018297586100376, ,0.22714101929669128,-0.20870685592591737,0.09924525869,2.0167978764341554,1.0963712741178944,-1.0670128308777964, ,0.03755320204134183,0.0028878640417417997,0.02068676820779221,0.0065930010541052405,0.03190241336620871,-0.009927599833148216, ,0.945915937423706
0.012065278685628495,0.021608606013928854,-0.0846303095559781, ,0.012573354878559683,0.02166193067710734,-0.08526994346809408, ,0.0008186064250024811, ,0.0075937262177485235,0.004089862440235879,-0.019080047463083255,0.01672719842293294,-0.008114116516756585,-0.005916300661920546, ,0.02093895565312853, ,0.018591275513745488, ,0.00035486721035241856, ,0.22714101929669128,-0.20870685592591737,0.09924525869,2.0167978764341554,1.0963712741178944,-1.0670128308777964, ,0.03755320204134183,0.0028878640417417997,0.02068676820779221,0.0065930010541052405,0.03190241336620871,-0.009927599833148216, ,0.947786808013916
0.012146136192275154,0.02165206297636514,-0.08482982851275406, ,0.012602753075433026,0.02166684399103833,-0.08533423778709928, ,0.0006805484350324039, ,0.00825702990156393,0.004199989882991415,-0.020356341892310933,0.0033536027493671194,-0.02428451611446479,0.004427530025290051, ,0.022365131634962582, ,0.02451491135818718, ,0.0003580917769334085, ,0.22753487867327674,-0.20867596499442048,0.09946044283000001,2.01700756637764,1.0965079106176596,-1.0669608913012114, ,0.0412774865413096,0.004062652447389293,0.021940511735537193,0.0,0.019255537313038664,-4.571580603939841e-05, ,0.949692964553833
0.012146136192275154,0.02165206297636514,-0.08482982851275406, ,0.012632248678702261,0.021671538275829023,-0.0853987422799878, ,0.0007485636320965891, ,0.00825702990156393,0.004199989882991415,-0.020356341892310933,0.0033536027493671194,-0.02428451611446479,0.004427530025290051, ,0.022365131634962582, ,0.02451491135818718, ,0.0003619199323761848, ,0.22753487867327674,-0.20867596499442048,0.09946044283000001,2.01700756637764,1.0965079106176596,-1.0669608913012114, ,0.0412774865413096,0.004062652447389293,0.021940511735537193,0.0,0.019255537313038664,-4.571580603939841e-05, ,0.9513609409332275
0.012146136192275154,0.02165206297636514,-0.08482982851275406, ,0.012661841212980984,0.021676015161502023,-0.08546345506304438, ,0.0008173175519875061, ,0.00825702990156393,0.004199989882991415,-0.020356341892310933,0.0033536027493671194,-0.02428451611446479,0.004427530025290051, ,0.022365131634962582, ,0.02451491135818718, ,0.0003663412684889161, ,0.22753487867327674,-0.20867596499442048,0.09946044283000001,2.01700756637764,1.0965079106176596,-1.0669608913012114, ,0.0412774865413096,0.004062652447389293,0.021940511735537193,0.0,0.019255537313038664,-4.571580603939841e-05, ,0.9529519081115723
0.012146136192275154,0.02165206297636514,-0.08482982851275406, ,0.01269153020424949,0.02168027627365251,-0.08552837425791389, ,0.0008866886581671109, ,0.00825702990156393,0.004199989882991415,-0.020356341892310933,0.0033536027493671194,-0.02428451611446479,0.004427530025290051, ,0.022365131634962582, ,0.02451491135818718, ,0.00037134460877428333, ,0.22753487867327674,-0.20867596499442048,0.09946044283000001,2.01700756637764,1.0965079106176596,-1.0669608913012114, ,0.0412774865413096,0.004062652447389293,0.021940511735537193,0.0,0.019255537313038664,-4.571580603939841e-05, ,0.9546117782592773
0.012146136192275154,0.02165206297636514,-0.08482982851275406, ,0.012721315179852586,0.021684323233452957,-0.0855934979915961, ,0.0009565890783679536, ,0.00825702990156393,0.004199989882991415,-0.020356341892310933,0.0033536027493671194,-0.02428451611446479,0.004427530025290051, ,0.022365131634962582, ,0.02451491135818718, ,0.00037691836562755635, ,0.22753487867327674,-0.20867596499442048,0.09946044283000001,2.01700756637764,1.0965079106176596,-1.0669608913012114, ,0.0412774865413096,0.004062652447389293,0.021940511735537193,0.0,0.019255537313038664,-4.571580603939841e-05, ,0.9562668800354004
0.012146136192275154,0.02165206297636514,-0.08482982851275406, ,0.012751195668498225,0.02168815765765785,-0.08565882439643815, ,0.001026953733597642, ,0.00825702990156393,0.004199989882991415,-0.020356341892310933,0.0033536027493671194,-0.02428451611446479,0.004427530025290051, ,0.022365131634962582, ,0.02451491135818718, ,0.0003830507747593497, ,0.22753487867327674,-0.20867596499442048,0.09946044283000001,2.01700756637764,1.0965079106176596,-1.0669608913012114, ,0.0412774865413096,0.004062652447389293,0.021940511735537193,0.0,0.019255537313038664,-4.571580603939841e-05, ,0.957899808883667
0.012238464726625035,0.02169491569563866,-0.08505657245354933, ,0.01278117120025569,0.021691781158608512,-0.08572435161013087, ,0.0008605051677984024, ,0.010383764915672543,0.004959048971475425,-0.0261745229599003,0.010930260335778479,-0.021009001335107608,-0.003600179488541879, ,0.02859231352485824, ,0.02368198561305673, ,0.0003875129653484997, ,0.22800596537860443,-0.20858329219992977,0.09970544164,2.01700756637764,1.0969178201169558,-1.0672951450123007, ,0.0505039603823687,0.010175706634177219,0.02814277653710248,0.0,0.03354872891521872,-0.0134365034693669, ,0.9595749378204346
0.012238464726625035,0.02169491569563866,-0.08505657245354933, ,0.012811241306553903,0.021695195344238038,-0.08579007777570119, ,0.0009306466280728943, ,0.010383764915672543,0.004959048971475425,-0.0261745229599003,0.010930260335778479,-0.021009001335107608,-0.003600179488541879, ,0.02859231352485824, ,0.02368198561305673, ,0.00039254198074409596, ,0.22800596537860443,-0.20858329219992977,0.09970544164,2.01700756637764,1.0969178201169558,-1.0672951450123007, ,0.0505039603823687,0.010175706634177219,0.02814277653710248,0.0,0.03354872891521872,-0.0134365034693669, ,0.961249828338623
0.012238464726625035,0.02169491569563866,-0.08505657245354933, ,0.012841405520179561,0.021698401818075797,-0.08585600104150728, ,0.0010013170431118464, ,0.010383764915672543,0.004959048971475425,-0.0261745229599003,0.010930260335778479,-0.021009001335107608,-0.003600179488541879, ,0.02859231352485824, ,0.02368198561305673, ,0.00039812707305939644, ,0.22800596537860443,-0.20858329219992977,0.09970544164,2.01700756637764,1.0969178201169558,-1.0672951450123007, ,0.0505039603823687,0.010175706634177219,0.02814277653710248,0.0,0.03354872891521872,-0.0134365034693669, ,0.9629068374633789
0.012238464726625035,0.02169491569563866,-0.08505657245354933, ,0.012871663375275694,0.02170140217925258,-0.08592211956123222, ,0.001072452515844362, ,0.010383764915672543,0.004959048971475425,-0.0261745229599003,0.010930260335778479,-0.021009001335107608,-0.003600179488541879, ,0.02859231352485824, ,0.02368198561305673, ,0.0004042573043574416, ,0.22800596537860443,-0.20858329219992977,0.09970544164,2.01700756637764,1.0969178201169558,-1.0672951450123007, ,0.0505039603823687,0.010175706634177219,0.02814277653710248,0.0,0.03354872891521872,-0.0134365034693669, ,0.9645547866821289
0.012238464726625035,0.02169491569563866,-0.08505657245354933, ,0.012902014407339788,0.021704198022504985,-0.0859884314938791, ,0.0011440042007846852, ,0.010383764915672543,0.004959048971475425,-0.0261745229599003,0.010930260335778479,-0.021009001335107608,-0.003600179488541879, ,0.02859231352485824, ,0.02368198561305673, ,0.00041092169081174105, ,0.22800596537860443,-0.20858329219992977,0.09970544164,2.01700756637764,1.0969178201169558,-1.0672951450123007, ,0.0505039603823687,0.010175706634177219,0.02814277653710248,0.0,0.03354872891521872,-0.0134365034693669, ,0.9662418365478516
0.012238464726625035,0.02169491569563866,-0.08505657245354933, ,0.012932458153222111,0.02170679093818057,-0.08605493500376345, ,0.001215934076837806, ,0.010383764915672543,0.004959048971475425,-0.0261745229599003,0.010930260335778479,-0.021009001335107608,-0.003600179488541879, ,0.02859231352485824, ,0.02368198561305673, ,0.00041810930140125953, ,0.22800596537860443,-0.20858329219992977,0.09970544164,2.01700756637764,1.0969178201169558,-1.0672951450123007, ,0.0505039603823687,0.010175706634177219,0.02814277653710248,0.0,0.03354872891521872,-0.0134365034693669, ,0.9679248332977295
0.012351954085258902,0.0217531895955743,-0.08535371222988876, ,0.012962994151124025,0.021709182512242395,-0.0861216282605092, ,0.000982344957517314, ,0.012378754046578408,0.006456740249885756,-0.03298523090782653,0.07351012842532245,0.030562274947634877,-0.03529465968453757, ,0.03581827053952787, ,0.07961000303470513, ,0.0004231025372960918, ,0.22854655667980014,-0.20848289667256487,0.10002821785,2.01700756637764,1.0977376391155484,-1.0678819736943386, ,0.05772320046135693,0.01136043361577694,0.035875701621621625,0.0,0.10073848579934705,-0.07661388101690615, ,0.9696497917175293
0.012351954085258902,0.0217531895955743,-0.08535371222988876, ,0.01299362194059625,0.021711374326274086,-0.08618850943904215, ,0.0010537421571381518, ,0.012378754046578408,0.006456740249885756,-0.03298523090782653,0.07351012842532245,0.030562274947634877,-0.03529465968453757, ,0.03581827053952787, ,0.07961000303470513, ,0.00042863446378593446, ,0.22854655667980014,-0.20848289667256487,0.10002821785,2.01700756637764,1.0977376391155484,-1.0678819736943386, ,0.05772320046135693,0.01136043361577694,0.035875701621621625,0.0,0.10073848579934705,-0.07661388101690615, ,0.9725618362426758
0.012351954085258902,0.0217531895955743,-0.08535371222988876, ,0.01302434106253713,0.021713367957484252,-0.08625557671958343, ,0.001125632963201489, ,0.012378754046578408,0.006456740249885756,-0.03298523090782653,0.07351012842532245,0.030562274947634877,-0.03529465968453757, ,0.03581827053952787, ,0.07961000303470513, ,0.0004346953203025915, ,0.22854655667980014,-0.20848289667256487,0.10002821785,2.01700756637764,1.0977376391155484,-1.0678819736943386, ,0.05772320046135693,0.01136043361577694,0.035875701621621625,0.0,0.10073848579934705,-0.07661388101690615, ,0.9744298458099365
0.012351954085258902,0.0217531895955743,-0.08535371222988876, ,0.01305515105919094,0.021715164978711562,-0.08632282828764502, ,0.0011979640182558802, ,0.012378754046578408,0.006456740249885756,-0.03298523090782653,0.07351012842532245,0.030562274947634877,-0.03529465968453757, ,0.03581827053952787, ,0.07961000303470513, ,0.0004412752228711543, ,0.22854655667980014,-0.20848289667256487,0.10002821785,2.01700756637764,1.0977376391155484,-1.0678819736943386, ,0.05772320046135693,0.01136043361577694,0.035875701621621625,0.0,0.10073848579934705,-0.07661388101690615, ,0.9776298999786377
0.012390238193470017,0.021772693309340178,-0.08545535052663514, ,0.013086051474146394,0.021716766958429397,-0.08639026233402275, ,0.0011667664573017978, ,0.01319830011418569,0.0068112829131790455,-0.035187507200112114,0.05813213268201196,0.017134657625154117,-0.026424164781569632, ,0.038193577520120064, ,0.0606043513138286, ,0.0004474760026526128, ,0.2287241795359073,-0.20844428300819373,0.10013840250000001,2.01700756637764,1.0980109121150794,-1.0679414520214503, ,0.06052100864698392,0.012565802642805981,0.038107204593301434,0.0,0.08854171098043852,-0.06081595044324635, ,0.9806349277496338
0.012390238193470017,0.021772693309340178,-0.08545535052663514, ,0.01311704185233444,0.02171817546075076,-0.08645787705479126, ,0.0012394656889201468, ,0.01319830011418569,0.0068112829131790455,-0.035187507200112114,0.05813213268201196,0.017134657625154117,-0.026424164781569632, ,0.038193577520120064, ,0.0606043513138286, ,0.00045418777965488004, ,0.2287241795359073,-0.20844428300819373,0.10013840250000001,2.01700756637764,1.0980109121150794,-1.0679414520214503, ,0.06052100864698392,0.012565802642805981,0.038107204593301434,0.0,0.08854171098043852,-0.06081595044324635, ,0.9825518131256104
0.012390238193470017,0.021772693309340178,-0.08545535052663514, ,0.013148121740027026,0.0217193920454331,-0.08652567065129761, ,0.0013125599659190496, ,0.01319830011418569,0.0068112829131790455,-0.035187507200112114,0.05813213268201196,0.017134657625154117,-0.026424164781569632, ,0.038193577520120064, ,0.0606043513138286, ,0.0004614009913041588, ,0.2287241795359073,-0.20844428300819373,0.10013840250000001,2.01700756637764,1.0980109121150794,-1.0679414520214503, ,0.06052100864698392,0.012565802642805981,0.038107204593301434,0.0,0.08854171098043852,-0.06081595044324635, ,0.9844779968261719
0.012390238193470017,0.021772693309340178,-0.08545535052663514, ,0.01317929068483524,0.021720418267882725,-0.08659364133015603, ,0.0013860167630549332, ,0.01319830011418569,0.0068112829131790455,-0.035187507200112114,0.05813213268201196,0.017134657625154117,-0.026424164781569632, ,0.038193577520120064, ,0.0606043513138286, ,0.00046910612273541526, ,0.2287241795359073,-0.20844428300819373,0.10013840250000001,2.01700756637764,1.0980109121150794,-1.0679414520214503, ,0.06052100864698392,0.012565802642805981,0.038107204593301434,0.0,0.08854171098043852,-0.06081595044324635, ,0.986259937286377
0.012390238193470017,0.021772693309340178,-0.08545535052663514, ,0.013210548235707473,0.021721255679160063,-0.0866617873032414, ,0.0014598096078400971, ,0.01319830011418569,0.0068112829131790455,-0.035187507200112114,0.05813213268201196,0.017134657625154117,-0.026424164781569632, ,0.038193577520120064, ,0.0606043513138286, ,0.0004772937548437184, ,0.2287241795359073,-0.20844428300819373,0.10013840250000001,2.01700756637764,1.0980109121150794,-1.0679414520214503, ,0.06052100864698392,0.012565802642805981,0.038107204593301434,0.0,0.08854171098043852,-0.06081595044324635, ,0.9879138469696045
0.012645473279171534,0.02190746953444054,-0.08614165170810338, ,0.013241893942927883,0.021721905825984242,-0.08673010678768403, ,0.0008581555096460579, ,0.015720702384099176,0.008279389503623323,-0.04281883193881299,0.0007604342388626429,-0.034925394558202885,0.005317780653726852, ,0.046358830254941086, ,0.034931611868572, ,0.0004804155725060327, ,0.2298285303369214,-0.20822032375484123,0.10087599151000001,2.0172172563211244,1.0989673676134375,-1.0684763411269038, ,0.06549133302862027,0.013662099274182375,0.04577244689655173,0.0,0.03464927119077197,-0.0015965025508974974, ,0.9897468090057373
0.012645473279171534,0.02190746953444054,-0.08614165170810338, ,0.013273327358114555,0.021722370250737828,-0.08679859800586345, ,0.0009273839158694266, ,0.015720702384099176,0.008279389503623323,-0.04281883193881299,0.0007604342388626429,-0.034925394558202885,0.005317780653726852, ,0.046358830254941086, ,0.034931611868572, ,0.0004840494614764668, ,0.2298285303369214,-0.20822032375484123,0.10087599151000001,2.0172172563211244,1.0989673676134375,-1.0684763411269038, ,0.06549133302862027,0.013662099274182375,0.04577244689655173,0.0,0.03464927119077197,-0.0015965025508974974, ,0.9914238452911377
0.012645473279171534,0.02190746953444054,-0.08614165170810338, ,0.013304848034217926,0.021722650491471762,-0.08686725918540271, ,0.000997717072796231, ,0.015720702384099176,0.008279389503623323,-0.04281883193881299,0.0007604342388626429,-0.034925394558202885,0.005317780653726852, ,0.046358830254941086, ,0.034931611868572, ,0.0004881919422129165, ,0.2298285303369214,-0.20822032375484123,0.10087599151000001,2.0172172563211244,1.0989673676134375,-1.0684763411269038, ,0.06549133302862027,0.013662099274182375,0.04577244689655173,0.0,0.03464927119077197,-0.0015965025508974974, ,0.9930288791656494
0.012645473279171534,0.02190746953444054,-0.08614165170810338, ,0.013336455525518967,0.021722748081909896,-0.0869360885591628, ,0.001068975392660454, ,0.015720702384099176,0.008279389503623323,-0.04281883193881299,0.0007604342388626429,-0.034925394558202885,0.005317780653726852, ,0.046358830254941086, ,0.034931611868572, ,0.0004928382098164968, ,0.2298285303369214,-0.20822032375484123,0.10087599151000001,2.0172172563211244,1.0989673676134375,-1.0684763411269038, ,0.06549133302862027,0.013662099274182375,0.04577244689655173,0.0,0.03464927119077197,-0.0015965025508974974, ,0.9946699142456055
0.012645473279171534,0.02190746953444054,-0.08614165170810338, ,0.013368149387627436,0.021722664551454336,-0.08700508436523603, ,0.0011410212937858122, ,0.015720702384099176,0.008279389503623323,-0.04281883193881299,0.0007604342388626429,-0.034925394558202885,0.005317780653726852, ,0.046358830254941086, ,0.034931611868572, ,0.0004979825200067294, ,0.2298285303369214,-0.20822032375484123,0.10087599151000001,2.0172172563211244,1.0989673676134375,-1.0684763411269038, ,0.06549133302862027,0.013662099274182375,0.04577244689655173,0.0,0.03464927119077197,-0.0015965025508974974, ,0.9963209629058838
0.012645473279171534,0.02190746953444054,-0.08614165170810338, ,0.01339992917748036,0.021722401425189438,-0.08707424484694101, ,0.0012137478610328343, ,0.015720702384099176,0.008279389503623323,-0.04281883193881299,0.0007604342388626429,-0.034925394558202885,0.005317780653726852, ,0.046358830254941086, ,0.034931611868572, ,0.0005036184675738641, ,0.2298285303369214,-0.20822032375484123,0.10087599151000001,2.0172172563211244,1.0989673676134375,-1.0684763411269038, ,0.06549133302862027,0.013662099274182375,0.04577244689655173,0.0,0.03464927119077197,-0.0015965025508974974, ,0.9979557991027832
0.012799234055864878,0.021976264229619284,-0.08655242537090459, ,0.013431794453340124,0.02172196022388711,-0.0871435682528171, ,0.0009023597345966348, ,0.014755454529740902,0.006037124981040067,-0.03832978162628098,0.08627854284218114,0.0384104572422356,-0.05057364050472166, ,0.04151316027399427, ,0.0944418733770423, ,0.0005067336337224795, ,0.23051585356272739,-0.20798091903574026,0.10131673011000002,2.01700756637764,1.0997871866120301,-1.0688181335885198, ,0.07013816818807891,0.02823473417389788,0.04148128,-0.010522958909420625,0.12641372475913865,-0.1126687297069428, ,0.9996500015258789
0.012799234055864878,0.021976264229619284,-0.08655242537090459, ,0.013463744774792948,0.021721342464011667,-0.08721305283661716, ,0.0009710758212439577, ,0.014755454529740902,0.006037124981040067,-0.03832978162628098,0.08627854284218114,0.0384104572422356,-0.05057364050472166, ,0.04151316027399427, ,0.0944418733770423, ,0.0005103331855637313, ,0.23051585356272739,-0.20798091903574026,0.10131673011000002,2.01700756637764,1.0997871866120301,-1.0688181335885198, ,0.07013816818807891,0.02823473417389788,0.04148128,-0.010522958909420625,0.12641372475913865,-0.1126687297069428, ,1.0014917850494385
0.012799234055864878,0.021976264229619284,-0.08655242537090459, ,0.013495779702746838,0.021720549657724394,-0.08728269685730265, ,0.001041087039740498, ,0.014755454529740902,0.006037124981040067,-0.03832978162628098,0.08627854284218114,0.0384104572422356,-0.05057364050472166, ,0.04151316027399427, ,0.0944418733770423, ,0.0005144159075189372, ,0.23051585356272739,-0.20798091903574026,0.10131673011000002,2.01700756637764,1.0997871866120301,-1.0688181335885198, ,0.07013816818807891,0.02823473417389788,0.04148128,-0.010522958909420625,0.12641372475913865,-0.1126687297069428, ,1.003114938735962
0.012799234055864878,0.021976264229619284,-0.08655242537090459, ,0.013527898799430345,0.021719583312888282,-0.08735249857903854, ,0.001112184579960966, ,0.014755454529740902,0.006037124981040067,-0.03832978162628098,0.08627854284218114,0.0384104572422356,-0.05057364050472166, ,0.04151316027399427, ,0.0944418733770423, ,0.0005189790271558993, ,0.23051585356272739,-0.20798091903574026,0.10131673011000002,2.01700756637764,1.0997871866120301,-1.0688181335885198, ,0.07013816818807891,0.02823473417389788,0.04148128,-0.010522958909420625,0.12641372475913865,-0.1126687297069428, ,1.0047528743743896
0.012799234055864878,0.021976264229619284,-0.08655242537090459, ,0.013560101628390598,0.021718444933073025,-0.08742245627118593, ,0.0011842060716096476, ,0.014755454529740902,0.006037124981040067,-0.03832978162628098,0.08627854284218114,0.0384104572422356,-0.05057364050472166, ,0.04151316027399427, ,0.0944418733770423, ,0.0005240186259775186, ,0.23051585356272739,-0.20798091903574026,0.10131673011000002,2.01700756637764,1.0997871866120301,-1.0688181335885198, ,0.07013816818807891,0.02823473417389788,0.04148128,-0.010522958909420625,0.12641372475913865,-0.1126687297069428, ,1.0064048767089844
0.012799234055864878,0.021976264229619284,-0.08655242537090459, ,0.01359238775449151,0.0217171360175598,-0.08749256820829718, ,0.0012570237764779324, ,0.014755454529740902,0.006037124981040067,-0.03832978162628098,0.08627854284218114,0.0384104572422356,-0.05057364050472166, ,0.04151316027399427, ,0.0944418733770423, ,0.0005295299428985744, ,0.23051585356272739,-0.20798091903574026,0.10131673011000002,2.01700756637764,1.0997871866120301,-1.0688181335885198, ,0.07013816818807891,0.02823473417389788,0.04148128,-0.010522958909420625,0.12641372475913865,-0.1126687297069428, ,1.0080718994140625
0.01295064803967019,0.022028259700155317,-0.08694276630091768, ,0.01362475674391216,0.021715658061345785,-0.08756283267010981, ,0.0009677936928520955, ,0.0145346381088291,0.00434978677466428,-0.03689065197741002,0.06870048397687609,0.04684168453647611,0.080311002306591, ,0.039888551656560016, ,0.08314945329678992, ,0.0005328005678982274, ,0.2313035723158983,-0.20765656425502285,0.10174191323000001,2.015959116660217,1.1017000976087463,-1.0702146267599888, ,0.07759357445500473,0.03377115357952697,0.040022139497487445,-0.13304702000291505,0.17277540156759144,-0.10944304037820204, ,1.0097498893737793
0.01295064803967019,0.022028259700155317,-0.08694276630091768, ,0.013657208164145186,0.021714012555149292,-0.08763324794154077, ,0.0010366983040789217, ,0.0145346381088291,0.00434978677466428,-0.03689065197741002,0.06870048397687609,0.04684168453647611,0.080311002306591, ,0.039888551656560016, ,0.08314945329678992, ,0.0005365331437217881, ,0.2313035723158983,-0.20765656425502285,0.10174191323000001,2.015959116660217,1.1017000976087463,-1.0702146267599888, ,0.07759357445500473,0.03377115357952697,0.040022139497487445,-0.13304702000291505,0.17277540156759144,-0.10944304037820204, ,1.0116379261016846
0.01295064803967019,0.022028259700155317,-0.08694276630091768, ,0.013689741583994981,0.021712200985414296,-0.08770381231268072, ,0.00110695230721416, ,0.0145346381088291,0.00434978677466428,-0.03689065197741002,0.06870048397687609,0.04684168453647611,0.080311002306591, ,0.039888551656560016, ,0.08314945329678992, ,0.0005407274022768791, ,0.2313035723158983,-0.20765656425502285,0.10174191323000001,2.015959116660217,1.1017000976087463,-1.0702146267599888, ,0.07759357445500473,0.03377115357952697,0.040022139497487445,-0.13304702000291505,0.17277540156759144,-0.10944304037820204, ,1.0135128498077393
0.01295064803967019,0.022028259700155317,-0.08694276630091768, ,0.013722356573575982,0.021710224834315395,-0.08777452407878762, ,0.0011783468242584528, ,0.0145346381088291,0.00434978677466428,-0.03689065197741002,0.06870048397687609,0.04684168453647611,0.080311002306591, ,0.039888551656560016, ,0.08314945329678992, ,0.0005453815586417081, ,0.2313035723158983,-0.20765656425502285,0.10174191323000001,2.015959116660217,1.1017000976087463,-1.0702146267599888, ,0.07759357445500473,0.03377115357952697,0.040022139497487445,-0.13304702000291505,0.17277540156759144,-0.10944304037820204, ,1.0153439044952393
0.01295064803967019,0.022028259700155317,-0.08694276630091768, ,0.013755052704310869,0.021708085579762622,-0.08784538154028182, ,0.0012507168353377573, ,0.0145346381088291,0.00434978677466428,-0.03689065197741002,0.06870048397687609,0.04684168453647611,0.080311002306591, ,0.039888551656560016, ,0.08314945329678992, ,0.0005504926838351577, ,0.2313035723158983,-0.20765656425502285,0.10174191323000001,2.015959116660217,1.1017000976087463,-1.0702146267599888, ,0.07759357445500473,0.03377115357952697,0.040022139497487445,-0.13304702000291505,0.17277540156759144,-0.10944304037820204, ,1.0173819065093994
0.013089644322485175,0.022066615387729062,-0.08727062280671262, ,0.013787829548929102,0.02170578469540592,-0.08791638300273914, ,0.0013239306969017864, ,0.0145346381088291,0.00434978677466428,-0.03689065197741002,0.06870048397687609,0.04684168453647611,0.080311002306591, ,0.039888551656560016, ,0.08314945329678992, ,0.0005560569860874356, ,0.23192139094583625,-0.20737854587155075,0.10203746735000001,2.0153300468297637,1.102519916607339,-1.0706380979617456, ,0.0902062182114741,0.04169461404150737,0.03992183338345865,-0.06644571849338715,0.08194809554526099,-0.034032838593593434, ,1.0198559761047363
0.013089644322485175,0.022066615387729062,-0.08727062280671262, ,0.013820686681465015,0.021703323650640295,-0.08798752677688634, ,0.001086441493735687, ,0.016592362903453093,0.004064229474236865,-0.03719368226848765,-0.007386684946923167,-0.034708598754981834,0.044555904372626624, ,0.04092913960283498, ,0.035484908961734174, ,0.0005598454468563517, ,0.23192139094583625,-0.20737854587155075,0.10203746735000001,2.0153300468297637,1.102519916607339,-1.0706380979617456, ,0.0902062182114741,0.04169461404150737,0.03992183338345865,-0.06644571849338715,0.08194809554526099,-0.034032838593593434, ,1.0220677852630615
0.013089644322485175,0.022066615387729062,-0.08727062280671262, ,0.01385362367725603,0.021700703910610596,-0.08805881117859386, ,0.0011570637723012135, ,0.016592362903453093,0.004064229474236865,-0.03719368226848765,-0.007386684946923167,-0.034708598754981834,0.044555904372626624, ,0.04092913960283498, ,0.035484908961734174, ,0.0005640810378169536, ,0.23192139094583625,-0.20737854587155075,0.10203746735000001,2.0153300468297637,1.102519916607339,-1.0706380979617456, ,0.0902062182114741,0.04169461404150737,0.03992183338345865,-0.06644571849338715,0.08194809554526099,-0.034032838593593434, ,1.0238428115844727
0.013089644322485175,0.022066615387729062,-0.08727062280671262, ,0.01388664011294113,0.02169792693621595,-0.08813023452887118, ,0.0012288473367982142, ,0.016592362903453093,0.004064229474236865,-0.03719368226848765,-0.007386684946923167,-0.034708598754981834,0.044555904372626624, ,0.04092913960283498, ,0.035484908961734174, ,0.0005687624906266808, ,0.23192139094583625,-0.20737854587155075,0.10203746735000001,2.0153300468297637,1.102519916607339,-1.0706380979617456, ,0.0902062182114741,0.04169461404150737,0.03992183338345865,-0.06644571849338715,0.08194809554526099,-0.034032838593593434, ,1.0255987644195557
0.013089644322485175,0.022066615387729062,-0.08727062280671262, ,0.013919735566459212,0.021694994184114896,-0.08820179515386034, ,0.0013016281083284126, ,0.016592362903453093,0.004064229474236865,-0.03719368226848765,-0.007386684946923167,-0.034708598754981834,0.044555904372626624, ,0.04092913960283498, ,0.035484908961734174, ,0.0005738874250162034, ,0.23192139094583625,-0.20737854587155075,0.10203746735000001,2.0153300468297637,1.102519916607339,-1.0706380979617456, ,0.0902062182114741,0.04169461404150737,0.03992183338345865,-0.06644571849338715,0.08194809554526099,-0.034032838593593434, ,1.0273888111114502
0.013089644322485175,0.022066615387729062,-0.08727062280671262, ,0.013952909617047152,0.021691907106729903,-0.08827349138483054, ,0.0013752740271017912, ,0.016592362903453093,0.004064229474236865,-0.03719368226848765,-0.007386684946923167,-0.034708598754981834,0.044555904372626624, ,0.04092913960283498, ,0.035484908961734174, ,0.0005794526097529088, ,0.23192139094583625,-0.20737854587155075,0.10203746735000001,2.0153300468297637,1.102519916607339,-1.0706380979617456, ,0.0902062182114741,0.04169461404150737,0.03992183338345865,-0.06644571849338715,0.08194809554526099,-0.034032838593593434, ,1.0292329788208008
0.013277153574509312,0.022110915728374647,-0.08766648976196034, ,0.013986161845238107,0.02168866715225266,-0.08834532155817117, ,0.0010685500435382972, ,0.01641634366260706,0.0037302915467989136,-0.03335145423383067,0.03572137652094166,0.008485819266448175,-0.016821101507433277, ,0.03735948224727211, ,0.0367149098450648, ,0.0005828256955031529, ,0.2330720781440957,-0.20686884550185194,0.10249505772,2.015120356886279,1.103749645105228,-1.0713141441344511, ,0.09874811816698312,0.04189710444082595,0.03670233069124424,0.0,0.12158937895744834,-0.05004867053873917, ,1.031693935394287
0.013277153574509312,0.022110915728374647,-0.08766648976196034, ,0.014019491832860071,0.02168527576464809,-0.08841728401538805, ,0.0011383881058375722, ,0.01641634366260706,0.0037302915467989136,-0.03335145423383067,0.03572137652094166,0.008485819266448175,-0.016821101507433277, ,0.03735948224727211, ,0.0367149098450648, ,0.0005866309174917449, ,0.2330720781440957,-0.20686884550185194,0.10249505772,2.015120356886279,1.103749645105228,-1.0713141441344511, ,0.09874811816698312,0.04189710444082595,0.03670233069124424,0.0,0.12158937895744834,-0.05004867053873917, ,1.0333828926086426
0.013277153574509312,0.022110915728374647,-0.08766648976196034, ,0.014052899163033794,0.0216817343836599,-0.08848937710309576, ,0.00120959556090756, ,0.01641634366260706,0.0037302915467989136,-0.03335145423383067,0.03572137652094166,0.008485819266448175,-0.016821101507433277, ,0.03735948224727211, ,0.0367149098450648, ,0.0005908687722088593, ,0.2330720781440957,-0.20686884550185194,0.10249505772,2.015120356886279,1.103749645105228,-1.0713141441344511, ,0.09874811816698312,0.04189710444082595,0.03670233069124424,0.0,0.12158937895744834,-0.05004867053873917, ,1.035071849822998
0.013277153574509312,0.022110915728374647,-0.08766648976196034, ,0.014086383420171435,0.02167804444481484,-0.0885615991730122, ,0.0012819716646613813, ,0.01641634366260706,0.0037302915467989136,-0.03335145423383067,0.03572137652094166,0.008485819266448175,-0.016821101507433277, ,0.03735948224727211, ,0.0367149098450648, ,0.000595538386347052, ,0.2330720781440957,-0.20686884550185194,0.10249505772,2.015120356886279,1.103749645105228,-1.0713141441344511, ,0.09874811816698312,0.04189710444082595,0.03670233069124424,0.0,0.12158937895744834,-0.05004867053873917, ,1.0366969108581543
0.013277153574509312,0.022110915728374647,-0.08766648976196034, ,0.014119944189974542,0.0216742073794278,-0.08863394858195373, ,0.001355354850929871, ,0.01641634366260706,0.0037302915467989136,-0.03335145423383067,0.03572137652094166,0.008485819266448175,-0.016821101507433277, ,0.03735948224727211, ,0.0367149098450648, ,0.0006006378257066682, ,0.2330720781440957,-0.20686884550185194,0.10249505772,2.015120356886279,1.103749645105228,-1.0713141441344511, ,0.09874811816698312,0.04189710444082595,0.03670233069124424,0.0,0.12158937895744834,-0.05004867053873917, ,1.038376808166504
0.013440106651585834,0.02212953695785768,-0.08799502106618526, ,0.014153581059432582,0.02167022461460644,-0.08870642369182818, ,0.0011072972749387863, ,0.01635324659569311,0.000829139629800036,-0.03335824016735628,0.0426783091712497,0.020344959026074926,0.051947750158046424, ,0.03716030588959508, ,0.0472791087611669, ,0.0006040155553682157, ,0.2341687062122356,-0.2062896405362851,0.10287875956,2.014281597112341,1.1052526466026478,-1.0723763835948306, ,0.10359928117736984,0.06455574255678284,0.03603803511312218,-0.11603367589661978,0.16778246972461597,-0.11376319254193949, ,1.0407979488372803
0.013440106651585834,0.02212953695785768,-0.08799502106618526, ,0.014187293616820983,0.021666097573255973,-0.08877902286962944, ,0.0011780166603325465, ,0.01635324659569311,0.000829139629800036,-0.03335824016735628,0.0426783091712497,0.020344959026074926,0.051947750158046424, ,0.03716030588959508, ,0.0472791087611669, ,0.0006078168871891715, ,0.2341687062122356,-0.2062896405362851,0.10287875956,2.014281597112341,1.1052526466026478,-1.0723763835948306, ,0.10359928117736984,0.06455574255678284,0.03603803511312218,-0.11603367589661978,0.16778246972461597,-0.11376319254193949, ,1.0424978733062744
0.013440106651585834,0.02212953695785768,-0.08799502106618526, ,0.014221081451699726,0.021661827674084113,-0.08885174448743169, ,0.0012500594518074352, ,0.01635324659569311,0.000829139629800036,-0.03335824016735628,0.0426783091712497,0.020344959026074926,0.051947750158046424, ,0.03716030588959508, ,0.0472791087611669, ,0.0006120421672195548, ,0.2341687062122356,-0.2062896405362851,0.10287875956,2.014281597112341,1.1052526466026478,-1.0723763835948306, ,0.10359928117736984,0.06455574255678284,0.03603803511312218,-0.11603367589661978,0.16778246972461597,-0.11376319254193949, ,1.044177770614624
0.013440106651585834,0.02212953695785768,-0.08799502106618526, ,0.01425494415491136,0.02165741633160569,-0.08892458692238354, ,0.001323234946473226, ,0.01635324659569311,0.000829139629800036,-0.03335824016735628,0.0426783091712497,0.020344959026074926,0.051947750158046424, ,0.03716030588959508, ,0.0472791087611669, ,0.0006166904860382062, ,0.2341687062122356,-0.2062896405362851,0.10287875956,2.014281597112341,1.1052526466026478,-1.0723763835948306, ,0.10359928117736984,0.06455574255678284,0.03603803511312218,-0.11603367589661978,0.16778246972461597,-0.11376319254193949, ,1.0458297729492188
0.013440106651585834,0.02212953695785768,-0.08799502106618526, ,0.014288881318579506,0.02165286495614751,-0.0889975485567022, ,0.0013973889944416998, ,0.01635324659569311,0.000829139629800036,-0.03335824016735628,0.0426783091712497,0.020344959026074926,0.051947750158046424, ,0.03716030588959508, ,0.0472791087611669, ,0.0006217599568719951, ,0.2341687062122356,-0.2062896405362851,0.10287875956,2.014281597112341,1.1052526466026478,-1.0723763835948306, ,0.10359928117736984,0.06455574255678284,0.03603803511312218,-0.11603367589661978,0.16778246972461597,-0.11376319254193949, ,1.0474259853363037
0.013440106651585834,0.02212953695785768,-0.08799502106618526, ,0.01432289253610694,0.021648174953853114,-0.08907062777766799, ,0.0014723960386375976, ,0.01635324659569311,0.000829139629800036,-0.03335824016735628,0.0426783091712497,0.020344959026074926,0.051947750158046424, ,0.03716030588959508, ,0.0472791087611669, ,0.0006272479315930635, ,0.2341687062122356,-0.2062896405362851,0.10287875956,2.014281597112341,1.1052526466026478,-1.0723763835948306, ,0.10359928117736984,0.06455574255678284,0.03603803511312218,-0.11603367589661978,0.16778246972461597,-0.11376319254193949, ,1.0490849018096924
0.013603044928200506,0.02213461412874848,-0.08833776423910206, ,0.014356977402173999,0.021643347726687683,-0.08914382297761739, ,0.0012080925225505205, ,0.01703662921737268,0.0007531211393986729,-0.035736597184935756,0.003478750340202042,-0.0020009768444493843,0.062356660035016574, ,0.03959694817658557, ,0.004005911385559229, ,0.0006309712943556113, ,0.235180384218759,-0.20561776277622756,0.10324690592,2.012813767507949,1.1068922845998332,-1.0734683622187662, ,0.10225963530007626,0.07076580280273734,0.038198588776978425,-0.10395053696961377,0.13768926487323693,-0.07363413547232307, ,1.0509247779846191
0.013603044928200506,0.02213461412874848,-0.08833776423910206, ,0.014391135512736936,0.021638384672442588,-0.08921713255393851, ,0.0012808665332027839, ,0.01703662921737268,0.0007531211393986729,-0.035736597184935756,0.003478750340202042,-0.0020009768444493843,0.062356660035016574, ,0.03959694817658557, ,0.004005911385559229, ,0.000635110754475657, ,0.235180384218759,-0.20561776277622756,0.10324690592,2.012813767507949,1.1068922845998332,-1.0734683622187662, ,0.10225963530007626,0.07076580280273734,0.038198588776978425,-0.10395053696961377,0.13768926487323693,-0.07363413547232307, ,1.0525469779968262
0.013603044928200506,0.02213461412874848,-0.08833776423910206, ,0.014425366465026,0.0216332871847405,-0.08929055490906486, ,0.001354751444171066, ,0.01703662921737268,0.0007531211393986729,-0.035736597184935756,0.003478750340202042,-0.0020009768444493843,0.062356660035016574, ,0.03959694817658557, ,0.004005911385559229, ,0.0006396654423851216, ,0.235180384218759,-0.20561776277622756,0.10324690592,2.012813767507949,1.1068922845998332,-1.0734683622187662, ,0.10225963530007626,0.07076580280273734,0.038198588776978425,-0.10395053696961377,0.13768926487323693,-0.07363413547232307, ,1.0542778968811035
0.013603044928200506,0.02213461412874848,-0.08833776423910206, ,0.01445966985754401,0.0216280566530399,-0.08936408845046873, ,0.0014295971924309409, ,0.01703662921737268,0.0007531211393986729,-0.035736597184935756,0.003478750340202042,-0.0020009768444493843,0.062356660035016574, ,0.03959694817658557, ,0.004005911385559229, ,0.0006446335665992462, ,0.235180384218759,-0.20561776277622756,0.10324690592,2.012813767507949,1.1068922845998332,-1.0734683622187662, ,0.10225963530007626,0.07076580280273734,0.038198588776978425,-0.10395053696961377,0.13768926487323693,-0.07363413547232307, ,1.0560858249664307
0.013603044928200506,0.02213461412874848,-0.08833776423910206, ,0.01449404529006444,0.02162269446263995,-0.08943773159065649, ,0.0015052812241823795, ,0.01703662921737268,0.0007531211393986729,-0.035736597184935756,0.003478750340202042,-0.0020009768444493843,0.062356660035016574, ,0.03959694817658557, ,0.004005911385559229, ,0.0006500126144591407, ,0.235180384218759,-0.20561776277622756,0.10324690592,2.012813767507949,1.1068922845998332,-1.0734683622187662, ,0.10225963530007626,0.07076580280273734,0.038198588776978425,-0.10395053696961377,0.13768926487323693,-0.07363413547232307, ,1.0578699111938477
0.013603044928200506,0.02213461412874848,-0.08833776423910206, ,0.014528492363629573,0.02161720199468539,-0.08951148274716253, ,0.0015817026927907986, ,0.01703662921737268,0.0007531211393986729,-0.035736597184935756,0.003478750340202042,-0.0020009768444493843,0.062356660035016574, ,0.03959694817658557, ,0.004005911385559229, ,0.0006557995093556107, ,0.235180384218759,-0.20561776277622756,0.10324690592,2.012813767507949,1.1068922845998332,-1.0734683622187662, ,0.10225963530007626,0.07076580280273734,0.038198588776978425,-0.10395053696961377,0.13768926487323693,-0.07363413547232307, ,1.0596508979797363
0.013603044928200506,0.02213461412874848,-0.08833776423910206, ,0.01456301068054926,0.02161158062617115,-0.08958534034254237, ,0.0016587779912863965, ,0.01703662921737268,0.0007531211393986729,-0.035736597184935756,0.003478750340202042,-0.0020009768444493843,0.062356660035016574, ,0.03959694817658557, ,0.004005911385559229, ,0.0006619907345527143, ,0.235180384218759,-0.20561776277622756,0.10324690592,2.012813767507949,1.1068922845998332,-1.0734683622187662, ,0.10225963530007626,0.07076580280273734,0.038198588776978425,-0.10395053696961377,0.13768926487323693,-0.07363413547232307, ,1.0614039897918701
0.013774604223814829,0.022142349410250284,-0.08869102211637024, ,0.014597599844398772,0.021605831729947234,-0.0896593028043683, ,0.0013793986021190972, ,0.018226516363114356,0.0006127200948107414,-0.03741599792647708,0.024836197484117545,0.014277823900147807,-0.032153712392067296, ,0.04162376995760472, ,0.028646459291734264, ,0.0006663920098138578, ,0.2361920622252824,-0.204876380420302,0.10362412631000001,2.01239438762098,1.108122013097722,-1.074226087131612, ,0.10698640536467957,0.08237581732506143,0.040022139497487445,-0.02320001999818909,0.1428298980278568,-0.09405781594337612, ,1.06321382522583
0.013774604223814829,0.022142349410250284,-0.08869102211637024, ,0.014632259460017137,0.02159995667472368,-0.08973336856522275, ,0.0014547331381297081, ,0.018226516363114356,0.0006127200948107414,-0.03741599792647708,0.024836197484117545,0.014277823900147807,-0.032153712392067296, ,0.04162376995760472, ,0.028646459291734264, ,0.0006711989679133447, ,0.2361920622252824,-0.204876380420302,0.10362412631000001,2.01239438762098,1.108122013097722,-1.074226087131612, ,0.10698640536467957,0.08237581732506143,0.040022139497487445,-0.02320001999818909,0.1428298980278568,-0.09405781594337612, ,1.0650479793548584
